nimar13/UR3e_dataset_trayectorias/data/trayectorias_completas_UR3e_JTRAJ/trayectoria_247.csv
Punto,shoulder_pan_joint,shoulder_lift_joint,elbow_joint,wrist_1_joint,wrist_2_joint,wrist_3_joint,Posicion_X,Posicion_Y,Posicion_Z,Roll,Pitch,Yaw
0,5.963980179342839,-0.7731710572712043,1.7309819945427134,-2.2242440278134863,-5.985602555020098,4.619723475792599,0.4350347069744558,0.08720113649800083,0.1573288106538328,-2.917519781700483,-0.2808848772903423,1.1659357404340682
1,5.963971235901418,-0.773171302024778,1.7309693227419074,-2.22423813975781,-5.9855911997937925,4.619701664064739,0.4350377821839623,0.08719616809414107,0.15733200842314907,-2.917547881177959,-0.2808962425958793,1.165925126258989
2,5.963909353533902,-0.7731729955485446,1.7308816427317535,-2.224197398525417,-5.985512629559535,4.619550742143738,0.4350590578883611,0.08716178893608775,0.15735413557826028,-2.917742309904928,-0.28097488350619554,1.16585168753066
3,5.9637435648664985,-0.7731775326575749,1.7306467397597955,-2.224088248942136,-5.985302132531738,4.619146408160261,0.4351160351262119,0.08706967298022406,0.15741342340722259,-2.9182632024556128,-0.28118557792947174,1.1656549722997884
4,5.963425026674646,-0.773186250035725,1.7301954087423022,-2.223878534300935,-5.984897693895042,4.618369540730067,0.4352254169374907,0.08689264112519239,0.15752736515409518,-2.919264018823859,-0.28159042869731105,1.1652771523603616
5,5.962906990584406,-0.7732004270374457,1.7294614127515953,-2.22353747707272,-5.98423995860472,4.617106127499043,0.43540304670589347,0.086604610020127,0.15771274918126588,-2.920891635962427,-0.2822489264087472,1.1646630974746313
6,5.962144773773848,-0.773221286489593,1.7283814415033778,-2.22303565961713,-5.983272194187094,4.6152471936882336,0.4356638247805334,0.08618053078848838,0.15798569881427973,-2.923286439710117,-0.28321801965028187,1.1637604824800099
7,5.961095729674445,-0.7732499954932369,1.7268950698440613,-2.22234500489334,-5.981940253539945,4.612688730638876,0.43602160704016224,0.08559632007077977,0.1583617174733695,-2.9265824178270377,-0.2845521908031047,1.1625199215637783
8,5.9597192186724595,-0.7732876662254725,1.7249447162380944,-2.2214387571708554,-5.98019253773292,4.609331624357435,0.4364890886907691,0.08482878588302023,0.15885573770938743,-2.93090725517033,-0.28630353557037513,1.1608951245086505
9,5.957976578810334,-0.773335356741229,1.7224756012552904,-2.22029146274031,-5.977979958807946,4.605081584060634,0.43707767622927673,0.08385555089231045,0.15948217277052854,-2.9363824323693173,-0.28852184427363176,1.1588430702306767
10,5.955831096488084,-0.7733940717750799,1.7194357060581553,-2.218878950624267,-5.975255902579641,4.599849070720488,0.4377973501733095,0.08265497581261422,0.16025496933449443,-2.9431233296849446,-0.2912546828899066,1.1563241934512185
11,5.953247977164683,-0.7734647635430528,1.715775730889216,-2.2171783132880143,-5.971976191435721,4.593549225609338,0.43865652085977674,0.08120608571235009,0.1611876600519386,-2.951239338053332,-0.2945474717393924,1.153302580870112
12,5.950194316059455,-0.7735483325444392,1.7114490535583478,-2.2151678873503635,-5.968099047137415,4.586101798844885,0.4396618793622873,0.07948850209247757,0.16229341456378857,-2.960833979611501,-0.2984435596946386,1.1497461737433516
13,5.946639068853465,-0.7736456283636044,1.7064116879301021,-2.2128272342944486,-5.963585053619873,4.57743107793522,0.4408182453767763,0.07748238363312529,0.1635850876792395,-2.9720050402829346,-0.3029842917710233,1.145626974322624
14,5.942553022390911,-0.7737574504717977,1.7006222424110353,-2.210137121178523,-5.958397119792578,4.5674658163238595,0.4421284137822786,0.07516837851365898,0.1650752634342858,-2.9848447172634636,-0.3082090679771269,1.1409212541950504
15,5.937908765380507,-0.7738845490289613,1.694041878437036,-2.2070795013467577,-5.952500442339756,4.556139161934781,0.443593001503873,0.07252759118145871,0.16677629379359393,-2.999439784498869,-0.3141553913529708,1.1356097631792066
16,5.932680659096877,-0.7740276256855414,1.6866342689606526,-2.2036374951400415,-5.945862468520785,4.54338858571745,0.4452102962899202,0.06954156637518438,0.16870033081204436,-3.015871779492991,-0.32085890320173516,1.1296779380995932
17,5.926844808081949,-0.7741873343842972,1.6783655569384224,-2.199795370606775,-5.938452858970611,4.529155810191858,0.44697610906636304,0.06619229309568014,0.1708593511369,-3.034217215040186,-0.32835340362234294,1.1231161114885027
18,5.9203790308463375,-0.7743642821621112,1.6692043138181982,-2.195538524213673,-5.930243450500153,4.513386737993556,0.4488836316454375,0.06246223105857522,0.17326517180776585,-3.0545478197539615,-0.33667085556955195,1.1159197210659646
19,5.913262830570739,-0.7745590299517985,1.6591214980264777,-2.19085346155656,-5.921208218896715,4.4960313804186836,0.450923301740885,0.05833436195346556,0.17592945639963015,-3.0769308115830523,-0.34584137079587973,1.1080895217409787
20,5.905477365807316,-0.7747720933839175,1.6480904134557297,-2.1857277780711684,-5.9113232417244,4.477043785969007,0.45308267747061975,0.0537922675713348,0.17886371065473514,-3.101429208890642,-0.3558931761545414,1.0996318028789056
21,5.897005421181097,-0.775003943588579,1.6360866679517236,-2.180150139743937,-5.900566661124516,4.456381968896949,0.45534632380251383,0.0488202365403867,0.18207926686220172,-3.1281021841506167,-0.36685255885061663,1.0905586147123216
22,5.887831378091353,-0.7752550079972566,1.623088131800856,-2.174110263822811,-5.888918646615991,4.434007837750623,0.4576957137088939,0.04340340102623484,0.18558725637062887,3.1261798412577546,-0.3787437893023726,1.0808880090616366
23,5.877941185413,-0.7755256711445959,1.60907489621748,-2.1675988995280355,-5.876361357895781,4.409887123918866,0.46010914712758355,0.037527904301256965,0.1893985697586876,3.094993511639019,-0.3915890202965957,1.0706443010090916
24,5.867322330197981,-0.7758162754702255,1.594029231831232,-2.160607808762959,-5.862878907639279,4.383989310176273,0.4625616911668249,0.031181099565845267,0.1935238043423875,3.061473861204484,-0.4054081610682873,1.0598583598744165
25,5.855963808376658,-0.7761271221205653,1.5779355471743597,-2.1531297468248263,-5.84845732430073,4.356287559228229,0.46502514532088857,0.024351779808487753,0.19797319886539894,3.02557249560067,-0.4202187247794743,1.0485679398217576
26,5.843856095459203,-0.7764584717506381,1.5607803471690516,-2.145158443115581,-5.833084514913641,4.3267586422559425,0.46746803576354246,0.01703043782037938,0.20275655540064788,2.9872422280412962,-0.436035647583074,1.0368180627470616
27,5.830991117236987,-0.7768105453258779,1.542552191614762,-2.136688581852661,-5.816750227891187,4.29538286746148,0.4698556430369535,0.009209554734100619,0.20788314868710658,2.946436314448727,-0.45287107699828943,1.0246614688310964
28,5.81736222048397,-0.7771835249239407,1.523241653675542,-2.1277157827797972,-5.799446015826628,4.262144008612793,0.4721500676319649,0.0008839146377129913,0.21336162333475817,2.9031075795709733,-0.47073412664891917,1.0121591533934577
29,5.802964143658092,-0.777577554536514,1.5028412783673655,-2.1182365818778117,-5.781165198293714,4.227029233588765,0.47431033803905837,-0.007949058068418224,0.21919987955210882,2.8572074154499116,-0.4896305934696886,0.9993810125693683
30,5.78779298760266,-0.7779927408711269,1.4813455410454577,-2.1082484120754157,-5.7619028246471,4.190029032924227,0.47629256581457224,-0.01728894284480733,0.22540494828285984,2.808684629327323,-0.5095626321986595,0.9864066250038523
31,5.771846186247741,-0.7784291541529597,1.458750805891623,-2.0977495839600078,-5.741655636822756,4.151137148355004,0.4780501520312245,-0.02713195397068896,0.23198285687937764,2.7574841127159906,-0.5305283802577865,0.9733262023977244
32,5.75512247731155,-0.778886828926654,1.4350552844015732,-2.0867392664884723,-5.720422032138375,4.1103505013629436,0.4795340491444728,-0.03747056454627833,0.23893848668765874,2.7035452967142093,-0.5525215238648916,0.9602417485572802
33,5.737621873001843,-0.7793657648581221,1.410258993872255,-2.075217467697976,-5.698202026093784,4.067669121720948,0.48069308178785997,-0.048293130803837694,0.2462754241681814,2.64680035046645,-0.5755307932714038,0.9472684748277157
34,5.719345630717301,-0.7798659275363578,1.3843637158891777,-2.063185015416769,-5.674997215171361,4.02309607603801,0.48147432929586403,-0.05958352496767702,0.2539958074252548,2.5871720697368854,-0.5995393711889232,0.9345365296621345
35,5.700296223748926,-0.7803872492752452,1.3573729548137425,-2.0506435379749792,-5.6508107396364355,3.976637396304243,0.48182357183123053,-0.07132078581677428,0.26210017025936433,2.5245713906847294,-0.6245241935039275,0.9221931117789264
36,5.680477311981427,-0.780929629915369,1.3292918962705687,-2.037595444915413,-5.625647246337708,3.9283020084359164,0.4816858008604869,-0.08347879691772007,0.27058728608711513,2.4588944500789767,-0.6504551149601442,0.9104050499301825
37,5.659893712594613,-0.7814929376258246,1.3001273656348222,-2.0240439077043524,-5.599512851507654,3.8781016608204895,0.48100579337862537,-0.09602600316921965,0.2794540142855611,2.3900190976683664,-0.6772939041998033,0.8993619474512901
38,5.638551370764779,-0.7820770097060279,1.2698877865195446,-2.009992840442354,-5.572415103562943,3.8260508528616426,0.47972874774233903,-0.10892517678924477,0.28869515170543264,2.3178007502111306,-0.7049930218853211,0.8892800055208047
39,5.616457330366101,-0.7826816533875245,1.2385831392629794,-1.995446880575045,-5.544362945904836,3.7721667635243112,0.4778009772503704,-0.12213324413794752,0.29830329225408386,2.242067462048477,-0.733494121963326,0.8804066531672481
40,5.593619704672021,-0.7833066466358005,1.2062249194159005,-1.9804113696039238,-5.515366679719612,3.716469179879719,0.475170655739112,-0.13560118476033772,0.3082686975667819,2.162614078758185,-0.7627261988207911,0.8730261198515462
41,5.570047647056638,-0.7839517389520918,1.1728260962289412,-1.9648923337971564,-5.4854379267789675,3.6589804256504115,0.47178860748147894,-0.1492740137120564,0.31857918185718653,2.0791953473635685,-0.7926032815300668,0.8674660789359792
42,5.545751321696102,-0.7846166521751939,1.1384010711399204,-1.9488964649003755,-5.454589592240429,3.5997252897552876,0.46760913163743273,-0.16309085756403213,0.3292200140577691,1.9915178954440977,-0.8230215503747488,0.8641054508950896
43,5.520741874269997,-0.7853010812832724,1.1029656362611715,-1.9324311008474768,-5.422835827447767,3.538730954854637,0.46259084946532303,-0.1769851334395778,0.3401738403222233,1.8992310920770197,-0.8538557212137723,0.8633833539678633
44,5.495031402662739,-0.7860046951956718,1.0665369328668706,-1.91550420647142,-5.390191992731406,3.476026925895167,0.45669756053314603,-0.1908848390027352,0.35142062985931416,1.8019170175371013,-0.8849545131571538,0.8658089754052396
45,5.468632927664959,-0.7867271375747267,1.0291334098803642,-1.8981243542150243,-5.356674620208832,3.411644958655042,0.4498990923436442,-0.20471295948377777,0.36293764689671837,1.6990801827949729,-0.9161349925857323,0.8719717218435064
46,5.4415603636748955,-0.7874680276275703,0.9907747823614954,-1.8803007048417673,-5.322301376585005,3.345618988288912,0.4421721261875676,-0.21838799560557184,0.37469945133150584,1.5901383926484374,-0.9471755894230212,0.8825502540753654
47,5.413828489399785,-0.7882269609079452,0.951481989993936,-1.8620429881465839,-5.2870910259527735,3.277985057872949,0.4335009807480709,-0.23182461368784268,0.3866779303096517,1.4744174428478276,-0.9778076449936169,0.8983177145494092
48,5.385452918557252,-0.7890035101180128,0.911277155572509,-1.8433614836666627,-5.251063392593276,3.2087812469498775,0.42387833407759135,-0.24493441629749468,0.39884236259122613,1.3511544441446066,-1.0077055397766705,0.9201383529978463
49,5.356450070576698,-0.7897972259101638,0.8701835434905216,-1.8242670013922462,-5.214239323776363,3.1380476000740116,0.4133058641331063,-0.2576268286419311,0.41115951710336707,1.2195177035287545,-1.0364758734688497,0.9489476179430697
50,5.3268371413006905,-0.7906076376888267,0.8282255182270893,-1.8047708624774268,-5.176640652560997,3.0658260553562813,0.4017947881538787,-0.26981009254624166,0.42359378656495705,1.0786551629066228,-1.0636469902497927,0.9857037115793437
51,5.2966320736863555,-0.7914342544122793,0.7854285028344669,-1.7848848799509467,-5.138290160595672,2.992160373009275,0.3893662818521001,-0.2813923564078357,0.4361073564923757,0.9277872609863257,-1.088661538853576,1.0312947397793335
52,5.265853528506766,-0.7922765653944577,0.7418189374253736,-1.764621339426994,-5.099211540918819,2.917096063892265,0.3760517606986555,-0.2922828460912449,0.4486604092744615,0.7663603360999712,-1.1108767837901277,1.0863853368086895
53,5.234520855052331,-0.7931340411067658,0.6974242376603228,-1.743992979816003,-5.059429360759216,2.8406803180562434,0.361893007540367,-0.30239309843003825,0.4612113623486798,0.5942664517494051,-1.1295796126083393,1.1511968800849184
54,5.202654061832188,-0.7940061339798861,0.6522727532349495,-1.72301297403545,-5.018969024336404,2.762961933288956,0.34694213337480656,-0.3116382359673529,0.4737171388332426,0.41210589887559046,-1.1440241490801677,1.2252450379148956
55,5.1702737872755895,-0.7948922792055888,0.606393726367338,-1.7016949097206542,-4.977856735661092,2.6839912436599347,0.3312613613015693,-0.31993825891880606,0.4861334682870548,0.22141772354201786,-1.1534968381869706,1.307109298252508
56,5.137401270433296,-0.7957918955385423,0.5598172502853502,-1.6800527699355723,-4.936119461335572,2.603820048065531,0.3149226274055984,-0.3272193282051499,0.4984152145976362,0.02475424516502564,-1.1574041938572937,1.394358509843266
57,5.104058321678964,-0.7967043860981223,0.5125742277139538,-1.6581009138836,-4.893784893354125,2.522501538773949,0.29800699652275986,-0.3334150118912411,0.5105167273542375,-0.1745178094563263,-1.1553636001210776,1.4837498067243773
58,5.070267293410536,-0.7976291391702223,0.46469632936254945,-1.635854057618367,-4.850881411903437,2.4400902299702794,0.2806038953794405,-0.33846746658152443,0.5223922124671436,-0.37269955848372144,-1.1472667321941394,1.5717109141328698
59,5.036051050751634,-0.7985655290090631,0.4162159524122986,-1.6133272547545379,-4.807438048163006,2.3566418863015315,0.2628101703532071,-0.34232852533801744,0.5339961172623611,-0.5663717441352696,-1.1332902151653532,1.6549519716594832
60,5.001432942252942,-0.7995129166390029,0.3671661790034526,-1.5905358771786084,-4.763484447105554,2.272213451421664,0.2447289819193582,-0.3449606645561225,0.5452835248302287,-0.7528956701534846,-1.1138502458801782,1.730966500210997
61,4.966436770593603,-0.8004706506563471,0.31758073472267956,-1.5674955957597039,-4.719050830297438,2.186862976536626,0.22646855256488727,-0.3463378239774738,0.5562105520523244,-0.9306373590153605,-1.0895220060702973,1.798255568467408
62,4.931086763282605,-0.801438068031158,0.2674939470903912,-1.5442223610603767,-4.674167958699058,2.1006495489493804,0.20814078939748204,-0.34644605662491046,0.566734745486446,-1.0989120315697927,-1.060953882755113,1.8562722550877524
63,4.895407543360174,-0.8024144949090647,0.21694070404807664,-1.5207323840474078,-4.628867095465272,2.013633220604948,0.18985980668452968,-0.34528398886505934,0.5768154691649698,-1.2577613921311261,-1.0287987138833372,1.9051988823834194
64,4.859424100099161,-0.8033992474130732,0.1659564124456201,-1.4970421168025987,-4.583179968745803,1.9258749366354273,0.17174037696662822,-0.342863074956651,0.5864142783648343,-1.4076902169779932,-0.9936700897297471,1.9456835110861386
65,4.823161759706432,-0.8043916324453761,0.11457695652863942,-1.4731682332335763,-4.537138734485654,1.8374364639050427,0.15389634205938252,-0.3392076352124214,0.5954952735415441,-1.5494416155269821,-0.9561211330771013,1.978615056018028
66,4.786646156024259,-0.8053909484891624,0.06283865642580455,-1.4491276097845838,-4.490775939225512,1.748380319555161,0.1364390170676475,-0.3343546721450225,0.6040254288849611,-1.6838382188696486,-0.9166389393250879,2.004964266638221
67,4.749903201231711,-0.8063964864104274,0.010778226636175336,-1.4249373061472865,-4.444124482902165,1.6587696995493424,0.1194756213994567,-0.32835346451471364,0.6119748903472401,-1.8116850241353184,-0.8756479973755665,2.0256862888838567
68,4.712959056546043,-0.8074075302597824,-0.041567265483479776,-1.400614545971564,-4.397217581648909,1.5686684072183597,0.10310777062913999,-0.3212649448636101,0.6193172385052212,-1.9337181116554711,-0.8335177444658328,2.041669011880643
69,4.675840102924084,-0.8084233580742652,-0.09416044123134926,-1.3761766975763101,-4.350088730595961,1.4781407818052408,0.08743006190584972,-0.3131608717136783,0.6260297122393186,-2.0505831475173504,-0.7905713133212662,2.0537110974108574
70,4.63857291176363,-0.8094432426791491,-0.14696365207325668,-1.3516412546602314,-4.302771666670869,1.38725162701029,0.07252878345989178,-0.3041228129284737,0.6320933899233149,-2.1628313222218893,-0.7470939327865112,2.0625173270279973
71,4.601184215604831,-0.8104664524897535,-0.1999390211553247,-1.3270258170126465,-4.255300331398919,1.2960661395361388,0.05848077568976389,-0.29424096160496865,0.6374933256065463,-2.270924494563825,-0.7033403111092369,2.068703019317154
72,4.563700878831583,-0.811492252313253,-0.25304848481665365,-1.3023480712242799,-4.207708833703553,1.204649837632763,0.04535246741946973,-0.2836128101013533,0.642218638511297,-2.3752445367098147,-0.6595408057983487,2.07280249640793
73,4.526149868372919,-0.8125199041504879,-0.30625383410199536,-1.277625771398065,-4.160031412706773,1.113068489642524,0.033199106333224496,-0.27234171127333,0.6462625550417068,-2.476104057689847,-0.6159064140328415,2.0752787606451077
74,4.488558224404393,-0.813548667997774,-0.35951675627441304,-1.2528767198599389,-4.112302400529556,1.0213880425452002,0.022064197484582694,-0.260535358569943,0.6496224033831508,-2.5737570346946166,-0.5726327108496271,2.076532896190188
75,4.450953031049481,-0.8145778026487122,-0.4127988763279671,-1.2281187478696431,-4.064556185092261,0.9296745505030248,0.01197915832023147,-0.24830421825086893,0.6522995616396184,-2.6684086692575963,-0.529902885750286,2.076912501210669
76,4.413361387080956,-0.8156065664959983,-0.4660617985003861,-1.2033696963315161,-4.016827172915043,0.8379941034056984,0.0029631930473161677,-0.23575994758996482,0.6542993612886692,-2.7602242191343,-0.48789001979378965,2.0767188951618856
77,4.37581037662229,-0.8166342183332332,-0.5192671477857269,-1.178647396505301,-3.9691497519182626,0.7464127554154585,-0.004976616398191823,-0.22301383252423743,0.6556309485078987,-2.8493367799004137,-0.4467587246489694,2.07621307631984
78,4.3383270398490446,-0.8176600181567327,-0.5723766114470554,-1.1539696507169355,-3.921558254222897,0.6549964535120845,-0.011845010867571502,-0.21017527683230613,0.6563071066246663,-2.9358540931114736,-0.40666624232802856,2.0756205176814997
79,4.300938343690245,-0.8186832279673371,-0.6253519805291243,-1.1293542130693495,-3.874086918950948,0.5638109660379307,-0.017658059025908973,-0.1973503726572733,0.6563440435458289,-3.0198644942157706,-0.3677630839035386,2.0751349387667917
80,4.263671152529791,-0.819703112572221,-0.6781551913710309,-1.1048187701532715,-3.826769855025855,0.4729218112429825,-0.022442484300798406,-0.18464057913314813,0.6557611485235678,-3.101442114484808,-0.33019326921649994,2.07492120794018
81,4.226552198907832,-0.8207189403867038,-0.7307483671189003,-1.0803809217580178,-3.7796410039729076,0.3823941858298623,-0.026234834870478778,-0.1721415321650981,0.6545807229976863,3.102533872511723,-0.2940942179139333,2.0751175319311606
82,4.189608054222164,-0.8217299842360588,-0.7830938592385563,-1.0560581615822953,-3.732734102719652,0.2922928934988809,-0.02908052074083199,-0.15994200420454424,0.6528276905185549,3.025634043399764,-0.2595963350276121,2.0758370853565022
83,4.152865099429617,-0.8227355221573238,-0.8351542890281851,-1.0318678579449978,-3.6860826463963052,0.202682273493064,-0.03103274406012123,-0.14812302831462815,0.6505292908965387,2.9509871171455493,-0.2268223313667748,2.0771692274833637
84,4.116349495747444,-0.82373483820111,-0.8868925891310195,-1.007827234496006,-3.639719851136163,0.11362612914318149,-0.03215135006269869,-0.136757196107947,0.6477147637454315,2.8785357813124732,-0.19588631973261703,2.079180447629715
85,4.080087155354714,-0.824727223233413,-0.9382720450480009,-0.9839533509269822,-3.593678616876013,0.02518765641279508,-0.032501626427664604,-0.1259081344211517,0.6444150264947556,2.808219559544131,-0.16689273170641986,2.08191517421916
86,4.0441037120937,-0.8257119757374215,-0.9892563366504565,-0.9602630836821735,-3.5479914901565444,-0.06257062755672571,-0.03215307842631376,-0.11563016102397196,0.6406623517476788,2.7399728924281606,-0.1399351056728229,2.0853965744098897
87,4.008424492171269,-0.8266884026153283,-1.0398095796927724,-0.9367731066692047,-3.5026906269227593,-0.14958695590115667,-0.031178206081219295,-0.1059681153813553,0.6364900485691541,2.673723762872109,-0.11509480376887936,2.089627459833223
88,3.9730744848602724,-0.827655819990139,-1.089896367325061,-0.9134998719698784,-3.457807755324379,-0.23580038348840304,-0.029651307760339876,-0.09695735661351601,0.6319321519164104,2.6093928904165846,-0.09243972235694334,2.094591397803124
89,3.9380783132009336,-0.8286135540074833,-1.1394818116058327,-0.8904595905509738,-3.4133741385162635,-0.32115085837343926,-0.02764733228879034,-0.0886239174227273,0.6270231239861886,2.546893510581349,-0.07202306603278365,2.100254105375539
90,3.9034602047022418,-0.8295609416374231,-1.1885315850146774,-0.8676682129750439,-3.3694205374588115,-0.40557929325330555,-0.025240798896855047,-0.08098479994454973,0.6217975707662109,2.486131738509805,-0.05388225771940716,2.10656517567863
91,3.8692439620433383,-0.8304973314762639,-1.2370119619649311,-0.8451414101112142,-3.32597717371838,-0.48902763692205653,-0.022504801258450495,-0.07404839727557569,0.6162899765585736,2.427007492222425,-0.03803805585480397,2.113460152945078
92,3.8354529337749117,-0.8314220845483639,-1.2848898603163348,-0.8228945538459822,-3.283073692267692,-0.5714389457257258,-0.019510108631889123,-0.06781502284478806,0.6105344587060798,2.36941592221463,-0.02449394323013616,2.1208629367857053
93,3.8021099850205786,-0.8323345751079438,-1.332132882887732,-0.8009426977940093,-3.240739124286243,-0.6527574550173121,-0.016324373811352925,-0.06227752882295748,0.6045645442141271,2.313249264402872,-0.013235840417917416,2.1286884605954097
94,3.769237468178286,-0.8332341914408974,-1.3787093589697172,-0.7793005580089281,-3.199001849960726,-0.7329286506117132,-0.01301145434015899,-0.057421994375076,0.5984129694345577,2.258399006531252,-0.004232180388653162,2.1368455573136926
95,3.736857193621688,-0.8341203366666001,-1.424588385837327,-0.757982493694132,-3.1578895612854136,-0.8118993402407302,-0.009630850319873034,-0.05322846470821058,0.592111503476035,2.2047582380111583,0.0025656389990432165,2.1452399017699992
96,3.7049904004015426,-0.8349924295397204,-1.4697398702627047,-0.7370024879135784,-3.1174292248626,-0.8896177250080228,-0.006237259251798164,-0.04967172249166639,0.5856907955384257,2.152224042910745,0.0072224296938154485,2.153776905487573
97,3.6736577269471073,-0.8358499052520285,-1.5141345700277546,-0.7163741283025873,-3.0776470447029958,-0.9660334708440423,-0.002880245731851843,-0.04672207425858983,0.579180245944484,2.100699797194986,0.009818041880373257,2.162364438714405
98,3.642879181767519,-0.8366922162342069,-1.5577441354368484,-0.6961105877786347,-3.038568425026143,-1.041097779961051,0.00039597846792949545,-0.044346135763210705,0.5726079002670332,2.050097244377502,0.010445891817421874,2.1709152655191373
99,3.612674114153185,-0.8375188329576595,-1.6005411508294691,-0.6762246052521546,-3.000217933060818,-1.1147634623080602,0.0035526703287603965,-0.04250760188887345,0.5660003656277101,2.000338246806262,0.009211249733828517,2.179349099265998
100,3.5830611848771756,-0.8383292447363224,-1.6424991760929042,-0.6567284663373343,-2.962619261845453,-1.186985007025788,0.006556575482915793,-0.04116798850294523,0.5593827479761332,1.9513561398336476,0.0062293580391773315,2.187594214558144
101,3.554058336896621,-0.8391229605284733,-1.6835927881748893,-0.6376339840629184,-2.9257951930285406,-1.257718653901657,0.009379861226815691,-0.04028733556371707,0.5527786089461443,1.903096649334795,0.0016234538627835206,2.1955885839693003
102,3.5256827660540893,-0.8398995097385411,-1.7237976225963165,-0.6189524795829975,-2.8897675596690435,-1.3269224648247242,0.011999972626879477,-0.03982486273540087,0.5462099407269847,1.8555183656029048,-0.004477231904633597,2.2032805396835435
103,3.4979508917789808,-0.8406584430189159,-1.7630904149638726,-0.6006947628878141,-2.8545572090368134,-1.3945563952406825,0.014399422189268735,-0.03973957070183044,0.5396971572789807,1.8085927953014658,-0.011939433467684136,2.210628988225229
104,3.470878327788917,-0.8413993330717595,-1.8014490424827438,-0.5828711135145577,-2.820183965412986,-1.4605823656068164,0.016565523750764782,-0.039990783237387875,0.5332591001614124,1.7623040356199986,-0.020627711329376824,2.217603228474683
105,3.4444798527911367,-0.8421217754508143,-1.8388525654692507,-0.5654912612581624,-2.7866665928904135,-1.52496433284694,0.018490081161246768,-0.04053862685402805,0.5269130572199866,1.716648129944384,-0.03040617237968492,2.224182437980606
106,3.4187693811838784,-0.8428253893632138,-1.8752812688635507,-0.5485643668821059,-2.7540227581740515,-1.5876683618064096,0.02016904200681089,-0.04134444646401188,0.5206747923971845,1.6716321721865988,-0.04114001817290168,2.2303549001369767
107,3.393759933757771,-0.8435098184712924,-1.910716703742302,-0.5320990028292059,-2.7222689933813866,-1.6486626967070652,0.021602126106097255,-0.04237115695583669,0.5145585849752118,1.6272732282393827,-0.05269690297832728,2.2361170458801998
108,3.3694636083972362,-0.8441747316943944,-1.9451417288313197,-0.5161031339324245,-2.6914206588428486,-1.7079178326021864,0.02279243784061273,-0.04358353186070482,0.5085772766324779,1.5835971391790926,-0.06494809413919192,2.2414723795051157
109,3.3458915507818556,-0.8448198240106857,-1.9785405520182802,-0.5005840981256577,-2.6614919059022055,-1.765406586831494,0.023746070591125906,-0.04494843138083955,0.5027423247850608,1.540637263402436,-0.07776943637557898,2.2464303505384215
110,3.3230539250877733,-0.8454448172589617,-2.0108987718653597,-0.4855485871545362,-2.632495639716981,-1.8211041704760884,0.024471710682539453,-0.04643497295759662,0.4970638607892268,1.4984332053776774,-0.09104212870122183,2.251005223850191
111,3.300959884689094,-0.8460494609404583,-2.042203419121923,-0.47100262728722786,-2.604443482058877,-1.8749882598134153,0.024980247322104132,-0.048014648280517574,0.49155075169498574,1.4570295684339236,-0.10465332761545179,2.2552149896225195
112,3.2796175428592598,-0.8466335330206616,-2.0724429982372032,-0.45695156002522896,-2.5773457341141617,-1.9270390677722649,0.025284394079637243,-0.04966139118652395,0.4862106643597596,1.4164747590175317,-0.1184965933719195,2.259080344425466
113,3.2590339434724473,-0.8471968407311172,-2.10160752887295,-0.4434000228141679,-2.5512113392841096,-1.9772394153876949,0.025398326529174616,-0.051351601282969235,0.4810501308518652,1.3768198608074935,-0.13247219770546165,2.262623765153225
114,3.2392150317049513,-0.8477392213712411,-2.129688587416122,-0.4303519297546039,-2.526047845985386,-2.025574803256019,0.025337339770593072,-0.053064128363429885,0.47607461419270125,1.3381175894035235,-0.14648731174722338,2.265868689340432
115,3.2201656247365733,-0.8482605431101283,-2.1566793484915574,-0.41781045231281233,-2.501861370450455,-2.072033482989786,0.02511752869474754,-0.05478022278661979,0.4712885736019571,1.300421332147829,-0.16045609230114022,2.2688388085688787
116,3.2018893824520305,-0.848760705788364,-2.182574626474636,-0.4057780000316056,-2.4786565595280345,-2.116606528672728,0.024755493060301607,-0.056483456973368915,0.4666955285200312,1.2637842730041098,-0.17429968348580746,2.271557476280365
117,3.184388778142326,-0.8492396417198322,-2.2073709170039524,-0.3942562012411104,-2.4564365534834414,-2.1592879083147185,0.024268068724749514,-0.058159623061156226,0.46229812078491506,1.2282585991706299,-0.18794614921039293,2.2740472272146355
118,3.167665069206132,-0.8496973164935264,-2.2310664384940035,-0.38324588376957447,-2.43520294879906,-2.2000745553067755,0.02367208572314906,-0.05979661155690876,0.45809817443635115,1.1938947840588925,-0.20133035024560691,2.27632940271629
119,3.1517182678512192,-0.8501337297753593,-2.2536611736478345,-0.37274705565416877,-2.4149557609747214,-2.238966439875993,0.022984153319549352,-0.061384275562806435,0.45409675270773253,1.1607409402073963,-0.21439377791409925,2.2784238741065828
120,3.1365471117957853,-0.8505489161099722,-2.2751569109697445,-0.36275888585177096,-2.395693387328106,-2.27596664054054,0.022220471669557835,-0.06291428483170691,0.45029421184594093,1.1288422354024972,-0.22708435475767463,2.2803488550025937
121,3.122149034969903,-0.8509429457225455,-2.2955572862779223,-0.3532796849497837,-2.377412569795191,-2.311081415564571,0.021396669326961923,-0.06437997355241898,0.4466902514714738,1.0982403655418878,-0.2393562110023684,2.282120792719685
122,3.1085201382168908,-0.8513159253206082,-2.314867824217138,-0.3443068858769225,-2.360108357730632,-2.3443202744132545,0.02052766550012312,-0.06577618538299466,0.4432839612560801,1.0689730784197329,-0.25116944426920157,2.2837543285695356
123,3.095655159994669,-0.851667998895848,-2.3330959797714317,-0.33583702461400033,-2.3437740707081725,-2.3756960492077166,0.01962755571076076,-0.06709911885344805,0.4400738637534639,1.041073743484641,-0.2624898687779171,2.2852623168549586
124,3.0835474470772137,-0.8519993485259209,-2.3502511797767442,-0.32786572090475463,-2.3284012613210843,-2.405224966180013,0.01870951932326579,-0.06834617585753541,0.437057953270968,1.014570963595999,-0.2732887592587358,2.2866558925795197
125,3.0721889252558956,-0.8523101951762607,-2.3663448644336103,-0.3203876589666246,-2.3139796779825383,-2.432926717128039,0.017785747290405753,-0.06951581555451061,0.4342337307172148,0.9894882257833393,-0.2835425939080562,2.287944578274296
126,3.061570070040874,-0.8526007995018903,-2.38139052881986,-0.31339656820154627,-2.300497227726038,-2.4588245308706345,0.01686738839426724,-0.07060741561281099,0.4315982344031975,0.9658435889211422,-0.2932327999778522,2.289136420855283
127,3.051679877362524,-0.8528714626492296,-2.39540376440323,-0.30688520390677443,-2.2879399390058284,-2.4829452447023908,0.015964512241947754,-0.0716211423538711,0.4291480668128958,0.9436494070152227,-0.30234550495320717,2.290238150035037
128,3.042505834272779,-0.8531225270579073,-2.408402300554108,-0.300845327985642,-2.276291924497298,-2.5053193758487335,0.01508608729629395,-0.07255783099984914,0.42687941739456736,0.9229120874181522,-0.3108712957260415,2.291255350502447
129,3.0340338896465564,-0.8533543772625687,-2.4204060460581043,-0.2952676896584139,-2.2655353438974197,-2.5259811929207796,0.014239972275164223,-0.07341887689712652,0.42478808145622576,0.9036318837330333,-0.31880498769575966,2.292192640842491
130,3.026248424883141,-0.8535674406946876,-2.4314371306288503,-0.2901420061730251,-2.2556503667251073,-2.5449687873704487,0.013432919330721868,-0.07420613828021227,0.42286947527843743,0.8858027234169661,-0.3261454053033753,2.2930538529810516
131,3.0191322246075405,-0.8537621884843749,-2.4415199464205766,-0.2854569435159098,-2.2466151351216626,-2.562324144945327,0.012670587515891008,-0.07492185085952707,0.4211186475852289,0.8694120701649006,-0.33289517512120687,2.2938422067971107
132,3.0126664473719256,-0.853939136262189,-2.4506811895408087,-0.28120009712280325,-2.238405726651206,-2.5780932171436373,0.011957565151505922,-0.07556855426231013,0.41953028753928684,0.8544408210515473,-0.3390605322685357,2.294560475432897
133,3.0068305963569966,-0.8540988449609449,-2.458949901563034,-0.2773579725895372,-2.2309961171010295,-2.5923259926692364,0.01129739981837247,-0.07614903012884011,0.41809872945131327,0.8408632381556748,-0.34465114059874347,2.295211137735247
134,3.001602490073372,-0.8542419216175249,-2.4663575110394116,-0.2739159663828241,-2.224358143282065,-2.6050765688865436,0.010692634807836662,-0.07666625146622126,0.41681795441510106,0.8286469140118184,-0.34967992680582183,2.2957965151615825
135,2.9969582330629674,-0.8543690201746885,-2.4729378750134106,-0.2708583465510612,-2.2184614658292405,-2.616403223275624,0.01014485096718671,-0.07712334268893568,0.4156815890997558,0.8177527697563223,-0.3541629283295274,2.2963188913621497
136,2.99287218660041,-0.8544808422828817,-2.478727320532481,-0.2681682334351363,-2.2132735320019465,-2.626368484886994,0.009654712968051331,-0.0775235496286077,0.4146829019482584,0.8081350842895216,-0.35811915470361116,2.2967806134852498
137,2.9893169393944223,-0.854578138102047,-2.483764686160725,-0.26582758037922094,-2.208759538484405,-2.6350392057966427,0.009222019103037937,-0.07787021867456626,0.4138147970472725,0.7997415521890647,-0.3615704617965992,2.297184175025672
138,2.9862632782891954,-0.8546617071034334,-2.4880913634915873,-0.2638171544415693,-2.2048823941860975,-2.6424866325611003,0.008845753775413408,-0.07816678411105775,0.413069805946429,0.7925133675121045,-0.36454143824634133,2.297532280728609
139,2.983680158965795,-0.8547323988714063,-2.4917513386605346,-0.2621165171053166,-2.201602683042176,-2.6487864776722514,0.008524141886415208,-0.078416762645844,0.412440077716233,0.7863853300375554,-0.36705930329477754,2.2978278946572557
140,2.9815346766435393,-0.8547911139052571,-2.4947912338576645,-0.2607040049892708,-2.1988786268138734,-2.6540189910124052,0.008254704343463167,-0.07862375407759088,0.4119173675419729,0.7812859699436123,-0.3691538151939926,2.298074273018699
141,2.979792036781417,-0.8548388044210137,-2.4972603488404768,-0.2595567105587291,-2.1966660478889013,-2.658269031309194,0.008034313909598861,-0.07879144702512915,0.4114930241564602,0.7771376864081853,-0.37085718938337786,2.298274983712133
142,2.9784155257794307,-0.8548764751532494,-2.4992107024464434,-0.2586504628362425,-2.194918332081877,-2.66162613759065,0.007859250589865975,-0.07892362863924714,0.41115797641720986,0.7738568951662597,-0.3722040257319133,2.298433914812274
143,2.977366481680031,-0.8549051841568932,-2.5006970741057546,-0.2579598081124521,-2.193586391434729,-2.664184600639997,0.0077252557051686755,-0.07902419723585072,0.41090271933345573,0.7713541796679858,-0.37323124430146676,2.2985552743311386
144,2.9766042648694704,-0.8549260436090403,-2.5017770453539643,-0.25745799065686104,-2.1926186270171053,-2.6660435344508198,0.007627583739497913,-0.07909717682618386,0.41071729984578026,0.7695344401480502,-0.37397802931094826,2.2986435836196484
145,2.9760862287792254,-0.8549402206107612,-2.5025110413446927,-0.25711693342864717,-2.1919608917267768,-2.6673069476818565,0.007561050964627837,-0.07914673257298903,0.41059130265602917,0.768297034641472,-0.3744857812643189,2.2987036666895655
146,2.975767690587377,-0.8549489379889113,-2.50296237236218,-0.25690721878744593,-2.191556453090084,-2.668083815112025,0.007520079749589972,-0.07917718626768191,0.41051383639836414,0.7675359057461916,-0.3747980775368733,2.298740637572118
147,2.975601901919971,-0.8549534750979416,-2.503197275334134,-0.2567980692041685,-2.1913459560622828,-2.6684881490954933,0.007498737353440223,-0.07919303099868953,0.41047352043422486,0.7671396867308472,-0.37496064208391344,2.2987598876044264
148,2.9755400195524526,-0.8549551686217083,-2.5032849553442946,-0.25675732797177186,-2.1912673858280316,-2.6686390710165266,0.0074907678818367,-0.07919894425953254,0.41045847254602774,0.766991780394533,-0.3750213253259182,2.298767074273207
149,2.9755310761110376,-0.8549554133752819,-2.503297627145091,-0.25675143991609684,-2.1912560306017257,-2.6686608827443745,0.007489615964087426,-0.07919979882042814,0.4104562977973411,0.7669704038857149,-0.375030095659569,2.2987681129766564
