nimar13/UR3e_dataset_trayectorias/data/trayectorias_completas_UR3e_JTRAJ/trayectoria_114.csv
Punto,shoulder_pan_joint,shoulder_lift_joint,elbow_joint,wrist_1_joint,wrist_2_joint,wrist_3_joint,Posicion_X,Posicion_Y,Posicion_Z,Roll,Pitch,Yaw
0,6.090460065400482,3.1247266960187687,1.0287964971805499,2.3629102627454106,0.6494809241890795,-4.59986082108686,-0.2759530183253703,0.261898228301975,0.24309869511488175,1.8707443711957608,0.13811420584163664,0.7364449288382926
1,6.090430315715637,3.1247293725577086,1.028794075982618,2.3629146208526537,0.6494727531970774,-4.599865844329957,-0.27594610764617306,0.2619070795734903,0.2430993551444655,1.8707442212279115,0.13811542657239456,0.7364238070085665
2,6.090224468677071,3.1247478923375724,1.0287773229841681,2.362944775910579,0.6494162156399713,-4.599900601663384,-0.2758982828981016,0.2619683191499266,0.24310392231524522,1.8707431844726348,0.13812387122779618,0.7362776587495519
3,6.089672985151427,3.124797508565061,1.0287324401298188,2.3630255641394324,0.6492647462210218,-4.599993719820018,-0.2757700898228966,0.2621323422993359,0.24311616015003626,1.8707404148075173,0.1381464784681938,0.7358861142735111
4,6.088613391827917,3.12489283874437,1.0286462044208677,2.363180786669084,0.6489737203289109,-4.600172632466507,-0.2755235159227141,0.26244731066614724,0.24313968131870767,1.8707351255787332,0.13818984629972655,0.7351338216762334
5,6.086890183758692,3.1250478734454954,1.0285059599834763,2.363433223816135,0.6485004272696665,-4.600463596659349,-0.2751217567367707,0.26295904126599756,0.24317795606655399,1.8707266143025576,0.13826018228287656,0.7339103790228304
6,6.084354726899225,3.1252759850725496,1.0282996101368518,2.3638046493610276,0.6478040434985882,-4.600891709300982,-0.2745289198394777,0.2637108515879975,0.24323432252927535,1.8707142947262232,0.13836323750743637,0.7321102666971968
7,6.080865160648685,3.125589936632069,1.0280156094614326,2.364315844825153,0.6468456058521719,-4.601480923595872,-0.273709679430803,0.26474336605044285,0.24331199860098976,1.8706977346198717,0.1385042271488685,0.7296327797912225
8,6.076286300390323,3.1260018905013247,1.0276429558670714,2.3649866137479596,0.6455879847800359,-4.602254065506592,-0.2726288942414782,0.26609428749162983,0.2434140950484987,1.870676697651132,0.1386877401699851,0.7263819602446269
9,6.0704895400318435,3.126523417196634,1.027171182661219,2.3658357959640637,0.643995857576845,-4.603232850209917,-0.2712512014109488,0.2677981358366816,0.243543629590897,1.8706511876671765,0.1389176404890424,0.7222665283774603
10,6.063352754545785,3.127165504141668,1.026590350617108,2.3668812818803557,0.642035681614237,-4.6044378985529,-0.26954059899894045,0.269885954649127,0.2437035416882,1.8706214936828225,0.13919696170558568,0.7171998133885157
11,6.0547602025099,3.127938564435767,1.025891040041936,2.36814002675311,0.6396756675727467,-4.605888753508969,-0.2674600298563944,0.2723849850260188,0.24389670780566938,1.8705882338526305,0.1395277972629435,0.711099682326382
12,6.044602428647531,3.1288524456222446,1.0250643428450503,2.369628064965094,0.6368857526737323,-4.607603896634003,-0.264970979709279,0.27531830529104656,0.24412595694167108,1.8705523966941957,0.13991118773477212,0.7038884669775406
13,6.032776166367991,3.129916438456705,1.0241018546061311,2.371360524302675,0.6336375739112996,-4.609600764522423,-0.2620331025033864,0.2787044342356825,0.24439408622596173,1.8705153778319754,0.14034700675573852,0.6954928880590657
14,6.019184240306941,3.1311392856753475,1.0229956666433755,2.373351640232931,0.6299044412842276,-4.611895765263277,-0.25860388632319925,0.282556895300209,0.24470387641211072,1.8704790105483924,0.14083384697562867,0.6858439760530238
15,6.003735468866767,3.1325291907632797,1.0217383580816803,2.375614770180758,0.6256613110278944,-4.61450429489633,-0.2546383735329824,0.28688373911371284,0.24505810710221415,1.870445588463499,0.14136890730382187,0.6748769879769233
16,5.986344566756961,3.1340938267228293,1.0203229879208275,2.3781624078059793,0.6208847588462009,-4.617440753868139,-0.2500889491861006,0.2916870222577885,0.24545957155404943,1.870417878717766,0.14194788262823713,0.6625313193506118
17,5.966932047534501,3.135840344841851,1.0187430871036662,2.3810061972804535,0.6155529531434978,-4.620718563488151,-0.24490521219217898,0.29696224100995317,0.24591109093038518,1.8703991241060838,0.1425648571399633,0.6487504105967156
18,5.945424126144221,3.1377753834620394,1.0169926505842974,2.384156947565183,0.6096456282565095,-4.624350182384784,-0.23903394419202714,0.3026977201811462,0.2464155278573533,1.8703930327066924,0.14321220237160298,0.6334816471013932
19,5.921752621459201,3.13990507674724,1.0150661293962575,2.3876246466874247,0.60314405768626,-4.62834712296151,-0.232419191524203,0.3088739590026195,0.24697579916371057,1.8704037536681302,0.14388048106266563,0.6166762521676883
20,5.895854858821135,3.142235063451756,1.012958422720702,2.3914184760177952,0.5960310273299978,-4.632719967852947,-0.22500247601639067,0.31546293834934397,0.2475948876756719,1.87043583796312,0.14455835799733846,0.5982891721190348
21,5.867673572580719,3.144770495688664,1.0106648699545893,2.3955468245473828,0.5882908087131212,-4.6374783863809395,-0.21672315052514712,0.32242739640936613,0.2482758529430153,1.8704941830930633,0.1452325190158941,0.5782789528597692
22,5.837156808638018,3.14751604769812,1.008181242778864,2.4000173031648537,0.579909132221104,-4.642631151010648,-0.20751891508866774,0.3297200832098715,0.2490218407716183,1.870583960933791,0.1458875994771972,0.5566076072781437
23,5.804257826982858,3.150475924615672,1.0055037372266415,2.4048367589335626,0.5708731603314198,-4.648186153806634,-0.19732650914350408,0.33728300816547185,0.24983609143586927,1.8707105281559533,0.14650612354164969,0.5332404729909139
24,5.768935004235192,3.15365387124057,1.002628965751391,2.410011289368659,0.561171460845468,-4.654150422888946,-0.18608259436833804,0.34504669897921925,0.25072194644183765,1.870879318935497,0.14706845574591562,0.5081460600829598
25,5.731151736185486,3.1570531808040765,0.9995539492951192,2.4155462567141988,0.5507939801204986,-4.660530138889203,-0.17372484122600382,0.35292949473701213,0.25168285370916926,1.871095719994707,0.14755276644621135,0.481295888696664
26,5.690876340335095,3.1606767037377765,0.996276109356555,2.42144630222025,0.5397320163015381,-4.667330651406686,-0.1601932300417921,0.36083690080037945,0.2527223710368196,1.8713649283852625,0.14793501280803553,0.45266431657904516
27,5.6480819584366415,3.164526856441888,0.9927932600593317,2.4277153604200037,0.5279781925533135,-4.674556495464419,-0.14543157434301837,0.3686610379994018,0.25384416771543744,1.8716917928438275,0.1481889371082209,0.4222283570043512
28,5.602746459034395,3.168605630053574,0.9891036002201721,2.4343566734068807,0.5155264302921787,-4.682211407965256,-0.12938927005817885,0.3762802235006699,0.25505202414798084,1.8720806400181396,0.14828608418015055,0.38996748785833774
29,5.554852340004648,3.1729145992152503,0.9852057054170715,2.441372805111642,0.5023719224180392,-4.690298344147969,-0.11202326891345615,0.38355872538052865,0.25634982934047307,1.872535087375585,0.14819583986407492,0.35586345309768075
30,5.504386631096097,3.177454930842898,0.9810985200574818,2.4487656555794963,0.48851110654627755,-4.698819494043332,-0.0933002678728621,0.39034673713727347,0.25774157612720117,1.8730578451617448,0.14788549231036388,0.31990005828039597
31,5.4513407964702205,3.1822273928943723,0.9767813494464946,2.4565364752472094,0.473941638239678,-4.707776298930207,-0.07319909868344333,0.3964806218527991,0.2592313539995982,1.8736505103641852,0.1473203179121541,0.2820629623927806
32,5.395710637241654,3.1872323631377157,0.9722538518550262,2.464685879220212,0.45866236424035267,-4.717169467791631,-0.051713292493667504,0.40178347815132076,0.26082333941601055,1.874313356243133,0.14646369350375193,0.24233946876235435
33,5.337496194018575,3.1924698379194654,0.9675160305879996,2.4732138615497083,0.4426732957016659,-4.726998993770903,-0.028853784157013652,0.406066081153486,0.2625217834809158,1.8750451215962485,0.14527723624127875,0.20071831842562166
34,5.276701649443075,3.1979394409329642,0.9625682260525299,2.482119809509786,0.4259755814201601,-4.7372641706276655,-0.004651709334451446,0.4091282509166429,0.26433099689734024,1.8758428045043702,0.14372097227320665,0.15718948988924614
35,5.213335230731541,3.203640431986673,0.9574111078261069,2.4914025178745236,0.4085714810674806,-4.747963609193995,0.020838764922368715,0.41076069800192744,0.2662553321154598,1.8767014658280894,0.14175353490393838,0.11174400975228334
36,5.147409112215035,3.20957171577248,0.9520456667247792,2.5010602031951,0.3904643384223011,-4.759095253830486,0.047537648481647446,0.4107473904363704,0.26829916262393133,1.8776140481552508,0.13933239245036094,0.0643737791087677
37,5.078939317879669,3.21573185063401,0.9464732068713382,2.5110905180769016,0.3716585546022484,-4.7706563988823385,0.07533646097193704,0.4088684780898394,0.2704668593584742,1.8785712161971184,0.13641410539116403,0.015071420983404879
38,5.007945623906987,3.2221190573349365,0.9406953377635014,2.521490565456633,0.35215956129582876,-4.782643705135442,0.10409578772208647,0.404903799061301,0.272762764234624,1.879561224754487,0.13295461171912715,-0.036169845774465886
39,4.934451461214341,3.2287312278272915,0.9347139663420966,2.5322569128794243,0.33197379399435195,-4.795053216272461,0.13364316932565617,0.398636977848415,0.2751911608483278,1.8805698202838435,0.12890953864178653,-0.0893563007439627
40,4.85848381799527,3.235565934019776,0.9285312890592448,2.5433856067759395,0.3111086652238569,-4.807880375328924,0.1637714455757879,0.38986010675705485,0.2777562424288841,1.8815801817523488,0.12423453795736089,-0.14449377920888248
41,4.78007314225988,3.24262043654607,0.9221497839465449,2.554872186739487,0.2895725377770369,-4.821120041149308,0.1942376821542452,0.37837898024271577,0.28046207717329485,1.8825729058521865,0.1188856415890106,-0.20158768787237216
42,4.699253244375219,3.2498916935331446,0.9155722026832571,2.5667116998031254,0.2673746979451652,-4.834766504843121,0.22476281259847244,0.36401882690008847,0.28331257113888203,1.8835260407361458,0.1128196329268733,-0.2606429752483952
43,4.61606119960566,3.25737636936957,0.9088015626644864,2.578898714716775,0.2445253287500197,-4.848813506240996,0.2550321277697879,0.34663045608491394,0.2863114289213695,1.8844151712414747,0.10599442884417265,-0.32166405407287185
44,4.530537250653275,3.2650708434738274,0.9018411390693662,2.5914273362243243,0.2210354831758083,-4.863254250350768,0.2846967393803079,0.3260967063625854,0.28946211239775654,1.8852135571118893,0.09836946656492457,-0.3846546744407446
45,4.442724710198217,3.272971219062619,0.894694456929243,2.6042912193407406,0.1969170574010946,-4.878081423813566,0.31337613226007255,0.30233905209066403,0.2927677978662796,1.8858923240549397,0.08990608901040273,-0.4496177479525298
46,4.352669863439097,3.281073331919179,0.8873652831958588,2.6174835836291757,0.17218276403072236,-4.8932872113598975,0.34066190125970086,0.27532419368177896,0.2962313319685263,1.886420705651441,0.0805679218808841,-0.5165551248784901
47,4.260421870633358,3.2893727591615836,0.8798576188095357,2.630997227478078,0.14684610532774134,-4.908863312265732,0.36612274250929133,0.24507042793437536,0.2998551868301762,1.886766332252474,0.07032123557302757,-0.5854673281343511
48,4.166032669637664,3.2978648280110616,0.8721756907673597,2.6448245423782994,0.12092134644533203,-4.92480095680859,0.3893107350114601,0.21165356895412787,0.30364141490566043,1.8868955611581462,0.05913528511647961,-0.6563532496096893
49,4.069556878448269,3.3065446245603045,0.8643239441913636,2.6589575272002026,0.09442348865873162,-4.941090922723629,0.4097689074292325,0.17521216947305898,0.3075916040569306,1.8867738406781078,0.04698262164793097,-0.7292098159919708
50,3.9710516977413963,3.315407002541777,0.8563070343967117,2.673387802470774,0.06736824259715846,-4.957723551659727,0.427040037072086,0.13595177874362857,0.31170683343620276,1.8863660992312274,0.03383936952407003,-0.8040316325810434
51,3.870576813413625,3.324446592096028,0.8481298189598832,2.688106624650726,0.03977200147573756,-4.9746887656355705,0.44067657461098736,0.09414796855883678,0.31598763077563513,1.8856371495439217,0.01968546398810404,-0.8808106145977166
52,3.7681942991222583,3.3336578085400004,0.8397973497868554,2.703104900411612,0.011651814327426124,-4.991976083495739,0.4502515306097838,0.0501478651020443,0.3204339317121356,1.884552097325152,0.004504845314137676,-0.9595356160831207
53,3.6639685188257065,3.343034861135342,0.8313148651812882,2.7183732009129313,-0.016974640765061944,-5.009574637366794,0.4553701007061935,0.004369942757294121,0.3250450417916404,1.883076743575272,-0.011714393486808621,-1.0401920666175453
54,3.5579660293238655,3.3525717618567157,0.8226877819127073,2.733901776079239,-0.04608908343733009,-5.027473189113359,0.45568174784855203,-0.042698132218499434,0.3298196018031853,1.881177969937023,-0.02897990706230199,-1.1227616257457116
55,3.4502554827984975,3.3622623341601092,0.8139216872846885,2.7496805688772534,-0.07567265781137389,-5.045660146794213,0.4508924054292904,-0.0905037746468642,0.33475555708795235,1.8788240971975956,-0.047295046593565176,-1.2072218641999388
56,3.3409075293536032,3.3721002217511478,0.8050223312030408,2.7656992295929665,-0.105705959263657,-5.064123581118372,0.44077641776171966,-0.1384359772345352,0.3398501314514798,1.8759852081467754,-0.06665885627300548,-1.2935459798151538
57,3.229994719555806,3.3820788973534013,0.7959956182439905,2.7819471301087515,-0.13616906119318362,-5.082851241901172,0.42518779754135555,-0.18583406658256849,0.3450998062778677,1.872633427407071,-0.08706611534004086,-1.3817025545070978
58,3.1175914069747277,3.392191671476698,0.7868475997223646,2.798413378180472,-0.16704154178957598,-5.101830574520363,0.4040703570432385,-0.2319986711085965,0.35050030540287014,1.8687431524784368,-0.1085074226016463,-1.471655356932642
59,3.0037736507233674,3.4024317011854333,0.7775844657597752,2.815086831714589,-0.19830251080114691,-5.121048736372191,0.3774662638393764,-0.27620476297231206,0.35604658624824087,1.864291231973956,-0.13096931951064042,-1.5633631935721877
60,2.8886191179984815,3.4127919988668785,0.7682125373528027,2.831956113045273,-0.2299306363029756,-5.140492613327479,0.3455225852214605,-0.31771654109445774,0.3617328376530341,1.8592570887547288,-0.15443444722223407,-1.6567798090716306
61,2.7722069866209598,3.4232654409994963,0.7587382584411795,2.8490096232115087,-0.26190417146498335,-5.1601488361877195,0.3084954199307178,-0.3558038273101277,0.3675524847593386,1.8536227873012212,-0.17888173260881926,-1.7518538348483468
62,2.6546178475762003,3.4338447769212452,0.7491681879759735,2.8662355562342063,-0.29420098132000616,-5.180003797141162,0.2667512718636945,-0.38975955746793833,0.37349820122123784,1.8473730460983762,-0.2042865979821385,-1.8485287832788337
63,2.535933607554502,3.444522637597894,0.7395089919877731,2.8836219133933088,-0.3267985695318705,-5.200043666218891,0.22076539759106847,-0.4189178690395065,0.3795619289078883,1.8404951969952679,-0.2306211892370416,-1.9467430833004002
64,2.416237391491425,3.4552915443913315,0.7297674356548696,2.9011565175049014,-0.3596741051634682,-5.220254407750917,0.17111695595748191,-0.44267222169112075,0.38573490516614206,1.8329790943801327,-0.2578546172691328,-2.0464301520074706
65,2.2956134451081827,3.466143917827875,0.7199503753714411,2.9188270271983208,-0.3928044494448326,-5.240621796822265,0.11848090056938934,-0.4604929420960465,0.39200769759695786,1.8248169775612963,-0.28595320780035305,-2.147518495812221
66,2.174147037452008,3.477072086366584,0.7100647508157366,2.936620951193261,-0.42616618254121064,-5.261131435729054,0.06361668022148141,-0.47194356313690966,0.3983702461850784,1.8160032899535212,-0.3148807551392022,-2.2499318339551757
67,2.0519243634365516,3.4880682951675666,0.7001175770182602,2.954525662576886,-0.4597356303211382,-5.281768770434588,0.007353942773905393,-0.47669533363019895,0.4048119125053264,1.8065344585403054,-0.3445987758721634,-2.3535892365591127
68,1.9290324463822301,3.499124714860294,0.6901159364299536,2.972528413080934,-0.4934888911245179,-5.302519107025439,-0.04942443163681742,-0.47453930953175066,0.41132153561387164,1.7964086366255452,-0.37506675899734465,-2.4584052689682014
69,1.8055590405566377,3.510233450311909,0.680066970990381,2.9906163473588303,-0.5274018625306893,-5.323367628167537,-0.10580151867578852,-0.4653955014245963,0.41788749412128956,1.7856254121136723,-0.4062424095409855,-2.5642901337375066
70,1.681592533714901,3.521386549395536,0.6699778741959119,3.0087765172627936,-0.5614502681265077,-5.3442994095622485,-0.16084720003387565,-0.44931864442765906,0.4244977738387686,1.7741854824717855,-0.43808188321638,-2.6711498012583803
71,1.5572218496400625,3.532576011758591,0.6598558831679054,3.0269958961209444,-0.5956096842744156,-5.3652994364024735,-0.21364002709194574,-0.4265002722637528,0.43114004029166936,1.7620902961244218,-0.47054001017173264,-2.778886119531625
72,1.4325363506834723,3.5437937975910954,0.6497082707208941,3.045261393014415,-0.6298555668805197,-5.386352619828719,-0.26328938560299464,-0.3972669122521332,0.43780171530816114,1.7493416582861179,-0.5035705063113778,-2.8873968929288067
73,1.3076257403051414,3.5550318363939826,0.6395423374307669,3.0635598670544564,-0.6641632781626665,-5.4074438133851945,-0.30895721550017435,-0.362074366233563,0.44447005681679436,1.73594129709584,-0.537126171050366,-2.9965759187890995
74,1.1825799656141491,3.5662820357474088,0.6293654037029544,3.0818781416595495,-0.6985081134185123,-5.428557829475895,-0.34987853952082776,-0.3214981966518228,0.45113224092744436,1.7218903832900054,-0.5711590706655891,-3.1063129692343754
75,1.057489119909004,3.5775362900790673,0.6191848018406108,3.1002030188325107,-0.7328653277936032,-5.449679455820682,-0.3853800879345388,-0.276220689363917,0.4577754453265478,1.7071889933937994,-0.6056207066287571,3.0666916037204746
76,0.9324433452180063,3.5887864894324943,0.6090078681127977,3.1185212934376043,-0.7672101630494499,-5.470793471911383,-0.4148963732744537,-0.2270147072874191,0.46438693299091294,1.6918355023093505,-0.640462168439755,2.9561858144660538
77,0.8075327348396772,3.600024528235381,0.5988419348226708,3.1368197674776463,-0.8015178743315965,-5.491884665467859,-0.43798266564362326,-0.1747249741865814,0.47095413521548707,1.675825885918382,-0.6756342705137027,2.8454781712707553
78,0.6828472358830897,3.6112423140678853,0.5886943223756597,3.1550852643711162,-0.8357637569376997,-5.512937848894104,-0.4543244411563599,-0.1202474291309688,0.47746473295940783,1.6591529074366491,-0.7110876725982341,2.7346968694211986
79,0.5584765518082513,3.6224317764309406,0.5785723313476531,3.173304643229267,-0.8699231730856085,-5.5339378757343285,-0.4637430171297973,-0.06450736416845115,0.4839067355413717,1.6418051520884491,-0.7467729829889779,2.6239756942280335
80,0.43451004496651535,3.6335848755145674,0.5684832345531838,3.19146481313323,-0.9039715786814257,-5.554869657129041,-0.46619724041216504,-0.008437096976226981,0.4902685557592094,1.6237658622297084,-0.7826408434397188,2.513454839123727
81,0.31103663914092117,3.6446936109661823,0.5584342691136112,3.2095527474111263,-0.9378845500875976,-5.5757181782711385,-0.4617812517485525,0.04704606494583354,0.4965390805685611,1.6050115078840637,-0.8186419940802602,2.4032820109702917
82,0.1881447220866015,3.65575003065891,0.5484326285253045,3.2275554979151746,-0.9716378108909773,-5.596468514861989,-0.4507185012695863,0.10106084121941157,0.5027077365303093,1.5855100035881924,-0.8547273157823623,2.2936139111550613
83,0.06592204807114577,3.6667462394598926,0.5384854547278284,3.245460209298799,-1.0052072586709047,-5.6171058495675235,-0.4333523303931296,0.1527813103110036,0.5087645493242228,1.5652184481545814,-0.8908478461317504,2.184618215003466
84,-0.055544359585031344,3.6776744079986017,0.528599830172124,3.26325413329374,-1.0385689917672827,-5.637615488474313,-0.4101335569064844,0.20145397827354133,0.5147001967251396,1.544080214328564,-0.92695476328044,2.0764762214131114
85,-0.1761683059682717,3.688526781435145,0.5187827698886955,3.280924642987159,-1.0716993360486473,-5.65798287754566,-0.38160559730502763,0.24641211746322583,0.5205060545456127,1.5220211422867733,-0.9629993291626096,1.96938641745674
86,-0.2958645220313514,3.6992956882285823,0.5090412135557918,3.298459247098752,-1.1045748716802457,-5.678193619077687,-0.3483877297626687,0.28708703448045036,0.526174235163023,1.498944481598345,-0.9989327793621856,1.8635693119000827
87,-0.41454876205304814,3.7099735489052312,0.4993820175675916,3.315845604257855,-1.1371724598921098,-5.698233488155416,-0.31115714033162517,0.32301606133858385,0.5316976183670525,1.474724059581008,-1.0347061404994422,1.7592740581918584
88,-0.5321379010978085,3.72055288482698,0.4898119471023856,3.3330715372805524,-1.1694692697471325,-5.718088449108858,-0.27063040385389064,0.3538471998843148,0.5370698743827342,1.4491948947827527,-1.0702699459701517,1.6567876466459133
89,-0.6485500324753293,3.7310263269595976,0.4803376681907625,3.3501250474467876,-1.2014428049091395,-5.737744671969098,-0.22754503107242596,0.3793404799496797,0.5422854790424676,1.4221400626115497,-1.1055738048240586,1.5564478572377125
90,-0.7637045652002143,3.741386624641043,0.47096573978378986,3.366994328777472,-1.2330709304109684,-5.757188548924386,-0.18264166752633026,0.3993662105543786,0.5473397211950871,1.3932719509938123,-1.1405657522473542,1.4586618335973183
91,-0.877522321451579,3.7516266543497783,0.46170260582120015,3.3836677823115893,-1.2643318994225403,-5.776406710776214,-0.13664746218901344,0.4139004057350959,0.5522287025490618,1.362204929050636,-1.1751912657195354,1.363933253710668
92,-0.9899256340326517,3.761739428473075,0.45255458729957465,3.4001340303833087,-1.295204380018931,-5.795386043395405,-0.09026103951073282,0.4230177486078798,0.5569493302482154,1.3284145438674595,-1.2093917537240322,1.2729029808061938
93,-1.100838443830451,3.771718104075329,0.443527874340524,3.416381930899094,-1.325667481948459,-5.814113704178206,-0.0441394130834442,0.4268825168458682,0.5614993025702468,1.2911750011018046,-1.2431021851053086,1.1864114372973888
94,-1.210186397275347,3.781555991666367,0.4346285182588765,3.4324005916148073,-1.3557007834007404,-5.832577138502364,0.0011129218211815058,0.42573792908270625,0.565877088219368,1.24946059225132,-1.2762472682938157,1.1055970376448419
95,-1.317896943800708,3.791246563969761,0.42586242363085813,3.4481793844128212,-1.3852843577747844,-5.850764096183218,0.04495258071442447,0.4198943853732786,0.5700818997534829,1.2017853512322207,-1.3087350870361925,1.0320563962484723
96,-1.4238994333025587,3.800783464691135,0.41723534036227683,3.4637079595791302,-1.4143988004470538,-5.868662647929785,0.08690352769536351,0.4097170674625354,0.5741136617426741,1.1459334187130013,-1.3404460808519207,0.9681138307654751
97,-1.5281252135991075,3.8101605172864765,0.4087528557567093,3.478976260080449,-1.443025255539542,-5.8862612018008384,0.12656100671571,0.3956133388675121,0.5779729742989804,1.0784902859142858,-1.371213102782661,0.9172899880654383
98,-1.6305077278904747,3.8193717337304487,0.4004203865836815,3.493974535841334,-1.4711454426878525,-5.903548519661007,0.1635932904012685,0.37802034397049444,0.5816610726473466,0.9940050987011266,-1.400783544335549,0.8851394110019718
99,-1.7309826122182415,3.8284113232846995,0.3922431711468528,3.5086933580212873,-1.4987416838092749,-5.9205137336368505,0.19774143259864646,0.3573931531455815,0.5851797834244763,0.883485609540734,-1.4287439034491647,0.8807554575196941
100,-1.8294877929251179,3.837273701266172,0.38422626135220095,3.523123633291858,-1.5257969298708467,-5.93714636257295,0.22881725786611434,0.33419374121209794,0.5885314783965673,0.7318810350148165,-1.4543647975183307,0.9192873135852149
101,-1.9259635841145126,3.845953497815415,0.376374514776205,3.5372566181137612,-1.5522947876574476,-5.953436328487988,0.256699852963237,0.3088810229266864,0.5917190262793239,0.5153537388733648,-1.4762937378984708,1.0246681792219476
102,-2.0203527851102088,3.854445566664893,0.3686925867340287,3.551083933013983,-1.5782195465398567,-5.969373973030846,0.28133084262995717,0.2819021051785738,0.5947457433251633,0.2066072381854356,-1.4921064989140589,1.2242871294489368
103,-2.11260077791594,3.8627449939072975,0.3611849223477064,3.564597576862884,-1.6035562052428363,-5.984950073936679,0.30270873584881536,0.25368485396618606,0.5976153433143317,-0.18717115860640493,-1.498500356392892,1.511046340764491
104,-2.2026556246750637,3.8708471067638572,0.3538557486143219,3.5777899411513197,-1.6282904986132092,-6.0001558614830115,0.32088262110488847,0.22463181747695743,0.6003318875499897,-0.5802971758888115,-1.4938666902623505,1.7993477768751083
105,-2.290468165130118,3.878747482352649,0.34670906647419875,3.590653824267736,-1.6524089243879239,-6.01498303494581,0.3359454719557685,0.19511549643221032,0.6028997354135618,-0.8875813971018516,-1.480530080952027,2.0040848730683614
106,-2.3759921140825035,3.886441956456906,0.339748642879079,3.6031824457752855,-1.6758987699621333,-6.029423779055581,0.3480272997032805,0.16547491045686633,0.6053234959872575,-1.1023520242559428,-1.4621852565073494,2.1186651502304343
107,-2.4591841588520715,3.893926632293332,0.33297800286030776,3.615369460688937,-1.6987481391572814,-6.0434707804534575,0.35728836032274053,0.1360133751840215,0.6076079811970327,-1.2519676700516509,-1.4414023416965256,2.1705228576448534
108,-2.5400040567367306,3.901197889280406,0.32640042159702,3.6272089737525732,-1.7209459789891515,-6.05711724414727,0.36391259013760524,0.10699737919789275,0.6097581608727962,-1.3601996491843176,-1.4195784372164377,2.1835011110775704
109,-2.618414732472118,3.9082523918067005,0.3200189164843197,3.638695553716121,-1.742482106435972,-6.0703569099676535,0.3681014108978985,0.07865643242737266,0.6117791200647918,-1.4420442476624182,-1.3974507354465153,2.172664004997426
110,-2.6943823756911947,3.915087097999185,0.3138362392014682,3.649824247612637,-1.7633472352064672,-6.083184069024117,0.37006801152734325,0.051183747572126494,0.6136760188969235,-1.5064637478755185,-1.3754254407371804,2.1470374767842317
111,-2.7678765383838346,3.92169926849154,0.3078548677800632,3.660590595035427,-1.7835330025079443,-6.095593580161136,0.3700321821367627,0.024737612688059983,0.615454055180673,-1.5588954457488302,-1.3537401120855068,2.112118159471589
112,-2.8388702323565163,3.9280864751924676,0.3020769986722267,3.670990642415159,-1.803031995814365,-6.107580886414239,0.368215746933833,-0.0005566848473995863,0.6171184299580438,-1.6027500333801832,-1.3325418286934134,2.071371596721391
113,-2.9073400266918803,3.934246610053996,0.2965045388187857,3.68102095729696,-1.821837779634416,-6.119142031466092,0.3648386170601498,-0.02460451621490254,0.6186743160896415,-1.6402454816960121,-1.3119261979242314,2.027065954954779
114,-2.973266145208388,3.9401778938398033,0.29113909771745794,3.690678642617536,-1.8399449222795958,-6.130273676102582,0.3601154625454126,-0.04733927416753554,0.6201268299552772,-1.6728737483642313,-1.291957823226005,1.9807385583462611
115,-3.0366325639199196,3.945878884893512,0.285981979491035,3.6999613509822744,-1.857349022632274,-6.140973114668912,0.3542529846326498,-0.06871955217550815,0.6214810062898791,-1.7016693109548298,-1.2726815987369886,1.9334642472152404
116,-3.0974271084954275,3.951348487907011,0.28103417495556515,3.7088672989423523,-1.8740467369137814,-6.151238291525676,0.34744775564523767,-0.0887262369661762,0.6227417761375701,-1.7273689046762883,-1.2541292377288051,1.8860149397521764
117,-3.1556415517185066,3.9565859626887603,0.2762963536885379,3.7173952812718483,-1.8900358054524684,-6.161067817504946,0.3398845831283935,-0.10735959735666152,0.6239139478716391,-1.7505097540455432,-1.2363232058816533,1.8389576871027287
118,-3.211271710947077,3.961590932932104,0.27176885609706947,3.7255446852448504,-1.9053150794517961,-6.170460986366372,0.33173534788458514,-0.12463643793539983,0.6250021911981084,-1.7714918952797973,-1.2192791796289892,1.7927168193091036
119,-3.2643175455729327,3.966363394983578,0.2674516854860842,3.7333155049125626,-1.9198845477583877,-6.179417791253245,0.32315826134141773,-0.14058737235954916,0.6260110240355358,-1.7906188623923907,-1.203007633298474,1.747614455835875
120,-3.314783254481494,3.970903726611226,0.26334450012649313,3.74070835538042,-1.9337453636301518,-6.187938941148609,0.31429748601085034,-0.15525425818999813,0.6269448021436351,-1.8081249458828168,-1.187514893540302,1.703897590335629
121,-3.362677373511243,3.9752126957729024,0.25944660532339237,3.74772448708518,-1.946899871504293,-6.196025877331324,0.30528306317975823,-0.16868782355396678,0.6278077113579108,-1.8241938886919953,-1.1728038576940172,1.6617566150992944
122,-3.4080128729134778,3.979291469384588,0.25575694548423344,3.7543658000720574,-1.9593516337654293,-6.203680789832159,0.296231093985378,-0.18094550567070172,0.628603762276605,-1.8389719843327845,-1.1588744940340225,1.6213382508670227
123,-3.450807254811945,3.9831416220886995,0.25227409618700936,3.7606348582718123,-1.9711054575136533,-6.210906633889893,0.2872441232766323,-0.19208951246936046,0.6293367872393824,-1.8525774317464732,-1.1457241966692409,1.5827547372967856
124,-3.4910826506623316,3.9867651450224013,0.24899625624844468,3.7665349037778624,-1.9821674213326137,-6.217707146407378,0.2784116797841886,-0.20218511116971719,0.6300104394340006,-1.8651071348973387,-1.133348041161231,1.5460904728140041
125,-3.5288659187120466,3.990164454585906,0.24592123979217417,3.772069871123401,-1.992544902057583,-6.224086862407633,0.2698109308057339,-0.21129914172736142,0.6306281939671553,-1.8766417249591922,-1.1217389706934533,1.5114068823582687
126,-3.5641887414597058,3.9933424012108043,0.24304646831692267,3.777244401558498,-2.0022466015435363,-6.230051131489946,0.26150741459453214,-0.21949874836570804,0.631193350738343,-1.8872493247125974,-1.110887932516855,1.4787460332473283
127,-3.597087723114857,3.996302278128355,0.240368962764701,3.7820638573272065,-2.011282573433217,-6.235606134285931,0.25355581870233623,-0.2268503189012651,0.6317090389603376,-1.896988408722437,-1.1007839779648863,1.4481333532542806
128,-3.627604487057578,3.9990478301378136,0.23788533558897473,3.786534335944679,-2.0196642499252366,-6.24075889891564,0.24600077750207422,-0.23341861907124753,0.6321782231762737,-1.905910004000402,-1.0914143351577619,1.4195796960441156
129,-3.655785773297975,4.00158326237472,0.23559178282286286,3.790662684474267,-2.0274044685421124,-6.245517317443632,0.23887766687143436,-0.23926610744433371,0.6326037106307625,-1.9140594031939588,-1.0827644607625242,1.393082926356987
130,-3.681683535936042,4.003913249079236,0.2334840761473087,3.7944565138046364,-2.0345174988983707,-6.249890162335069,0.2322133784617384,-0.24445241558546635,0.6329881598604624,-1.9214775130373205,-1.0748180753318595,1.3686291479147108
131,-3.7053550406210682,4.006042942364438,0.23155755495926744,3.797924212926878,-2.0410190694686268,-6.253887102911795,0.2260270600445914,-0.24903397780994518,0.633334090377527,-1.9282019268278672,-1.0675571854959218,1.3461936629449163
132,-3.7268629620113707,4.007977980984627,0.22980711843989798,3.801074963211608,-2.046926394355614,-6.257518721808429,0.22033081208178268,-0.2530637949676693,0.6336438933269477,-1.9342677859517714,-1.0609620954268117,1.3257417283588058
133,-3.7462754812338126,4.009724499103649,0.22822721762273623,3.8039187526860836,-2.0522582000583203,-6.2607965314284435,0.21513033388418593,-0.2565913171229034,0.6339198430054347,-1.9397084786720042,-1.0550114094062666,1.307229156688231
134,-3.763666383343601,4.011289135063196,0.22681184746188432,3.806466390311302,-2.057034752240005,-6.263732990400248,0.21042551550723465,-0.2596624306328974,0.6341641091348134,-1.9445562123398181,-1.0496820269194616,1.2906027977111625
135,-3.779115154783792,4.012679040151129,0.22555453890019006,3.808729520259128,-2.061277882496343,-6.266341520033301,0.20621097388131213,-0.26231953588744505,0.6343787697865473,-1.9488424864462455,-1.0449491314136854,1.2758009278265368
136,-3.7927070808448455,4.013901887369769,0.22444835093743265,3.8107206361893855,-2.0650110151234085,-6.268636520774159,0.2024765336075151,-0.2646017027757229,0.6345658248555356,-1.9525984875108224,-1.0407861736634807,1.26275356769541
137,-3.8045333431243726,4.0149658802042305,0.22348586269851367,3.8124530955269673,-2.0682591938858454,-6.270633388662576,0.19920765438136565,-0.26654489173416684,0.6347272099806206,-1.9558554220361646,-1.037164850544888,1.2513827437742318
138,-3.8146911169867472,4.015879761390709,0.22265916550162945,3.8139411337389504,-2.071049108784857,-6.27234853178761,0.19638580815948734,-0.26818222895281124,0.6348648108058934,-1.9586448001683814,-1.03405507992479,1.241602705658421
139,-3.82328366902264,4.01665282168481,0.22195985492645676,3.815199878611706,-2.0734091228263534,-6.273799386743679,0.1939888099781893,-0.26954432494306274,0.6349804774708789,-1.9609986799635428,-1.0314249723010156,1.2333201082979584
140,-3.8304204545086797,4.017294908629842,0.22137902288234557,3.8162453645279975,-2.0753692987889583,-6.275004435086661,0.19199110679089926,-0.27065962617502204,0.6350760392087685,-1.9629498800327723,-1.0292407997783037,1.2264341659066862
141,-3.8362172148671725,4.017816435325151,0.22090724967649322,3.817094546744098,-2.0769614259921436,-6.275983219789987,0.19036402883600304,-0.27155478986495774,0.6351533189201118,-1.9645321666508342,-1.0274669629250854,1.2208367825918054
142,-3.8407960751255494,4.018228389194408,0.22053459608213188,3.8177653156669074,-2.0782190470642856,-6.276756361700707,0.18907600790133602,-0.2722550722308139,0.6352141475747061,-1.9657804200406532,-1.0260659560238576,1.2164126632544499
143,-3.8442856413760857,4.0185423407539265,0.22025059540671155,3.8182765111310317,-2.079177484710696,-6.2773455759955965,0.18809276644112555,-0.2727847206399471,0.6352603782769911,-1.966730783396357,-1.0249983311985136,1.213039407061966
144,-3.8468210982355338,4.0187704523809815,0.2200442455600884,3.8186479366759247,-2.079873868481778,-6.277773688637229,0.18737748085452163,-0.27316736005789555,0.6352938998101569,-1.9674207972122442,-1.0242226618740395,1.2105875847023682
145,-3.848544306304756,4.0189254870821065,0.21990400112269715,3.818900373822977,-2.0803471615410256,-6.278064652830075,0.18689092138345054,-0.2734263640835092,0.635316649451648,-1.967889520595057,-1.0236955059966593,1.2089207996476712
146,-3.8496038996282884,4.019020817261417,0.21981776541374476,3.8190555963526283,-2.0806381874331397,-6.278243565476563,0.186591570070042,-0.27358520063779684,0.6353306248281444,-1.9681776404186544,-1.0233713694136353,1.2078957327426698
147,-3.8501553831539006,4.019070433488903,0.2197728825593961,3.8191363845814816,-2.080789656852085,-6.278336683633196,0.1864357170759064,-0.2736677420749648,0.6353378945516527,-1.9683275684124715,-1.0232026697840442,1.2073621685759506
148,-3.850361230192501,4.019088953268768,0.21975612956094537,3.8191665396394097,-2.0808461944091956,-6.278371440966625,0.18637753446185396,-0.2736985291136654,0.6353406073506529,-1.968383525550472,-1.0231397013639791,1.2071630012713566
149,-3.8503909798773286,4.019091629807708,0.21975370836301433,3.81917089774665,-2.0808543654011924,-6.278376464209719,0.18636912532363303,-0.27370297754864326,0.6353409993816492,-1.9683916124307852,-1.0231306009849674,1.207134216565445
