nimar13/UR3e_dataset_trayectorias/data/trayectorias_completas_UR3e_JTRAJ/trayectoria_484.csv
Punto,shoulder_pan_joint,shoulder_lift_joint,elbow_joint,wrist_1_joint,wrist_2_joint,wrist_3_joint,Posicion_X,Posicion_Y,Posicion_Z,Roll,Pitch,Yaw
0,2.8370334639779333,-1.3845372361391701,0.9136362692180309,-2.8260137938989347,-1.5868526800443972,-0.22433194200114404,-0.33789195894202373,-0.03019825819181804,0.5960028720810435,2.914726467606311,-0.15386332166911412,2.8202161579057066
1,2.8370365163047766,-1.3845370680094957,0.9136328494444281,-2.826002633288559,-1.586844252490774,-0.2243449236869882,-0.3378925930979348,-0.030199867883113133,0.59600286629106,2.914712048863529,-0.15385539236797757,2.820227693821072
2,2.8370576362744386,-1.384535904669589,0.9136091869998552,-2.825925409660594,-1.5867859397064619,-0.2244347478851466,-0.3378969804843695,-0.03021100604649121,0.5960028259991622,2.9146122849793263,-0.15380052678412956,2.8203075136994
3,2.837114218654307,-1.3845327879728528,0.9135457930912069,-2.8257185203173742,-1.5866297142873038,-0.22467539533790273,-0.3379087301438164,-0.030240848159793825,0.5960027160794167,2.914345040419206,-0.15365353365280446,2.8205213534942826
4,2.837222933256192,-1.3845267997050272,0.9134239911529229,-2.825321013308392,-1.5863295504502983,-0.22513776351828074,-0.3379312867192127,-0.030298193208894392,0.5960024968204273,2.9138317016479856,-0.15337109570179208,2.8209321937558887
5,2.837399734935718,-1.3845170610333983,0.9132259056438496,-2.824674550868272,-1.5858413964250315,-0.22588970915789744,-0.33796791791338693,-0.03039147511844712,0.5960021176059151,2.912997233097777,-0.15291173398448737,2.821600281123892
6,2.8376598735917087,-1.384502731956008,0.9129344508441012,-2.823723372854738,-1.5851231468451088,-0.2269960907748141,-0.33802169753243516,-0.03052877599341744,0.59600150874468,2.9117702640159866,-0.15223576967559596,2.8225831452841543
7,2.8380179041655733,-1.3844830107508626,0.9125333196519209,-2.8224142601865854,-1.5841346151395892,-0.22851881120138834,-0.3380954848724098,-0.03071784078877995,0.5960005718442055,2.9100832004565107,-0.151305284328269,2.8239356127281825
8,2.8384876966406964,-1.3844571334251425,0.9120069723805431,-2.820696498281651,-1.582837505924415,-0.23051686011212588,-0.338191901138041,-0.03096609302662368,0.5959991691212869,2.9078723570151257,-0.15008407976292581,2.825709818793299
9,2.839082446041824,-1.3844243731644108,0.9113406255550541,-2.8185218404947823,-1.5811953873938465,-0.2330463565515325,-0.338313303513861,-0.03128065118028077,0.5959971120435001,2.9050781032367423,-0.14853763893275018,2.8279552196055695
10,2.8398146824344495,-1.384384039781823,0.9105202407092542,-2.815844471555809,-1.5791736637118925,-0.23616059146196586,-0.3384617574435388,-0.03166834534519738,0.5959941496955614,2.901645019942441,-0.14663308927397442,2.830718605683096
11,2.840696280924203,-1.3843354791673352,0.9095325131825185,-2.8126209710075107,-1.5767395474037444,-0.23991007021148733,-0.3386390076138662,-0.03213573381698595,0.5959899572635626,2.897522061042526,-0.14433917018854706,2.8340441190730994
12,2.8417384716562375,-1.3842780727369146,0.9083648609166588,-2.808810276643591,-1.5738620317472067,-0.24434255512171382,-0.3388464480867425,-0.03268911919917268,0.5959841250267732,2.892662716722042,-0.14162620641336018,2.837973275983464
13,2.842951849814616,-1.3842112368817474,0.9070054132527849,-2.8043736479466443,-1.570511863164131,-0.24950310799566977,-0.3390850919767002,-0.03333456366701736,0.5959761482404683,2.887025174210811,-0.13846608909679883,2.8425449969207435
14,2.8443463856216984,-1.3841344224174486,0.9054429997281663,-2.799274629526128,-1.5666615136118471,-0.2554341326456388,-0.3393555410337108,-0.0340779030198685,0.5959654182835982,2.8805724726839737,-0.13483226642567073,2.8477956463567833
15,2.845931434337531,-1.3840471140332709,0.9036671388730931,-2.7934790145563317,-1.5622851529745958,-0.2621754174210157,-0.3396579554617422,-0.034924759163022,0.59595121543166,2.8732726491834435,-0.13069974562114547,2.8537590839105893
16,2.847715746259231,-1.3839488297413143,0.9016680270077378,-2.786954808214347,-1.5573586214549617,-0.2697641777361582,-0.33999202428308395,-0.03588055067126685,0.5959327035975868,2.865098872807219,-0.12604510805118838,2.860466728947937
17,2.8497074767203743,-1.3838391203257343,0.8994365270390169,-2.7796721911180393,-1.5518594019653047,-0.2782350985982389,-0.3403569365468928,-0.03695050110037722,0.5959089273616797,2.8560295647826193,-0.12084653909098295,2.867947640366129
18,2.8519141960903847,-1.383717568791952,0.8969641572574519,-2.7716034827640175,-1.545766592519193,-0.2876203771350971,-0.3407513536775188,-0.038139644730004904,0.5958788115854102,2.846048502420652,-0.11508387420577262,2.8762286131439088
19,2.854342899773918,-1.383583789815863,0.8942430801340313,-2.762723104965602,-1.539060878622835,-0.2979497651230907,-0.34117338326354685,-0.03945282944195568,0.5958411638732053,2.8351449053399995,-0.10873866253779862,2.8853342929961463
20,2.8570000182102526,-1.3834374291930458,0.8912660911170717,-2.7530075452907985,-1.5317245056665123,-0.30925061151494765,-0.34162055460146523,-0.04089471646202766,0.5957946801110898,2.823313502746714,-0.10179424905743943,2.8952873101795724
21,2.859891426872674,-1.383278163287972,0.888026607429079,-2.742435320500266,-1.5237412513160107,-0.32154790496761865,-0.34208979632751535,-0.042469776721750105,0.5957379532711561,2.810554580954161,-0.0942358760960797,2.906108433150209
22,2.863022456267863,-1.3831056984832149,0.8845186568636104,-2.730986939985286,-1.5150963979040544,-0.33486431637012815,-0.3425774164965101,-0.044182283628898956,0.5956694856263403,2.7968740107189896,-0.08605080482339338,2.9178167423765693
23,2.866397901935284,-1.3829197706286587,0.8807368665821358,-2.7186448692057366,-1.5057767048217368,-0.3492202413714265,-0.3430790854958369,-0.04603630207297908,0.5955877044708389,2.782283254342553,-0.07722845697346757,2.930429824166901
24,2.870022034446571,-1.3827201444907076,0.8766764519108987,-2.705393493128058,-1.4957703809099532,-0.36463384290824213,-0.34358982221496964,-0.04803567353436792,0.5954909813877848,2.766799352829942,-0.06776057687132214,2.943963983875829
25,2.873898609404914,-1.3825066132014951,0.8723332051377781,-2.691219079663226,-1.4850670568508342,-0.38112109373293296,-0.34410398392383285,-0.05018399721392392,0.5953776550476488,2.750444893694529,-0.05764141357198722,2.958434477317669
26,2.878030877444449,-1.3822789977080931,0.86770348430915,-2.676109743104721,-1.4736577575591763,-0.3986958189413382,-0.34461526034541984,-0.0524846071539093,0.5952460574583934,2.7332479602256488,-0.046867922704896633,2.9738557586318395
27,2.8824215942296427,-1.3820371462217207,0.8627842020267485,-2.660055407566498,-1.4615348745738752,-0.4173697385006308,-0.3451166724370729,-0.054940545381331425,0.5950945435220173,2.715242063178791,-0.03543998742192958,2.9902417422205287
28,2.887073030454681,-1.381780933666954,0.8575728142445276,-2.643047770420958,-1.448692138449359,-0.4371525097771687,-0.3456005764186565,-0.05755453117139369,0.5949215236822216,2.6964660558771674,-0.023360657679793232,3.0076060757084373
29,2.8919869818428556,-1.3815102611309344,0.8520673090655224,-2.625080265736916,-1.4351245911470183,-0.4580517700643469,-0.34605867360223985,-0.06032892660161939,0.5947254993750402,2.6769640336038387,-0.010636406945486688,3.025962420154648
30,2.897164779145952,-1.3812250553125789,0.8462661955387106,-2.6061480277175737,-1.4208285584266407,-0.4800731791104491,-0.34648202658458477,-0.06326569864610837,0.5945051009192269,2.656785217886372,0.0027225947080784796,3.045324732969677
31,2.9026072981436353,-1.3809252679717878,0.8401684924558742,-2.5862478541384877,-1.4058016222378422,-0.5032204616465004,-0.3468610823584625,-0.06636637814378744,0.5942591274068817,2.63598382580144,0.016702192260658482,3.065707548144489
32,2.9083149696428396,-1.3806108753786552,0.8337737171484605,-2.5653781697855416,-1.3900425931114992,-0.5274954499141176,-0.3471857028794396,-0.06963201606360132,0.5939865880783977,2.6146189237249025,0.03128394341851858,3.087126247466068
33,2.9142877894771537,-1.3802818777626773,0.827081874284444,-2.5435389898929137,-1.373551482551182,-0.5528981261933626,-0.34744520358924613,-0.07306313758221744,0.5936867445907035,2.5927542639941863,0.04644480370808952,3.109597315354855
34,2.920525328506208,-1.3799382987619617,0.8200934446651875,-2.5207318835810497,-1.3563294754245856,-0.5794266653305937,-0.34762840034340137,-0.07665969458449741,0.5933591535155166,2.570458101707131,0.06215680059253979,3.1331385687881497
35,2.9270267426150633,-1.3795801848724365,0.8128093740223036,-2.4969599372946316,-1.3383789023549633,-0.6070774772663166,-0.3477236651179372,-0.08042101729186105,0.5930037083367378,2.547802987332031,0.07838669850331925,-3.1254159547359284
36,2.933790782713597,-1.37920760489706,0.8052310618145165,-2.4722277182405485,-1.3197032121125585,-0.6358452495630379,-0.3477189907767205,-0.08434576581652285,0.5926206801551156,2.5248655289321604,0.09509565710095089,-3.0996746194961733
37,2.9408158047358905,-1.378820649395029,0.797360350024523,-2.4465412378258655,-1.3003069440060369,-0.6657229899331157,-0.3476020650664826,-0.0884318825278844,0.5922107562560676,2.5017261156117834,0.11223888568521728,-3.072799944897765
38,2.9480997796396156,-1.3784194301309887,0.7891995119558541,-2.419907915095796,-1.28019570027392,-0.6967020687666117,-0.34736035387111736,-0.09267654619823515,0.5917750756552452,2.4784685912859086,0.12976529752179985,-3.0447673613012727
39,2.955640303405424,-1.3780040795242412,0.7807512410297367,-2.3923365401716703,-1.2593761184760153,-0.7287722616591429,-0.3469811936007937,-0.0970761289652871,0.5913152607083503,2.4551798651080774,0.14761716900360666,-3.0155505931532884
40,2.963434607036332,-1.377574750097955,0.7720186395819546,-2.3638372376889056,-1.2378558438848504,-0.7619217919397345,-0.3464518924162296,-0.10162615720562933,0.5908334438590928,2.431949441946752,0.165729810086678,-2.9851218457027375
41,2.97147956655711,-1.3771316139283738,0.7630052076597101,-2.334421430234978,-1.2156435018771048,-0.7961373731986705,-0.3457598397962453,-0.10632127745263026,0.5903322886042262,2.4088688533282174,0.18403125439768006,-2.953452124081808
42,2.979771713013668,-1.3766748620940268,0.7537148318184861,-2.304101801787391,-1.1927486703250425,-0.8314042518153459,-0.34489262375040186,-0.11115522851126364,0.5898150037791925,2.386030966490209,0.20244197985876208,-2.9205117083917993
43,2.9883072424724424,-1.376204704124936,0.7441517739189061,-2.272892261151646,-1.1691818519879436,-0.8677062494861189,-0.34383815476184626,-0.11612082091769345,0.5892853503138388,2.363529146949369,0.22087467365215138,-2.8862708099687864
44,2.997082026019786,-1.3757213674518265,0.7343206599235972,-2.2408079053992136,-1.144954446903537,-0.9050258057521628,-0.3425847953231129,-0.12120992486030763,0.5887476396762101,2.341456248742467,0.23923405885180474,-2.850700434588285
45,3.0060916197613534,-1.375225096855336,0.7242264686940505,-2.2078649833055026,-1.1200787247794342,-0.9433440205273166,-0.3411214937048247,-0.12641346761887515,0.5882067233144374,2.3199034068749764,0.2574168040252362,-2.813773477400513
46,3.0153312748214867,-1.3747161539152226,0.7138745207874835,-2.17408085878783,-1.094567797384558,-0.9826406966259388,-0.3394379203801158,-0.13172144148782422,0.5876679725225514,2.2989586092828476,0.2753115414123876,-2.775466071099583
47,3.0247959473426067,-1.3741948164595754,0.7032704672537,-2.139473974343393,-1.0684355909405794,-1.022894382290758,-0.3375246053227189,-0.13712292302723575,0.5871372482953164,2.2787050317129602,0.2927990236582957,-2.735759202300826
48,3.0344803084845955,-1.3736613780140225,0.6924202784319534,-2.1040638144872363,-1.041696818513346,-1.064082413720725,-0.33537307421104295,-0.14260610433089665,0.5866208608988058,2.2592191293713113,0.30975245309714194,-2.6946406003179018
49,3.0443787544241885,-1.3731161472509408,0.6813302327478068,-2.0678708691902266,-1.0143669524043173,-1.1061809575988646,-0.3329759814114207,-0.14815833681553595,0.5861255190657041,2.240568494956714,0.3260380206575152,-2.6521068865141113
50,3.0544854163543578,-1.3725594474386646,0.6700069055099951,-2.0309165973170167,-0.9864621965419947,-1.1491650536201277,-0.3303272374882065,-0.1537661878211251,0.5856582689245087,2.22280951452965,0.3415156927843422,-2.608165950408999
51,3.0647941704837005,-1.371991615890696,0.6584571577072862,-1.9932233900640228,-0.957999458873356,-1.1930086570192424,-0.3274221289034618,-0.15941551007205523,0.5852264229866275,2.205984880752139,0.35604028337173904,-2.562839490553952
52,3.0752986480358273,-1.3714130034149121,0.6466881248053424,-1.954814534397389,-0.9289963237552856,-1.237684681098567,-0.32425742753089104,-0.16509152378737627,0.584837479740551,2.1901210566324267,0.3694628424788118,-2.516165624583123
53,3.085992245248749,-1.3708239737627754,0.6347072055435823,-1.9157141764909595,-0.8994710243460085,-1.283165039755942,-0.3208314876230135,-0.170778910950632,0.584499034633044,2.1752258199199894,0.38163238348752465,-2.468201435886166
54,3.096868133374262,-1.3702249030785436,0.6225220507320414,-1.8759472851642502,-0.8694424149965214,-1.32942069001254,-0.3171443279415807,-0.17646192096263566,0.5842186834480417,2.161286054921949,0.39239795453454795,-2.4190252878254817
55,3.1079192686773385,-1.3696161793484765,0.6101405520482344,-1.8355396153204167,-0.838929943642027,-1.3764216745407187,-0.31319769689197785,-0.18212448661132036,0.5840039193187573,2.148265989139189,0.4016110382266513,-2.368738705933636
56,3.1191384024355115,-1.3689982018500473,0.5975708308340164,-1.7945176713842252,-0.8079536241933634,-1.4241371641918745,-0.3089951186940334,-0.187750349009722,0.5838620248209561,2.1361060896546453,0.40912823642728474,-2.3174676111591612
57,3.1305180909382635,-1.368371380601151,0.584821226892444,-1.752908670740024,-0.7765340089284393,-1.4725355005242906,-0.3045419188738192,-0.19332318988494612,0.5837999607890388,2.1247228310133135,0.41481416604327204,-2.265362690603946
58,3.1420507054864117,-1.3677361358093132,0.5719002872846372,-1.710740507169712,-0.7446921608836642,-1.5215842383309923,-0.2998452276710738,-0.1988267693564916,0.5838242536649039,2.1140095158449292,0.41854446030754117,-2.212598722870689
59,3.1537284423914986,-1.3670928973208996,0.5588167551266404,-1.6680417142907094,-0.7124496262453823,-1.5712501881675969,-0.29491396032029904,-0.20424506713037874,0.5839408833264779,2.1038382682671206,0.4202087422569135,-2.1593727365331805
60,3.1655433329751754,-1.3664421040703247,0.5455795583862844,-1.6248414289939284,-0.679828406741304,-1.6214994588801663,-0.2897587735736579,-0.20956242486443455,0.5841551734424706,2.0940632299258692,0.4197134177760366,-2.105900970589447
61,3.1774872535685925,-1.3657842035292622,0.5321977986800472,-1.5811693548817425,-0.646850932031938,-1.6722975001330591,-0.28439199828198214,-0.21476368733738396,0.584471686457438,2.0845248775980365,0.41698412928657796,-2.052414716832422
62,3.189551935511784,-1.3651196511558523,0.5186807400699159,-1.5370557257059572,-0.6135400321020237,-1.7236091449367823,-0.2788275483260479,-0.21983433998637714,0.584894125322543,2.0750552640189386,0.4119677211074844,-1.9991552414449663
63,3.201728975153057,-1.3644489098439125,0.5050377978602488,-1.4925312688057821,-0.5799189096519666,-1.7753986521758405,-0.2730808066818381,-0.2247606403691737,0.5854252440496043,2.065483878430234,0.4046335945177422,-1.9463680883636783
64,3.214009843848378,-1.3637724493721455,0.4912785273946347,-1.4476271685457966,-0.5460111124892639,-1.827629749136594,-0.2671684898977008,-0.22952974116147118,0.5860667690775108,2.055643748800652,0.3949743724688261,-1.8942971415196928
65,3.2263858979607605,-1.3630907458533492,0.47741261285275693,-1.4023750297539246,-0.5118405059199442,-1.8802656740351031,-0.2611084927441711,-0.2341298024179614,0.5868193333007603,2.0453773778163766,0.383005845719267,-1.843178852883638
66,3.238848388859652,-1.3624042811836252,0.46344985604725264,-1.3568068411594014,-0.47743124513999424,-1.9332692185449871,-0.25491971525455787,-0.23855009100659486,0.5876824244210538,2.0345421253856584,0.36876622693194855,-1.7932370224899024
67,3.2513884729203206,-1.361713542491589,0.44940016522057635,-1.3109549388307469,-0.4428077476267951,-1.9866027703252693,-0.2486218747922098,-0.24278106536604022,0.5886543490475922,2.023014717498882,0.3523147894968798,-1.744678449336312
68,3.2639972215232427,-1.361019021587577,0.43527354384185934,-1.2648519696137337,-0.4079946655305522,-2.0402283555482352,-0.24223530614534156,-0.24681444403103087,0.5897322136943358,2.0106946620388344,0.33373000708731826,-1.6976896710287033
69,3.2766656310534916,-1.3603212144128587,0.42108007940377246,-1.2185308545693583,-0.3730168580657285,-2.094107681427279,-0.2357807529504139,-0.2506432567117712,0.5909119235090263,1.9975064684848745,0.31310733409982133,-1.6524348933131274
70,3.2893846329001226,-1.359620620488843,0.4068299322193867,-1.172024752411808,-0.33789936390247677,-2.1482021787447594,-0.2292791539700417,-0.2542618770925157,0.5921881992263834,1.9834006816132674,0.2905567749282062,-1.609055096981317
71,3.302145103455562,-1.3589177423662888,0.39253332421903564,-1.1253670229464383,-0.3026673735580716,-2.2024730443798495,-0.22275142789306723,-0.2576660369200191,0.5935546124749562,1.9683538338694566,0.26620038295145104,-1.567668214423369
72,3.3149378741149915,-1.3582130850745142,0.3782005277471764,-1.078591190507737,-0.26734620178834345,-2.25688128383639,-0.21621826037729028,-0.26085282137275656,0.5950036391927869,1.952367487630118,0.24016981161185658,-1.528370200761838
73,3.3277537412757408,-1.3575071555706049,0.3638418543592501,-1.0317309073972938,-0.23196125997910633,-2.311387753770739,-0.20969989701655783,-0.2638206461239256,0.5965267305311439,1.935466574182124,0.21260401439580362,-1.4912367879117814
74,3.340583476336668,-1.356800462188624,0.3494676436185452,-0.9848199173217771,-0.19653802853759839,-2.365953204519624,-0.20321594578369043,-0.2665692169222471,0.5981144002580634,1.9176972435223945,0.18364716224093022,-1.4563257014482458
75,3.3534178356975524,-1.3560935140888206,0.33508825189305835,-0.9378920188308992,-0.1611020292839056,-2.4205383226279955,-0.19678519228227814,-0.2690994729018065,0.5997563273243195,1.8991244241641445,0.1534468194706481,-1.4236791336652457
76,3.36624757075848,-1.3553868207068398,0.32071404115235314,-0.8909810287553812,-0.12567879784239677,-2.475103773376882,-0.19042543083977784,-0.2714135151835889,0.6014414719331771,1.8798292625816395,0.12215239528696767,-1.3933262940968054
77,3.3790634379192293,-1.3546808912029304,0.30635536776442684,-0.844120745644938,-0.09029385603315987,-2.52961024331123,-0.18415331410046393,-0.27351452263628445,0.6031582031707533,1.859906575007908,0.08991386847774054,-1.3652858937542987
78,3.391856208578659,-1.3539762339111558,0.2920225712925677,-0.7973449132062371,-0.05497268426343194,-2.5840184827677692,-0.17798422334076025,-0.27540665691320226,0.6048944360136704,1.8394624059346456,0.05688076868493719,-1.3395684554923628
79,3.404616679134098,-1.3532733557886016,0.27772596329221644,-0.7506871837408671,-0.01974069391902633,-2.6382893484028607,-0.1719321612445707,-0.2770949590687199,0.606637775341467,1.8186117519855007,0.02320138801007014,-1.3161783761240806
80,3.417335680980729,-1.352572761864586,0.263475816107831,-0.7041810815833176,0.015376800244224498,-2.6923838457203404,-0.16600966835700476,-0.2785852401767066,0.6083756644477697,1.7974764792449258,-0.010977808835477929,-1.2951156937989967
81,3.430004090510978,-1.3518749546898676,0.249282351669744,-0.657859966538942,0.05035460770904798,-2.7462631715993844,-0.16022776389697072,-0.27988396842246127,0.610095535469823,1.7761834376178482,-0.045512610099937276,-1.2763775358155767
82,3.4426128391139006,-1.3511804337858557,0.23515573029102677,-0.6117569973219288,0.08516768980529177,-2.7998887568223507,-0.15459591106835807,-0.28099815511896303,0.6117849591419908,1.7548627573795492,-0.08026135282378953,-1.259959237580124
83,3.4551529231745683,-1.3504896950938194,0.2211060394643507,-0.5659050949932753,0.1197911873184907,-2.853222308602632,-0.14912200648158086,-0.2819352420102094,0.6134317913249822,1.7336463001835685,-0.11508512235685515,-1.2458551336102446
84,3.4676154140734603,-1.3498032304240954,0.2071432826588464,-0.5203369063987511,0.15420044809844047,-2.906225853112516,-0.1438123927968976,-0.2827029920739601,0.615024313866589,1.7126662286174497,-0.1498478870901064,-1.234059027412059
85,3.4799914681858426,-1.3491215269052992,0.1932773681169686,-0.4750847676068801,0.18837105466776016,-2.958861778011026,-0.13867189324160772,-0.2833093858301764,0.6165513675078687,1.6920536541127282,-0.18441659773004584,-1.2245643499571497
86,3.4922723368811637,-1.3484450664335321,0.1795180976513544,-0.4301806673468924,0.22227885183046325,-3.011092874971779,-0.13370386624658168,-0.28376252490850035,0.6180024747555857,1.6719373219474543,-0.21866127822027212,-1.2173640175619713
87,3.5044493765224374,-1.3477743251215923,0.1658751554416873,-0.38565621044671783,0.2558999742805206,-3.062882382210838,-0.12891027810309388,-0.284070544338134,0.6193679508907068,1.6524422937623287,-0.2524551333126873,-1.2124500003742325
88,3.5165140584656287,-1.3471097727481824,0.1523580968315561,-0.3415425812709332,0.28921087421043445,-3.1141940270145616,-0.12429179126563579,-0.2842415347073218,0.6206390015660874,1.6336885922167987,-0.285674695823223,-1.2098126134487415
89,3.528457979059045,-1.34645187220712,0.1389763371253192,-0.2978705071587475,0.3221883489197994,-3.164992068267452,-0.11984786572475181,-0.284283475008553,0.6218078057557826,1.6157897791248204,-0.31820003467773544,-1.209439544498373
90,3.540272869642722,-1.345801078956545,0.1257391403849628,-0.25467022186196697,0.3548095684238781,-3.2152413389800225,-0.1155768707478648,-0.28420417665081554,0.6228675831447088,1.5988514477761508,-0.34991504277521307,-1.2113146366653857
91,3.551950606547809,-1.3451578404681315,0.11265560822696585,-0.21197142898296306,0.3870521030621603,-3.2649072888166284,-0.11147620423477611,-0.2840112387925462,0.6238126453815879,1.5829696223799488,-0.38070782120543717,-1.2154164517500394
92,3.5634832210959573,-1.3445225956762936,0.09973466861915936,-0.1698032654126509,0.41889395110693606,-3.3139560266233286,-0.10754241695504599,-0.28371201483827974,0.6246384309513844,1.5682290728192236,-0.4104711731433859,-1.221716649705174
93,3.5748629095987092,-1.3438957744273974,0.08698506467758671,-0.12819426476845042,0.45031356637186093,-3.362354362955746,-0.10377133902152748,-0.2833135896571347,0.6253415237472072,1.5547015711185261,-0.4391032164685412,-1.2301782339638108
94,3.5860820433568823,-1.3432777969289682,0.07441534346336898,-0.08717232083226012,0.481289885820523,-3.4100698526068998,-0.10015820610098304,-0.28282276682953605,0.6259196557281917,1.542444136744672,-0.4665081185145703,-1.2407537289313695
95,3.5971331786599587,-1.3426690731989013,0.06203384477956231,-0.046764650988426304,0.5118023571750161,-3.4570708371350802,-0.09669778306048996,-0.28224606501562394,0.6263716943322722,1.5314973400350353,-0.4925969491200483,-1.2533833747171497
96,3.608009066785472,-1.342070002514669,0.04984868996802083,-0.00699775966171412,0.5418309665245058,-3.5033264873916794,-0.09338448298783951,-0.28158972236860164,0.6266976155651629,1.521883754893034,-0.5172886392642992,-1.2679934430955468
97,3.6187026639983935,-1.3414809728625325,0.037867770706260906,0.032102598244715175,0.5713562659337823,-3.5488068460490547,-0.09021247979523753,-0.2808597077909718,0.6268984639046981,1.5136066708179998,-0.5405110222236139,-1.2844947951491443
98,3.6292071415505203,-1.3409023603867487,0.02609873780431693,0.0705114539113465,0.6003594010518531,-3.593482870128379,-0.08717581290811391,-0.2800617377517197,0.6269763003395734,1.50664918706941,-0.5622019228895407,-1.3027818117246244
99,3.639515895679863,-1.34033452883878,0.014548990001608253,0.10820466116434257,0.6288221387204915,-3.6373264735274935,-0.08426848284462739,-0.27920129734683613,0.6269341400013673,1.500973814673636,-0.5823102495447285,-1.3227318290452958
100,3.6496225576100323,-1.3397778290265039,0.003225662763795878,0.14515893303755245,0.6567268945828149,-3.680310569548756,-0.08148453679698055,-0.27828366429158413,0.6267758809477831,1.496522701687147,-0.600797032247123,-1.3442052001394225
101,3.6595210035496253,-1.3392325982634221,-0.007864382920350632,0.18135187833456268,0.6840567606918437,-3.7224091134268944,-0.07881814362420277,-0.2773139345768548,0.6265062257136442,1.4932185713231378,-0.6176363445428346,-1.3670460758016998
102,3.669205364691614,-1.3386991598178692,-0.018714571742096897,0.21676203819071826,0.7107955331190752,-3.763597144856864,-0.07626365794989261,-0.2762970485990409,0.6261305972658826,1.4909664208759346,-0.6328160420827258,-1.3910839562085051
103,3.6786700372127337,-1.338177822362222,-0.029318625275879917,0.25136892263515254,0.7369277395630531,-3.8038508305216796,-0.0738156733211118,-0.27523781667771974,0.6256550509819461,1.4896559741646067,-0.6463382541948914,-1.416136008341721
104,3.687909692272867,-1.3376688794221088,-0.03967057318244693,0.28515304715282586,0.762438666957931,-3.8431475066203022,-0.07146906462100246,-0.2741409430021759,0.6250861842210981,1.4891648167275608,-0.658219573341864,-1.442010080271119
105,3.696919286014434,-1.3371726088256182,-0.049764764411993845,0.3180959692465377,0.7873143890820318,-3.881465721395453,-0.06921902013397237,-0.27301104719040026,0.6244310449787718,1.4893620790077968,-0.6684909025959644,-1.4685082788464803
106,3.7056940695617784,-1.3366892721525088,-0.05959587840730274,0.3501803249989708,0.8115417941664393,-3.9187852776614998,-0.06706106383605488,-0.27185268279675034,0.6236970410099922,1.4901124773685814,-0.6771969417254989,-1.4954309215294808
107,3.7142295990205527,-1.3362191141834179,-0.06915893630688297,0.381389865634719,0.8351086125035403,-3.955087275332276,-0.06499106862308822,-0.2706703522612449,0.6228918506834324,1.4912804846310028,-0.6843953161765918,-1.5225806345907067
108,3.7225217454771102,-1.3357623623490709,-0.07844931214810691,0.4117094940823032,0.8580034440556021,-3.9903541539489504,-0.06300526129576908,-0.26946851794930526,0.6220233366878177,1.492734387253188,-0.6901553774722271,-1.5497663550194938
109,3.7305667049978877,-1.3353192261794897,-0.08746274407035104,0.4411253015362311,0.8802157860633466,-4.024569735207881,-0.06110022019442247,-0.2682516090810489,0.6210994635618458,1.4943499977809958,-0.6945567254388979,-1.5768070047353038
110,3.738361008628796,-1.3348898967532035,-0.09619534551813347,0.4696246040189953,0.9017360606545113,-4.057719265488475,-0.05927286641945721,-0.2670240244900599,0.620128219862158,1.4960138268671834,-0.6976875196493709,-1.6035346411160203
111,3.7459015323946048,-1.334474546146456,-0.10464361644425191,0.49719597894312084,0.9225556424524148,-4.089789458381007,-0.057520449588617344,-0.265790131279767,0.6191175456254938,1.497625573099393,-0.6996426577663475,-1.6297969415825242
112,3.753185507298331,-1.3340733268824156,-0.11280445451292076,0.5238293016731896,0.9426668861845338,-4.120768537214505,-0.05584052907240498,-0.26455425955877077,0.6180752656248873,1.4990998526498567,-0.7005219013848494,-1.6554589435492448
113,3.7602105293206236,-1.3336863713803846,-0.12067516630291353,0.5495157820878758,0.9620631542910543,-4.1506462775845785,-0.054230951618012925,-0.26332069353308946,0.6170090287691321,1.5003671552294702,-0.7004280258981901,-1.6804040253315262
114,3.7669745694191574,-1.3333137914050082,-0.1282534785106999,0.5742480011419557,0.9807388445334579,-4.179414049881303,-0.052689826223440074,-0.26209365931242806,0.6159262538526371,1.501374069978345,-0.6994650611519073,-1.7045341705750736
115,3.7734759835280123,-1.332955677515483,-0.13553754915358462,0.5980199474283756,0.9986894176030807,-4.207064861817025,-0.0512154970609087,-0.2608773098490386,0.6148340817317055,1.5020828691361783,-0.6977366760527549,-1.7277696028215084
116,3.7797135225570666,-1.3326120985147674,-0.142525978772841,0.6208270537402418,1.015911424729679,-4.23359340095426,-0.049806515175894926,-0.2596757074718647,0.6137393338850623,1.5024705659168487,-0.695344744878076,-1.7500479052575688
117,3.7856863423913807,-1.3322831008987894,-0.14921782163685693,0.6426662336328688,1.0324025352899975,-4.258996077233502,-0.04846160960848592,-0.25849280450632084,0.6126484772124176,1.502527576019751,-0.692388117616732,-1.7713227535715088
118,3.791394013890585,-1.3319687083056566,-0.15561259694427187,0.663535917985814,1.048161564416339,-4.283271065501119,-0.047179658500493125,-0.2573324224824932,0.6115675948359007,1.5022561117692188,-0.6889616026925708,-1.7915623892862929
119,3.7968365328882685,-1.3316689209648658,-0.16171030002710607,0.6834360915648956,1.0631885006051336,-4.306418348037163,-0.045959660667612826,-0.2561982304332847,0.6105023625956383,1.5016684272976122,-0.685155158794747,-1.8107479502710837
120,3.8020143301913647,-1.3313837151465102,-0.16751141355391885,0.7023683295842416,1.0774845333255145,-4.328439757083271,-0.04480070803330738,-0.2550937227707798,0.6094580308725006,1.5007850161368048,-0.6810532836927488,-1.8288717580138607
121,3.8069282815795393,-1.3311130426104907,-0.17301691873292535,0.7203358342682824,1.0910520806278567,-4.349339017370451,-0.04370195924200758,-0.2540221972057514,0.6084394113277318,1.499632842431301,-0.6767345818675048,-1.8459356410442864
122,3.8115797178045785,-1.330856830055724,-0.1782283065151451,0.7373434714138218,1.1038948167523701,-4.36912178864699,-0.04266261469522491,-0.2529867331435198,0.607450868119936,1.4982436664404333,-0.6722714892773772,-1.8619493533371319
123,3.8159704345897723,-1.3306149785693515,-0.1831475887975471,0.7533978069520506,1.1160176997376725,-4.387795708206284,-0.0416818931864506,-0.2519901709512245,0.6064963131438004,1.49665250595934,-0.6677301321693413,-1.8769291275050368
124,3.820102702629307,-1.3303873630759495,-0.18777730962617634,0.7685071435105533,1.1274269990293329,-4.4053704334146895,-0.04075901025003416,-0.2510350924485882,0.6055792048306714,1.494896258886505,-0.6631702970499609,-1.8908963862351866
125,3.8239792775876493,-1.330173831786737,-0.19212055639929604,0.782681556975386,1.1381303230884479,-4.421857684239375,-0.03989315828607607,-0.25012380292801106,0.6047025500573081,1.4930124988893565,-0.658645490270205,-1.9038766222270869
126,3.827603410098936,-1.329974205648786,-0.1961809710705329,0.795932933053062,1.148136647000233,-4.437271285776192,-0.039083488477824224,-0.24925831496173545,0.6038689087243667,1.4910384459915584,-0.6542030677329109,-1.9158984468702784
127,3.8309788557663573,-1.3297882777942298,-0.19996276135200697,0.8082750038326116,1.1574563400825495,-4.451627210777493,-0.03832909448006106,-0.2484403342050199,0.6030804005887399,1.489010106652194,-0.6498844176612458,-1.9269928007863881
128,3.8341098851615474,-1.3296158129894726,-0.2034707119174768,0.8197233843475926,1.1661011934945096,-4.464943622180006,-0.03762899782614646,-0.24767124735570478,0.6023387139623769,1.4869615730942864,-0.6457251819150005,-1.937192314714146
129,3.837001293823967,-1.3294565470843989,-0.20671019560546933,0.8302956091381217,1.1740844478450088,-4.477240915632671,-0.03698213497722745,-0.24695211238310638,0.6016451159229367,1.4849244687820577,-0.6417555038274528,-1.9465308065490214
130,3.8396584122603006,-1.3293101864615817,-0.20968718462242597,0.8400111688129241,1.1814208208013293,-4.488541762024526,-0.036387345919057186,-0.24628365109330747,0.6010004637171442,1.4829275255690286,-0.6380002928433515,-1.9550428991853845
131,3.842087115943836,-1.3291764074854926,-0.21240826174585026,0.8488915466113403,1.1881265346976884,-4.49887115001252,-0.03584336419913135,-0.245666244054169,0.6004052170745571,1.4809962777225831,-0.6344794983009543,-1.9627637437233643
132,3.844293835313848,-1.3290548559517104,-0.21488063152741654,0.8569602549653714,1.1942193441438045,-4.508256428549388,-0.03534880828873956,-0.24509992786193904,0.5998594511862058,1.479152858424377,-0.6312083864876359,-1.9697288332415896
133,3.8462855657749904,-1.3289451465361304,-0.21711213149613728,0.8642428720616762,1.199718563633458,-4.5167273494114655,-0.034902174150239815,-0.24458439469234952,0.5993628701380657,1.4774158851731822,-0.6281978166041902,-1.975973893418736
134,3.8480698776966893,-1.3288468622441738,-0.21911124336148946,0.8707670784036585,1.204645095153091,-4.524316109726599,-0.03450182888876749,-0.24411899404265713,0.5989148206222827,1.4758004215680274,-0.6254545125063329,-1.981534837598436
135,3.849654926412522,-1.3287595538599961,-0.2208871042165632,0.8765626933734572,1.2090214557903396,-4.531057394501986,-0.03414600536883931,-0.2437027365370805,0.5985143057786517,1.474318004074037,-0.6229813280730765,-1.9864477752778773
136,3.8510494622196054,-1.3286827393956973,-0.22244951774118116,0.8816617117939698,1.2128718053426235,-4.5369884191519505,-0.03383279767947251,-0.2433342996364746,0.5981599990439695,1.4729767234680167,-0.6207775048015107,-1.9907490643542864
137,3.852262840377983,-1.32861590354053,-0.2238089654050559,0.8860983404909204,1.2162219739257027,-4.542148972025907,-0.03356015733579946,-0.2430120350637003,0.5978502579069778,1.4717813516582947,-0.6188389207703705,-1.9944753987141766
138,3.8533050311100165,-1.3285584971101094,-0.2249766176709147,0.8899090348548304,1.2190994895822387,-4.546581456936132,-0.03332589011041803,-0.24273397772886218,0.5975831374809881,1.470733505437053,-0.6171583304720483,-1.9976639238575338
139,3.854186629599771,-1.3285099364956217,-0.22596434519765163,0.8931325354031392,1.2215336058903903,-4.5503309356856585,-0.03312765339340943,-0.2424978559131886,0.5973564038145133,1.469831839432517,-0.6157255952041143,-2.0003523741918725
140,3.8549188659923965,-1.3284696031130339,-0.22678473004345223,0.8958099043421113,1.2235553295723394,-4.553445170596086,-0.03296295398587338,-0.2423011024467143,0.597167546862141,1.4690722610809082,-0.6145279037554225,-2.0025792264030606
141,3.855513615393523,-1.3284368428523021,-0.2274510768689404,0.8979845621289781,1.2251974481029047,-4.555974667035486,-0.03282914623777074,-0.2421408665928122,0.5970137930331736,1.4684481608386095,-0.6135499830322901,-2.0043838639170146
142,3.8559834078686483,-1.328410965526582,-0.22797742414032074,0.899702324033913,1.2264945573180848,-4.557972715946229,-0.03272343044673437,-0.24201402633195002,0.5968921172245735,1.4679506511149198,-0.612774298062943,-2.005806747918275
143,3.856341438442512,-1.3283912443214367,-0.22837855533249796,0.9010114367020625,1.2274830890236084,-4.5594954363728,-0.032642851440259704,-0.2419172007175182,0.5967992542274283,1.4675688075409252,-0.612181240503789,-2.006889590705902
144,3.8566015770985036,-1.3283769152440463,-0.22867001013224675,0.9019626147155959,1.2282013386035233,-4.560601817989721,-0.03258429726925144,-0.24184676195798738,0.5967317093731598,1.467289906216492,-0.6117493043635678,-2.0076755273608295
145,3.8567783787780314,-1.3283671765724174,-0.22886809564132138,0.9026090771557227,1.2286894926287966,-4.561353763629342,-0.032544497946429086,-0.24179884686180958,0.5966857682574771,1.4670996505129554,-0.6114552471725241,-2.008209281791671
146,3.856887093379914,-1.3283611883045918,-0.2289898975796043,0.9030065841647028,1.2289896564658074,-4.561816131809722,-0.0325200241683267,-0.24176936726392725,0.5966575053474813,1.466982380868102,-0.6112742342687159,-2.008537323235975
147,3.8569436757597835,-1.3283580716078558,-0.22905329148825482,0.9032134735079209,1.2291458818849543,-4.562056779262471,-0.03250728596481015,-0.24175401903520297,0.5966427912412823,1.4669212608079314,-0.6111799632679961,-2.008708009239118
148,3.8569647957294464,-1.328356908267949,-0.22907695393282745,0.9032906971358896,1.2292041946692693,-4.562146603460641,-0.03250253122479816,-0.2417482892580062,0.5966372983111575,1.4668984321741116,-0.6111447651478417,-2.008771711025773
149,3.8569678480562875,-1.3283567401382745,-0.22908037370642775,0.9033018577462597,1.2292126222228932,-4.562159585146476,-0.03250184405107036,-0.2417474611319593,0.5966365044219595,1.4668951322344062,-0.61113967772993,-2.00878091703056
