nimar13/UR3e_dataset_trayectorias/data/trayectorias_completas_UR3e_JTRAJ/trayectoria_058.csv
Punto,shoulder_pan_joint,shoulder_lift_joint,elbow_joint,wrist_1_joint,wrist_2_joint,wrist_3_joint,Posicion_X,Posicion_Y,Posicion_Z,Roll,Pitch,Yaw
0,4.1691083649063,2.7065139578602375,1.106217568235762,-5.625598971147454,0.4490615794747477,-2.249102361930431,0.34472068302023606,0.158230641096956,0.2519970496350951,2.1946439999110035,-0.43809331632517307,-0.43158855485993625
1,4.169091428856309,2.706516327248035,1.1062157661401537,-5.625597845104626,0.44905984670146437,-2.2491085013625303,0.3447234394584267,0.15822479435055006,0.2519974039822798,2.194639936304702,-0.4380918386828782,-0.4316067833600986
2,4.1689742432204255,2.7065327217565427,1.1062032968973323,-5.625590053674813,0.4490478571207096,-2.249150981944179,0.34474250935347844,0.15818433762346298,0.2519998558208034,2.1946118188926746,-0.43808161434469,-0.43173291165401556
3,4.168660291909385,2.7065766441827104,1.106169890626146,-5.625569179703474,0.4490157359091942,-2.249264791407274,0.34479357586296033,0.1580759388407111,0.25200642455653643,2.1945364888909964,-0.43805422164592195,-0.4320708195110242
4,4.168057081300877,2.7066610345721873,1.1061057054596513,-5.625529073481551,0.4489540197931505,-2.2494834593123714,0.3448915963589551,0.15786762012409608,0.252019045526282,2.1943917501901735,-0.4380015876470147,-0.43272005220765053
5,4.167076084757242,2.706798277981414,1.1060013216414695,-5.625463849056567,0.44885365137178723,-2.249839077161393,0.34505073602566994,0.15752870227183677,0.2520395712556241,2.1941563534269943,-0.4379159809329591,-0.4337758748850646
6,4.165632687143166,2.7070002122397048,1.1058477356221412,-5.6253678805437195,0.4487059734407444,-2.250362318510336,0.34528427864215483,0.15702973869428388,0.2520697727456354,2.19380997927409,-0.4377900037090781,-0.43532932529982
7,4.163646129343384,2.707278135711338,1.105636354155483,-5.62523579843698,0.44850272331554825,-2.2510824590819807,0.3456045184348377,0.15634244125732266,0.2521113407828472,2.193333221093136,-0.4376165833274595,-0.4374672652617031
8,4.161039452780372,2.7076428150576404,1.105358988394943,-5.625062485920187,0.4482360271550658,-2.2520273968785993,0.3460226365059483,0.1554396005593059,0.25216588726709244,2.1927075670893834,-0.437388963372054,-0.44027243103328373
9,4.157739443932044,2.7081044929990767,1.1050078479899568,-5.62484307517815,0.4478983942849601,-2.2532236722946624,0.34654856497826014,0.1542950032520061,0.2522349465520607,2.191915382097273,-0.4371006944244788,-0.4438234829471561
10,4.153676578849454,2.708672896077333,1.1045755351823021,-5.62457294370774,0.44748271152114505,-2.254696488229549,0.3471908416534768,0.15288334909830642,0.2523199767935873,2.1909398891193,-0.43674562462671723,-0.44819505447901525
11,4.148784967674488,2.7093572424174073,1.1040550389024562,-5.624247710628987,0.44698223749324006,-2.256469730200253,0.347956457669636,0.15118017052923044,0.2524223613009216,2.1897651507328786,-0.43631789015114825,-0.45345780099740696
12,4.1430022991575655,2.7101662494896925,1.10343972886595,-5.62386323299618,0.44639059696802513,-2.2585659864540943,0.348850700369564,0.14916175751280406,0.2525434098864283,2.188376050472646,-0.43581190568238465,-0.4596784483942701
13,4.1362697851753305,2.711108141872067,1.1027233496697257,-5.623415602108959,0.44570177517289566,-2.2610065680814224,0.34987699336390254,0.14680509057145452,0.2526843602094069,2.1867582742885494,-0.43522235500931405,-0.4669198417842501
14,4.1285321052483575,2.7121906590119793,1.1019000148884905,-5.6229011398234165,0.4449101121193172,-2.263811529128328,0.35103673559352194,0.14408778477898668,0.25284637910996566,2.184898292172928,-0.434544181819394,-0.4752409944451575
15,4.11973735105884,2.713421062988536,1.1009642011710734,-5.622316394863193,0.4440102969262806,-2.2669996867093505,0.3523291410707166,0.14098804752955274,0.25303056392914963,2.1827833400428083,-0.433772580780589,-0.4846971371568491
16,4.109836970968295,2.714806146274587,1.099910742336781,-5.621658139130573,0.4429973621437566,-2.270588641120186,0.3537510809085242,0.13748465279710298,0.2532379438118126,2.180401401956635,-0.4329029889893989,-0.4953397680812129
17,4.098785714535253,2.7163522394988147,1.0987348234717536,-5.620923364017579,0.441866678076151,-2.274594795950394,0.35529692923326833,0.13355693449264927,0.25346948098903116,2.177741192737721,-0.4319310778561327,-0.5072167033118701
18,4.086541577032961,2.7180652192078187,1.097431975025319,-5.620109276717074,0.4406139471057592,-2.2790333781961083,0.3569584146159654,0.1291848013766253,0.253726072037188,2.1747921410697515,-0.4308527454910279,-0.5203721282085463
19,4.073065743967079,2.719950515628205,1.0959980669063512,-5.619213296533856,0.4392351980162213,-2.283918458372743,0.358724478750806,0.1243487757929767,0.2540085491111957,2.1715443731228286,-0.4296641096469163,-0.5348466496179415
20,4.058322535593373,2.7220131204286697,1.0944293025796235,-5.618233051195753,0.437726780315977,-2.289262970627702,0.3605811442493046,0.11903005825859424,0.2543176811497011,2.167988696761588,-0.4283615012660672,-0.5506773490701826
21,4.0422793514354165,2.7242575944820895,1.0927222131621661,-5.617166373164719,0.4360853585617203,-2.295078732853086,0.36251139360096685,0.11321061966440638,0.2546541750504831,2.164116586380105,-0.4269414586705088,-0.5678978370276452
22,4.024906614802287,2.7266880756276057,1.0908736515196207,-5.616011295947938,0.43430790668185454,-2.301376466798401,0.3644950615680872,0.1068733225208438,0.25501867681464835,2.159920168401404,-0.42540072242666976,-0.5865383082510566
23,4.00617771730626,2.7293082864327123,1.0888807863625964,-5.61476605040891,0.43239170229994717,-2.308165818183267,0.3665087435246146,0.10000207230844389,0.2554117726586284,2.15539220747258,-0.42373623090667817,-0.6066255983362626
24,3.98606896338051,2.732121541955343,1.0867410963430266,-5.613429061078558,0.43033432105818475,-2.315455376810126,0.36852572250655485,0.09258199957217368,0.2558339900933766,2.150526093379626,-0.4219451165600456,-0.6281832414639121
25,3.964559514796807,2.7351307575059574,1.0844523641505226,-5.611998942466319,0.42813363094082757,-2.323252696676949,0.3705159180024746,0.0845996729240599,0.25628579897057346,2.1453158286993,-0.42002470290101135,-0.6512315293935259
26,3.9416313351832124,2.738338456409628,1.0820126706087316,-5.61047449537124,0.42578778659766486,-2.3315643160899464,0.37244585976439654,0.07604334259197948,0.25676761249604446,2.1397560171984886,-0.4179725022083859,-0.6757875717229612
27,3.9172691345417756,2.7417467777681277,1.0794203887716909,-5.60885470319308,0.42329522366746947,-2.3403957777762736,0.3742786901478281,0.06690321357293703,0.25727978821098896,2.133841852984705,-0.4157862139265619,-0.7018653574241644
28,3.891460313766234,2.745357484222017,1.076674178020184,-5.6071387282434,0.4206546531014527,-2.349751648996742,0.3759741986800214,0.05717174681801522,0.25782262894200236,2.1275691104046426,-0.41346372374842016,-0.729475817656269
29,3.864194909159708,2.749171969712729,1.0737729781580974,-5.605325908056667,0.4178650554867194,-2.359635541658524,0.37748889269243685,0.04684398619613314,0.2583963837212428,2.120934134680862,-0.4110031033532669,-0.7586268898476367
30,3.8354655369523973,2.7531912672446572,1.0707160035087742,-5.603415751701345,0.41492567536972247,-2.3700501324278638,0.3787761079210262,0.03591790825943679,0.25900124867844654,2.113933833270098,-0.4084026107657288,-0.7893235830292545
31,3.8052673378192816,2.7574160566472443,1.067502737011372,-5.601407936090995,0.41183601557971816,-2.380997182842784,0.37978616296072054,0.02439479107135347,0.25963736790683106,2.1065656679200195,-0.4056606912948247,-0.8215680443930261
32,3.773597921397815,2.7618466723370654,1.0641329243172177,-5.59930230229537,0.4085958315522208,-2.3924775594257937,0.3804665613431158,0.012279597568310565,0.2603048343052285,2.0988276473948386,-0.40277597900622053,-0.8553596270400547
33,3.740457310805623,2.7664831110799177,1.060606567886163,-5.597098851851513,0.4052051256524574,-2.404491253796598,0.3807622447745484,-0.00041863188016912425,0.2610036903990811,2.0907183208337923,-0.399747298675051,-0.8906949588758191
34,3.7058478871582023,2.771325039752907,1.05692392108294,-5.594797743074854,0.4016641414988229,-2.4170374027848065,0.3806159007126302,-0.01368638385611085,0.2617339291431818,2.0822367717004773,-0.39657366816172535,-0.9275680126014577
35,3.669774334086614,2.7763718031065325,1.0530854822735185,-5.592399287370305,0.39797335828633496,-2.4301143085426373,0.3799683269620656,-0.027505280157353956,0.26249549470926503,2.0733826122751005,-0.3932543011487943,-0.9659701767430489
36,3.6322435822551844,2.781622431526777,1.0490919889214596,-5.589903945543359,0.3941334851100886,-2.4437194586576307,0.37875885532699344,-0.04185169763162283,0.263288283261751,2.0641559786361445,-0.3897886101733712,-1.0058903276539337
37,3.5932647538792013,2.787075648797191,1.0449444116842732,-5.587312324111184,0.39014545528871136,-2.4578495462653542,0.37692583556224557,-0.05669640796648121,0.2641121437250967,2.0545575260728177,-0.3861762098867038,-1.0473149024188353
38,3.5528491072426096,2.7927298798609805,1.0406439485097727,-5.584625171613724,0.3860104206878181,-2.472500490162111,0.3744071799187632,-0.07200424643251564,0.2649668785463335,2.0445884248648034,-0.3824169204703914,-1.0902279725827284
39,3.511009981215711,2.7985832585830943,1.0361920187324307,-5.581843374924792,0.3817297460434657,-2.4876674549176476,0.37114096748239284,-0.08773381907681341,0.26585224445645905,2.0342503563616114,-0.3785107711373603,-1.1346113186222782
40,3.467762739772857,2.8046336355123107,1.0315902571697357,-5.578967955563168,0.37730500328560823,-2.503344870987865,0.3670661062689144,-0.10383725822393039,0.26676795323439845,2.023545509290069,-0.37445800364511206,-1.1804445050731613
41,3.423124716510153,2.8108785856433234,1.026840508218547,-5.576000066003696,0.3727379658615516,-2.519526454827523,0.36212304967537307,-0.1202600363337761,0.2677136724772664,2.012476576215353,-0.3702590757489145,-1.2277049562227236
42,3.377115159163148,2.81731541617883,1.0219448199514507,-5.572940985988381,0.3680306030594086,-2.53620522900295,0.3562545624183989,-0.13694084826254224,0.2686890263806398,2.0010467500785203,-0.36591466452346677,-1.2763680322744089
43,3.329755174124536,2.8239411742916167,1.0169054382131153,-5.569792118837485,0.3631850743315534,-2.5533735423047523,0.3494065295399556,-0.15381157174803925,0.26969359653249575,1.989259720731673,-0.36142566948317323,-1.3264071058879887
44,3.2810676709618534,2.8307526548866484,1.011724800716648,-5.566554987760625,0.358203723618077,-2.5710230898605198,0.3415288004615542,-0.17079731547161126,0.27072692272437554,1.9771196713909696,-0.3567932154334198,-1.3777936389981684
45,3.2310773069351746,2.837746408363152,1.0064055311399496,-5.56323123216787,0.35308907367024184,-2.5891449332475363,0.33257605845679933,-0.18781656331631974,0.271788503783214,1.9646312749273107,-0.3520186549881266,-1.4304972598133314
46,3.1798104315148095,2.8449187483767053,1.000950433222071,-5.559822603980833,0.34784382037393646,-2.6077295206054862,0.3225087043317536,-0.2047814224318796,0.27287779842711857,1.9517996899152357,-0.3471035706923336,-1.4844858398963459
47,3.1272950308990004,2.852265759601324,0.9953624848595679,-5.5563309639437755,0.3424708270731306,-2.626766706749164,0.3112937416000109,-0.2215979814240904,0.2739942261481957,1.9386305563617592,-0.34204977669259246,-1.5397255712301523
48,3.0735606725316202,2.859783305491548,0.9896448322028585,-5.5527582779347,0.33697311889333015,-2.646245773281182,0.2989056490648544,-0.2381667834112028,0.27513716812531425,1.925129991039195,-0.33685931990238255,-1.5961810431726093
49,3.018638449619871,2.867467036044527,0.9838007837525771,-5.549106613276445,0.33135387706503183,-2.666155448704677,0.28532722552686307,-0.2543834168414748,0.2763059681694501,1.911304582348832,-0.3315344806146744,-1.6538153192074363
50,2.9625609256519754,2.8753123955621107,0.9778338044559307,-5.545378135047787,0.3256164332471781,-2.6864839285360205,0.2705503903746399,-0.27013922486436054,0.2774999337040098,1.8971613846460904,-0.32607777251898434,-1.712590013401309
51,2.9053620789148806,2.8833146304129325,0.9717475098030555,-5.54157510239453,0.3197642638506124,-2.7072188954175256,0.2545769231405488,-0.28532213172153553,0.2787183367822325,1.8827079119622205,-0.32049194208573745,-1.7724653664809238
52,2.8470772470119536,2.8914687967944968,0.9655456599233714,-5.537699864840612,0.3138009843615333,-2.728347539230156,0.2374191247607629,-0.29981758211275433,0.2799604151434901,1.8679521310626404,-0.31477996728648655,-1.8334003214483385
53,2.7877430713806732,2.8997697684952684,0.9592321536819383,-5.5337548585991945,0.30773034366495,-2.7498565772062333,0.2191003833125627,-0.31350958684465113,0.28122537330998254,1.8529024537877927,-0.30894505562434743,-1.8953525986578572
54,2.7273974418103357,2.9082122446567564,0.9528110227758121,-5.529742602883758,0.30155621836813706,-2.7717322740421464,0.1996556274473312,-0.3262818653467326,0.28251238372499865,1.8375677286285583,-0.30299064145493104,-1.9582787702831146
55,2.6660794409597455,2.9167907575356025,0.9462864258304,-5.525665696219206,0.295282607124089,-2.793960462011058,0.17913165162130046,-0.3380190729048617,0.2838205879335947,1.8219572314949988,-0.29692038258397296,-2.0221343341089075
56,2.6038292888749157,2.9254996802656668,0.9396626424958163,-5.521526812752955,0.2889136249549755,-2.8165265610756136,0.15758729856283396,-0.348608097792014,0.28514909780618697,1.8060806556442892,-0.2907381561337217,-2.0868737865883586
57,2.5406882875067645,2.934333234620117,0.9329440675432387,-5.517328698566037,0.2824534975755964,-2.83941559900065,0.135093486206995,-0.3579394109474449,0.2864969968052253,1.789948100741026,-0.2844480536759048,-2.152450695112319
58,2.4766987652288104,2.9432854987735126,0.9261352049612632,-5.513074167984191,0.275906555716836,-2.8626122314659033,0.11173306856337017,-0.3659084485493116,0.2878633412947659,1.773570061030679,-0.2780543756346919,-2.2188177694443345
59,2.4119040213548724,2.9523504150638935,0.9192406620522604,-5.5087660998889625,0.2692772294491183,-2.886100762178716,0.08760052263463029,-0.37241700582288767,0.2892471618924296,1.756957412614622,-0.2715616249684784,-2.285926932280903
60,2.346348270656766,2.9615217977548656,0.9122651435287313,-5.5044074340288,0.26257004250586213,-2.9098651629867467,0.06280145652894156,-0.377374618804233,0.2906474648628896,1.7401213998228517,-0.26497450014445106,-2.353729388903109
61,2.2800765878819993,2.970793340797689,0.9052134456096625,-5.500001167330153,0.2557896066069354,-2.933889093990678,0.03745193725187816,-0.38069990960898836,0.29206323355171415,1.723073620688126,-0.25829788742477894,-2.4221756958919447
62,2.2131348522714718,2.980158625593364,0.8980904501168825,-5.495550350208568,0.24894061578211044,-2.958155923656924,0.011677640251692822,-0.38232187010013435,0.29349342985807053,1.7058260115327197,-0.2515368524878574,-2.491215828885569
63,2.1455696920771716,2.9896111287547176,0.8909011185714172,-5.491058082879779,0.24202784069451902,-2.9826487489303375,-0.014387173458246534,-0.3821810587575286,0.2949369957444972,1.688390830686214,-0.24469663141223935,-2.5607992493624794
64,2.0774284290798715,2.9991442298684916,0.8836504862898457,-5.486527511670819,0.2350561229641066,-3.00735041534692,-0.04060084295859609,-0.38023068606160415,0.29639285478166016,1.67078064135967,-0.2377826210548341,-2.6308749704398684
65,2.0087590231068253,3.0087512192574293,0.8763436564806562,-5.481961825331101,0.22803036949108785,-3.032243537146531,-0.06681564244071843,-0.37643756483284035,0.29785991372573506,1.6530082937081156,-0.23080036885845676,-2.7013916216814047
66,1.9396100165494672,3.01842530574236,0.868985794340601,-5.477364251343524,0.22095554677940088,-3.057310517385592,-0.09287924851543697,-0.37078290371812433,0.2993370641258163,1.6350869061193845,-0.22375556212703016,-2.7722975129131378
67,1.8700304788811093,3.0281596244042905,0.8615821211510535,-5.472738052235569,0.21383667526016292,-3.082533568049797,-0.11863631935611348,-0.36326292436596397,0.3008231839585089,1.6170298457730476,-0.21665401680954466,-2.843540697050315
68,1.8000699511746365,3.0379472443464866,0.8541379083743631,-5.468086521890392,0.20667882361512446,-3.107894730166822,-0.1439301621802594,-0.35388928574596273,0.30231713928664933,1.5988507085183148,-0.2095016658363517,-2.9150690319413974
69,1.7297783906202042,3.0477811764565637,0.8466584717502109,-5.463412981857924,0.19948710310012463,-3.133375893919032,-0.1686044629886163,-0.3426893024858117,0.30381778593892694,1.5805632981243918,-0.20230454705349343,-2.986830241238668
70,1.6592061150429371,3.0576543811685735,0.8391491653919656,-5.458720777665967,0.19226666186854552,-3.1589588187561883,-0.1925050504363276,-0.32970594794489627,0.3053239712069916,1.5621816049608674,-0.19506879080250758,-3.058771974307407
71,1.5884037474206245,3.067559776225088,0.8316153758830397,-5.454013275131289,0.18502267929476773,-3.184625153508157,-0.21548166428175025,-0.3149976369248769,0.3068345355565116,1.5437197841691035,-0.18780060719461686,-3.1308418651877363
72,1.5174221604014204,3.0774902444392893,0.8240625163732445,-5.449293856670726,0.17776036029762504,-3.2103564564976175,-0.23738969810190874,-0.29863778732813506,0.30834831434852533,1.525192133388514,-0.18050627312930048,3.08019771655468
73,1.4463124208215343,3.087438641457056,0.8164960206751462,-5.444565917612272,0.17048492966385848,-3.236134215652771,-0.2580918859173089,-0.28071416459854653,0.3098641395673341,1.506613070103888,-0.1731921191080403,3.008028379994485
74,1.3751257342229373,3.0973978035190486,0.808921337360422,-5.439832862506181,0.16320162637157282,-3.2619398686200496,-0.2774599030490445,-0.26132801729305954,0.3113808415511355,1.4879971086815567,-0.1658645158945674,2.935887499704889
75,1.3039133893710568,3.1073605552227974,0.801343923856215,-5.4350981014360595,0.1559156979136901,-3.2877548228768196,-0.2953758529317112,-0.24059301651226697,0.3128972507215493,1.4693588371633246,-0.15852986107313327,2.8638269316980742
76,1.2327267027724584,3.11731971728479,0.7937692405414907,-5.430365046329968,0.1486323946214041,-3.313560475844098,-0.311733613697594,-0.21863401604114008,0.314412199308183,1.4507128938875673,-0.15119456555628044,2.7918982661226934
77,1.1616169631925723,3.1272681143025567,0.7862027448433921,-5.425637107271514,0.14135696398763775,-3.339338234999252,-0.32644002108007353,-0.19558565380141932,0.3159245230643975,1.432073944006886,-0.14386504009329354,2.720152773622157
78,1.0906353761733705,3.137198582516758,0.7786498853335972,-5.420917688810952,0.13409464499049517,-3.3650695379887123,-0.3394158674858675,-0.1715908184896128,0.31743306297048435,1.4134566559710613,-0.13654768182993177,2.648641352514404
79,1.0198330085510552,3.1471039775732725,0.7711160958246711,-5.416210186276274,0.12685066241671727,-3.3907358727406813,-0.3505967008670787,-0.14679900797860454,0.31893666692052114,1.3948756780430072,-0.12924886096927446,2.5774144767747176
80,0.9492607329737908,3.1569771822852823,0.763606789466426,-5.411517982084317,0.11963022118513833,-3.416318797577836,-0.35993341118079547,-0.12136460812343752,0.32043419138927826,1.3763456149137558,-0.12197490758244106,2.5065221448033874
81,0.8789691724193567,3.1668111143953594,0.7561273528422737,-5.406844442051849,0.1124385006701385,-3.4417999613300467,-0.3673925966404998,-0.09544512198019925,0.3219245030756554,1.3578810044804568,-0.11473209861672506,2.4360138289601885
82,0.8090086447128844,3.1765987343375555,0.7486831400655831,-5.402192911706671,0.10528064902509993,-3.4671611234470725,-0.3729567065168597,-0.0691993800904975,0.32340648051928417,1.339496294848865,-0.10752664514719118,2.3659384258482494
83,0.7394291070445265,3.186333052999486,0.7412794668760359,-5.397566712598716,0.09816177750586197,-3.4923841741112778,-0.3766239618101241,-0.042785762394492374,0.3248790156870745,1.321205821618792,-0.10036467991607792,2.296344207329725
84,0.6702801004871706,3.1960071394844167,0.7339216047359807,-5.392969138611139,0.09108695479417517,-3.5174511543503386,-0.3784080595680732,-0.016360461528016606,0.3263410155266925,1.3030237855077504,-0.0932522452024609,2.2272787722560756
85,0.6016106945141217,3.2056141288733544,0.7266147749267912,-5.3884034522714215,0.08406120132115613,-3.542344276149949,-0.3783376708442095,0.009924184229705136,0.327791403484149,1.2849642303642732,-0.0861952810625052,2.1587889988954747
86,0.5334694315168207,3.215147229987129,0.7193641426452196,-5.383872881062461,0.07708948359074386,-3.567045942566532,-0.37645574617217475,0.03592126220483737,0.32922912098290696,1.2670410216184258,-0.07919961397829724,2.090920998039737
87,0.4659042713225219,3.2245997331484824,0.7121748110997544,-5.379380613733673,0.07017670850315227,-3.591538767839946,-0.37281864587916563,0.06149073728536514,0.3306531288621655,1.249267825212711,-0.07227094595072704,2.023720066772534
88,0.3989625357119948,3.233965017944157,0.7050518156069742,-5.374929796612086,0.06332771767832734,-3.615805597506191,-0.36749511549452385,0.08650076422170938,0.33206240877223514,1.231658087052019,-0.06541484406914813,1.9572306428800907
89,0.33269085293722966,3.24323656098698,0.6980001176879056,-5.370523529913441,0.056547281779400826,-3.6398295285101225,-0.36056512886911335,0.11082884339505523,0.333455964525196,1.2142250130065184,-0.058636730587594756,1.8914962598844909
90,0.26713510223912174,3.2524079436779525,0.6910245991643764,-5.366164864053278,0.0498400948361446,-3.6635939293181536,-0.35211862336573385,0.13436280691838007,0.3348328233993238,1.1969815494964045,-0.051941873534216886,1.8265595026785024
91,0.20234035836518416,3.2614728599683334,0.6841300562553738,-5.36185679595805,0.04321076856842687,-3.6870824600309664,-0.34225415259011327,0.15700162582076704,0.33619203739606995,1.179940364682308,-0.045335377877254765,1.7624619637394408
92,0.13835083608723053,3.270425124121729,0.677321193673398,-5.357602265376204,0.0366638267096665,-3.7102790924962186,-0.33107748260547565,0.1786560329858388,0.33753268444869106,1.1631138302800181,-0.03882217726737584,1.6992441998977563
93,0.07520983471907705,3.2792586784761792,0.6706026187208205,-5.353404151189285,0.030203699330286993,-3.733168130421257,-0.3187001574299483,0.19924896036460207,0.3388538695819555,1.1465140040127864,-0.03240702637251291,1.6369456896342038
94,0.012959682634248182,3.2879676012062435,0.663978835386237,-5.349265267723036,0.023834717161173913,-3.7557342294858107,-0.3052380588911914,0.21871579266421126,0.3401547260226666,1.1301526127092982,-0.026094493817520548,1.5756047908772526
95,-0.04835831821633718,3.2965461140850896,0.6574542384408251,-5.345188361058483,0.01756110591712612,-3.777962417454722,-0.290809984658008,0.23700444313996408,0.34143441626109006,1.1140410360499875,-0.01988895573696547,1.515258699270046
96,-0.10870394778667958,3.3049885902465777,0.6510331075346985,-5.341176105343046,0.011386980620312626,-3.799838114290637,-0.2755362665482507,0.2540752602139238,0.34269213306369734,1.098190290959243,-0.013794589945292134,1.4559434068737955
97,-0.16803812341795954,3.3132895619473497,0.6447196012932652,-5.337231099101627,0.005316339923729485,-3.8213471522667133,-0.2595374490997965,0.2699007763501602,0.34392710043797825,1.0826110166358693,-0.007815370724390184,1.3976936612719533
98,-0.2263229553208852,3.321443728328914,0.6385177514135814,-5.333355861547711,-0.000646939565349669,-3.842475796079344,-0.2429330459668753,0.2844653128893597,0.345138574550402,1.0673134602091432,-0.0019550642242817918,1.3405429250366392
99,-0.2835218020579795,3.3294459631797353,0.6324314567607061,-5.329552828894455,-0.006499108961915301,-3.8632107629608488,-0.22584038905149237,0.29776445635581195,0.34632584459894455,1.052307463003132,0.0037827755316103095,1.2845233355164134
100,-0.3395993260258763,3.337291322697319,0.6264644774640598,-5.325824350665796,-0.012236552779769205,-3.8835392427921924,-0.20837358248306667,0.309804423084885,0.3474882336419082,1.0376024473871928,0.009394810049591909,1.2296656649015834
101,-0.39452154893762525,3.344975053250298,0.6206204290137782,-5.322172686007541,-0.0178557946080673,-3.9034489182156884,-0.19064257070070414,0.3206013298807664,0.3486250993850871,1.0232074041863979,0.014877919194459606,1.175999280520698
102,-0.44825590730500764,3.3524925991405223,0.6149027763570687,-5.318599999998465,-0.023353502787867964,-3.922927984747706,-0.1727523270486997,0.3301803888180492,0.3497358349296236,1.0091308806215433,0.020229203465459734,1.123552105319348
103,-0.5007713079208145,3.3598396103651407,0.6093148279945662,-5.315108359961408,-0.02872649608867328,-3.9419651708913825,-0.1548021665370863,0.3385750442740359,0.35081986948318805,0.9953809687447182,0.02544598574517667,1.0723505784701035
104,-0.5520381833411765,3.3670119503786946,0.6038597300766875,-5.311699731774371,-0.03397174938497893,-3.960549758249333,-0.13688518380680723,0.34582606985887554,0.3518766690373966,0.9819652943331193,0.030525812551184923,1.0224196160600703
105,-0.6020285473678548,3.3740057038551976,0.5985404604999891,-5.308375976181615,-0.03908639933281388,-3.978671601636349,-0.11908781492537708,0.35198064214296526,0.3529057370146185,0.9688910062008488,0.03546645482414495,0.9737825718008065
106,-0.6507160505305389,3.3808171844502293,0.5933598230035215,-5.305138845104755,-0.04406775004629049,-3.9963211491921165,-0.10148951946487723,0.3570914070165671,0.35390661488757463,0.9561647658859004,0.04026590828978485,0.9264611977035037
107,-0.6980760355691551,3.3874429425630166,0.5883204412651857,-5.301989977953859,-0.048913278774146196,-4.013489462493921,-0.08416257741057091,0.3612155532096909,0.35487888277532065,0.9437927376674364,0.044922393435594725,0.8804756046610148
108,-0.7440855929161572,3.3938797730985226,0.5834247529980898,-5.298930897938544,-0.05362064157628854,-4.030168236669347,-0.06717199383522972,0.3644139060069786,0.35582216001941264,0.9317805788668612,0.04943435514625064,0.8358442228772649
109,-0.78872361617886,3.4001247232295353,0.5786750040469013,-5.295963008379073,-0.058187679000345494,-4.046349820509004,-0.05057550296128049,0.36675005256813253,0.3567361057441916,0.9201334303848667,0.053800462044624416,0.792583762083832
110,-0.8319708576217195,3.406175100158752,0.5740732424842063,-5.293087589017448,-0.06261242175820314,-4.062027236579223,-0.0344236622207173,0.3682895085627067,0.3576204194052684,0.9088559074260306,0.05801960558765311,0.7507091714832832
111,-0.8738099836486164,3.412028478880866,0.5696213127068646,-5.290305792328517,-0.06689309640255559,-4.077194201334759,-0.018760026203428037,0.36909893409876576,0.3584748413303811,0.8979520903620617,0.06209089896847675,0.7102335993588031
112,-0.914225630285209,3.4176827099446556,0.5653208495323634,-5.287618639831057,-0.07102813100344907,-4.091845145231517,-0.0036213899433913677,0.369245405213136,0.35929915325686884,0.8874255156850316,0.06601367587784905,0.6711683522900967
113,-0.9532044586611903,3.4231359272150694,0.5611732722951772,-5.285027018398882,-0.07501616082482565,-4.1059752328392385,0.010961909191507878,0.3687957455364451,0.36009317887003667,0.8772791670024519,0.06978748917902355,0.6335228539166844
114,-0.9907352104926233,3.428386555635314,0.5571797789431185,-5.282531676571936,-0.07885603400107266,-4.119580382954233,0.024965641691985025,0.367815921182502,0.36085678434669394,0.8675154660269662,0.07341210955102992,0.5973046031906548
115,-1.0268087635642011,3.43343331898894,0.5533413401336968,-5.280133220867387,-0.08254681721356016,-4.132657288712063,0.03837129861556394,0.36637050046605335,0.36158987890810596,0.858136263514903,0.07688752415544528,0.5625191320630266
116,-1.0614181872116255,3.4382752476619287,0.5496586933304739,-5.277832112090728,-0.08608780136719485,-4.145203437700273,0.05116567681767374,0.364522178746462,0.3622924153865355,0.849142830109501,0.08021393538149288,0.5291699625496168
117,-1.094558797803824,3.4429116864047815,0.5461323368994191,-5.275628661646871,-0.08947850726695838,-4.157217132071077,0.06334044614319151,0.3623313675420829,0.3629643908094473,0.8405358470468637,0.08339175972342282,0.49725856312535377
118,-1.1262282142252928,3.4473423020946026,0.5427625242052643,-5.273523027851246,-0.09271869129445598,-4.168697508654088,0.07489170733403452,0.35985584606984555,0.3636058470053004,0.8323153966848964,0.08642162684282392,0.4667843043983682
119,-1.1564264133583961,3.4515670914971874,0.5395492577078631,-5.271515212240896,-0.09580835108445962,-4.179644559069004,0.08581954864253895,0.3571504725402592,0.3642168712346867,0.8244809528183684,0.08930437886661263,0.43774441401895187
120,-1.1851557855657084,3.455586389029117,0.5364922830585392,-5.269605055885574,-0.09874773120145663,-4.190059149838346,0.09612760831840934,0.3542669518783982,0.36479759685035956,0.8170313707459469,0.09204106996906564,0.41013393078199073
121,-1.2124211901722468,3.4594008745198295,0.5335910831964523,-5.26779223569884,-0.10153732881619026,-4.199943042500127,0.1058226492832513,0.35125365604095315,0.365348203989448,0.8099648770584302,0.0946329662833477,0.38394565788577145
122,-1.2382300109477846,3.463011580973718,0.5308448724449457,-5.266076260749162,-0.1041778993822069,-4.2092989137205965,0.11491415144329031,0.34815549274916346,0.3658689203008838,0.8032790591205727,0.09708154618463605,0.35917011531422893
123,-1.2625922115892187,3.466419902332219,0.528252590607905,-5.264456468571001,-0.1066704623124024,-4.2181303754069255,0.12341392623605732,0.3450138182458276,0.36636002171075444,0.7969708542226157,0.09938850098307747,0.33579549131471975
124,-1.285520391202816,3.46962760123589,0.525812897066114,-5.262932021475922,-0.10901630665556539,-4.226441994819922,0.13133575717630838,0.3418663895977713,0.36682183322795403,0.7910365383811132,0.10155573606053803,0.31380759294873806
125,-1.3070298397865159,3.472636816786503,0.52352416487361,-5.2615019028636825,-0.11121699677292218,-4.234239314686743,0.13869506937260329,0.33874735208782175,0.3672547297921458,0.7854717147726157,0.10358537248045786,0.2931897956981762
126,-1.3271385937122702,3.475450072309135,0.5213844748540399,-5.26016491353333,-0.11327437801468498,-4.241528873313603,0.14550863023768196,0.3356872573564469,0.3676591371656526,0.7802713017875369,0.1054797490950571,0.27392299211581145
127,-1.3458674912082884,3.4780702831142403,0.5193916096970166,-5.258919667994304,-0.11519058239659241,-4.248318224698467,0.15179428291968736,0.3327131081460689,0.3680355328704721,0.7754295206955043,0.10724142516879795,0.25598553951501274
128,-1.3632402278414233,3.480500764259758,0.5175430480544705,-5.257764590777521,-0.11696803427645808,-4.254615958643782,0.15757071334140746,0.3298484257539705,0.3683844471711972,0.7709398829174855,0.10887318353137664,0.23935320669988663
129,-1.3792834119993778,3.4827452383131767,0.5158359586370134,-5.256697912746488,-0.11860945603071427,-4.260431720869169,0.1628572511523168,0.3271133365967078,0.36870646410413205,0.7667951769039988,0.110378034267658,0.22399911974456296
130,-1.394026620373083,3.484807843113641,0.5142671943102859,-5.255717667408384,-0.12011787373095828,-4.265776233124127,0.1676737043739349,0.32452467461397727,0.3690022225524686,0.762987454622738,0.11175921894591599,0.20989370683690928
131,-1.4075024534389655,3.4866931395340277,0.5128332861913174,-5.254821687225166,-0.121496622820497,-4.270661313300764,0.17204022705052582,0.32209609657879334,0.36927241736686905,0.7595080176628445,0.11302021537958205,0.19700464221026995
132,-1.4197465909412657,3.4884061192430327,0.511530437744883,-5.254007599924661,-0.1227493537908888,-4.2750998955464805,0.1759772188026861,0.3198382077194709,0.3695178005303295,0.7563474029672153,0.11416474291145583,0.18529678919438655
133,-1.4307978473743006,3.4899522124672604,0.5103545188798546,-5.253272824811668,-0.12388003785849477,-4.279106050376688,0.17950525481705784,0.31775869538520085,0.3697391823657015,0.7534953682079233,0.11519676820306222,0.17473214242535473
134,-1.4406982274648428,3.4913372957533104,0.5093010600455634,-5.252614569079047,-0.12489297264101751,-4.28269500478752,0.18264504448800645,0.315862468789574,0.3699374327837311,0.7509408768238528,0.11612051150557356,0.1652697692629794
135,-1.449492981654366,3.4925676997298662,0.5083652463281472,-5.252029824118824,-0.12579278783405456,-4.28588316236854,0.18541741665250533,0.314151803135717,0.37011348256899773,0.7486720827433075,0.11694045338255361,0.1568657504735407
136,-1.4572306615813346,3.4936502168697787,0.5075419115469111,-5.251515361833282,-0.12658445088763326,-4.288688123415447,0.1878433291244996,0.31262648665413023,0.3702683247006126,0.7466763148181141,0.11766134184867681,0.1494731202451989
137,-1.4639631755635705,3.494592109252153,0.5068255323506867,-5.251067730946062,-0.12727327268276278,-4.291128705042777,0.18994390003591016,0.3112839692632576,0.37040301570405354,0.7449400609992509,0.11828819988271855,0.14304180561348862
138,-1.4697458440804922,3.4954011163244374,0.506210222314182,-5.2506832533132535,-0.12786491320797744,-4.293224961296614,0.19174045832537043,0.31011951168779767,0.37051867703001756,0.743448952287501,0.11882633326731569,0.13751856538509458
139,-1.4746374552554755,3.496085462664513,0.5056897260343347,-5.250358020234501,-0.12836538723588298,-4.294998203267323,0.19325461058047624,0.3091263339368122,0.3706164964556938,0.7421877464959632,0.11928133870253173,0.13284692865865416
140,-1.4787003203380493,3.49665386574277,0.5052574132266794,-5.2500878887640905,-0.12878106999969763,-4.296471019202206,0.19450832133209942,0.30829576205078907,0.37069772950337726,0.7411403118645786,0.11965911213494489,0.12896713305330515
141,-1.482000329186377,3.4971155436842043,0.5049062728216938,-5.249868478022054,-0.12911870286980331,-4.29766729461827,0.19552400381898155,0.30761737197281025,0.3707637008708923,0.7402896105696011,0.11996585723895896,0.12581606276691137
142,-1.484607005749396,3.497480223030509,0.5046289070611532,-5.249695165505261,-0.12938539903028623,-4.298612232414893,0.1963246181846663,0.30707912928528375,0.37081580586782725,0.739617682174311,0.12020809398221809,0.12332718659937479
143,-1.486593563549171,3.497758146502144,0.5044175255944956,-5.249563083398522,-0.1295886491554823,-4.299332372986536,0.19693377403615026,0.30666752338196207,0.3708555118511327,0.7391056270697107,0.12039266720241337,0.121430496088226
144,-1.488036961163246,3.497960080760432,0.5042639395751674,-5.2494671148856735,-0.12973632708652438,-4.299855614335479,0.1973758342807563,0.30636769441992606,0.37088435965320554,0.73873358995692,0.12052675511842956,0.1200524439178607
145,-1.489017957706885,3.4980973241696605,0.5041595557569845,-5.249401890460689,-0.12983669550788957,-4.3002112321845,0.19767601716230146,0.3061635511229429,0.37090396499513495,0.73848074342562,0.120617877694466,0.11911588277766007
146,-1.489621168315395,3.498181714559137,0.5040953705904898,-5.249361784238767,-0.129898411623933,-4.300429900089595,0.1978604934350352,0.30603787719327447,0.37091601987732664,0.738325271685372,0.12067390477167082,0.11854000485837667
147,-1.4899351196264377,3.4982256369853033,0.5040619643193041,-5.249340910267428,-0.12993053283544675,-4.300543709552693,0.1979564756376812,0.3059724237423031,0.3709222939393176,0.7382443545095232,0.12070306387764668,0.11824028219152169
148,-1.4900523052623313,3.498242031493813,0.5040494950764844,-5.2493331188376136,-0.1299425224162034,-4.300586190134345,0.19799229645238423,0.30594798478128965,0.37092463578008344,0.7382141514539599,0.12071394761989282,0.11812840805186249
149,-1.4900692413123053,3.4982444008816094,0.5040476929808748,-5.249331992794787,-0.1299442551894856,-4.30059232956644,0.19799747314349297,0.305944452433683,0.370924974229688,0.7382097864159297,0.12071552056473388,0.11811223965932909
