nimar13/UR3e_dataset_trayectorias/data/trayectorias_completas_UR3e_JTRAJ/trayectoria_418.csv
Punto,shoulder_pan_joint,shoulder_lift_joint,elbow_joint,wrist_1_joint,wrist_2_joint,wrist_3_joint,Posicion_X,Posicion_Y,Posicion_Z,Roll,Pitch,Yaw
0,-1.9395563785081187,-1.8485945390807008,-0.020284377216638116,1.3894765754338616,-1.410341649650749,4.650197375105574,0.19751467688104205,0.10574017997259925,0.48259241716315715,-1.7150476236359018,0.4713412027170378,1.0164136827547166
1,-1.9395693128422842,-1.8485947349987106,-0.020286279964414462,1.3894877761073174,-1.4103460477620975,4.650175032426296,0.19751625689165664,0.10573926363087738,0.48259262004182646,-1.715065905860297,0.47133260673765287,1.0164064965961586
2,-1.9396588093999028,-1.8485960906144876,-0.020299445649931715,1.3895652769438103,-1.4103764796204878,4.6500204366923565,0.19752718966248548,0.10573292243385879,0.4825940241135228,-1.7151924091637283,0.47127312782187963,1.0163567716569661
3,-1.9398985790729186,-1.8485997224363164,-0.020334717756429435,1.389772908954681,-1.4104580094237527,4.649606260219401,0.1975564813112486,0.10571592729179556,0.48259778827664906,-1.715531349910654,0.47111377183168796,1.0162235388856276
4,-1.9403592607304738,-1.8486067004401607,-0.02040248784712712,1.3901718428887617,-1.4106146567780067,4.648810481913989,0.19761276790569698,0.10568324716558278,0.4826050308669581,-1.7161826824022977,0.47080756694662307,1.0159674907385279
5,-1.9411084635916371,-1.8486180487114878,-0.020512701798603816,1.390820625925652,-1.4108694111058075,4.64751631407924,0.19770432612030245,0.10563002526599588,0.48261683839490865,-1.7172422435630645,0.47030951512200614,1.015550909823482
6,-1.9422108095981314,-1.848634746087094,-0.020674866034177713,1.3917752183689949,-1.4112442460543186,4.645612129220478,0.19783908542078235,0.10555154891872842,0.48263427669107,-1.7188019227596614,0.4695765376215734,1.0149375835868788
7,-1.9437279757870634,-1.8486577267969295,-0.0208980537572857,1.3930890303397527,-1.4117601339034698,4.642991386850868,0.19802464132863393,0.10544321411129172,0.482658404001254,-1.7209498517371769,0.4685674159763567,1.014092708146564
8,-1.9457187366636497,-1.848687881105924,-0.02119091118486298,1.3948129584694835,-1.4124370599741198,4.639552560297065,0.19826826927062915,0.10530048560953495,0.48269028559489735,-1.7237706098029875,0.4672427297500858,1.0129827844105352
9,-1.9482390065739477,-1.8487260559558107,-0.021561663780722638,1.396995422593616,-1.4132940370362175,4.635199063504851,0.1985769384671234,0.10511885340712952,0.48273100947068975,-1.7273454395289816,0.4655647925210221,1.0115755096640222
10,-1.9513418820775816,-1.848773055606953,-0.022018122488935248,1.399682402444727,-1.4143491197169626,4.629839177844782,0.19895732526143023,0.1048937861555759,0.48278170276294663,-1.7317524683903918,0.4634975875121283,1.0098396678374217
11,-1.9550776843204727,-1.8488296422801687,-0.02256768996720844,1.4029174743458155,-1.4156194189089693,4.623385978917827,0.1994158252428062,0.10462068211928104,0.482843548471078,-1.7370669319288357,0.46100670430835483,1.007745021669866
12,-1.9594940014075661,-1.8488965367985546,-0.023217366820266497,1.406741847903581,-1.4171211161784258,4.615757263361012,0.19995856346948324,0.10429481811371397,0.4829178021528961,-1.7433613942292254,0.4580592780854389,1.0052622099459696
13,-1.9646357307755598,-1.8489744192293132,-0.023973757833229938,1.4111944027016972,-1.4188694781732578,4.606875475653066,0.20059140205685233,0.10391129681764717,0.4830058082406092,-1.75070596174402,0.45462393273445795,1.0023626528970762
14,-1.9705451215656329,-1.8490639295255762,-0.024843078204995112,1.41631172499409,-1.4208788710312885,4.596667634920054,0.20131994436024453,0.1034649928056139,0.483109015656226,-1.7591684867904813,0.450670729197251,0.9990184687164863
15,-1.9772618169961735,-1.8491656681682305,-0.025831159781613773,1.4221281443982114,-1.4231627747884017,4.585065261741033,0.20214953495259108,0.10295049762594524,0.4832289924208318,-1.768814757391467,0.4461711202284679,0.9952024039367404
16,-1.9848228967355082,-1.8492801968077432,-0.026943457289672675,1.4286757705883177,-1.4257337977867017,4.572004304953679,0.20308525457549856,0.10236206425449948,0.48336743896987194,-1.77970867052938,0.4410979126704918,0.9908877801549796
17,-1.9932629192746285,-1.8494080389059866,-0.02818505456967316,1.435984529988744,-1.428603691082677,4.5574250684599455,0.20413190922910524,0.10169355128529038,0.48352619990420853,-1.7919123863350768,0.4354252381697534,0.9860484592713918
18,-2.002613964299921,-1.849549680378063,-0.029560670809410737,1.4440822024671798,-1.4317833628553598,4.541272138031694,0.20529401256305127,0.10093836727686073,0.48370727392445856,-1.8054864612352022,0.429128533080392,0.9806588290302102
19,-2.0129056750658947,-1.8497055702341314,-0.03107466677735469,1.4529944580279466,-1.4352828928144894,4.523494308116341,0.20657576073999412,0.10008941575698077,0.4839128217140423,-1.8204899586259404,0.42218452809862056,0.9746938102298879
20,-2.0241653007679083,-1.8498761212212298,-0.03273105105602761,1.462744893505273,-1.439111546608673,4.504044508642501,0.2079809989668119,0.09913904149694604,0.4841451715546575,-1.8369805362197784,0.4145712479546019,0.9681288865084441
21,-2.036417738914902,-1.850061710465103,-0.03453348627538506,1.4733550692565702,-1.4432777902335474,4.482879731825628,0.20951317892997123,0.09807897879852907,0.48440682247671485,-1.855014509813252,0.40626802126501427,0.9609401571236186
22,-2.0496855777021215,-1.8502626801120263,-0.0364852953461951,1.484844545855709,-1.4477893044399406,4.459960958973658,0.21117530643388882,0.0969003026888225,0.4847004447668704,-1.8746468938345895,0.39725550042646746,0.9531044126491455
23,-2.0639891383838487,-1.8504793379706312,-0.038589467693417916,1.4972309207862944,-1.4526529991420332,4.435253087292654,0.21296987862828057,0.09559338408724365,0.4850288776754096,-1.8959314196360864,0.3875156912152826,0.9445992330134025
24,-2.0793465176461297,-1.8507119581537301,-0.040848665489585365,1.5105298651349435,-1.4578750278255208,4.408724856692444,0.21489881032641586,0.09414785019039441,0.48539512418814723,-1.9189205330813306,0.3770319915606653,0.9354031068311044
25,-2.095773629979504,-1.8509607817201417,-0.04326522988818059,1.52475516028456,-1.4634608019557749,4.380348776592267,0.21696334906488954,0.09255255150875095,0.48580234275102674,-1.9436653735262257,0.36578923878315067,0.9254955705387816
26,-2.1132842500517297,-1.8512260173165158,-0.04584118725701759,1.53991873460761,-1.469415005386005,4.350101052726412,0.2191639787407135,0.09079553717783007,0.4862538358609458,-1.9702157367900264,0.3537737644448302,0.914857365456332
27,-2.131890055080516,-1.8515078418191593,-0.04857825541162086,1.5560307001593996,-1.4757416087654194,4.317961513949868,0.22150031188653294,0.0888640403478792,0.4867530354638711,-1.9986200251441428,0.3409734558474719,0.9034706105742287
28,-2.1516006672062478,-1.85180640097586,-0.051477849848604894,1.573099389371349,-1.4824438839473881,4.283913539043956,0.22397097091201434,0.08674447562167223,0.487303485131162,-2.028925187700707,0.32737782314304775,0.891318988621309
29,-2.1724236958647167,-1.8521218100477126,-0.0545410899790538,1.5911313917442698,-1.4895244183976035,4.247943983521982,0.22657345895032477,0.08442245064998134,0.48790881901746286,-2.061176654850501,0.31297807099069785,0.878387942810796
30,-2.194364780159847,-1.8524541544509439,-0.05776880536190094,1.6101315905416402,-1.4969851296022425,4.2100431064348705,0.22930402130295618,0.08188279409827635,0.4885727376386456,-2.0954182705752955,0.2977671737053825,0.8646648815984174
31,-2.217427631236427,-1.8528034903987376,-0.06116154193730847,1.6301031994828818,-1.5048272794761273,4.1702044971768135,0.23215749887202472,0.07910960225498984,0.48929898054610454,-2.131692226540613,0.2817399528955937,0.8501393888183336
32,-2.2416140746528335,-1.8531698455430592,-0.06471956826004689,1.6510477994366348,-1.5130514887708884,4.12842500229091,0.2351271754024872,0.07608630654978789,0.49009129601421825,-2.1700390018634548,0.2648931566779787,0.8348034366884007
33,-2.2669240927537633,-1.8535532196164817,-0.06844288173287473,1.6729653751140336,-1.5216577514831249,4.084704652274808,0.23820462082090899,0.07279576417812006,0.4909534079007676,-2.2104973123506517,0.24722553968214753,0.8186515993904214
34,-2.29335586704296,-1.85395358507401,-0.07233121483991806,1.6958543517619848,-1.530645449262567,4.039046588386349,0.24137953344331758,0.06922037387484256,0.4918889798853182,-2.2531040728262797,0.2287379432145508,0.8016812652241508
35,-2.3209058205559434,-1.854370887734907,-0.07638404138005006,1.7197116318564405,-1.5400133658202373,3.991456989449212,0.24463958432021082,0.06534221863481297,0.49290157733756174,-2.2978943759221124,0.2094333751310209,0.783892845693543
36,-2.3495686602327353,-1.854805047424518,-0.08060058270027072,1.7445326317956764,-1.5497597013366122,3.941944998658549,0.24797026747710973,0.06114323683356073,0.49399462711584813,-2.344901490406824,0.1893170891677342,0.7652899802948906
37,-2.379337419290591,-1.8552559586160955,-0.0849798139290863,1.7703113185935668,-1.5598820868697842,3.890522650386635,0.25135476027649123,0.05660542275028344,0.49517137564494546,-2.3941568817915857,0.16839666369457054,0.7458797362222906
38,-2.4102034995967254,-1.8557234910726255,-0.08952047020988897,1.7970402465728605,-1.570377598763623,3.837204796988509,0.25477379855137394,0.05171105693530575,0.496434845670574,-2.4456902575858894,0.14668208007776945,0.7256728026680485
39,-2.442156714041042,-1.8562074904886516,-0.09422105293433636,1.8247105940584574,-1.5812427730559369,3.7820090356076124,0.25820557152006,0.04644296619527964,0.49778779213562246,-2.499529639200518,0.1241858010658032,0.7046836798554723
40,-2.4751853289088626,-1.8567077791321003,-0.09907983597573129,1.8533122000706836,-1.592473619886635,3.724955634981436,0.2616256417618924,0.040784812196692735,0.4992326576680037,-2.555701462114854,0.1009228498395111,0.6829308633800361
41,-2.509276106253652,-1.8572241564861065,-0.10409487192240113,1.8828336010185687,-1.6040656379058886,3.666067462247161,0.26500689569110625,0.03472140682148668,0.5007715282118107,-2.6142307055500527,0.07691089059140968,0.6604370248332158
42,-2.5444143462697495,-1.8577563998908384,-0.10926399831107764,1.9132620673931204,-1.6160138286822932,3.605369909747301,0.26831952998599345,0.028239051462981814,0.5024060893705125,-2.675141052520359,0.052170311717329235,0.6372291900223479
43,-2.5805839296650976,-1.8583042651853228,-0.1145848438602762,1.944583640460601,-1.628312711111029,3.542890821835345,0.27153107929125175,0.02132589644665088,0.5041375840621644,-2.73845508076868,0.026724312914052445,0.6133389163601465
44,-2.617767360033967,-1.8588674873492692,-0.12005483470367592,1.9767831689558037,-1.6409563358220238,3.4786604216813997,0.27460649019294797,0.01397231572504152,0.5059667721107436,-2.80419448471981,0.0005989976778545897,0.5888024711579762
45,-2.6559458062296875,-1.859445781144897,-0.12567120062349862,2.009844345775328,-1.653938299588114,3.4127112380778333,0.2775082459525062,0.006171290961098986,0.5078938924135373,-2.8723803281876337,-0.026176527110860735,0.5636610125941051
46,-2.6950991447373758,-1.8600388417587583,-0.13143098128388897,2.043749744670857,-1.667251759733206,3.345078032244916,0.2801965457685931,-0.0020812018841643316,0.5099186283308621,-2.943033327124503,-0.05357004265469621,0.5379607750137033
47,-2.735206002046664,-1.8606463454435649,-0.13733103246429365,2.0784808569424307,-1.680889448540439,3.275797724636463,0.2826295414106081,-0.010785811264899454,0.5120400769402333,-3.016174161164137,-0.08154609873586503,0.5117532599166321
48,-2.7762437970244265,-1.8612679501600118,-0.14336803229284129,2.1140181281317254,-1.694843687660345,3.2049093217454794,0.28476363293954715,-0.019939442670977067,0.5142567227815771,-3.0918238120332693,-0.1100658810824524,0.485095433457566
49,-2.8181887832875105,-1.8619032962186042,-0.14953848747972162,2.150340994715326,-1.7091064025190115,3.132453842909799,0.2865538239151065,-0.02953491439962136,0.5165664166924824,3.113181381153746,-0.1390870633387765,0.45804993046354253
50,-2.8610160915754625,-1.8625520069214807,-0.15583873955056565,2.1874279207980063,-1.7236691367262431,3.058474247117729,0.28795413500530553,-0.03956064615244664,0.5189663602923993,3.032448110617358,-0.16856364131437476,0.430685263792515
51,-2.9046997721232573,-1.8632136892042395,-0.16226497107982463,2.225256434806001,-1.7385230664837221,2.9830153598136935,0.2889180732996724,-0.05000039031623413,0.5214530966219229,2.949137545891456,-0.1984457471929022,0.40307603621764737
52,-2.9492128370340263,-1.8638879342777637,-0.16881321192415014,2.2638031661802827,-1.753659014993172,2.906123799703873,0.28939915292154716,-0.060833015688677244,0.5240225073779949,2.86322370110894,-0.22867944148590855,0.3753031498052114
53,-2.9945273026517865,-1.8645743182700454,-0.1754793454557734,2.30304388206984,-1.769067466864517,2.8278479055618497,0.28935146079037766,-0.0720323530051104,0.5266698171084907,2.774678341718954,-0.259206480759645,0.34745400480828204
54,-3.040614231934167,-1.865272402868012,-0.18225911479588494,2.342953524024952,-1.7847385825240456,2.7482376630342475,0.2887302596592531,-0.08356711089160368,0.5293896046409692,2.6834706016631387,-0.2899640596045363,0.31962267624074453
55,-3.087443776825139,-1.865981735959351,-0.18914812904801404,2.383506244690463,-1.8006622126225704,2.6673446314463796,0.287492618909944,-0.09540086980799684,0.5321758219215753,2.5895666370805395,-0.3208845260366374,0.29191005131058145
56,-3.134985220627744,-1.8667018522743335,-0.1961418695314087,2.42467544449906,-1.8168279124435915,2.5852218706078816,0.2855980620939377,-0.10749216015879147,0.5350218203326128,2.4929293415787113,-0.3518950706237639,0.26442390453539993
57,-3.183207020376819,-1.8674322740276426,-0.20323569601441466,2.466433808364549,-1.8332249563114564,2.501923867618366,0.283009218929974,-0.11979462906167888,0.5379203844429546,2.393518155879077,-0.3829173912534646,0.23727887938329154
58,-3.2320768492117304,-1.8681725115601953,-0.21042485294785568,2.5087533423751296,-1.849842351999523,2.417506463673056,0.27969246847005846,-0.13225729830861957,0.540863773026353,2.2912890142757454,-0.4138673377789334,0.21059633544660392
59,-3.281561638749099,-1.8689220639809694,-0.2177044756984125,2.5516054104866726,-1.8666688551383208,2.3320267808684276,0.27561855948423186,-0.14482491388252497,0.5438437670611246,2.186194481995083,-0.44465454400445276,0.18450400831342278
60,-3.3316276214555263,-1.8696804198088286,-0.2250695967820026,2.5949607712159937,-1.8836929836237117,2.2455431490078603,0.2707631938373846,-0.15743838506637808,0.5468517243031984,2.0781841511864396,-0.47518205885208104,0.15913541547659024
61,-3.382240373020328,-1.8704470576143464,-0.23251515209716014,2.6387896143341334,-1.9009030320250537,2.158115032407271,0.2651075587745396,-0.17003530877452583,0.5498786399057515,1.9672053785624553,-0.505345994357301,0.1346289261653676
62,-3.433364854728257,-1.8712214466616328,-0.2400359871584153,2.683061597559628,-1.9182870859933598,2.0698029567007605,0.2586387946146651,-0.18255057232968241,0.5529152124453582,1.8532044637426301,-0.5350352156382129,0.1111263967993135
63,-3.4849654558322354,-1.8720030475501581,-0.24762686332967326,2.7277458832517896,-1.9358330366694614,1.9806684356462578,0.25135038538047183,-0.19491702559062193,0.5559519146094664,1.7361283823925764,-0.5641311073733712,0.08877125859162763
64,-3.5370060359260806,-1.8727913128565787,-0.255282464057595,2.772811175103979,-1.9535285950921701,1.8907738979311572,0.2432424613479272,-0.2070662111924956,0.5589790677056782,1.615927199334229,-0.5925074626531197,0.06770593262936012
65,-3.589449967317236,-1.8735856877765626,-0.26299740110497594,2.818225754836884,-1.9713613066064384,1.800182613977967,0.23432200435082093,-0.21892913977917117,0.5619869190722566,1.4925572893569994,-0.6200305530813497,0.04806844510183246
66,-3.642260177399497,-1.874385610766613,-0.27076622078412615,2.863957518891797,-1.9893185652715215,1.7089586227499436,0.22460294887123547,-0.2304370955629,0.5649657214036481,1.3659854809925882,-0.6465594529350491,0.029988127728909953
67,-3.6953991910257398,-1.8751905141858958,-0.2785834101902492,2.909974015123885,-2.00738762826914,1.6171666585567461,0.21410617441849472,-0.2415224564077743,0.5679058129565203,1.2361942026081567,-0.6719467035108272,0.013580324274735033
68,-3.7488291728806495,-1.8759998249380618,-0.28644340343482233,2.9562424794954696,-2.025555630311639,1.5248720778600697,0.20285938736561998,-0.25211951195206717,0.570797697572368,1.10318764113573,-0.6960394139416322,-0.0010599069939076248
69,-3.80251196985345,-1.876812965113075,-0.29434058787897593,3.0027298727693044,-2.043809598050153,1.4321407860792883,0.19089689318176528,-0.26216526309517735,0.5736321234431245,0.9669988124158899,-0.7186808979674438,-0.01386499375963471
70,-3.8564091534106324,-1.8776293526290344,-0.30226931036687327,3.049402917201849,-2.062136464482765,1.339039164397101,0.17825926277347465,-0.27160018649238227,0.5764001595570878,0.827697283197658,-0.7397129374219443,-0.024802692983218414
71,-3.910482061968679,-1.8784484018740026,-0.31022388345908947,3.096228133236543,-2.08052308336267,1.2456339965651733,0.16499289932715278,-0.2803689485188725,0.5790932687937727,0.6853970819935035,-0.7589787369063005,-0.03388411427492131
72,-3.964691843266796,-1.879269524347828,-0.31819859166599185,3.143171876197086,-2.0989562436063345,1.1519923957097813,0.15114951453296827,-0.28842105445666255,0.5817033766876833,0.5402641080689279,-0.7763265851498397,-0.04117123259491836
73,-4.018999496739644,-1.8800921293039712,-0.32618769768111905,3.190200372980711,-2.11742268370166,1.0581817311374468,0.13678552527729296,-0.2957114203771314,0.5842229349513306,0.39252213396449653,-0.7916141643698453,-0.04678298572742266
74,-4.073365915890056,-1.88091562439133,-0.3341854486145607,3.2372797587514626,-2.1359091061161433,0.9642695551405911,0.12196138373921754,-0.30220085727364604,0.5866449789357459,0.2424563569364963,-0.8047133522307434,-0.0508989120028929
75,-4.127751930661777,-1.8817394162960652,-0.34218608222633673,3.2843761136334657,-2.1544021917050395,0.8703235298031693,0.10674085525470578,-0.3078564593638377,0.5889631783102022,0.09041346037241181,-0.8155152521625485,-0.053759289458060404
76,-4.182118349812191,-1.8825629113834244,-0.35018383315977863,3.331455499404217,-2.1728886141195236,0.7764113538063118,0.09119025927591258,-0.3126518910396947,0.5911718803595833,-0.06320263924241981,-0.8239350858510496,-0.055660952194551305
77,-4.23642600328504,-1.8833855163395676,-0.3581729391749058,3.378483996187844,-2.191355054214849,0.6826006892339773,0.07537768922949958,-0.3165675695995107,0.5932661454250844,-0.2179397360885449,-0.8299165120891951,-0.05694840789743887
78,-4.290635784583155,-1.884206638813393,-0.36614764738180794,3.4254277391483856,-2.2097882144585133,0.5889590883785853,0.059372227063786434,-0.319590743550887,0.5952417741487979,-0.37331070568373753,-0.8334349245527152,-0.0580005206470441
79,-4.344708693141203,-1.8850256880583611,-0.3741022204740242,3.47225295518308,-2.228174833338418,0.4955539205466568,0.04324316778806635,-0.32171546883352153,0.5970953263220702,-0.5288103242034273,-0.8344993442762668,-0.059213737670980725
80,-4.398605876698383,-1.8858420755743206,-0.3820309429619214,3.5189259996156235,-2.2465016997710303,0.4024522988644721,0.027059268385216335,-0.32294248768692596,0.5988241312781593,-0.6839339402128064,-0.8331526600653033,-0.06098345675172492
81,-4.452288673671185,-1.8866552157493337,-0.3899281274060752,3.5654133928894582,-2.264755667509544,0.30972100708368977,0.010888034174082508,-0.3232790170052402,0.6004262899084437,-0.8381960506926931,-0.829470160113828,-0.06368548298752304
82,-4.505718655526094,-1.8874645265014998,-0.39778812065064817,3.6116818572610434,-2.2829236695520434,0.21742642638701248,-0.005204945922052728,-0.32273845481720803,0.601900668515256,-0.9911468511371054,-0.8235565023729554,-0.06765950582239263
83,-4.558857669152337,-1.8882694299207825,-0.40560531005677114,3.6576983534931307,-2.3009927325496613,0.12563446219381724,-0.0211566056043766,-0.321340014958982,0.6032468848403116,-1.1423852118094473,-0.8155414463866778,-0.07319614507882909
84,-4.611667879234598,-1.889069352910833,-0.41337412973592147,3.703430117548044,-2.318949991214745,0.03441047096579375,-0.03690694134573934,-0.31910830104355853,0.6044652867232486,-1.2915671668402913,-0.8055747810615287,-0.08052848026829018
85,-4.664111810625753,-1.8898637278308168,-0.4210890667833025,3.7488446972809486,-2.336782702729013,-0.056180812987397744,-0.052399480969602404,-0.3160728314642077,0.6055569239475715,-1.4384097172079668,-0.7938209159542475,-0.08982826324413445
86,-4.716152390719599,-1.8906519931372374,-0.4287446675112241,3.793909989133139,-2.354478261151722,-0.14607535070249966,-0.06758167726167966,-0.31226752740855374,0.6065235139195254,-1.582690374989064,-0.7804535641254872,-0.10120638807098957
87,-4.767752991823577,-1.8914335940257627,-0.43633554368248206,3.838594274825301,-2.3720242118278234,-0.2352098717570037,-0.08240522522410881,-0.3077301757290154,0.6073674018976574,-1.724243303564094,-0.7656508539885274,-0.11471676484592569
88,-4.818877473531505,-1.8922079830730492,-0.4438563787437372,3.882866258050795,-2.38940826579613,-0.32352194746351337,-0.09682630344807368,-0.3025018780515461,0.6080915165461086,-1.8629531019875234,-0.7495910935533783,-0.13036255084302206
89,-4.869490225096307,-1.892974620878567,-0.45130193405889485,3.926695101168934,-2.406618314197471,-0.4109500640641013,-0.110805741751588,-0.2966264967559312,0.6086993216224861,-1.9987472711030967,-0.7324492979855296,-0.14810370313662155
90,-4.919556207802733,-1.893732976706426,-0.45866705514248496,3.9700504618982553,-2.4236424426828624,-0.49743369592466813,-0.12430911866531463,-0.2901501074824762,0.6091947646315178,-2.1315882493278018,-0.7143944974595352,-0.16786496666152406
91,-4.969040997340104,-1.8944825291272003,-0.4659466778930419,4.012902530009799,-2.4404689458216606,-0.5829133787292982,-0.13730679352526456,-0.2831204666709168,0.6095822232790146,-2.2614656887256386,-0.6955877747448934,-0.18954362909912045
92,-5.017910826175014,-1.895222766659753,-0.47313583482648247,4.05522206402038,-2.4570863415097266,-0.6673307826746075,-0.14977387883506113,-0.27558650137767987,0.6098664505477389,-2.388389415160165,-0.6761809412156492,-0.21301660091527397
93,-5.066132625924091,-1.895953188413062,-0.48022966130948896,4.096980427885868,-2.473483385377592,-0.7506287856641265,-0.16169015919304733,-0.2675978273048423,0.6100525191888739,-2.512383317071988,-0.65631574182909,-0.23814657819200552
94,-5.113674069726695,-1.8966733047280446,-0.48722340179288315,4.138149627694465,-2.4896490851986126,-0.832751546502621,-0.17303996345281997,-0.25920429966133046,0.6101457663813885,-2.6334802529518075,-0.6361234779884285,-0.26478720040438364
95,-5.1605036146176655,-1.8973826378193834,-0.4941124160450123,4.178702348359975,-2.505572715297137,-0.9136445780904836,-0.18381199692149922,-0.2504556002101645,0.6101517392584567,-2.751717960478864,-0.6157249460336764,-0.2927872223828171
96,-5.206590543900049,-1.8980807224173502,-0.5008921853851243,4.21861199031509,-2.5212438309566667,-0.9932548206180911,-0.1939991403265911,-0.2414008626731371,0.6100761419372083,-2.8671358847257387,-0.5952306033944033,-0.3219937852037036
97,-5.2519050095178095,-1.8987671064096319,-0.5075583189167474,4.257852706204647,-2.5366522828280114,-1.0715307147601152,-0.20359822203341643,-0.23208833759536968,0.6099247846174668,-2.9797728094562244,-0.5747408905786286,-0.3522549040008953
98,-5.296418074428578,-1.899441351483156,-0.5141065597610728,4.296399437578927,-2.551788231337461,-1.1484222748699366,-0.21260976960675937,-0.22256509683680537,0.6097035352389502,-3.089665164737432,-0.5543466528628233,-0.38342130130831
99,-5.34010175497637,-1.9001030337659148,-0.5205327912903317,4.334227951586922,-2.566642161094941,-1.2238811621739742,-0.22103774631920717,-0.21287677706728214,0.6094182741067423,3.086339419585892,-0.5341296195253813,-0.41534771078397204
100,-5.382929063264324,-1.9007517444687914,-0.5268330433611759,4.371314877669602,-2.5812048953021725,-1.2978607579660455,-0.2288892776498689,-0.2030673609994976,0.6090748518137171,2.981841583239205,-0.5141629101952535,-0.447893764337761
101,-5.424874049527407,-1.9013870905273837,-0.5330034985480565,4.407637744253203,-2.5954676101608376,-1.3703162368017203,-0.23617437222289633,-0.19317899459629864,0.6086790507079389,2.880002432036087,-0.49451154729376906,-0.480924560197968
102,-5.465911844505172,-1.9020086952438309,-0.5390404983766035,4.4431750154425,-2.6094218492807446,-1.4412046396927067,-0.24290564103387355,-0.18325183812583293,0.6082365500745995,2.7808023987508905,-0.4752329608117861,-0.5143109931399233
103,-5.506018701814456,-1.9026161989286372,-0.5449405495570081,4.477906127714069,-2.6230595380879764,-1.5104849473011548,-0.2490980182269109,-0.173323948696598,0.6077528951273368,2.6842264418150443,-0.4563774770840869,-0.5479299126187641
104,-5.545172040322145,-1.9032092595424985,-0.5507003302173985,4.511811526609599,-2.6363729982330693,-1.5781181531340742,-0.2547684861346713,-0.16343119176766235,0.6072334698340901,2.590263791239984,-0.43798878712794,-0.5816641607417689
105,-5.583350486517865,-1.9037875533381263,-0.556316696137221,4.544872703429122,-2.6493549619991583,-1.6440673367376384,-0.25993580679052125,-0.15360717907954627,0.6066834735390876,2.498907590145524,-0.4201043928169175,-0.6154025302033778
106,-5.620533916886735,-1.9043507755020728,-0.561786686980621,4.577072231924325,-2.661998586710153,-1.7082977368915842,-0.26462026167490765,-0.14388323046992685,0.6061079012859207,2.4101544638158323,-0.4027560309391411,-0.6490396724990747
107,-5.656703500282083,-1.9048986407965571,-0.5671075325298203,4.608393804991809,-2.6742974691388905,-1.7707768248035478,-0.26884340107069415,-0.1342883571081891,0.6055115276974867,2.3240040407610554,-0.3859700762717375,-0.6824759787768448
108,-5.691841740298184,-1.905430884201289,-0.5722766589184967,4.638822271366361,-2.6862456599152944,-1.8314743773034081,-0.27262780407474857,-0.12484926378772083,0.6048988942272476,2.240458444400415,-0.36976792537500536,-0.7156174493477764
109,-5.7259325176429705,-1.9059472615552953,-0.5772916948651661,4.668343672314243,-2.6978376779345474,-1.890362550037679,-0.27599685004269725,-0.1155903680409891,0.6042742995627629,2.159521769437764,-0.35416636301730314,-0.7483755629124508
110,-5.758961132510791,-1.906447550198744,-0.5821504779065614,4.696945278326472,-2.7090685247652466,-1.9474159506638529,-0.2789745020254765,-0.10653383397825957,0.603641792936822,2.0811995535187866,-0.33917791309774137,-0.7806671527303493
111,-5.790914346955109,-1.90693154961477,-0.5868510606310084,4.72461562581207,-2.7199336990575604,-2.00261171204475,-0.28158510258359115,-0.09769961888761328,0.6030051700833012,2.0054982521150593,-0.324811175724909,-0.8124142940542313
112,-5.8217804272612454,-1.9073990820713,-0.5913917169118115,4.751344553791362,-2.7304292109513995,-2.0559295654428844,-0.28385318223074313,-0.089105530765076,0.602367971563751,1.9324247225830273,-0.3110711518015866,-0.8435442049901365
113,-5.851549186319097,-1.9078499932628776,-0.5957709481406264,4.777123240589252,-2.74055159648457,-2.1073519137147905,-0.2858032806552488,-0.08076729506539536,0.6017334831860909,1.8619857218387232,-0.29795955610689795,-0.8739891613749619
114,-5.880212025995888,-1.9082841529524885,-0.599987489460847,4.801944240528486,-2.7502979320009446,-2.156863904505453,-0.2874597807884906,-0.07269862907410062,0.6011047382379672,1.794187420945869,-0.2854751194947629,-0.9036864251644842
115,-5.907761979508873,-1.9087014556133854,-0.6040403160009786,4.825801520622943,-2.7596658485586154,-2.20445350344259,-0.28884675572809104,-0.06491132239978128,0.600484521263617,1.729034939038951,-0.2736138804677059,-0.9325781850938569
116,-5.93419375379807,-1.9091018210709139,-0.6079286491080227,4.848690497270895,-2.768653546338059,-2.25011156733105,-0.2899878284742325,-0.057415322172898645,0.5998753731237065,1.6665318983187551,-0.26236946605665057,-0.9606115079290812
117,-5.959503771898998,-1.9094851951443363,-0.6116519625808503,4.870608072948294,-2.7772598090502942,-2.2938319173471555,-0.290906044396017,-0.05021882161593335,0.5992795970918174,1.6066800013119582,-0.2517333616531891,-0.9877382984044577
118,-5.983690215315409,-1.909851550288658,-0.6152099889035894,4.891552672902049,-2.7854840183450555,-2.3356114122330602,-0.2916237563077484,-0.04332835072167368,0.5986992657582305,1.5494786311385687,-0.24169516920886253,-1.0139152658840462
119,-6.00675306639198,-1.9102008862364515,-0.6186027254789961,4.911524281843282,-2.7933261682189388,-2.3754500214911047,-0.2921625220000807,-0.036748867844709536,0.5981362285307674,1.494924475154517,-0.2322428530401914,-1.0391038958498744
120,-6.028694150687116,-1.910533230639683,-0.6218304408618436,4.930524480640657,-2.800786879423579,-2.4133508985782264,-0.2925430140367211,-0.030483851078311162,0.597592119542896,1.4430111720134948,-0.22336297235948344,-1.0632704244701248
121,-6.049517179345589,-1.9108486397115358,-0.6248936809922925,4.948556483013584,-2.8078674138737947,-2.4493204541002065,-0.2927849415930507,-0.024535388357553718,0.5970683658005698,1.3937289819118523,-0.21504089958843464,-1.086385814705838
122,-6.069227791471317,-1.9111471988682363,-0.6277932754292759,4.96562517222553,-2.814569689055763,-2.4833684290061093,-0.2929069840785215,-0.018904265301314213,0.5965661954207075,1.3470644795348312,-0.20726102350037565,-1.1084257326523053
123,-6.087833596500104,-1.9114290233708797,-0.6305303435838803,4.9817371377773165,-2.820896292435177,-2.515507967782664,-0.29292673625024634,-0.013590049882823661,0.5960866458354225,1.3030002690115705,-0.20000693627345298,-1.1293705230595747
124,-6.10534421657233,-1.9116942589672539,-0.6331063009527171,4.996900712100371,-2.8268504958654104,-2.5457556916485196,-0.29286066449129233,-0.008591173101268664,0.5956305718566062,1.2615147200060242,-0.193261603614709,-1.149205183221913
125,-6.121771328905705,-1.9119430825336654,-0.6355228653513119,5.011126007249982,-2.832436269995662,-2.574131771748686,-0.29272407389438115,-0.003905004916157931,0.5951986535149484,1.2225817239217194,-0.18700751722805092,-1.1679193346564711
126,-6.137128708167989,-1.9121757027167643,-0.6377820631474802,5.0244249515986334,-2.837658298679151,-2.6006600023489064,-0.29253108576045916,0.00047207519814329926,0.5947914036057145,1.1861704690808594,-0.1812268290405825,-1.185507192198528
127,-6.151432268849707,-1.9123923605753692,-0.6398862354947021,5.036811326529219,-2.842521993381241,-2.6253678740299016,-0.29229462509230825,0.004544613618969004,0.594409174890306,1.152245233650784,-0.17590146676594026,-1.2019675303201134
128,-6.164700107636936,-1.9125933302222926,-0.6418380445655134,5.0483008031283605,-2.8470335075876356,-2.648286646881882,-0.2920264176361079,0.008318024298013725,0.5940521669177768,1.1207651950314872,-0.17101323056304074,-1.2173036466280884
129,-6.1769525457839265,-1.9127789194661657,-0.6436404797848696,5.058910978879653,-2.8511997512125093,-2.6694514236987494,-0.291736995998504,0.011798537165256182,0.5937204324439129,1.0916842543878462,-0.16654387073967036,-1.2315233226160927
130,-6.188212171485933,-1.9129494704532641,-0.6452968640635413,5.0686614143569715,-2.855028405006693,-2.688901223172575,-0.29143571434292304,0.014993153427665003,0.5934138834371596,1.0649508750021432,-0.16247514664656304,-1.2446387818359486
131,-6.198503882251909,-1.9131053603093324,-0.6468108600314864,5.077573669917748,-2.8585279349658235,-2.7066790530879494,-0.2911307711458622,0.017909607863918223,0.5931322966706847,1.0405079331381974,-0.1587888671056043,-1.2566666457186004
132,-6.207854927277204,-1.9132470017814092,-0.6481864762712246,5.085671342396187,-2.8617076067385065,-2.7228319835161976,-0.29082923947089734,0.020556338105936146,0.5928753189080894,1.0182925801404625,-0.15546691291145318,-1.2676278873201086
133,-6.2162949498163265,-1.9133748438796525,-0.6494280735512254,5.092980101796614,-2.864577500034481,-2.7374112200099354,-0.2905371041940254,0.022942460790841335,0.5926424716968769,0.9982361145370673,-0.1524912421364725,-1.2775477832976605
134,-6.223856029555655,-1.913489372519165,-0.6505403710592836,5.0995277279867155,-2.867148523032779,-2.7504721767972846,-0.2902593055876473,0.025077754364946095,0.5924331557887601,0.9802638629735545,-0.14984387915221417,-1.2864558644404953
135,-6.2305727249861995,-1.9135911111618193,-0.6515284526359024,5.105344147390835,-2.869432426789891,-2.762074549976301,-0.28999978864065484,0.026972648226494516,0.592246655209301,0.9642950688650092,-0.14750688845469612,-1.2943858650972149
136,-6.236482115776273,-1.9136806214580822,-0.6523977730076678,5.110461469683231,-2.8714418196479246,-2.7722823907093037,-0.289761557457586,0.02863821780748197,0.5920821410012896,0.9502427877204703,-0.1454623345443389,-1.3013756718590888
137,-6.2416238451442645,-1.9137585038888407,-0.6531541640206311,5.114914024481348,-2.873190181642756,-2.781164178417253,-0.2895467340394595,0.03008618511876489,0.5919386746667414,0.9380137881577766,-0.1436922292635026,-1.307467271884994
138,-6.246040162231353,-1.9138253984072269,-0.6538038408736884,5.118738398039111,-2.87469187891221,-2.7887928939740725,-0.2893566207016964,0.031328924217737995,0.5918152113314803,0.9275084576891758,-0.14217846813450782,-1.3127067012911486
139,-6.249775964474253,-1.9138819850804425,-0.6543534083519611,5.121973469940198,-2.8759621781042197,-2.795246092901035,-0.28919176532960095,0.032379471005492655,0.5917106026539759,0.9186207124149791,-0.14090275736851438,-1.3171439940830179
140,-6.252878839977882,-1.9139289847315848,-0.6548098670601745,5.124660449791311,-2.877017260784963,-2.800605978561091,-0.2890520286085821,0.03325153672099856,0.5916235994965596,0.9112379098136628,-0.1398465333303491,-1.3208331321800493
141,-6.2553991098881845,-1.9139671595814716,-0.6551806196560332,5.126842913915447,-2.8778742378470605,-2.8049594753533036,-0.2889366522941866,0.0339595244741736,0.5915528543722338,0.9052407638606594,-0.13899087634651916,-1.3238319971796673
142,-6.257389870764772,-1.913997313890466,-0.6554734770836119,5.128566842045182,-2.8785511639177157,-2.808398301907122,-0.28884432750594785,0.03451854814730107,0.5914969236742329,0.9005032617455584,-0.13831642083375242,-1.3262023246247532
143,-6.258907036953698,-1.9140202946003015,-0.6556966648067202,5.129880654015939,-2.8790670517668646,-2.8110190442767298,-0.28877326193900255,0.03494445299534396,0.5914542696882196,0.8968925814870955,-0.13780326380387636,-1.3280096616818478
144,-6.260009382960188,-1.9140369919759075,-0.6558588290422933,5.130835246459278,-2.8794418867153757,-2.8129232291354818,-0.28872124478877254,0.03525383728870804,0.5914232623786116,0.8942690097695666,-0.13743087386920882,-1.3293233293022344
145,-6.26075858582136,-1.914048340247235,-0.6559690429937706,5.1314840294961614,-2.879696641043176,-2.814217396970239,-0.28868570807708216,0.03546407436602526,0.5914021809312092,0.8924858593428033,-0.13717800293262938,-1.3302163901248865
146,-6.261219267478911,-1.914055318251079,-0.6560368130844689,5.131882963430244,-2.87985328839743,-2.8150131752756558,-0.2886637829536811,0.03559333449723042,0.5913892150240749,0.8913893853411405,-0.13702260280025524,-1.3307656235862944
147,-6.261459037151926,-1.9140589500729082,-0.6560720851909649,5.132090595441114,-2.8799348182006943,-2.815427351748614,-0.2886523494259322,0.03566060599603765,0.5913824657877937,0.89081869988581,-0.1369417490061518,-1.3310515099232862
148,-6.261548533709554,-1.9140603056886851,-0.6560852508764836,5.132168096277625,-2.879965250059084,-2.8155819474825456,-0.2886480778423765,0.03568571506215826,0.5913799464050828,0.8906056843400812,-0.13691157419145897,-1.331158224986421
149,-6.261561468043713,-1.9140605016066947,-0.656087153624259,5.132179296951066,-2.879969648170433,-2.815604290161833,-0.2886474603239157,0.035689343873387,0.5913795822885298,0.8905748985859622,-0.1369072134409678,-1.3311736480187444
