nimar13/UR3e_dataset_trayectorias/data/trayectorias_completas_UR3e_JTRAJ/trayectoria_391.csv
Punto,shoulder_pan_joint,shoulder_lift_joint,elbow_joint,wrist_1_joint,wrist_2_joint,wrist_3_joint,Posicion_X,Posicion_Y,Posicion_Z,Roll,Pitch,Yaw
0,3.8301845633897997,-1.2866031390620118,-1.460934596282683,2.5305859952270193,-2.323236401834887,4.631697158228706,0.17925968929421235,0.05865423158770533,0.380293826087934,-1.504349725003669,0.1584985311157287,1.4495053819314339
1,3.8301600530792403,-1.2866055269392365,-1.4609353498689097,2.5305749817431447,-2.3232126156694948,4.6316985257998,0.17926283216370215,0.0586491632266232,0.3802923840917103,-1.5043422492463079,0.15851224996971605,1.4494585645891978
2,3.829990458850954,-1.2866220493816667,-1.4609405641592095,2.5304987761277986,-2.3230480320199383,4.631707988436507,0.17928457417079363,0.05861408870299147,0.3802824060596289,-1.5042905369452062,0.1586071847738627,1.4491346232101336
3,3.8295361000047197,-1.286666314554812,-1.4609545337320449,2.530294614135878,-2.3226070969841337,4.631733339727881,0.17934278466472187,0.05852007767011958,0.3802556703159374,-1.504152121616372,0.15886160938919433,1.4482667704404355
4,3.8286631172635093,-1.286751363481476,-1.4609813741822493,2.5299023473255486,-2.3217599060920837,4.631782048452318,0.17945447036633203,0.05833927346477067,0.3802042866554244,-1.5038866956303432,0.15935079690027135,1.4465993883511281
5,3.827243392478,-1.2868896778644139,-1.461025024589767,2.5292644069781995,-2.320382126382678,4.631861263057703,0.17963566165901768,0.058044739118608954,0.38012068013066386,-1.5034564930320147,0.16014733587842173,1.4438879270400409
6,3.8251544683310774,-1.2870931879089904,-1.4610892499883912,2.528325768018398,-2.318354918480489,4.63197781614156,0.17990125952553795,0.05761026334118465,0.3799975718424264,-1.5028267972295826,0.1613215240629379,1.4398988166788533
7,3.8222794680423453,-1.2873732801458386,-1.4611776438345063,2.527033912933847,-2.3155648586725732,4.632138228931193,0.18026484717856575,0.057010135515667144,0.3798279579347581,-1.5019665547088386,0.16294181957752865,1.4344093873715202
8,3.8185070150726332,-1.2877408052535166,-1.4612936304758253,2.5253387956953364,-2.31190386098527,4.63234871576384,0.18073846879824382,0.05621889899394729,0.37960508821399636,-1.500849078924292,0.16507532852538648,1.427207789995794
9,3.8137311528285034,-1.2882060858811673,-1.4614404676201307,2.5231928056767003,-2.3072690992609974,4.632615188566812,0.1813323761961413,0.055211092346232477,0.37932244604157855,-1.499452831469977,0.16778830642458153,1.418092909779364
10,3.8078512643667595,-1.2887789244711745,-1.4616212488040137,2.5205507315747715,-2.3015629292350552,4.632943261337649,0.1820547427808588,0.0539609887151154,0.37897373138028867,-1.497762270438992,0.17114664958963313,1.4068742626939308
11,3.8007719920989533,-1.289468611081822,-1.4618389058616146,2.5173697253293352,-2.294692810612421,4.6333382546242605,0.18291134300668174,0.05244234406069376,0.3785528490921642,-1.495768758471763,0.17521635133759664,1.393371862788348
12,3.7924031574958925,-1.2902839312099523,-1.4620962113933618,2.513609266043086,-2.2865712291445495,4.633805200005073,0.18390519463777766,0.050628165882096385,0.3780539047854939,-1.4934715253358302,0.18006389687406546,1.3774160462669427
13,3.7826596807921486,-1.2912331736136227,-1.4623957812347117,2.509231123901581,-2.277115618706171,4.63434884456918,0.18503616074755516,0.048490514979705225,0.37747121068125594,-1.490878681986252,0.18575656994971557,1.358847235394189
14,3.7714615006905654,-1.292324138134765,-1.4627400769248886,2.5041993240931957,-2.266248283372091,4.634973655396488,0.18630050848574525,0.046000353988593,0.3767993041091217,-1.4880082849896124,0.192362643904342,1.3375156221280324
15,3.7587334940667643,-1.293564143521843,-1.4631314081756246,2.498480110729078,-2.2538963194939896,4.63568382403786,0.18769042237457426,0.04312745775537924,0.376032981342179,-1.4848894520784819,0.19995142954402864,1.3132807477318058
16,3.7444053956736547,-1.29496003525251,-1.4635719353398986,2.4920419107631053,-2.2399915377772186,4.636483270995271,0.18919347133063022,0.03984040210841539,0.37516734952833425,-1.4815635316223648,0.20859315241354554,1.2860109505008608
17,3.72841171784594,-1.2965181933562673,-1.4640636718806768,2.4848552979118352,-2.2244703853576,4.637375650201943,0.1907920308402659,0.03610664910994442,0.37419789946309845,-1.4780853312023747,0.21835863238147762,1.2555826492135056
18,3.7106916702046253,-1.2982445402371228,-1.4646084868396514,2.4768929565744657,-2.207273867878228,4.638364353502504,0.19246266482810334,0.031892748360249745,0.3731206018582605,-1.4745244135597324,0.2293187389539463,1.2218794250619127
19,3.6911890793615254,-1.3001445484962477,-1.4652081073059822,2.4681296457527857,-2.1883474715662645,4.639452515133124,0.19417547582256695,0.027164675179425352,0.3719320295757415,-1.470966472286349,0.2415435962140248,1.1847908597572372
20,3.6698523086237738,-1.3022232487546357,-1.4658641208850336,2.4585421629711326,-2.167641085309739,4.640643016201672,0.19589343708831375,0.02188832729888672,0.37062950799452626,-1.4675148050723927,0.25510151150354077,1.1442110823862435
21,3.646634177698327,-1.30448523747576,-1.466577978167117,2.4481093081963454,-2.145108922734347,4.641938489167856,0.19757172647378488,0.016030201771316956,0.3692112952371582,-1.464291909399632,0.27005760157129216,1.1000369726107408
22,3.6214918823964757,-1.3069346847882322,-1.467350995196229,2.436811847757722,-2.120709444280251,4.643341322323375,0.19915708876665597,0.009558272817824388,0.3676767933752146,-1.4614412344122512,0.28647208842906546,1.0521659631875988
23,3.5943869143383504,-1.30957534230846,-1.468184355938791,2.4246324782669704,-2.094405279278876,4.644853664272058,0.20058726123494805,0.002443088889332319,0.36602679093446444,-1.4591291331905512,0.30439823396438814,1.0004933808969776
24,3.5652849806574296,-1.3124105509633048,-1.4690791147523898,2.4115557905381673,-2.0661631480297107,4.646477428410024,0.20179050552652814,-0.005340897094252858,0.36426373600534073,-1.4575470712343968,0.3238798766894891,0.9449092623820649
25,3.5341559237050477,-1.3154432488127408,-1.4700361988545168,2.3975682335077115,-2.035953783877105,4.648214297405815,0.2026852978435714,-0.013813756979730113,0.362392038012027,-1.4569141583412684,0.3449485249608196,0.8852945811741907
26,3.500973640754902,-1.3186759788725115,-1.4710564107913078,2.3826580781542788,-2.00375185528707,4.650065727680553,0.20318023778535083,-0.022988278070646146,0.36041839468939635,-1.457480079775676,0.36761994760204736,0.8215168262427314
27,3.4657160037075614,-1.3221108969367892,-1.4721404309062824,2.3668153814187756,-1.9695358879240743,4.652032953888082,0.2031742437729854,-0.032867929627481036,0.3583521390565611,-1.4595285043333617,0.3918901841558871,0.7534248843249121
28,3.4283647787949723,-1.325749779400832,-1.4732888198090845,2.3500319501242966,-1.933288186727847,4.6541169933951165,0.20255710866174814,-0.04344463517043805,0.3562055991674638,-1.4633810342616533,0.4177308722813615,0.6808432044155857
29,3.3889055462849687,-1.3295940310836418,-1.4745020208442212,2.3323013048960783,-1.894994757990173,4.6563186507613885,0.201210491963092,-0.05469639948768355,0.3539944611883975,-1.4694017228787835,0.4450837590918462,0.6035652741767106
30,3.347327620185778,-1.3336446930506236,-1.4757803625598027,2.313618644081453,-1.8546452314316921,4.658638522219797,0.19900942384547846,-0.0665848611732767,0.3517381239459343,-1.4780021004954191,0.4738542279674046,0.521346533254778
31,3.303623967950528,-1.3379024504362418,-1.4771240611762828,2.2939808076698047,-1.8122327822787003,4.661077000156547,0.19582438947523448,-0.07905286583161376,0.3494600305769511,-1.4896464867608143,0.503903636983181,0.43389701781375073
32,3.257791130181759,-1.3423676402666795,-1.4785332230551973,2.273386241212525,-1.7677540533399456,4.663634277591308,0.1915240490084386,-0.09202218073569367,0.3471879603925774,-1.5048570800798635,0.5350402394956579,0.34087432117598193
33,3.2098291403359243,-1.3470402592824957,-1.4800078471679048,2.2518349597429648,-1.7212090770834285,4.66631035265735,0.18597862748703511,-0.10539149716857849,0.34495426166569826,-1.5242178326500875,0.5670084614056715,0.24187793675028438
34,3.1597414444279046,-1.3519199717612842,-1.4815478275643257,2.2293285116963935,-1.6726011977132003,4.669105033081698,0.1790639791444943,-0.11903488984190307,0.34279600392146004,-1.548375350151984,0.5994763797104224,0.13644681445068566
35,3.1075348207355122,-1.3570061173403303,-1.4831529558416825,2.20586994282995,-1.621936993246162,4.6720179406652775,0.17066629178013026,-0.13280092109692015,0.34075502663285895,-1.5780338955116398,0.6320214461747921,0.024063113898731895
36,3.053219299503998,-1.36229771883927,-1.4848229236132389,2.181463760142601,-1.569226197588864,4.675048515763057,0.16068734919410183,-0.1465125880497642,0.33887786020202343,-1.6139399653075566,0.6641149284348219,-0.09583326102996825
37,2.9968080826505608,-1.3677934900827478,-1.4865573249770403,2.156115895795092,-1.514481622614302,4.678196021764201,0.1490502143634964,-0.159968310170209,0.33721549496009595,-1.656849958596933,0.6951063393757512,-0.2238128233887509
38,2.9383174634688567,-1.3734918437230739,-1.4883556589846527,2.129833671029907,-1.45771908023872,4.681459549572214,0.13570513534827508,-0.17294413968253072,0.33582297486698715,-1.7074727311657654,0.7242104501180825,-0.3603991203636479
39,2.8777667463335033,-1.3793908990628838,-1.490217332109903,2.1026257600912186,-1.3989573044984063,4.6848380220850885,0.12063541332928475,-0.18519734465715018,0.3347587948498594,-1.7663787594157077,0.7505014045462542,-0.5059775062738804
40,2.815178166404587,-1.3854884898777944,-1.4921416607176186,2.074502154144847,-1.3382178736264916,4.688330198675449,0.10386291244221901,-0.19647146245689068,0.33408408447330085,-1.8338719251224236,0.7729207293387328,-0.6606660635786815
41,2.7505768093321747,-1.3917821722390633,-1.4941278735323664,2.045474125198212,-1.2755251321297505,4.691934679670705,0.08545284008649641,-0.20650284824705253,0.3338615660270584,-1.9098321298003142,0.7903077226932362,-0.8241568631592198
42,2.683990530960819,-1.3982692323362471,-1.4961751141071937,2.0155541900202887,-1.2109061128653988,4.695649910833192,0.06551739095828783,-0.21502865020371573,0.3341542822255345,-1.9935588466026322,0.8014598691679481,-0.9955576512192309
43,2.615449877034064,-1.4049466942998576,-1.4982824432923674,1.9847560740615637,-1.1443904591178917,4.699474187840322,0.04421783542195979,-0.22179603263840017,0.33502409752660267,-2.083671710514534,0.8052250819753975,-1.1732900344690427
44,2.544988002898957,-1.4118113280240223,-1.5004488417041133,1.9530946753739884,-1.0760103466757238,4.703405660764728,0.02176465001348599,-0.22657234577017382,0.33652998747847845,-2.1781363986203863,0.8006157481100172,-1.3551123717034952
45,2.4726405932105537,-1.4188596569891403,-1.5026732121933561,1.9205860285309346,-1.0058004059082286,4.707442338554416,-0.0015846591743543317,-0.22915581423083847,0.3387261422515753,-2.2744586238510025,0.7869204569078819,-1.5383101300907078
46,2.3984457816364255,-1.4260879660845414,-1.5049543823144598,1.8872472685471497,-0.9337976438423736,4.711582093512903,-0.025530296798056875,-0.2293861960129826,0.34165992323164146,-2.370021155677986,0.7637819488484453,-1.7200285253001506
47,2.3224440705611693,-1.433492309431144,-1.507291106793966,1.8530965947987106,-0.8600413662395641,4.715822665779375,-0.04973760550996742,-0.22715476193767686,0.3453697247264096,-2.4624642491839204,0.7312175269465239,-1.8976476941253457
48,2.24467825079091,-1.441068518204113,-1.5096820699993354,1.8181532349429796,-0.7845730996724372,4.720161667808824,-0.07384713242965467,-0.22241287648937827,0.34988280582284886,-2.549985164847612,0.6895792330891457,-2.0690758997064154
49,2.165193321257819,-1.4488122084555173,-1.5121258884076854,1.7824374088385593,-0.7074365136016652,4.7245965888522035,-0.09748708613549052,-0.2151784376464615,0.35521316946249276,-2.6314784915902667,0.6394727707386132,-2.232882236766264
50,2.0840364087246073,-1.4567187889369893,-1.5146211130745317,1.745970292465246,-0.6286773424527501,4.729124799436568,-0.12028771697494814,-0.20553946810834992,0.3613595760287652,-2.706517628669347,0.5816637073726859,-2.388268868024752
51,2.001256687489045,-1.4647834689223809,-1.5171662321025272,1.7087739818439873,-0.548343307692827,4.733743555845225,-0.14189693464913142,-0.1936542516674122,0.3683037862694566,-2.775233815261142,0.5169948022569466,-2.5349387573102584
52,1.9169052990884643,-1.4730012660304235,-1.5197596731102017,1.6708714569568346,-0.4664840399074579,4.738450004597882,-0.1619962787431538,-0.1797475797898617,0.3760091323266531,-2.8381603238638102,0.44632664312854153,-2.672925971022907
53,1.8310352720042653,-1.4813670140473845,-1.522399805700701,1.6322865456668987,-0.3831510008774335,4.7432411869307884,-0.18031620320089298,-0.16410291139587277,0.3844195152065342,-2.8960902111413813,0.3705032418538173,-2.8024362535916585
54,1.7437014413664271,-1.489875370749726,-1.525084943930529,1.5930438876383057,-0.29839740565557227,4.748114043276888,-0.1966495476368162,-0.1470505421867412,0.393458921527364,-2.949970099594775,0.29033842912137614,-2.923719503343089
55,1.6549603686580152,-1.498520825726763,-1.527813348778284,1.553168898256151,-0.21227814464351846,4.753065417745966,-0.21086206696921023,-0.1289522093571045,0.40303154138543057,-3.000833667300685,0.2066173567573441,-3.0369768275933304
56,1.5648702614196859,-1.507297708203321,-1.5305832306134008,1.512687732546453,-0.12484970566853937,4.75809206260479,-0.2228989905010151,-0.11018289641421042,0.4130225525068483,-3.049769299692513,0.12010828406753693,3.1408897606157313
57,1.4734908929541999,-1.5162001948623935,-1.53339275166489,1.4716272490961109,-0.036170096060328394,4.763190642757265,-0.232786788034416,-0.09111091870950289,0.42329961367693525,-3.0979137964729055,0.031581509408504266,3.0435822424442307
58,1.380883522030922,-1.525222317667802,-1.5362400284900772,1.4300149739728585,0.05370123527220372,4.768357740224574,-0.24062962882678923,-0.07207762798835309,0.43371508330325287,3.136720739465483,-0.05816604029104041,2.9545536575368487
59,1.2871108125903343,-1.5343579716868514,-1.539123134443343,1.3878790646452166,0.14470347576411902,4.7735898586253285,-0.24660041205532182,-0.053378239577775516,0.4441089478099555,3.0864814578163697,-0.1482807510453594,2.8742964501661556
60,1.1922367534485452,-1.5436009229129901,-1.5420401021448626,1.3452482739024514,0.23677452711766378,4.778883427655714,-0.25092669588610644,-0.0352453298356603,0.4543124106950455,3.033156813570749,-0.23781614528837147,2.803553260466463
61,1.0963265780017895,-1.5529448160884671,-1.544988925949346,1.3021519137745272,0.32985108322546486,4.784234807569637,-0.2538723169369548,-0.017836454860453113,0.4641520581583546,2.9752087805567062,-0.32568972060338713,2.7433345918994916
62,0.9994466839309446,-1.5623831825269903,-1.547967564414777,1.258619819452063,0.4238687080937349,4.7896402936588744,-0.2557159266761294,-0.0012270982340158235,0.4734544831353145,2.910949925483264,-0.41063279253381074,2.694916613990327
63,0.9016645529060363,-1.5719094479363833,-1.550973942771153,1.214682313206287,0.5187619137654611,4.795096120733216,-0.2567280277436031,0.014590224360940806,0.48205121841217247,2.8385805372434296,-0.4911362687498158,2.6597937792676687
64,0.803048670290738,-1.581516940241246,-1.5540059553892256,1.1703701683089882,0.6144642382436265,4.800598467600617,-0.25714832646885294,0.029700365909884435,0.4897838033386182,2.7563161410491457,-0.5654020718937356,2.6395421258099883
65,0.7036684448468926,-1.5911988974056097,-1.5570614682492394,1.125714572952478,0.7109083234143925,4.8061434615473395,-0.25716529260642984,0.0442536749329957,0.49650878945863586,2.6626681074028293,-0.6313226721828741,2.6355309572997028
66,0.6035941284390067,-1.600948475255598,-1.5601383214096718,1.0807470941695376,0.808025992970316,4.811727182818104,-0.2568997129921378,0.05844864239339566,0.5021024798419336,2.5569333193439054,-0.6865296908749715,2.6484270521781044
67,0.5028967357387684,-1.610758755302082,-1.563234331475973,1.035499641753379,0.9057483303335325,4.817345669096233,-0.2563937407689519,0.07251039081002693,0.5064651962915321,2.439867136347706,-0.7285673136159377,2.677517110535388
68,0.4016479639295474,-1.6206227525633405,-1.5663472940693057,0.9900044321775971,1.0040057565789753,4.8229949199838,-0.2556064951027639,0.08666675180754788,0.5095248786610044,2.3143133739364945,-0.7552302416649248,2.720074559813786
69,0.2999201124109092,-1.6305334233877167,-1.569474986295285,0.9442939525161238,1.1027281083575633,4.828670901481775,-0.25441669695625957,0.10112394721601925,0.5112398413353649,2.1853334182930726,-0.7650255867765235,2.771228354847744
70,0.19778600250311484,-1.6404836732762766,-1.572615169212717,0.8984009243631847,1.2018447158194143,4.834369550470177,-0.2526321900770969,0.1160439665316859,0.5116005429246063,2.0594303255939526,-0.7575910401169591,2.8247375842145392
71,0.0953188971516381,-1.6504663647054678,-1.5757655903023404,0.852358267753254,1.301284480537031,4.840086779188209,-0.25000555900195987,0.13152560454906245,0.5106302651131667,1.9430318306570233,-0.733846670767141,2.874507494459302
72,-0.007407579368333472,-1.660474324949776,-1.5789239859355646,0.8061990650810089,1.400975953428516,4.84581847971442,-0.2462544865048254,0.1475907952445184,0.5083846434914173,1.8410347763907475,-0.6957868815635788,2.9160437756892996
73,-0.1103195217473889,-1.6705003539043846,-1.5820880838432099,0.7599565250212819,1.5008474126807712,4.851560528446839,-0.24108505471371774,0.16417738300184354,0.5049500446241002,1.7561561734687088,-0.6460409339024624,2.9470989943384733
74,-0.21334282393739024,-1.6805372319078313,-1.5852556055842477,0.7136639464490218,1.6008269416726857,4.85730879058313,-0.23421593638867366,0.18113886183241618,0.5004408367605642,1.6891571197312936,-0.5874284934010392,2.9674436801090396
75,-0.3164032594469486,-1.6905777275646665,-1.5884242690145398,0.6673546823592451,1.700842506898352,4.863059124600736,-0.22540137445020084,0.1982509535002675,0.4949956534399988,1.6394980152495218,-0.5226575366178585,2.978201899936872
76,-0.4194265616369517,-1.7006146055681133,-1.5915917907555777,0.6210621037869837,1.80082203589027,4.868807386737028,-0.21445101320069732,0.21522425879179866,0.4887727967777304,1.605989152626881,-0.45418514607725696,2.981184948657192
77,-0.5223385040160089,-1.710640634522722,-1.5947558886632232,0.574819563727258,1.9006934951425243,4.874549435469446,-0.2012450030375215,0.2317216720998733,0.4819449676413971,1.5872417335209694,-0.3841924173490713,2.9784152384878664
78,-0.625064980535976,-1.72064859476703,-1.597914284296447,0.5286603610550129,2.0003849680340076,4.880281135995657,-0.18574330851079712,0.24737885593143555,0.47469354086202464,1.5819092713091307,-0.3146164984027146,2.9718471483829236
79,-0.7275320858874545,-1.7306312861962214,-1.6010647053860705,0.48261770444508123,2.099824732751626,4.885998364713689,-0.16798874714265677,0.2618258679798888,0.4672026232852088,1.588777557170974,-0.24719976279256214,2.963223473517664
80,-0.8296661957952463,-1.7405815360847812,-1.6042048883035027,0.43672467629214395,2.1989413402134743,4.89169701370209,-0.14810390431149906,0.2747080346782514,0.45965313977545963,1.6067629247294068,-0.18353391795529944,2.9540057115002303
81,-0.9313940473138871,-1.7504922069091573,-1.6073325805294818,0.39101419663067016,2.297663691992063,4.897372995200066,-0.12628263849095442,0.2857043625043874,0.45221718695058355,1.634861150410388,-0.12508835896045023,2.9453367344712857
82,-1.0326428191231098,-1.7603562041704157,-1.6104455431228146,0.3455189870548878,2.395921118237506,4.903022246087633,-0.10277735068836426,0.29454213975830956,0.44505287694823853,1.672074205210447,-0.07321828442587709,2.9380147847609233
83,-1.1333402118233469,-1.7701664842168998,-1.6135415531891157,0.30027153463872924,2.4936434556007216,4.908640732365762,-0.07788349748357731,0.30100685723979764,0.43829986516799196,1.7173340089920734,-0.02915169020016401,2.932473302175271
84,-1.2334145282312328,-1.7799160620668883,-1.6166184063495481,0.2553040558557891,2.5907611251566443,4.9142244536365265,-0.05192295484634404,0.3049471056954353,0.43207571859023264,1.7694396377031238,0.006042542763289555,2.928771868120079
85,-1.3327947536750777,-1.7895980192312522,-1.619673919209562,0.21064846049927866,2.6872052103274124,4.919769447583249,-0.025227788726737123,0.30627462807994105,0.42647323734690834,1.827023383645351,0.0314996725040006,2.9266094806394527
86,-1.4314106362903765,-1.7992055115361147,-1.6227059318276345,0.16633631560197948,2.782907534805577,4.92527179445065,0.0018742216240445475,0.30496015819079947,0.42155879442448435,1.8885577299424976,0.046607672650848114,2.925371365021504
87,-1.5291927673152852,-1.8087317769455078,-1.6257123101840107,0.12239880935620384,2.8778007404773045,4.9307276215249916,0.02907129318409137,0.3010260190890079,0.4173717095537589,1.9524071560575658,0.05104724862869436,2.924213816637115
88,-1.6260726613861287,-1.8181701433840307,-1.6286909486494416,0.07886671503373943,2.9718183653455728,4.936133107614229,0.056075971604761896,0.2945366569666429,0.4139246262449647,2.016916500663235,0.044811614917890936,2.922179898026373
89,-1.7219828368328844,-1.8275140365595075,-1.6316397724539249,0.03577035490581615,3.0648949214533725,4.941484487528152,0.08262990130940298,0.2855883398989584,0.411204818063788,2.080515898559063,0.028198639554913935,2.9183272044721726
90,-1.8168568959746736,-1.8367569877856464,-1.6345567401554446,-0.006860435836949286,3.1569659728069186,4.9467780565585375,0.10850524289521236,0.27429916577957736,0.4091763137094543,2.1418169593725827,0.001775016894076272,2.9118435035735253
91,-1.910629605415263,-1.8458926418046961,-1.6374398461087103,-0.04899634516459184,3.247968213298836,4.952010174959292,0.1335032713572561,0.2608003246442956,0.4077827018235813,2.199678866246325,-0.03368080115795955,2.9021299651992862
92,-2.003236976338542,-1.8549147646101043,-1.6402871229338976,-0.09060862028784378,3.337839544631368,4.957177272426601,0.15745091311724335,0.24522928319731555,0.40695045671377184,2.253234145810733,-0.07724591446024884,2.8888426897626833
93,-2.0946163448040274,-1.8638172512691775,-1.643096643985387,-0.13166910373818652,3.426519154239578,4.962275852579076,0.18019609147897797,0.227725244420843,0.4065926156968585,2.301876164690158,-0.12791923640954295,2.871895512363913
94,-2.1847064520423523,-1.8725941337457348,-1.6458665258205036,-0.1721502694478838,3.513947593214556,4.9673024974379,0.2016027503715391,0.20842692293022236,0.4066126373491435,2.345218721252588,-0.184678280178783,2.851435405731399
95,-2.273447524750763,-1.8812395887227713,-1.6485949306682586,-0.21202525883003887,3.6000668542266108,4.972253871906977,0.2215463293401856,0.18747240212816096,0.4069082768730211,2.3830405804730197,-0.246522146200818,2.8278044019923643
96,-2.3607813553886086,-1.8897479454251134,-1.6512800688980864,-0.2512679168586329,3.684820449448473,4.977126728253078,0.23991029241002756,0.1650006281997118,0.4073753289066812,2.415225734130995,-0.3125000325000056,2.8015001198283827
97,-2.4466513824728082,-1.8981136934420746,-1.653920201488586,-0.28985282814856816,3.768153488478496,4.9819179105859845,0.25658409869765975,0.14115396370934422,0.40791110796456204,2.441706038973996,-0.3817269285064973,2.773143244793835
98,-2.5310027708733855,-1.9063314905501167,-1.6565136424962603,-0.32775535303572134,3.850012756263865,4.986624359338641,0.27146277358772297,0.11608117399366315,0.4084175606668124,2.4624086963689304,-0.453389140796712,2.7434567414999314
99,-2.613782492108946,-1.914396170535509,-1.6590587615242558,-0.3649516636569796,3.93034679102379,4.991243115747298,0.2844480233737362,0.08994024665417216,0.4088039303033463,2.4772077273804785,-0.5267423024802793,2.7132592270344555
100,-2.6949394046421595,-1.922302751016981,-1.6615539861911022,-0.4014187800302924,4.009105962172704,4.995771326331662,0.29545065542943083,0.06290053440457441,0.4089889214437219,2.4858762333455093,-0.6011039642931442,2.6834740427690345
101,-2.774424334175251,-1.930046441268385,-1.6639978045994521,-0.43713460613471256,4.086242548243472,5.000206247375042,0.30439393494322814,0.03514384549706057,0.40890233876027393,2.4880344223799726,-0.6758420622447746,2.6551559898463033
102,-2.852190153945511,-1.937622650041354,-1.6663887678048215,-0.4720779659904437,4.161710814810604,5.004545249404491,0.31121743493972354,0.006864263116467619,0.4084861987148396,2.4830865966628517,-0.7503596474186693,2.6295392621441516
103,-2.928191865020761,-1.9450269933879565,-1.6687254922843278,-0.5062286397388807,4.235467092413408,5.008785821670963,0.315880918337501,-0.021733364621418505,0.40769533427836413,2.470138049974965,-0.8240752458884136,2.608112722538339
104,-3.0023866765948917,-1.9522553024833573,-1.6710066624054312,-0.5395673997226655,4.307469854479265,5.01292557662945,0.3183678227140246,-0.050436176333350374,0.40649753071353756,2.4478798852944688,-0.8963969690904003,2.592732182681092
105,-3.074734086283293,-1.9593036314484753,-1.6732310328946742,-0.5720760465657211,4.37767979524676,5.016962254419138,0.3186879895391475,-0.07902708392359563,0.4048732442569615,2.4144267462440436,-0.966686800145673,2.585782942507874
106,-3.1451959604183983,-1.9661682651726402,-1.6753974313064202,-0.6037374452532962,4.44605990768893,5.020893727343544,0.3168793768252977,-0.10728930320511719,0.40281496517115106,2.3670928352104497,-1.0342091023253075,2.5904059634744647
107,-3.2137366143451622,-1.9728457271362514,-1.677504760491594,-0.634535561212024,4.512575561436442,5.024718004350674,0.31300860385442963,-0.1350112916434497,0.40032629222389093,2.3021077617777954,-1.0980544421394638,2.6107852680851744
108,-3.2803228927165122,-1.979332787233435,-1.679552001066421,-0.6644554963899445,4.577194580700791,5.028433235513161,0.30717028636614696,-0.16199174668332797,0.39742078751820265,2.214343259124708,-1.157028224260581,2.652424952574299
109,-3.3449242497889244,-1.9856264695947032,-1.681538213881169,-0.6934835253365783,4.639887322197527,5.032037716508417,0.2994852200024396,-0.18804434022422717,0.3941206792139429,2.0973392177031984,-1.2095020097663576,2.7221269929540237
110,-3.407512829717838,-1.991724060409614,-1.6834625424888843,-0.7216071312829513,4.7006267530694466,5.0355298930987775,0.2900975514256131,-0.21300191155073483,0.3904554756221214,1.9444340929071042,-1.2532705371623507,2.8268645585323666
111,-3.468063546853191,-1.997623115749424,-1.6853242156141346,-0.74881504222164,4.759388528809762,5.038908365611652,0.2791711359434437,-0.23671990424338046,0.386460548033141,1.7524589357791167,-1.2855894066724691,2.970091449455258
112,-3.526554166034906,-2.0033214693897508,-1.6871225496217472,-0.7750972669868244,4.816151071185345,5.042171893419665,0.2668853161774388,-0.2590789040940531,0.38217573208213873,1.5283623842280984,-1.3037568192202853,-3.138065058733713
113,-3.5829653828883394,-2.0088172406332285,-1.6888569509855487,-0.8004451313343335,4.870895646159905,5.045319399420809,0.2534303692499179,-0.279986207404686,0.37764398904806357,1.2930895012672632,-1.3064077218674068,-2.9519390397034275
114,-3.6372809041198515,-2.014108842132167,-1.690526918757105,-0.8248513140216858,4.923606441817196,5.0483499745185885,0.23900286296344025,-0.29937641617587346,0.37291015975805214,1.073367683644964,-1.2946224477095147,-2.781221249328721
115,-3.6894875278122363,-2.019194987711214,-1.6921320470344619,-0.8483098828881257,4.974270646284243,5.051262882102168,0.22380113852855432,-0.31721111415320974,0.3680198351767504,0.8868818003256727,-1.2715149743737988,-2.6433909762362675
116,-3.7395752237202657,-2.0240747001900017,-1.6936720274308827,-0.8708163309346997,5.02287852565447,5.054057562526516,0.20802110316153744,-0.333477722763314,0.3630183596643497,0.7374122561315054,-1.2407289947598954,-2.5420376975330363
117,-3.7875372135660967,-2.0287473192058183,-1.6951466515435902,-0.892367612404259,5.069423501910986,5.056733637592558,0.1918524749483227,-0.3481876674990021,0.35794997555842734,0.6203536541363706,-1.2053337691412547,-2.472378349926199
118,-3.8333700513348674,-2.0332125090362565,-1.6965558134225047,-0.9129621788615392,5.113902230849742,5.059290915027319,0.17547557898264443,-0.36137400350948173,0.35285711135574627,0.5288204437463572,-1.167542814618788,-2.427361887267754
119,-3.8770737035701046,-2.037470266421873,-1.6978995120389844,-0.9326000152731826,5.156314680002719,5.061729392964069,0.15905875148437723,-0.37308865524800533,0.34777981044239664,0.4565661157986058,-1.1288512574135028,-2.4005876611471333
120,-3.9186516296692986,-2.041520928388856,-1.6991778537545665,-0.9512826760878088,5.19666420656122,5.0640492644224775,0.14275637010241274,-0.38339942094537655,0.3427552930755643,0.3987241145932111,-1.090249371733587,-2.387045768649584
121,-3.9581108621793177,-2.0453651800716663,-1.7003910547897032,-0.9690133213160319,5.234957635298894,5.06625092178875,0.12670749575024182,-0.39238688069789335,0.33781764113186047,0.351709922123461,-1.0523935600014453,-2.383018795871028
122,-3.9954620870918944,-2.049004062535708,-1.701539443692505,-0.9857967526105131,5.271205336495111,5.068334961295784,0.11103508513446068,-0.4001413294598726,0.33299759293520353,0.31292906765380835,-1.0157218737656846,-2.3857896828602794
123,-4.030719724139246,-2.0524389805999865,-1.70262346380748,-1.0016394493460137,5.305421303858115,5.070302187503314,0.09584571393242586,-0.40675983546579775,0.32832243416080403,0.28050420067376214,-0.9805279040951265,-2.393368819793499
124,-4.063902007089389,-2.055671710659758,-1.703643675744271,-1.0165496046994473,5.337623232448156,5.072153617778051,0.08122973810645141,-0.41234350255464597,0.3238159702598306,0.2530666912216847,-0.947007551279449,-2.4042858095315167
125,-4.095031064041763,-2.0587044085091923,-1.7046007598463975,-1.0305371617298977,5.367832596600746,5.073890486773841,0.06726181445235911,-0.4169949931455897,0.3194985659322932,0.22960797505339794,-0.9152888977037524,-2.4174410848053465
126,-4.124132997722683,-2.0615396171640388,-1.7054955186599967,-1.043613849458703,5.396074727849918,5.075514250911808,0.05400170025974325,-0.42081634843919885,0.31538723776319566,0.20937589385265865,-0.8854516339656721,-2.432002600961718
127,-4.151237965780808,-2.064180274684266,-1.7063288794025586,-1.0557932189494554,5.422378892851288,5.077026592860491,0.04149525487254681,-0.423907124620924,0.3114957871045523,0.19180264218064524,-0.8575399693482462,-2.4473341871306906
128,-4.17638026108267,-2.0666297219967396,-1.7071018964316707,-1.067090679388082,5.446778371305395,5.07842942601601,0.029775571929362865,-0.4263628488990421,0.30783496151931916,0.1764543837538769,-0.8315714106497665,-2.462945590550307
129,-4.199598392008113,-2.068891710717862,-1.707815753713754,-1.0775235341628662,5.46931053388079,5.079724898982194,0.018864179142145797,-0.4282737872933816,0.3044126345025902,0.16299565315007977,-0.8075428668734473,-2.4784573038751136
130,-4.22093516274586,-2.0709704109762503,-1.7084717672928054,-1.0871110169445135,5.49001692013729,5.080915400050742,0.008772251763354262,-0.4297240071444444,0.30123399467452705,0.15116389268687458,-0.7854349834324458,-2.4935755011341074
131,-4.240437753588957,-2.0728704192353753,-1.7090713877591361,-1.0958743277661984,5.50894331644928,5.082003561681363,-0.0004982043360708954,-0.43079071110287753,0.2983017371288603,0.14075100233255808,-0.7652152755562385,-2.5080739388879283
132,-4.258157801230283,-2.0745967661162314,-1.7096162027181112,-1.1038366691035701,5.5261398339286565,5.0829922649819235,-0.00895323438053255,-0.4315438155422655,0.29561625106459294,0.13158979983173966,-0.7468404265210135,-2.5217807017355978
133,-4.274151479057998,-2.0761549242199893,-1.7101079392588892,-1.1110232819548447,5.541660986348258,5.083884644188595,-0.0166059064480589,-0.4320457445076791,0.29317579918498704,0.12354396334017155,-0.7302579897968147,-2.534568350112038
134,-4.288479577451092,-2.077550815950654,-1.7105484664231627,-1.1174614819208077,5.555565768065033,5.084684091146005,-0.023475390194180573,-0.4323514100421877,0.290976685587176,0.11650047679498605,-0.7154076546166275,-2.546346480207308
135,-4.301207584074895,-2.0787908213377335,-1.7109397976738987,-1.123180695284928,5.567917731943137,5.085394259787378,-0.029586152127628454,-0.4325083506092515,0.2890134099674878,0.11036389734876759,-0.7022221837468522,-2.5570560090400227
136,-4.312405764176482,-2.0798817858588743,-1.711284093364076,-1.12821249509331,5.57878506727722,5.086019070614686,-0.03496727077244008,-0.43255700096982536,0.28727880692037205,0.10505196569061968,-0.6906280995366096,-2.566664703315407
137,-4.322149240880229,-2.080831028262546,-1.7115836632054255,-1.1325906372348218,5.588240677715593,5.086562715178793,-0.03965186989933767,-0.4325310689467151,0.2857641699071858,0.10049221720901018,-0.680546173028665,-2.5751636118084256
138,-4.330518075483276,-2.0816463483906746,-1.711840968737173,-1.1363510965210626,5.596362259183454,5.087029660559605,-0.04367666392482156,-0.43245799673834484,0.28445936011498535,0.09661934633473367,-0.6718917569153681,-2.582564159133254
139,-4.337597347751107,-2.0823360350013242,-1.712058625794774,-1.1395321027665073,5.603232377806105,5.087424653846217,-0.04708160649578419,-0.43235948661095597,0.28335290091798065,0.09337314216616346,-0.664574993819678,-2.588895727930366
140,-4.343477236212827,-2.0829088735913297,-1.7122394069786573,-1.1421741768684317,5.60893854783205,5.087752726617055,-0.04990963111756063,-0.43225207274017163,0.2824320590020475,0.09069685995085157,-0.6585009251008954,-2.594203605977639
141,-4.348253098456965,-2.0833741542189808,-1.7123862441229618,-1.1443201668870682,5.613573309556312,5.088019199420026,-0.05220647135456093,-0.43214772258052003,0.28168291342334795,0.08853592638576291,-0.6535695210351242,-2.598547210682342
142,-4.352025551426678,-2.0837416793266605,-1.7125022307642814,-1.1460152841255837,5.617234307243631,5.088229686252673,-0.05402054753959763,-0.4320544523522315,0.28109041395629564,0.08683690119214876,-0.6496756500854395,-2.6019985300024815
143,-4.35490055171541,-2.084021771563508,-1.7125906246103961,-1.1473071392101257,5.620024367051531,5.088390099042306,-0.05540290698095642,-0.43197694202566383,0.2806384300545229,0.08554663586261393,-0.6467090025795817,-2.604640738938543
144,-4.356989475862342,-2.0842252816080835,-1.7126548500090208,-1.1482457781699313,5.622051574953712,5.0885066521261635,-0.05640720525935017,-0.43191713556474504,0.28030979161464803,0.08461158482261076,-0.6445539821461087,-2.606566966307621
145,-4.358409200647863,-2.0843635959910216,-1.7126985004165383,-1.148883718517288,5.623429354663148,5.088585866731549,-0.05708971726878902,-0.43187481219563395,0.2800863225111872,0.08397723583441558,-0.6430895765299037,-2.6078791989578973
146,-4.359282183389048,-2.0844486449176864,-1.7127253408667424,-1.149275985327618,5.62427654555518,5.088634575455985,-0.05750936807590656,-0.43184811414575175,0.2799488675783124,0.08358763620659848,-0.6421892177992006,-2.6086873208778316
147,-4.359736542235289,-2.084492910090831,-1.7127393104395783,-1.1494801473195349,5.624717480590991,5.088659926747359,-0.05772777534401377,-0.4318340157099472,0.2798773133699461,0.08338499984539467,-0.6417206404211527,-2.6091082934766736
148,-4.359906136463586,-2.0845094325332623,-1.7127445247298778,-1.149556352934889,5.624882064240541,5.088669389384066,-0.05780929686909619,-0.4318287177043718,0.27985060265561856,0.08330938772699649,-0.6415457442211004,-2.6092654910905564
149,-4.359930646774124,-2.084511820410486,-1.7127452783161046,-1.1495673664187525,5.624905850405927,5.08867075695516,-0.05782107856704137,-0.4318279504180512,0.27984674223048883,0.08329846109652553,-0.641520467888542,-2.609288212730107
