nimar13/UR3e_dataset_trayectorias/data/trayectorias_completas_UR3e_JTRAJ/trayectoria_403.csv
Punto,shoulder_pan_joint,shoulder_lift_joint,elbow_joint,wrist_1_joint,wrist_2_joint,wrist_3_joint,Posicion_X,Posicion_Y,Posicion_Z,Roll,Pitch,Yaw
0,-4.560616318283773,-2.3168883880515234,-0.9277398410054445,-5.552328514698394,-0.6832034120151489,-3.59446058375982,-0.15749210984037548,-0.3075832641726131,0.35494931214882297,0.06328746015802951,0.37671098509527084,2.7119954659365177
1,-4.56058491986262,-2.3168859862164974,-0.9277357542162985,-5.552294434177112,-0.6832025331480791,-3.594448876638737,-0.15748276956191745,-0.3075865744007295,0.3549471826702793,0.0633359364961896,0.3767328196600048,2.712041258641136
2,-4.560367664720462,-2.316869367195831,-0.9277074764900856,-5.552058620775544,-0.6831964520018563,-3.5943678715384255,-0.15741813931260806,-0.3076094750869929,0.3549324466974676,0.06367137734732618,0.3768838854233095,2.7123581388366236
3,-4.559785617815171,-2.316824843280532,-0.9276317178089908,-5.5514268545524486,-0.6831801600406884,-3.5941508512760705,-0.15724497117470504,-0.307670795619595,0.3548929550080409,0.06457021383982128,0.37728848263841586,2.7132073202871605
4,-4.558667301517151,-2.316739297219419,-0.9274861588050436,-5.550213010002459,-0.6831488574677596,-3.5937338792173135,-0.15691218223479345,-0.30778848081483073,0.35481702609380855,0.0662978445957308,0.37806535588572976,2.7148398348407725
5,-4.556848592748477,-2.3166001743507394,-0.9272494373718437,-5.548238944408691,-0.6830979503460728,-3.593055760923862,-0.15637076691138843,-0.3079794975090995,0.35469339940981753,0.06910930752093138,0.3793273703865654,2.717497419556481
6,-4.5541726201220385,-2.3163954747337856,-0.926901135276288,-5.5453343861953535,-0.6830230477192911,-3.592058005801095,-0.15557369098828225,-0.3082597098318116,0.3545111780321557,0.07325011308938024,0.3811810616433986,2.7214136282043526
7,-4.550489661080665,-2.3161137452805103,-0.9264217647702964,-5.5413368232803535,-0.6829199587325793,-3.5906847887456723,-0.15447576897265325,-0.30864372874478324,0.3542597646053171,0.07895722066596811,0.3837260696027521,2.726815130952154
8,-4.545657039036274,-2.3157440718871443,-0.925792755202538,-5.536091391427909,-0.6827846897534455,-3.588882911793141,-0.15303352550794247,-0.30914474088836646,0.35392879508079234,0.08646014529722315,0.38705446230802204,2.7339231704326696
9,-4.539539020509003,-2.315276071565812,-0.9249964396301578,-5.529450762601155,-0.6826134414925836,-3.5866017657655416,-0.1512050406642333,-0.30977432108610903,0.35350807539916684,0.09598218792267904,0.39124994753293274,2.7429551464774344
10,-4.53200671226635,-2.3146998845761484,-0.9240160414305028,-5.521275033314753,-0.682402606124714,-3.5837932919190187,-0.1489497780495563,-0.3105422319457385,0.3529875269026463,0.10774178658551027,0.3963869643528127,2.7541263053032887
11,-4.522937958462308,-2.3140061665569145,-0.9228356609128481,-5.511431612987498,-0.682148764409426,-3.580411943591426,-0.14622839388422368,-0.3114562127619908,0.3523571468468889,0.12195398936520997,0.40252964014284837,2.76765151146409
12,-4.512217237776505,-2.3131860806576148,-0.9214402619301234,-5.4997951122949305,-0.6818486828120187,-3.5764146478499352,-0.14300252452076737,-0.3125217582808369,0.3516069908800289,0.13883205073942667,0.40973059216733937,2.7837470819100654
13,-4.499735560553338,-2.312231289670113,-0.9198156584906394,-5.486247231521942,-0.6814993106243441,-3.5717607671386413,-0.13923454946239397,-0.3137418857362288,0.35072718474620856,0.1585891510661052,0.4180295468055768,2.802632660296679
14,-4.485390365941116,-2.3111339481602484,-0.9179485013698138,-5.470676648915385,-0.6810977770856471,-3.566412060926173,-0.13488732685654206,-0.315116885848919,0.3497079727251102,0.18144023276582413,0.42745174364207955,2.824533105203854
15,-4.469085419031194,-2.3098866945994536,-0.9158262647218977,-5.4529789090366805,-0.6806413885034087,-3.560332647353299,-0.12992389888562964,-0.31664405014339636,0.3485398104105505,0.20760393510759279,0.43800608631747556,2.849680356674031
16,-4.450730707997108,-2.308482643496368,-0.9134372326917017,-5.433056311114431,-0.6801276253741865,-3.553488964880533,-0.12430716566478198,-0.31831736300403213,0.34721350932901074,0.23730459026718104,0.4496829975604246,2.878315229373008
17,-4.4302423412337175,-2.3069153775284574,-0.9107704860263229,-5.41081779739702,-0.6795541395044573,-3.5458497339357464,-0.11799952846041269,-0.32012714243563395,0.3457204405663086,0.2707742138604194,0.46245193288719816,2.910689054890929
18,-4.4075424444963405,-2.305178939673628,-0.9078158886868702,-5.386178841505231,-0.6789187511314583,-3.5373859185617706,-0.11096250658653228,-0.3220596086924007,0.34405280396431515,0.3082543799608297,0.47625850726023045,2.9470650565254317
19,-4.38255905803989,-2.303267825341844,-0.9045640744601914,-5.35906133678485,-0.6782194460440288,-3.5280706880640076,-0.1031563375731602,-0.3240963550915192,0.34220396851985774,0.3499978093510788,0.491021193517004,2.987719282725247
20,-4.355226033758014,-2.3011769745067445,-0.9010064335705986,-5.329393484659275,-0.6774543727034524,-3.517879378658037,-0.09453957749335448,-0.32621369088511376,0.3401688883093825,0.39626941549819783,0.5066275637301952,3.0329408449991253
21,-4.32548293232223,-2.2989017638372578,-0.8971350992915955,-5.297109682982125,-0.676621839364298,-3.506789455117222,-0.08506872800288821,-0.32838182265994414,0.3379445965165326,0.44734644080668445,0.5229300695233282,3.083031097536194
22,-4.293274920321066,-2.29643799882922,-0.8929429345576033,-5.26215041438985,-0.6757203111952621,-3.494780472420319,-0.07469792890862653,-0.3305638392040363,0.33553077789652785,0.5035171736438211,0.5397414014331652,3.1383012563017325
23,-4.2585526673991945,-2.2937819059369904,-0.8884235185756864,-5.2244621346543365,-0.6747484074000099,-3.4818340373990835,-0.06337876997421196,-0.33271446617065964,0.3329304172166462,0.5650775681144117,0.5568295396209167,-3.084117518809005
24,-4.221272243396571,-2.290930124705067,-0.8835711334372796,-5.183997161035521,-0.6737048983380176,-3.4679337703858777,-0.05106029294782559,-0.3347785624275878,0.33015051782261484,0.6323249101544786,0.573912719416138,-3.0175405830964928
25,-4.181395015487573,-2.2878796998997055,-0.8783807507299137,-5.140713560633992,-0.6725887026454139,-3.4530652668612793,-0.03768927381191146,-0.3366893410995238,0.3272028804710887,0.7055475251372316,0.5906546963007474,-2.9448534121753647
26,-4.138887545320137,-2.2846280736405324,-0.8728480181489425,-5.094575038743606,-0.6713988843558214,-3.4372160591016883,-0.023210894845355497,-0.3383663164508823,0.3241049279403352,0.7850094806470507,0.6066609127931486,-2.865787250861945
27,-4.093721486154893,-2.2811730775321646,-0.866969246109268,-5.04555082720409,-0.6701346500211987,-3.4203755778269325,-0.007569934457846386,-0.3397130042876065,0.3208805557231115,0.8709294293326019,0.6214764384864798,-2.780127268114456
28,-4.045873480004306,-2.277512924795823,-0.8607413943570678,-4.993615572753652,-0.6687953458326817,-3.402535113847878,0.009287382614191046,-0.3406144395610388,0.3175609834022919,0.9634533351542176,0.6345868425025567,-2.687741637334209
29,-3.9953250547718113,-2.2736462024009496,-0.8541620585815207,-4.938749225381593,-0.6673804547414262,-3.3836877797140366,0.027410724545728613,-0.3409346208492108,0.3141855752521461,1.0626220187657083,0.6454233905636984,-2.588615927145375
30,-3.9420625213909526,-2.269571863196827,-0.8472294570265333,-4.88093692668091,-0.665889593579448,-3.36382847136117,0.04684203427380507,-0.3405140469878559,0.31080259240224706,1.1683363440437537,0.6533740079305375,-2.482890004152735
31,-3.8860768709645184,-2.265289218044189,-0.8399424171024661,-4.82016889820091,-0.6643225101804662,-3.3429538297589,0.0676108260426871,-0.3391675746692515,0.3074698328241886,1.2803252848641584,0.6578011409779685,-2.3708922439202076
32,-3.827363671903682,-2.2607979279468426,-0.8323003619978602,-4.756440329799814,-0.662679080500744,-3.3210622025583163,0.08972830788951118,-0.3366828940139805,0.3042551098057574,1.3981244327508486,0.6580668207076149,-2.2531635389419105
33,-3.7659229670671346,-2.2560979961832803,-0.8243032972911626,-4.689751267997368,-0.6609593057399308,-3.298153605739582,0.11318030519359323,-0.3328199866572302,0.301236514888486,1.5210735827659354,0.6535638399296764,-2.1304625322727673
34,-3.701759170900228,-2.251189760438299,-0.8159517975624536,-4.6201065043274525,-0.6591633094619035,-3.274229685259543,0.13791905246985053,-0.3273119902902546,0.29850240795417976,1.6483405219970881,0.6437502200063108,-2.0037450382279203
35,-3.634880966574108,-2.246073884934616,-0.8072469930051728,-4.547515463690688,-0.6572913347156086,-3.249293678699334,0.16385404242558518,-0.3198679351748137,0.29615107579727623,1.7789733211075136,0.6281825992742214,-1.8741154589548208
36,-3.565301203124854,-2.240751352564483,-0.7981905560378448,-4.471992092707048,-0.6553437411559038,-3.223350376911987,0.19084227164457476,-0.31017783032853413,0.2942900016847315,1.9119761450174129,0.6065435347850042,-1.7427553182013873
37,-3.4930367925926147,-2.2352234570213065,-0.788784687915806,-4.393554748068463,-0.6533210021643995,-3.196406085670038,0.21867839591017119,-0.2979205471048606,0.2930346926526145,2.046396494659773,0.5786584915695628,-1.6108411714296083
38,-3.4181086071607485,-2.229491794931261,-0.7790321053429309,-4.312226084891433,-0.6512237019703007,-3.168468587313135,0.24708549505567207,-0.282774863006772,0.2925070191444575,2.1814081363895284,0.5445004395535673,-1.4794678469905636
39,-3.3405413762949583,-2.2235582579849074,-0.7689360270833584,-4.228032945069634,-0.6490525327712486,-3.139547102395646,0.27570733174493794,-0.2644338777094675,0.29283303349425505,2.316375633527979,0.5041827647470567,-1.3495913624538023
40,-3.260363583882428,-2.217425025068806,-0.7585001605732176,-4.141006245626526,-0.6468082918541624,-3.109652251334266,0.3041031495152873,-0.24262278918141272,0.2941402499834743,2.4508925241271577,0.4579436041275884,-1.221999784507924
41,-3.1776073653709647,-2.211094554397139,-0.7477286885323546,-4.0511808670679645,-0.644491878716081,-3.0787960160556223,0.33174616655563816,-0.2171197195232283,0.2965543898375921,2.5847928396051634,0.4061259722924246,-1.097312708141487
42,-3.0923084049081306,-2.204569575643321,-0.736626255576059,-3.9585955417348053,-0.6421042921850045,-3.0469917016438863,0.3580269535055072,-0.1877789155164524,0.3001956193913605,2.7181417195295987,0.3491580135030334,-0.9760040245394671
43,-3.004505832480386,-2.1978530820716164,-0.7251979548267891,-3.8632927421555174,-0.6396466275407361,-3.014253897988378,0.3822628059338405,-0.1545552366931367,0.3051743382453513,2.851213728232461,0.2875367752052804,-0.8584398308564455
44,-2.9142421210522187,-2.1909483226687607,-0.7134493145258993,-3.7653185693987865,-0.6371200736357238,-2.9805984414311735,0.40371400830525844,-0.11752841517692818,0.31158660570550323,2.98446728942917,0.22181764872228735,-0.7449235041279278
45,-2.8215629837052933,-2.1838587942755696,-0.7013862846453663,-3.664722641426131,-0.6345259100159019,-2.9460423764147143,0.4216075175410395,-0.07692517021953317,0.31950932690998524,3.1185216081402567,0.15261053374607148,-0.6357418666522799
46,-2.7265172707775767,-2.1765882337185616,-0.6890152234995146,-3.561557981444502,-0.631865504041533,-2.9106039171294125,0.4351680656198881,-0.03313694054840139,0.32899535319508694,-3.0290455288887035,0.08058308007533495,-0.5312086526242635
47,-2.6291568670024823,-2.1691406099415698,-0.6763428843567434,-3.4558809062588978,-0.6291403080080493,-2.8743024091612606,0.4436560056211448,0.01326917967317876,0.34006868248216987,-2.8909660961850054,0.006471044047891991,-0.4317031874870849
48,-2.5295365886480066,-2.1615201161373614,-0.6633764020512527,-3.347750914624969,-0.626351856266895,-2.8371582911394366,0.4464104405856462,0.061548688969898645,0.3527199725533785,-2.7493971133670603,-0.0689042708692077,-0.3377027885940567
49,-2.427714080655866,-2.1537311618792527,-0.6501232795947698,-3.2372305756016333,-0.6235017623463672,-2.799193056383914,0.44289534077582005,0.11078921493925721,0.3669026006267017,-2.603180341236751,-0.14461156344802975,-0.24980658728927493
50,-2.323749713780632,-2.1457783652527254,-0.6365913747882751,-3.1243854169036744,-0.620591716072458,-2.7604292145530662,0.43274555727073133,0.15993286739440304,0.38252951421341325,-2.4510327767367417,-0.2195784801791351,-0.16874595684250054
51,-2.217706481728875,-2.1376665449870442,-0.6227888868337293,-3.0092838132543607,-0.617623480689696,-2.720890253291279,0.41580898184248016,0.20781206205711394,0.39947111855876,-2.2915675196008225,-0.29255544734503636,-0.09537214582858876
52,-2.109649898298295,-2.1294007125868712,-0.6087243429457987,-2.891996874738046,-0.6145988899819885,-2.680600599876551,0.3921806973610442,0.2531983252018997,0.4175544330855083,-2.1233482334564475,-0.3620784079695921,-0.030604965873675786
53,-1.999647894516861,-2.1209860644638843,-0.5944065849635815,-2.7725983351527828,-0.6115198453934625,-2.639585582868107,0.3622249177311794,0.2948622508623252,0.43656372178156927,-1.9450023801883232,-0.42643933048333527,0.02468124480944982
54,-1.8877707157819499,-2.1124279740683916,-0.579844755962335,-2.651164440362928,-0.608388313149307,-2.597871393754004,0.32658091862048233,0.3316413649489372,0.45624275974700096,-1.755421462621934,-0.4836810947110571,0.06986158955015777
55,-1.7740908189994844,-2.1037319840209507,-0.5650482868652014,-2.5277738366517557,-0.6052063213766141,-2.5554850485987357,0.28615005811306543,0.3625113095618513,0.47629884041619935,-1.5540634382904768,-0.5316427195348259,0.10486898142413362
56,-1.6586827697230677,-2.0949037982439815,-0.5500268830549335,-2.402507459074059,-0.6019759572252216,-2.512454349690845,0.24206237283942506,0.3866546750385524,0.4964085566283064,-1.3413254463502822,-0.5680859411092092,0.13057463869292613
57,-1.5416231392931254,-2.0859492740933847,-0.5347905109856225,-2.27544841980877,-0.5986993639885537,-2.4688078471905284,0.195623036177494,0.40352116010698136,0.5162253061870424,-1.1188672357169671,-0.5909224348541374,0.14912090850419138
58,-1.4229904019760355,-2.0768744144901587,-0.5193493847944222,-2.146681896511552,-0.5953787382244632,-2.4245748007772425,0.14824103615981998,0.4128726935462457,0.5353883823952708,-0.8896797755415435,-0.5985200292562369,0.16400089771722412
59,-1.3028648321032756,-2.067685360052014,-0.5037139529132767,-2.016295020667424,-0.5920163268760733,-2.3797851412973134,0.10134456275112591,0.41480781592721155,0.553533416838567,-0.657717773231397,-0.5900044482626389,0.1797037841411016
60,-1.1813284012105507,-2.058388381224992,-0.48789488468064696,-1.88437676594336,-0.588614424392619,-2.3344694324115456,0.056289531617209995,0.4097610333358887,0.5703038507949669,-0.42712615081535354,-0.5654362522606425,0.20095612738330532
61,-1.0584646751769373,-2.048989870415079,-0.4719030569532361,-1.7510178365409015,-0.5851753698502891,-2.2886588322428247,0.014269141014120346,0.3984749570542205,0.5853630289356926,-0.20136719679845183,-0.5257821649695068,0.23186625113259013
62,-0.9343587113640166,-2.039496334119823,-0.45574954071771545,-1.6163105555487602,-0.5817015440730675,-2.2423850550237283,-0.023766894173979435,0.3819456709360878,0.5984064404483163,0.017370041075382366,-0.47270266164506475,0.27535365045291804
63,-0.809096955755022,-2.0299143850599535,-0.4394455877024531,-1.4803487532954422,-0.5781953667535755,-2.1956803327441374,-0.057174956218395884,0.36134466171236396,0.609173584041756,0.22830525013680697,-0.40826112659293695,0.3330366205752089
64,-0.6827671400939588,-2.0202507343109923,-0.4230026169892369,-1.343227655701834,-0.5746592935739128,-2.148577376798833,-0.08565469288171675,0.33792347301282244,0.617458909391159,0.43184743922563906,-0.3346647485731141,0.40547797677442166
65,-0.5554581790247566,-2.0105121834348747,-0.4064322016250035,-1.2050437726338288,-0.5710958133264997,-2.1011093396351144,-0.10925561141973114,0.3129096326564003,0.6231212921386964,0.6292354398055995,-0.2540950180913897,0.4925735157299499
66,-0.4272600672303968,-2.0007056166115627,-0.3897460552335624,-1.0658947862549262,-0.5675074450349188,-2.0533097764003996,-0.128350946969328,0.2874040005268279,0.6260915346576713,0.8222046536891151,-0.1686315117846192,0.5939151130373445
67,-0.2982637765720648,-1.9908379927706628,-0.3729560186273251,-0.925879439378849,-0.5638967350747562,-2.005212606589838,-0.14358014377559664,0.2622902058795112,0.6263774505724037,1.012748542631212,-0.08024538566854159,0.7090558080613654
68,-0.1685611532282678,-1.980916337723043,-0.3560740464190282,-0.7850974238221422,-0.5602662542944439,-1.9568520756939138,-0.15576488617546572,0.23816612222820607,0.6240661855832083,1.2029733585850262,0.009164797448904813,0.8376699593465425
69,-0.03824481483398756,-1.9709477362924475,-0.3391121936334618,-0.6436492687567865,-0.5566185951361009,-1.9082627168460564,-0.16580686676737977,0.21530535552406235,0.6193235464576824,1.3950138460880843,0.09771619216212571,0.9796251925147046
70,0.09259195238019124,-1.9609393244471143,-0.3220826023191945,-0.5016362290628082,-0.5529563687563752,-1.8594793124702442,-0.1745779344208461,0.1936536605200492,0.6123902481632965,1.5909696319560007,0.18347878362655384,1.134980074320471
71,0.22385529644893776,-1.9508982814313915,-0.30499748816030137,-0.35916017368088493,-0.5492822021472855,-1.810536855928616,-0.1828145538507088,0.17286137784640682,0.6035751384683217,1.792821534367888,0.2644193032673872,1.3039081714253968
72,0.3554509025330379,-1.9408318218973535,-0.28786912708808843,-0.21632347396495621,-0.545598735257063,-1.7614705131690789,-0.19102839775496544,0.15234885471831378,0.5932456112311676,2.002288776223754,0.3383675333114386,1.4865362236462367
73,0.48728409578026355,-1.9307471880364169,-0.27070984189281977,-0.07322889203482763,-0.5419086181109927,-1.7123155843729085,-0.19944332922351962,0.13139789834447696,0.581815564794971,2.2205973037249604,0.403027263019183,1.682682151706967
74,0.6192599441862274,-1.9206516417109571,-0.25353198883544414,0.07002053087120874,-0.5382145079322551,-1.663107465602367,-0.2079661623847936,0.1092591312718098,0.5697313912915071,2.4481604926033973,0.4560603355296978,1.8915024234469666
75,0.7512833614552425,-1.9105524565859262,-0.23634794425932082,0.21332158604377316,-0.5345190662627692,-1.6138816104483045,-0.21619474583369336,0.08526310897518741,0.5574565879262086,2.684241004668326,0.49526790937666204,2.1111214929908915
76,0.8832592098612091,-1.9004569102604663,-0.21917009120194475,0.35657100894981486,-0.5308249560840317,-1.5646734916777616,-0.22346257369039715,0.05892251017117876,0.5454556555928969,2.9267535255929022,0.5188646817278383,2.3384046391709643
77,1.0150924031084338,-1.8903722763995296,-0.2020108060066763,0.49966559087994344,-0.5271348389379613,-1.5155185628815921,-0.22891484920065575,0.03001371265775371,0.5341779885548582,-3.110776338963991,0.5257865052695281,2.569075179380032
78,1.1466880091925313,-1.8803058168654918,-0.1848824449344637,0.6425022905958686,-0.5234513720477387,-1.4664522201220542,-0.23160726035199367,-0.0013714973355964015,0.5240424588890427,-2.865896982605232,0.5159190205680768,2.798264088874079
79,1.2779513532612823,-1.8702647738497689,-0.16779733077557002,0.7849783459777937,-0.5197772054386491,-1.417509763580426,-0.2306161486297372,-0.034809782467116,0.5154233609430686,-2.625506529217774,0.49013974021491474,3.021324312058096
80,1.4087881204754558,-1.860256362004436,-0.1507677394613034,0.9269913856717702,-0.5161149790589235,-1.368726359204615,-0.2251475825655067,-0.06956717716447706,0.5086383067778318,-2.392371822483995,0.4501494892539689,-3.0486344022471856
81,1.5391044588697378,-1.8502877605738404,-0.13380588667573678,1.0684395407371268,-0.5124673199005805,-1.3201370003567572,-0.21463321298565996,-0.10465427349792909,0.5039385583903877,-2.16795743115781,0.39817268495314156,-2.847665499387646
82,1.6688070822135357,-1.8403661055262206,-0.11692391446743944,1.2092215562938362,-0.5088368391202682,-1.271776469460833,-0.19880260218623352,-0.13890901664946878,0.5015021533227522,-1.9524829214387307,0.33664773874795045,-2.660169824381045
83,1.7978033728718676,-1.8304984816853207,-0.1001338778612022,1.3492369031699125,-0.5052261291601056,-1.2236792996502714,-0.17772470728105758,-0.17109752985919777,0.5014300353765975,-1.7452260233927275,0.2679941201520636,-2.486469303675905
84,1.9260014846662274,-1.8206919148620087,-0.08344773146976125,1.4883858895488151,-0.5016377608685246,-1.175879736415557,-0.15181493502160898,-0.20002171757734322,0.503745250674021,-1.544878913783389,0.19448100301204324,-2.326355187373518
85,2.0533104457354314,-1.8109533639858908,-0.0668773161055276,1.6265697726168193,-0.4980742806211116,-1.1284116992518376,-0.12180816797597385,-0.22462212886351424,0.5083951204428683,-1.3498438842752705,0.11817995493959577,-2.1793823600471955
86,2.1796402613964903,-1.8012897132369297,-0.05043434539231151,1.7636908702104295,-0.49453820744144883,-1.0813087433065336,-0.08870188181295964,-0.24406565594612367,0.5152561643222865,-1.1584378416800762,0.04097053826243224,-2.0450600150397396
87,2.304902017005488,-1.79170776417706,-0.03413039237704907,1.8996526724637475,-0.49103203012195684,-1.0346040210269418,-0.05367648881961348,-0.25780987481060186,0.5241414292000283,-0.969021292395872,-0.035428702316539024,-1.9229480671140988
88,2.4290079808184055,-1.7822142278818047,-0.017976876141528875,2.0343599534558896,-0.4875582043447353,-0.9883302438078454,-0.01800203506175503,-0.2656388525817015,0.5348097845143791,-0.7800815813525495,-0.10942304160198622,-1.812681097478169
89,2.55187170685202,-1.7728157170718915,-0.0019850484141177294,2.1677188828583427,-0.4841191498024054,-0.9425196436391268,0.01705881352665799,-0.2676686235173989,0.5469766795531491,-0.5902980119369762,-0.179510463018811,-1.7139388723156634
90,2.6734081377447447,-1.7635187382448692,0.013834019818511623,2.2996371375824056,-0.48071724731895116,-0.8972039347533585,0.05034193296385512,-0.26432383589126507,0.5603258234452069,-0.39860848876628147,-0.24426487464791502,-1.6263767985634154
91,2.793533707617507,-1.7543296838067246,0.0294694516996572,2.4300240134265367,-0.47735483597056116,-0.8524142752734276,0.08085888611428667,-0.256289911075811,0.5745212440800371,-0.20428711483331907,-0.3023397489195539,-1.549527342113995
92,2.912166444934596,-1.7452548242034989,0.04491057789085784,2.5587905367237527,-0.47403421020647074,-0.8081812288601418,0.10785404317753661,-0.24444714628941014,0.5892192060209283,-0.007029798010101438,-0.35249636044864485,-1.4826869188912435
93,3.029226075364538,-1.736300300052902,0.06014694996016945,2.685849575989047,-0.47075761696980256,-0.7645347263598241,0.13083825426966406,-0.22979437112503737,0.6040795159100438,0.19296945897571155,-0.3936572881844591,-1.4248115988038275
94,3.1446341246409526,-1.727472114275933,0.0751683537704364,2.8111159535667385,-0.46752725281841023,-0.7215040274519362,0.14959831511944913,-0.2133700040304123,0.6187758120039472,0.394981847268179,-0.4249795773234007,-1.374454699602324
95,3.258314021423417,-1.7187761242284922,0.08996482286757002,2.9345065572779108,-0.4643452610457175,-0.6791176822966696,0.16418389919030088,-0.19617773620781886,0.6330045166699398,0.5977804420001814,-0.44593357470933526,-1.3297811785676406
96,3.3701912001583354,-1.7102180338329989,0.10452665186881682,3.0559404520677704,-0.46121372880156186,-0.6374034931825614,0.17487558610737602,-0.1791227764742433,0.6464922209571132,0.7997696875448749,-0.45636638371693516,-1.2886784268533193
97,3.4801932039397707,-1.7018033857100123,0.1188444098510344,3.1753389916530326,-0.4581346842130358,-0.5963884761741172,0.18213894433611896,-0.16296285672258526,0.6590013629002358,0.9991945430793262,-0.4565282956528577,-1.248950141529577
98,3.5882497873703523,-1.6935375533098391,0.13290895373896494,3.292625930169348,-0.4551100935053283,-0.556098822759389,0.18657026943114968,-0.14827627662973078,0.67033415069155,1.1943805997568435,-0.44704953410173043,-1.2085442445554302
99,3.6942930194221058,-1.6854257330441582,0.14671144169351025,3.407727533818666,-0.45214185812256635,-0.5165598614976039,0.18883957025122847,-0.13544739420291374,0.6803347637351137,1.3839407702063837,-0.42887033559318877,-1.1657500790426825
100,3.798257386297341,-1.6774729364176308,0.16024334650000616,3.520572692516624,-0.449231811848657,-0.4777960196667541,0.1896358368557723,-0.12466833829321187,0.6888899353496027,1.566899619627096,-0.4031417695406804,-1.1193156085930034
101,3.9000798942894805,-1.6696839821595222,0.17349646895648818,3.6310930315399554,-0.4463817179281293,-0.4398307849112344,0.18961866354689674,-0.11595446333047559,0.6959280780808129,1.7427219401495297,-0.37112055503049984,-1.0684709233753769
102,3.9997001726439594,-1.6620634883553138,0.18646295126197932,3.7392230231738823,-0.4435932661869749,-0.4026866668894096,0.18937910649081252,-0.10917025299176984,0.7014171549124752,1.9112649806013842,-0.33407730903930793,-1.012877211959687
103,4.097060576419051,-1.6546158645783222,0.19913529040474853,3.8449000983594823,-0.4408680701534915,-0.36638515892125856,0.1894113912271321,-0.10406201463718152,0.7053615268588439,2.0726887553743887,-0.2932285814311587,-0.9525354036881892
104,4.192106289346765,-1.647345304021314,0.21150635155060082,3.9480647583411193,-0.4382076641791226,-0.330946699635958,0.19009589211131853,-0.10029374596175918,0.7077980201362304,2.227356261236398,-0.24969418561272158,-0.8876861097266606
105,4.284785426693685,-1.6402557756281229,0.22356938143113436,4.0486606863137675,-0.4356135005593007,-0.2963906346194962,0.19169278952085556,-0.0974829198323692,0.7087914557349271,2.375744122507125,-0.20447577421826232,-0.8187211820428341
106,4.375049138121857,-1.6333510162252667,0.23531802173202387,4.146634859070496,-0.4330869466542884,-0.2627351780622922,0.19434503766682423,-0.09523352407761922,0.7084298726802172,2.5183725646590687,-0.15845057430599999,-0.7461155692098701
107,4.462851710549612,-1.6266345226535628,0.24674632248129513,4.241937658649804,-0.4306292820100196,-0.22999737440678114,0.19808877304677394,-0.09316440765382354,0.7068196558494101,2.6557556635167545,-0.11237449311021067,-0.6703801565924341
108,4.548150671012434,-1.6201095438997446,0.2578487554375901,4.334522983982951,-0.4282416954789432,-0.19819305999504788,0.20286905406794678,-0.09093172926726573,0.7040807523103995,2.788368871640224,-0.06689012044112534,-0.5920322794809448
109,4.630906889523897,-1.6137790732280775,0.2686202274784526,4.424348362541509,-0.4259252823408617,-0.1673368247164051,0.20855881366581366,-0.08824500247236998,0.700342129145348,2.9166296741956876,-0.02253662164113649,-0.5115793867697429
110,4.711084681936431,-1.6076458403119762,0.27905609398859377,4.511375061984624,-0.4236810414237757,-0.1374419736550232,0.2149790800987532,-0.08487682745682695,0.6957375928302318,3.0408875416282872,0.02024026152132629,-0.4295115881724765
111,4.78865191280222,-1.6017123033656224,0.2891521722481667,4.595568201806423,-0.4215098722247237,-0.10852048873753706,0.2219188205791497,-0.08066686177188451,0.6904020573927984,-3.1217651058958276,0.06107900456195425,-0.3462996291738972
112,4.863580098234093,-1.595980641275577,0.29890475482104173,4.676896864983456,-0.41941257203062465,-0.08058299038063144,0.22915313256745537,-0.07552089850623184,0.6844683173630471,-3.004751159413614,0.09969421701918102,-0.2623957242044757
113,4.93584450876632,-1.5904527457324003,0.3083106229430801,4.755334209622036,-0.4173898330391208,-0.05363869913868502,0.23645889920471336,-0.06940609611217506,0.678064353183284,-2.8911172632902407,0.13586966626795163,-0.17823544754443654
114,5.005424272215575,-1.5851302133622682,0.31736705991040837,4.830857580605675,-0.4154422394794157,-0.02769539735133808,0.2436273991015051,-0.06234345674807405,0.6713111721053614,-2.7807871295615385,0.1694522067532992,-0.09423949211134766
115,5.072302476541691,-1.580014337858584,0.32607186446768943,4.9034486212424335,-0.413570264733121,-0.002759390791127636,0.2504736885312604,-0.054398604400672075,0.6643211671637338,-2.673739854790918,0.20034633305873248,-0.010814578728196763
116,5.136466272708607,-1.5751061021136032,0.33442336419639784,4.973093384912361,-0.4117742684550938,0.021164529688912914,0.2568428392794592,-0.04567179792285004,0.6571969607541401,-2.5700017656505993,0.22850906548106473,0.07164683384871227
117,5.197906977545149,-1.5704061703500414,0.3424204289030961,5.039782446714804,-0.4100544936942805,0.0440731265076435,0.26261331126704074,-0.03628795458954117,0.6500306875874722,-2.469637425840963,0.25394491369695915,0.15276809907204617
118,5.256620176605989,-1.565914880252694,0.3500624840077029,5.1035110151159,-0.4084110640145582,0.06596475370823196,0.26769786688645414,-0.026387280846057605,0.6429036640408264,-2.372740147696958,0.27670073086771607,0.23219103120722956
119,5.312605827032411,-1.561632235100058,0.35734952393176767,5.164279043595884,-0.4068439806155766,0.086839395310494,0.272042500761854,-0.016116928011181676,0.6358863867612828,-2.2794223894216348,0.2968603532941544,0.3095793321339579
120,5.365868360413271,-1.5575578958959349,0.3642821254867574,5.222091342296587,-0.4053531194535984,0.10669870366336465,0.2756238748432243,-0.005623926024822102,0.6290388022690776,-2.1898064430103776,0.3145390068552642,0.38462238425763134
121,5.416416785645784,-1.5536911735010608,0.3708614612623038,5.276957689668635,-0.4039382283623423,0.1255460377972133,0.2784457263579876,0.004950492958548762,0.6224107906892847,-2.104015807351841,0.3298775394228219,0.4570389732832687
122,5.464264791796357,-1.5500310207647199,0.3770893130145032,5.328892944119077,-0.4025989241738257,0.14338650177625833,0.28053466714182285,0.015475182580642817,0.6160428100450385,-2.0221675879309866,0.34303659884953486,0.5265805427247022
123,5.5094308509616114,-1.5465760246563502,0.3829680850541799,5.3779171556585945,-0.40133468983920295,0.1602269830510208,0.28193572811301587,0.02583206753179513,0.6099666522303638,-1.9443661738899793,0.35419091296921795,0.5930336691885296
124,5.551938321129055,-1.543324398397178,0.38850081763515054,5.424055677549,-0.4001448715496103,0.176076190810611,0.2827079312396725,0.035917968447145995,0.6042062673565481,-1.8706983290728598,0.36352383949474676,0.6562215643128424
125,5.591815549038036,-1.5402739735918178,0.3936912003425148,5.467339277950502,-0.39902867585700674,0.19094469433520356,0.2829201003233766,0.045645441570392215,0.5987786192093681,-1.8012297145312133,0.3712223420285601,0.7160045341250935
126,5.629095973040667,-1.5374221923598932,0.3985435854809227,5.507804251569326,-0.3979851667950145,0.20484496134841645,0.2826470562771735,0.05494282129371549,0.5936945407142095,-1.7360027533381917,0.3774725190541609,0.7722794400568282
127,5.663818225962541,-1.5347660994676633,0.4030630014628376,5.545492531304839,-0.39701326299976225,0.21779139636965095,0.2819662854327991,0.06375365151763175,0.5889595643063533,-1.6750356671925926,0.38245577286400034,0.8249782940675605
128,5.6960262379637046,-1.5323023344596254,0.4072551661968318,5.58045179989712,-0.3961117348307259,0.22980037906655237,0.2809551223274172,0.07203567885435672,0.5845747077391552,-1.618322464306322,0.3863456620970601,0.8740661765652691
129,5.725769339399467,-1.530027123790139,0.41112650047583466,5.612735601574259,-0.3952792014915718,0.24089030260736433,0.27968845173080426,0.07975956091864247,0.5805372009944355,-1.5658336391898902,0.3893054409343253,0.9195386900426146
130,5.75310236368134,-1.5279362729550399,0.41468414136542564,5.642403453699836,-0.39451412815099585,0.25108161201333257,0.27823690784447175,0.08690741954578471,0.5768411445030611,-1.517517352166902,0.39148625418094773,0.961419158483423
131,5.77808575013781,-1.5260251586232552,0.41793595559210517,5.66952095842023,-0.39381482306356586,0.2603968425111054,0.2766655305382977,0.09347134426585921,0.5734780928036609,-1.4733008822605458,0.3930259325665506,0.9997557601461364
132,5.800785646875203,-1.5242887207684261,0.4208905529315612,5.694159914312018,-0.39317943469056704,0.26886065788508073,0.2750328277901719,0.09945192757695676,0.5704375610637782,-1.4330921835475212,0.394048316977235,1.0346187473334423
133,5.8212740136385905,-1.5227214548005148,0.4235572995969392,5.7163984280294295,-0.39260594882083755,0.2764998888298704,0.27339018866148374,0.10485689171623848,0.5677074545890081,-1.3967814152375289,0.39466303308609174,1.0660978682589113
134,5.839628724672655,-1.5213174036974295,0.4259463316271337,5.7363210259516615,-0.39209218569161597,0.283343571302626,0.2717815907198687,0.10969984743699975,0.565274423598644,-1.3642423544417812,0.3949656373404667,1.0943000684290933
135,5.855933671582581,-1.5200701501366347,0.42806856827504913,5.75401876583036,-0.3916357971093771,0.289422984875503,0.27024354848989557,0.11399920907743996,0.5631241472094348,-1.3353336345915454,0.39503805959978866,1.1193475154665256
136,5.870278866194799,-1.5189728086267702,0.42993572539587466,5.769589348436932,-0.3912342635706807,0.2947716910879725,0.26880525413873274,0.11777727697918386,0.5612415518056779,-1.309899780193633,0.39494927507465505,1.1413759637149856
137,5.882760543417963,-1.5180180176392697,0.43156032883535755,5.783137229209907,-0.39088489138300586,0.2994255717992642,0.2674888672609498,0.12105948791512228,0.5596109698473798,-1.2877720297510138,0.39475614703893436,1.1605334537380712
138,5.89348126410376,-1.5171979317399704,0.4329557278180822,5.794773729902482,-0.3905848097855986,0.303422867540756,0.2663099165942424,0.12387382633619505,0.5582162457384445,-1.2687689537398283,0.3945043908626616,1.1769793265627546
139,5.902550017907832,-1.5165042137207352,0.43413610833574023,5.804617150229739,-0.3903309680703102,0.30680421586835305,0.26527778224540655,0.12625038361283908,0.5570407956976006,-1.252696884443785,0.39422961838682086,1.1908835224129926
140,5.910082326150463,-1.5159280267310717,0.43511650653539324,5.812792879516146,-0.39012013270244106,0.30961268971487055,0.2643962321700981,0.1282210486856704,0.5560676286919688,-1.23935018026774,0.39395842898534345,1.2024261277453758
141,5.916200344677738,-1.5154600264097406,0.43591282210777327,5.8194335083428905,-0.38994888444157905,0.311893835742473,0.2636639910074953,0.12981931132880936,0.5552793354456278,-1.2285113499089129,0.39370951954013256,1.2117971316883185
142,5.921032966722142,-1.515090353016372,0.4365418316755314,5.824678940195349,-0.38981361546244475,0.3136957126950142,0.26307532281338236,0.1310801582781909,0.554658052353979,-1.2199510623302048,0.39349478988730396,1.2191963526670662
143,5.924715925763512,-1.514808623563098,0.43702120218152385,5.828676503110352,-0.38971052647573323,0.3150689297504341,0.26262061174204077,0.13204004253912208,0.5541854068442269,-1.2134280675534221,0.3933204231080932,1.2248334974065471
144,5.9273918983899465,-1.5146039239461442,0.43736950427707844,5.831581061323669,-0.38963562384895134,0.31606668487319123,0.26228692634671086,0.1327369070493487,0.5538424503432967,-1.2086890513889292,0.3931879214586636,1.22892831712515
145,5.929210607158628,-1.5144648010774637,0.43760622571027885,5.833555126917468,-0.38958471672726436,0.31674480316664866,0.2620585539943154,0.13321024535594914,0.5536095845654979,-1.2054684447134647,0.3930950789391767,1.2317108291867234
146,5.930328923456632,-1.5143792550163515,0.4377517847142258,5.834768971467462,-0.389553414154336,0.317161775225407,0.2619174920474662,0.13350118390341204,0.5534664863316738,-1.203488205055749,0.393036870705919,1.233421576472742
147,5.93091097036194,-1.514334731101052,0.43782754339532315,5.835400737690542,-0.38953712219316783,0.3173787954877616,0.26184388209430826,0.13365257276988,0.5533920356009622,-1.2024575852380945,0.3930062379567224,1.23431190102916
148,5.931128225504101,-1.5143181120803857,0.4378558211215353,5.83563655109213,-0.3895310410469448,0.31745980058807444,0.2618163727449421,0.13370907406523133,0.5533642508630306,-1.2020729008155022,0.3929947447940287,1.234644212896094
149,5.931159623925244,-1.5143157102453606,0.43785990791068063,5.83567063161339,-0.38953016217987546,0.31747150770914967,0.2618123954909027,0.13371723953732648,0.5533602355373404,-1.2020173052076808,0.3929930811048667,1.234692239187137
