nimar13/UR3e_dataset_trayectorias/data/trayectorias_completas_UR3e_JTRAJ/trayectoria_440.csv
Punto,shoulder_pan_joint,shoulder_lift_joint,elbow_joint,wrist_1_joint,wrist_2_joint,wrist_3_joint,Posicion_X,Posicion_Y,Posicion_Z,Roll,Pitch,Yaw
0,-1.435749936576805,6.152706397025939,0.2927427915004239,-3.8171905879685655,6.225762025124254,-5.969687279830534,0.27692655257667237,-0.380537215856601,0.23496572703901092,2.942246213456015,-0.022161429696269358,0.08667792045548194
1,-1.4357398080651642,6.152701510015424,0.29274296945278594,-3.8171824720250753,6.225727303418587,-5.969684430130193,0.27693065781087184,-0.3805374602267255,0.23496959245291027,2.942253189842573,-0.022178285013298864,0.08665766911485606
2,-1.4356697258395121,6.152667695316303,0.29274420075882895,-3.8171263153652197,6.22548705346895,-5.969664712194381,0.2769590610466917,-0.3805391501761421,0.234996337804766,2.9423014754697134,-0.02229490578532627,0.08651754017536904
3,-1.4354819689829814,6.152577102565399,0.29274749954321994,-3.816975866405734,6.224843401317413,-5.969611885994716,0.2770351377448909,-0.3805436697746284,0.23506798583418725,2.94243095693349,-0.02260728993079688,0.08614208877307833
4,-1.4351212221929641,6.152403042109277,0.2927538376653104,-3.816686801174249,6.223606719729078,-5.969510388332739,0.2771812332311891,-0.3805523210627772,0.235205625227302,2.9426802255400544,-0.023207269081189055,0.08542058042588428
5,-1.434534542600226,6.152119968994462,0.29276414530210615,-3.816216696721555,6.2215955144441875,-5.969345323504333,0.27741861770902093,-0.3805662993604242,0.23542940616991445,2.943086982894281,-0.024182389642063404,0.08424681785697827
6,-1.4336713265880199,6.151703466957648,0.29277931153123743,-3.815525004533864,6.218636310430206,-5.969102453964135,0.2777674236491963,-0.38058666075941616,0.2357585303527558,2.9436885599972706,-0.025615738183376813,0.08251893242969037
7,-1.4324832766112,6.1511302324159045,0.29280018491392856,-3.8145730239450732,6.214563538133927,-5.968768190989951,0.2782465686322353,-0.3806142829773959,0.23621123583838424,2.9445225272928632,-0.027585716322728066,0.08013914182616205
8,-1.4309243680153338,6.15037805845689,0.29282757407796783,-3.813323875549031,6.209219419733566,-5.968329585347173,0.2788736664583051,-0.380649820556254,0.23680477690975132,2.9456273737851455,-0.030165767710581732,0.07701347344080724
9,-1.4289508158558186,6.149425818829063,0.2928622483006774,-3.811742474611797,6.2024538553908535,-5.967774317953193,0.2796649290934332,-0.38069365519289367,0.23755539873817985,2.9470432339749437,-0.033424057184535505,0.07305145091552093
10,-1.426521041716992,6.14825345193189,0.2929049380918834,-3.8097955044839082,6.194124309503135,-5.967090690541816,0.28063506179646613,-0.3807458417949389,0.23847830645426008,2.948812641979032,-0.037423099771439414,0.06816573951845736
11,-1.4235956405312482,6.146841944806058,0.29295633577688523,-3.807451390012641,6.184095696955464,-5.966267616327678,0.2817971535761519,-0.3808060506624103,0.23958762799747318,2.950981292826354,-0.042219335097856574,0.06227174485139149
12,-1.42013734739815,6.145173317123683,0.29301709607942605,-3.8046802709542757,6.172240269372702,-5.965294610670657,0.28316256496789766,-0.3808735060097734,0.2408963699756676,2.953598791568638,-0.04786264101424137,0.055287158839097066
13,-1.4161110044035428,6.1432306051785215,0.29308783670466226,-3.8014539753863588,6.15843750137161,-5.964161781740292,0.2847408149999985,-0.3809469208619862,0.24241636569814726,2.9567193714621447,-0.054395778918810124,0.04713144727241079
14,-1.4114835274386688,6.140997845876182,0.2931691389221335,-3.797745993119968,6.142573976812947,-5.962859821180192,0.28653946914240475,-0.38102442818407267,0.24415821456854342,2.96040256299314,-0.06185376243894161,0.03772527449844952
15,-1.4062238730192802,6.138460060724333,0.29326154814873245,-3.793531449111975,6.124543275053565,-5.961379994772459,0.2885640299980292,-0.3811035079375148,0.24613121214616596,2.964713795800593,-0.0702631408348453,0.026989863322618303
16,-1.400303005104753,6.135603239822915,0.2933655745316749,-3.7887870768773078,6.104245857198506,-5.959714133102096,0.29081783250518883,-0.38118090960039536,0.24834327041546003,2.969724915404097,-0.0796411887724604,0.014846291949631362
17,-1.3936938619172003,6.13241432585435,0.29348169353146925,-3.783491191901217,6.081588952353099,-5.957854622221424,0.29330194546506655,-0.38125256954502895,0.25080082814855936,2.9755145958151683,-0.08999499501831937,0.0012147349891783832
18,-1.386371322760587,6.128881198073753,0.2936103465048869,-3.7776236650515367,6.056486443875053,-5.9557943943144975,0.2960150812821121,-0.3813135225419451,0.2535087517091289,2.9821686272705845,-0.10132044420997985,-0.013986337662191444
19,-1.3783121748398417,6.124992656299139,0.2937519412879315,-3.7711658959909498,6.028858755626555,-5.9535269183615185,0.2989535158971397,-0.3813578065597334,0.2564702272269914,2.9897800550885427,-0.11360108826585529,-0.03084098171521871
20,-1.3694950800799723,6.120738404901641,0.29390685277880924,-3.7641007865892493,5.998632738226367,-5.951046190803251,0.3021110209888959,-0.3813783599663015,0.2596866457689929,2.9984491405775198,-0.12680690739870304,-0.04943658635436272
21,-1.3599005419451784,6.116109036795712,0.29407542352089877,-3.756412714335605,5.9657415553019195,-5.948346726205439,0.3054788106043046,-0.3813669102211772,0.2631574839339713,3.0082831075782033,-0.14089296536075502,-0.0698646237375157
22,-1.349510872257965,6.111096017429339,0.29425796428572065,-3.7480875057508243,5.930124569741409,-5.945423547923214,0.3090455044331932,-0.38131385319617833,0.26688018319479306,3.019395628196014,-0.1557979698675075,-0.09222128006829215
23,-1.338310158018257,6.105691668774254,0.29445475465590776,-3.7391124097996165,5.891727229945895,-5.942272178765521,0.31279710995249077,-0.3812081223915549,0.27085003227766324,3.031905988346523,-0.17144275765389563,-0.11660789129814748
24,-1.326284228222512,6.099889153316144,0.2946660436081746,-3.729476071302857,5.850500956081394,-5.93888863165952,0.316717025610838,-0.38103704754747586,0.2750600578798029,3.045937857967531,-0.18772873499117493,-0.14313108777277284
25,-1.313420620682834,6.09368245804486,0.29489205009628766,-3.71916850434985,5.806403026330977,-5.935269400315013,0.3207860670928125,-0.38078620250912276,0.27950093004383236,3.061617572788048,-0.20453631954428922,-0.17190253232859487
26,-1.2997085488460882,6.0870663784446295,0.295132963634035,-3.7081810657105927,5.759396463146864,-5.93141144988885,0.32498251848199183,-0.3804392427107879,0.28416088948367557,3.0790718159232404,-0.22172344904644978,-0.20303811708421388
27,-1.2851388686130127,6.0800365024842655,0.29538894487819617,-3.6965064282480378,5.7094499195025215,-5.927312207649351,0.329282209828902,-0.3799777333221468,0.2890257050353576,3.098424571161683,-0.2391242471907556,-0.23665646832171908
28,-1.2697040451573343,6.072589194607375,0.2956601262115121,-3.684138554330358,5.65653756514476,-5.922969553640713,0.33365862222571896,-0.379380969966597,0.2940786701195363,3.119793210353844,-0.25654796781518074,-0.2728766010365828
29,-1.2533981197448798,6.064721579722576,0.2959466123256551,-3.6710726692432094,5.600638972845824,-5.918381811347431,0.3380830210052344,-0.3786257949891756,0.2993006475749273,-3.139901725323671,-0.27377837453723763,-0.3118145718184443
30,-1.2362166765526923,6.0564315271937,0.29624848080419836,-3.6573052346019943,5.541739004655498,-5.913547738358712,0.34252461713708504,-0.37768641352209537,0.30467017236975674,-3.1142013120339866,-0.29057375274289793,-0.35357901005468556
31,-1.2181568094881428,6.047717634830006,0.2965657827055863,-3.642833921764125,5.479827698153191,-5.908466517032887,0.3469507563193802,-0.3765342150579683,0.31016362143486237,-3.086227246921974,-0.30666779035802044,-0.39826547444278493
32,-1.1992170890080447,6.038579212876392,0.296898543146104,-3.6276575852412885,5.41490015270004,-5.903137745161829,0.35132713469707305,-0.3751376078652731,0.31575545910030856,-3.0559488553467102,-0.3217715962635004,-0.4459496963181388
33,-1.1793975289377672,6.029016268003605,0.2972467618828474,-3.611776236111708,5.346956415691008,-5.897561426635363,0.3556180396251386,-0.37346187531757546,0.32141856527653,-3.0233774716220108,-0.3355771401472457,-0.49667994214644
34,-1.158699553290349,6.019029487298447,0.29761041389669296,-3.5951910154324076,5.276001368806971,-5.891737962105687,0.3597866134839731,-0.37146906498317556,0.3271246515331953,-2.9885758872246995,-0.3477623812439649,-0.5504689545992462
35,-1.1371259630856128,6.008620222253993,0.2979894499752676,-3.577904167651476,5.202044614266823,-5.885668139651784,0.36379513829470617,-0.3691179230351674,0.33284476754714826,-2.951667444489942,-0.3579982902933879,-0.6072861982296814
36,-1.114680903169277,5.997790472759793,0.29838379729591863,-3.5599190140203296,5.125100361079566,-5.879353125443835,0.3676053388151517,-0.3663638880674099,0.3385498969975911,-2.912843779691175,-0.36595784566550155,-0.6670514010664802
37,-1.0913698290320715,5.986542871092092,0.2987933600086835,-3.5412399260059755,5.045187311296409,-5.872794454407637,0.3711787019513809,-0.36315915959024514,0.3442116379033481,-2.872370019034716,-0.371326895531616,-0.7296305794907664
38,-1.0671994736288501,5.97488066590403,0.2992180198192598,-3.5218722987032756,4.9623285462628655,-5.865994020889015,0.3744768107036912,-0.3594528571636557,0.34980295769221775,-2.8305861841812625,-0.37381653311841423,-0.7948357729284657
39,-1.0421778141977045,5.962807706215861,0.2996576365719748,-3.501822524247211,4.876551412870846,-5.85895406931824,0.3774616914600607,-0.35519128612845824,0.35529900808921033,-2.787903754127139,-0.3731763624875104,-0.8624295126022552
40,-1.0163140390790777,5.950328425405157,0.300112048832756,-3.4810979652251444,4.787887409810756,-5.851677184874441,0.38009617420345626,-0.35031832504467053,0.3606779793919767,-2.744796801543783,-0.3692077901165109,-0.9321345598724239
41,-0.9896185145348781,5.937447825197023,0.30058107447210025,-3.459706928089082,4.69637207382359,-5.84416628415002,0.38234426602400173,-0.34477594808572565,0.36592196811284317,-2.7017878396902852,-0.36177632674487564,-1.0036487076128813
42,-0.9621027515675931,5.924171459654306,0.301064511248044,-3.4376586365679414,4.602044865953031,-5.836424605815069,0.3841715390997131,-0.33850489264973893,0.3710178266119325,-2.6594293496391948,-0.35082188096944317,-1.076663572388237
43,-0.9337793727394019,5.910505419167804,0.3015621373891332,-3.4149632050798107,4.504949057797544,-5.828455701281785,0.3855455348758527,-0.33144547827293985,0.37595795858159275,-2.618282700565037,-0.3363661966446162,-1.150885520777564
44,-0.9046620789912906,5.896456314446477,0.30207371217739293,-3.3916316121442147,4.405131617762473,-5.820263425368878,0.3864361863573357,-0.3235385775792954,0.38074102046410774,-2.5788966122475485,-0.3185169084644782,-1.2260563849452286
45,-0.8747656164621651,5.8820312605076595,0.3025989765312975,-3.3676756737943774,4.302643097312137,-5.811851926965995,0.3868162600495817,-0.3147267335800353,0.3853724865075845,-2.54178729750932,-0.2974680950917105,-1.3019715714762032
46,-0.8441057433079642,5.8672378606672675,0.3031376535887404,-3.3431080169894853,4.1975375172219245,-5.803225639698134,0.3866618179740592,-0.3049554103565245,0.3898650345980326,-2.507421957688799,-0.27349760053437455,-1.3784935604306046
47,-0.812699196520774,5.852084190530011,0.30368944929000363,-3.317942053026952,4.089872253830393,-5.794389272590048,0.38595269821803807,-0.29417435633680733,0.3942387116216487,-2.4762065204145527,-0.24696168053586987,-1.4555594992377272
48,-0.7805636587479418,5.836578781979604,0.3042540529607282,-3.29219195095468,3.9797079252913603,-5.785347800730674,0.384673009592211,-0.28233905142923166,0.3985208412119157,-2.4484776234186376,-0.21828765365992106,-1.53318241080452
49,-0.7477177251111888,5.820730607168976,0.3048311378948837,-3.265872610983326,3.867108277826006,-5.776106455937538,0.382811632194654,-0.26941220170965263,0.4027456435160293,-2.4244980792879,-0.18796518611628918,-1.611446256368303
50,-0.7141808700257246,5.804549062510478,0.3054203619377382,-3.2389996378985635,3.752140071974961,-5.766670717421175,0.3803627111579089,-0.2553652387309498,0.40695354612700047,-2.4044545564646995,-0.15653664760524943,-1.69049559688941
51,-0.6799734140193607,5.788043952666101,0.3060213680688281,-3.211589314473346,3.6348729688504116,-5.757046302449543,0.3773261258562038,-0.24017977540829405,0.41119017745143593,-2.388456043596742,-0.12458670130618778,-1.770520860745233
52,-0.6451164905516237,5.771225474537677,0.306633784984928,-3.1836585748801713,3.515379416388188,-5.747239157012433,0.37370791176752133,-0.22384896736806734,0.415505048202799,-2.3765318145609826,-0.09273100162578167,-1.8517403150514968
53,-0.609632012832869,5.754104201257095,0.3072572276830207,-3.1552249781033446,3.3937345355998643,-5.737255446485891,0.36952060752855365,-0.20637872807792917,0.4199499429031317,-2.3686280260154593,-0.06160363172532157,-1.934379862786194
54,-0.5735426406433953,5.736691066176514,0.3078912980432668,-3.1263066813512426,3.2700160068248527,-5.727101546296629,0.36478349607948785,-0.18778874829785352,0.4245770605164302,-2.364602691082532,-0.03184277420458483,-2.0186518560013296
55,-0.5368717471525574,5.718997346858563,0.3085355854119749,-3.0969224134685747,3.1443039559825037,-5.716784032586439,0.35952270679384735,-0.16811327550755867,0.4294369607140074,-2.36421950996564,-0.004074118823786562,-2.1047342931641553
56,-0.49964338573788036,5.701034649066563,0.3091896671845712,-3.06709144834865,3.0166808408241947,-5.7063096728766105,0.3537711457211535,-0.1474016168420365,0.43457638873119625,-2.3671418121385015,0.021108294642910908,-2.192752051305148
57,-0.4618822568041724,5.682814890754732,0.3098531093885694,-3.0368335783456395,2.887231337185434,-5.695685416732344,0.3475682240307069,-0.12571833932221857,0.4400360661719141,-2.3729285482634674,0.04316370931973508,-2.2827620989476305
58,-0.42361367460263954,5.664350286058394,0.3105254672665408,-3.006169087686837,2.756042225237953,-5.6849183864271655,0.34095936075057565,-0.10314315318052453,0.4458485462928658,-2.3810346891026892,0.061628108648824155,-2.3747447700113247
59,-0.38486353404999907,5.645653329284192,0.3112062858590839,-2.9751187258849274,2.623202275741799,-5.6740158676073404,0.33399524501877487,-0.07977047702653269,0.4520362391607779,-2.3908183482950816,0.07613819599693503,-2.4686029389703505
60,-0.34565827754759226,5.626736778900298,0.31189510058779435,-2.943703681150246,2.488802136297438,-5.662985299956292,0.32673085507695815,-0.055708696513005744,0.4586097136912565,-2.4015563026035167,0.08645399735225336,-2.564170156707991
61,-0.30602486180049904,5.607613641526623,0.3125914378382349,-2.9119455538030437,2.3529342175978467,-5.6518342678590106,0.3192242455880137,-0.031079140033049266,0.46556637926325706,-2.4124683464176866,0.09247782497825845,-2.661227473935781
62,-0.2659907246366504,5.588297155925025,0.31329481554290517,-2.8798663296857496,2.2156925796806037,-5.640570491066476,0.3115351306748087,-0.0060148048438808865,0.47288963900604397,-2.4227493225268706,0.09426736783068573,-2.7595270190051417
63,-0.2255837518259456,5.568800776989527,0.3140047437642116,-2.8474883535752396,2.0771728181800038,-5.629201815360064,0.3037233062083336,0.01934112592905239,0.4805485900182792,-2.431606156252921,0.09204115422866042,-2.858818848409995
64,-0.18483224389936037,5.549138159736517,0.3147207252774373,-2.8148343025950906,1.9374719505791287,-5.617736203215967,0.2958469699756878,0.04483693124237844,0.4884983231785074,-2.4382962732832922,0.0861754776874368,-2.9588766560419515
65,-0.14376488296806467,5.529323143294966,0.3154422561537117,-2.781927159627852,1.7966883024619635,-5.6061817244696055,0.2879610110091016,0.07031412071146378,0.4966808477625481,-2.442163719653302,0.0771928677197462,-3.0595179615767654
66,-0.10241069954253401,5.509369734896635,0.3161688263429808,-2.7487901867273035,1.6549213937654805,-5.594546546980046,0.28011534819527395,0.09560928269159857,0.5050266351317217,-2.442670104897149,0.06574305146999532,3.122569878207326
67,-0.060799039351666195,5.489292093866287,0.3168999202569769,-2.7154468985307263,1.512271825031739,-5.582838927294414,0.27235340215975,0.1205559767547864,0.5134567429839044,-2.4394187994658756,0.05257787833690939,3.021087610614841
68,-0.018959530161891225,5.469104515611898,0.3176350173521882,-2.681921035671158,1.3688411636599875,-5.571067201312309,0.26471078253751457,0.1449866433751279,0.5218854490088087,-2.432172112067821,0.03852180294613922,2.919245244756174
69,0.023077951403712493,5.448821415614861,0.318373592712829,-2.64823653818966,1.224731830158749,-5.5592397749502185,0.25721426477293285,0.16873451232484696,0.530223292328473,-2.4208619993458007,0.024439335636385756,2.817038178632875
70,0.06528331304630708,5.428457313420209,0.31911511763380956,-2.6144175189475822,1.0800469843979261,-5.547365114805933,0.24988111675940824,0.19163549948257172,0.5383803948833437,-2.405595013468057,0.011200571137716362,2.714454510725228
71,0.10762627997217589,5.40802681662681,0.31985906020370575,-2.5804882370388236,0.9348904118608878,-5.535451738822964,0.2427188167164595,0.21353008824547806,0.5462699148188658,-2.3866517628134645,-0.0003542936570837145,2.6114975842213783
72,0.1500764280736182,5.3875446048775935,0.32060488588772895,-2.5464730712021,0.7893664098965756,-5.523508206954954,0.23572518101654472,0.23426519549018898,0.5538114714877579,-2.364480469163226,-0.009450502077473376,2.5082048392177265
73,0.19260321710982842,5.367025413849744,0.32135205811069617,-2.5123964932332017,0.6435796739715922,-5.511543111830095,0.22888889594175657,0.253696022350351,0.560934378003083,-2.339683677360552,-0.015413092388072784,2.404659232591143
74,0.23517602388778558,5.346484019244927,0.32210003883999966,-2.4782830413972627,0.49763518392230566,-5.499565069415541,0.22219042255956828,0.2716878867169411,0.5675805228921732,-2.3129971853934705,-0.01769837999215528,2.300990620366795
75,0.2777641754431377,5.325935220779488,0.3228482891685769,-2.4441572938410214,0.3516380902069347,-5.487582709681826,0.21560322111423585,0.28811802755961063,0.5737067572282156,-2.2852609882121104,-0.015920522529172042,2.1973662324451095
76,0.32033698222109663,5.305393826174671,0.32359626989788043,-2.4100438420050816,0.20569360015764282,-5.475604667267271,0.20909522245422357,0.3028773616402603,0.5792866669397041,-2.2573833357422366,-0.009871077904736361,2.0939714817402044
77,0.3628637712573073,5.2848746351468225,0.32434344212084765,-2.3759672640361833,0.05990686423265856,-5.463639572142412,0.20263046063557302,0.31587216208920643,0.5843116405094131,-2.230300462178201,0.00047011379566200935,1.9909844036283397
78,0.4053139193587483,5.264392423397606,0.32508926780487085,-2.3419520981994606,-0.0856171377316457,-5.451696040274403,0.1961707740318243,0.3270256170800613,0.5887911781576299,-2.204935570580848,0.014933526347106832,1.8885484779791362
79,0.4476568862846184,5.243961926604207,0.32583321037476703,-2.308022816290701,-0.23077371026868754,-5.4397826642914335,0.18967748250165242,0.3362792170405966,0.5927524276634974,-2.1821607882354765,0.033167718198644947,1.7867490254271245
80,0.4898622479272108,5.223597824409555,0.32657473529574754,-2.2742037970486244,-0.3754585560295105,-5.427908004147149,0.18311295521336263,0.34359391198346284,0.5962389717978027,-2.1627649245945766,0.05465495377645436,1.6855976985672252
81,0.5318997294928156,5.203314724412518,0.3273133106563884,-2.2405192995671257,-0.5195678895307463,-5.416080577785057,0.1764419967655807,0.3489509778985981,0.5993089304623531,-2.147428256681469,0.078732714440759,1.5850280862550108
82,0.5737392386825908,5.183127146158128,0.3280484077515997,-2.206993436707557,-0.6629985509024969,-5.404308851802952,0.16963299690555564,0.352352533580746,0.6020324747341028,-2.1367038000143648,0.10461904387541494,1.4849036123885984
83,0.6153508988734586,5.1630495051277805,0.3287795016655958,-2.17365014851098,-0.8056481196362419,-5.39260123211732,0.1626588096796482,0.353821657116394,0.6044888780798328,-2.131003185284718,0.13144008591417594,1.3850372010141994
84,0.6567050822989886,5.143096096729449,0.3295060718548649,-2.1405131756104328,-0.9474150283327258,-5.380966054627761,0.15549734931584913,0.35340206430037613,0.6067632504670978,-2.130584761234556,0.15825890016983768,1.2852208263871323
85,0.6977724432302841,5.123281080287899,0.3302276027311394,-2.1076060326431927,-1.08819867644989,-5.3694115758814,0.14813191061404593,0.35115732871363875,0.6089431129236078,-2.135542029890977,0.18410540869376743,1.1852620279174753
86,0.7385239511568695,5.1036184630348895,0.330943584244365,-2.074951981663044,-1.2278995440507643,-5.357945963737302,0.14055123939789158,0.34716964381304816,0.6111149728673391,-2.1457918942788514,0.20800785979691774,1.0850235515900686
87,0.7789309239675752,5.0841220840993895,0.33165351246567143,-2.0425740055525337,-1.3664193055513678,-5.346577288030891,0.13274939232930844,0.34153814955950074,0.6133610544310614,-2.1610641540360263,0.2290262732258428,0.9844613384321503
88,0.818965061131423,5.064805598497793,0.3323568901703417,-2.0104947814352396,-1.50366094346861,-5.335313511238356,0.12472543425665444,0.33437686806372874,0.6157563237960199,-2.1808957081164237,0.24628783618466518,0.8836552199561991
89,0.8585984768785169,5.045682461124118,0.33305322742078225,-1.9787366540880384,-1.6395288621681985,-5.324162479141075,0.11648302495314072,0.325812312690551,0.6183659284769593,-2.2046343059007167,0.25902318924416007,0.7828263382034132
90,0.8978037333809228,5.026765910740224,0.3337420421494927,-1.9473216093533567,-1.773929001612558,-5.313131911490027,0.10802994582388864,0.31598085144910515,0.6212431431857325,-2.231456644410715,0.2666012192414503,0.6823361423203819
91,0.9365538739335637,5.008068953966022,0.3344228607420358,-1.916271247551446,-1.9067689511087167,-5.302229392670201,0.09937761159956524,0.305025917064071,0.6244278852019987,-2.260403605860752,0.2685588169205468,0.5826643403398974
92,0.9748224561350964,4.989604349269684,0.3350952186200072,-1.8856067568926447,-2.0379580630561946,-5.2914623623650225,0.09054060322267934,0.29309516207308817,0.6279458310482018,-2.2904316264262587,0.2646216108801583,0.48436728490881215
93,1.0125835850688052,4.971384590957852,0.3357586608240054,-1.855348886889633,-2.1674075666949584,-5.280838106220756,0.08153624730974175,0.28033765733336297,0.6318081356041396,-2.320474689104872,0.2547123619917247,0.3880229015423662
94,1.0498119464834819,4.953421893165854,0.3364127425966017,-1.825517921769709,-2.2950306818532624,-5.270363746510928,0.07238425604028692,0.2669012266547737,0.6360117263297361,-2.349507991136673,0.23894549156406195,0.294171736949697
95,1.0864828399743187,4.935728173847903,0.33705702996530973,-1.7961336538870425,-2.420742732695608,-5.260046232800739,0.06310643030466889,0.2529299995703631,0.6405401204394002,-2.3766034792613406,0.21760861980294657,0.20326453092208766
96,1.122572212163794,4.91831503876732,0.33769110032555594,-1.7672153571349387,-2.544461261470623,-5.249892332611475,0.053726419463325084,0.23856224953299657,0.6453646927808377,-2.4009695787287293,0.1911342049760967,0.11562452685155422
97,1.1580566898825477,4.901193765486739,0.3383145430236486,-1.738781760358112,-2.6661061422589505,-5.239908622084933,0.0442695238791741,0.2239285673565238,0.6504463075152986,-2.4219715974308578,0.16006568833802648,0.03142852094852176
98,1.192913613350286,4.884375287358315,0.33892695993974853,-1.7108510207649372,-2.785599694721167,-5.230101476647824,0.03476252190877871,0.20915040087872208,0.6557372177733148,-2.4391337408384386,0.12502267898991706,-0.0492938561675545
99,1.2271210693566488,4.867870177513938,0.33952796607083835,-1.6834406973397211,-2.902866797845718,-5.220477061676191,0.025233501378323656,0.19433897296958594,0.6611831341893352,-2.4521269228473073,0.08666885264714505,-0.12664642149214028
100,1.260657924442114,4.85168863285544,0.3401171901136929,-1.6565677242549572,-3.017835003696767,-5.211041323159828,0.01571167653436486,0.17959457236639914,0.6667253651869876,-2.4607479556883143,0.045684869618874975,-0.20084350824923186
101,1.293503858078867,4.835840458044812,0.34069427504784844,-1.6302483842836049,-3.1304346511621226,-5.201799978366692,0.0062271746176714195,0.1650061963886021,0.6723029384137588,-2.464895463730507,0.0027472309511346773,-0.27218282773387814
102,1.3256393958516988,4.820335049494405,0.34125887871857297,-1.604498282211332,-3.2405989797011507,-5.192758506507319,-0.0031892190297094537,0.15065151209340893,0.6778546229381089,-2.4645466576948305,-0.04148709316043273,-0.34101794546820785
103,1.357045942638889,4.805181379357149,0.3418106744198362,-1.5793323182487997,-3.348264243092679,-5.183922139399233,-0.012506362720029768,0.13659709329637454,0.6833207847412303,-2.459737606105536,-0.08639110148491662,-0.40773272765333857
104,1.3877058157930886,4.7903879795167565,0.3423493514772791,-1.554764661443909,-3.453369823182893,-5.175295852131371,-0.021693106482151343,0.12289888522147481,0.6886450226435918,-2.4505482994309755,-0.13137440541696552,-0.4727188332773637
105,1.4176022783222137,4.7759629255779394,0.34287461583118367,-1.5308087230940703,-3.5558583436332327,-5.16688435372849,-0.030718680275725323,0.10960284621945214,0.6937755471222674,-2.437092806345689,-0.17588725031331,-0.5363564351135385
106,1.4467195720703252,4.761913820856613,0.3433861906194434,-1.507477130158474,-3.6556757836682934,-5.158692077815582,-0.039553111453252646,0.09674571664355752,0.6986662796102577,-2.4195141725947487,-0.21942296189561628,-0.5989978685732437
107,1.4750429508985192,4.748247780370109,0.3438838167605326,-1.484781698670342,-3.7527715918237945,-5.150723173282296,-0.048167657019089635,0.08435586808810981,0.7032776640693169,-2.397983324674544,-0.26151966496469053,-0.6609537587960409
108,1.5025587138658025,4.734971414827393,0.34436725353647635,-1.4627334071492024,-3.8470987996943506,-5.142981494947346,-0.056535234085610606,0.0724541911789537,0.7075771953003978,-2.3727010107439206,-0.30176189568765277,-0.7224812651856329
109,1.5292542384100027,4.72209081461926,0.3448362791758206,-1.4413423700131416,-3.9386141356815116,-5.135470594222927,-0.06463083122101977,0.06105498633073275,0.711539679181079,-2.343901661640046,-0.3397825003452756,-0.7837743149586965
110,1.5551180135286309,4.709611533808555,0.34529069143660174,-1.4206178109910725,-4.0272781387416074,-5.128193709779126,-0.07243188403354955,0.050166828754720456,0.7151472485490845,-2.3118579472834635,-0.3752649909187383,-0.8449559897007958
111,1.580139672959774,4.697538574120387,0.3457303081893168,-1.4005680365350086,-4.1130552721336215,-5.121153758208351,-0.079918600152691,0.039793385979980334,0.7183891646964117,-2.276884741054202,-0.4079463148848721,-0.906073503762704
112,1.6043100283629954,4.685876368932323,0.3461549679998931,-1.3812004092323091,-4.195914037167171,-5.114353324689729,-0.08707422148858923,0.029934172801962172,0.7212614384487224,-2.2393412227641254,-0.4376198002013341,-0.9670963949737942
113,1.6276211025002016,4.674628767264623,0.346564530712658,-1.3625213212179554,-4.275827086950322,-5.1077946536535315,-0.09388521497859283,0.020585234566845273,0.723766306740756,-2.1996300013506787,-0.4641378718212959,-1.0279185676897131
114,1.6500661624165378,4.663799017770425,0.346958878033309,-1.344536167586809,-4.352771340137586,-5.101479639445582,-0.10034138666267473,0.011739754818893954,0.7259116007050759,-2.1581924638663907,-0.4874140261332827,-1.0883646388570893
115,1.671639752621271,4.653389752725969,0.34733791411188364,-1.3272493198058788,-4.426728094677728,-5.09540981699168,-0.10643591758506604,0.0033885874684433867,0.7277100398671931,-2.1155000626123788,-0.5074235198647528,-1.1482006368970896
116,1.6923377282686918,4.643402972020811,0.3477015661257292,-1.3106640991265754,-4.497683141561765,-5.089586352462003,-0.11216532345648476,-0.004479283243594208,0.7291784844114481,-2.072041883312605,-0.5242022984077901,-1.207148549674093
117,1.7121572883389682,4.6338400271480245,0.3480497848624726,-1.2947827499969966,-4.5656268785707965,-5.084010033935537,-0.11752934304025839,-0.011876349553235143,0.730337173979058,-2.0283094800062145,-0.5378438556215852,-1.2649036310646884
118,1.73109700881907,4.62470160519441,0.34838254530299034,-1.2796064134741583,-4.630554424023956,-5.078681262064478,-0.12253076271524813,-0.018816247027021202,0.7312089773973283,-1.9847804697913387,-0.5484939590724217,-1.321152907701346
119,1.7491568758836173,4.61598771283072,0.3486998472043782,-1.2651351006362939,-4.692465730526237,-5.073600040738655,-0.12717518654461932,-0.025313474167659868,0.7318186734019256,-1.9419026218209188,-0.5563434453849201,-1.3755931133645272
120,1.7663383190758069,4.60769766030184,0.3490017156829215,-1.251367665995077,-4.751365698716583,-5.068765967749936,-0.13147076242087147,-0.03138315748547843,0.7321922780473882,-1.9000800860876825,-0.5616195334342067,-1.4279463854891883
121,1.7826442444882602,4.5998300454170415,0.34928820179706455,-1.2383017809079258,-4.807264291015521,-5.064178225456654,-0.13542787548667234,-0.037040855181437064,0.732356430304243,-1.8596630182946146,-0.5645762686777775,-1.477972459123875
122,1.7980790679439362,4.592382737540153,0.3495593831303805,-1.2259339069902486,-4.860176645373265,-5.059835571448016,-0.1390588201051655,-0.042302393302382196,0.7323378434669755,-1.8209412792707378,-0.565484771934779,-1.5254766785599723
123,1.8126487481770148,4.5853528615797865,0.34981536437454164,-1.214259269527692,-4.910123189017618,-5.055736329208515,-0.14237746125265227,-0.0471837291021782,0.7321628265525517,-1.7841422710679806,-0.5646239206345112,-1.57031376703666
124,1.8263608200137647,4.578736781979555,0.350056277912289,-1.2032718308884336,-4.9571297522017375,-5.051878378782353,-0.1453988954251689,-0.05170083727166227,0.731856876919453,-1.7494324525043945,-0.5622719646221093,-1.6123878160212575
125,1.8392244275534324,4.572530086708276,0.35028228440040193,-1.192964263935429,-5.00122768195213,-5.048259147437847,-0.14813912008666139,-0.055869615606260054,0.7314443429107145,-1.7169217373295933,-0.5586994097261315,-1.6516492954945425
126,1.8512503573491834,4.566727571250163,0.3504935733526689,-1.1833279254386655,-5.0424539558166614,-5.044875600331845,-0.15061471943550733,-0.059705807506389055,0.730948153419456,-1.6866698378153415,-0.5541633283294748,-1.6880900265551426
127,1.862451071588886,4.561323222595079,0.35069036372285595,-1.1743528294874617,-5.080851295612163,-5.041724231174153,-0.15284257291500378,-0.06322493941642043,0.7303896098660202,-1.6586936445430969,-0.5489031057676472,-1.7217370287760532
128,1.8728407412761037,4.556310203228704,0.3508729044876779,-1.1660276209026792,-5.1164682811727005,-5.038801052891928,-0.15483959151684126,-0.06644227188480789,0.7297882351187817,-1.6329748727165685,-0.5431375200463883,-1.7526460141476263
129,1.8824352794108954,4.551680835122775,0.35104147522976736,-1.1583395486490362,-5.149359464097124,-5.036101588294115,-0.15662248558457922,-0.06937276336586723,0.7291616733308701,-1.6094673970162143,-0.5370629835917979,-1.780895106787687
130,1.8912523741707616,4.5474265837252785,0.35119638672064507,-1.1512744392473406,-5.179585481497313,-5.033620860735849,-0.15820756656292526,-0.07203104618931758,0.7285256344406608,-1.5881038934843863,-0.5308527446063251,-1.806579170384779
131,1.8993115220915122,4.543538041950664,0.3513379815036898,-1.1448166701867484,-5.207213169745813,-5.03135338478287,-0.1596105839888904,-0.07443141430919518,0.7278938771310318,-1.5688015784082403,-0.5246568430265133,-1.8298049534265417
132,1.906634061248127,4.540004914170063,0.3514666344771074,-1.138949143337066,-5.232315678223856,-5.029293156875941,-0.16084659800196807,-0.07658782252681634,0.7272782242977957,-1.5514669671328045,-0.5186026321877506,-1.8506871292168818
133,1.9132432044356875,4.5368160002015,0.35158275347690177,-1.1336532583609769,-5.254972583069289,-5.027433645995269,-0.16192988676941092,-0.07851389688183547,0.7266886054822504,-1.5359996684564177,-0.5127957034861566,-1.8693452152349712
134,1.9191640723502061,4.533959179300083,0.35168677985984415,-1.1289088861263084,-5.2752700009243085,-5.025767784324907,-0.1628738874789745,-0.08022295584022138,0.7261331212222162,-1.5222952877965108,-0.507321081103837,-1.885901299447937
135,1.9244237267695894,4.531421394148235,0.3517791890864431,-1.124694342118322,-5.293300702683695,-5.024287957917175,-0.16369116893763294,-0.0817280417961474,0.7256181248228464,-1.5102475425401978,-0.5022445829419576,-1.9004784718244132
136,1.929051203734467,4.529188634845899,0.35186049130391434,-1.1209863598519307,-5.309164227242363,-5.022985997357074,-0.16439343331889328,-0.08304196226228504,0.7251483176026609,-1.499749704004784,-0.497614269832557,-1.913199849337743
137,1.933077546729077,4.527245922900735,0.35193123192915055,-1.1177600642840106,-5.322966995243448,-5.02185316842671,-0.16499154420991277,-0.08417733996336885,0.7247268541983856,-1.4906954791829756,-0.49346192675755834,-1.9241880851536493
138,1.9365358398621701,4.525577295218363,0.3519919922316913,-1.1149889452256483,-5.334822422826221,-5.020880162769688,-0.16549557780719157,-0.08514667088210971,0.7243554549887489,-1.4829794372840113,-0.48980453695217363,-1.9335652620217838
139,1.939461241047919,4.524165788092527,0.35204338991669326,-1.1126448307543777,-5.3448510353738925,-5.02005708855555,-0.16591489388213917,-0.0859623891433148,0.7240345231031078,-1.4764970747560233,-0.48664572266342704,-1.941453082294034
140,1.941891015186748,4.522993421195355,0.3520860797078992,-1.110697860626492,-5.353180581261597,-5.019373461144173,-0.16625822297197318,-0.08663693746724269,0.7237632638030969,-1.4711446004085131,-0.48397713547187104,-1.9479732799669598
141,1.9438645673462567,4.522041181567528,0.35212075393060877,-1.1091164596892549,-5.359946145604312,-5.018818193750195,-0.16653376613535595,-0.08718284178149534,0.7235398042574783,-1.4668185108616103,-0.48177978503879654,-1.9532481922079845
142,1.9454234759421247,4.52128900760851,0.3521481430946481,-1.1078673112932096,-5.365290264004685,-5.018379588107414,-0.1667493035365743,-0.08761278845374035,0.7233613118701029,-1.4634150165364574,-0.48002529847004477,-1.9574014382206382
143,1.94661152591895,4.5207157730667715,0.3521690164773393,-1.106915330704422,-5.3693630363009675,-5.018045325133231,-0.16691230807848087,-0.08793970249653431,0.7232241093710055,-1.4608293700154724,-0.47867710369286365,-1.96055866175755
144,1.9474747419311562,4.520299271029956,0.35218418270647045,-1.1062236385167354,-5.3723222403149435,-5.017802455593033,-0.1670300602859787,-0.08817682499964563,0.7231237848474606,-1.4589551418114357,-0.477691529756245,-1.9628483001277932
145,1.9480614215238923,4.520016197915141,0.35219449034326633,-1.105753534064033,-5.374333445599845,-5.017637390764626,-0.1671097606424073,-0.08833778796243338,0.7230552947845406,-1.4576834832105865,-0.4770188151576626,-1.9644023473677525
146,1.9484221683139111,4.519842137459018,0.35220082846535666,-1.1054644688325554,-5.375570127188169,-5.01753589310265,-0.1671586355939901,-0.08843668462674442,0.7230130580149616,-1.4569024116604206,-0.4766040124892054,-1.9653570826294748
147,1.948609925170441,4.519751544708115,0.3522041272497476,-1.105314019873064,-5.376213779339693,-5.017483066902985,-0.1671840334554043,-0.08848813334487307,0.7229910382587638,-1.4564961509224925,-0.4763877741706319,-1.965853737085827
148,1.9486800073960957,4.519717730008991,0.3522053585557906,-1.105257863213212,-5.376454029289349,-5.017463348967173,-0.167193506462768,-0.08850733295339966,0.7229828126785749,-1.4563445557184005,-0.47630700006214605,-1.9660390740249425
149,1.9486901359077322,4.519712842998479,0.3522055365081527,-1.1052497472697214,-5.376488750995009,-5.017460499266832,-0.16719487521734158,-0.08851010755598962,0.7229816235998727,-1.4563226487498426,-0.4762953235884469,-1.966065857519008
