nimar13/UR3e_dataset_trayectorias/data/trayectorias_completas_UR3e_JTRAJ/trayectoria_125.csv
Punto,shoulder_pan_joint,shoulder_lift_joint,elbow_joint,wrist_1_joint,wrist_2_joint,wrist_3_joint,Posicion_X,Posicion_Y,Posicion_Z,Roll,Pitch,Yaw
0,-3.633548265255526,3.4752566622912804,1.0263771867848477,-3.0316627782286796,0.7222525489596672,3.637037871414419,0.215931851799735,-0.34312820401445476,0.3810917712072355,-1.2107573158598077,0.7179988866665927,-2.1580720158929445
1,-3.633541512840691,3.475255085668305,1.0263779629779828,-3.0316386402558404,0.7222480914771275,3.637032319360763,0.21593574358814926,-0.34312790962826367,0.38109351865452235,-1.2107314718286217,0.7179965551437612,-2.158044168039932
2,-3.6334947908466835,3.4752441765386077,1.026383333692297,-3.031471622344493,0.722217248811565,3.6369939030276477,0.21596267083534687,-0.3431258708826679,0.3811056108657908,-1.2105526526955164,0.7179804086828043,-2.1578514870023158
3,-3.6333696182420168,3.475214949956827,1.0263977223397398,-3.031024165693007,0.7221346184173505,3.636890982067617,0.21603480103081543,-0.3431203934017196,0.3811380164753938,-1.2100736097515299,0.7179370306674351,-2.157335333787329
4,-3.6331291177555585,3.4751587954399934,1.0264253679792847,-3.0301644444893285,0.7219758564417744,3.6366932347967977,0.2161733457928415,-0.34310980593423296,0.3812003175800696,-1.2091533245302142,0.7178531954460983,-2.156343857416758
5,-3.632737993755697,3.475067471802533,1.0264703278597274,-3.0287662868352623,0.7217176631223863,3.636371640006436,0.21639854003772532,-0.3430924098362387,0.38130174553051127,-1.2076570241213762,0.7177154770342864,-2.154732090644675
6,-3.6321625101295103,3.47493310199127,1.0265364799624854,-3.0267090956707543,0.7213377681843327,3.635898458774433,0.21672961069020394,-0.3430664137797719,0.3814512254217551,-1.2054562323074554,0.7175097446958187,-2.15236210814653
7,-3.6313704681619337,3.4747481679204237,1.0266275255443988,-3.023877769698171,0.7208149162376974,3.635247216276886,0.2171847362813997,-0.34302985651376383,0.38165742723097906,-1.2024288583851328,0.7172205689147778,-2.1491032450049756
8,-3.6303311844149264,3.4745055053066154,1.0267469916805292,-3.020162624306584,0.72012885217484,3.634392683599618,0.2177809984448445,-0.342980520379746,0.3819288214774094,-1.1984593289532905,0.7168305611041497,-2.1448323773761793
9,-3.629015468606639,3.474198298503865,1.0268982338069594,-3.0154593124960503,0.7192603065677347,3.6333108595497214,0.21853432599225983,-0.3429158381782145,0.382273737194059,-1.1934387711251202,0.7163196704506283,-2.1394342710355114
10,-3.627395601490583,3.473820075338597,1.0270844382635933,-3.0096687458018923,0.7181909810653095,3.6319789524670907,0.21945943194671436,-0.3428327958918769,0.3827004199152044,-1.187265258167476,0.7156644615640588,-2.1328020066651536
11,-3.625445312734794,3.473364701944638,1.0273086248369556,-3.002697015218983,0.7169035337907858,3.630375362035961,0.22056974364740897,-0.342727833701825,0.3832170873044171,-1.179844130097742,0.714837397092905,-2.1248374928575573
12,-3.6231397588010053,3.4728263775982207,1.0275736493029912,-2.9944553121260253,0.7153815647390163,3.6284796610964443,0.22187732583125291,-0.34259674768457044,0.38383197998139496,-1.1710884018936296,0.7138061501875227,-2.1154520784739383
13,-3.6204555008238093,3.4721996295529842,1.0278822059698651,-2.984859849209834,0.7136096011738251,3.6262725774560662,0.2233927964534536,-0.3424345945544101,0.38455340505609575,-1.1609192703167561,0.7125329726213041,-2.104567274831597
14,-3.61737048248983,3.471479307874976,1.028236830220762,-2.973831781389619,0.7115730830253463,3.6237359757013032,0.22512523494243541,-0.34223560181852053,0.38538976984927764,-1.149266726560212,0.7109741454535379,-2.0921155948379258
15,-3.613864007916887,3.4706605802776536,1.0286399010566867,-2.9612971267412647,0.7092583482873629,3.620852839009118,0.227082082601876,-0.3419930857419391,0.3863496032727599,-1.1360702756972911,0.7090795402132408,-2.0780415103347245
16,-3.6099167195331656,3.469738926956885,1.029093643639262,-2.9471866874216124,0.7066526184146462,3.6176072509584984,0.2292690349810984,-0.34169937957464813,0.3874415623638279,-1.1212797550277318,0.706792319499106,-2.062302520359078
17,-3.605510575956382,3.468710135425951,1.0296001318335302,-2.931435970592744,0.7037439837202945,3.6139843773419935,0.23168992623959916,-0.34134577456949416,0.38867442152019527,-1.1048562318584414,0.7040488063392414,-2.0448703117376628
18,-3.600628829872952,3.4675702953505474,1.0301612907507522,-2.9139851093462608,0.7005213887730724,3.6099704479772483,0.23434660583542025,-0.34092247641089274,0.390057042069493,-1.0867729472583088,0.7007785512627397,-2.025731979653127
19,-3.59525600591716,3.466315793383784,1.0307788992912068,-2.8947787836275665,0.6969746177947493,3.6055527385185444,0.23723880827194174,-0.34041857977049017,0.3915983199361187,-1.0670162565135366,0.6969046243630086,-2.0048912601788835
20,-3.589377878550324,3.464943308001189,1.0314545926869907,-2.87376614116015,0.6930942800574398,3.6007195522683326,0.24036401714279604,-0.3398220637941278,0.39330710934530233,-1.0455865004867728,0.692344156211843,-1.9823697103803373
21,-3.5829814499399637,3.463449804335708,1.032189865044818,-2.850900718369865,0.6888717952809409,3.5954602019887743,0.2437173253167889,-0.3391198113883344,0.39519212073723836,-1.0224987265035481,0.6870091458807823,-1.9582077560800522
22,-3.5760549278389693,3.4618325290127077,1.0329860718888204,-2.8261403613092133,0.6842993790300722,3.5897649917132726,0.24729129379759032,-0.33829765519470445,0.3972617913617703,-0.9977831649333766,0.680807546234561,-1.9324655149600585
23,-3.5685877034647677,3.4600890049849755,1.0338444327033462,-2.7994471465816257,0.679370028112015,3.583625198558015,0.2510758125664993,-0.3373404530947241,0.39952412739557835,-0.9714853608595801,0.6736446260029925,-1.9052232958803683
24,-3.5605703293784914,3.4582170263677217,1.0347660334757602,-2.770787302265743,0.6740775059736506,3.577033054533506,0.25505796755618393,-0.33623219595131487,0.4019865168783002,-0.9436658617699872,0.6654245951724128,-1.8765816767468664
25,-3.551994497364144,3.456214653273581,1.0357518292392442,-2.7401311288396997,0.6684163280989,3.5699817283561055,0.25922191878919804,-0.3349561500406008,0.40465551331019933,-0.9143993742758384,0.6560524656450375,-1.8466610751731478
26,-3.54285301630777,3.454080206647615,1.036802646615595,-2.7074529201054043,0.6623817474060627,3.562465307259566,0.2635487956214993,-0.3334950362316762,0.40753659039924267,-0.883773326722304,0.645436104018245,-1.8156007497680402
27,-3.5331397900766204,3.4518122631023105,1.0379191863580257,-2.6727308841128217,0.6559697396451555,3.5544787788065677,0.26801661592577836,-0.33183124740784475,0.4106338691951147,-0.8518858098791632,0.6334884192438125,-1.7835572047957615
28,-3.5228497953983218,3.4494096497525852,1.0391020258939643,-2.6359470640842533,0.6491769887952522,3.546018012700258,0.2726002368927373,-0.3299471048668089,0.41394981970404954,-0.8188429124302233,0.6201296165674702,-1.7507020148851506
29,-3.5119790597400424,3.4468714390507857,1.0403516218678543,-2.597087259338621,0.6420008724618218,3.5370797425957847,0.277271345873854,-0.3278251534708694,0.4174849400397996,-0.784755517452922,0.605289442210841,-1.7172191350795658
30,-3.5005246391876614,3.4441969436216913,1.0416683126839534,-2.5561409462157467,0.6344394472740683,3.5276615479118365,0.2819985002830259,-0.3254484941291828,0.42123741722598584,-0.7497356746660043,0.5889093420764394,-1.6833018089030534
31,-3.4884845963249345,3.441385711097513,1.0430523210491343,-2.5131011990006367,0.626491434282269,3.5177618356421774,0.28674722595688495,-0.3228011507792043,0.4252027749109969,-0.7138927044350446,0.5709444630117496,-1.6491492266694812
32,-3.4758579781126624,3.438437518952898,1.0445037565156827,-2.4679646108477606,0.6181562043551145,3.507379822167184,0.2914801834797297,-0.31986846740170466,0.4293735144693478,-0.6773292174434112,0.5513654366747235,-1.6149631119152807
33,-3.462644793767859,3.435352369339929,1.0460226180240992,-2.4207312147053335,0.6094337635770468,3.4965155150653824,0.29615741174133614,-0.31663752877493034,0.4337387572161789,-0.6401372444636944,0.5301599026980156,-1.580944421314655
34,-3.4488459926429176,3.432130483923126,1.0476087964458975,-2.3714044042396005,0.6003247386455987,3.485169694924986,0.3007366573467691,-0.3130975966864055,0.43828389671985335,-0.602394662459895,0.507333747770678,-1.5472903311715842
35,-3.43446344210478,3.4287722987144487,1.049262077126404,-2.319990854759114,0.5908303622687329,3.47334389715543,0.3051737973727736,-0.3092405512310018,0.44299027141847286,-0.5641620780609653,0.48291205808146487,-1.5141916530497725
36,-3.4194999054141015,3.425278458908297,1.0509821424275583,-2.266500444139019,0.5809524585621811,3.4610403937989105,0.30942336130952874,-0.30506132470578096,0.4478348688790522,-0.5254802917385417,0.4569398018440306,-1.4818307764439993
37,-3.4039590196044216,3.421649813716513,1.0527685742707122,-2.2109461737453326,0.5706934284467828,3.4482621753419194,0.31343915579672965,-0.3005583135593913,0.45279007402501864,-0.4863684220246167,0.4294822741892483,-1.4503801834749046
38,-3.3878452733613296,3.417887411203381,1.05462085667943,-2.153344089359228,0.5600562350458247,3.4350129325267833,0.3171749929352674,-0.2957337519785928,0.45782347443483523,-0.44682272554381197,0.40062534697601243,-1.4200015257315037
39,-3.3711639849016315,3.4139924931206327,1.0565383783222877,-2.093713202101313,0.5490443890823794,3.421297038163199,0.3205855195307725,-0.290594029124973,0.4628977363136537,-0.4068161115010346,0.37047557015537136,-1.3908452021889832
40,-3.353921279852519,3.409966489742444,1.058520435055673,-2.0320754093559152,0.5376619342766444,3.407119528939768,0.323627140634116,-0.2851499309116027,0.46797056489104716,-0.36629832290475434,0.3391601690119771,-1.3630503336134066
41,-3.336124069130738,3.40581101470044,1.0605662324665843,-1.9684554156953598,0.5259134327432815,3.39248608723554,0.3262590262532493,-0.27941678667948633,0.4729947627323066,-0.3251967434668811,0.30682697320610425,-1.3367449951268338
42,-3.3177800268217523,3.4015278598186938,1.0626748884154313,-1.9028806538042553,0.5138039503887555,3.3774030229315413,0.3284441852269879,-0.2734145013438809,0.47791839870439107,-0.28341778893907926,0.2736442996545277,-1.3120465449798764
43,-3.298897568058915,3.397118989948731,1.0648454355788346,-1.8353812054037721,0.5013390423086732,3.361877255222318,0.33015058512341433,-0.267167454668059,0.4826850990551666,-0.24084885293438882,0.23980079261890128,-1.2890618731789514
44,-3.2794858269026346,3.3925865378045277,1.0670768239924244,-1.7659897221759262,0.4885247381851233,3.34591629442747,0.3313522918453083,-0.2607042514042622,0.4872344702038405,-0.19736079692784725,0.20550520157174196,-1.2678873871017458
45,-3.2595546342195414,3.3879327987975154,1.0693679235936415,-1.694741346687861,0.47536752768401414,3.3295282238031874,0.3320305976248992,-0.25405730920470254,0.4915026603768534,-0.15281099792892613,0.1709860510657998,-1.248608551630374
46,-3.2391144955616564,3.3831602258715794,1.0717175267645356,-1.6216736333161255,0.4618743458524135,3.312721681353789,0.332175101538172,-0.24726227549301677,0.4954230641542281,-0.10704699016384098,0.1364911275564905,-1.2312988087749839
47,-3.21817656904556,3.378271424338063,1.0741243508745664,-1.5468264691709617,0.44805255851588743,3.2955058416432585,0.3317847028593821,-0.2403572698881342,0.49892717033971845,-0.05991075299700916,0.10228667680916409,-1.2160177180945482
48,-3.196752643231556,3.3732691467107667,1.0765870408234024,-1.4702419950205798,0.43390994767583946,3.2778903976067806,0.33086846481814364,-0.2333819552137035,0.501945549386373,-0.011243699315510417,0.06865617370687108,-1.2028081883263562
49,-3.174855115002842,3.3681562875409505,1.0791041715837204,-1.391964526215447,0.41945469690684956,3.2598855423622783,0.3294463049217001,-0.226376447461266,0.5044089719811662,0.03910760109219833,0.0358984966362811,-1.1916927183627857
50,-3.152496967444676,3.362935878252337,1.0816742507440065,-1.3120404736125626,0.4046953767540129,3.2415019510219487,0.32754946825110215,-0.21938008308282128,0.5062496454342994,0.09128497809442764,0.004325315480274188,-1.1826686391944836
51,-3.129691747723545,3.357611081976109,1.084295721051354,-1.2305182644997448,0.3896409301302797,3.2227507625038028,0.3252207422783379,-0.21243007037139403,0.507402549378427,0.14541159884960528,-0.025742508098291487,-1.175702454471803
52,-3.10645354496633,3.352185188385915,1.086966962954264,-1.1474482635199088,0.3743006577137931,3.2036435613431977,0.322514375965649,-0.20556006007961156,0.5078068471373542,0.2015845138906844,-0.05397969863059583,-1.1707235195767884
53,-3.082796968139476,3.3466616085328686,1.0896862971454455,-1.0628826935953501,0.3586842033452292,3.1841923595043786,0.3194956722978352,-0.19879867839998905,0.5074073441741426,0.25986720106798755,-0.08006267220741616,-1.1676174740249234
54,-3.0587371239281578,3.3410438696805507,1.0924519871046146,-0.9768755568520255,0.3428015394251353,3.16440957819201,0.31624023195897866,-0.1921680725183249,0.5061559604945766,0.32028267831245744,-0.10367703740863612,-1.1662200342580396
55,-3.0342895946154496,3.3353356101400093,1.0952622416412934,-0.8894825555438373,0.32666295231126985,3.1443080296627173,0.312832836473115,-0.1856825246657108,0.5040131799926061,0.3828079253380141,-0.1245264343879342,-1.1663119324964002
56,-3.0094704159614905,3.3295405741047643,1.0981152174376114,-0.8007610129769112,0.3102790277159406,3.1239008990366215,0.30936597153070466,-0.1793471944557126,0.5009494367080665,0.44737046357139504,-0.142342487452016,-1.167615905663919
57,-2.9842960550826527,3.3236626064858052,1.1010090215911041,-0.7107697944338804,0.2936606361033444,3.103201726108876,0.3059380050336032,-0.17315705086138633,0.4969463960399384,0.513847936272967,-0.15689545260778356,-1.1697966408837563
58,-2.9587833883307093,3.3177056477465956,1.1039417141575123,-0.6195692280981664,0.2768189180869054,3.0822243871612027,0.3026510490979257,-0.16709605409475112,0.49199808831247205,0.5820713569700796,-0.16800495017723305,-1.1724644214441706
59,-2.932949679172002,3.3116737287380724,1.1069113106935828,-0.5272210259782613,0.259765269826615,3.0609830767734305,0.29960855023210414,-0.1611366436374304,0.4861118528817016,0.6518323325416479,-0.17555002424030577,-1.1751828686847121
60,-2.906812556066608,3.3055709655336485,1.1099157847998677,-0.43378820483200986,0.24251132842637024,3.039492289635032,0.2969126664442627,-0.1552395816091347,0.47930905330260337,0.7228940459950441,-0.1794777086736583,-1.1774806697986249
61,-2.8803899903475068,3.299401554264215,1.1129530706635236,-0.33933500709088893,0.22506895733131294,3.0177668023566575,0.29466150336245045,-0.14935419058414448,0.4716255279998348,0.7950051899740689,-0.1798093363431188,-1.1788666059649513
62,-2.85370027409975,3.2931697659531403,1.116021065601112,-0.24392682178429004,0.20745023172516897,2.9958216552816754,0.2929462927939692,-0.14341901208482502,0.46311174637782404,0.8679155060248617,-0.1766440109651413,-1.1788466797252966
63,-2.8267619980396286,3.286879941351274,1.1191176326013983,-0.14763010546380695,0.1896674239275875,2.973672134297707,0.2918486057602776,-0.1373628966877292,0.453832647276649,0.9413912430118717,-0.17015894456172753,-1.1769418201794746
64,-2.7995940293938366,3.2805364857719472,1.1222406028681524,-0.05051230312750654,0.1717329887914788,2.9513337526481633,0.2914376972590801,-0.131106519540682,0.4438671449621352,1.0152287944166543,-0.16060669194929988,-1.1727046104693257
65,-2.7722154897786444,3.274143863925973,1.1253877783629476,0.047358230855780725,0.1536595491003554,2.9288222327437827,0.2917680812940228,-0.12456429683494354,0.43330729719338423,1.0892650232654228,-0.14830961777092175,-1.165733744661022
66,-2.74464573307906,3.267706594756651,1.1285569343479602,0.14591231182218634,0.13545988096566852,2.9061534879741675,0.29287743171958164,-0.11764666025803466,0.4222571400344007,1.1633832660289674,-0.13365214903340794,-1.155685405100015
67,-2.716904323328003,3.261229246274765,1.13174582192877,0.2450800038885106,0.11714689922415,2.883343604519319,0.2947848970307869,-0.1102626286065457,0.41083120460954403,1.2375145991799743,-0.11707146075240699,-1.1422813239160932
68,-2.6890110125854676,3.254716430393588,1.134952170597159,0.34479069902795434,0.09873364283514852,2.8604088231611784,0.2974899054775143,-0.10232259953179487,0.3991527415454741,1.3116345231611317,-0.09904721209600788,-1.1253138112541472
69,-2.6609857188176926,3.2481727977638806,1.138173690773912,0.44497319614582853,0.08023326027797106,2.8373655210951583,0.30097152114138326,-0.09374127076484803,0.3873516889724039,1.3857556729289104,-0.08009082343447693,-1.104648389622005
70,-2.632848503776326,3.2416030326088943,1.1414080763516157,0.5455557801552784,0.06165899494921989,2.8142301937416834,0.3051883924613756,-0.08444058997304899,0.37556242924901595,1.4599174630413128,-0.06073460685285227,-1.0802248170190925
71,-2.6046195508775956,3.2350118475593725,1.1446530072374586,0.6464663010529934,0.0430241705601333,2.7910194365577263,0.3100793129328797,-0.07435262634295234,0.36392138762075976,1.534173731230403,-0.04152088347444216,-1.0520572160151545
72,-2.5763191430814754,3.2284039784885525,1.14790615189603,0.7476322529949337,0.024342176533923343,2.767749926848344,0.3155643903154106,-0.06342225557021731,0.35256453245214614,1.608579500116422,-0.022991082458024493,-1.0202337968828878
73,-2.5479676407708522,3.221784179347166,1.1511651698921217,0.8489808533720451,0.005626453403115628,2.7444384055782134,0.321546796776579,-0.05160955343122545,0.34162484118126885,1.6831779778918923,-0.005674747385843489,-0.984916336801418
74,-2.5195854596306946,3.215157216998441,1.1544277144335249,0.9504391218859789,-0.013109521793111645,2.7211016591831707,0.32791504914879394,-0.03889180151246645,0.33122979849712475,1.757988893079459,0.00992161094849832,-0.9463392277072967
75,-2.4911930485272213,3.208527866053104,1.1576914349138319,1.0519339596248027,-0.0318522501115881,2.6977565013817477,0.3345457470505514,-0.025265021703966654,0.3214989932960558,1.8329992051010855,0.023325783209593373,-0.9048076054594012
76,-2.4628108673870637,3.201900903704379,1.160953979455235,1.1533922281387374,-0.050588225307815815,2.6744197549867046,0.3413066781192748,-0.01074497317647412,0.3125418786913249,1.908157124322615,0.034111064549849544,-0.8606938894987908
77,-2.4344593650764406,3.195281104562992,1.1642129974513267,1.2547408285158506,-0.06930394843862331,2.651108233716574,0.34806018496592533,0.004632434027403699,0.30445575479182785,1.9833701725781,0.041907020677483205,-0.8144320484313334
78,-2.406158957280321,3.1886732354921725,1.1674661421098982,1.3559067804577891,-0.08798594246483304,2.6278387240071917,0.35466667843701344,0.020811331932896127,0.2973240272964507,2.058507686898522,0.046409276112316815,-0.766509090080338
79,-2.37793000438159,3.182082050442651,1.170711072995741,1.4568173013555041,-0.1066207668539203,2.604627966823234,0.3609881768500521,0.037716693329407046,0.2912147864287032,2.133407716376418,0.04738767715237092,-0.7174536406488782
80,-2.3497927893402237,3.175512285287665,1.1739454585734448,1.5573998853649522,-0.12519503218267092,2.58149263946976,0.36689175126567863,0.05525571152763084,0.2861797407030284,2.2078877333282376,0.044692179268093137,-0.6678219625853798
81,-2.3217674955724483,3.168968652657957,1.1771669787501977,1.6575823824828282,-0.14369541473984837,2.55844933740374,0.3722527624928779,0.0733197137461343,0.28225352887585786,2.2817580686658574,0.03825592995248261,-0.6181822563421799
82,-2.2938741848299133,3.16245583677678,1.1803733274185868,1.757293077622271,-0.16210867112884975,2.535514556045599,0.37695778602784025,0.09178654026141173,0.27945342164191345,2.3548366018840095,0.028095253248289404,-0.5690984710365083
83,-2.266132775078857,3.155978488294894,1.1835622149993965,1.8564607696885949,-0.18042165287036838,2.512704672590751,0.38090713587943054,0.1105233042951274,0.27777941266222245,2.4269630840613727,0.014306549516355408,-0.5211150080820685
84,-2.2385630183792724,3.149541219125572,1.1867313709844092,1.955014850655,-0.19862132100505514,2.4900359278211353,0.38401691639809943,0.1293894345026723,0.277214686826176,2.4980115876225604,-0.002939559362953258,-0.47474359379026687
85,-2.2111844787640793,3.143148597279598,1.1898785464792043,2.052885384638288,-0.21669476069617932,2.467524407916755,0.3862205518053442,0.1482398934056708,0.2777264427025378,2.5678999261344817,-0.023406248609749405,-0.43045325069561097
86,-2.1840165101182873,3.136805141700271,1.1930015167459584,2.1500031869745895,-0.2346291958322877,2.4451860262672116,0.38746976502914227,0.16692846145074214,0.27926703632516187,2.636595376923903,-0.04679992618645282,-0.38866380474947987
87,-2.1570782340581656,3.130515317098405,1.1960980837462447,2.2462999032950703,-0.25241200362986915,2.4230365052832425,0.3877349995735997,0.1853109775796803,0.28177540512643084,2.7041165485049,-0.0727803063242114,-0.34974284606686523
88,-2.130388517810409,3.12428352878733,1.1991660786838332,2.3417080886016715,-0.2700307292360131,2.4010913582082605,0.3870052994167488,0.20324843300406442,0.2851787242362047,2.770531657690177,-0.10097042215662656,-0.3140056214232435
89,-2.1039659520913094,3.1181141175178966,1.202203364547489,2.4361612863427924,-0.28747310033107,2.379365870929887,0.38528768137004116,0.22060982479901092,0.28939424268104863,2.8359537545119915,-0.1309660392326452,-0.2817170431951673
90,-2.077828828985915,3.1120113543134726,1.2052078386537737,2.529594107489042,-0.30472704173131504,2.3578750837914875,0.38260605113133717,0.23727468928324882,0.2943312443319644,2.9005335440761812,-0.16234413160289407,-0.2530948696745321
91,-2.0519951198272057,3.1059794353049495,1.2081774351898444,2.6219423096089463,-0.3217806899916056,2.3366337734037153,0.3789997277962721,0.2531352511114618,0.2998930777532356,2.964450431607605,-0.1946702841664126,-0.22831312561692169
92,-2.026482453075263,3.10002247656574,1.2111101277562526,2.713142875944663,-0.3386224080080442,2.3156564344560424,0.37452165145174127,0.2680981416611584,0.30597920031056924,3.0279023113898957,-0.22750506215628827,-0.20750495070003766
93,-2.0013080921964246,3.0941445089467807,1.2140039319097453,2.8031340944876915,-0.35524079962064103,2.294957261528297,0.3692363544732972,0.2820856587147055,0.31248718483891746,3.0910944883426335,-0.26040952605051704,-0.1907642478316942
94,-1.9764889135424673,3.0883494729115357,1.2168569077060634,2.891855637054616,-0.3716247242159696,2.2745501309022007,0.3632177793146904,0.29503655771140747,0.31931464162261836,-3.1289572952036133,-0.2929501622702223,-0.17814572441116272
95,-1.9520413842297595,3.082641213370995,1.2196671622427422,2.9792486383628054,-0.3877633113298353,2.2544485823729095,0.3565470241374944,0.30690638214672533,0.32636101412919966,-3.0656976542603047,-0.3247035465366349,-0.16966316351204894
96,-1.9279815400184397,3.0770234745186764,1.2224328522019112,3.0652557751061336,-0.4036459752499293,2.2346658010605394,0.3493100929724183,0.3176673563164116,0.33352921355914855,-3.0021555236107074,-0.3552610589390793,-0.1652860252880619
97,-1.904324963191586,3.07149989466563,1.225152186393093,3.1498213450306904,-0.41926242961849436,2.2152145992217203,0.34159571974967506,0.32730787698110203,0.3407270645086533,-2.9382147657073294,-0.3842339280242591,-0.16493476138423827
98,-1.8810867604343713,3.066074001075436,1.227823428296003,3.232891346010528,-0.43460270203497986,2.196107398061115,0.3334933260878764,0.3358316512652387,0.34786854157412467,-2.8738104648598095,-0.41125879498727197,-0.16847551890209375
99,-1.8582815407132394,3.060749204799208,1.2304448986033503,3.314413555123344,-0.4496571486587131,2.1773562095429693,0.3250911618365402,0.3432565359775101,0.3548747842554225,-2.8089382759852115,-0.436003858936315,-0.17571518993309393
100,-1.835923393155074,3.055528795510594,1.2330149777636363,3.3943376077262313,-0.4644164688115504,2.1589726182026405,0.31647466567578925,0.3496131384880183,0.36167488476670234,-2.743661153656905,-0.4581754959865446,-0.18639797841911102
101,-1.8140258649263599,3.0504159363407783,1.2355321085239543,3.472615076531361,-0.4788717195805403,2.1409677629581374,0.3077250712037987,0.3549432414102327,0.36820645010473624,-2.6781123982371,-0.47752505413151686,-0.20020473776768485
102,-1.7926019391123553,3.045413658713482,1.2379947984727904,3.549199550681741,-0.4930143304205883,2.1233523189216603,0.29891827243968605,0.3592981128321831,0.3744159457641433,-2.612494069288835,-0.49385534068591325,-0.21675620535498893
103,-1.7716640125962604,3.0405248571799657,1.2404016225828212,3.6240467148269024,-0.5068361177571137,2.1061364792111306,0.29012395200251884,0.36273676104132385,0.3802588336847991,-2.5470701811408407,-0.5070261791383509,-0.23562087445071006
104,-1.7512238739383763,3.0357522842540297,1.2427512257537152,3.6971144281986374,-0.520329299588715,2.0893299367617306,0.28140496576132,0.36532418798281413,0.38569952127574403,-2.48215470425427,-0.5169583604372061,-0.2563276119048711
105,-1.7312926812552822,3.031098545247018,1.245042325354932,3.7683628036867054,-0.5334865100898227,2.07294186613745,0.2728169697450318,0.3671296895151339,0.3907111416364997,-2.418095155493319,-0.5236353825273419,-0.27838234738531975
106,-1.711880940099002,3.0265660931028147,1.247273713768522,3.8377542869145485,-0.5463008142133727,2.056980905342601,0.2644082687080335,0.36822524332682954,0.3952751873892617,-2.35525329951479,-0.5271025680831574,-0.301287399636137
107,-1.692998481336164,3.022157223232851,1.2494442609319256,3.905253735315042,-0.5587657222934563,2.041455137633376,0.2562198610197067,0.3686840175887338,0.3993810218808721,-2.293985002163108,-0.5274634456308556,-0.3245614679777572
108,-1.6746544390271785,3.017874068351105,1.2515529168807724,3.970828497206141,-0.5708752046479821,2.0263720733293784,0.24828565145187514,0.3685790254394645,0.40302529198083437,-2.2346214195907046,-0.5248736140216498,-0.34775815869202636
109,-1.6568572283053973,3.013718593309101,1.2535987142916838,4.034448490866693,-0.5826237061813444,2.0117386316251507,0.24063280186937575,0.3679819425918997,0.4062112663850334,-2.177453427548235,-0.5195326107378696,-0.3704811821987095
110,-1.6396145232562844,3.009692589930912,1.2555807710250688,4.096086283612098,-0.5940061609870799,1.9975611224017191,0.23328218962443825,0.366962097998759,0.408948122345811,-2.1227205768677235,-0.5116745070293262,-0.3923949648142368
111,-1.6229332347965872,3.0057976718481636,1.2574982926679268,4.155717170870008,-0.6050180069505258,1.9838452280381347,0.22624894441418011,0.36558564085520395,0.411250202209843,-2.0706050801009144,-0.5015580237378628,-0.413230191559704
112,-1.6068194885534934,3.0020352693350323,1.2593505750766447,4.213319255256116,-0.6156552003514832,1.9705959852229977,0.21954303625964827,0.3639148814080682,0.41313625918188224,-2.0212305894650875,-0.48945690452944113,-0.43278453473580025
113,-1.5912786027438157,2.9984066241432483,1.2611370069197985,4.268873525649798,-0.625914230466881,1.9578177667660075,0.21316988987470903,0.3620077981836458,0.41462870946887775,-1.9746649698683951,-0.4756511318476904,-0.45091937432392626
114,-1.5763150660531364,2.9949127843370964,1.2628570722209527,4.322363936269894,-0.6357921341734327,1.94551426340949,0.20713100378966948,0.3599177003795832,0.4157529055127234,-1.9309259714143059,-0.4604193730105087,-0.46755361185953204
115,-1.5619325155149975,2.991554599128419,1.2645103529014592,4.37377748575038,-0.6452865105502985,1.933688465639933,0.20142455597001982,0.35769303128187097,0.41653644249755817,-1.8899886509954347,-0.4440328448409959,-0.48265573145540414
116,-1.5481337143900573,2.988332713711616,1.2660965313232575,4.423104296216109,-0.6543955354817479,1.922342645499536,0.19604598114053148,0.35537729661464557,0.41700850781278687,-1.851793517918973,-0.4267506172069274,-0.4962351344025441
117,-1.5349205300452544,2.985247564098647,1.267615392831674,4.470337692358533,-0.6631179762598158,1.9114783383977345,0.1909885084332861,0.35300910062661767,0.4171992807442916,-1.816254602704642,-0.40881625453012765,-0.5083335483470954
118,-1.522293911832981,2.982299371954032,1.2690668282982227,4.515474280511419,-0.6714532061869702,1.9010963249227402,0.18624365119971528,0.3506222723597645,0.4171393874166229,-1.7832668998230388,-0.3904556214116188,-0.5190170597452342
119,-1.510253868970259,2.9794881394298542,1.2704508366634029,4.558514027726523,-0.6794012191787662,1.8911966126530828,0.18180164376726946,0.34824606481697895,0.4168594139655079,-1.7527128653624184,-0.3718756467844587,-0.5283690878649702
120,-1.4987994484178744,2.976813644000759,1.2717675274795024,4.599460340849396,-0.6869626443665231,1.8817784179691337,0.1776518225164704,0.3459054105241151,0.4163894791151847,-1.7244678343604938,-0.3532638394172129,-0.536484435009623
121,-1.4879287127595946,2.97427543329896,1.2730171234533925,4.6383201455950305,-0.6941387606999543,1.8728401478646592,0.17378295086648057,0.34362121814852076,0.41575886578753446,-1.6984043532242437,-0.3347883649915546,-0.543464417393498
122,-1.4776387180812973,2.9718728199492346,1.274199962989331,4.675103965623598,-0.7009315115498564,1.8643793817583507,0.17018348957270132,0.3414106962776648,0.414995710086409,-1.6743955050449137,-0.31659852211887163,-0.5494129993716045
123,-1.4679254918501465,2.9696048764039302,1.2753165027317617,4.709826001616192,-0.707343519310764,1.8563928533053513,0.16684181516417892,0.33928769207554693,0.41412674497723545,-1.652317349650155,-0.29882548488762944,-0.5544338104898249
124,-1.45878401079377,2.9674704297779635,1.2763673201081127,4.742504210350481,-0.7133781000036015,1.8488764322088116,0.1637463904020423,0.3372630342322155,0.4131770952069941,-1.632050616877659,-0.2815832086442588,-0.5586279090525894
125,-1.4502081787794259,2.965468056683824,1.2773531158715963,4.773160383776513,-0.719039277878351,1.8418251060314148,0.16088589135506698,0.33534487132821833,0.41217011946446624,-1.613481790493817,-0.264969421448078,-0.5620921578454285
126,-1.4421908046931486,2.9635960780665696,1.2782747166440107,4.801820228092409,-0.7243318000167154,1.835232962006904,0.15824929610399263,0.3335389983917152,0.41112729544209475,-1.5965037089517935,-0.2490666451053632,-0.5649180896991672
127,-1.434723580318951,2.961852554038838,1.279133077458536,4.828513442819989,-0.7292611509347715,1.8290931688516459,0.1558259402460763,0.3318491659858231,0.41006814330263797,-1.5810157931077855,-0.23394320682073366,-0.5671911573572598
128,-1.4277970582179504,2.9602352787158366,1.2799292843025387,4.853273799880646,-0.7338335671856422,1.8233979585761428,0.153605544320349,0.33027736759579196,0.4090101830480972,-1.5669239935408725,-0.21965421570601132,-0.5689902801040982
129,-1.4214006296075938,2.9587417750503557,1.280664556660366,4.876139222670935,-0.7380560519621406,1.8181386082965858,0.15157821805658012,0.32882410236977866,0.4079689214069499,-1.5541405332820586,-0.20624248825653985,-0.5703876167543577
130,-1.4155225022407594,2.957369289667761,1.2813402500561497,4.897151865138333,-0.7419363896994478,1.813305422046378,0.1497344460083851,0.32748861139312996,0.4069578640706324,-1.5425835065966735,-0.19373941407822376,-0.571448509811739
131,-1.4101496782849674,2.956114787700998,1.2819578585966045,4.916358190857031,-0.7454831606777743,1.808887712587671,0.1480650587017951,0.32626908664268456,0.40598854939520507,-1.5321763813980267,-0.18216575821892816,-0.5722315584480776
132,-1.4052679322015331,2.9549749476255935,1.2825190175138266,4.933809052103533,-0.7487057556249974,1.8048737832229254,0.1465611929481597,0.3251628525792462,0.4050706000146279,-1.5228474419379425,-0.1715323999307397,-0.5727887883883607
133,-1.4008617886247476,2.953946156094659,1.283025505708095,4.949559768932402,-0.7516143903193475,1.80125090960642,0.14521424446403677,0.324166521002123,0.40421178916587747,-1.5145291994646477,-0.16184100997589124,-0.573165894988492
134,-1.3969145002410324,2.9530245027738924,1.2834792482906698,4.963670208252032,-0.7542201201920617,1.7980053215558023,0.1440158154347525,0.32327612032214226,0.40341811888370577,-1.5071577913197705,-0.15308467001050524,-0.573402542033734
135,-1.3934080256680845,2.952205775176569,1.283882319126595,4.976204862900395,-0.7565348549300461,1.7951221848636187,0.14295765917249548,0.322487200822415,0.4026939075672227,-1.5006723832037399,-0.14524843837686202,-0.5735327033753063
136,-1.3903230073341062,2.9514854534985613,1.2842369433774916,4.987232930720601,-0.7585713730785253,1.7925855831088526,0.14203162356958154,0.3217949177840036,0.4020418847375771,-1.4950145848313465,-0.13830986698298223,-0.5735850377604478
137,-1.3876387493569124,2.950858705453325,1.2845455000443657,4.996828393636803,-0.7603433366437171,1.7903784994684742,0.14122959464430576,0.32119409457046844,0.40146329108432277,-1.490127885718859,-0.13223947397145513,-0.573583289371349
138,-1.3853331954231232,2.9503203811069074,1.284810524510401,5.005070096729752,-0.7618653056954843,1.7884827985289586,0.1405434411289792,0.32067926790414636,0.40095798212907574,-1.485957115223247,-0.12700117666390112,-0.5735467079095594
139,-1.383382906667335,2.9498650077129476,1.2850347110837637,5.012041827312678,-0.7631527529700106,1.7868792080978295,0.1399649607618966,0.32024471763919854,0.40052453401227767,-1.4824479290552282,-0.12255268886553423,-0.5734904827446031
140,-1.3817630395512799,2.949486784547681,1.2852209155403973,5.017832394006823,-0.764222078472435,1.7855473010151979,0.1394858287197049,0.3198844833522072,0.4001603500288898,-1.4795463232104964,-0.11884588606403725,-0.5734261858525461
141,-1.380447323742998,2.94917957774493,1.2853721576668273,5.0225357058173605,-0.7650906240795399,1.7844654769653001,0.13909754846378922,0.31959237003805324,0.39986176659983463,-1.4771981755206336,-0.11582714137498495,-0.573362218132849
142,-1.3794080399959823,2.94893691513112,1.2854916238029583,5.026250851208956,-0.765776688142398,1.7836109442880321,0.13879140517171495,0.31936194512437716,0.39962415736893986,-1.4753488147540301,-0.11343763428819101,-0.5733042533091477
143,-1.3786159980284038,2.9487519810602754,1.2855826693848718,5.029082177181535,-0.766299540089034,1.782959701790487,0.13855842187877124,0.3191865289071334,0.399442034062216,-1.4739426173352002,-0.11161363335952103,-0.5732556730680732
144,-1.378040514402218,2.948617611249012,1.2856488214876292,5.031139368346046,-0.7666794350270854,1.7824865205584839,0.138389318459584,0.3190591803683322,0.3993091426421096,-1.4729226322475033,-0.11028675298107897,-0.5732179864219233
145,-1.3776493904023566,2.948526287611551,1.2856937813680718,5.0325375260001115,-0.7669376283464784,1.7821649257681216,0.13827447362930045,0.31897268016974734,0.39921855313947435,-1.4722302354830015,-0.10938418325665519,-0.5731912255346329
146,-1.377408889915901,2.948470133094718,1.2857214270076174,5.033397247203765,-0.7670963903220516,1.781967178497304,0.13820389022969104,0.31891951242936306,0.3991627413574126,-1.4718048164475492,-0.10882889082331158,-0.5731743094487814
147,-1.3772837173112356,2.9484409065129364,1.2857358156550598,5.033844703855265,-0.7671790207162639,1.7818642575372685,0.13816716417922473,0.3188918466879141,0.3991336604219725,-1.471583499957018,-0.10853978721515406,-0.5731653663112791
148,-1.377236995317225,2.948429997383239,1.2857411863693744,5.034011721766631,-0.7672098633818285,1.7818258412041548,0.13815345759812858,0.3188815212707529,0.39912279991358657,-1.47150090880335,-0.10843186009121562,-0.5731620038261802
149,-1.3772302429023915,2.9484284207602647,1.285741962562509,5.034035859739446,-0.767214320864368,1.7818202891505006,0.13815147675945694,0.31888002905789614,0.3991212300593557,-1.4714889732498886,-0.10841626138544881,-0.5731615167734786
