nimar13/UR3e_dataset_trayectorias/data/trayectorias_completas_UR3e_JTRAJ/trayectoria_078.csv
Punto,shoulder_pan_joint,shoulder_lift_joint,elbow_joint,wrist_1_joint,wrist_2_joint,wrist_3_joint,Posicion_X,Posicion_Y,Posicion_Z,Roll,Pitch,Yaw
0,1.9169443189655606,3.406804495026382,-0.6169738216142435,-1.496106059764383,3.106600861023825,-5.7269506324562265,0.1386002960456116,-0.49900785036080564,0.12624733759731135,-0.7372195907835184,0.037713721831833434,0.3588098019205058
1,1.9169461849961373,3.40681082503684,-0.6169707602296606,-1.4961094382493654,3.106604296077601,-5.726939291826141,0.13860141496989242,-0.49900808596234386,0.12625149884146752,-0.737214307583223,0.037710497677650036,0.3588104796844003
2,1.9169590966242802,3.406854624287613,-0.6169495775867648,-1.496132815005527,3.106628064250301,-5.726860822587529,0.13860915684067418,-0.49900971523612225,0.12628029190694584,-0.7371777514062867,0.037688188426396686,0.3588151704198114
3,1.9169936880872407,3.4069719665889893,-0.6168928272994256,-1.4961954435281224,3.106691741414518,-5.726650596136543,0.1386298954232178,-0.49901407225339295,0.1263574326300241,-0.737079812935075,0.037628416780859715,0.3588277466643062
4,1.9170601504229206,3.4071974223158104,-0.6167837900883834,-1.4963157748912868,3.106814087586121,-5.7262466773728224,0.1386697308214497,-0.4990224110772062,0.1265056527371945,-0.7368916345089971,0.03751356194505385,0.35885194815492105
5,1.9171682375829677,3.4075640791445108,-0.6166064637521892,-1.4965114688159136,3.107013058177448,-5.725589787547724,0.1387344847464643,-0.49903588104668395,0.1267467179287382,-0.7365855894917057,0.037326739275499635,0.3588914139144842
6,1.91732727254587,3.4081035627901612,-0.6163455531381448,-1.4967994047375308,3.107305815250504,-5.724623267112553,0.138829693222465,-0.4990554944159606,0.12710144723788816,-0.7361352606760805,0.03705177707405447,0.35894972331617314
7,1.9175461534300497,3.4088460577435065,-0.6159864601132419,-1.4971956928741803,3.1077087387701563,-5.723293038566783,0.13896059713344164,-0.4990820877407001,0.12758973334643886,-0.7355154179535511,0.036673191155092,0.3590304445191063
8,1.917833359606958,3.4098203280080073,-0.6155152735351025,-1.497715685294294,3.1082374378573308,-5.721547569306292,0.13913213095845559,-0.49911627831191396,0.12823056352032064,-0.73470199548243,0.036176157827417926,0.3591371887882257
9,1.9181969578141695,3.4110537378368817,-0.6149187592229178,-1.4983739869845718,3.108906762042208,-5.719337834471585,0.13934890998878321,-0.49915841684734275,0.12904204081006512,-0.7336720685991192,0.03554648594079549,0.3592736693283631
10,1.9186446082684767,3.4125722724701437,-0.6141843499283887,-1.4991844669178587,3.1097308125174217,-5.716617279796021,0.13961521626802492,-0.49920853756515327,0.130041405143585,-0.7324038307255156,0.03477058865554494,0.35944376337429634
11,1.9191835707789846,3.4144005588716455,-0.6133001353066648,-1.5001602691210234,3.1107229533912504,-5.713341784454049,0.13993498344799646,-0.49926630668326,0.13124505392403038,-0.7308765705345805,0.03383545559880101,0.3596515763852668
12,1.919820710860205,3.4165618864661185,-0.6122548518872848,-1.5013138237428345,3.1118958229408182,-5.709469623909423,0.14031178070991715,-0.4993309703105344,0.13266856173506014,-0.7290706496434028,0.03272862607099883,0.3599015072932168
13,1.920562505845151,3.4190782278762115,-0.6110378730451156,-1.502656858121839,3.113261344865288,-5.704961432763439,0.14074879586292072,-0.49940130262365723,0.1343266987507459,-0.7269674811087233,0.031438163959468704,0.3601983138486184
14,1.9214150509984311,3.4219702596595347,-0.6096391989712922,-1.504200407854239,3.11483073953906,-5.699780167603161,0.14124881770083908,-0.49947555515561654,0.1362334474482428,-0.724549509003402,0.02995263500174553,0.3605471771958962
15,1.9223840656293447,3.425257383045698,-0.6080494466441578,-1.50595482786177,3.116614535264966,-5.693891069849647,0.14181421767400632,-0.4995514079589823,0.13840201722877013,-0.7218001893534757,0.028261087018793804,0.36095376489204656
16,1.9234748992049755,3.428957744673352,-0.606259839800203,-1.507929803459578,3.118622579527466,-5.6872616286061755,0.1424469309156718,-0.4996259233490912,0.14084485656665316,-0.7187039727140621,0.026353033707321855,0.3614242916571705
17,1.9246925374632864,3.4330882573272286,-0.6042621989050058,-1.510134361424097,3.1208640502458453,-5.679861543506479,0.14314843665260327,-0.49969550287914327,0.14357366232721466,-0.7152462886580394,0.024218442540956914,0.36196557721448813
18,1.926041608526214,3.4376646206751835,-0.6020489311241708,-1.5125768810609261,3.123347467027411,-5.671662687562964,0.1439197380264916,-0.49975584815071045,0.14659938592211497,-0.7114135324439123,0.021847727282246633,0.3625851006403221
19,1.9275263890127627,3.4427013420052344,-0.59961302029427,-1.5152651052727082,3.1260807024206856,-5.662639070014947,0.1447613413566564,-0.4998019260190497,0.14993223600511033,-0.7071930541181879,0.019231745551871144,0.3632910507020293
20,1.9291508101521004,3.4482117569626016,-0.5969480168937812,-1.5182061516270067,3.129070993168607,-5.652766799176874,0.14567323488496814,-0.499827938712425,0.15358167745183077,-0.7025731502923914,0.016361801838540045,0.36409237171449577
21,1.9309184638966508,3.4542080502867516,-0.5940480280140287,-1.5214065234241825,3.1323249514617215,-5.642024045286553,0.14665486706042558,-0.49982729934788883,0.1575564264136884,-0.697543058815182,0.013229656263689018,0.3649988044942361
22,1.9328326090351902,3.460701276548434,-0.5909077073301224,-1.5248721207652727,3.1358485761913815,-5.630391003353385,0.14770512444297995,-0.4997926132919815,0.16186444128792027,-0.6920929565350219,0.009827539340088854,0.36602092203510794
23,1.9348961773059399,3.4677013808867256,-0.5875222450718981,-1.5286082516198671,3.1396472642029423,-5.61784985600658,0.14882230933336033,-0.4997156657828334,0.16651290950262015,-0.6862139603183324,0.0061481728838389555,0.36717015957176163
24,1.9371117795096626,3.4752172197460673,-0.5838873579948566,-1.5326196428939864,3.1437258215489563,-5.604384736343398,0.15000411726724022,-0.49958741619938474,0.1715082300767599,-0.6798981314509894,0.0021847971560298237,0.3684588387369937
25,1.9394817116227552,3.4832565816133085,-0.5799992793511035,-1.5369104514979597,3.148088474742371,-5.589981690777371,0.1512476145472951,-0.49939799933296297,0.17685599198013913,-0.6731384835071323,-0.002068795775255346,0.36990018555756726
26,1.9420079609103442,3.4918262077547455,-0.5758547488602896,-1.541484275414301,3.1527388820097264,-5.574628641886528,0.1525492160248551,-0.4991367339853301,0.1825609483862258,-0.6659289937179532,-0.006618222548805682,0.37150834207039757
27,1.9446922120393801,3.500931812953162,-0.5714510026805496,-1.5463441647655882,3.1576801445443463,-5.558315351261626,0.1539046633830426,-0.4987921391845981,0.1886269869813212,-0.6582646178140887,-0.011468463083113336,0.3732983713773684
28,1.9475358531917317,3.510578106244872,-0.5667857633794425,-1.5514926328823397,3.1629148177595403,-5.541033382354381,0.15530900421467142,-0.4983519582751063,0.19505709656567247,-0.6501413082481919,-0.016623809477053546,0.37528625599261
29,1.9505399821772802,3.5207688116567573,-0.5618572299048912,-1.5569316673708915,3.168444922541796,-5.5227760633256855,0.15675657222982464,-0.4978031910985711,0.20185333025529736,-0.6415560356292623,-0.022087809590730853,0.37748888937057345
30,1.9537054125470146,3.5315066889433107,-0.5566640675561219,-1.5626627411812763,3.174271956503978,-5.503538449893849,0.15824096896892662,-0.4971321344406607,0.20901676566659624,-0.6325068131174971,-0.02786320573888246,0.37992406053617445
31,1.9570326797061253,3.5427935543236755,-0.5512053979546042,-1.5686868236750993,3.180396905238521,-5.483317288182814,0.15975504743628938,-0.4963244308688234,0.21654746253843926,-0.6229927234382061,-0.0339518690048598,0.3826104317690039
32,1.960522047027099,3.554630301218685,-0.5454807890149905,-1.5750043916934164,3.18682025357063,-5.462110977570394,0.16129089810547434,-0.4953651260330574,0.22444441831744588,-0.6130139480764415,-0.040354729753586546,0.3855675093210537
33,1.9641735119628128,3.567016920987907,-0.539490244916056,-1.5816154406246123,3.1935419968114727,-5.439919533536494,0.16283983778030242,-0.4942387344408009,0.23270552230070643,-0.6025717981112118,-0.04707170498629728,0.3888156071704224
34,1.9679868121596293,3.5799525236666803,-0.5332341960716382,-1.588519495472277,3.2005616520113778,-5.416744550511339,0.16439240182285933,-0.4929293136498896,0.24132750899518296,-0.5916687460407112,-0.054101623237752944,0.39237580383061577
35,1.9719614315704905,3.593435358703156,-0.5267134891015766,-1.595715621923084,3.207878269213031,-5.392589164723706,0.16593834028131346,-0.49142054674936364,0.25030591141354896,-0.5803084578391727,-0.06144214776783889,0.39626989224492826
36,1.9760966065680126,3.6074628356953413,-0.5199293768026525,-1.6032024374146672,3.2154904427046715,-5.367458017049149,0.16746661846470176,-0.4896958329169204,0.2596350150811472,-0.5684958243732731,-0.06908969884383427,0.4005203227964071
37,1.98039133205758,3.622031545128137,-0.5128835081195287,-1.6109781222034991,3.2233963222732864,-5.341357215858224,0.16896542251800098,-0.48773838575416584,0.26930781357702893,-0.5562369911931603,-0.07703937594759738,0.40515013945463996
38,1.9848443675904401,3.637137279110378,-0.5055779181156891,-1.6190404304327684,3.231593624457809,-5.314294299864722,0.17042217054782738,-0.48553133900710377,0.2793159664726473,-0.5435393856020827,-0.08528488077393932,0.41018290905991817
39,1.9894542434767983,3.6527750521118767,-0.49801501794437875,-1.627386701200256,3.2400796438023147,-5.286278200973895,0.17182352983607851,-0.4830578591802354,0.2896497605635646,-0.5304117398009843,-0.0938184419133658,0.41564264371222376
40,1.9942192668989118,3.668939121700461,-0.49019758481954306,-1.6360138696262145,3.2488512641092164,-5.25731920713068,0.17315544065497201,-0.48030126444925203,0.3002980753115331,-0.5168641088026901,-0.10263074213538617,0.42155371618661436
41,1.9991375280241834,3.6856230092790163,-0.48212875198676786,-1.644918477921245,3.257904969692461,-5.227428925167931,0.17440314716157457,-0.47724514917084276,0.3112483534255077,-0.50290788171654,-0.11171084920895229,0.4279407682381701
42,2.0042069061182577,3.7028195208225254,-0.4738119986942191,-1.6540966864541735,3.267236856630726,-5.196620243654647,0.17555123580259996,-0.4738735131801365,0.32248657750961324,-0.48855578492096235,-0.12104615121590319,0.434828611589645
43,2.0094250756581142,3.7205207676151097,-0.46525114016358216,-1.66354428481993,3.276842644020615,-5.164907295744196,0.17658368160062363,-0.47017089495846764,0.33399725369302546,-0.47382187557141664,-0.13062229733318878,0.4422421213153368
44,2.0147895124451627,3.73871818698707,-0.4564503175610022,-1.6732567029074255,3.286717685229855,-5.132305422022545,0.1774839026209305,-0.4661225076484654,0.3457634031304452,-0.4587215238373434,-0.14042314508177822,0.4502061212484107
45,2.020297499718336,3.757402563051926,-0.44741398796802345,-1.683229021967429,3.2968569791504914,-5.098831133356489,0.17823482283405465,-0.4617143767920113,0.3577665622217805,-0.44327138222795576,-0.15043071506610822,0.4587452609502923
46,2.025946134267187,3.776564047443458,-0.4381469143525289,-1.6934559856804456,3.3072551814520854,-5.064502073741877,0.17881894349320585,-0.4569334785716392,0.36998679234545817,-0.4274893403570454,-0.16062515425905252,0.4678838836952396
47,2.0317323325449816,3.7961921800527487,-0.4286541555396802,-1.703932011224594,3.3179066158349095,-5.029336983151839,0.1792184230388819,-0.4517678772498443,0.3824026998313306,-0.4113944635166853,-0.17098470892457396,0.4776458848480079
48,2.0376528367817923,3.8162759097652197,-0.4189410561828573,-1.714651200343483,3.328805285283144,-4.993355660385014,0.17941516542607344,-0.4462068604258466,0.39499146681641945,-0.39500691348448513,-0.18148570831393404,0.4880545599559745
49,2.043704221097595,3.8368036151976774,-0.40901323673459805,-1.7256073504140907,3.3399448833180725,-4.956578925913783,0.17939091664392737,-0.44024107066803214,0.4077288935301591,-0.37834785008629507,-0.19210256032112624,0.4991324418494117
50,2.049882897615362,3.8577631254353495,-0.39887658341753807,-1.7367939655146412,3.351318805251279,-4.919028584732487,0.17912736906512916,-0.4338626320348568,0.4205894524458487,-0.3614393121836552,-0.20280776033776604,0.5109011260560103
51,2.0561851225741554,3.879141740768928,-0.3885372381953505,-1.748204267492481,3.362920159437844,-4.880727389205662,0.17860627312456281,-0.42706526996954375,0.43354635461262386,-0.34430407696247334,-0.21357191460448494,0.5233810839012367
52,2.0626070024422245,3.900926253431609,-0.3780015887436854,-1.7598312070319584,3.3747417785295415,-4.8416990019162665,0.17780955568616882,-0.4198444230464518,0.4465716283484829,-0.32696549667597746,-0.2243637794110849,0.5365914627979903
53,2.069144500030098,3.9231029683361336,-0.3672762584211098,-1.7716674747223005,3.386776230728032,-4.801967958513902,0.1767194443157845,-0.41219734506113614,0.45963621033120866,-0.3094473123518451,-0.2351503175458269,0.5505498734415607
54,2.075793440603679,3.945657723811828,-0.35636809624004706,-1.7837055121254894,3.3990158310380636,-4.761559630563054,0.17531859653878165,-0.4041231959932515,0.4727100489720631,-0.29177344442078007,-0.2458967734281972,0.5652721639326891
55,2.082549517997339,3.9685759123416444,-0.3452841668377172,-1.7959375228441412,3.411452652520663,-4.720500188391306,0.1735902330272792,-0.39562312043247494,0.48576221979883577,-0.2739677607710586,-0.2565667683703865,0.5807721812650046
56,2.0894083007270137,3.9918425012992023,-0.3340317404470756,-1.8083554835893836,3.4240785375463365,-4.6788165639375725,0.1715182735355516,-0.38670031214306805,0.4987610524123993,-0.25605382338821475,-0.2671224173900117,0.5970615211431292
57,2.096365238103297,4.015442053685829,-0.3226182828677541,-1.8209511552487316,3.436885109048263,-4.636536413600333,0.169087474286869,-0.37736006355257745,0.5116742684166977,-0.23805461550416762,-0.2775244689281213,0.6141492677498213
58,2.1034156663445343,4.039358748867598,-0.3110514454369992,-1.833716093953967,3.4498637817754916,-4.593688081085849,0.16628356541336894,-0.3676097990839502,0.5244691295586338,-0.21999225205389106,-0.2877324686990866,0.6320417258542846
59,2.110554814689918,4.063576403312375,-0.2993390550006129,-1.8466416621490152,3.4630057735461377,-4.550300560256399,0.16309338696543227,-0.3574590914070201,0.5371125951543131,-0.20188767721037643,-0.29770494869862735,0.6507421485405708
60,2.1177778115125814,4.088078491326851,-0.2874891038838918,-1.8597190396578223,3.476302116500579,-4.506403457978502,0.1595050219411041,-0.3469196598632802,0.5495714877242222,-0.18376035382040776,-0.30739964210953674,0.670250464815864
61,2.1250796904326945,4.112848165793588,-0.2755097398625672,-1.872939234752233,3.4897436683546506,-4.46202695697115,0.1555079247416975,-0.33600535051496394,0.5618126656150247,-0.16562795066336283,-0.3167737244594803,0.6905630124022235
62,2.132455396430558,4.137868278908063,-0.26340925613374405,-1.8862930952198687,3.503321123652845,-4.4172017786540305,0.15109304343894628,-0.32473209748309056,0.5738032012523743,-0.14750603455782993,-0.32578408089227767,0.711672282076868
63,2.1398997919596945,4.163121402915698,-0.2511960812868422,-1.8997713194320034,3.5170250250215025,-4.37195914599576,0.14625293424354735,-0.3131178654661298,0.5855105635501743,-0.12940777538736312,-0.3343875988087057,0.7335666809457715
64,2.147407663059949,4.188589850848911,-0.23887876927453422,-1.913364467411443,3.530845774422013,-4.326330746362103,0.14098186659587048,-0.3011825735677796,0.5969028028995049,-0.11134367303425233,-0.34254148441654886,0.7562303229394678
65,2.154973725470578,4.21425569726415,-0.22646598938368678,-1.9270629719004013,3.544773644404009,-4.2803486943642115,0.1352759173576635,-0.2889480008050953,0.6079487370772018,-0.09332131591484083,-0.3502036009120847,0.779642855523238
66,2.162592630743347,4.24010079897894,-0.2139665162062987,-1.9408571494283793,3.5587987893585624,-4.234045494706841,0.12913305266890382,-0.27643767391269136,0.6186181363518523,-0.07534518120979974,-0.35733282511571646,0.803779332023495
67,2.170258972355624,4.266106815808915,-0.20138921961044243,-1.9547372113800408,3.5729112567713814,-4.187454005036585,0.12255319614599322,-0.26367673830054683,0.6288819060253851,-0.05741648688632648,-0.36388941843297956,0.8286101389947912
68,2.177967291823474,4.2922552313048685,-0.18874305471120256,-1.9686932750630903,3.587100998476007,-4.140607398790104,0.1155382822352779,-0.2506918132576373,0.6387122646327064,-0.039533105132000736,-0.3698354070495521,0.8541009876019447
69,2.185712084814753,4.318527373489784,-0.17603705184161567,-1.9827153747761521,3.601357881907007,-4.093539128042348,0.10809229369764584,-0.23751083271674367,0.648082916030932,-0.021689545796829062,-0.37513496534619617,0.8802129770024388
70,2.193487807262204,4.344904435595885,-0.16328030652361047,-1.9967934728766465,3.6156717013531745,-4.0462828863547875,0.10022128238349218,-0.22416287310298963,0.6569692136439761,-0.003877016834862727,-0.3797547956956177,0.9069027361481208
71,2.201288881476549,4.37136749680167,-0.1504819694389471,-2.010917470848667,3.6300321892107235,-3.9988725716236404,0.09193337265983685,-0.21067796997589142,0.665348315187623,0.01391643344611252,-0.3836644971415164,0.9341226482854206
72,2.209109702259586,4.397897542968954,-0.13765123640015742,-2.025077220370857,3.6444290272364848,-3.9513422489281,0.08323874706951849,-0.1970869253381714,0.6731993262841385,0.031705690226069186,-0.3868369150235287,0.9618211597711792
73,2.216944643017282,4.42447548737991,-0.12479733832148365,-2.039262534384293,3.6588518578011033,-3.9037261133785606,0.07414961403246167,-0.18342110762099043,0.680503431482995,0.04950826313220246,-0.3892484634570451,0.9899431717409314
74,2.2247880618728675,4.451082191474111,-0.11192953118981908,-2.0534631981603524,3.6732902951422317,-3.8560584529648514,0.06468015763695385,-0.16971224646181127,0.6872440113338951,0.0673438987341914,-0.39087941274834803,1.0184305098234152
75,2.232634307779932,4.477698485585566,-0.099057086035648,-2.067668980368599,3.6877339366177293,-3.808373611404457,0.05484646981032002,-0.15599222446558797,0.6934067443081059,0.08523412244846228,-0.3917141343488848,1.047222463687446
76,2.2404777266355187,4.5043051896797675,-0.08618927890398331,-2.0818696441446587,3.702172373958858,-3.760705950990746,0.04466646539891249,-0.14229286818086503,0.6989796925318091,0.10320172101707635,-0.39174129683021064,1.0762563849617843
77,2.248312667393215,4.5308831340907245,-0.07333538082530955,-2.096054958158094,3.7165952045234762,-3.7130898154412075,0.034159780922401115,-0.12864574052885325,0.7039533704781211,0.12127017962140034,-0.390954007569788,1.105468329219667
78,2.256133488176251,4.557413180258007,-0.06050464778651998,-2.1102147076802846,3.7309920425492376,-3.6655594927456674,0.023347657992474465,-0.1150819368954273,0.7083207959596103,0.1394630899678196,-0.3893498963273748,1.134793725486315
79,2.263934562390596,4.583876241463793,-0.04770631070185649,-2.124338705652305,3.7453525304067874,-3.618149178014519,0.012252812597024893,-0.10163188703398329,0.7120775229673932,0.1578035471629104,-0.38693113858877887,1.1641680552891966
80,2.271710284838047,4.610253303569894,-0.03494956538385163,-2.138416803752799,3.7596663498529543,-3.5708929363269597,0.000899291643640384,-0.08832516483244306,0.7152216561128036,0.17631355375918864,-0.38370441836670116,1.193527522746506
81,2.279455077829326,4.63652544575481,-0.022243562514264736,-2.1524389034658613,3.773923233283954,-3.523824665579204,-0.010687681672857913,-0.07519030787238404,0.7177538466397775,0.19501344895445416,-0.37968083197541536,1.2228096976243823
82,2.287163397297176,4.662673861250762,-0.009597397615024539,-2.1663949671489107,3.7881129749885796,-3.4769780593327226,-0.022481871968105756,-0.06225464855503151,0.7196772701869101,0.21392137960261526,-0.3748757360340284,1.2519541146529758
83,2.2948297389094527,4.6886798780807375,0.002979898980831619,-2.1802750291005717,3.8022254424013986,-3.430386569662467,-0.034456203402031385,-0.04954415839068538,0.7209975866843001,0.23305282755176643,-0.3693085445068821,1.280902814565731
84,2.3024486441822223,4.714524979795527,0.015479372158219595,-2.19406920662855,3.816250587355952,-3.3840833700050954,-0.04658293713096597,-0.0370833068488487,0.7217228829683457,0.2524202050387597,-0.3630024808804844,1.3096008151424716
85,2.310014706592851,4.7401908262107675,0.027892152049067143,-2.2077677111175085,3.830178457337948,-3.3381013180072046,-0.05883385250234353,-0.02489493594978984,0.7218635988845982,0.27203252665388145,-0.35598429254744235,1.337996503779982
86,2.3175225776931057,4.76565927414398,0.040209464061375044,-2.221360859096948,3.8439992067384585,-3.292472918373547,-0.07118042999016569,-0.013000151548845366,0.7214324378216765,0.2918951629786177,-0.34828393508856476,1.3660419465497422
87,2.324966973222242,4.790912398151615,0.05242263890827714,-2.2348390833090823,3.8577031081071165,-3.2472302857152755,-0.08359403387494833,-0.001418232026863895,0.7204442627755981,0.3120096776230954,-0.33993423440993364,1.393693112102162
88,2.3323426792201056,4.815932511266089,0.06452312263710014,-2.248192943776718,3.871280563405311,-3.202405107398156,-0.09604609270845937,0.009833445141673336,0.7189159791814922,0.33237374625143734,-0.3309705346220957,1.420910011936487
89,2.3396445581402188,4.840702185732827,0.07650248665842474,-2.2614131388711294,3.8847221152593825,-3.158028606390806,-0.10850827566995448,0.02073945871274152,0.7168664058667281,0.35298115344462555,-0.3214303391828091,1.4476567613137532
90,2.3468675549628824,4.8652042737473025,0.0883524377751459,-2.2744905163799363,3.898018458213823,-3.1141315041129083,-0.12095266301490792,0.03128638089559364,0.7143161355747378,0.37382186102390075,-0.3113529522167729,1.473901567334819
91,2.354006703308266,4.889421928192079,0.10006482821153195,-2.2874160845749842,3.91116044998447,-3.0707439832834567,-0.13335190893708462,0.041462796708734144,0.7112873865812164,0.394882139801617,-0.30077912613668945,1.4996166523778178
92,2.361057131549503,4.913338623373848,0.1116316656422871,-2.30018102328022,3.9241391227116984,-3.0278956507689747,-0.1456793953073416,0.05125930591887391,0.7078038469736189,0.4161447556510599,-0.2897507207834179,1.5247781221796757
93,2.3680140689257865,4.936938175760476,0.12304512322160877,-2.3127766949395685,3.936945694213625,-2.9856155004317344,-0.15790937491457085,0.06066850821237353,0.7038905131908154,0.4375892002597878,-0.2783103783392409,1.5493657883864227
94,2.3748728516554616,4.960204764718034,0.13429754961225004,-2.3251946556848098,3.9495715792392985,-2.943931875978003,-0.17001710301218861,0.06968497242979682,0.6995735244229184,0.45919195688991377,-0.2665012173006755,1.5733629554496609
95,2.3816289290491213,4.9831229532478485,0.14538147901457954,-2.3374266664034615,3.9620084007218974,-2.9028724338062553,-0.18197895616391455,0.07830519085450677,0.6948799944524274,0.4809267918304138,-0.2543665478699019,1.5967561813948565
96,2.3882778696227023,5.005677708723545,0.15628964119564248,-2.3494647038066514,3.974248001031929,-2.862464105855403,-0.19377253758136728,0.08652751968390514,0.6898378424781669,0.5027650628985824,-0.24194961027016534,1.6195350213229773
97,2.394815367210576,5.027854423628069,0.16701497151821876,-2.3613009714969935,3.9862824532304204,-2.8227330624530413,-0.20537676834955834,0.09435210692583183,0.6844756244045606,0.5246760372377322,-0.2292933367332174,1.6416917616230693
98,2.4012372470786447,5.049638936290749,0.1775506209698836,-2.372927911036471,3.9981040723221173,-2.783704675163646,-0.21677196414094527,0.10178080905213642,0.6788223660023204,0.546627211679796,-0.21644013725894376,1.6632211518556805
99,2.4075394720374383,5.071017551624328,0.187889966192071,-2.3843382130143103,4.009705426508683,-2.7454034796368205,-0.22793989722068644,0.10881709780631929,0.6729073992548273,0.5685846300195702,-0.20343170871365396,1.684120140190148
100,2.413718148555205,5.091977061862001,0.19802661950913114,-2.3955248281148607,4.021079348441889,-2.7078531384555227,-0.23886384374196035,0.115465958602948,0.6667602030993584,0.5905131926208768,-0.19030886641164163,1.7043876172040586
101,2.4197695328710083,5.112504767294458,0.2079544389573904,-2.4064809781854684,4.032218946476817,-2.6710764039842925,-0.2495286165175528,0.12173378197402951,0.6604102496564184,0.6123769547964428,-0.17711139700767567,1.7240241718272422
102,2.4256900371078185,5.13258849700693,0.21766753831421282,-2.4172001673043573,4.043117615925052,-2.635095081217468,-0.25992058362972675,0.1276282495129658,0.6538868569160436,0.6341394113400175,-0.16387793130561631,1.743031862268391
103,2.431476235385613,5.152216629616218,0.22716029712706165,-2.427676192848505,4.053769050307876,-2.599929990627432,-0.27002767340243183,0.1331582157417662,0.647219048719573,0.6557637654200194,-0.150645835447899,1.761414003920471
104,2.437124869934464,5.171378114007751,0.23642737074255615,-2.437903156561522,4.06416725260947,-2.5656009310128205,-0.27983936640629453,0.1383335872838008,0.6404354227413812,0.6772131807585465,-0.13745111887912903,1.7791749755116733
105,2.442632857207638,5.190062490072607,0.24546370033553444,-2.4478754756215255,4.0743065465301065,-2.532126642346764,-0.2893466752960743,0.14316520066456206,0.6335640270398576,0.698451016615337,-0.12432835746174456,1.7963200441539338
106,2.447997293994686,5.2082599094445685,0.25426452293811463,-2.4575878937090208,4.084181587739346,-2.499524768625111,-0.2985421133914416,0.1476646999891882,0.6266322456125681,0.7194410455773403,-0.11131063015004412,1.8128552094369008
107,2.4532154635345425,5.225961156237153,0.2628253814687529,-2.4670354920747783,4.093787375129237,-2.46781182071466,-0.30741965300431795,0.1518444156600444,0.6196666932592866,0.7401476545288028,-0.09842946769052205,1.8287870663137327
108,2.4582848416286165,5.243157667780661,0.27114213476130056,-2.4762137006077065,4.103119262067501,-2.4370031392013765,-0.3159746745894961,0.15571724520314922,0.6126931199301404,0.7605360294550434,-0.08571481190119193,1.8441226862151603
109,2.463203102753888,5.259841555359216,0.2792109675940755,-2.4851183089027367,4.112172967650745,-2.4071128572386282,-0.3242039078499196,0.1592965371708681,0.6057363246162908,0.7805723249273439,-0.07319498418301167,1.858869515598473
110,2.4679681261760016,5.2760056249478025,0.2870284007189112,-2.4937454773286953,4.120944587957647,-2.378153863395413,-0.33210536596436646,0.16259597898259992,0.5988200787287099,0.8002238192392653,-0.06089666202557551,1.8730352909756234
111,2.4725780020623604,5.291643397949299,0.29459130089022256,-2.502091748096183,4.129430607302153,-2.3501377645045842,-0.33967827412411766,0.16562948945725905,0.5919670588079944,0.8194590562281103,-0.0488448623819587,1.8866279693582886
112,2.47703103759522,5.30674913193154,0.3018968908940618,-2.5101540563254527,4.137627909486676,-2.3230748485110837,-0.3469229935675184,0.1684111166833174,0.585198788315709,0.8382479748308236,-0.03706293089995809,1.899655672996336
113,2.481325763084788,5.321317841364336,0.30894275957718564,-2.5179297411142842,4.145533789055291,-2.296974047320159,-0.3538409422883318,0.17095494176584672,0.5785355881762697,0.8565620274016008,-0.025572536105930344,1.9121266472600411
114,2.4854609380823094,5.335345318356521,0.31572687187610926,-2.525416556605868,4.1531459625469305,-2.2718428996456037,-0.3604345135669209,0.17327498888711057,0.5719965356682228,0.8743742877678716,-0.014393667741002153,1.9240492305174999
115,2.48943555749317,5.348828153392996,0.3222475788461705,-2.5326126830566738,4.160462579748583,-2.2476875138579686,-0.36670699343392094,0.17538514201908725,0.5655994312053909,0.8916595499304768,-0.00354463854621467,1.9354318348798252
116,2.4932488576899874,5.36176375607177,0.3285036276905897,-2.5395167379043384,4.167482234948489,-2.224512530832813,-0.3726624781257848,0.1772990685341463,0.5593607725016289,0.9083944182290885,0.006957911117445,1.9462829367222483
117,2.4969003226257014,5.3741503758409905,0.3344941717895238,-2.5461277868355356,4.1742039781893325,-2.202321086798916,-0.37830579253195534,0.1790301498747779,0.5532957355778083,0.9245573897014574,0.01709900634672097,1.9566110759347064
118,2.500389689946675,5.385987122736003,0.3402187807291379,-2.5524453548538517,4.18062732652144,-2.1811147761864937,-0.3836424105659495,0.18059141936548564,0.547418162045703,0.9401289292691242,0.026865328930350305,1.966424862907519
119,2.503716957105785,5.397273988116366,0.34567745033065433,-2.558469437347674,4.186752275255983,-2.160893614475466,-0.388678378318786,0.1819955071800908,0.541740552090326,0.955091538287206,0.0362452071324483,1.9757329923135325
120,2.5068823874755197,5.408011865402919,0.35087061267942454,-2.5642005111580604,4.192579309218166,-2.141656001043625,-0.39342024077446136,0.18325459241601869,0.5362740625690164,0.9694298169046102,0.04522860435869917,1.9845442628060856
121,2.5098865164610684,5.418202570814806,0.3557991461539758,-2.569639545646612,4.198109414000421,-2.1233986820149227,-0.397874972784717,0.1843803621734829,0.5310285096518489,0.9831305205958816,0.05380710698620516,1.992867601811023
122,2.51273015761342,5.4278488641065135,0.36046438545508197,-2.5747880137633627,4.203344087215614,-2.1061167131076814,-0.4020499149155211,0.1853839774917942,0.5260123754423409,0.9961826111494552,0.06197391159159132,2.0007120946499377
123,2.515414408742456,5.436954469304933,0.3648681316348221,-2.579647903114651,4.208285349750236,-2.089803422482781,-0.4059527146914015,0.18627604595676026,0.5212328180393885,1.0085773023298872,0.06972381177085733,2.0080870172903675
124,2.517940658030045,5.44552409544637,0.3690126621256371,-2.5842217270309913,4.212935757017592,-2.0744503735919366,-0.4095912736770399,0.18706660076180937,0.5166956845296379,1.020308100375399,0.07705318470831479,2.0150018720768377
125,2.5203105901431377,5.453563457313608,0.37290074076938984,-2.5885125356349645,4.217298410211006,-2.0600473280259095,-0.4129737007491986,0.18776508598041147,0.5124055264328657,1.0313708394474423,0.08395997762048799,2.0214664258540336
126,2.5225261923468603,5.461079296172953,0.3765356278464318,-2.5925239269090845,4.221376967557021,-2.0465822083627287,-0.4161082718266237,0.18838034778770132,0.508365617160539,1.0417637121158005,0.09044369417322022,2.0274907499500525
127,2.5245897606176095,5.468079400511241,0.37992109010465613,-2.596260057763679,4.225175655568581,-2.0340410610159267,-0.4190033962417632,0.18892063135411474,0.5045779710880945,1.0514872949417204,0.09650538094640379,2.0330852615436004
128,2.5265039057561496,5.474572626772927,0.38306141078856326,-2.599725655104769,4.228699280298241,-2.02240801908275,-0.4216675898563581,0.1893935831224186,0.5010433638834972,1.0605445692120798,0.10214761400065715,2.038260765993957
129,2.5282715595006993,5.480568920097074,0.385961399668314,-2.6029260269019456,4.231953238591355,-2.011665265192434,-0.4241094549433968,0.1898062581706138,0.4977613537773091,1.068940936879534,0.10737448558310317,2.0430284997661476
130,2.5298959806400374,5.4860793350544395,0.38862640306880225,-2.605867073256242,4.234943529339275,-2.001792994354364,-0.42633766678115237,0.19016513235605145,0.4947303035012053,1.076684231776395,0.11219159099615258,2.0474001736359666
131,2.531380761126586,5.491116056384495,0.39106231389870283,-2.6085552974680253,4.2376767647325515,-1.9927693768063435,-0.42836096683084524,0.19047611892949476,0.49194740266206766,1.0837847261926208,0.11660601564259077,2.0513880159093674
132,2.532729832189514,5.49569241973245,0.3932755816795397,-2.610997817104856,4.240160181514118,-1.9845705208628317,-0.43018816229843043,0.1907445893009932,0.48940869035567114,1.0902551329405532,0.12062632225383185,2.055004815438048
133,2.533947470447825,5.499822932386326,0.3952732225747373,-2.613202375069375,4.2424016522324965,-1.9771704357631243,-0.43182813181292046,0.19097539763128904,0.4871090778570207,1.0961106030696361,0.12426253830488079,2.0582639642568714
134,2.535038304023456,5.503523294013975,0.39706282941869064,-2.6151773506671816,4.244409696494994,-1.9705409945196664,-0.43328983688872524,0.1911729089121729,0.48504237125237293,1.1013687194421091,0.12752614362025153,2.0611794997082495
135,2.5360073186543683,5.506810417400141,0.3986525817458255,-2.6169317706747117,4.246193492220901,-1.9646518967661457,-0.4345823387778404,0.19134103018602935,0.48320129389979966,1.1060494864358854,0.13043005818009215,2.063766145953164
136,2.536859863807649,5.5097024491834645,0.40005125581964807,-2.6184753204071125,4.247762886894673,-1.9594706316058712,-0.4357148202592706,0.19148324453793503,0.4815775086203369,1.1101753161004004,0.13298863014487824,2.0660393547970437
137,2.5376016587925943,5.512218790593556,0.4012682346618184,-2.6198183547861165,4.249128408819144,-1.9549624404598838,-0.4366966118580938,0.19160264747264522,0.48016163952908103,1.1137710111574481,0.13521762413137534,2.0680153457806356
138,2.538238798873815,5.514380118188029,0.4023135180811974,-2.620971909407926,4.250301278368712,-1.9510902799152632,-0.437537221934835,0.19170198526290072,0.4789432934149534,1.1168637453076333,0.13713420979139668,2.06971114550045
139,2.538777761384323,5.516208404589534,0.4031977327029206,-2.621947711611094,4.251293419242542,-1.947814784573282,-0.4382463700376858,0.1917836948246034,0.477911080568238,1.119483041376799,0.1387569507696307,2.071144626129874
140,2.53922541183863,5.517726939222792,0.40393214199745087,-2.6227581915443796,4.252117469717753,-1.9450942298977232,-0.4388340228652903,0.19184994463801988,0.47705263493643196,1.1216607479122758,0.1401057941467436,2.0723345431100797
141,2.539589010045842,5.518960349051667,0.4045286563096355,-2.6234164932346573,4.252786793902631,-1.9428844950630157,-0.43931043214649107,0.1919026761923459,0.4763546334610694,1.123431014918301,0.14120206050980166,2.0733005719692525
142,2.5398762162227513,5.519934619316171,0.4049998428877779,-2.623936485654772,4.253315492989806,-1.9411390258025243,-0.4396861737053097,0.19194364538353603,0.47580281441117966,1.1248302695005477,0.1420684348336697,2.0740633442092546
143,2.5400950971069305,5.5206771142695175,0.40535893591267813,-2.624332773791421,4.253718416509459,-1.9398087972567595,-0.43997218694450524,0.19197446324251438,0.475381994482917,1.1258971922739271,0.14272895840442382,2.0746444821711374
144,2.5402541320698324,5.5212165979151635,0.40561984652672356,-2.624620709713037,4.254011173582514,-1.9388422768215854,-0.44017981394871114,0.19199663531282593,0.47507608438046517,1.1266726954735171,0.14320902206867145,2.075066632755007
145,2.5403622192298805,5.52158325474387,0.40579717286291794,-2.624816403637668,4.254210144173843,-1.9381853869964836,-0.4403208373780729,0.19201159893391906,0.47486810253112405,1.127199903796911,0.14353536115065124,2.075353499826748
146,2.54042868156556,5.521808710470683,0.40590621007395944,-2.62493673500083,4.254332490345446,-1.9377814682327674,-0.44040751629457303,0.19202075761885842,0.47474018651866046,1.1275241390972983,0.14373605244153023,2.075529875094896
147,2.5404632730285206,5.521926052772063,0.4059629603613,-2.6249993635234237,4.254396167509663,-1.9375712417817788,-0.4404526190349669,0.19202551164401666,0.47467360174486006,1.1276929101400024,0.1438405137314935,2.075621667187105
148,2.5404761846566624,5.521969852022835,0.4059841430041966,-2.6250227402795883,4.254419935682362,-1.9374927725431697,-0.44046945221474776,0.192027283893546,0.474648746751872,1.1277559087314848,0.14387950642357752,2.075655928598501
149,2.5404780506872395,5.5219761820332955,0.4059872043887771,-2.62502611876457,4.254423370736138,-1.9374814319130813,-0.44047188491561073,0.19202753992409474,0.47464515455875955,1.1277650136290527,0.143885141838103,2.0756608801264242
