nimar13/UR3e_dataset_trayectorias/data/trayectorias_completas_UR3e_JTRAJ/trayectoria_193.csv
Punto,shoulder_pan_joint,shoulder_lift_joint,elbow_joint,wrist_1_joint,wrist_2_joint,wrist_3_joint,Posicion_X,Posicion_Y,Posicion_Z,Roll,Pitch,Yaw
0,-4.1468303399206485,4.483152962317011,1.8297592333922954,-2.099390777826243,3.647975747703919,2.4330105846753494,-0.17895534183262235,0.18749361675836848,0.39412754469200023,-1.7243991987535465,0.4353053876722232,0.8231911520632067
1,-4.1468171711905075,4.483150531307568,1.829751609669808,-2.0993833293617117,3.6479466564706655,2.4329966219980457,-0.17895584380842053,0.18749057381553957,0.3941318668610474,-1.7244174680618178,0.43527999145495727,0.8231885480080078
2,-4.146726052776468,4.483133710420314,1.8296988588354692,-2.099331791190008,3.6477453654571708,2.4329000100242237,-0.17895931661951286,0.1874695171245413,0.3941617739724397,-1.724543865161662,0.4351042666618416,0.8231705364533193
3,-4.146481937997963,4.483088645685489,1.8295575344020238,-2.0991937155935148,3.6472060879500696,2.4326411774837435,-0.1789686162046423,0.18741309004488288,0.39424190413130494,-1.7248823764609251,0.4346334773653951,0.8231223393444286
4,-4.1460129078684185,4.483002060520337,1.8292860005861176,-2.0989284239331463,3.6461699466702786,2.432143869370177,-0.17898646595524972,0.18730461566159357,0.3943958875850324,-1.7255322919574043,0.4337289012166566,0.8230299703514056
5,-4.145250127954647,4.482861247765148,1.8288444073330687,-2.0984969822472634,3.6444848784704544,2.4313351011992443,-0.17901544412933,0.18712804120809412,0.3946463805056839,-1.7265878883571288,0.4322577275847045,0.8228804071961845
6,-4.144127805236238,4.482654061719293,1.828194665341644,-2.0978621768505925,3.6420055390324513,2.430145113267239,-0.1790579667279057,0.18686786871722763,0.3950151041980453,-1.7281380037153473,0.43009295173817863,0.8226618116843706
7,-4.142583144964954,4.482368910177276,1.8273004210888315,-2.096988489933139,3.638593207564779,2.4285073249094657,-0.17911626626741137,0.186509074280686,0.3955228880745722,-1.7302655298082752,0.42711326814943174,0.8223637793480921
8,-4.140556307524124,4.481994746464765,1.826127031854614,-2.0958420751591085,3.6341156915000625,2.4263582887586663,-0.17919236667031574,0.18603701808798712,0.3961897145481811,-1.73304684926078,0.423202966795417,0.8219775978672395
9,-4.137990365288033,4.481521061474641,1.8246415407467431,-2.0943907332658194,3.6284472311924993,2.4236376450034562,-0.17928805427665406,0.18543734722333488,0.39703476379383784,-1.7365512449702813,0.4182518370721217,0.8214964909308449
10,-4.13483125948132,4.480937875703034,1.8228126517255139,-2.092603887662623,3.6214684046153165,2.4202880756467526,-0.17940484475700086,0.18469589303171302,0.3980764561365436,-1.7408403092202451,0.41215508453892835,0.8209158223211622
11,-4.1310277570383676,4.480235731285366,1.8206107046285371,-2.090452560029818,3.6130660320582315,2.4162552587642065,-0.17954394548694952,0.18379856473435036,0.3993324896494541,-1.7459673787503507,0.4048132660915639,0.8202332340780296
12,-4.126531407462697,4.479405684032396,1.8180076501955142,-2.087909345917569,3.6031330808249074,2.4114878227626364,-0.1797062127273231,0.18273124088835338,0.40081987040184774,-1.7519770196966729,0.39613224927627616,0.819448692866798
13,-4.121296499686362,4.478439295466255,1.8149770250930108,-2.0849483903448216,3.5915685699304136,2.405937300638457,-0.1798921027457632,0.18147966025574358,0.4025549326907501,-1.7589045825859235,0.38602320128361733,0.8185644202477272
14,-4.1152800189293375,4.477328624856492,1.8114939269392305,-2.0815453633982215,3.578277474798682,2.399558084236112,-0.18010161581729314,0.18002931368286718,0.40455334652924396,-1.7667758424348508,0.37440261271215475,0.8175846854073306
15,-4.108441603558919,4.476066221256114,1.8075349893287882,-2.0776774358310295,3.563170631959967,2.3923073785065068,-0.18033423185869568,0.1783653387008302,0.4068301096551766,-1.7756067325728297,0.3611923605228795,0.8165154428922786
16,-4.100743501949114,4.474645115537626,1.8030783568574844,-2.073323254662038,3.546164643748302,2.384145155765437,-0.18058883629121703,0.17647241874878627,0.4093995213723059,-1.7854031733020923,0.34631981380176563,0.8153638026677855
17,-4.09215052934003,4.473058812429075,1.798103660147079,-2.06846291877449,3.5271817829989587,2.3750341099520242,-0.18086363459838528,0.17433468920036613,0.4122751356483635,-1.7961609882695933,0.3297179851301056,0.8141373249620819
18,-4.082630024697275,4.471301282550089,1.7925919908700654,-2.0630779545149935,3.5061498977459054,2.3649396108871428,-0.18115605396442738,0.17193565274274103,0.41546969107816956,-1.807865892845818,0.3113257296711894,0.8128431373220535
19,-4.072151807571348,4.469366954447918,1.7865258767744427,-2.05715129129244,3.4830023159192636,2.353829658531855,-0.181462630361679,0.16925810711806855,0.4189950155825385,-1.820493530302151,0.2910879936726263,0.8114868755111834
20,-4.06068813495703,4.46725070663348,1.7798892567084919,-2.050667237176921,3.4576777500427687,2.341674837245842,-0.18177887952438118,0.166284088784501,0.422861904063798,-1.8340095235173481,0.2689561141127451,0.8100714527520804
21,-4.04821365815278,4.464947859617394,1.7726674556455477,-2.0436114544986435,3.4301202019312256,2.3284482700458327,-0.18209915042702873,0.16299483667932413,0.4270799676851452,-1.8483695025916371,0.24488817183958572,0.8085956628259588
22,-4.034705379620126,4.4624541679460314,1.7648471597087734,-2.0359709354468487,3.4002788673879687,2.314125572864039,-0.18241646020687932,0.1593707809542026,0.43165745399268624,-1.8635190622174138,0.218849401904897,0.8070526212518123
23,-4.020142609843061,4.459765812237547,1.756416391195934,-2.027733977668728,3.36810804090232,2.298684808806585,-0.1827223099632581,0.15539156227789294,0.43660103776401243,-1.8793935968751236,0.1908126670205664,0.8054280448481719
24,-4.004506924187434,4.456879391217931,1.7473644836041708,-2.0188901598683398,3.3335670203470458,2.2821064424119397,-0.18300648156227298,0.15103608803155433,0.44191558325221364,-1.8959179566138407,0.16075900330157408,0.803698363206399
25,-3.987782119760344,4.45379191375704,1.7376820566547744,-2.009430317405525,3.2966200116758158,2.2643732939093466,-0.18325681650388959,0.1462826324115048,0.44760387940337415,-1.9130058608592935,0.1286782518701674,0.8018286458394036
26,-3.969954172269532,4.450500790904644,1.7273609913179586,-1.9993465178948273,3.2572360336206625,2.2454704934772582,-0.1834589790936821,0.1411089880478668,0.4536663506590912,-1.9305590017093024,0.09456979569030884,0.7997703159270811
27,-3.9510111928827762,4.44700382792647,1.7163944048376352,-1.9886320368044061,3.215388822389437,2.225385435501765,-0.18359620762024814,0.13549267717675834,0.4601007471086311,-1.9484657607299338,0.058443428471466156,0.7974586055832212
28,-3.9309433850872844,4.443299216340237,1.704776625756186,-1.9772813330549561,3.1710567363632687,2.2041077328350283,-0.18364905897512843,0.12941123058873413,0.46690181901671096,-1.9665994534780256,0.020320392043591748,0.7948096883210667
29,-3.9097430015490864,4.439385525951701,1.6925031689392385,-1.9652900246186227,3.124222660794024,2.1816291710537117,-0.1835951541520136,0.12284254242719833,0.47406098210358244,-1.984816002980291,-0.019765369145905987,0.7917174017818931
30,-3.887404300972429,4.435261696890698,1.679570710600438,-1.952654864117919,3.074873912501763,2.157943662717412,-0.1834089342913189,0.11576530833044515,0.4815659813660935,-2.002950926487012,-0.06176567199626249,0.7880494477578607
31,-3.863923504959166,4.4309270316471805,1.665977063326223,-1.9393737144246435,3.0230021445721977,2.1330472016270914,-0.1830614393340042,0.10815955330017468,0.48940056266382986,-2.020815498699284,-0.10561619234333382,0.7836429273030476
32,-3.839298754868156,4.426381187107263,1.6517211511005976,-1.9254455242587953,2.9686032510541525,2.1069378170835082,-0.18252012382389918,0.10000725394160273,0.49754416270477053,-2.0381919299572675,-0.15123408476457711,0.7782990372348897
33,-3.8135300686746505,4.421624166589261,1.6368029843299061,-1.9108703037874928,2.9116772716570196,2.0796155281456494,-0.1817487268270821,0.09129305727101465,0.5059716293909382,-2.0548273720092936,-0.19851497853788228,0.7717767231815447
34,-3.7866192978296924,4.416656311879735,1.6212236348676066,-1.8956491002238889,2.852228296448218,2.051082297889162,-0.1807072151626955,0.08200509506232823,0.5146529856568913,-2.070426542933903,-0.2473291586774244,0.7637850595146095
35,-3.758570084119504,4.411478295269529,1.6049852110390443,-1.8797839734260888,2.790264370550653,2.0213419876647833,-0.17935182097245583,0.07213588867356008,0.5235532508741196,-2.0846427592519,-0.29751668316778407,0.753974120599265
36,-3.729387816524885,4.406091111589811,1.5880908326662266,-1.863277971496067,2.7257973988401734,1.9904003113567743,-0.17763519587901472,0.061683334469500126,0.5326323345171058,-2.097067202408539,-0.34888111509694214,0.7419241457570709
37,-3.699079588080601,4.40049607024812,1.5705446060925954,-1.8461351063785822,2.6588430506430276,1.9582647896413492,-0.17550670436012591,0.05065175440632315,0.5418450170027083,-2.1072163764167433,-0.4011814618495213,0.7271329297037208
38,-3.667654152734781,4.3946947872644,1.5523515992078016,-1.8283603294600974,2.589420664433327,1.9249447042451096,-0.17291287825327584,0.03905299020126159,0.5511410323342307,-2.1145180211551295,-0.4541218195542084,0.7090016783400014
39,-3.635121882208308,4.3886891773070476,1.5335178164724794,-1.8099595071676942,2.5175531525304997,1.8904510522034736,-0.1697980522708256,0.02690751298383507,0.5604652663206807,-2.1182963863458912,-0.5073381404715777,0.6868202110986595
40,-3.6014947228542136,4.382481445728949,1.5140501739430188,-1.790939396567989,2.443266905796749,1.8547965001191082,-0.16610519684543168,0.01424551370075845,0.5697580826263404,-2.1177590043905345,-0.5603815247152816,0.6597536251174146
41,-3.5667861525170688,4.376074080603524,1.4939564742963403,-1.771307620966053,2.3665916983345134,1.8179953384203609,-0.16177695938954267,0.0011079331878458762,0.5789557866788835,-2.1119893281868487,-0.6126975947511881,0.6268347652591986
42,-3.531011137392381,4.369469844760765,1.473245381854669,-1.7510726455043264,2.287560592183925,1.7800634356196916,-0.1567569180691729,-0.012452614838637984,0.5879912344922954,-2.099953355008004,-0.6636020551916462,0.586970599454432
43,-3.494186088885984,4.362671767823281,1.4519263976103072,-1.7302437527615355,2.2062098420202645,1.741018192572103,-0.1509910434921016,-0.026371079096088705,0.5967945897404864,-2.0805340952873226,-0.7122538482961195,0.5389763366184859
44,-3.4563288204734324,4.355683138242337,1.4300098342504093,-1.7088310183516109,2.1225787998514236,1.7008784967335737,-0.14442935345034744,-0.04056941835936986,0.6052942279815058,-2.052615113674368,-0.7576299528995856,0.481658492306507
45,-3.417458504559395,4.348507495333895,1.4075067911817556,-1.6868452865226027,2.0367098197153615,1.659664676419489,-0.13702773433461027,-0.05495631596908968,0.613417781855031,-2.015240423590757,-0.7985104362579833,0.41397415975680724
46,-3.3775956293370486,4.34114862131466,1.384429129555525,-1.664298145755598,1.9486481623775593,1.617398455063071,-0.12874989050344018,-0.06942721369366636,0.6210933154765346,-1.967874210995969,-0.8334887951610979,0.3352899361979405
47,-3.3367619556474692,4.333610533338111,1.3607894472920699,-1.6412019043636386,1.858441900028486,1.574102905473813,-0.1195693703397539,-0.0838647122547638,0.6282506102958862,-1.9107542441056977,-0.8610285902875804,0.24573433206267464
48,-3.2949804738390265,4.325897475530556,1.3366010541056887,-1.6175695660906353,1.766141820981049,1.5298024040959082,-0.109471605692292,-0.09813937736966019,0.6348225385870945,-1.8452621972070318,-0.8795862444790015,0.14656685775877307
49,-3.252275360626777,4.31801391102716,1.3118779465294024,-1.5934148057102884,1.671801334368058,1.484522585266684,-0.09845589071226882,-0.11211097835187996,0.640746494741326,-1.7741379804513344,-0.8878016372941412,0.04039084072955122
50,-3.208671935951858,4.309964514007998,1.286634782939724,-1.568751944625001,1.5754763748396776,1.438290295475031,-0.0865372176451358,-0.12563017130426024,0.6459658489327347,-1.7013256890054218,-0.8847194480777298,-0.06900245999856643
51,-3.1641966198408795,4.301754161734088,1.2608868585814372,-1.5435959264647978,1.4772253072608938,1.3911335476198363,-0.07374788181027256,-0.1385406211467848,0.6504313828239416,-1.6313671032415207,-0.8699647915817043,-0.17724256480115644
52,-3.1188768892653176,4.293387926583435,1.234650080592366,-1.5179622926862417,1.3771088314089628,1.343081475268414,-0.06013876661065794,-0.15068153681521537,0.6541026630916634,-1.568535309269654,-0.8437961681404877,-0.28024880540408115
53,-3.0727412350009087,4.284871068087074,1.207940943028151,-1.4918671581713498,1.2751898866708729,1.294164286914937,-0.045780222622872874,-0.16189057286647923,0.6569493059909848,-1.516093596831076,-0.8070141248416186,-0.3749745969593727
54,-3.0258191184870413,4.276209024965109,1.180776501887022,-1.465327186826511,1.1715335567408074,1.2444132202388685,-0.030762463061160428,-0.17200702957083427,0.6589520852196811,-1.4759697319073213,-0.7607756748525333,-0.45973694156970996
55,-2.978140928686151,4.267407407162756,1.1531743501345726,-1.438359567181403,1.0662069743175948,1.1938604963633943,-0.015195411327566669,-0.1808752636565438,0.6601038362253068,-1.4488564006817093,-0.7063950436904388,-0.534120467970596
56,-2.9297379389431106,4.258471987886383,1.1251525927285337,-1.4109819879879077,0.9592792258021725,1.1425392741138536,0.0007920452568587009,-0.1883482045767041,0.6604101129838531,-1.4345500071311514,-0.6451895703184599,-0.5986439375455976
57,-2.8806422638446283,4.249408695639552,1.0967298216435473,-1.3832126138190306,0.8508212559950441,1.09048360427617,0.017053418688102243,-0.1942908578463387,0.6598895582513686,-1.4323270238303125,-0.5783891076180934,-0.6543901358410881
58,-2.8308868160786353,4.24022360625906,1.0679250908959395,-1.3550700606678148,0.740905772793734,1.0377283838552847,0.03342659747327813,-0.19858366887600756,0.658573955330754,-1.4412454373140378,-0.5070991762839655,-0.7027117226703656
59,-2.780505263293684,4.230922934950983,1.0387578915684959,-1.3265733715462589,0.6296071518902506,0.9843093103335863,0.049736406537405284,-0.2011256187862196,0.656507938376903,-1.460343852698275,-0.43229905080633463,-0.7450405656025363
60,-2.7295319849583364,4.2215130283267115,1.0092481268352338,-1.297741992084235,0.5170013414685428,0.9302628359293426,0.06579768988632449,-0.2018369285547918,0.653748348941826,-1.4887547038585582,-0.3548583033216524,-0.7827841375698494
61,-2.6780020292205617,4.212000356438996,0.9794160869861773,-1.2685957461284039,0.4031657669019548,0.8756261218551338,0.08141882866706002,-0.2006612597206273,0.6503632384829233,-1.5257592224777548,-0.27556101340061623,-0.8172812244915507
62,-2.6259510697671256,4.2023915048179905,0.9492824244521296,-1.239154811341132,0.2881792354506878,0.8204369925762813,0.09640558301108126,-0.19756731844387482,0.6464305294657,-1.5708079304968543,-0.19513182370827167,-0.8497928396800994
63,-2.57341536268299,4.192693166507287,0.9188681288294493,-1.2094396947994102,0.17212184095926286,0.7647338900692835,0.11056512668165784,-0.19254979419708085,0.6420363609460652,-1.623522764372382,-0.11426127424805116,-0.881511480310687
64,-2.5204317033106953,4.182912134099965,0.8881945019048207,-1.1794712085937675,0.05507486855396504,0.7085558280802409,0.12371013057808551,-0.1856295934466844,0.6372731575160989,-1.683690114521759,-0.0336296257746775,-0.9135779853716778
65,-2.467037383109765,4.173055291774624,0.8572831326800312,-1.1492704454271907,-0.06287930065968172,0.6519423463832945,0.13566274570045922,-0.17685336068318502,0.6322374726104282,-1.751249037340465,0.0460708332700222,-0.9470991530248504
66,-2.413270146516091,4.163129607331433,0.826155872396741,-1.1188587542140387,-0.18165728489947242,0.5949334650390519,0.14625833887632297,-0.16629231208349937,0.6270276677731983,-1.8262753002966716,0.12411485352949735,-0.9831611445405886
67,-2.359168147801332,4.153142124228166,0.7948348095612623,-1.0882577156789623,-0.3011747970090468,0.5375696386530224,0.15534884544865998,-0.15404043880922993,0.6217414979951679,-1.9089591313435195,0.19972483115220216,-1.0228340127250821
68,-2.304769907932304,4.143099953616249,0.7633422449693275,-1.0574891179558186,-0.42134673976044557,0.47989171063404656,0.16280562167335966,-0.14021216535605316,0.6164736791428809,-1.999572116453241,0.27205385217189476,-1.0671619150088203
69,-2.250114271430372,4.133010266376795,0.7317006667308674,-1.0265749321865874,-0.5420873011566414,0.42194086745273074,0.16852170464344893,-0.12493957157145827,0.6113135164259978,-2.098416582551044,0.3401732759470595,-1.1171322831060368
70,-2.1952403632308464,4.122880285156648,0.6999327252947816,-0.9955372881202909,-0.6633100497340871,0.3637585928998721,0.17241341751400754,-0.10836930341698138,0.606342672534695,-2.2057496539840082,0.40306865373687667,-1.1736164367684139
71,-2.1401875455423744,4.1127172764044255,0.668061208473715,-0.9643984497119071,-0.7849280298652559,0.30538662234489733,0.17442129063561185,-0.09065930623533089,0.6016331504382305,-2.321675630306916,0.45964977022179143,-1.2372757174496283
72,-2.0849953747063377,4.102528542406561,0.6361090164688297,-0.933180790721291,-0.9068538570611819,0.2468668969942911,0.1745103026906936,-0.07197551475521816,0.5972455589530188,-2.4460071355919184,0.5087821651701573,-1.3084340325984656
73,-2.0297035580562337,4.09232141332334,0.604099136894579,-0.9019067703120851,-1.028999813274007,0.18824151815002432,0.17266947781246786,-0.052488626522978046,0.593227719321715,-2.5781103446760802,0.5493470944259509,-1.3869325166098398
74,-1.9743519107770853,4.082103239224947,0.5720546198034844,-0.8705989086506427,-1.151277942199508,0.12955270146799602,0.16891090285576707,-0.032371070699396556,0.5896136586144922,-2.7167717410702137,0.5803323114056758,-1.4720041040660063
75,-1.918980312764821,4.071881382127504,0.5399985527109046,-0.8392797625049422,-1.2736001445796559,0.07084273121645301,0.16326825172284798,-0.011794263548923465,0.5864230213316488,-2.86014389797516,0.6009457973322693,-1.5622257837422915
76,-1.8636286654856713,4.061663208029111,0.5079540356198087,-0.8079719008434991,-1.3958782735051614,0.012153914534423382,0.15579491964045938,0.009073782764963682,0.5836609148251922,-3.0058265268514743,0.6107306290221982,-1.6556049934952988
77,-1.8083368488355678,4.05145607894589,0.4759441560455584,-0.7766978804342934,-1.518024229717982,-0.0464714643098425,0.1465618788242758,0.030070458271559457,0.5813181878106073,3.13208544567902,0.609648934719085,-1.7498173829537322
78,-1.753144677999531,4.041267344948025,0.44399196404067354,-0.7454802214436773,-1.6399500569139072,-0.10499118966044652,0.13565536795271538,0.0510401471881828,0.5793721250823367,2.9899256777413648,0.598105885753666,-1.8425453025872656
79,-1.6980918603110577,4.031104336195803,0.41212044721960606,-0.7143413830352934,-1.7615680370450786,-0.16336316021542352,0.12317452179885664,0.07183542570918564,0.5777875263356174,2.8532365050352624,0.5769037003318995,-1.9318122688392965
80,-1.6432179521115335,4.020974354975657,0.3803525057835211,-0.6833037389689975,-1.8827907856225217,-0.2215454347682808,0.10922903525482383,0.09231789871696783,0.5765181234319292,2.723801934333145,0.5471410416519997,-2.016210665540414
81,-1.588562315609602,4.010884667736201,0.3487109275450613,-0.6523895531997663,-2.0035313470187184,-0.2794962779495975,0.09393693925237813,0.1123587248669923,0.5755082791254241,2.6027594077346006,0.5100895991575738,-2.09497638523951
82,-1.5341640757405726,4.000842497124284,0.3172183629531262,-0.6216209554766219,-2.123703289770118,-0.33717420596857295,0.07742254641927106,0.13183889012563138,0.5746949016622463,2.4906577072201777,0.4670793230503177,-2.167931118768682
83,-1.4800620770258135,3.9908550140210184,0.2858973001176479,-0.5910199169415455,-2.243220801879689,-0.3945380323546024,0.059814603490124296,0.15064929451779946,0.5740095040879373,2.3875887862654674,0.41941146024064524,-2.2353496901319287
84,-1.4262948404321403,3.980929329577827,0.25477003983435775,-0.5606082257283944,-2.3619987861194804,-0.45154691369884414,0.041244667222956714,0.16869071583210973,0.5733803346970074,2.2933366788772225,0.3683042416004225,-2.2978091214597804
85,-1.3729005202312106,3.9710724872524867,0.2238586706095682,-0.5304074625618163,-2.4799529553331308,-0.5081603953957918,0.021845702356861833,0.1858737080464234,0.5727345058103407,2.2075072464186047,0.3148665198594515,-2.3560554678926233
86,-1.319916860858915,3.9612914548451634,0.19318504368493938,-0.5004389763561736,-2.5969999277384286,-0.5643384573848342,0.0017508851584116785,0.20211848233631893,0.5720000517865479,2.1296243357217137,0.2600910066853832,-2.4109026278127588
87,-1.267381153774779,3.9515931165344607,0.162770748062258,-0.47072385981445297,-2.7130573222298526,-0.6200415598918321,-0.018907414875849033,0.21735480599699195,0.5711078535359417,2.0591922133303147,0.204859049416418,-2.463163045195936
88,-1.2153301943213437,3.9419842649134544,0.13263708552821063,-0.44128292502718036,-2.8280438536811214,-0.675230689170685,-0.03999850921082376,0.23152194081777255,0.569993375367055,1.9957305442035302,0.14995081687589015,-2.5136038584410283
89,-1.16380023858357,3.93247159302574,0.10280504567915472,-0.41213667907134965,-2.941879428247704,-0.7298674032448922,-0.06139415671854939,0.24456862872806234,0.5685981702272778,1.938789525511121,0.09605686627683034,-2.562920804936267
90,-1.1128269602482215,3.9230616864014682,0.07329528094589266,-0.3833052996093258,-3.054485238669413,-0.7839138776491357,-0.0829692571584722,0.2564531200591281,0.5668711207231332,1.8879518188446514,0.0437887354886938,-2.611723330096595
91,-1.0624454074632697,3.9137610150933906,0.044128081618449944,-0.3548086104877699,-3.1657838595728975,-0.8373329511708345,-0.10460250170069318,0.26714322947054747,0.5647693951297648,1.8428263469216324,-0.006312650244885444,-2.660526189014561
92,-1.0126899596972763,3.9045759257128996,0.01532335087084169,-0.32666605733655363,-3.2756993427742085,-0.8900881715917199,-0.12617700342148327,0.27661639710905767,0.5622591093510342,1.8030376142864937,-0.053771243273279166,-2.7097445905139756
93,-0.9635942845987939,3.895512633466068,-0.013099420214146118,-0.29889668316767626,-3.3841573125813387,-0.942143841429405,-0.14758092228316766,0.28485972821922473,0.5593156969488876,1.768213210371012,-0.09817284448750517,-2.7596913620982604
94,-0.915191294855755,3.8865772141896953,-0.04112117762018341,-0.27151910397418266,-3.491085061096756,-0.9934650636789435,-0.16870809031198836,0.2918699832211372,0.555923999475356,1.7379715326604959,-0.13916451483105638,-2.81057567947621
95,-0.8675131050548659,3.877775596387342,-0.06872332937263215,-0.24455148432907414,-3.596411643519966,-1.0440177875544183,-0.1894586343689795,0.29765349195282587,0.5520780980571003,1.7119114014721843,-0.17645593699068796,-2.8625036350999635
96,-0.8205909885409968,3.869113553265377,-0.09588777051376285,-0.2180115129842335,-3.7000679734500377,-1.0937688542304862,-0.20973958677288307,0.30222596987526473,0.5477809142481089,1.6896049738137522,-0.20982205144955512,-2.91548133682836
97,-0.7744553342765856,3.860596694769016,-0.1225969080779774,-0.19191637846934206,-3.8019869181881294,-1.142686042583966,-0.2294654685848929,0.3056122199440713,0.5430436134345265,1.6705950623046792,-0.23910614488026052,-2.969421331612419
98,-0.7291356037010255,3.852230459618363,-0.14883368606704872,-0.1662827446907862,-3.902103394040056,-1.190738114935387,-0.24855882689227485,0.3078457108818714,0.5378848475034539,1.6543975282211882,-0.2642224859878272,-3.024152943142383
99,-0.684660287590046,3.844020107344453,-0.1745816104253355,-0.1411267265305831,-4.0003544616188424,-1.237894862790581,-0.2669507060126675,0.30896803005356127,0.532329875125623,1.640508815806392,-0.2851576184121415,-3.0794366348622413
100,-0.6410568629151276,3.8359707103252907,-0.19982477401501475,-0.11646386544529452,-4.096679421147224,-1.2841271525822346,-0.28458103307929594,0.3090282164232544,0.52640959798159,1.62841798314109,-0.3019695582891228,-3.134981859085634
101,-0.5983517497028794,3.8280871458218955,-0.22454788159130024,-0.09230910506494894,-4.191019907760213,-1.3294069714114567,-0.30139890070706193,0.3080819856257496,0.5201595497779316,1.6176218941232023,-0.3147844066908039,3.0927181201227434
102,-0.5565702678944353,3.8203740880143395,-0.248736274777682,-0.06867676679194545,-4.283319986807653,-1.373707472789361,-0.31736273302363216,0.30619086461415806,0.5136188721951221,1.6076417324531052,-0.3237902410959486,3.0376242912514724
103,-0.5157365942048591,3.812836000037792,-0.27237595704113593,-0.045580525399986804,-4.373526249156724,-1.4170030223786174,-0.33244032586273603,0.30342125738684794,0.5068293082507219,1.5980388197437259,-0.3292285314723609,2.9832443430830957
104,-0.47587371898251174,3.805477126018556,-0.29545361866736686,-0.023033384632982212,-4.46158790649452,-1.4592692437350383,-0.3466087569281784,0.2998434658289304,0.4998342392283065,1.588427917309406,-0.3313836589128359,2.929875054230618
105,-0.4370034030684744,3.7983014831101145,-0.317956661736019,-0.0010476528039751187,-4.547456886630583,-1.5004830640491225,-0.3598541668375536,0.2955306907306151,0.49267778658603734,1.5784867061552337,-0.3305713332608468,2.877775432074473
106,-0.39914613465592286,3.79131285352917,-0.33987322509591733,0.020365081605950408,-4.631087928799429,-1.5406227598876487,-0.37217141678678595,0.2905580376773467,0.4854039953714901,1.5679608270370033,-0.3271267779784858,2.8271592840722097
107,-0.36232108614952185,3.784514776591686,-0.3611922093402824,0.04119397434874372,-4.712438678963094,-1.5796680029352412,-0.3835636328527093,0.28500155093492946,0.4780561108544261,1.5566645477588261,-0.3213934819213832,2.7781923827017576
108,-0.3265460710248371,3.777910540748927,-0.3819033017819522,0.061428949810470534,-4.791469785113678,-1.6175999057359096,-0.3940416504646662,0.27893729591908173,0.47067595553326963,1.5444776650792644,-0.31371314641870274,2.7309935507998375
109,-0.2918375006876941,3.7715031756235025,-0.4019970014286307,0.08106072541240472,-4.868144992575909,-1.6544010674346534,-0.40362337520341585,0.27244050761073085,0.4633034095206453,1.531339569094069,-0.30441723451869823,2.6856386859168655
110,-0.258210341333597,3.765295444045403,-0.421464643958092,0.10008083601211037,-4.942431239309668,-1.6900556195190255,-0.41233307777987716,0.26558481862547134,0.4559759936736728,1.5172414963095198,-0.2938203071382771,2.6421666557753882
111,-0.22567807080712488,3.7592898340880514,-0.4402984266934129,0.11848165830451318,-5.0142987512124915,-1.7245492715606616,-0.4202006418283079,0.2584415768198524,0.44872855177121446,1.5022179222618126,-0.28221514354811256,2.6005860835130123
112,-0.19425263546130456,3.753488551104331,-0.45849143357820976,0.13625643522300113,-5.083721137422193,-1.7578693569569008,-0.42726078309264454,0.2510792585394509,0.44159302558202124,1.4863378648641792,-0.269869508568927,2.560882231642407
113,-0.16394440701701907,3.74789350976264,-0.47603766015183835,0.15339930034048255,-5.150675485619336,-1.7900048786723257,-0.43355225780452616,0.2435629800642668,0.43459831481213235,1.4696966511259222,-0.25702434803793944,2.523023421980096
114,-0.13476213942240367,3.742506326082922,-0.4929320385246547,0.16990530227050638,-5.215142457329817,-1.820946554980333,-0.43911707668458055,0.2359541066219468,0.42777021263820303,1.4524084903065695,-0.2438931595461706,2.486966647170532
115,-0.10671292571221347,3.7373283094727157,-0.5091704623532176,0.18577042906830155,-5.277106383227382,-1.8506868652047093,-0.4439997391931275,0.22830995561025422,0.4211314067773279,1.4346000229681855,-0.23066228480126313,2.452662210624832
116,-0.07980215486725672,3.7323604547631897,-0.5247498118155174,0.20099163263190878,-5.3365553584361844,-1.8792200954611982,-0.4482465005600032,0.22068358844752806,0.41470153575045854,1.4164048874150024,-0.21749189067992944,2.4200573658465583
117,-0.054033468673751806,3.727603434245188,-0.5396679785862086,0.2155668531032111,-5.393481337833327,-1.9065423843990548,-0.45190468187348376,0.21312368376766105,0.4084972900948921,1.3979592608176454,-0.20451743765582742,2.3890990149026408
118,-0.029408718582737414,3.72305758970527,-0.5539238908118356,0.22949504326906034,-5.447880231351368,-1.9326517689426392,-0.45502203122638313,0.20567448347978454,0.40253254869691946,1.3793982841813326,-0.19185146930964633,2.3597355768371817
119,-0.0059279225694846005,3.718722924461755,-0.5675175380860469,0.24277619296233421,-5.499751999280916,-1.9575482300329572,-0.4576461417047474,0.1983758024845815,0.39681854107477826,1.3608532587124802,-0.1795855903316665,2.331918159624463
120,0.016410778007183602,3.71459909540075,-0.5804499964248513,0.2554113534630398,-5.549100747573183,-1.9812337383692604,-0.4598239299401276,0.19126309252645865,0.39136402727484404,1.3424494971730503,-0.1677925303207993,2.305601172790839
121,0.037611161545377136,3.7106854050122138,-0.5927234532418004,0.2674026618993741,-5.595934823142434,-2.0037123001505766,-0.46160117708731985,0.18436755070207397,0.3861754879873422,1.3243047203176879,-0.15652821581975712,2.280742509452535
122,0.057678969340869024,3.7069807934259824,-0.604341232323248,0.27875336564882236,-5.6402669091686075,-2.0249900028173133,-0.4630221324726923,0.17771626347470415,0.3812573184863039,1.3065279002824088,-0.14583379340358832,2.257303411685065
123,0.07662194872762651,3.7034838304478064,-0.6153078188035734,0.2894678467392433,-5.682114120399829,-2.0450750607928097,-0.4641291788015699,0.17133237759698086,0.37661202100627494,1.289218466399667,-0.13573756275695786,2.2352481156192616
124,0.09444989621844524,3.70019270759541,-0.6256288841403879,0.29955164624994257,-5.721498098454992,-2.063977861224897,-0.4649625567201955,0.16523529005922866,0.3722403911479484,1.2724658023001385,-0.1262567912262613,2.214543354855367
125,0.11117470064552659,3.697105230134521,-0.6353113110897808,0.30901148871275463,-5.758445107126205,-2.081711009727483,-0.46556014568876153,0.15944085000327368,0.36814169482856746,1.2563489752644155,-0.11739939102472079,2.195157784113852
126,0.1268103863011545,3.6942188091149033,-0.6443632186815473,0.3178553065131444,-5.792986127681486,-2.0982893761221337,-0.46595729751843296,0.15396156642373796,0.36431383314082616,1.2409366491933904,-0.10916544773221278,2.1770613702356183
127,0.14137315607821588,3.69153045340642,-0.6527939871943835,0.3260922642912627,-5.82515695416714,-2.1137301401795856,-0.466186718532118,0.14880681638134605,0.3607534932435156,1.2262871412446794,-0.10154859448391042,2.160224785001654
128,0.154881434610874,3.689036761735057,-0.6606142831311632,0.3337327833430601,-5.854998288710396,-2.1280528373613823,-0.4662783960968793,0.1439830493431236,0.3574562840720586,1.2124485893070347,-0.0945372306837733,2.144618823786582
129,0.1673559114151244,3.686733914718972,-0.6678360841941031,0.3407885660213372,-5.8825558368219415,-2.141279404561386,-0.46625956521428347,0.13949398411872876,0.3544168562266193,1.1994592033087141,-0.08811558751148951,2.1302138656625496
130,0.17881958402943976,3.6846176669045336,-0.6744727042600505,0.3472726201368568,-5.90788040269843,-2.1534342258474,-0.4661547109127171,0.13534079566161838,0.35162900587210333,1.1873475781382787,-0.08226464513325189,2.116979384015686
131,0.189297801155365,3.682683338802363,-0.68053881835568,0.35319928335940975,-5.9310279845250715,-2.1645441782026946,-0.46598560233233305,0.1315222897366153,0.34908576287453946,1.1761330499299416,-0.07696290853878139,2.1048835117781364
132,0.1988183057981301,3.6809258089233756,-0.6860504876326909,0.3585842476189116,-5.952059869778131,-2.1746386772675717,-0.46577135460107866,0.12803506411322507,0.34677946370943097,1.1658260808115857,-0.07218705042735532,2.0938926617607962
133,0.2074112784072133,3.6793395058148235,-0.6910251843431001,0.3634445835064577,-5.9710427305274845,-2.1837497230809877,-0.4655285148433914,0.12487365552296864,0.34470180991899335,1.1564286600683849,-0.06791243064557557,2.083971200048967
134,0.21510938001701785,3.6779184000963383,-0.6954818168143961,0.3677987646754479,-5.988048718739128,-2.1919119458220475,-0.46527116891937725,0.12203067211720808,0.34284391307613854,1.1479347121299088,-0.06411350241249528,2.0750811687728725
135,0.22194779538742804,3.676655996495959,-0.6994407544248413,0.37166669224263504,-6.003155561577847,-2.199162651551662,-0.46501106574211404,0.11949691158041449,0.34119632734267064,1.1403305038975462,-0.06076411601447513,2.0671820535870546
136,0.22796427614445758,3.6755453258861976,-0.7029238525786243,0.37506971918923515,-6.016446656709567,-2.2055418679540058,-0.4647577562482459,0.11726146539364546,0.33974907079661193,1.1335950457270916,-0.05783773086711166,2.0602305907197103
137,0.23319918392079142,3.6745789373200566,-0.7059544776811282,0.37803067476198127,-6.028011167604069,-2.211092390078184,-0.46451874428907686,0.11531181000764691,0.3384916367560553,1.1277004818767593,-0.05530754686965992,2.0541806083386116
138,0.237695533496459,3.6737488900670874,-0.7085575321141486,0.3805738888742356,-6.037944118837393,-2.215859826079752,-0.46429964685635555,0.11363388587661026,0.3374129963519994,1.1226124674338815,-0.053146565860895396,2.0489828971156583
139,0.24149903593941513,3.673046745649417,-0.7107594792111267,0.3827252165070414,-6.046346491394493,-2.2198926429622947,-0.4641043611514681,0.1122121654264969,0.33650159360516785,1.1182905296393277,-0.05132759375613772,2.0445851051604937
140,0.24465814174612088,3.6724635598778113,-0.7125883682323564,0.38451206211023337,-6.053325317971675,-2.223242212318995,-0.4639352360448167,0.11102971108848324,0.335745334246941,1.1146884121421075,-0.049823193632311476,2.0409316528741295
141,0.24722408398220974,3.671989874887686,-0.7140738593402207,0.3859634040035269,-6.058993778279236,-2.225962856074206,-0.46379324545156597,0.11006822452273843,0.33513156949524014,1.1117544010389437,-0.04860559965108997,2.0379636636925658
142,0.24925092142305427,3.6716157111751757,-0.7152472485744457,0.38710981877755746,-6.063471294343961,-2.2281118922250105,-0.46367816107108517,0.1093080880942021,0.3346470759555599,1.1094316315958292,-0.04764660128576525,2.0356189071191064
143,0.2507955816943328,3.6713305596331587,-0.7161414928272509,0.3879835056950087,-6.066883625811618,-2.2297496805827866,-0.46358872180255184,0.10872839954435756,0.3342780327668488,1.1076583743248216,-0.046917406855323925,2.0338317508609793
144,0.25191790441273465,3.671123373587305,-0.716791234818682,0.388618311091677,-6.0693629652496295,-2.2309396685147878,-0.4635227969622375,0.10830700063670073,0.3340099970534553,1.1063682986212644,-0.04638849487730828,2.032533119281709
145,0.2526806843265126,3.6709825608321145,-0.7172328280717291,0.3890497527775638,-6.071048033449463,-2.231748436685722,-0.4634775401942199,0.10802050034503702,0.3338278786794428,1.1054907114847912,-0.04602946123704903,2.0316504557516706
146,0.2531497144560637,3.670895975666963,-0.7175043618876447,0.38931504443792964,-6.072084174729261,-2.232245744799302,-0.4634495306922134,0.10784429291008575,0.33371591523165156,1.1049507679844637,-0.04580886964249223,2.0311076868245923
147,0.2533938292345672,3.6708509109321374,-0.717645686321084,0.3894531200344291,-6.072623452236334,-2.2325045773397623,-0.4634348980429678,0.10775257082131068,0.3336576480860109,1.104669649129799,-0.04569411230645505,2.030825186489389
148,0.25348494764860074,3.6708340900448837,-0.7176984371554265,0.3895046582061328,-6.072824743249859,-2.2326011893136,-0.46342942666890763,0.10771833249906979,0.3336359003405902,1.1045647017197835,-0.04565128729170812,2.030719739040886
149,0.25349811637874264,3.67083165903544,-0.7177060608779082,0.38951210667065883,-6.072853834483089,-2.2326151519908937,-0.4634286354972466,0.10771338417144113,0.33363275733417164,1.1045495336213942,-0.045645098502519424,2.0307044993770504
