nimar13/UR3e_dataset_trayectorias/data/trayectorias_completas_UR3e_JTRAJ/trayectoria_417.csv
Punto,shoulder_pan_joint,shoulder_lift_joint,elbow_joint,wrist_1_joint,wrist_2_joint,wrist_3_joint,Posicion_X,Posicion_Y,Posicion_Z,Roll,Pitch,Yaw
0,1.2107517609350724,5.482145919223023,-1.8165110235189144,6.2124032374932945,-4.877467045969585,3.273718524371322,-0.1570030785822892,-0.0037196848310931466,0.5607296512115948,0.20705586934626172,-0.4459407178082136,-2.1152784386185917
1,1.2107512731683876,5.482141123908564,-1.8164996900969839,6.212383698936731,-4.877449600228069,3.27369846956406,-0.15700227592910138,-0.0037219332572564923,0.5607312003420057,0.20702489862827264,-0.4459292322087279,-2.1152586110041516
2,1.2107478981636404,5.482107943682097,-1.8164212707337732,6.212248505773255,-4.877328887882866,3.2735597043063596,-0.15699672175634777,-0.0037374900071737473,0.5607419179687249,0.20681061772671713,-0.44584975338655825,-2.115121424525169
3,1.2107388562093326,5.482019050742947,-1.8162111779036638,6.211886310606614,-4.87700548818674,3.2731879391642127,-0.156981838391328,-0.0037791612061872665,0.5607706205293747,0.20623666683326491,-0.4456367662494797,-2.1147539473098282
4,1.2107214834430209,5.481848256221532,-1.815807515872524,6.211190406626648,-4.876384123915812,3.272473647903974,-0.1569532290857034,-0.0038591984126543164,0.5608257234113564,0.20513442790254108,-0.445227314986204,-2.1140481325423313
5,1.2106932302533968,5.48157049446997,-1.8151510435695504,6.21005866360121,-4.875373604217513,3.2713120017930466,-0.15690666509910542,-0.003989284122011586,0.56091521101057,0.20334333203958366,-0.4445607880512242,-2.1129009392635494
6,1.2106516596823709,5.481161807352684,-1.81418513745911,6.208393463868078,-4.8738867674585435,3.2696028039005656,-0.15683806971288344,-0.00418051049876105,0.5610465964795222,0.20071128917004769,-0.44357865316989203,-2.1112145075192554
7,1.2105944458271536,5.480599328537008,-1.812855754412581,6.206101638326878,-4.871840424072818,3.2672504233980844,-0.15674349975683746,-0.004443352260171039,0.5612268733249418,0.1970952171636982,-0.4422241561527831,-2.1088963759180905
8,1.2105193722423373,5.479861267783792,-1.8111113945801944,6.20309440243099,-4.869155299409427,3.2641637298602584,-0.15661912520447582,-0.004787634438701685,0.5614624609989289,0.19236164879026318,-0.44044199845078646,-2.105859729457536
9,1.2104243303419782,5.478926895238009,-1.8089030642628767,6.199287292179471,-4.865755976580587,3.2602560275655286,-0.15646120736832178,-0.005222495559302586,0.5617591466219787,0.18638739593956452,-0.4381780095442366,-2.1020236651129522
10,1.2103073178016794,5.477776525719358,-1.8061842387840898,6.194600100108969,-4.861570839309593,3.2554449897968087,-0.15626607620633437,-0.0057563465936141985,0.5621220249755529,0.17906025140677465,-0.43537883129847277,-2.097313462159847
11,1.2101664369606717,5.476391503012873,-1.8029108253616737,6.18895681128564,-4.856532014778774,3.249652593142168,-0.15603010723427582,-0.006396825905420581,0.5625554389024197,0.17027970920525162,-0.4319916322123336,-2.091660843507313
12,1.2099998932238958,5.474754184159526,-1.7990411259796881,6.182285539297061,-4.850575316477449,3.242805051795516,-0.15574969852756154,-0.007150750288876313,0.5630629222519652,0.1599576848177252,-0.4279638699325784,-2.0850042134661635
13,1.2098059934640848,5.472847923746833,-1.794535800260253,6.174518462244147,-4.843640187049873,3.2348327518572875,-0.15542124829071055,-0.008024062130303326,0.5636471475030242,0.14801921705528065,-0.42324312042095225,-2.077288856389618
14,1.209583144423846,5.470657058199461,-1.789357828335391,6.165591758733069,-4.835669641143201,3.2256701856351273,-0.15504113347379478,-0.009021772701566792,0.5643098801865181,0.13440313332680492,-0.41777699167576055,-2.0684670795769837
15,1.2093298511177433,5.468166890069832,-1.783472473718869,6.155445543867171,-4.826610208255433,3.215255885944575,-0.1546056899241677,-0.010147901622820782,0.5650519422121272,0.11906266024037661,-0.4115131388802024,-2.058498282838566
16,1.209044715234378,5.4653636723287295,-1.7768472461780394,6.144023805238879,-4.8164118755833725,3.203532360409749,-0.15411119457884487,-0.011405412617827654,0.5658731861744966,0.10196596172060003,-0.40439939625347204,-2.047348936350472
17,1.2087264335384722,5.462234592655904,-1.7694518646056816,6.1312743389216235,-4.805028030870578,3.190446025764032,-0.15355385022873788,-0.012796145827799518,0.5667724826712864,0.08309658742912712,-0.3963840387244175,-2.0349924480928205
18,1.2083737962729497,5.458767757730678,-1.7612582198918436,6.117148685461754,-4.792415405255319,3.1759471421507546,-0.15292977342062958,-0.014320747149793277,0.5677477226026852,0.06245381543746573,-0.3874161838725464,-2.021408902506394
19,1.2079856855610194,5.454952177522552,-1.752240337795684,6.101602065870453,-4.778534016118526,3.1599897474238805,-0.15223498610612377,-0.01597859532148269,0.5687958363334923,0.040052875032755585,-0.3774463414692863,-2.0065846532687854
20,1.2075610738082554,5.4507777495818095,-1.7423743418173132,6.084593317615654,-4.763347109931748,3.1425315914486913,-0.15146541169811392,-0.017767727782065968,0.5699128314768324,0.015925038406869305,-0.36642711452987037,-1.9905117555044836
21,1.207099022104681,5.446235243330125,-1.7316384160696345,6.066084830613956,-4.746821105105104,3.1235340704024717,-0.1506168762533232,-0.019684766693572133,0.5710938508940736,-0.009882426128614003,-0.35431405222453294,-1.9731872264661123
22,1.2065986786268492,5.441316284351167,-1.7200127681501869,6.046042483222541,-4.728925534835237,3.1029621610751925,-0.14968511556225522,-0.021724846900018774,0.5723332522885614,-0.037306441884227826,-0.34106665150862975,-1.9546121288252087
23,1.2060592770399254,5.436013338681203,-1.7074795920129853,6.024435578231087,-4.709632989953268,3.0807843551701963,-0.148665788992755,-0.023881548023461912,0.5736247104908431,-0.06626844931514829,-0.32664950115477526,-1.934790477141448
24,1.2054801348997697,5.430319697099709,-1.6940230308403628,6.00123677885369,-4.688919061772749,3.0569725936048826,-0.14755450099673562,-0.026146833332897076,0.5749613431792636,-0.09667486008242311,-0.31103355925471393,-1.913727975666074
25,1.204860652055018,5.424229459419972,-1.6796291399148122,5.9764220447207705,-4.66676228493762,3.0315022008113908,-0.14634683124697245,-0.028510998458437384,0.5763358603420663,-0.12841762449428662,-0.2941975534340953,-1.8914306040958293
26,1.2042003090491646,5.417737518779695,-1.6642858494908277,5.949970567870999,-4.643144080270155,3.0043518190372867,-0.14503837441659484,-0.030962633440332968,0.5777407372564131,-0.1613748921155017,-0.2761294921679201,-1.8679030768787541
27,1.2034986655226447,5.410839545931603,-1.647982927666746,5.921864708743204,-4.618048697618926,2.9755033426462463,-0.14362479064145708,-0.033488601978577365,0.5791684101294331,-0.19541174197220268,-0.2568282757882699,-1.8431472108331408
28,1.2027553586149151,5.403531973534053,-1.6307119432565877,5.892089932168295,-4.591463158706747,2.9449418524187405,-0.14210186770720673,-0.03607404205950615,0.5806114928130525,-0.23038095800001998,-0.23630539700605505,-1.8171602449110849
29,1.2019701013665376,5.395811980441632,-1.6124662286619005,5.8606347433611745,-4.5633771999786354,2.912655549852719,-0.14046559597000174,-0.03870239235409991,0.582063012168859,-0.26612382806819357,-0.21458672283507763,-1.7899331648301204
30,1.2011426811212598,5.387677475995771,-1.5932408427435982,5.827490623912652,-4.533783215449759,2.878635691464297,-0.1387122569429705,-0.041355448879871956,0.5835166587280108,-0.3024709518837624,-0.19171435233605347,-1.7614490941800462
31,1.2002729579280984,5.379127084315341,-1.5730325336938042,5.7926519677813655,-4.502676199553396,2.8428765230884365,-0.13683852634967458,-0.04401345636463776,0.5849670482770988,-0.33924305505285635,-0.16774854700872083,-1.7316818229678899
32,1.1993608629434198,5.370160128587269,-1.5518397019076926,5.7561160172856916,-4.470053689988884,2.8053752141796355,-0.13484159225082418,-0.04665523851650155,0.5864099889243598,-0.3762518241255481,-0.14276973214314453,-1.700594555190762
33,1.1984063968330232,5.360776615357135,-1.5296623628553294,5.7178827990956655,-4.435915710569575,2.766131792112608,-0.1327192885814637,-0.04925837096229122,0.5878427470904746,-0.4133008009786383,-0.11688056694054949,-1.6681389699779352
34,1.1974096281742224,5.35097721881978,-1.506502109953514,5.677955060224896,-4.40026471407079,2.725149076482971,-0.13047024408382632,-0.05179939994174923,0.589264304761911,-0.4501864045625689,-0.09020807740708078,-1.6342547072770206
35,1.1963706918579273,5.340763265109919,-1.4823620774376218,5.63633820402248,-4.363105525077773,2.6824326134079306,-0.1280940461788552,-0.05425410891803083,0.5906755992888565,-0.4866991836433071,-0.06290583730654317,-1.5988694099604541
36,1.1952897874907265,5.330136716592732,-1.457246903233444,5.59304022616492,-4.3244452828336435,2.637990609826963,-0.12559141878229094,-0.056597834074783145,0.5920797360592392,-0.5226254448351106,-0.03515616695220651,-1.5618994799754504
37,1.1941671777969691,5.319100156154484,-1.431162691829031,5.548071650648038,-4.284293384087348,2.5918338678025012,-0.12296441243807008,-0.05880582821462977,0.5934821635976418,-0.5577494439048065,-0.0071722952327431975,-1.5232517358710633
38,1.1930031870208462,5.307656771493121,-1.4041169771465327,5.501445465778895,-4.242661425941619,2.54397571882062,-0.1202166044158997,-0.06085367086376013,0.5948908000914993,-0.5918563710200875,0.020799605116796634,-1.482826189649909
39,1.1917981993284743,5.295810339408879,-1.376118685414041,5.453177060167706,-4.199563148700925,2.494431958091721,-0.11735330561008998,-0.06271772044724717,0.5963161001086237,-0.6247363952022015,0.04847864712703854,-1.440520185973767
40,1.1905526572099756,5.283565210094894,-1.3471780980374297,5.403284158719748,-4.155014378719425,2.4432207788512152,-0.11438177019827825,-0.06437560227056019,0.5977710504119397,-0.6561900481657781,0.07554792376751844,-1.396234155115466
41,1.1892670598815613,5.270926291427797,-1.317306814472198,5.351786758627291,-4.109032971248922,2.390362706660209,-0.11131140309397486,-0.06580672378254529,0.5992710843678308,-0.6860352057522022,0.1016539396720157,-1.3498792055562638
42,1.1879419616876128,5.2578990332583295,-1.2865177150953118,5.2987070653615,-4.061638753286817,2.3358805337061885,-0.10815395928594013,-0.06699280627964677,0.6008339055439241,-0.7141158430880945,0.12640713278351814,-1.3013866994462857
43,1.1865779705027646,5.244489411701946,-1.2548249240770435,5.244069428664359,-4.012853466424064,2.279799253103705,-0.10492372823816641,-0.06791841993323912,0.6024792127476154,-0.7403125702830572,0.14938391182660807,-1.250719786843217
44,1.185175746133985,5.230703913429416,-1.2222437722528154,5.187900278540583,-3.9627007096931175,2.2221459931950576,-0.10163769567199905,-0.06857150688986945,0.6042283209966347,-0.7645546741143813,0.17013068311888388,-1.1978865975481283
45,1.1837359987226597,5.216549519957435,-1.188790759995041,5.130228061249537,-3.9112058824158975,2.1629499518509814,-0.09831567431872704,-0.06894387532868976,0.6061036757422475,-0.7868329876646813,0.18817033297842686,-1.1429543920302445
46,1.1822594871466723,5.202033691939227,-1.1544835200849655,5.071083175297148,-3.8583961270517326,2.102242330771328,-0.09498039467394362,-0.06903164589019467,0.6081282610602866,-0.8072124076445555,0.20301153485841505,-1.086063478427691
47,1.1807470174224877,5.187164353455151,-1.1193407805845084,5.010497907427825,-3.804300272045318,2.0400562697857536,-0.09165754646435696,-0.06883563094666095,0.6103249064284565,-0.8258423556835679,0.21416103058702818,-1.027439188270617
48,1.1791994411072326,5.171949876303305,-1.0833823277081047,4.948506368616373,-3.7489487746746697,1.9764267811543992,-0.08837576151400374,-0.06836162689406783,0.6127155010278387,-0.8429630785021271,0.22113867732090095,-0.9673998126537537
49,1.1776176537007792,5.156399064290137,-1.0466289686945465,4.885144430059909,-3.6923736638990774,1.9113906838685817,-0.08516652902736661,-0.0676206001218539,0.6153201291132347,-0.8589055965558227,0.2234945774969308,-0.9063583272242788
50,1.1760025930478257,5.140521137521041,-1.0091024946788243,4.8204496591697765,-3.6346084832070575,1.8449865379514727,-0.08206403504210456,-0.06662874865379767,0.618156144725875,-0.8740835289206758,0.22082709230719744,-0.8448161664085346
51,1.174355237739979,5.124325716690973,-0.9708256435639697,4.754461255563464,-3.5756882334643088,1.7772545787587872,-0.07910491898313632,-0.06540742371393148,0.6212372086755895,-0.8889760287654216,0.21280010594063248,-0.7833483304012635
52,1.1726766055178375,5.107822807375049,-0.9318220628928949,4.687219987056521,-3.515649315761663,1.7082366512794651,-0.07632794189631183,-0.0639828986811432,0.6245723150734976,-0.9041025439798783,0.1991577068869638,-0.722580608948102
53,1.1709677516730712,5.091022784319154,-0.892116272720236,4.61876812565447,-3.4545294742630417,1.6379761444363574,-0.07377356305777513,-0.06238597703485603,0.6281648385082661,-0.9199917253915538,0.1797346002767369,-0.6631613395200909
54,1.1692297674505052,5.073936375730549,-0.8517336284841937,4.549149383544727,-3.3923677390534075,1.5665179253869106,-0.07148342422496629,-0.0606514358911387,0.6320116359794903,-0.9371480521611493,0.15446108483196272,-0.6057313981796972
55,1.1674637784502018,5.056574647568471,-0.8107002838783754,4.478408849088518,-3.3292043689867197,1.4939082738238516,-0.06949974377144416,-0.05881730745868197,0.6361022396872675,-0.9560201963104416,0.1233622196109269,-0.5508966186949945
56,1.1656709430295413,5.038948987834745,-0.7690431537236364,4.406592922812785,-3.265080794533886,1.4201948162758726,-0.06786462625694795,-0.05692400702796108,0.6404181775050216,-0.9769746314870014,0.08655167196725497,-0.4992063800011831
57,1.1638524507053052,5.021071090864386,-0.7267898768399224,4.333749253402118,-3.2000395606307195,1.3454264604083153,-0.0666192965250757,-0.05501332271402621,0.6449324572467239,-1.0002766771110698,0.044221459309030806,-0.4511408736510305
58,1.1620095205557575,5.002952941616205,-0.6839687789181086,4.259926673690658,-3.1341242695258873,1.2696533293238543,-0.06580327106604453,-0.0531272888287912,0.649609248545467,-1.02607948664674,-0.003370783302799078,-0.4071080015078441
59,1.160143399622727,4.984606799963416,-0.640608835391844,4.185175136654017,-3.0673795236288686,1.1929266958631848,-0.06545348298084994,-0.051306971153602283,0.654403792219228,-1.0544199156765761,-0.05591530324521362,-0.3674494547076591
60,1.15825536131369,4.96604518498424,-0.596739634309392,4.109545651401197,-2.999850868357907,1.1152989169057035,-0.06560338026814964,-0.04959119818859841,0.6592625614207509,-1.0852190710427292,-0.11306299727177666,-0.3324546437727887
61,1.1563467038038502,4.94728085925251,-0.5523913392054707,4.033090219166499,-2.9315847349879625,1.0368233676701961,-0.06628202014874869,-0.04801527734009562,0.6641236917468274,-1.118284737178966,-0.1744363030337796,-0.30238091877499834
62,1.1544187484382231,4.92832681312828,-0.5075946519730961,3.9558617693014453,-2.862628383498668,0.9575543760155196,-0.0675131845660649,-0.04660973865501405,0.6689176890025508,-1.1533126800767415,-0.23963744989700558,-0.2774788831110156
63,1.152472838133717,4.909196249048427,-0.4623807757354246,3.8779140952666964,-2.793029845422282,0.8775471567412927,-0.06931454368475651,-0.04539915084196699,0.673568413751355,-1.1898838028866712,-0.30825359369088073,-0.25802242846047835
64,1.1505103357812148,4.889902565817259,-0.4167813777175904,3.799301790623958,-2.722837866691642,0.7968577458885719,-0.07169689500393621,-0.04440105470709701,0.677994331485696,-1.227453993078785,-0.3798584955333128,-0.24434429134000873
65,1.148532622647656,4.870459342897118,-0.37082855211855237,3.7200801850279066,-2.6521018504881164,0.7155429350405411,-0.0746635054864042,-0.04362505762726214,0.6821100066479782,-1.265332983757638,-0.4540103431540496,-0.23687944396666233
66,1.1465410967781196,4.8508803246989896,-0.3245547829829305,3.6403052802180995,-2.5808718000895596,0.6336602056231957,-0.07820958280162783,-0.0430721292199429,0.6858278082880734,-1.3026473643432381,-0.5302450088162489,-0.23622061733911912
67,1.144537171397905,4.831179404873103,-0.2779929070728524,3.5600336860108936,-2.5091982617182693,0.5512676632060272,-0.08232189935649865,-0.04273413298277266,0.6890597853601587,-1.3382806777282952,-0.6080634070268667,-0.24319300781772948
68,1.1425222733146143,4.8113706105995435,-0.2311760767397908,3.4793225562913594,-2.4371322673889355,0.4684239718027081,-0.08697858926717307,-0.0425936215036829,0.6917196610348787,-1.3707799144563066,-0.6869104872379156,-0.2589591788038283
69,1.1404978413202354,4.791468086878851,-0.1841377227964076,3.398229525005201,-2.3647252777565937,0.38518828817177564,-0.092149133887717,-0.042623914125217544,0.6937248884014617,-1.3982123073454258,-0.7661414469068243,-0.2851707385665036
70,1.138465324593222,4.771486080822632,-0.1369115173883928,3.316812642150664,-2.2920291249645808,0.30162019611731594,-0.09779454609378481,-0.04278946601753296,0.6949987049694556,-1.4179496652854007,-0.8449674161748019,-0.3241900853143923
71,1.1364261811005776,4.751438925944159,-0.08953133686630976,3.2351303097704607,-2.2190959554924916,0.21777964078965173,-0.1038677574120866,-0.043046526888078966,0.6954721207780584,-1.426354131777535,-0.9223673448917646,-0.3794088384310973
72,1.134381875999936,4.731341026448982,-0.04203122465743614,3.1532412179436804,-2.145978173004128,0.13372686298602332,-0.11031420552414922,-0.04334407650570076,0.6950857749027161,-1.4183587142348846,-0.9969446833339677,-0.4556700524063476
73,1.1323338800416445,4.711206841525531,0.005554645862401619,3.071204280777706,-2.072728381195448,0.04952233345127244,-0.11707261292576268,-0.04362501335208391,0.6937915978095258,-1.3870454686915925,-1.0667000771953998,-0.559691695273678
74,1.130283667970845,4.6910508696357205,0.053192008496974585,2.98907857240013,-1.9993993266425347,-0.03477331282146512,-0.12407594088249123,-0.04382756255025527,0.6915542223096239,-1.3237122287281786,-1.1287056569584133,-0.7000007922161295
75,1.1282327169295565,4.6708876328055595,0.10084654135781679,2.9069232629506763,-1.9260438416495376,-0.11909934229008279,-0.1312524965834448,-0.04388686025233018,0.6883520936331737,-1.2198991261274776,-1.1787789560410062,-0.8849072051671633
76,1.126182504858757,4.650731660915748,0.14848390399239064,2.824797554573098,-1.8527147870966232,-0.20339498856282212,-0.1385271658462409,-0.043736664340003506,0.6841782390706478,-1.0738972593912395,-1.2116149175617064,-1.1159948479591488
77,1.1241345089004655,4.630597475992296,0.19606977451222796,2.7427606174071233,-1.7794649952879436,-0.287599518097573,-0.1458227391249738,-0.04331113596712468,0.679040669296974,-0.900716009740812,-1.2222780242621543,-1.3781539390438118
78,1.122090203799824,4.610499576497121,0.24356988672110158,2.660871525580345,-1.7063472127995798,-0.37165229590119964,-0.15306129513744754,-0.04254663342079333,0.6729623963871656,-0.7323350560027282,-1.2090189023066535,-1.639328295504072
79,1.1200510603071796,4.590452421618648,0.2909500672431846,2.57918919320014,-1.6334140433274893,-0.4554928512288656,-0.16016560432073587,-0.0413834591471604,0.6659810670700314,-0.5986698403858951,-1.1746455944585037,-1.869548930806424
80,1.1180185435801662,4.570470415562428,0.338176272651199,2.4977723103456064,-1.5607178905354795,-0.5390609432833244,-0.16706051364402982,-0.03976750260794209,0.6581482233356338,-0.5112268100051449,-1.1245664543771803,-2.0572776093936866
81,1.1159941115857872,4.5505678918417365,0.3852146265945817,2.416679279059446,-1.4883109009031381,-0.6222966269142578,-0.17367427508362873,-0.03765172580569767,0.6495282154994662,-0.46642865334244216,-1.0640729296671299,-2.2060800830971536
82,1.1139792135024966,4.530759097568176,0.4320314569276451,2.335968149339914,-1.4162449065738034,-0.705140318317576,-0.1799397822543744,-0.034997444623399356,0.6401968046540276,-0.45553393221227223,-0.9971775294691132,-2.324704520955288
83,1.111975288122282,4.5110581777422905,0.47859333283772254,2.2556965551327064,-1.344571368202514,-0.7875328607347427,-0.18579568318401463,-0.03177536724506835,0.630239501595158,-0.4701939461542423,-0.9266488965439272,-2.4215221772148077
84,1.1099837622527455,4.491479159544161,0.5248671019733437,2.1759216503228984,-1.2733413178039568,-0.869415590152089,-0.1911873418395346,-0.02796636045229248,0.619749697378638,-0.503957068825364,-0.8543722875978687,-2.503019911579033
85,1.108006049119187,4.472035936624021,0.5708199275723824,2.0967000447268482,-1.20260530160043,-0.9507304010001203,-0.19606762654411042,-0.023561925058950838,0.6088266463387677,-0.5521758295956729,-0.7816666897186489,-2.5738891187057105
86,1.1060435467666845,4.452742253392853,0.6164193255902164,2.0180877400841073,-1.1324133228697884,-1.0314198118528424,-0.20039750959904223,-0.018564372653186056,0.5975733655093455,-0.6115632161979477,-0.709497879980148,-2.637464406575
87,1.1040976364621784,4.433611689313,0.6616332018278877,1.9401400660493593,-1.0628147847934049,-1.1114270311270698,-0.20414646896338348,-0.012986706657274744,0.5860945148858909,-0.6797851041847188,-0.63861040561164,-2.696124933720041
88,1.1021696810965516,4.41465764318877,0.7064298890602616,1.8629116161843058,-0.9938584333041103,-1.1906960227817436,-0.20729268945512166,-0.006852221011871508,0.5744943209429964,-0.7551592020381733,-0.5696075566754002,-2.751587856304714
89,1.1002610235867116,4.395893317457041,0.7507781841641827,1.7864561839496105,-0.9255922999341664,-1.2691715720172514,-0.20982306734093986,-0.0001938391092892169,0.5628746014786414,-0.836446493575591,-0.5029996453057328,-2.805107802215825
90,1.0983729852776745,4.377331702477864,0.7946473852466356,1.7108266986967902,-0.8580636446632042,-1.3467993509747327,-0.21173302811982103,0.006946776420969257,0.5513329435062572,-0.9227086455300636,-0.43923295774191135,-2.857608909267953
91,1.096506864344644,4.358985560825074,0.8380073287729004,1.6360751616601465,-0.7913188987661854,-1.423525984435404,-0.21302617255790096,0.014520306108829466,0.5399610779433359,-1.0132096178621686,-0.3787066093433665,-2.909771359334219
92,1.0946639341950963,4.340867411576894,0.8808284266947133,1.5622525819486874,-0.7254036076613541,-1.4992991155198645,-0.2137137704223868,0.02247100669190062,0.528843485694504,-1.1073464434239628,-0.3217815179824243,-2.9620878392303354
93,1.0928454418708602,4.322989514606535,0.9230817035784298,1.4894089125380194,-0.6603623737581845,-1.5740674713874245,-0.21381412476696282,0.030738050600229067,0.5180562598665204,-1.2045994631462207,-0.2687840079428808,-3.0149003250841253
94,1.0910526064501997,4.305363854872809,0.9647388337331664,1.4175929862622887,-0.5962387993053522,-1.6477809289353988,-0.21335183197034965,0.039256926844650465,0.5076662387521795,-1.3044959864303523,-0.2200056248218233,-3.0684242209156882
95,1.0892866174498963,4.288002126710731,1.0057721783389837,1.3468524518060825,-0.5330754292386661,-1.7203905804984565,-0.2123569640079585,0.04796085922365433,0.497730414324796,-1.406583784615098,-0.17570026341063896,-3.1227647433041197
96,1.0875486332273303,4.270915718122125,1.046154822575027,1.2772337096963362,-0.4709136940290293,-1.791848799547905,-0.21086419967866932,0.05678220029987563,0.4882956116944528,-1.510412392875349,-0.13607949877474082,3.105256225067172
97,1.085839779382564,4.254115695066231,1.0858606127476882,1.208781848294283,-0.40979385253040945,-1.862109306391016,-0.20891193079372986,0.065653763485,0.47939842662852994,-1.6155211439610344,-0.1013069487680419,3.0493483674131063
98,1.0841611471604224,4.237612785750306,1.1248641934187622,1.1415405797873426,-0.3497549348277609,-1.9311272338703382,-0.20654136777793286,0.0745100605315681,0.47106540109497863,-1.7214333379206406,-0.07149250045090845,2.9928539846421773
99,1.082513791852576,4.221417364920239,1.163141044533616,1.0755521761810272,-0.290834685085013,-1.9988591930630246,-0.20379566687678538,0.08328841745877637,0.46331341102965845,-1.8276560666217143,-0.046687236753276774,2.935994524186562
100,1.0808987311996223,4.205539438151142,1.2006675185493385,1.0108574052908956,-0.2330695043929918,-2.065263338980131,-0.20071909836658355,0.09192994812768823,0.45615023625900925,-1.9336850537356352,-0.02687985064078788,2.8790416735634468
101,1.079316943793169,4.189988626137973,1.237420877562896,0.9474954667344306,-0.17649439361739994,-2.130299436265947,-0.19735627199363043,0.10038037103060407,0.44957527974848466,-2.039013551239407,-0.011995198581634394,2.8223013238570545
102,1.0777693674779139,4.1747741489861285,1.2733793304393017,0.8855039279229793,-0.12114289624675223,-2.193928924897307,-0.1937514324890005,0.10859066109520046,0.4435804020466337,-2.1431439845990394,-0.001895416479086018,2.7660964438541806
103,1.0762568977537292,4.159904810502053,1.308522069939756,0.8249186600536618,-0.06704704124034144,-2.2561149858828777,-0.1899478345711418,0.11651753418756552,0.4381508368453239,-2.2456007931861417,0.0036162773632713095,2.7107500063535395
104,1.0747803861777419,4.145388982483845,1.3428293098498318,0.7657737741012731,-0.0142372858761739,-2.3168226069625284,-0.1859872034989977,0.12412376733356853,0.43326615482145825,-2.3459428691042654,0.004789288264065735,2.6565692644110688
105,1.0733406387664166,4.131234589011864,1.3762823221076068,0.7081015568102274,0.037257541401043426,-2.3760186483066015,-0.1819092840910561,0.13137836231693184,0.42890124517372363,-2.443774191973294,0.001917340138899808,2.603832560269355
106,1.071938414397637,4.117449090739334,1.4088634739318333,0.651932406686452,0.08741029813199219,-2.433671908215249,-0.17775147827465929,0.13825656415577825,0.4250272873080161,-2.5387516522060025,-0.004671164296084189,2.552779511105539
107,1.0705744232127887,4.10403946918295,1.4405562649501042,0.5972947699893041,0.1361955849947485,-2.4897531888177404,-0.17354856874377783,0.14473974895537345,0.42161268873856994,-2.6305895585835946,-0.014623361313587232,2.503604952861832
108,1.0692493250188402,4.091012211013482,1.4713453643269883,0.5442150767235177,0.183589802956849,-2.544235361771758,-0.16933252422588946,0.150815197775204,0.4186239692439748,-2.719060825802127,-0.027571999734317718,2.456456552725548
109,1.067963727690426,4.078373292346387,1.5012166478922182,0.4927176766310595,0.2295712104273555,-2.597093433962762,-0.16513238020982157,0.15647577446315822,0.4160265754476104,-2.8039952403614694,-0.0431447722226776,2.411435619293713
110,1.0667181855719272,4.066128163032399,1.5301572352688335,0.44282477518310515,0.2741199804088552,-2.648304613203269,-0.16097418776561653,0.16171952595936254,0.4137856141016232,-2.885275456526554,-0.06097248129658743,2.368600401503328
111,1.0655131978795551,4.0542817309481585,1.5581555270013225,0.39455636957190876,0.3172182576495466,-2.697848373932171,-0.15688102227605402,0.1665492234420856,0.4118664962901117,-2.9628314716514432,-0.08069580334482669,2.327971081057845
112,1.0643492071034324,4.042838346286795,1.5852012416838253,0.34793018470276493,0.3588502157952753,-2.7457065229140483,-0.15287304346485675,0.17097186197889244,0.41023548840838747,-3.036634299839297,-0.10197058075751592,2.2895357015308586
113,1.0632265974096748,4.031801785848548,1.6112854530882348,0.30296160918588555,0.3990021145415703,-2.7918632649385096,-0.14896759800567747,0.1749981351682618,0.4088601690297827,-3.1066894491899526,-0.1244717016090498,2.2532563969191295
114,1.0621456930424742,4.021175237331361,1.6364006272924125,0.2596636313283227,0.437662356785701,-2.836305268519478,-0.14517935617916142,0.17864189972272373,0.40770979357813,3.110154651471837,-0.14789571247115044,2.219075438807511
115,1.0611067567261792,4.010961283621499,1.6605406598083075,0.21804677512590942,0.4748215457787168,-2.8790217315945164,-0.14152047445970253,0.1819196431641047,0.40675557105008575,3.047471135441406,-0.1719623561046118,2.1869207795353356
116,1.0601099880673783,4.0011618870841446,1.6837009127101215,0.17811903625513992,0.5104725422775012,-2.920004447224155,-0.13800077650573614,0.1848499658769942,0.40597085886851914,2.9883715362206735,-0.19641524011459277,2.1567109068037076
117,1.0591555219569817,3.991778373854011,1.705878251762482,0.1398858180651139,0.5446105216968107,-2.959247869291186,-0.13462794574645964,0.187453086789547,0.4053312833094445,2.932768781306752,-0.22102183478579454,2.1283589329456163
118,1.0582434269723033,3.9828114181259373,1.7270710835485967,0.1033498675694311,0.5772330312613256,-2.9967491781999804,-0.1314077235566857,0.18975037999980812,0.40481479386016994,2.8805659680821027,-0.24557297713072163,2.1017759182061027
119,1.0573737037791417,3.97426102644551,1.7472793925983854,0.0685112114381603,0.6083400471576823,-3.032508346575842,-0.12834410784848116,0.19176394780505568,0.40440166037760994,2.8316591441711947,-0.2698820307406229,2.0768734755919067
120,1.056546283533864,3.966126521999647,1.7665047785166894,0.03536709198963095,0.6379340316865587,-3.0665282049642606,-0.12543954774790325,0.19351623387102446,0.4040744220738765,2.7859394894674545,-0.29378382228267524,2.0535657311193343
121,1.0557610262854862,3.9584065289072266,1.7847504931113807,0.00391190318250878,0.6660199904146786,-3.098814507530296,-0.12269513083874395,0.1950296787327984,0.40381779721634786,2.7432949983672223,-0.31713344851687597,2.0317707238760954
122,1.055017719377757,3.951098956509676,1.8020214775215375,-0.025862873392394903,0.6926055293268583,-3.129375997757794,-0.12011076022039552,0.1963264184723301,0.40361856204811075,2.7036117585510757,-0.3398050241350045,2.0114113307140795
123,1.0543160758512369,3.9442009836615837,1.818324399345619,-0.053968732520193186,0.7177009119780813,-3.1582244741488417,-0.1176853193278848,0.19742802627966166,0.40346540686699256,2.6667749139780135,-0.3616904211577136,1.992415794920427
124,1.0536557328453835,3.9377090430213046,1.8336676897696076,-0.08042020936996863,0.7413191166455491,-3.185374855922948,-0.11541682308840237,0.19835529567702828,0.40334877649922096,2.6326693876822262,-0.3826980350387539,1.9747179299746103
125,1.0530362500006318,3.9316188053415706,1.8480615806951508,-0.10523494350288232,0.7634758934806705,-3.210845248716428,-0.11330255453493056,0.19912806345980422,0.4032607016136756,2.6011804265781517,-0.40275160063856763,1.9582570605332312
126,1.052457107860476,3.9259251637600743,1.8615181418677789,-0.1284337428802793,0.7841898216612044,-3.2346570102817545,-0.11133918646271747,0.1997650698721161,0.4031946264856013,2.5721940171321362,-0.4217890723087056,1.9429777543038251
127,1.0519177062735525,3.9206222180901156,1.8740513180049756,-0.15004064787173022,0.803482366543161,-3.2568348161867355,-0.10952288810057695,0.20028385316963185,0.40314523796899626,2.5455972082573353,-0.4397615759023634,1.9288293910774605
128,1.0514173627957206,3.915703259111152,1.8856769659244346,-0.1700829952631544,0.8213779368130325,-3.277406725514023,-0.10784941708089918,0.20070067550630272,0.40310829960242556,2.52127836659868,-0.4566324360559266,1.9157656090674355
129,1.0509553110921461,3.9111607528594687,1.896412891672102,-0.1885914822648438,0.8379039416396772,-3.2964042465602397,-0.10631419723666474,0.20103047699268312,0.4030804939757126,2.499127379747646,-0.4723762790946898,1.903743663766147
130,1.0505306993393824,3.906986324918729,1.906278887650475,-0.2056002305196465,0.8530908478264472,-3.313862402535431,-0.1049123829380108,0.2012868547873843,0.40305927574045197,2.479035814982718,-0.48697821000536257,1.8927237305407505
131,1.0501425886274518,3.903170744710601,1.9152967697466312,-0.22114685011095148,0.866972236963246,-3.3298197972622994,-0.10363891081361813,0.20148206417725242,0.40304273696690196,2.4608970349210004,-0.5004330607625387,1.88266817883904
132,1.0497899513619293,3.899703909785372,1.92349041446048,-0.23527250357081542,0.8795848625785148,-3.3443186808755847,-0.10248853979146659,0.20162703875408877,0.40302948593958865,2.444606266979255,-0.5127447066442988,1.87354084285616
133,1.0494716696660233,3.896574830112548,1.9308857960328385,-0.24802196988807523,0.8909687072913108,-3.357405015521305,-0.1014558804475951,0.20173142698592678,0.40301853994765574,2.4300606207289692,-0.5239254468324804,1.865306310551849
134,1.049186533782658,3.893771612371448,1.9375110235736617,-0.2594437085163541,0.9011670399633651,-3.3691285410561242,-0.10053541467786697,0.201803642691135,0.40300923216314244,2.41715904598688,-0.5339954454287992,1.8579292498075253
135,1.0489332404765555,3.8912814442418204,1.943396378190182,-0.2695899233822594,0.9102264728511251,-3.3795428407466837,-0.09972150671315674,0.2018509271379627,0.4030011323101682,2.405802224657382,-0.5429822289418694,1.8513737871609224
136,1.048710391436317,3.8890905786944474,1.9485743501150476,-0.2785166268933388,0.9181970187577981,-3.3887054069688354,-0.09900840648873391,0.20187942069741502,0.4029939805065606,2.39589239073322,-0.5509202362591792,1.845602950932369
137,1.048516491676506,3.887184318281755,1.9530796758344795,-0.2862837039462569,0.9251321481853729,-3.3966777069070666,-0.09839024635881198,0.20189424216257706,0.40298763340354915,2.3873330752123976,-0.5578504170961384,1.8405781867274562
138,1.0483499479397302,3.8855469994284073,1.9569493752164628,-0.2929549759348298,0.9310888464867055,-3.403525248253718,-0.097861032121265,0.20189957400427289,0.4029820215540283,2.3800287757235714,-0.5638198749139581,1.8362589493976704
139,1.048209067098722,3.8841619767219226,1.9602227886388863,-0.29859826475815865,0.9361276710175268,-3.4093176449083593,-0.09741462928839319,0.2018987519550743,0.4029771168014732,2.373884554066042,-0.5688815503427251,1.832602371743827
140,1.0480920545584231,3.8830116072032714,1.96294161411767,-0.3032854568286574,0.9403128082885281,-3.4141286826770774,-0.0970447455095037,0.20189435739720235,0.40297290839519184,2.368805568379273,-0.5730939412645377,1.829563006751742
141,1.0479970126580644,3.882077234657488,1.9651499444349863,-0.3070925670801792,0.9437121311173549,-3.418036384971817,-0.09674491002142174,0.20188831107286984,0.40296938649925335,2.3646965499957306,-0.5765208559376631,1.827092637144868
142,1.047921939073248,3.8813391739042684,1.9668943042673834,-0.3100998029760724,0.946397255780763,-3.421123078509634,-0.09650845097461948,0.20188196663782654,0.4029665317678888,2.3614612379925894,-0.5792311959053896,1.8251401436769754
143,1.0478647252180306,3.880776695088593,1.9682236873139043,-0.31239162851726476,0.9484435991664633,-3.4234754590121135,-0.0963284714558549,0.20187620254191574,0.4029643097050032,2.3590017868928417,-0.5812987659530401,1.823651421973959
144,1.047823154647005,3.880368007971307,1.9691895934243415,-0.31405682825039705,0.9499304359254346,-3.4251846569045874,-0.09619782500291932,0.20187151064697315,0.40296266860538144,2.357218164801992,-0.5828021090646796,1.8225693369040847
145,1.0477949014573804,3.880090246219745,1.9698460657273198,-0.31518857127584354,0.9509409556237465,-3.4263463030155314,-0.09610909138365065,0.20186807988637157,0.40296153998494,2.3560075604923925,-0.5838243651811235,1.8218337033900178
146,1.0477775286910689,3.8799194516983304,1.970249727758463,-0.3158844752558032,0.9515623198946663,-3.427060594275762,-0.0960545533893375,0.20186587313665227,0.40296084054089515,2.355263818629021,-0.5844531535578806,1.8213812831788612
147,1.0477684867367612,3.879830558759184,1.9704598205885648,-0.3162466704224407,0.9518857195907948,-3.42743235941791,-0.09602617537301224,0.2018646953151282,0.40296047483278513,2.3548769225727946,-0.5847804796302313,1.8211457882240145
148,1.0477651117320135,3.8797973785327136,1.9705382399517848,-0.3163818635859279,0.9520064319360095,-3.4275711246756124,-0.09601558424662004,0.20186425054360763,0.4029603380328659,2.3547325441565174,-0.5849026684683188,1.8210578828184896
149,1.047764623965329,3.879792583218255,1.9705495733737084,-0.31640140214248547,0.9520238776775152,-3.427591179482871,-0.09601405363951139,0.20186418603281878,0.4029603182487636,2.3547116796739487,-0.5849203280886264,1.8210451782430255
