nimar13/UR3e_dataset_trayectorias/data/trayectorias_completas_UR3e_JTRAJ/trayectoria_071.csv
Punto,shoulder_pan_joint,shoulder_lift_joint,elbow_joint,wrist_1_joint,wrist_2_joint,wrist_3_joint,Posicion_X,Posicion_Y,Posicion_Z,Roll,Pitch,Yaw
0,4.255375541749748,-1.225590409343816,-1.5404466601337568,-4.121122831924236,4.389348105908059,-2.6312608792508994,0.15321173220295603,0.07960553016915863,0.35012227627327597,-2.4195704853372253,0.5684876219867216,1.4947132057853927
1,4.255366807816246,-1.2255901946670162,-1.5404488011073743,-4.121118641006089,4.389353374178242,-2.631269540951671,0.15321306152247924,0.07960443589624307,0.3501218444119416,-2.4195834566875147,0.568486630743327,1.4946978337911396
2,4.255306375097183,-1.225588709253517,-1.5404636151493076,-4.121089642779926,4.389389826927946,-2.6313294738706956,0.15322225927124422,0.07959686375262157,0.35011885629527967,-2.4196732087858597,0.568479771267911,1.4945914705570118
3,4.255144470173968,-1.2255847296914142,-1.5405033033572673,-4.121011953811879,4.389487487263826,-2.631490039782724,0.15324689906124003,0.07957657262425899,0.3501108513853174,-2.419913658037863,0.5684613875147859,1.4943065154442694
4,4.254833394017192,-1.2255770835565098,-1.540579558328124,-4.120862686049514,4.389675127030126,-2.6317985432292605,0.15329423320862212,0.07953756726230483,0.3500954733310284,-2.4203756248048687,0.5684260390051817,1.493759024757186
5,4.254327493374364,-1.2255646487090328,-1.5407035711717159,-4.120619933092436,4.389980284067475,-2.6323002598941914,0.1533711911600861,0.0794740798289095,0.35007047026529664,-2.421126859730994,0.5683684765471201,1.4928686677165044
6,4.2535831321576465,-1.2255463525903605,-1.5408860385246503,-4.120262756462886,4.3904292794716735,-2.6330384649794203,0.15348437607970225,0.07938054699191972,0.3500336956135864,-2.422232065154995,0.5682836116854808,1.491558684386653
7,4.252558662831588,-1.2255211715197392,-1.5411371695641107,-4.119771171876344,4.391047234852492,-2.6340544615804946,0.15364005984235501,0.07925158339282058,0.3499831093185427,-2.4237529124071666,0.5681664810816449,1.4897558452796063
8,4.251214397800863,-1.225488129991007,-1.5414666930216603,-4.119126135512127,4.391858089592454,-2.63538760906224,0.15384417662365837,0.07908195226342286,0.3499167793900337,-2.4257480556959172,0.5680122069672833,1.4873904124113184
9,4.2495125807980045,-1.2254462999693134,-1.5418838641970471,-4.1183095302839945,4.392884618105641,-2.6370753514343894,0.1541023152201772,0.07886653392058644,0.34983288369517895,-2.4282731431953795,0.5678159547654973,1.4843961016384704
10,4.247417358271138,-1.225394800187842,-1.5423974719720084,-4.117304152110743,4.3941484470964705,-2.639153245727215,0.15441971018029932,0.07860029282468067,0.3497297119077401,-2.43138082585754,0.5675728889231573,1.480710046151195
11,4.244894750771721,-1.2253327954445308,-1.5430158458240755,-4.116093696186815,4.395670072818495,-2.6416549903671585,0.15480123177708302,0.07827824384658696,0.3496056675409651,-2.4351207643922925,0.56727812794988,1.476272761039242
12,4.241912624342277,-1.2252594958987941,-1.5437468628403783,-4.114662743252894,4.3974688783331946,-2.6446124535524627,0.15525137481131812,0.07789541834998852,0.3494592699925676,-2.4395396347886926,0.5669266996108242,1.4710281088828303
13,4.238440661904127,-1.2251741563682437,-1.5445979547314503,-4.112996745866505,4.399563150768765,-2.6480557016288016,0.15577424619706742,0.07744683066068159,0.3492891565350442,-2.444681132692219,0.5665134971717583,1.4649232663436946
14,4.234450334645132,-1.2250760756254098,-1.5455761148450324,-4.11108201467262,4.4019700985789125,-2.652013027464913,0.15637355125391744,0.07692744546282446,0.3490940841889971,-2.4505859769072256,0.5660332375453158,1.4579086917453772
15,4.229914873407423,-1.2249645956944624,-1.5466879051798792,-4.108905704674256,4.404705868801644,-2.6565109788282286,0.15705257861067448,0.07633214663358315,0.34887293142153275,-2.4572919122619816,0.5654804221364603,1.4499380936337274
16,4.224809240075136,-1.2248391011479338,-1.5479394633995618,-4.106455801503074,4.407785564318061,-2.6615743867605035,0.15781418361464436,0.07565570800258031,0.34862469961618303,-2.4648337120560657,0.5648493011329073,1.4409684002986485
17,4.219110098962155,-1.2246990184034376,-1.5493365098462735,-4.103721107689983,4.4112232611111475,-2.66722639395345,0.15866077013912203,0.07489276650086266,0.34834851426512964,-2.4732431803065076,0.5641338419321749,1.430959730216094
18,4.212795788199834,-1.2245438150203927,-1.5508843545546347,-4.100691228935743,4.415032025524567,-2.673488483124367,0.15959427068932724,0.07403779814561065,0.3480436258388117,-2.4825491540195426,0.5633277023408721,1.419875363335629
19,4.205846291124748,-1.2243729989967416,-1.5525879042654969,-4.097356560381558,4.41922393152145,-2.680380505391771,0.16061612472361483,0.07308509729121386,0.34770941029228164,-2.492777505738365,0.5624242091234815,1.4076817130943733
20,4.198243207666415,-1.2241861180656748,-1.5544516694397474,-4.093708272879684,4.4238100779431875,-2.687920708651027,0.16172725513219507,0.07202875956415378,0.34734536917192504,-2.503951146652578,0.5614163424170682,1.394348298983742
21,4.1899697257350415,-1.2239827589923498,-1.556479771272115,-4.089738299264027,4.428800605768224,-2.69612576594998,0.16292804284946058,0.07086266888778947,0.3469511292904078,-2.5160900306006466,0.56029672646452,1.379847719432896
22,4.181010592609249,-1.2237625468706133,-1.558675948704973,-4.085439320620747,4.434204715370848,-2.705010803864587,0.16421829961795034,0.06958048899285621,0.34652644194195503,-2.5292111593503663,0.5590576270519461,1.3641556247040023
23,4.171352086323819,-1.2235251444197224,-1.5610435654421455,-4.080804752558852,4.440030683779982,-2.7145894308745446,0.16559723897148268,0.06817565979935349,0.346071181634298,-2.5433285896019315,0.55769095596532,1.3472506894215919
24,4.160981987057419,-1.223270251281066,-1.5635856169627107,-4.075828731480807,4.44628588193798,-2.7248737657389244,0.16706344556148245,0.06664139904453578,0.3455853443178991,-2.5584534422208685,0.5561882827069733,1.329114584284204
25,4.1498895485203455,-1.2229976033148862,-1.5663047375348065,-4.070506100853129,4.452976791959412,-2.7358744658717997,0.16861484301329943,0.06497070951873604,0.34506904509733793,-2.574593914270671,0.5545408536339933,1.3097319464341228
26,4.138065469342254,-1.222706971896999,-1.5692032072294353,-4.064832397476991,4.460109024389864,-2.7476007557178797,0.17024866056761898,0.0631563922545896,0.344522515414069,-2.591755294474434,0.5527396185977647,1.2890903478933666
27,4.125501864459898,-1.2223981632155163,-1.5722829589342673,-4.058803837758822,4.467687335464721,-2.7600604551281402,0.17196139883493308,0.061191065994567126,0.34394609969414064,-2.609939982787268,0.5507752650767606,1.2671802614149885
28,4.112192236504863,-1.2220710175675666,-1.5755455853674472,-4.052417303980906,4.475715644367966,-2.773260007735452,0.1737487950674699,0.059067193235311566,0.3433402514588904,-2.6291475148035213,0.5486382597035788,1.2439950230512167
29,4.098131447191301,-1.2217254086560174,-1.578992346091397,-4.045670330571989,4.484197050490969,-2.787204509330215,0.1756057884317412,0.05677711311379917,0.3427055289011374,-2.649374591751068,0.5463188969924142,1.219530790708007
30,4.083315688703668,-1.2213612428861946,-1.5826241745266219,-4.03856109037787,4.493133850691277,-2.8018977362359867,0.17752648584462954,0.054313081358598914,0.3420425899339639,-2.6706151168357617,0.543807354975471,1.1937864979420825
31,4.067742455084458,-1.2209784586626058,-1.5864416849655143,-4.031088380932012,4.502527556551412,-2.817342173685116,0.17950412901515517,0.051667317478351286,0.34135218672381973,-2.6928602386895926,0.541093757357154,1.1667638022648732
32,4.0514105136219385,-1.22057702568566,-1.5904451795861587,-4.023251610726136,4.512378911637653,-2.833539044194371,0.18153106341106612,0.048832059298051136,0.3406351597243904,-2.7160984026433606,0.5381682416946408,1.1384670272502813
33,4.034319876237886,-1.2201569442483904,-1.5946346554661366,-4.015050785480825,4.522687908758839,-2.850488335940572,0.18359870994230004,0.04579962488100058,0.33989243123243806,-2.7403154104869807,0.5350210330141141,1.1089030978017909
34,4.016471770875323,-1.2197182445331742,-1.599009811596331,-4.006486494416125,4.533453807225153,-2.868188831136223,0.1856975402201692,0.04256248178986094,0.33912499849162403,-2.76549448929658,0.5316425221755023,1.0780814680203061
35,3.9978686128862497,-1.219260985908455,-1.6035700558947303,-3.997559896522142,4.544675150106916,-2.8866381344051395,0.18781705630964454,0.039113323543806575,0.33833392637514326,-2.7916163697973326,0.5280233482071501,1.0460140412270318
36,3.978513976419385,-1.218785256225464,-1.6083145122202351,-3.9882727068296506,4.556349781493379,-2.905832701158084,0.18994577594010337,0.03544515302047789,0.3375203396828049,-2.818659374595418,0.5241544837476606,1.0127150818349195
37,3.958412565807895,-1.2182911711149402,-1.61324202738646,-3.978627182680686,4.568474863751517,-2.925767865968394,0.19207122417500172,0.03155137243167226,0.3366854150929467,-2.8465995164537254,0.5200273226577349,0.978201118925145
38,3.9375701869571347,-1.217778873283853,-1.6183511781755406,-3.9686261099991524,4.581046894784816,-2.946437870947613,0.19417993256076113,0.027425879371421838,0.33583037281422873,-2.875410606607475,0.5156337688024482,0.9424908415684475
39,3.91599371873238,-1.2172485318121233,-1.6236402783519372,-3.958272789561418,4.594061725292068,-2.967835894121123,0.19625744677740609,0.02306316829561128,0.3349564679868595,-2.905064372922275,0.5109663249564276,0.9056049861300909
40,3.893691084346564,-1.216700341449344,-1.6291073856762395,-3.9475710232669194,4.607514576026166,-2.9899540778037745,0.19828834379587965,0.01845843664537369,0.33406498188712463,-2.935530587494009,0.5060181807527967,0.8675662160059477
41,3.870671222748012,-1.216134521911502,-1.634750308918971,-3.936525100408763,4.621400055052889,-3.0127835569755175,0.20025625950749842,0.013607694674509544,0.333157212993121,-2.9667772030838564,0.5007832985832655,0.8283989944491289
42,3.8469440600081772,-1.2155513171776997,-1.6405666148743947,-3.925139783944322,4.635712175009698,-3.0363144876570334,0.20214392772784098,0.008507877886807161,0.3322344679733163,-2.9987704975799088,0.4952564963624743,0.7881294513541995
43,3.822520480709377,-1.214950994786875,-1.6465536353743164,-3.913420296765842,4.650444370364527,-3.0605360752853636,0.20393323138910596,0.0031569608356727674,0.3312980526628715,-3.031475225486561,0.4894335260954429,0.7467852450619527
44,3.797412299332527,-1.2143338451345247,-1.652708474301891,-3.9013723079710383,4.665589514674574,-3.0854366030895446,0.20560526662061193,-0.002445929110471862,0.33034926309549356,-3.064854775271634,0.4833111472324881,0.7043954204241821
45,3.7716322316448774,-1.2137001807694239,-1.659028014605425,-3.889001919133699,4.681139937845097,-3.111003460466234,0.20714042027618568,-0.00830039957401843,0.3293893766608947,-3.0988713312557086,0.4768871938608637,0.6609902645180225
46,3.7451938660877477,-1.2130503356903477,-1.6655089253121838,-3.8763156505742837,4.697087443388199,-3.1372231713553465,0.20851846129987334,-0.014404684209853118,0.3284196434596154,-3.133486038614597,0.4701606348649615,0.6166011615168314
47,3.718111635164263,-1.2123846646427938,-1.6721476685421937,-3.8633204276305273,4.7134233256816245,-3.1640814226156806,0.2097186461285472,-0.020755538757898134,0.3274412779279779,3.1145261371907664,0.4631316262854536,0.5712604483043023
48,3.6904007868270883,-1.211703542415702,-1.6789405065220488,-3.850023566928039,4.730138387227552,-3.1915630924005525,0.21071983811319273,-0.02734814397007411,0.32645545080620864,3.0788350150227526,0.4558015552194557,0.525001272457025
49,3.662077355866164,-1.211007363138177,-1.6858835085987143,-3.8364327626509023,4.747222955911383,-3.2196522785334256,0.21150064070234253,-0.03417601733750122,0.3254632815222351,3.042666875946604,0.4481730747257306,0.47785745421606085
50,3.633158135296444,-1.2102965395762084,-1.6929725582533315,-3.822556072812279,4.764666902260534,-3.248332326883543,0.2120395438745165,-0.04123093557541079,0.3244658310623031,3.006063072282985,0.4402501293276637,0.4298633540203125
51,3.603660647745627,-1.209571502429393,-1.700203360115023,-3.8084019055250065,4.78245965670323,-3.2775858597415546,0.21231508303567664,-0.04850286982035143,0.32346409539731763,2.96906517693642,0.43203797083866724,0.38105374708522455
52,3.5736031168418947,-1.2088326996276555,-1.7075714469746963,-3.7939790052722016,4.800590226827296,-3.307394804195154,0.2123060093174453,-0.05597993545341365,0.3224589995306624,2.931714831211256,0.4235431643663116,0.331463706382951
53,3.543004438601645,-1.2080805956279703,-1.71507218679885,-3.7792964391778594,4.819047214638949,-3.337740420504705,0.21199146992774565,-0.06364835838159243,0.32145139222921515,2.8940535994339163,0.41477358447927326,0.28112849521954886
54,3.511884152817231,-1.2073156707110824,-1.722700789743377,-3.7643635832774556,4.837818833821589,-3.368603330478875,0.21135119692379703,-0.07149245948512982,0.3204420414943117,2.856122831346642,0.4057384016421501,0.23008347041673274
55,3.4802624144446934,-1.2065384202782286,-1.7304523151673696,-3.7491901087885457,4.856892926994591,-3.3999635458502637,0.21036570250476072,-0.07949465877071848,0.3194316308235774,2.817963533047441,0.3964480591345304,0.1783639968972868
56,3.4481599649914965,-1.2057493541478594,-1.7383216786469249,-3.733785968381368,4.876256982972096,-3.4318004966510367,0.20901647866484754,-0.08763550055893639,0.3184207563078651,2.7796162470511816,0.3869142407702791,0.12600537425130662
57,3.415598103904264,-1.20494899585236,-1.746303658988948,-3.718161382449444,4.895898154021807,-3.464093059588553,0.20728619881464172,-0.09589370078045749,0.3174099246000506,2.741120941845602,0.377149829819268,0.07304277563251392
58,3.3825986599565137,-1.2041378819347712,-1.754392905244959,-3.7023268253801764,4.915803273123775,-3.4968195864210014,0.2051589187759714,-0.10424621716200812,0.31639955178424467,2.7025169111203042,0.3671688596057977,0.019511199106562013
59,3.3491839626363946,-1.203316561245511,-1.7625839437248947,-3.6862930118254544,4.935958871229194,-3.529957932333026,0.20262027439085556,-0.11266834275345972,0.3153899631651322,2.663842682663489,0.3569864563153586,-0.034554568646872466
60,3.3153768135344213,-1.2024855942390962,-1.770871185010916,-3.670070882972252,4.956351194519194,-3.56348548431136,0.19965767286439817,-0.12113382288694267,0.31438139398777615,2.625135936755454,0.3466187745845527,-0.08911997658420355
61,3.2812004577312086,-1.2016455522708633,-1.7792489309712107,-3.6536715928132293,4.976966221663631,-3.5973791895204563,0.19626047489073256,-0.1296149952736589,0.3133739910884239,2.586433433744619,0.33608292647866184,-0.14415072199704693
62,3.246678555185207,-1.2007970168936901,-1.787711381773799,-3.637106494417333,4.997789681079878,-3.6316155836781197,0.192420164595147,-0.1380829525415034,0.31236781546675707,2.5477709503739394,0.32539690447882436,-0.19961275232784545
63,3.211835152120442,-1.1999405791547169,-1.7962526429003385,-3.620387126200398,5.0188070681916175,-3.666170819431133,0.18813050436798603,-0.14650772610496862,0.31136284575977796,2.509183224335311,0.31457949910763555,-0.25547225691780073
64,3.176694652414241,-1.199076838892067,-1.8048667321599274,-3.60352519819575,5.040003662687637,-3.7010206947308957,0.18338767176921994,-0.15485848984713207,0.3103589825872554,2.4707039064674783,0.303650211820147,-0.3116956496278364
65,3.1412817889849807,-1.1982064040315696,-1.8135475867029114,-3.5865325783248005,5.061364545780614,-3.736140681209048,0.17819037584755712,-0.16310378169136383,0.3093560537285375,2.4323655199788985,0.29262916377859227,-0.3682495433743704
66,3.1056215951798096,-1.19732988988348,-1.8222890700346863,-3.5694212786676554,5.082874617465915,-3.7715059525531065,0.1725399504438735,-0.17121174075761095,0.3083538200806953,2.3941994260692545,0.2815370011158646,-0.42510071769993135
67,3.069739376162394,-1.1964479184392012,-1.8310849790295038,-3.5522034417337105,5.104518613780382,-3.807091412882092,0.16644042233319406,-0.17915035744445318,0.3073519823385928,2.3562357953399875,0.27039479727668003,-0.48221608055479687
68,3.033660680300647,-1.1955611176680045,-1.8399290509442758,-3.5348913267322537,5.1262811240611255,-3.842871725122162,0.1598985523983178,-0.18688773346312346,0.3063501883286707,2.31850358442194,0.2592239530083724,-0.5395626255019856
69,2.9974112705544678,-1.1946701208137527,-1.8488149704323793,-3.5174972958430675,5.1481466082043195,-3.878821339382242,0.15292384841578097,-0.19439234858216314,0.30534804092019485,2.281030517303881,0.24804609455699364,-0.5971073855756134
70,2.9610170958634727,-1.193775565691619,-1.8577363765574606,-3.500033800487027,5.170099413923989,-3.9149145213296572,0.14552854846389987,-0.20163333062927008,0.30434510643054163,2.2438430709151835,0.23688297061011668,-0.6548173850240095
71,2.924504262534735,-1.1928780939848096,-1.866686869807241,-3.4825133675967033,5.192123794010805,-3.9511253805657605,0.13772757442454922,-0.2085807251469509,0.3033409234349057,2.206966464595359,0.22575634851662982,-0.7126595901558732
72,2.8878990056305183,-1.1919783505412855,-1.8756600191073196,-3.4649485858869635,5.214203923590874,-3.9874278990015646,0.12953845553532461,-0.21520576101606023,0.3023350118857417,2.1704246531684332,0.2146879103064054,-0.7706008604818625
73,2.8512276603560123,-1.1910769826704828,-1.8846493688349808,-3.4473520921255725,5.236323917384533,-4.023795959233377,0.12098122244618648,-0.22148110834986548,0.30132688244335887,2.1342403234271154,0.2036991490295544,-0.8286079013067915
74,2.8145166334470684,-1.1901746394400339,-1.893648445832996,-3.4297365574037904,5.258467846965138,-4.060203372918425,0.11207827273332815,-0.2273811250227194,0.3003160459164578,2.0984348939167115,0.19281126593588732,-0.8866472188801942
75,2.7777923745579356,-1.1892719709724902,-1.9026507664234296,-3.4121146734069794,5.280619758017854,-4.096623909150489,0.1028542093113534,-0.23288208833171306,0.29930202271007383,2.06302851798788,0.1820450690200079,-0.9446850791562854
76,2.741081347648991,-1.1883696277420412,-1.9116498434214448,-3.394499138685197,5.302763687598459,-4.133031322835537,0.09333565365147312,-0.2379624084947798,0.2982843521784086,2.028040090157697,0.17142087346535925,-1.0026874711487541
77,2.7044100023744853,-1.1874682598712385,-1.920639193149106,-3.3769026449238053,5.3248836813921185,-4.16939938306735,0.08355103614733984,-0.2426028209607401,0.2972626017813756,1.9934872558769066,0.16095840453076826,-1.0606200757916702
78,2.66780474547027,-1.1865685164277144,-1.9296123424491847,-3.3593378632140665,5.346963810972187,-4.205701901503153,0.07353036636105653,-0.24678655483998968,0.2962363759463507,1.9593864248455375,0.1506767034342502,-1.1184482411353884
79,2.6312919121415312,-1.1856710447209053,-1.938562835698965,-3.3418174303237427,5.368988191059003,-4.2419127607392575,0.06330498622072786,-0.2504994751515494,0.29520532454055853,1.9257527880472327,0.14059403679977525,-1.1761369646153397
80,2.594897737450536,-1.1847764895987714,-1.9474842418240463,-3.324353934967702,5.390940996778673,-4.278005942686672,0.05290730951978371,-0.25373019701422583,0.2941691508646723,1.8926003386835615,0.13072781024179506,-1.2336508830324289
81,2.558648327704357,-1.1838854927445195,-1.9563701613121496,-3.306959904078516,5.412806480921867,-4.313955556946752,0.04237055128100056,-0.25647017037669195,0.2931276190844721,1.8599418971822503,0.12109448666800644,-1.2909542707765373
82,2.522569631842609,-1.1829986919733229,-1.9652142332269218,-3.289647789077059,5.43456899120261,-4.349735869186822,0.03172845069022842,-0.2587137343724924,0.29208056102469504,1.82778914042807,0.11170950988147291,-1.3480110467093926
83,2.4866874128251943,-1.182116720529044,-1.974010142221739,-3.272429952143114,5.456212987517077,-4.385321329515807,0.021014991373693184,-0.2604581408899764,0.2910278822573888,1.7961526353221742,0.10258723405736597,-1.4047847900010406
84,2.4510272190200233,-1.1812402063809544,-1.982751625553514,-3.2553186524859683,5.477723059202377,-4.420686600859867,0.010264122787760694,-0.26170354745228275,0.2899695674260265,1.7650418767166085,0.09374085965566326,-1.4612387650859322
85,2.415614355590763,-1.180369771520457,-1.9914324800964978,-3.23832603261502,5.499083942295355,-4.455806587338019,-0.0004905135874601471,-0.26245297999738204,0.28890568475619155,1.734465329697183,0.08518237630819703,-1.5173359557718693
86,2.3804738558845617,-1.1795060312578072,-2.0000465693560874,-3.2214641046103707,5.520280536791375,-4.490656462637782,-0.011215849706239683,-0.262712266621766,0.2878363897136569,1.7044304761024072,0.0769225131852956,-1.573039108399669
87,2.345630452819797,-1.178649593518834,-2.008587830482626,-3.2047447363934363,5.541297923903114,-4.5252116983907955,-0.021879644734061263,-0.2624899437935754,0.28676192778098725,1.6749438650718043,0.06897069730354788,-1.6283107838154163
88,2.3111085502737954,-1.1778010581416607,-2.017050281285215,-3.18817963799754,5.5621213833193615,-4.5594480925484575,-0.03245072407974942,-0.261797136942601,0.28568263633423935,1.6460111673169062,0.061335020181565225,-1.6831134177836402
89,2.276932194470584,-1.1769610161734279,-2.0254280272455096,-3.1717803478385176,5.582736410463797,-4.593341797757553,-0.04289920093940563,-0.2606474176879504,0.2845989456117572,1.6176372327064361,0.05402221318529915,-1.7374093893409208
90,2.2431250453686093,-1.176130049167013,-2.0337152685315307,-3.1555582189853153,5.603128733753798,-4.6268693497358875,-0.053196677970360415,-0.25905664026288744,0.28351137877727567,1.5898261506574074,0.047037631829097024,-1.7911610964692208
91,2.20971034804849,-1.1753087284777528,-2.041906307011467,-3.139524405430593,5.623284331859218,-4.660007695647913,-0.06331642710712512,-0.2570427599357964,0.28242055108947384,1.562581312730065,0.0403852492143034,-1.8443310383586753
92,2.176710904100741,-1.174497614560164,-2.049995553267477,-3.1236898483613262,5.643189450961185,-4.692734222480361,-0.07323354594747016,-0.2546256364033575,0.2813271681995298,1.5359054767404536,0.03406765869520879,-1.896881903434759
93,2.144149043013507,-1.1736972562646644,-2.0579775336095008,-3.1080652624294003,5.662830622010897,-4.725026785417878,-0.08292508956503696,-0.25182682524560307,0.2802320236070729,1.5098008316334512,0.02808608576443673,-1.9487766622462759
94,2.1120465935603105,-1.1729081901342955,-2.065846897089056,-3.092661122022224,5.682194677988401,-4.75686373621865,-0.09237017703554146,-0.24866936058289785,0.27913599531305877,1.4842690623042398,0.022440409048395848,-1.9999786642516082
95,2.0804248551877738,-1.1721309397014417,-2.073598422513048,-3.0774876475333146,5.701268771161402,-4.788223951590037,-0.1015500723871696,-0.2451775320640023,0.27804004171541113,1.4593114135198428,0.01712919020052965,-2.0504517375024824
96,2.0493045694033585,-1.1713660147845537,-2.0812270254575758,-3.06255479163291,5.720040390344043,-4.819086861564209,-0.11044824009338833,-0.2413766592456077,0.2769451967997213,1.434928752076131,0.012149712378305835,-2.1001602902081022
97,2.0187058911631084,-1.1706139107848685,-2.088727765281729,-3.0478722255385673,5.738497378155697,-4.84943247787376,-0.11905037561031419,-0.23729286630170215,0.2758525646828011,1.4111216263306208,0.007498026891388964,-2.1490694131686583
98,1.9886483602593756,-1.169875107983131,-2.096095852141403,-3.033449325285763,5.756627948279762,-4.879241422327359,-0.12734441181414183,-0.2329528598314537,0.2747633135714073,1.3878903222772725,0.003169007515871297,-2.1971449820952555
99,1.9591508727085607,-1.1691500708363156,-2.103326654003094,-3.019295157998491,5.774420702722458,-4.90849495518537,-0.13532050251130986,-0.22838371232354948,0.27367866920198325,1.3652349153759582,-0.0008435881152361613,-2.2443537588820717
100,1.9302316521388398,-1.168439247274347,-2.1104157036577114,-3.005418468159867,5.791864649071609,-4.93717500353549,-0.14297098447077086,-0.2236126535900864,0.2725999078297775,1.343155317414405,-0.004547050709758293,-2.2906634909644885
101,1.9019082211779148,-1.167743067996822,-2.1173587057343766,-2.99182766388273,5.80894921775544,-4.9652641896683605,-0.15029031966082404,-0.21866687221165265,0.2715283488372406,1.3216513177624971,-0.007949645830103916,-2.336043007981336
102,1.8741973728407402,-1.1670619457697302,-2.124151543714232,-2.9785308031802415,5.825664279301368,-4.992745859453233,-0.15727501956076045,-0.21357332874466772,0.2704653470321597,1.3007226184745977,-0.011060535501219666,-2.380462315057551
103,1.8471151419172571,-1.1663962747221763,-2.130790286944242,-2.9655355802364864,5.842000161594793,-5.019604110713566,-0.16392355355944527,-0.2083585821398253,0.269412284705669,1.280368862802636,-0.013889695727968237,-2.423892682131906
104,1.820676776360127,-1.1657464296431004,-2.1372711976509997,-2.952849311677071,5.8579476671378945,-5.045823821602678,-0.1702362435496378,-0.20304863051373462,0.26837056351907096,1.2605896567966555,-0.016447830760216782,-2.466306728869882
105,1.7948967086724785,-1.1651127652779993,-2.1435907379545345,-2.9404789228397314,5.873498090308417,-5.071390678979366,-0.17621514687991377,-0.1976687671112968,0.267341596286433,1.241384583788061,-0.018746284953211945,-2.507678504820248
106,1.7697885272956295,-1.164495615625649,-2.1497455768821085,-2.928430934044928,5.888643234618465,-5.096291206783549,-0.18186392983812275,-0.1922434520000358,0.26632679871726556,1.2227532116693929,-0.02079695306680935,-2.5479835645925735
107,1.745364947996828,-1.1638952932348243,-2.1557325973820314,-2.9167114468664472,5.903375429973294,-5.12051279441188,-0.1871877338146613,-0.1867961997549516,0.26532758118027255,1.2046950930005955,-0.022612189830474638,-2.587199037947836
108,1.721637785256993,-1.163312088501022,-2.161548903337455,-2.905326130402007,5.917687549930102,-5.144043725093395,-0.19219303623443212,-0.18134948312804447,0.26434534054539005,1.187209758082055,-0.024204719573126976,-2.625303694803279
109,1.6986179236584427,-1.16274626896318,-2.167191826580186,-2.89428020754385,5.931573028956826,-5.166873204265139,-0.19688750825750942,-0.17592465245423985,0.26338145215707176,1.1702967012369556,-0.025587546678887657,-2.662278005252823
110,1.6763152892726243,-1.1621980786004007,-2.1726589339044886,-2.883578441249351,5.945025879690924,-5.188991387947791,-0.2012798711348492,-0.17054187032796686,0.2624372619872274,1.153955360637253,-0.02677386758339963,-2.698104194793866
111,1.6547388210478697,-1.161667737128671,-2.177948034080885,-2.8732251208116173,5.958040710198176,-5.2103894111213,-0.20537975297164296,-0.16522006089416574,0.2615140790114271,1.1381850920876506,-0.027776984972192775,-2.732766295028785
112,1.6338964421971092,-1.1611554392975838,-2.1830571848699654,-2.863224048130083,5.970612741231477,-5.2310594161005195,-0.20919754750181946,-0.15997687293529586,0.2606131678470353,1.1229851372489488,-0.02861022478414679,-2.7662501901740137
113,1.6137950315856209,-1.1606613541870598,-2.1879847000361905,-2.8535785239811178,5.982737823489612,-5.250994580910827,-0.21274427631729065,-0.15482865580258268,0.25973574168695235,1.108354586835648,-0.02928685656126529,-2.798543659760536
114,1.594440395118756,-1.1601856245040687,-2.192729156361695,-2.844291334288627,5.994412454876076,-5.270189147663773,-0.21603145582922018,-0.14979044713501657,0.2588829555576784,1.094292339362491,-0.029820017622155404,-2.829636417947625
115,1.575837237129683,-1.1597283658793498,-2.197289400660094,-2.835364736394645,6.005633797757837,-5.288638450932689,-0.21907097006973847,-0.14487597123288604,0.25805589992553324,1.080797056041081,-0.030222641472285944,-2.8595201498963285
116,1.557989131767119,-1.1592896661641336,-2.2016645567902886,-2.826800445329945,6.016399696224152,-5.306338946128342,-0.22187495027482745,-0.14009764690250792,0.25725559467017656,1.0678671124411372,-0.03050739080051038,-2.8881885456623015
117,1.5408984943830664,-1.158869584726864,-2.205854032670267,-2.8185996200846333,6.026708693345338,-5.323288237874541,-0.22445566202555475,-0.13546660356374424,0.2564829834400867,1.0555005475328372,-0.03068659534965563,-2.915637332069157
118,1.5245665529205468,-1.1584681517499182,-2.2098575272909113,-2.8107628498787562,6.036560048431582,-5.339485108383798,-0.22682540056815298,-0.1309927044097559,0.25573892840043694,1.0436950107171687,-0.030772194889902186,-2.941864303015734
119,1.5089933193013394,-1.1580853675263294,-2.213675037729803,-2.8032901404329014,6.045953754291713,-5.354929545832924,-0.22899639478568756,-0.12668457542707914,0.25502420537989845,1.032447707432647,-0.03077568746810361,-2.966869348654118
120,1.4941775608137018,-1.1577212017565066,-2.2173068661650284,-2.79618090023878,6.054890554492024,-5.369622772738699,-0.23098072015686522,-0.12254963912103022,0.25433949941930695,1.021755343899216,-0.03070808305435894,-2.9906544838520053
121,1.480116771500139,-1.1573755928449572,-2.2207536268889787,-2.7894339268298625,6.063371960615027,-5.383567274333462,-0.232790220912003,-0.11859415184423003,0.25368540072188295,1.0116140715261197,-0.030579862659510924,-3.0132238763236594
122,1.4668071435451058,-1.157048447197008,-2.2240162533221577,-2.783047393051948,6.07140026951827,-5.396766826940771,-0.23443644148303183,-0.11482324369205327,0.25306240100179145,1.002019431470323,-0.03040094295377705,-3.034583874780862
123,1.45424353866275,-1.156739638515525,-2.22709600502699,-2.777018833333778,6.07897858059313,-5.409226526351034,-0.23593056724374678,-0.11124096000574059,0.25247089022525765,0.9929662997876558,-0.03018064637739217,-3.0547430374183846
124,1.4424194594846558,-1.1564490070976379,-2.229994474721619,-2.7713451299576395,6.086110813023581,-5.420952816197117,-0.23728337444834402,-0.10785030360915858,0.25191115373622297,0.9844488335710215,-0.029927676698751494,-3.073712161010622
125,1.4313270209475846,-1.1561763591314582,-2.2327135952937143,-2.7660224993299636,6.09280172304501,-5.431953516329989,-0.23850518919996708,-0.10465327699657992,0.2513833697565749,0.976460418419896,-0.029650099943738118,-3.0915043108569096
126,1.4209569216811868,-1.1559214659928017,-2.23525564681428,-2.761046478251915,6.09905692120301,-5.442237851194367,-0.23960585521583755,-0.10165092378421094,0.2508876072493233,0.9689936175341232,-0.029355330591269383,-3.108134851773799
127,1.411298415395759,-1.155684063541911,-2.237623263551453,-2.756411910190023,6.104882889612146,-5.4518164782043215,-0.24059471010045555,-0.09884336883547286,0.2504238241316602,0.9620401226733944,-0.029050122904103658,-3.123621480294188
128,1.4023392822699616,-1.1554638514201743,-2.239819440984311,-2.7521129315467405,6.110286999214768,-5.4607015161189345,-0.24148056979224625,-0.096229856567404,0.24999186582360378,0.9555907071725783,-0.028740567240099983,-3.137984258196254
129,1.3940658003385895,-1.1552604923468492,-2.2418475428166773,-2.748142957931085,6.1152775270398045,-5.468906573417886,-0.24227172081041068,-0.09380878704135412,0.24959146411682467,0.949635181153042,-0.02843209116665744,3.131939659730138
130,1.3864627168802581,-1.1550736114157825,-2.243711307990928,-2.744494670429212,6.1198636734615395,-5.476446776677143,-0.24297591989635892,-0.09157774953378625,0.2492222363472752,0.9441623490217956,-0.028129465179666076,3.119754760547771
131,1.3795132198051707,-1.1549027953921314,-2.2454148577017907,-2.7411600018750253,6.124055579458425,-5.483338798944541,-0.24360040061636185,-0.08953355337123632,0.24888368485428974,0.9391599693044984,-0.027836812807020446,3.1086189783380234
132,1.3731989090428467,-1.1547475920090862,-2.246962702410152,-2.738130123120783,6.127864343871845,-5.489600888115465,-0.24415188646763653,-0.08767225589589081,0.24857519670788059,0.9346147168148874,-0.02755762485525386,3.0985024260821277
133,1.367499767929866,-1.15460750926459,-2.2483597488568643,-2.735395429307692,6.131302040664931,-5.495252895308411,-0.24463661000751638,-0.08598918750393506,0.24829604368496544,0.9305121471236885,-0.027294777535450544,3.089372661983044
134,1.3623941345975847,-1.1544820147180617,-2.2496113070765453,-2.732945526136513,6.134381736181348,-5.500316303240684,-0.24506033750334155,-0.08447897376666114,0.2480453824741701,0.9268366632531985,-0.0270505541807784,3.0811946472054137
135,1.3578586733598765,-1.1543705347871143,-2.2507230974113925,-2.730769216138148,6.137117506404078,-5.504814254604,-0.2454283985780879,-0.08313555470358322,0.2478222550876194,0.9235714844919147,-0.02682667024228598,3.073930702289143
136,1.3538683461008763,-1.1542724540442804,-2.2517012575249744,-2.7288544849442644,6.139524454214227,-5.508771580440108,-0.24574572030241348,-0.08195220132662007,0.24762558945671637,0.9206986171950409,-0.026624301221565567,3.0675404623307485
137,1.3503963836627317,-1.15418711451373,-2.252552349416046,-2.727188487557875,6.141618726649796,-5.5122148285164485,-0.24601686515689294,-0.08092152961428363,0.24745420018728229,0.9181988274132963,-0.026444113168231333,3.0619808310426846
138,1.3474142572332841,-1.1541138149679933,-2.25328336643235,-2.7257575346239555,6.143417532164497,-5.515172291701749,-0.24624607225794662,-0.08003551210412546,0.24730678944755863,0.9160516151735787,-0.026286295336400447,3.0572059338140045
139,1.344891649733869,-1.154051810224682,-2.2539017402844177,-2.7245470787000254,6.1449391578865225,-5.517674036341699,-0.24643730120680468,-0.07928548731030303,0.2471819479604348,0.9142351902209744,-0.02615059455755923,3.053167069907273
140,1.3427964272070039,-1.1540003104432106,-2.2544153480593776,-2.723541700526777,6.1462029868773485,-5.51975193063452,-0.24659427788243526,-0.07866216718045495,0.24707815606882932,0.9127264490227799,-0.02603635084685831,3.0498126639347958
141,1.3410946102041432,-1.153958480421517,-2.254832519234764,-2.7227250952986406,6.147229515390535,-5.521439673006668,-0.246720541456381,-0.07815564280260548,0.24699378484045234,0.9115009528310534,-0.02594253371619686,3.047088216764353
142,1.3397503451734156,-1.1539254388927849,-2.255162042692316,-2.722080058934422,6.1480403701305,-5.522772820488417,-0.24681949185993135,-0.07775538855826426,0.2469270971751486,0.910532906601471,-0.025867778620220085,3.044936256008852
143,1.338725875847361,-1.1539002578221638,-2.2554131737317746,-2.7215884743478824,6.148658325511317,-5.523788817089493,-0.24689443688196727,-0.07745026489301782,0.24687624887472476,0.9097951385717837,-0.025810422910678515,3.043296286256832
144,1.337981514630643,-1.153881961703491,-2.2555956410847093,-2.7212312977183295,6.149107320915514,-5.524527022174716,-0.24694863801934339,-0.07722851984129792,0.24683928963155738,0.9092590803133792,-0.02576854062053167,3.042104739201651
145,1.3374756139878112,-1.1538695268560142,-2.2557196539283018,-2.720988544761253,6.149412477952868,-5.5250287388396515,-0.24698535414101425,-0.07707778939882905,0.2468141638884505,0.9088947470834818,-0.02573997534186594,3.0412949238265075
146,1.337164537831038,-1.1538618807211098,-2.2557959088991577,-2.7208392769988894,6.149600117719164,-5.525337242286188,-0.24700788196247916,-0.07698509678583576,0.24679871151807894,0.9086707183229041,-0.02572237040133235,3.040796976800461
147,1.3370026329078275,-1.153857901159007,-2.2558355971071187,-2.720761588030843,6.149697778055046,-5.525497808198214,-0.24701959225871833,-0.07693685058843835,0.24679066826602727,0.9085541181632306,-0.0257131954733865,3.040537813237948
148,1.3369422001887568,-1.1538564157455078,-2.2558504111490523,-2.720732589804676,6.149734230804755,-5.52555774111724,-0.2470239606717342,-0.07691884170722346,0.2467876658969247,0.9085105958282931,-0.025709768705694115,3.0404410779719178
149,1.3369334662552586,-1.1538562010687081,-2.2558525521226684,-2.720728398886532,6.149739499074933,-5.525566402818011,-0.24702459189309034,-0.07691623898347676,0.24678723197844116,0.9085043058342716,-0.025709273362335697,3.0404270974879632
