nimar13/UR3e_dataset_trayectorias/data/trayectorias_completas_UR3e_JTRAJ/trayectoria_129.csv
Punto,shoulder_pan_joint,shoulder_lift_joint,elbow_joint,wrist_1_joint,wrist_2_joint,wrist_3_joint,Posicion_X,Posicion_Y,Posicion_Z,Roll,Pitch,Yaw
0,4.658811164126137,0.10580994903735474,-0.30203813467661167,-4.91872993821617,0.2059342279149705,2.5359707100038413,0.2000116136915971,-0.39175213069600434,0.1257381443918787,-2.5875135502383277,0.19457369782185788,-0.13594974972090032
1,4.658802154232388,0.10580354903141857,-0.30204258540720996,-4.9187115416065925,0.20591489777339514,2.535951312707003,0.20000853860772555,-0.3917526148913361,0.12574410236683137,-2.5875237311999784,0.1945565986998525,-0.13594950468213945
2,4.658739812061185,0.10575926546083098,-0.3020733813540547,-4.918584249918591,0.2057811466960588,2.535817096962156,0.1999872604805364,-0.3917559642418541,0.12578532783562865,-2.5875941815283423,0.19443828083348205,-0.1359478180997137
3,4.658572791536572,0.10564062562124057,-0.30215588658444176,-4.918243223545937,0.20542281501345797,2.5354575203917054,0.19993024839890744,-0.39176492934500345,0.12589577855367173,-2.5877829692068923,0.1941212627151463,-0.13594337634853293
4,4.658251886514861,0.10541267686830968,-0.30231440807639537,-4.917587992245631,0.20473433414171635,2.5347666476536745,0.19982068374081435,-0.3917821212571456,0.12610800872180103,-2.5881458788811997,0.1935120230556516,-0.1359351558245558
5,4.657730001268328,0.10504196565136928,-0.30257221029920967,-4.916522394870822,0.20361466325726585,2.533643086896385,0.1996424309732601,-0.3918099870599091,0.12645320060789572,-2.5887365873404997,0.19252083822840768,-0.1359226673270008
6,4.656962120968895,0.10449651654707401,-0.3029515297939905,-4.914954519103732,0.20196722597152755,2.5319899262131362,0.19938000277538787,-0.3918507775887438,0.12696119954844753,-2.589606880056839,0.19106158889323077,-0.1359062728167626
7,4.655905282171838,0.10374581129305713,-0.30347358975419675,-4.912796641188578,0.19969984700559285,2.52971467009689,0.1990185206069375,-0.39190650870294014,0.12766055134945842,-2.590806899015399,0.18905154305740335,-0.13588755967627975
8,4.6545185432994645,0.10276076782158555,-0.3041586146061826,-4.909965165664487,0.19672468886490432,2.5267291758949493,0.1985436718088527,-0.3919789173599921,0.1285785410072404,-2.5923854117117777,0.18641112305536045,-0.13586975786561262
9,4.652762955124819,0.10151371929321476,-0.30502584458973875,-4.906380565098423,0.19295818851393678,2.522949590263639,0.19794166429161944,-0.3920694136411431,0.12974123156490122,-2.594390090812011,0.1830636641461736,-0.1358581856305738
10,4.650601531255369,0.09997839313044385,-0.3060935503386343,-4.901967319818102,0.18832099405087824,2.5182962856229887,0.1971991798380252,-0.39217902975901653,0.13117350181802764,-2.5968677936354942,0.1789351725811579,-0.13586070973618217
11,4.647999218616696,0.09812989005137046,-0.30737904746115813,-4.89665385764492,0.18273790138231102,2.5126937966114133,0.19630332701952402,-0.392308366961762,0.13289908148988747,-2.599864830385427,0.17395409103149886,-0.1358882066314831
12,4.644922867936197,0.09594466310334585,-0.3088987111206612,-4.890372493626871,0.17613779089789267,2.5060707565403937,0.19524159469884766,-0.39245754113026105,0.13494058241741214,-2.6034272099619598,0.16805107914594852,-0.13595501155400366
13,4.641341204226769,0.0934004966966297,-0.3106679906160976,-4.883059369771464,0.16845356414503693,2.4983598338491575,0.19400180706620201,-0.3926261277447403,0.13731952422811528,-2.6076008522861946,0.16115881670003515,-0.13607934340254219
14,4.637224797270506,0.09047648563804533,-0.3127014239625665,-4.87465439477865,0.15962208050359486,2.4894976685593626,0.19257208113325283,-0.3928131067737884,0.14005635294790617,-2.6124317563654325,0.153211836281256,-0.136283694288595
15,4.632546032102391,0.08715301416463452,-0.31501265247185384,-4.8651011837737395,0.14958409386053578,2.479424808729774,0.19094078758969082,-0.3930168079117725,0.14317045096290115,-2.617966113857926,0.1441463917229262,-0.13659517405611774
16,4.627279079493986,0.08341173497731252,-0.317614435332974,-4.854346998040325,0.13828418928462816,2.4680856469109504,0.18909651591367013,-0.3932348564599806,0.14668013676700253,-2.624250358653042,0.13390036756022,-0.13704580176554337
17,4.621399866437131,0.07923554827452307,-0.3205186641927114,-4.8423426847531985,0.1256707197011209,2.45542835659992,0.18702804462268585,-0.39346412001308945,0.15060265296336747,-2.6313311439597906,0.12241323365740653,-0.13767273819052986
18,4.614886046627634,0.07460858078589341,-0.32373637773616226,-4.82904261671128,0.11169574256642405,2.441404828694866,0.1847243175588147,-0.3937006559773523,0.15495414105432115,-2.6392552395647098,0.10962604788142553,-0.13851845578400346
19,4.607716970948958,0.0695161648058891,-0.3272777762672763,-4.814404632070529,0.09631495654278988,2.4259706079498042,0.18217442712547022,-0.39393965981280926,0.15974960165344426,-2.6480693432292255,0.09548150832315046,-0.13963084533060424
20,4.599873657955925,0.0639448172274693,-0.33115223628939827,-4.7983899740768745,0.0794876381729942,2.409084829429267,0.17936760543597668,-0.3941754137627824,0.16500283888860828,-2.657819801571893,0.07992405515470365,-0.1410632616004926
21,4.5913387643584,0.05788221857574141,-0.3353683250858097,-4.780963230799128,0.06117657855501679,2.3907101549629832,0.17629322440122458,-0.39440123571539365,0.17072638793909412,-2.6685522371187513,0.06290002082870533,-0.14287451372935953
22,4.582096555504988,0.051317192041616305,-0.3399338153002709,-4.762092274861911,0.04134802001672283,2.3708127096005582,0.17294080587819163,-0.39460942774091484,0.17693142486740787,-2.680311079371211,0.04435782604864197,-0.14512880973953504
23,4.572132875866724,0.04423968251546327,-0.34485569951756195,-4.74174820317857,0.019971592790543946,2.3493620180661576,0.16930004312584757,-0.3947912237744802,0.1836276581709537,-2.6931389985683616,0.024248217845898774,-0.14789566855777023
24,4.5614351195207705,0.036640735620764836,-0.350140204844025,-4.719905276684106,-0.0029797483118411683,2.326330941213187,0.16536083497144535,-0.39493673587684436,0.19082320179418605,-2.7070762411088443,0.002524545264076226,-0.15124981706027454
25,4.5499922006341045,0.028512476747771964,-0.3557928074881058,-4.696540860068082,-0.027529787224825575,2.301695612478971,0.16111333427786217,-0.3950348985192625,0.19852442971173853,-2.7221598651097927,-0.020856932354345534,-0.1552710940994212
26,4.537794523947215,0.019848090087158987,-0.36181824734089507,-4.67163536150756,-0.053699109954192636,2.2754353743394393,0.15654801251822173,-0.3950734104166211,0.20673581262004054,-2.7384228730407743,-0.045936709596160905,-0.16004438820631575
27,4.524833955257795,0.010641797663678398,-0.3682205425566706,-4.6451721724000095,-0.08150516790243584,2.2475327147638033,0.1516557425008312,-0.39503867359139433,0.21545973776061378,-2.755893235453041,-0.07275167649969758,-0.16565964086730076
28,4.511103791904431,0.0008888383698160279,-0.3750030041334387,-4.617137607096234,-0.11096234119407733,2.2179732036692394,0.1464279015345567,-0.3949157296063564,0.22469631344245966,-2.7745927951352014,-0.10133474131012178,-0.17221195320608912
29,4.496598733250301,-0.009414553000553855,-0.3821682504934758,-4.587520842633291,-0.14208200200098647,2.186745429375569,0.140856497566206,-0.394688193272595,0.23444316043136312,-2.794536034070212,-0.13171443700999105,-0.17980184099668522
30,4.481314851166863,-0.020271166718513894,-0.3897182220638705,-4.556313858467413,-0.17487257786769989,2.153840935059942,0.13493432103577896,-0.3943381846362904,0.24469519302551096,-2.8157286756937325,-0.16391451214771635,-0.18853569184365157
31,4.465249560517551,-0.031682839086448505,-0.39765419585706485,-4.523511376206927,-0.2093396150367398,2.119254155211514,0.12865512535504403,-0.39384626068526746,0.25544439333126506,-2.8381660812631524,-0.19795350374828724,-0.19852649007137896
32,4.448401589641465,-0.043650473404388684,-0.405976800051396,-4.48911079934518,-0.2454858417739325,2.082982352086132,0.12201383898605984,-0.39319134900221603,0.26667958297828503,-2.861831380359666,-0.23384428648224784,-0.20989489078768686
33,4.430770950837068,-0.05617406093635746,-0.41468602857163855,-4.453112152993454,-0.28331123169372874,2.045025552161012,0.11500681203944674,-0.39235068652689176,0.27838619725342584,-2.8866932497856586,-0.2715935875454901,-0.22277074680355569
34,4.412358910845872,-0.0692527018767145,-0.4237812556695452,-4.415518023613891,-0.3228130670845216,2.0053864825894205,0.1076321000827336,-0.3912997676668307,0.29054606736761085,-2.912703219583378,-0.3112014504670286,-0.23729522363549246
35,4.39316796133614,-0.08288462631650126,-0.43326125050438935,-4.3763334987524125,-0.3639860022339656,1.964070507655359,0.09988978739877458,-0.39001230719630553,0.3031372172744607,-2.9397923353449826,-0.3526606226767192,-0.253623683179759
36,4.37320178938657,-0.09706721520978623,-0.4431241917235061,-4.3355661067716404,-0.4068221267542964,1.921085565228241,0.09178235121338288,-0.38846022467413627,0.31613368210489806,-2.9678669359136802,-0.39595583010877117,-0.2719295825639597
37,4.352465247969995,-0.11179702134000968,-0.4533676820428346,-4.293225756583818,-0.4513110289076492,1.8764421032175744,0.08331506737199064,-0.386613658444851,0.3295053558353997,-2.996803204944883,-0.4410628857550037,-0.2924097314131142
38,4.330964326437071,-0.12706979028632864,-0.46398876282745893,-4.249324677383733,-0.49743985893137754,1.8301530160276447,0.07449645654470283,-0.38444101860011365,0.34321787623311845,-3.026440007899956,-0.48794755527943745,-0.3152913941972427
39,4.308706120999971,-0.14288048138996193,-0.47498392867215045,-4.203877358381636,-0.5451933923633723,1.7822335810121939,0.06533876824504253,-0.3819090894863131,0.3572325553806161,-3.0565693080560363,-0.5365640672699664,-0.3408419394132439
40,4.28569880521608,-0.1592232887205356,-0.48634914198190926,-4.15690048853616,-0.5945540933673822,1.732701394929101,0.0558584977426594,-0.3789831933508672,0.3715063641376068,-3.0869231263473305,-0.5868531013332265,-0.3693820638615937
41,4.261951600471685,-0.17609166204242754,-0.49807984755250573,-4.108412896287247,-0.6455021780583305,1.681576310395066,0.04607692833781205,-0.3756274274101178,0.3859919787089369,-3.117155506224959,-0.6387390020850484,-0.4013041223201908
42,4.2374747464656695,-0.1934783277811123,-0.5101709871510223,-4.058435489289063,-0.6980156778276358,1.6288803723402892,0.0360206884756305,-0.37180498687017227,0.4006378970219677,3.136368145172416,-0.6921258306497521,-0.43709787470768013
43,4.212279471693207,-0.2113753099895067,-0.5226170140963954,-4.006991194142923,-0.7520705026685298,1.5746377544631516,0.025722309872876506,-0.3674785861070243,0.4153886318426572,3.1078660495137367,-0.7468916416914696,-0.47738719404237434
44,4.186377963929452,-0.22977395131431455,-0.5354119078399566,-3.954104896130209,-0.8076405045013775,1.5188746956848975,0.015220769307223691,-0.36261098918323365,0.4301849864555269,3.081304497775085,-0.8028799993311359,-0.5229832323208307
45,4.1597833407132345,-0.2486649339623711,-0.5485491885459746,-3.899803378945295,-0.864697540498994,1.4616194366043167,0.004561993116136658,-0.3571656590251954,0.4449644172859895,3.057734200567653,-0.8598871038140219,-0.5749626408869677
46,4.132509619830751,-0.2680383006669892,-0.562021931672197,-3.844115264428462,-0.9232115364119673,1.402902155952422,-0.0062007000539029515,-0.3511075318084401,0.4596614860541313,3.038591591619072,-0.9176417812013247,-0.6347842731036574
47,4.1045716897992595,-0.28788347565430367,-0.5758227825503919,-3.787070952298826,-0.983150549893973,1.3427549070471332,-0.017006245902212322,-0.3444039193323426,0.4742084019315198,3.025873779728696,-0.9757736080825655,-0.7044649011810736
48,4.0759852803507695,-0.308189285609616,-0.5899439709668894,-3.728702559887252,-1.0444808338270966,1.2812115542479576,-0.027785600824275093,-0.33702553738923463,0.4885356517577962,3.0224017075237177,-1.0337609416687696,-0.7868431931926396
49,4.04676693291574,-0.32894398064374,-0.6043773257431235,-3.669043861869281,-1.1071668996471502,1.2183077094106716,-0.03846166005820792,-0.32894765238259394,0.5025727137099197,3.032204515112818,-1.0908446348235492,-0.885964944746286
50,4.016933971106766,-0.3501352552593466,-0.6191142893161738,-3.6081302299980464,-1.1711715806689944,1.154080668342,-0.048949360428560594,-0.32015133182886135,0.5162488469702495,3.0610276201698516,-1.1458841651152996,-1.0075920746748481
51,3.9865044712022772,-0.3717502693173084,-0.634145932319307,-3.545998572837198,-1.236456095411852,1.0885693472543,-0.059155999806953435,-0.31062477706692765,0.5294939469936468,3.1167986640903482,-1.1971249888824105,-1.1596695335685332
52,3.955497232630225,-0.3937756690030456,-0.6494629681625186,-3.4826872754938227,-1.3029801109246337,1.0218142192202397,-0.06898180309709885,-0.30036470875726196,0.5422394530280739,-3.0738938582922994,-1.2418661760682685,-1.3519902501473853
53,3.923931748451781,-0.4161976077928704,-0.6650557676130746,-3.4182361393513614,-1.3707018061112524,0.9538572506274803,-0.07832076040968695,-0.28937776791573083,0.5544192917103873,-2.9363659809407308,-1.2761634743022674,-1.5928895780766716
54,3.891828175845027,-0.4390017674203319,-0.6809143733760536,-3.352686321802536,-1.4395779350559434,0.8847418376333578,-0.08706175699179478,-0.27768188770293906,0.5659708379616248,-2.7561708978855193,-1.295133170382205,-1.8800256154749895
55,3.8592073065886465,-0.4621733788425617,-0.6970285146748876,-3.286080275982267,-1.509563890348585,0.8145127426195631,-0.09509000638046959,-0.2653075844427707,0.5768358721710266,-2.55688256559469,-1.2947377410114136,-2.1898555330137044
56,3.8260905375456207,-0.48569724320661833,-0.7133876218319044,-3.218461690500594,-1.5806137664100142,0.7432160306468241,-0.10228878823852239,-0.25229911087426965,0.5869615109115808,-2.37603872672088,-1.2743623174993948,-2.4848790687423876
57,3.7924998411469204,-0.509557752815832,-0.7299808408488689,-3.1498754291756,-1.6526804228173473,0.6708990059095867,-0.10854148060770123,-0.23871541095857868,0.5963010872908596,-2.239922135356847,-1.2371362454849337,-2.738858565337526
58,3.758457735875197,-0.5337389120961513,-0.7467970479875256,-3.0803674707663276,-1.7257155476293016,0.5976101481906955,-0.11373386322163478,-0.22463081415340827,0.6048149566141251,-2.153129742146651,-1.187589543000772,-2.9472510943717314
59,3.7239872567484786,-0.558224358562486,-0.7638248643501384,-3.0099848487057033,-1.7996697207115107,0.5233990493160738,-0.11775665453500778,-0.21013540835778527,0.61247120340609,-2.108061162023996,-1.129640599869181,-3.1177213356768014
60,3.6891119258038585,-0.5829973837850536,-0.7810526704600348,-2.9387755908334587,-1.874492477061843,0.44831634960940736,-0.12050823084821119,-0.19533503504870117,0.619246227059951,-2.094870496975783,-1.0660762661790955,3.0229941842353734
61,3.653855722581193,-0.6080409543557237,-0.7984686208421453,-2.866788659129048,-1.950132370135726,0.37241367434682404,-0.12189746204392335,-0.18035085767442313,0.6251251854811769,-2.1053784257860224,-0.9987636132713422,2.900256590506052
62,3.6182430546067903,-0.6333377328543637,-0.8160606586035467,-2.7940738894445714,-2.026537035171461,0.29574357021157427,-0.12184658578163943,-0.16531846516723364,0.6301022790556599,-2.1336231545331286,-0.9289629137191902,2.7911861380786456
63,3.582298727877106,-0.6588700988151818,-0.8338165300140027,-2.720681931237701,-2.103653252515538,0.21835944174871535,-0.12029403132677251,-0.15038648633275783,0.6341808610439282,-2.1754331639149913,-0.8575602415618485,2.691492523847219
64,3.5460479173424337,-0.6846201696930749,-0.8517237990865061,-2.64666418730459,-2.1814270109479663,0.14031548781978742,-0.11719709631318129,-0.13571470750295103,0.6373733649913818,-2.227908969866192,-0.7852149253099355,2.5981409457276907
65,3.509516137390601,-0.7105698218299719,-0.8697698621578205,-2.572072753512806,-2.2598035710075814,0.06166663805750039,-0.11253437537054013,-0.12147170464165041,0.6397010448160513,-2.289021864880846,-0.7124492771469148,2.508950157483301
66,3.472729212330658,-0.7367007114211792,-0.8879419624690221,-2.496960358534241,-2.338727528317375,-0.0175315106795928,-0.10630783928311993,-0.10783202131320518,0.6411935287220893,-2.3573369556042514,-0.639703337090864,2.4223153126849377
67,3.4357132468765745,-0.7629942954817246,-0.9062272047460405,-2.4213803035780437,-2.4181428769098017,-0.09722275785240386,-0.09854446759837966,-0.09497294465485628,0.6418881937917708,-2.4318282433926863,-0.5673689722837362,2.337023573137177
68,3.39849459663093,-0.7894318528127044,-0.9246125697802015,-2.3453864021235296,-2.4979930725521093,-0.17735036278663863,-0.0892973465643992,-0.08307095170553629,0.641829373812835,-2.5117553431060027,-0.49581171178198646,2.252132376002067
69,3.361099838568608,-0.8159945049676263,-0.9430849290087683,-2.2690329196531094,-2.578221096071652,-0.25785710821810826,-0.07864615788223286,-0.07229791705156978,0.6410674183719336,-2.596580070808531,-0.4253851112963563,2.166888970391918
70,3.3235557415204875,-0.8426632372187564,-0.9616310590954831,-2.1923745133852073,-2.65876951668121,-0.3386853638380556,-0.06669700167891349,-0.06281718867294257,0.6396576262588825,-2.685908479988111,-0.35644037127326217,2.080677269745522
71,3.2858892366571375,-0.8694189195234625,-0.9802376565111088,-2.115466172007181,-2.73958055530431,-0.41977714983846415,-0.05358151873460266,-0.05477965110754844,0.6376590805617849,-2.7794489775801936,-0.28933272914452435,1.9929831985160542
72,3.2481273879725094,-0.8962423274905595,-0.9988913521139707,-2.0383631554082458,-2.820596147900541,-0.5010742004573885,-0.03945530147788531,-0.04831990273512422,0.6351334162942878,-2.8769804051929166,-0.2244254266301742,1.9033730192838385
73,3.2102973627676286,-0.9231141633466566,-1.0175787257304991,-1.9611209344123912,-2.901758008790879,-0.582518027524265,-0.024495609529041385,-0.04355267646616319,0.6321435538210577,-2.9783260450999243,-0.162091601945751,1.8114811931649322
74,3.1724264021342896,-0.9500150769024978,-1.0362863207357684,-1.8837951305113076,-2.9830076939829997,-0.6640499840052287,-0.008898432398488431,-0.04056963001404726,0.628752432616772,-3.083330873672391,-0.10271416199868293,1.7170055722819417
75,3.1345417914387474,-0.9769256865193108,-1.055000658634041,-1.8064414555973016,-3.0642866644966,-0.7456113275484411,0.007125031974302096,-0.039436623139538565,0.6250217799380163,3.0913449496551486,-0.046683497820350986,1.6197084063657867
76,3.0966708308054076,-1.0038266000751528,-1.0737082536393108,-1.7291156516962145,-3.145536349688723,-0.8271432840294075,0.02335239014656654,-0.040191585010747384,0.6210109477915299,2.9795054243077046,0.005607198936899017,1.5194219137123341
77,3.0588408056005263,-1.0306984359312499,-1.0923956272558386,-1.6518734307003609,-3.22669821057906,-0.9085871110962822,0.03955444417304107,-0.042843055657088853,0.6167758491872035,2.864550647193176,0.05376927214785662,1.4160571077633581
78,3.0210789569158996,-1.0575218438983462,-1.1110493228587004,-1.574770414101427,-3.3077138031752904,-0.9898841617152048,0.05549983100595121,-0.04736946223926602,0.6123680211656957,2.7467545944006364,0.09742874033964297,1.309614260099664
79,2.9834124520525487,-1.0842775262030528,-1.1296559202743266,-1.4978620727233993,-3.388524841798392,-1.070975947715615,0.07095976961175932,-0.05371916457883168,0.6078338376339367,2.6264669802812812,0.13623914921238273,1.2001929245126766
80,2.9458683550044285,-1.1109462584541818,-1.148202050361041,-1.421203666455499,-3.4690732624079486,-1.1518042033355602,0.08571276998716057,-0.06181127634085318,0.6032138898153588,2.504125333939783,0.16989666751164414,1.0879990128597934
81,2.9084735969421063,-1.1375089106091045,-1.166674409589608,-1.3448501839850788,-3.549301285927492,-1.232310948767032,0.09954915926786279,-0.07153723979753368,0.5985425463465855,2.3802602591155138,0.1981564702147262,0.9733462343769467
82,2.871254946696462,-1.1639464679400846,-1.185059774623769,-1.2688562825305638,-3.6291514815697985,-1.3124385537012673,0.11227528722141572,-0.08276310459793505,0.5938476989713809,2.2554917605794773,0.22084895166104415,0.8566495368653968
83,2.834238981242378,-1.1902400520006293,-1.2033450169007873,-1.1932762275743656,-3.7085668301622254,-1.3921298008740752,0.12371728621218235,-0.09533243574706535,0.5891506936478523,2.1305154448426182,0.23789393670738673,0.7384091862839368
84,2.7974520561824345,-1.2163709415918365,-1.2215171172119885,-1.1181638325958012,-3.78749078747202,-1.4713279496111689,0.13372427853362084,-0.10906975423458777,0.5844664409447408,2.0060789720451617,0.2493109693151081,0.6191857438949319
85,2.7609202762306024,-1.2423205937287336,-1.2395631802833034,-1.0435723988040166,-3.8658673475316343,-1.5499767993734572,0.14217094587765053,-0.12378439641981426,0.5798036940897753,1.8829510103510743,0.25522406704984535,0.4995681141465449
86,2.7246694656959303,-1.2680706646066269,-1.2574704493558069,-0.9695546548709064,-3.943641105964063,-1.628020753302387,0.14895940051836964,-0.1392746660854048,0.5751654781534211,1.761886564150994,0.2558600343118759,0.3801384859133382
87,2.6887251389662463,-1.293603030567445,-1.2752263207662629,-0.8961626966640353,-4.020757323308142,-1.7054048817652436,0.15402032427435605,-0.15533214643276583,0.5705496497747891,1.6435933474849576,0.2515403816782944,0.26143881156642657
88,2.653112470991844,-1.3188998090660848,-1.2928183585276645,-0.8234479269795596,-4.097161988343875,-1.7820749859004952,0.15731336818605632,-0.17174603831487853,0.5659495636900406,1.528703552317951,0.24266785589103473,0.1439431619501581
89,2.617856267769179,-1.3439433796367557,-1.310234308909774,-0.751460995275151,-4.172801881417757,-1.8579776611630763,0.15882683184460947,-0.18830739549315884,0.5613548201870023,1.4177540355620035,0.22970929109629848,0.02803897921588679
90,2.5829809368245584,-1.3687164048593226,-1.3274621150196708,-0.6802517374029051,-4.24762463776809,-1.9330603608697423,0.15857666528565442,-0.20481313719482802,0.5567520665140728,1.3111760944435358,0.21317678889629488,-0.08598160100100169
91,2.548510457697839,-1.3932018513256583,-1.3444899313822845,-0.6098691153422795,-4.321578810850299,-2.0072714597443664,0.1566048573338828,-0.22106973203380362,0.5521258252002149,1.2092942114705516,0.19360911091333766,-0.19792097733313194
92,2.5144683524261158,-1.4173830106059762,-1.3613061385209404,-0.5403611569330078,-4.394613935662254,-2.080560317463256,0.1529772914826564,-0.2368964645603484,0.5474593231355215,1.1123318828039983,0.17155473661613493,-0.30766775650289063
93,2.480877656027415,-1.441243520215191,-1.3778993575379057,-0.47177489560801256,-4.466680592069589,-2.1528773422004974,0.1477811632924276,-0.2521282153250932,0.542735297019644,1.02042207570074,0.14755747199854316,-0.4151833547746104
94,2.4477608869843905,-1.4647673845792473,-1.3942584646949223,-0.404156310126341,-4.5377304681310155,-2.2241740541732327,0.1411220616214672,-0.26661770633234255,0.5379367532789214,0.9336199139896524,0.12214494796295565,-0.5204859811449803
95,2.415140017728011,-1.4879389960014757,-1.410372605993755,-0.33755026430607415,-4.607716423423656,-2.2944031491870227,0.13312081974237985,-0.28023718507792256,0.5330476636301626,0.8519156463980296,0.09581992096845877,-0.6236340350879543
96,2.383036445121255,-1.5107431556289392,-1.4262312117567353,-0.272000446757243,-4.6765925523683505,-2.3635185621811523,0.1239102417581705,-0.2928795410487891,0.5280535809645669,0.7752465738360527,0.06905401916105718,-0.7247103728600202
97,2.3514709609428124,-1.5331650944187643,-1.4418240112072906,-0.20754931061478388,-4.744314247554969,-2.4314755307739127,0.11363180512052809,-0.3044588677518931,0.5229421639692295,0.7035072192973583,0.04228345409436513,-0.8238083369456229
98,2.320463722370759,-1.5551904941045005,-1.4571410470505026,-0.1442380132714085,-4.810838263067748,-2.4982306588079712,0.10243243203565532,-0.3149105003374516,0.5177036027303282,0.6365575185296019,0.015906206420989007,-0.9210199983242883
99,2.2900342224662698,-1.5768055081624621,-1.472172690053636,-0.0821063561105646,-4.87612277781061,-2.5637419798956724,0.09046141179492692,-0.3241905731611944,0.5123309413169037,0.5742291582255642,-0.009719746607509136,-1.0164267574130645
100,2.260201260657297,-1.5979967827780688,-1.486909653626686,-0.0211927242393255,-4.940127458832452,-2.6279690209643434,0.07786754332639359,-0.33227515285178955,0.5068202968902903,0.5163303990658912,-0.034277498137310236,-1.1100922706415481
101,2.2309829132222676,-1.6187514778121925,-1.5013430084029205,0.03846597377864569,-5.002813524652503,-2.6908728658016283,0.0647965532819517,-0.33915901045741137,0.5011709781069328,0.46264981901261915,-0.05749180285497372,-1.2020575807241631
102,2.2023965037737776,-1.6390572877675056,-1.5154641968194178,0.0968343661902189,-5.064143808585629,-2.7524162186008034,0.051388830480336815,-0.34485410105436093,0.4953855083921887,0.4129594261471682,-0.07912932130672101,-1.2923382923793931
103,2.174458573742287,-1.6589024627548183,-1.5292650476976122,0.15387867831985247,-5.12408282206763,-2.812563467506095,0.03777750318295551,-0.3493878209758367,0.4894695619967839,0.3670175445508686,-0.0989985619876797,-1.380923620422432
104,2.1471848528598025,-1.6782758294594369,-1.5427377908238347,0.20956679283668578,-5.182596817980605,-2.871280748157986,0.02408687206360138,-0.3528011118476325,0.48343182256973277,0.32457179066743896,-0.11694950311924499,-1.467777122707574
105,2.120590229643586,-1.697166812107493,-1.5558750715298526,0.26386831002159994,-5.239653853978221,-2.9285360072385664,0.010431199312671408,-0.35514647727898546,0.47728377528061694,0.28536234710676794,-0.13287283759853288,-1.5528389057447134
106,2.0946887218798302,-1.7155654534323017,-1.568669965273414,0.3167546080343122,-5.295223855811069,-2.9842990660168205,-0.0030861565575841673,-0.3564859727899074,0.4710394443117233,0.24912562019123458,-0.14669877050760954,-1.6360290547981544
107,2.069493447107366,-1.7334624356406976,-1.5811159922187885,0.3681989031804562,-5.349278680651969,-3.038541683893964,-0.01637327973577904,-0.3568892228288762,0.46471508784782317,0.2155982505297343,-0.15839530674023747,-1.7172519989252832
108,2.0450165931013533,-1.7508491013793797,-1.5932071318173042,0.4181763101786373,-5.401792180421267,-3.0912376219487356,-0.02934993668993101,-0.3564315110157049,0.4583288625647847,0.18452134576662782,-0.1679659925858684,-1.7964014849634942
109,2.0212693883569575,-1.7677174747012727,-1.6049378373879009,0.46666390242755185,-5.452740265112221,-3.1423627064827677,-0.041947548316123635,-0.3551919814795005,0.4519004691159887,0.15564473268750592,-0.1754471135497675,-1.8733658139533125
110,1.9982620725730662,-1.7840602820318483,-1.6163030506976597,0.5136407722730283,-5.502100966116234,-3.1918948925658626,-0.05410893011785661,-0.353251980755155,0.4454507893032001,0.128730989529038,-0.18090439418478083,-1.9480329974621622
111,1.9760038671359652,-1.7998709731354814,-1.6272982165423509,0.5590880912751253,-5.54985449954822,-3.239814327581314,-0.0657878376256248,-0.3506935615025102,0.43900152456508734,0.10355902068248035,-0.18442928702116798,-2.020295523458628
112,1.9545029456030392,-1.8151437420818008,-1.6379192973269765,0.6029891704752153,-5.595983329571957,-3.286103414771244,-0.07694835451229094,-0.3475981616053847,0.4325748441913864,0.0799269711307285,-0.18613497055385753,-2.090054479663635
113,1.933766404186466,-1.829873548212022,-1.648162787646303,0.6453295206630365,-5.6404722317253,-3.330746876781909,-0.0875641598318038,-0.3440454652111285,0.42619305033984023,0.05765433801073561,-0.18615219638912275,-2.1572228593831646
114,1.9138002322368983,-1.8440561371053072,-1.6580257288654199,0.6860969126438086,-5.683308356245635,-3.3737318192090306,-0.09761770875224156,-0.34011244613694697,0.4198782655575081,0.03658320975476551,-0.1846251312741363,-2.2217279601949014
115,1.894609282727167,-1.8576880615450944,-1.6675057237002644,0.7252814375052843,-5.724481291395079,-3.415047794143092,-0.10709935831687008,-0.33587258888651667,0.4136521471418569,0.016578637046038517,-0.18170733153267052,-2.28351286835537
116,1.8761972427359712,-1.8707667024854522,-1.6766009507981714,0.7628755668848513,-5.763983126785869,-3.4546868637146773,-0.1160064663871467,-0.33139527832338656,0.4075356313655857,-0.002471795997903106,-0.17755796808685786,-2.342537091986273
117,1.8585666039315694,-1.8832902900174218,-1.6853101793184146,0.7988742132365729,-5.801808516705669,-3.4926436636398,-0.12434248821767402,-0.3267453458234487,0.401548709369445,-0.020659084246729898,-0.17233839360028347,-2.3987764578589017
118,1.8417186330554856,-1.8952579243353607,-1.6936327835127445,0.8332747900983222,-5.837954743442867,-3.5289154667651843,-0.13211609127780594,-0.3219827574264961,0.3957102354269926,-0.03805445291884546,-0.1662091134544994,-2.452222417622797
119,1.8256533424061754,-1.9066695967032934,-1.701568757305938,0.8660772723587975,-5.872421780611897,-3.5635022466136057,-0.13934030513030868,-0.31716242804753725,0.3900377673235003,-0.054711393284620734,-0.15932719294380712,-2.5028809207122387
120,1.8103694603227343,-1.9175262104212556,-1.7091187288763345,0.8972842565246815,-5.90521235647861,-3.596406740929236,-0.14603171953485397,-0.3123341450935639,0.38454743777926986,-0.0706679335690373,-0.15184410700682088,-2.550771006387523
121,1.7958644016686076,-1.9278296017916268,-1.7162839752363732,0.926901020987632,-5.936332017285525,-3.6276345152229155,-0.15220974056231992,-0.3075425847515163,0.37925385518935206,-0.08594901233305254,-0.1439040176915686,-2.5959232510818366
122,1.7821342383152423,-1.9375825610854878,-1.7230664368131405,0.954935586291402,-5.965789190577158,-3.657194026317473,-0.15789591145419682,-0.3028274046545224,0.3741700314450603,-0.1005688443978281,-0.13564244904494505,-2.63837818420362
123,1.7691736696258218,-1.9467888535089695,-1.7294687320289164,0.9813987753989508,-5.993595248525408,-3.685096685893111,-0.16311330228198656,-0.2982233974847746,0.36930733424070095,-0.11453319450630985,-0.1271853190957849,-2.6781847599398008
124,1.7569759929389335,-1.9554532401695819,-1.7354941718817036,1.0063042739594827,-6.019764571254778,-3.7113569240326463,-0.16788597017359877,-0.29376069122711035,0.36467546104061377,-0.12784149834584307,-0.11864828340012072,-2.71539894756828
125,1.7455330740522683,-1.9635814990425735,-1.7411467745257836,1.0296686905755017,-6.044314610167759,-3.735992252766856,-0.17223848997659086,-0.2894649831519453,0.360282431773185,-0.14048879230290573,-0.11013634329571712,-2.750082480381956
126,1.7348353177063114,-1.9711804459372746,-1.7464312798522492,1.0515116170699663,-6.06726595127014,-3.7590233296198328,-0.1761955537060125,-0.28535779609562606,0.35613459731455405,-0.15246743135545787,-0.10174367355786802,-2.782301784645515
127,1.724871638068052,-1.9782579554634263,-1.7513531640695392,1.071855688753292,-6.08864237849632,-3.780474021154223,-0.17978163595008204,-0.2814567471491816,0.352236660908601,-0.16376858854016285,-0.09355362761133881,-2.81212709539429
128,1.7156294292146352,-1.9848229819975507,-1.7559186542840015,1.0907266446905304,-6.10847093703462,-3.800371466516662,-0.18302072154465432,-0.2777758204042127,0.3485917098248327,-0.17438353966968337,-0.08563888303240157,-2.839631755170517
129,1.7070945356171112,-1.9908855806492798,-1.7601347430804113,1.1081533879682688,-6.126781996652599,-3.8187461409829346,-0.1859360912371007,-0.2743256368913554,0.345201254765681,-0.18430474391928955,-0.07806169514067911,-2.864891684504942
130,1.699251222624083,-1.9964569282276954,-1.7640092031025327,1.1241680459619268,-6.143609315022377,-3.8356319195034665,-0.18855016069972697,-0.271113716247174,0.34206527478370735,-0.19352673517642613,-0.07087423157659402,-2.8879850084862357
131,1.6920821469454044,-2.0015493442077026,-1.7675506016336469,1.1388060306026766,-6.158990101046025,-3.8510661402485376,-0.19088436807943024,-0.26814472593525585,0.3391822657431434,-0.20204684128539338,-0.06411896557903654,-2.9089918214883865
132,1.6855683271359059,-2.006176311696336,-1.7707683151771016,1.1521060986445981,-6.172965078180726,-3.8650896681535976,-0.19295910524366677,-0.2654207150098828,0.33654929064584466,-0.2098657490976954,-0.05782911003435885,-2.9279940714693558
133,1.6796891140790446,-2.0103524983991217,-1.7736725440368373,1.1641104119317198,-6.185578547764233,-3.8777469584646305,-0.19479368796494595,-0.26294133043722995,0.33416203042754744,-0.21698793304250738,-0.05202907816499052,-2.945075545716047
134,1.67442216147065,-2.014093777586442,-1.7762743268979557,1.174864597665131,-6.196878452340132,-3.8890861202834337,-0.19640636044298532,-0.26070401487581246,0.3320148341064898,-0.2234219641409415,-0.046734959933802375,-2.960321941085008
135,1.6697433963025343,-2.0174172490598514,-1.7785855554072425,1.1844178086700445,-6.206916438983188,-3.8991589801130253,-0.19781432976592445,-0.25870418556512936,0.3301007674243328,-0.22918071528951972,-0.04195500586584122,-2.9738210033654564
136,1.6656269893462703,-2.0203412601184385,-1.7806189887537114,1.1928227836628515,-6.215747922624625,-3.908021145402831,-0.1990338261340812,-0.2569353945830114,0.3284116593520074,-0.23428147743074298,-0.037690112066978754,-2.985662722132869
137,1.662045325636841,-2.022885426525155,-1.7823882682491492,1.2001359075182698,-6.223432149377483,-3.915732068094055,-0.20008018489169496,-0.25538947121285793,0.3269381460352607,-0.23874600004453642,-0.03393430179386967,-2.995939569202836
138,1.6589689749563465,-2.0250706534731786,-1.7839079319086517,1.2064172715363135,-6.23003225986191,-3.922355108165082,-0.20096794661733317,-0.25405664751887685,0.3256697119220344,-0.24260046830995619,-0.030675200051336327,-3.0047467704176154
139,1.6563666623176712,-2.026919156552253,-1.7851934290311755,1.211730733709505,-6.235615352530469,-3.9279575971766683,-0.20171097170093566,-0.2529256684671195,0.32459472794367217,-0.24587542833992374,-0.02789449841012138,-3.0121826019302986
140,1.6542052384482222,-2.028454482715025,-1.7862611347800703,1.216143978989816,-6.240252546993534,-3.9326109018173163,-0.20232256597656534,-0.2519838880604983,0.32370048671279417,-0.24860567109722273,-0.02556840759541863,-3.0183487033490115
141,1.6524496502735726,-2.029701531243393,-1.7871283647636274,1.2197285795558734,-6.24401904734449,-3.936390487448609,-0.20281561408075405,-0.25121735298414544,0.3229732347520662,-0.2508300849457173,-0.02366809543617119,-3.02335040104812
142,1.6510629114011994,-2.03068657471487,-1.7878133896156134,1.2225600550799776,-6.246994205485204,-3.939375981650567,-0.20320271726512368,-0.2506108751916955,0.3223982017809501,-0.25259148626598393,-0.02216010752310189,-3.027297035643847
143,1.6500060726041443,-2.0314372799688836,-1.7883354495758192,1.22471793299513,-6.249261584451136,-3.941651237766809,-0.20349633241004983,-0.2501480947112975,0.321959627063668,-0.25393643714362113,-0.021006767435798396,-3.030302288079126
144,1.649238192304713,-2.0319827290731776,-1.7887147690705971,1.226285808762217,-6.250909021736855,-3.9433043984500564,-0.20370890896594093,-0.2498115337217611,0.3216407827639024,-0.25491505880395754,-0.020166552696013952,-3.032484498990754
145,1.6487163070581783,-2.0323534402901227,-1.7889725712934164,1.2273514061370356,-6.252028692621312,-3.9444279592073492,-0.2038530204943581,-0.2495826426547367,0.3214239941645615,-0.25558084919635055,-0.019594441720709444,-3.033966976065903
146,1.6483954020364617,-2.032581389043052,-1.7891310927853707,1.2280066374373355,-6.252717173493049,-3.94511883194539,-0.2039414873968561,-0.2494418387304354,0.32129065649874106,-0.25599051291488883,-0.019242226014923744,-3.034878283970393
147,1.6482283815118546,-2.03270002888264,-1.789213598015757,1.2283476638099877,-6.253075505175654,-3.9454784085158146,-0.20398748730901145,-0.2493685369471148,0.3212212480071607,-0.2562038114705993,-0.019058780698624957,-3.0353525111785706
148,1.6481660393406496,-2.0327443124532283,-1.789244393962604,1.2284749554979904,-6.2532092562529895,-3.9456126242606793,-0.20400464950359362,-0.24934117313628226,0.3211953386948232,-0.2562834418075271,-0.018990285242927337,-3.035529507686738
149,1.6481570294469012,-2.032750712459165,-1.7892488446931987,1.2284933521075665,-6.253228586394566,-3.945632021557511,-0.2040071294910893,-0.2493372182877395,0.32119159411291254,-0.2562949508909993,-0.018980385042415438,-3.035555087178672
