nimar13/UR3e_dataset_trayectorias/data/trayectorias_completas_UR3e_JTRAJ/trayectoria_064.csv
Punto,shoulder_pan_joint,shoulder_lift_joint,elbow_joint,wrist_1_joint,wrist_2_joint,wrist_3_joint,Posicion_X,Posicion_Y,Posicion_Z,Roll,Pitch,Yaw
0,4.471349748944412,-0.49021273633176854,-0.945928662175999,-2.43544294431358,0.09014562210718768,0.03672539276684983,0.17327314844390607,-0.22961958588338346,0.5456984882272099,2.450363775292228,0.06252477914239267,-0.179113120090504
1,4.4713423186166885,-0.4902112516018652,-0.9459326199460666,-2.4354403607869006,0.09015681122408377,0.03671499818615677,0.17327161741580294,-0.2296197734283048,0.5456975658827165,2.4503539962067427,0.06253220303411695,-0.17911217819039726
2,4.471290905939023,-0.4902009783080378,-0.9459600049503782,-2.435422484586907,0.09023423209725522,0.03664307494851593,0.1732610236521388,-0.22962107075524354,0.5456911838849772,2.450286333476173,0.06258357101289977,-0.1791056606442272
3,4.471153166552832,-0.4901734551901959,-0.9460333719457583,-2.4353745925702617,0.0904416498788869,0.03645038584817222,0.17323264094409813,-0.22962454337643234,0.5456740857585356,2.450105073402075,0.06272118921369971,-0.1790881973255622
4,4.470888520870402,-0.4901205736251963,-0.9461743356823995,-2.435282575204869,0.0908401722034439,0.0360801624874667,0.17317810363207073,-0.22963120307638815,0.5456412336240081,2.4497568694108036,0.06298559618951398,-0.17905463514919692
5,4.4704581297332275,-0.4900345727628856,-0.9464035838694714,-2.4351329281062752,0.0914882858430883,0.03547807122431108,0.17308939833195314,-0.22964199878989516,0.5455878046868375,2.4491907571889766,0.06341558258625071,-0.17900002783584062
6,4.469824870070339,-0.48990803466214194,-0.9467408901407296,-2.434912743574061,0.09244189336309602,0.034592179119662295,0.1729588547086779,-0.22965780455064874,0.5455091875974092,2.4483581839941624,0.06404820931134388,-0.17891962333313594
7,4.468953310556641,-0.48973387942691743,-0.9472051270201236,-2.434609702128242,0.09375434977727369,0.03337291988499703,0.17277913550621288,-0.22967940503151393,0.5454009787324502,2.447213049596248,0.06491882430660977,-0.17880884903067984
8,4.467809687271237,-0.4895053603422799,-0.9478142788874064,-2.4342120640456626,0.09547649920337542,0.03177305982978626,0.17254322604527852,-0.22970747915682269,0.545258978456107,2.4457117564945623,0.06606107795497464,-0.1786632947681079
9,4.466361879355773,-0.4892160590104553,-0.9485854549437428,-2.433708660896395,0.09765671151851965,0.029747663808969777,0.17224442340277518,-0.22974258222797486,0.5450791874277563,2.443813267241863,0.06750693706906649,-0.17847869349575562
10,4.464579384672762,-0.4888598804868696,-0.9495349021773182,-2.433088887080133,0.10034091901460598,0.027254061170430714,0.17187632548958554,-0.2297851269662345,0.5448578030317411,2.441479166889253,0.06928669733143522,-0.17825089931430474
11,4.462433295463916,-0.4884310484161911,-0.9506780183289469,-2.4323426913625914,0.10357265305373194,0.02425181170247012,0.17143282024530268,-0.22983536384137415,0.5445912160113132,2.438673728746531,0.07142899398444329,-0.1779758624991506
12,4.45989627400849,-0.48792410016837234,-0.9520293648576816,-2.431460568411901,0.1073930807236099,0.02070267158128146,0.1709080751690208,-0.2298933610220597,0.5442760073945402,2.4353639818313266,0.07396081050512875,-0.17764960101165117
13,4.456942528281599,-0.48733388197469224,-0.9536026799064218,-2.4304335503350054,0.11184104149298382,0.01657055931842516,0.1702965274042223,-0.22995898425384287,0.543908945803579,2.4315197785583864,0.07690748494817155,-0.17726816791621866
14,4.453547787612561,-0.48665554406379835,-0.9554108912675219,-2.4292531982140595,0.11695308386704617,0.011821521708303147,0.16959287459276434,-0.23003187694353422,0.5434869852401527,2.4271138613984595,0.08029271359953156,-0.17682761406159211
15,4.449689278343231,-0.48588453579774876,-0.9574661293484006,-2.427911593642822,0.12276350204285462,0.00642369977563341,0.16879206670776853,-0.2301114407047645,0.5430072634392139,2.4221219274147483,0.08413855155463054,-0.17632394534796386
16,4.445345699486327,-0.48501660080805437,-0.9597797401371498,-2.426401330263057,0.12930437256474897,0.00034729472292446134,0.1678892990677975,-0.23019681659875524,0.5424671008794674,2.4165226897642613,0.0884654098180923,-0.1757530738890658
17,4.440497198383765,-0.4840477721317208,-0.9623622981681427,-2.4247155053009273,0.13660559097976796,-0.0064354661220500375,0.16688000672495004,-0.2302868672867813,0.5418640005336958,2.4102979354313465,0.09329204851617041,-0.1751107623895675
18,4.435125346364995,-0.48297436734729066,-0.9652236194876425,-2.4228477111033917,0.14469490849306602,-0.01395036335877678,0.16575986040739527,-0.2303801602964669,0.5411956484336189,2.4034325786405617,0.09863556581713148,-0.1743925610920788
19,4.429213114405331,-0.48179298371088564,-0.9683727746194118,-2.4207920266746026,0.15359796862333025,-0.022221219566528352,0.16452476418238396,-0.23047495259284137,0.5404599151134923,2.395914709574777,0.104511382167424,-0.17359373670307415
20,4.422744848784284,-0.4805004932922486,-0.9718181015303207,-2.4185430092123017,0.163338343858197,-0.03126993335688848,0.16317085498889108,-0.23056917663681187,0.5396548579838151,2.3877356382002493,0.1109332194707937,-0.1727091927812184
21,4.415706246743897,-0.47909403811078555,-0.9755672185959557,-2.4160956856442173,0.17393757230966903,-0.041116513426277757,0.16169450416977496,-0.23066042810819526,0.5387787246716309,2.3788899331710964,0.11791307486149787,-0.17173338116261722
22,4.408084332147072,-0.4775710252716079,-0.9796270375662286,-2.41344554416446,0.185415194369532,-0.051779112608479005,0.1600923211116117,-0.23074595546738363,0.5378299573470475,2.3693754559483615,0.12546118874940596,-0.17066020410325008
23,4.399867431135912,-0.4759291221015745,-0.9840037765309846,-2.41058852576992,0.1977887893647714,-0.06327406192716256,0.158361159076234,-0.23082265152877277,0.5368071980370483,2.359193390420248,0.13358600684186314,-0.16948290693702467
24,4.391045147790043,-0.47416625128533385,-0.9887029728856119,-2.4075210157966653,0.21107401221298963,-0.07561590464841211,0.15649812328136123,-0.23088704721983397,0.5357092949076279,2.3483482684461996,0.14229413587252757,-0.16819396117669294
25,4.381608339784958,-0.47228058600136597,-0.9937294962966499,-2.4042398354563344,0.22528463007782248,-0.08881743033324985,0.1545005812586069,-0.23093530770170256,0.5345353094740057,2.336847991863751,0.1515902927891618,-0.16678493812301529
26,4.371549094050339,-0.4702705450580247,-0.9990875616673975,-2.400742233372536,0.24043255902435598,-0.10288970889016191,0.15236617548551495,-0.2309632310298551,0.5332845246764718,2.3247038515883287,0.1614772471686791,-0.16524637319445692
27,4.360860702428399,-0.4681347880295798,-1.0047807421035229,-2.397025877117246,0.2565279006745435,-0.1178421246276242,0.15009283825416236,-0.23096624953626133,0.5319564537365518,2.3119305444966898,0.17195575663734783,-0.1635676213457643
28,4.349537637332207,-0.46587221039225896,-1.0108119818786714,-2.3930888447472016,0.27357897886262245,-0.13368241030662753,0.14767880870226985,-0.23093943411670292,0.5305508496850251,2.298546188807852,0.18302449507601204,-0.16173670411092464
29,4.337575527404028,-0.46348193866028997,-1.0171836094000746,-2.388929616340301,0.2915923762905308,-0.150416681193203,0.14512265189380902,-0.2308775016080405,0.5290677154301976,2.284572338653881,0.19467997338413462,-0.159740148987424
30,4.3249711331736505,-0.4609633255219428,-1.0238973501741584,-2.384547065531997,0.3105729711833243,-0.16804946911094784,0.14242327979489716,-0.2307748254393769,0.5275073142121204,2.2700339984582714,0.20691645256289096,-0.1575628220798273
31,4.311722322716721,-0.45831594497557165,-1.030954339772153,-2.3799404510516955,0.33052397394459343,-0.18658375649355072,0.1395799739475715,-0.23062544973754107,0.5258701802665147,2.2549596376022,0.21972584885760874,-0.1551877551489689
32,4.297828047313077,-0.45553958746565715,-1.0383551367957,-2.3751094082591524,0.35144696381187945,-0.20602101043731688,0.136592409599132,-0.23042310706033112,0.524157129501463,2.2393812056474838,0.23309763067587394,-0.1525959684786241
33,4.283288317105081,-0.4526342550188485,-1.046099735842463,-2.3700539406808687,0.3733419255120921,-0.22636121675369414,0.133460680998588,-0.23016123991974252,0.5223692699708344,2.223334148086355,0.24701870697310235,-0.1497662912875223
34,4.268104176755949,-0.44960015638000533,-1.0541875804717344,-2.3647744115464886,0.3962072859169262,-0.24760291402179802,0.1301853275248278,-0.22983302624120527,0.5205080119113877,2.2068574221869457,0.2614733067772119,-0.1466751817975191
35,4.2522776811080885,-0.44643770214824013,-1.0626175761700454,-2.3592715353251954,0.4200399506982777,-0.26974322764093717,0.12676736026420315,-0.229431408882962,0.5185750770959853,2.1899935119815312,0.27644284951492454,-0.1432965495384416
36,4.235811870841429,-0.44314749991296004,-1.0713881033167743,-2.353546369262108,0.44483534098366184,-0.292777903883139,0.12320828860901156,-0.22894912931148798,0.5165725072437573,2.1727884407811855,0.2919058058129122,-0.1396015830508645
37,4.2187107481317545,-0.43973034938990924,-1.0804970301497547,-2.347600304914679,0.4705874300116293,-0.31670134394567545,0.11951014640389467,-0.22837876549376,0.5145026712198496,2.15529177877143,0.30783754848871225,-0.13555858686729994
38,4.200979252309036,-0.4361872375572109,-1.0899417257308859,-2.3414350596890885,0.4972887797871821,-0.3415066380035876,0.11567551712550946,-0.22771277402478393,0.5123682707529464,2.137556642221439,0.32421019353335556,-0.13113283254175084
39,4.182623235515766,-0.43251933379140917,-1.099719072911739,-2.335052668376644,0.5249305777371921,-0.3671855992622116,0.11170755754319175,-0.22694353645889187,0.5101723443984965,2.1196396795946923,0.340992431037686,-0.12628642959168732
40,4.163649438365289,-0.42872798500351167,-1.1098254812991681,-2.3284554746901747,0.5535026733658172,-0.39372879800970456,0.10761001927608424,-0.22606340975581787,0.5079182694797972,2.1016010383504273,0.3581493462495064,-0.1209782235512882
41,4.1440654656001366,-0.424814710775031,-1.1202569002209175,-2.321646122800429,0.5829936149099174,-0.4211255956695694,0.10338726763674276,-0.2250647806876949,0.5056097617481331,2.083504304442694,0.37564223129562135,-0.11516372994546405
42,4.123879761750358,-0.4207811984940276,-1.1310088316912315,-2.314627548872471,0.6133906859944727,-0.4493641788531807,0.09904429713405029,-0.2239401239812894,0.5032508725172249,2.065416404431959,0.393428388593839,-0.10879511491081487
43,4.103101586791856,-0.41662929849115105,-1.1420763433764614,-2.3074029726020773,0.6446799422879992,-0.4784315934123098,0.09458674300088393,-0.22268206389176817,0.5008459830465162,2.0474074577088763,0.4114609276527404,-0.10182123543101905
44,4.081740991804713,-0.4123610191756827,-1.1534540815606764,-2.299975888752134,0.6768462481579667,-0.5083137784916505,0.09002088811580573,-0.22128343882109466,0.498399795972319,2.029550563596998,0.4296885578551127,-0.09418775471834968
45,4.059808794631535,-0.4079785221715778,-1.1651362841112705,-2.2923500586890326,0.709873313326214,-0.5389956005813444,0.08535366470451147,-0.219737368507152,0.4959173236155925,2.0119215050904837,0.44805538099227327,-0.08583735112404058
46,4.0373165555357735,-0.4034841174535073,-1.1771167934445725,-2.284529501919067,0.7437437295243675,-0.5704608875695065,0.08059265023703938,-0.21803732322057007,0.49340387302996264,1.9945983477852938,0.46650068881165235,-0.07671004201011314
47,4.014276552860064,-0.3988802584829,-1.1893890694914535,-2.2765184876248292,0.7784390071492576,-0.6026924627947509,0.07574605698186498,-0.2161771943169552,0.49086502769326223,1.9776609093444957,0.4849587727078505,-0.06674364709976648
48,3.9907017586845583,-0.39416953734398474,-1.201946202662937,-2.2683215262016088,0.8139396119183345,-0.6356721790987158,0.07082271473864851,-0.21415136540508584,0.48830662579002876,1.9611900718712978,0.5033587549679754,-0.05587441867323318
49,3.9666058144852547,-0.3893546798798329,-1.2147809268158065,-2.259943360793786,0.8502250015250857,-0.6693809528785888,0.065832046347965,-0.21195478330913345,0.4857347350805101,1.945266907257663,0.5216244536963908,-0.0440378681817707
50,3.9420030067923335,-0.38443854082839957,-1.2278856322182143,-2.2513889588312312,0.8872736622944539,-0.7037987981396333,0.060784035668756495,-0.2095830279278092,0.48315562440323423,1.9299715845160528,0.539674296677866,-0.031169819830462565
51,3.916908242848489,-0.3794240989585666,-1.241252378515291,-2.2426635035656988,0.9250631458382509,-0.7389048605477126,0.05568918782198012,-0.20703238002833393,0.4805757319122814,1.9153820290754766,0.5574213029216184,-0.017207720642449992
52,3.891337026267263,-0.3743144522061841,-1.2548729076947536,-2.2337723856072267,0.9635701057105777,-0.7746774514818167,0.050558481620963755,-0.20429988596115134,0.4780016302063179,1.901572308033778,0.5747731543087726,-0.0020922324591856295
53,3.865305432691375,-0.3691128128101128,-1.268738657052514,-2.2247211944605314,1.0027703340632397,-0.8110940820865874,0.04540331424372673,-0.20138341824513784,0.47543998856312586,1.8886107236001592,0.5916323833755568,0.01423087694149263
54,3.838830085451057,-0.36382250244826614,-1.282840772158289,-2.2155157100614047,1.0426387983011638,-0.8481314973248433,0.040235438347872854,-0.1982817309553389,0.4728975325499037,1.8765576107330983,0.6078967063911387,0.03180854021435469
55,3.8119281312223876,-0.3584469473736522,-1.2971701198212067,-2.2061618943131105,1.0831496777378147,-0.885765710030105,0.035066891981928694,-0.19499450884835803,0.470381001334793,1.8654628555027677,0.6234595329484807,0.05067791143322555
56,3.7846172156856217,-0.352989673550416,-1.3117173010554175,-2.196665882622782,1.124276400250613,-0.9239720349591221,0.029909921805013413,-0.19152240918637797,0.4678971030778434,1.8553631788362004,0.6382106835176166,0.07086364694367296
57,3.7569154591835257,-0.34745430178988174,-1.3264726640457016,-2.1870339754378167,1.1659916789363496,-0.962725122844396,0.024776900285866467,-0.1878670952709006,0.46545246882876945,1.8462792660910334,0.6520373439032265,0.09237502709674429
58,3.7288414323797086,-0.34184454288659444,-1.3414263171130782,-2.177272629782276,1.208267548766606,-1.0019989944467096,0.019680237708503117,-0.1840312607725146,0.4630536054032119,1.8382128650689804,0.6648252793276066,0.11520304201325429
59,3.700414131916956,-0.33616419275436227,-1.3565681416804138,-2.1673884507932786,1.2510754032431681,-1.0417670746076477,0.014632289960878269,-0.1800186440435067,0.4607068477477061,1.8311440204536376,0.6764603200430412,0.1393176098633603
60,3.6716529560755626,-0.330417127562299,-1.371887805238031,-2.157388183257399,1.2943860310534445,-1.082002226302126,0.009645263220473268,-0.17583403172536613,0.4584183113350978,1.8250286557721187,0.6868301144087057,0.16466513921698947
61,3.642577680431665,-0.32460729887086553,-1.3873747743093177,-2.1472787031470637,1.338169652725884,-1.122676784690916,0.004731116772289844,-0.1714832511117871,0.4561938451558092,1.8197967470608365,0.6958261243161027,0.1911666800527441
62,3.613208433515573,-0.3187387287679122,-1.4030183274163357,-2.1370670091569477,1.3823959572853903,-1.1637625911731695,-9.853470392700951e-05,-0.16697315089747009,0.45403898588529845,1.8153513460424011,0.703345812715235,0.21871692158769562
63,3.583565672470106,-0.31281550500472133,-1.4188075680454277,-2.1267602142403716,1.427034138908739,-1.205231027438944,-0.00483251796326188,-0.16231157013081238,0.45195891381361875,1.8115686952788934,0.7092949459360184,0.24718427969485787
64,3.553670158708922,-0.30684177613204855,-1.43473143761283,-2.1163655371456978,1.4720529335799977,-1.2470530495217287,-0.00946019567850597,-0.15750729539072342,0.4499584111186727,1.8082996262548217,0.7135899078379515,0.27641226510822475
65,3.523542933574852,-0.30082174663616557,-1.4507787284302758,-2.105890293952728,1.5174206557459384,-1.289199221850971,-0.013971557093834186,-0.15257000641980276,0.44804182305028256,1.8053723416208034,0.7161599027346406,0.3062222338380974
66,3.493205293998233,-0.2947596720749016,-1.4669380966706091,-2.095341889609097,1.563105234971459,-1.3316397513046005,-0.0183573033802948,-0.14751021066297318,0.4462130225674755,1.8025965604671739,0.7169489138835043,0.3364174988033766
67,3.462678768155241,-0.2886598542136865,-1.4831980753333902,-2.084727809466674,1.6090742525949953,-1.3743445212615548,-0.02260892627142155,-0.1423391673769106,0.444475378936588,1.799768864626539,0.715917287658419,0.36678864076455026
68,3.4319850911262226,-0.28252663616159174,-1.4995470872105052,-2.0740556108179558,1.6552949783839404,-1.4172831256543044,-0.02671877863848081,-0.13706880218552203,0.44283173075326837,1.7966789458506565,0.7130428320430751,0.39711971843687466
69,3.4011461805540284,-0.27636439750737324,-1.515973457851775,-2.063332914432464,1.7017344071900609,-1.460424903021379,-0.03068013577921528,-0.13171161315453722,0.44128436379785113,1.7931163424950725,0.7083213508846602,0.4271949664031333
70,3.3701841123023457,-0.2701775494555131,-1.5324654285305641,-2.0525673960931416,1.7483592956049168,-1.5037389705598954,-0.034487246339522076,-0.12628056963831896,0.4398349940716936,1.7888771914444663,0.7017665787207881,0.45680550649996066
71,3.3391210961140323,-0.2639705299622619,-1.5490111692093889,-2.0417667781327515,1.7951361986152725,-1.5471942581780755,-0.038135371961405345,-0.12078900530894747,0.4384847562929488,1.7837705191352191,0.6934095290079384,0.48575559643375854
72,3.307979451269449,-0.257747798871681,-1.5655987915055263,-2.030938820970271,1.842031506258516,-1.5907595425477812,-0.041620814948906446,-0.11525050690671174,0.4372341980551286,1.7776236550687465,0.6832973143256892,0.5138679988818599
73,3.276781582244789,-0.25151383305168384,-1.5822163616566238,-2.0200913146472876,1.8890114802780822,-1.6344034811570332,-0.044940933461802855,-0.10967880034825583,0.4360832797720362,1.7702864601120136,0.671491534250121,0.540988163204327
74,3.2455499543704165,-0.24527312153007919,-1.5988519134863055,-2.009232070364401,1.9360422907788557,-1.678094646362537,-0.0480941439792181,-0.10408763589060828,0.4350313804497663,1.7616341991459243,0.6580663506295711,0.5669870491280421
75,3.2143070694891964,-0.23903016063061266,-1.6154934613697827,-1.9983689120176122,1.9830900528826012,-1.7218015594422118,-0.051079911015935786,-0.0984906740739588,0.43407730924202653,1.7515690290194414,0.6431063791769092,0.5917625631392298
76,3.183075441614823,-0.23278944910900784,-1.632129013199465,-1.9875096677347246,2.0301208633833756,-1.7654927246477183,-0.05389872431679213,-0.09290137415229913,0.4332193226607051,1.7400201967528275,0.6267045215240261,0.615239702289561
77,3.1518775725901635,-0.22655548328901076,-1.6487465833505623,-1.976662161411742,2.077100837402941,-1.8091366632569699,-0.05655206399260014,-0.0873328866689648,0.4324551472310367,1.72694313488289,0.6089598461359823,0.6373695920607312
78,3.12073592774558,-0.22033275219842996,-1.6653342056466995,-1.9658342042492616,2.1239961450461844,-1.8527019476266746,-0.059042354288253565,-0.08179795174498555,0.43178200730151983,1.7123176946788237,0.5899756038076102,0.6581276587659916
79,3.0896729115572663,-0.21412573270517865,-1.6818799463255245,-1.9550335862888715,2.170773048056541,-1.8961572352448552,-0.06137290688393651,-0.07630880452434906,0.43119665764446063,1.6961457753227966,0.5698574380113564,0.6775111943388707
80,3.0587108433055845,-0.20793888465331872,-1.6983719170043134,-1.9442680679495494,2.217397936471395,-1.9394713027833705,-0.06354785481820048,-0.07087708906525703,0.43069542041512215,1.6784485950172219,0.5487118256247395,0.6955365592428836
81,3.02787193273339,-0.20177664599910017,-1.7147982876455834,-1.9335453715640571,2.2638373652775163,-1.982613080150446,-0.06557207828229297,-0.06551378178455045,0.43027422597718024,1.6592638178011268,0.526644761979543,0.7122362370826902
82,2.9971782557043714,-0.19564342794700518,-1.7311472995226982,-1.9228731729153388,2.3100580910664616,-2.0255516845431956,-0.06745112366459113,-0.06022912535888983,0.4299286570507064,1.6386427071078544,0.5037606870632516,0.727655911784764
83,2.966651729861379,-0.18954361008579035,-1.7474072781854795,-1.9122590927729162,2.3560271086899967,-2.0682564545001494,-0.06919111731943448,-0.05503257376665159,0.42965399559706513,1.6166474316754482,0.4801616374277976,0.7418516928453702
84,2.936314090284761,-0.18348153552452628,-1.7635666464258128,-1.9017106884292851,2.401711687915519,-2.110696983953779,-0.07079867559423768,-0.049932748925024806,0.4294452718236315,1.5933486069376013,0.45594660059844255,0.7548875717247505
85,2.9061868651506906,-0.1774615060286434,-1.779613937243259,-1.891235445236315,2.447079410081459,-2.152843156283021,-0.07228081267179699,-0.044937409143663176,0.4292973146705618,1.5688231187741255,0.431211044806091,0.7668331562970326
86,2.876291351389506,-0.17148777715597052,-1.795537806810661,-1.880840768141641,2.4920982047527183,-2.194665178365806,-0.07364484777168248,-0.04005342938570365,0.42920480313214904,1.5431522478623643,0.4060465958116922,0.7777617017237252
87,2.8466485903440395,-0.16556455339277965,-1.8113270474397534,-1.8705339732250654,2.5367363863760666,-2.236133614631582,-0.07489831320697718,-0.03528679310494587,0.4291623177665578,1.5164200918547288,0.3805408335872934,0.7877484352149133
88,2.8172793434279475,-0.15969598328982626,-1.826970600546771,-1.8603222792349492,2.580962690935573,-2.277219421113834,-0.0760488647129888,-0.030642595219945626,0.4291643917596485,1.4887122683933178,0.35477718391084273,0.7968691580582767
89,2.7882040677840503,-0.15388615459839294,-1.8424575696180574,-1.8502127991246142,2.6247463126080106,-2.3178939795026237,-0.07710419535623704,-0.026125055596590945,0.4292055609306736,1.4601148733485527,0.32883488292258184,0.8051990998197275
90,2.7594428919426575,-0.1481390894063297,-1.8577772331756746,-1.8402125315887343,2.668056940418289,-2.358129131197103,-0.07807195419916306,-0.02173754224443488,0.4292804120991529,1.4307136643350293,0.30278899593933944,0.8128119954506476
91,2.7310155914799035,-0.14245873927409747,-1.8729190577430106,-1.830328352599737,2.710864794894851,-2.397897211358041,-0.07895967074324188,-0.017482603291907397,0.42938362927228624,1.4005934383108218,0.2767104750308629,0.8197793549709534
92,2.7029415646760873,-0.13684898037081017,-1.887872710810387,-1.8205670069441962,2.753140664725106,-2.4371710829603535,-0.07977468600555573,-0.013362006693724641,0.42951003715985914,1.3698375728909051,0.25066624284495453,0.826169896417317
93,2.6752398081739903,-0.13131360861027574,-1.9026280738006716,-1.8109350997592313,2.7948559434108438,-2.4759241708456283,-0.08052409090655897,-0.00937678654170994,0.42965464157748084,1.338527703101507,0.22471929282778164,0.832049115049164
94,2.647928892637225,-0.12585633478703961,-1.9171752550348817,-1.8014390880689026,2.835982665923642,-2.514130495774644,-0.08121467246496072,-0.005527294798163017,0.42981266635801735,1.3067435080759777,0.19892879828363647,0.8374789647943229
95,2.6210269384085567,-0.12048077971242588,-1.9315046026977993,-1.7920852723206089,2.876493545360293,-2.5517647084799053,-0.08185286811433329,-0.0018132572482801312,0.429979586453852,1.2745625852277196,0.17335022465605415,0.8425176311693945
96,2.594551591168237,-0.11519046935057875,-1.9456067178035743,-1.7828797879214813,2.916362009598216,-2.588802123718163,-0.08244472827992264,0.0017661675263970587,0.4301511569778384,1.2420603924567808,0.1480354410136904,0.8472193781464419
97,2.5685199975923494,-0.10998882995450754,-1.9594724671613355,-1.7738285967747864,2.95556223795088,-2.6252187543229333,-0.0829958871873418,0.0052123273201078665,0.43032343799720557,1.2093102417870059,0.12303282802583035,0.8516344544831036
98,2.5429487810111233,-0.10487918320212519,-1.9730929963407984,-1.764937478816314,2.9940691978232055,-2.660991345257038,-0.08351154172104194,0.008527014732512786,0.43049281496092195,1.1763833304006208,0.09838738075431318,0.8558090477898003
99,2.517854017067279,-0.09986474133229217,-1.9864597426378745,-1.7562120235507814,3.0318586813670025,-2.6960974076651167,-0.08399643801257632,0.011712405893042187,0.430656014705981,1.1433487973016145,0.07414080541078175,0.8597852770309174
100,2.493251209374357,-0.094948602280859,-1.9995644480402823,-1.7476576215882267,3.068907342136371,-2.730515252926163,-0.0844548653190322,0.014771000425885004,0.430810117050602,1.1102737957970101,0.05033160986709749,0.8636012162351951
101,2.4691552651750532,-0.090133744816707,-2.0123991721931507,-1.739279456180404,3.1051927317431227,-2.7642240267060343,-0.0848906566521064,0.017705563497407262,0.4309525620414865,1.0772235736576674,0.026995188194195368,0.8672909439352494
102,2.4455804709995475,-0.08542302367779175,-2.0249563053646353,-1.7310824947571835,3.140693336512199,-2.7972037430100007,-0.0853071955390073,0.02051907067456014,0.43108115297716376,1.0442615542394058,0.004163899867567166,0.8708846142885533
103,2.42254046832384,-0.08081916470718475,-2.037228581411516,-1.7230714804629468,3.1753886141370886,-2.8294353182352436,-0.0857074282378631,0.023214656204152823,0.4311940553794332,1.011449413048939,-0.01813285546232544,0.8744085469802776
104,2.4000482292280765,-0.07632475998911392,-2.049209090744818,-1.7152509236929805,3.209259030335242,-2.860900605223404,-0.08609388069213868,0.025795565202227828,0.43128979212934904,0.9788471452648521,-0.039868566561610724,0.8778853339014656
105,2.3781160320548995,-0.07194226298500928,-2.0608912932954118,-1.7076250936298796,3.2422860955034887,-2.8915824273130992,-0.08646867948976994,0.02826511012335571,0.43136723502276075,0.9465131206079204,-0.06101954139036079,0.8813339612632076
106,2.3567554370677586,-0.06767398366954103,-2.0722690314796264,-1.7001980097799367,3.2744524013734564,-2.9214646123924384,-0.08683357609184349,0.03062663176433572,0.43142559303281525,0.9145041227284899,-0.081564838847627,0.8847699462763148
107,2.335977262109253,-0.06352208366666412,-2.083336543164857,-1.6929734335095419,3.305741657666986,-2.9505320269515716,-0.08718997361090634,0.03288346494792353,0.43146439759294375,0.8828753709687384,-0.10148620027709508,0.888205487822826
108,2.315791558259475,-0.05948857138566099,-2.0940884746351713,-1.6859548595815843,3.3361387287515383,-2.9787706101351814,-0.08753895544831541,0.03503890893185771,0.43148348523374574,0.8516805229855008,-0.12076797958387635,0.8916496306945326
109,2.296207585494324,-0.05557529715718057,-2.1045198935569207,-1.6791455076918385,3.3656296702956388,-3.006167407795046,-0.08788131514117394,0.037096202498111894,0.4314829779209496,0.8209716573005739,-0.13939707091160458,0.895108442998094
110,2.2772337883438443,-0.051783948369282795,-2.11462630194435,-1.6725483140053692,3.3942017659242643,-3.0327106065425395,-0.08821758682003339,0.03905850359802485,0.4314632614495619,0.7907992353914329,-0.15736283296391995,0.898585206248309
111,2.2588777715505763,-0.048116044603480734,-2.1244036491252025,-1.6661659226929242,3.4218435638742752,-3.0583895678011634,-0.0885480757363601,0.04092887336146665,0.4314249622517261,0.7612120434505846,-0.1746570092210138,0.9020806175125987
112,2.241146275727857,-0.044572932770782225,-2.133848344706334,-1.6600006774673344,3.4485449136498305,-3.083194861859078,-0.08887288838144602,0.04271026422266326,0.43136892297314683,0.7322571144289683,-0.1912736434949758,0.9055930027515038
113,2.224045153018185,-0.041155782247731754,-2.1429572715393146,-1.6540546131199054,3.474297002677795,-3.1071183019216084,-0.0891919617839536,0.044405511871629846,0.4312961771656389,0.7039796314347803,-0.20720899048216446,0.9091185402434371
114,2.207579342751526,-0.03786558001245144,-2.1517277986860437,-1.6483294470568182,3.499092392963182,-3.130152978163811,-0.08950509163957436,0.04601733070798278,0.4312079234319793,0.6764228139792312,-0.22246142120062004,0.9126514927062752
115,2.1917528471036647,-0.03470312578068668,-2.1601577943843537,-1.642826570835525,3.522925057744531,-3.1522932917829527,-0.08981195899169334,0.047548312452441274,0.43110549934428427,0.649627788938373,-0.23703132343906894,0.9161844464534586
116,2.176568706754532,-0.03166902714184361,-2.168245639013625,-1.637547041701144,3.5457904181493634,-3.173534989051057,-0.09011215524496698,0.0490009275598193,0.4309903554391745,0.6236334484267347,-0.25092099758463177,0.919708555665251
117,2.1620289765465355,-0.02876369469503448,-2.175990238060388,-1.6324915741228616,3.5676853798495776,-3.1938751953674354,-0.09040520535308538,0.05037752907462635,0.4308640295725506,0.5984762970474665,-0.26413454843106526,0.9232137896323254
118,2.14813470114289,-0.02598733718512003,-2.183391035083937,-1.6276605313303176,3.588608369716865,-3.213312449311201,-0.09069058907676789,0.05168035857549167,0.43072812189441634,0.5741902911871596,-0.2766777737913854,0.9266891806523054
119,2.1348858906859647,-0.023339956638749992,-2.1904480246819285,-1.6230539168500178,3.608559372478129,-3.2318467366937993,-0.09096776025748272,0.052911553866296035,0.4305842706803475,0.5508066731569109,-0.288558050940278,0.9301230701400947
120,2.1222814964555834,-0.0208213435004021,-2.1971617654560145,-1.618671366041713,3.6275399673709243,-3.2494795246115453,-0.09123616409598832,0.05407315808897747,0.4304341292313542,0.5283538030414539,-0.2997842220863356,0.9335033504566748
121,2.1103193865274044,-0.018431071768432616,-2.203533392977418,-1.614512137634812,3.645553364798837,-3.266213795498124,-0.09149525246236775,0.055167129954319986,0.4302793440284842,0.506856991105054,-0.3103664802157001,0.9368176999721065
122,2.098996321431212,-0.016168494131112432,-2.2095646327525653,-1.6105751052647679,3.662604442986912,-3.282054081177125,-0.09174449729561822,0.05619535481156934,0.43012153430283334,0.4863383335186477,-0.32031625675254816,0.9400538089560864
123,2.0883079298092735,-0.014032737102666726,-2.2152578131886917,-1.606858749009477,3.678699784637101,-3.2970064969145882,-0.09198340217627772,0.05715965630441686,0.42996227315612634,0.4668165540228306,-0.32964611254401954,0.9431995940308524
124,2.0782486840746515,-0.012022696159325275,-2.22061587855944,-1.6033611469256788,3.6938477135836374,-3.3110787754715014,-0.09221151217517892,0.05806180838886611,0.42980307034181003,0.448306853933151,-0.33836963369584144,0.9462433991192717
125,2.068811876069569,-0.010137030875358555,-2.225642401970476,-1.6000799665853491,3.7080583314484636,-3.3242803011563398,-0.09242842209570763,0.05890354751694048,0.4296453567919973,0.43082077263672874,-0.34650133375947056,0.9491741810684061
126,2.0599895927236993,-0.008374160059116953,-2.2303415983251043,-1.597012456612093,3.7213435542966886,-3.336622143877592,-0.09263378323627773,0.05968658481841804,0.4294904709517295,0.4143660604338473,-0.35405656370271127,0.9519816784140348
127,2.051772691712541,-0.006732256889083743,-2.23471833728986,-1.594155438217554,3.7337171492919206,-3.348117093196273,-0.09282730880473722,0.06041261814017719,0.42933964695899174,0.3989465652554727,-0.36105143098601394,0.9546565620649028
128,2.0441507771157124,-0.005209244049905859,-2.2387781562601345,-1.5915052967377954,3.745194771351792,-3.3587796923784774,-0.09300877811766181,0.06108334382893372,0.429194004686853,0.3845621344486012,-0.367502728919955,0.9571905670151225
129,2.037112175075329,-0.0038027888684428746,-2.242527273325768,-1.5890579731697119,3.7557939998032603,-3.3686262724478633,-0.09317803971552813,0.06170046816759625,0.4290545416429898,0.37120853247730823,-0.3734278772996245,0.9595766045281845
130,2.0306439094542803,-0.0025102984498066583,-2.2459726002366764,-1.5868089557074119,3.7655343750381194,-3.37767498623822,-0.09333501352032111,0.062265718398102986,0.4289221267017994,0.35887737504571243,-0.37884487510579623,0.9618088545681952
131,2.024731677494618,-0.0013289148134010276,-2.2491217553684466,-1.5847532712786214,3.774437435168392,-3.385945842445971,-0.09347969215568791,0.0627808532839841,0.42879749562520214,0.3475560798194157,-0.3837722658352405,0.9638828385736489
132,2.019359825475844,-0.00025551002897028496,-2.251983076687946,-1.5828854770810854,3.7825267526816875,-3.393460739682703,-0.09361214154197472,0.06324767318408213,0.4286812483101581,0.3372278336080407,-0.38822911578145075,0.9657954729709549
133,2.0145113243732826,0.0007133186473633479,-2.254565634718941,-1.5811996521189555,3.789827971096707,-3.4002435005276768,-0.09373250086991936,0.0636680296246177,0.4285738476837895,0.3278715755782122,-0.39223500533794675,0.9675451041048749
134,2.0101677455163802,0.0015812536370565233,-2.2568792455076876,-1.5796893887391925,3.796368841618599,-3.4063199055803866,-0.093840982047797,0.06404383437015525,0.42847562015079393,0.31946199579538476,-0.3958100331455578,0.9691315255163767
135,2.0063092362470556,0.002352261903106001,-2.2589344835885674,-1.578347784167955,3.802179259794408,-3.4117177275130475,-0.09393786870804856,0.06437706800490502,0.4283867574825118,0.31196954814442696,-0.39897483265934863,0.9705559787268433
136,2.0029144955780183,0.0030305998140001122,-2.260742694949667,-1.5771674320470077,3.8072913021684736,-3.4164667651231797,-0.09402351485107249,0.06466978804430154,0.42830732002258054,0.30536047645175857,-0.4017506004745955,0.9718211388883747
137,1.9999607498511232,0.0036208180076799934,-2.2623160099984068,-1.5761404139701134,3.8117392629378424,-3.4205988773860314,-0.09409834319635496,0.06492413660280683,0.4282372410704536,0.29959685242481776,-0.4041591355300487,0.9729310868363324
138,1.9974237283956988,0.0041277662554985994,-2.263667356527143,-1.5752582910194222,3.815559690607718,-3.424148017507215,-0.09416284330464371,0.06514234764757976,0.4281763322912877,0.294636623833472,-0.406222888103992,0.9738912692328636
139,1.995277639186849,0.004556598326178385,-2.2648104726787706,-1.574512095301881,3.818791424646851,-3.4271502669751834,-0.09421756952963159,0.06532675386893728,0.4281242899886463,0.2904336711821736,-0.4079650173377203,0.9747084486215808
140,1.9934951445038394,0.004912776849763212,-2.2657599199123455,-1.5738923214856197,3.821475632142932,-3.429643869613721,-0.09426313885376005,0.06547979319754538,0.4280807020652399,0.28693787095521817,-0.40940945586419164,0.9753906453265274
141,1.992047336588378,0.005202078181588465,-2.2665310959686815,-1.5733889183363519,3.823655844458078,-3.4316692656345333,-0.09430022866026032,0.0656040149951085,0.428045055486418,0.2840951633597113,-0.4105809799878587,0.9759470732244563
142,1.9909037133029663,0.005430597266225856,-2.2671402478359655,-1.5729912802537718,3.825377993884186,-3.433269125689745,-0.0943295744924746,0.06570208593989861,0.4280167440513156,0.28184762233883853,-0.41150528375515977,0.9763880715014299
143,1.9900321537892758,0.005604752501450427,-2.267604484715359,-1.5726882388079528,3.8266904502983623,-3.4344883849244185,-0.09435196785179309,0.06577679562116302,0.4279950762674444,0.2801335254781035,-0.4122090551734552,0.9767250345747746
144,1.989398894126385,0.005731290602193351,-2.2679417909866144,-1.5724680542757405,3.827644057818362,-3.4353742770290596,-0.09436825408701995,0.06583106184718089,0.42797928311594013,0.2788874212792972,-0.4127200527768787,0.9769703424209236
145,1.9889685029892092,0.005817291464504493,-2.26817103917369,-1.572318407177144,3.8282921714580143,-3.435976368292221,-0.09437933043063693,0.06586793566082075,0.427968525486552,0.27804019112783984,-0.4130671806979732,0.9771372936025773
146,1.9887038573067777,0.005870173029504322,-2.2683120029103305,-1.5722263898117501,3.8286906937825735,-3.4363465916529288,-0.09438614424094313,0.06589060604424114,0.42796190105361126,0.27751910312827893,-0.41328056037992394,0.9772400433353775
147,1.9885661179205876,0.005897696147345144,-2.2683853699057126,-1.572178497795107,3.828898111564201,-3.43653928075327,-0.09438969151342322,0.06590240428100932,0.4279584503563411,0.27724785482647657,-0.41339159705058603,0.9772935489812574
148,1.9885147052429204,0.00590796944117411,-2.268412754910025,-1.572160621595112,3.8289755324373766,-3.4366112039909114,-0.0943910157295758,0.06590680793010342,0.4279571618387129,0.2771466016756077,-0.4134330390692547,0.9773135254040484
149,1.9885072749152002,0.005909454171076689,-2.2684167126800903,-1.5721580380684341,3.8289867215542666,-3.4366215985716027,-0.09439120711677185,0.06590744435230927,0.4279569755950822,0.2771319679316947,-0.4134390282434553,0.9773164126810413
