nimar13/UR3e_dataset_trayectorias/data/trayectorias_completas_UR3e_JTRAJ/trayectoria_494.csv
Punto,shoulder_pan_joint,shoulder_lift_joint,elbow_joint,wrist_1_joint,wrist_2_joint,wrist_3_joint,Posicion_X,Posicion_Y,Posicion_Z,Roll,Pitch,Yaw
0,-0.6147270924314281,0.3767300421959683,-1.8688174629696035,-3.9018567277984255,-1.739846634012122,-0.8439608969859531,0.16551003294119676,0.025286335139581076,0.3015864145206254,-1.0459576977776084,-0.8738397810618734,2.785289166974712
1,-0.6147307342055589,0.37672362746429894,-1.8688057774358706,-3.9018510482776962,-1.7398358999840173,-0.8439718002552059,0.16551214121367697,0.025285504342554548,0.30158925423698857,-1.0459604543308272,-0.8738525144651074,2.785272508927069
2,-0.6147559327387158,0.3766792420019238,-1.8687249217049429,-3.901811749961473,-1.7397616280073969,-0.8440472432623541,0.16552672922970116,0.025279755207187716,0.30160890281346014,-1.045979514226458,-0.8739406193809379,2.7851572371718096
3,-0.6148234419727717,0.3765603291846768,-1.868508301617178,-3.901706466085961,-1.7395626464150051,-0.8442493621553774,0.16556581398582376,0.02526434756466589,0.3016615408048281,-1.0460304609355544,-0.8741766491614104,2.784848329731936
4,-0.6149531508948971,0.3763318559459019,-1.8680920984341978,-3.901504178825548,-1.7391803329695517,-0.8446377034559681,0.1656409180587434,0.025234722947572907,0.30176266708191857,-1.0461278706965456,-0.8746300978295435,2.784254468061646
5,-0.6151640954679684,0.3759602917618669,-1.8674152305572154,-3.9011752006867546,-1.7385585796991585,-0.8452692597785152,0.16576308316238622,0.025186485310218703,0.301927100433124,-1.0462849460921115,-0.8753674041236345,2.783287712386291
6,-0.6154744705609781,0.3754135876371771,-1.8664193152453632,-3.900691155902196,-1.737643757732811,-0.8461985055490868,0.16594288560097736,0.025115376772047823,0.30216897874899057,-1.046513032484489,-0.876451942914982,2.7818630912688738
7,-0.6159016418794451,0.3746611550901888,-1.8650486303340201,-3.9000249618245344,-1.7363846821358044,-0.8474774327244139,0.1661904531286398,0.025017249276602763,0.30250175607525875,-1.0468210320098872,-0.8779440043517667,2.7798981140459413
8,-0.6164621578958233,0.3736738451384234,-1.863250075953138,-3.8991508103204358,-1.7347325767451947,-0.8491555865108735,0.16651548269375424,0.024888032993482884,0.3029381977321557,-1.0472147257164368,-0.8799007601442789,2.777312210917032
9,-0.6171717617799122,0.3724239272839802,-1.8609731362455706,-3.8980441491645266,-1.7326410390052456,-0.8512801010834721,0.16692725851119894,0.024723702229414182,0.3034903736112112,-1.0476960101007828,-0.88237621540198,2.7740261013897145
10,-0.6180454033292664,0.37088506849895114,-1.8581698410853995,-3.89668166343335,-1.730066004802878,-0.8538957353048282,0.16743466987088165,0.02452023955819877,0.3041696496800583,-1.048262049803413,-0.8854211433761405,2.7699610875361556
11,-0.6190972508996048,0.3690323122108334,-1.8547947277962624,-3.8950412568993222,-1.7269657133031195,-0.8570449084441568,0.16804622805916905,0.02427359882918971,0.3049866776544824,-1.048904343553031,-0.8890829993501489,2.7650382641088016
12,-0.6203407033352208,0.3668420572879439,-1.8508048028696806,-3.8931020334246877,-1.723300671784552,-0.8607677358962517,0.16877008174278427,0.023979667671299068,0.3059513827386833,-1.0496076955485225,-0.8934058087321951,2.7591776329439948
13,-0.6217884018993923,0.36429203702483237,-1.8461595036833855,-3.890844278355476,-1.7190336204747607,-0.8651020649004688,0.1696140301438879,0.023634230075522324,0.3070729492919504,-1.0503490792356271,-0.898430023103088,2.752297104162994
14,-0.6234522422047903,0.36136129812769535,-1.8408206602196469,-3.888249439915458,-1.7141294973857837,-0.8700835102597103,0.17058553332146814,0.02323292961449444,0.3083598042547575,-1.05109637474471,-0.9041923364973364,2.744311361336135
15,-0.6253433861438896,0.3580301796997897,-1.8347524567836,-3.8853001106001015,-1.7085554031495596,-0.8757454900594067,0.17169171886878987,0.022771233843375892,0.3098195981612156,-1.0518069549546456,-0.9107254524681868,2.7351305618604114
16,-0.6274722738193784,0.35428029222684615,-1.8279213937215726,-3.8819800085705274,-1.7022805658533773,-0.8821192613865011,0.1729393843403302,0.02224440042277168,0.31145918357882235,-1.0524260880777228,-0.9180577904004681,2.724658837157724
17,-0.6298486354745674,0.3500944965624833,-1.8202962491394128,-3.878273959047467,-1.6952763058753235,-0.8892339560484318,0.17433499473532033,0.021647445511381043,0.31328459085104055,-1.0528851166820963,-0.9262131169509129,2.712792549791231
18,-0.6324815034237998,0.3454568829136209,-1.8118480406208168,-3.8741678757052163,-1.6875160007197334,-0.8971166162921158,0.17588467438973382,0.020975114993244393,0.31530100107344505,-1.0530993641050135,-0.9352100852363531,2.699418256142406
19,-0.6353792239828616,0.3403527498258937,-1.8025499869456552,-3.8696487420655936,-1.6789750498526372,-0.9057922305229325,0.17759419266557167,0.02022185913084964,0.3175127163095593,-1.052965709327015,-0.9450616602308244,2.6844103139532907
20,-0.6385494693993904,0.33476858316906505,-1.7923774698083008,-3.864704592891895,-1.6696308395372108,-0.9152837690237058,0.17946894287698612,0.01938181126959025,0.31992312714718457,-1.0523597609220727,-0.9557744034914246,2.6676280641592194
21,-0.6419992497832854,0.3286920351224405,-1.7813079955359572,-3.8593244955828507,-1.6594627076692232,-0.9256122196736889,0.18151391395878325,0.018448771259170205,0.32253467780865797,-1.0511325505453972,-0.9673475834657446,2.648912506884003
22,-0.6457349250371174,0.3221119031602816,-1.7693211568069844,-3.8534985315665815,-1.648451908612486,-0.9367966236675465,0.18373365446587034,0.017416194301053685,0.32534882915726654,-1.0491066583948367,-0.979772068836948,2.628082384058896
23,-0.649762216786538,0.3150181090372194,-1.7563985943692269,-3.8472177776945538,-1.636581578034302,-0.948854111234338,0.18613222859406112,0.016277185974934147,0.328366020084693,-1.046071680679872,-0.9930289511954717,2.60492957934482
24,-0.6540862203106901,0.3074016777736683,-1.7425239587583414,-3.8404742876355367,-1.6238366977409138,-0.961799937356502,0.18871316403507093,0.015024504237902653,0.3315856279180901,-1.0417789587331348,-1.0070878293801662,2.579213756251859
25,-0.6587114164726163,0.29925471664123926,-1.7276828720161241,-3.8332610732695587,-1.6102040605129528,-0.975647517488838,0.19147939162305005,0.013650569223488594,0.33500592864686524,-1.035935522253544,-1.0219046708880366,2.5506561887991
26,-0.66364168364967,0.2905703941481542,-1.7118628894088377,-3.825572086081862,-1.5956722349408878,-0.9904084632774905,0.19443317689783557,0.01214748168955922,0.3386240579346058,-1.0281972745842325,-1.037419146117435,2.5189328150355896
27,-0.6688803096639243,0.2813429190246589,-1.6950534611455392,-3.8174021985568607,-1.580231530260474,-1.0060926182789325,0.19757604390189917,0.010507050969334622,0.3424359740464087,-1.0181615981452412,-1.0535513103784993,2.4836666944797003
28,-0.6744300037125818,0.271567519208437,-1.6772458940964068,-3.8087471855720954,-1.563873961188201,-1.0227080936789479,0.20090869174365966,0.00872083326343934,0.3464364239811626,-1.0053598352910829,-1.070197490505059,2.4444203281482104
29,-0.6802929082983842,0.26124042083002375,-1.658433313511068,-3.79960370579219,-1.546593212756743,-1.0402613040116155,0.20443090469844463,0.006780181067721549,0.35061891424660807,-0.989250584524656,-1.0872252261354862,2.4006887849050185
30,-0.6864706111600225,0.2503588271982195,-1.6386106247369265,-3.7899692830628076,-1.528384605150406,-1.0587570028782924,0.20814145687778346,0.004676304456427166,0.35497568784618944,-0.9692155601699131,-1.1044671373534316,2.351895386351549
31,-0.6929641572025462,0.23892089778550324,-1.6177744749374896,-3.7798422878046076,-1.5092450585405774,-1.0781983186665964,0.21203801277450518,0.0024003448282864928,0.35949770915448437,-0.9445610418061704,-1.1217136717351874,2.297392980919533
32,-0.6997740604277732,0.22692572721344662,-1.5959232148106959,-3.7692219184072,-1.489173057921175,-1.0985867902693902,0.21611702528043727,-5.6538430143545856e-05,0.3641746584355679,-0.9145298223400953,-1.1387048781246125,2.236475720549872
33,-0.7069003158646996,0.2143733242381273,-1.573056860307242,-3.7581081826231033,-1.4681686179440951,-1.119922402803764,0.2203736330689296,-0.0027030681075324867,0.368994937799235,-0.8783310379367832,-1.1551217426875562,2.1684087277461357
34,-0.7143424114999088,0.20126459073554256,-1.5491770543489107,-3.7465018789616997,-1.4462332477546616,-1.142203623330019,0.22480155952796937,-0.005547736146059896,0.3739456903867606,-0.8351978540202363,-1.170578307409364,2.092485631748937
35,-0.7220993402079823,0.1876013006870233,-1.5242870285468983,-3.7344045780831916,-1.4233699158270747,-1.1654274365706512,0.22939301571170345,-0.008598677717175419,0.37901283452433404,-0.7844841768817871,-1.1846168512719626,2.0081251477862647
36,-0.7301696116819083,0.17338607916464735,-1.4983915649201416,-3.721818604192557,-1.3995830147998598,-1.1895893806293336,0.23413861003765765,-0.01186353301793341,0.3841811144725329,-0.7258081152607967,-1.1967097794379407,1.9150144279769357
37,-0.738551264363492,0.15862238131665318,-1.4714969576136447,-3.7087470164335077,-1.3748783263113158,-1.2146835827099003,0.23902726768155538,-0.015349297796470663,0.3894341692292058,-0.659236883216044,-1.2062730772364303,1.8132938791357565
38,-0.7472418773737654,0.14331447135285372,-1.4436109746168087,-3.695193590282442,-1.3492629858349647,-1.2407027948353297,0.244046162798019,-0.019062164040090465,0.3947546206070841,-0.58548135892153,-1.2126961393562112,1.7037516656880638
39,-0.7562385824433961,0.1274674015300501,-1.4147428194817562,-3.6811627989424047,-1.3227454475149998,-1.267638429566727,0.24918066680981,-0.023007352715898734,0.40012418150415385,-0.5060334056626764,-1.2153898610676217,1.5879610071186856
40,-0.7655380758430987,0.11108699113744469,-1.3849030930416601,-3.66665979473704,-1.2953354490017341,-1.2954805957223083,0.25441431604672887,-0.027188940931507907,0.40552378491403124,-0.4231575695531004,-1.2138481246776889,1.468271887133634
41,-0.7751366303140425,0.0941798054820554,-1.3541037551290718,-3.65169039050455,-1.2670439762870498,-1.3242181340963846,0.2597288019646086,-0.03160968636859986,0.4109337337872753,-0.33967516199647835,-1.2077091226817194,1.3475951846598222
42,-0.7850301069982626,0.07675313487412933,-1.3223580862942468,-3.6362610409916494,-1.237883228539847,-1.3538386531783424,0.2651039870230745,-0.036270852319123935,0.4163338713573578,-0.2585654327424095,-1.1967979422740367,1.2290039340030992
43,-0.7952139673690691,0.058814973612555665,-1.2896806495234734,-3.6203788242475228,-1.2078665829414916,-1.38432856487163,0.2705179490380248,-0.04117203710404581,0.42170377099425005,-0.18250959301336,-1.181136151777841,1.1152774743996836
44,-0.805683285161457,0.04037399897028038,-1.2560872519573998,-3.6040514230177783,-1.1770085595212652,-1.4156731202127388,0.27594705644418527,-0.04631101205732914,0.42702294405464464,-0.11353845555977037,-1.1609170044456834,1.0085492557581701
45,-0.8164327583025155,0.021439550179719324,-1.2215949066093608,-3.587287106138408,-1.1453247859918136,-1.4478564450901872,0.2813660764012954,-0.051683572591168285,0.43227106357402684,-0.05288207494957455,-1.1364580315704709,0.9101566828850624
46,-0.8274567208418382,0.0020216074181715893,-1.1862217940837068,-3.5700947099297404,-1.1128319625845946,-1.4808615759635042,0.28674831705561427,-0.0572834070996426,0.43742820100842467,-0.0010147746649894337,-1.1081480218001776,0.8206863826209658
47,-0.8387491548819324,-0.01786922920676609,-1.1499872242941291,-3.5524836195903973,-1.0795478268853282,-1.5146704955822123,0.29206580453266573,-0.0631019885844405,0.4424750726016068,0.04218122654832436,-1.0764017590000257,0.7401381028164713
48,-0.850303702508629,-0.03822176067178662,-1.1129115981819888,-3.5344637505912506,-1.0454911186694436,-1.5492641687048105,0.29728949439910807,-0.06912849387687225,0.44739329134801653,0.07721891961162368,-1.041628484974575,0.6681219074153402
49,-0.8621136777214922,-0.059024210052457726,-1.0750163694346437,-3.5160455300693796,-1.0106815447375301,-1.584622577817758,0.3023895164087242,-0.07534975516641047,0.4521656199657761,0.10483255474202063,-1.0042139275059672,0.6040324469300811
50,-0.874172078364229,-0.08026424353780948,-1.0363240062037757,-3.497239878222024,-0.9751397437507843,-1.620724758854458,0.3073354503629229,-0.08175024821250322,0.4567762198116929,0.12584892630690944,-0.9645127269510232,0.5471780038617656
51,-0.8864715980550995,-0.10192899144491963,-0.9968579528237188,-3.4780581897005436,-0.9388872510664595,-1.657548836914239,0.3120966298983997,-0.08831212110354235,0.4612108902855106,0.14110389140160473,-0.9228475746780685,0.4968643013459526
52,-0.8990046381173256,-0.12400506923350063,-0.9566425915297849,-3.458512315004371,-0.9019464635733144,-1.69507206198134,0.31664246999706686,-0.09501526673094643,0.46545729300705724,0.1513945688923391,-0.8795120643390075,0.45244261092077753
53,-0.9117633195095016,-0.14647859852048595,-0.9157032041765926,-3.4386145418749705,-0.8643406045270609,-1.7332708446438942,0.3209428130332372,-0.10183744127088182,0.4695051549289668,0.15745609727309706,-0.8347752255113731,0.41333325853276714
54,-0.9247394947560035,-0.16933522809461632,-0.8740659339563945,-3.4183775766897933,-0.8260936883858148,-1.77212079181291,0.3249682872700158,-0.10875442992283532,0.47334644458776926,0.15995369949033292,-0.7888865319619374,0.3790337516772235
55,-0.9379247598773988,-0.1925601549310254,-0.831757747117404,-3.397814525856233,-0.7872304856455428,-1.8115967424412556,0.3286906709315836,-0.11574025996313833,0.4769755159118036,0.1594834527677385,-0.7420807473437093,0.3491180928331348
56,-0.9513104663208559,-0.21613814520582741,-0.7888063946821229,-3.3769388772055824,-0.7477764876755124,-1.8516728032426426,0.332083254350252,-0.12276745986139491,0.4803892144048402,0.15657747088930174,-0.6945823206570392,0.32323152544093137
57,-0.9648877328905545,-0.24005355531070238,-0.7452403741656695,-3.3557644813869896,-0.7077578715537403,-1.892322384410608,0.33512119225373693,-0.12980736181556554,0.48358694111265077,0.1517108895427735,-0.6466092374375721,0.30108326430321947
58,-0.9786474576780942,-0.26429035286748315,-0.7010888912941042,-3.3343055332614138,-0.6672014649024407,-1.9335182353375002,0.33778183805092393,-0.13683044363161645,0.4865706705523988,0.14530915749330825,-0.5983763283099648,0.28243863718346823
59,-0.9925803299929057,-0.2888321377427414,-0.6563818217227595,-3.312576553295582,-0.626134710723474,-1.975232480333458,0.3400450520184895,-0.14380670445672253,0.4893449197306009,0.13775482432921027,-0.5500980751229325,0.26711136201926877
60,-1.006676842292659,-0.31366216306237393,-0.6111496727545649,-3.2905923689559455,-0.584585632233797,-2.017436654345398,0.34189347560235467,-0.15070606752583687,0.4919166664760055,0.12939341886700564,-0.5019909619937295,0.2549562656330429
61,-1.020927302113674,-0.33876335622618947,-0.5654235450583753,-3.268368096102634,-0.5425827977009106,-2.0601017386759954,0.34331276463298327,-0.15749880185701098,0.4942952165430867,0.12053823647986013,-0.4542754091671935,0.24586251087472114
62,-1.0353218440013303,-0.3641183399224951,-0.5192350943872985,-3.2459191203834132,-0.5001552852783071,-2.1031981967026683,0.34429177510661374,-0.16415595378765577,0.49649202026707406,0.11147397061470062,-0.40717730987865725,0.23974726980353647
63,-1.0498504414404752,-0.38970945314268046,-0.4726164932970245,-3.2232610786276426,-0.457332647840923,-2.1466960095965595,0.3448226962881568,-0.17064977843537132,0.49852044093361564,0.10245918034718501,-0.3609291688272965,0.2365497171532563
64,-1.0645029187858368,-0.41551877219580824,-0.42560039286414675,-3.200409840240228,-0.41414487782058296,-2.1905647120415237,0.3449011272163383,-0.17695416064031044,0.5003954784214948,0.09372761185990615,-0.31577081790078654,0.23622519547435517
65,-1.0792689631924302,-0.44152813172319605,-0.3782198844044984,-3.1773814885955813,-0.37062237204145276,-2.234773427953104,0.34452609419699803,-0.18304501473982704,0.5021334530381799,0.08548840657243183,-0.2719496621844081,0.23873940751344697
66,-1.0941381365459688,-0.46771914571300655,-0.3305084611914708,-3.1541923024315732,-0.326795896555484,-2.279290906197523,0.3437000085055694,-0.18890065266767964,0.5037516557467785,0.07792524537790982,-0.22972038881112503,0.2440625166551843
67,-1.1090998873932747,-0.49407322851483104,-0.28249998017434796,-3.1308587372434915,-0.282696551477867,-2.3240855563106604,0.3424285652258908,-0.19450211037314621,0.5052679721309983,0.0711945062936393,-0.18934405517710146,0.2521630811767792
68,-1.1241435628726864,-0.520571615854277,-0.23422862369662978,-3.1073974066779977,-0.2383557358224766,-2.369125484217037,0.34072058586527565,-0.199833423419134,0.5067004884163869,0.06542255822816552,-0.15108646460343503,0.2630018132691003
69,-1.1392584206444702,-0.5471953858475547,-0.18572886121436216,-3.083825063927082,-0.19380511233732278,-2.4143785279488013,0.3385878090382067,-0.2048818438260466,0.5080670886204387,0.060702379912253135,-0.11521574068418312,0.2765252396843018
70,-1.1544336408212297,-0.5739254800160629,-0.13703541101445937,-3.0601585831220177,-0.14907657233999672,-2.45981229336471,0.3360446350365716,-0.2096379917474462,0.5093850524067238,0.057089779604573176,-0.08199903089920561,0.29265944534834865
71,-1.1696583378983147,-0.6007427243009755,-0.08818320193303997,-3.0364149407273224,-0.10420220055312379,-2.505394189869111,0.333107831440431,-0.2140959373471607,0.5106706634430191,0.05459959138691833,-0.05169830994378015,0.3113041972183833
72,-1.1849215726842317,-0.6276278500778276,-0.03920733507374541,-3.012611196934709,-0.05921423993980879,-2.551091466130928,0.3297962080141904,-0.21825321023496747,0.51193883799415,0.05320232366621575,-0.02456531644174371,0.332327858951441
73,-1.2002123642310527,-0.6545615151711028,0.009856954473926205,-2.9887644770570443,-0.014145056539083267,-2.5968712458026433,0.3261302699331425,-0.22211073593802155,0.5132027831115796,0.052821812925079585,-0.000835742731160605,0.3555635957520737
74,-1.2155197017648258,-0.6815243248688179,0.05897433591629797,-2.9648919529223052,0.03097289569863726,-2.642700563239281,0.3221318588613354,-0.2256727010587755,0.5144736931194348,0.0533344628824493,0.019277099518915066,0.38080740539450797
75,-1.2308325566159841,-0.7084968529371096,0.10810942103717958,-2.9410108242675346,0.07610711007611437,-2.688546399217389,0.31782379153467677,-0.2289463509140916,0.5157604921580786,0.05457059765288203,0.035588807243211965,0.4078184677460101
76,-1.2461398941497577,-0.7354596626348258,0.15722680247955223,-2.9171383001327946,0.12122506231383667,-2.734375716654028,0.31322950528938415,-0.2319417254812636,0.517069629359551,0.05631830733649378,0.04795018267479034,0.43632216151577835
77,-1.2614306856965787,-0.7623933277281014,0.2062910920272243,-2.89329158025513,0.1662942457145613,-2.7801554963257438,0.30837271942736816,-0.23467134131506107,0.5184049318322741,0.05832991478790125,0.05625281555833708,0.4660158527041094
78,-1.276693920482495,-0.7892784535049526,0.25526695888651796,-2.8694878364625165,0.21128220632787587,-2.8258527725875595,0.3032771204537666,-0.23714982867387435,0.5197675190717201,0.060330868988861475,0.06043346539045475,0.49657724041595436
79,-1.2919186175595803,-0.8160956977898652,0.30411916796793825,-2.8457441940678208,0.25615657811475057,-2.871434669091961,0.2979660780983031,-0.23939353434169028,0.5211557807420147,0.06203052660902503,0.060476824496383225,0.5276747056235868
80,-1.3070938377363397,-0.842825791958373,0.3528126181678388,-2.8220777132627575,0.30088511811207486,-2.916868434507869,0.2924623976933979,-0.2414201015093609,0.5225654180478018,0.06313398913935278,0.056416376122186467,0.5589788174131719
81,-1.3222086955081238,-0.8694495619516509,0.4013123806501082,-2.7985053705118412,0.3454357415972291,-2.9621214782396335,0.2867881129887926,-0.24324803855297344,0.5239895471949555,0.06335398618191121,0.048333244624072985,0.590173977104765
82,-1.3372523709875355,-0.8959479492910973,0.4495837371278255,-2.7750440399463474,0.38977655725261906,-3.007161406146011,0.2809643219011839,-0.24489628860636237,0.5254188617811233,0.06242177943650141,0.03635313667536573,0.6209691668484353
83,-1.352214121834841,-0.9223020320929214,0.4975922181449479,-2.7517104747582657,0.4338759023302359,-3.0519560562591472,0.2750110660963363,-0.24638381147408725,0.526841849417703,0.06009621037212462,0.020641657285019394,0.6511069196820896
84,-1.36708329518838,-0.9484930460827319,0.5453036413579757,-2.7285212885942576,0.4777023778162057,-3.0964735345035663,0.268947253747436,-0.24772918869323543,0.528245056513512,0.05617029025871425,0.0013984209328222034,0.6803699054001053
85,-1.3818493395949731,-0.9745024056101204,0.5926841498176247,-2.705492936949611,0.5212248835953348,-3.140682250415148,0.26279062336943454,-0.24895026146586557,0.5296133939894928,0.0504750690835373,-0.021149552502312017,0.7085848658969337
86,-1.3965018169403352,-1.0003117246632485,0.6397002502505029,-2.682641698562196,0.5644126536156753,-3.1845509528601115,0.25655774534958375,-0.2500638098011973,0.530930475776921,0.04288084847297435,-0.04675466776396205,0.7356239635394625
87,-1.4110304143794798,-1.0259028378834332,0.686318851340777,-2.6599836568064257,0.6072352910530592,-3.2280487657540027,0.2502640567241614,-0.2510852795910663,0.5321789813021731,0.03329606582656085,-0.07515537946611436,0.7614038693543408
88,-1.4254249562671362,-1.0512578215797386,0.7325073020118524,-2.637534681087205,0.649662803475664,-3.2711452237806764,0.2439239239234773,-0.2520285625644941,0.5333410327920207,0.02166434142353343,-0.10608227805910522,0.7858830833839778
89,-1.4396754160881509,-1.0763590147435544,0.7782334297080413,-2.615310408233894,0.6916656380085486,-3.3138103081112718,0.23755072764197657,-0.25290583220210383,0.5343985781465727,0.007960243822829156,-0.13926341339786888,0.8090580440100391
90,-1.453771928387904,-1.1011890400631867,0.8234655786762377,-2.593326223894257,0.7332147164982263,-3.3560144821232116,0.23115696369460634,-0.25372743681349363,0.535333770313944,-0.007815691362868334,-0.17442874020306584,0.8309585635460242
91,-1.467704800702716,-1.125730824938445,0.8681726482475818,-2.571597243928425,0.7742814706771934,-3.39772872711917,0.22475435368907276,-0.2545018491621699,0.5361293345432302,-0.025642230771879784,-0.2113136602301572,0.85164305143948
92,-1.4814645254902556,-1.1499676224952258,0.9123241311191479,-2.5501382958028502,0.8148378773284923,-3.438924578046061,0.21835395955883785,-0.2552356703285164,0.5367689155638992,-0.045482646540901624,-0.24966170343912097,0.8711938823641336
93,-1.4950417920599541,-1.1738830326001017,0.9558901516356006,-2.5289638999842565,0.8548564934502663,-3.479574159214028,0.21196629643645779,-0.25593368398773325,0.5372373976066599,-0.06728960843710707,-0.28922643423636785,0.8897131574514741
94,-1.5084274985034112,-1.197461022874902,0.9988415040708811,-2.5080882513336067,0.8943104914202946,-3.519650220015415,0.20560143896585883,-0.2565989559919331,0.5375211912045207,-0.09100961803652417,-0.3297726918810698,0.9073190083163791
95,-1.5216127636248062,-1.2206859497113114,1.0411496909098719,-2.4875252005000466,0.9331736941605664,-3.5591261706437596,0.199269116914415,-0.25723297311640186,0.5376084818510949,-0.11658691738229268,-0.37107728107039684,0.924142513288656
96,-1.5345889388713085,-1.2435425792854429,1.0827869611300707,-2.467288235314868,0.9714206103018137,-3.5979761178127765,0.1929787968071497,-0.25783581407930817,0.5374894368027107,-0.14396686253014568,-0.41292922450551084,0.9403252354793661
97,-1.5473476202634848,-1.2660161085724275,1.1237263484832636,-2.447390462185467,1.0090264693480675,-3.636174900475332,0.18673974722098557,-0.25840634547874197,0.5371563675485396,-0.17309879036360104,-0.45512967829943257,0.9560173513534442
98,-1.5598806603257107,-1.2880921863610086,1.163941709777197,-2.427844587489295,1.0459672568412133,-3.6736981255424332,0.18056108630325224,-0.25894243510570086,0.5366038466977071,-0.20393842814744256,-0.4974915968859925,0.971376312779865
99,-1.5721801800165807,-1.3097569342681195,1.2034077631572537,-2.4086628989678154,1.082219749525538,-3.7105222036022134,0.17445181097551588,-0.2594411751703265,0.5358287792067371,-0.2364499030759313,-0.5398392190971388,0.9865659708807556
100,-1.584238580659318,-1.3309969677534705,1.2421001263881224,-2.3898572471204593,1.1177615505122827,-3.7466243846389133,0.16842080811612303,-0.25989910829585433,0.534830428961936,-0.27060740682039475,-0.5820074328953398,1.0017560823254912
101,-1.5960485558721813,-1.3517994171341416,1.2799953551354677,-2.3714390265985887,1.152571124444198,-3.7819827937518617,0.1624768487538648,-0.26031244965776124,0.5336104027122469,-0.30639656031131884,-0.6238410638101122,1.017122114428615
102,-1.6076031034988776,-1.372151948599163,1.3170709812476056,-2.3534191575994425,1.18662783266008,-3.8165764668744604,0.15662856692897004,-0.26067729933662254,0.5321725941976343,-0.34381550835942104,-0.6651941219003185,1.0328452615017965
103,-1.6188955375389709,-1.3920427852240986,1.3533055510371832,-2.335808067260099,1.2199119683593453,-3.850385386493164,0.1508844253717191,-0.260989839771378,0.5305230920216044,-0.3828757530540054,-0.7059290342276457,1.0491125788887232
104,-1.6299195000782944,-1.4114607279856481,1.3886786635628376,-2.3186156710514307,1.2524047917665646,-3.8833905173664824,0.1452526705059942,-0.26124651410350264,0.5286700553656906,-0.42360270929570515,-0.7459158844149407,1.0661171308999597
105,-1.640668973219353,-1.4303951767762073,1.423171008910876,-2.3018513541720615,1.2840885652960177,-3.91557384224393,0.13974127950448267,-0.26144418215129417,0.526623562036363,-0.4660359349321133,-0.7850316778585155,1.0840580327259812
106,-1.6511382910117396,-1.4488361514184835,1.4567644064769518,-2.2855239529423166,1.314946588716242,-3.946918397585039,0.13435790220951668,-0.2615802517090995,0.5243954335742534,-0.5102289511308118,-0.8231596505583644,1.103140242967826
107,-1.6613221513825485,-1.4667743126800583,1.4894418432477257,-2.2696417361981887,1.3449632343146005,-3.9774083092783297,0.12910980069925526,-0.261652783794991,0.52199904224971,-0.5562485253549729,-0.8601886413538911,1.1235739318743216
108,-1.6712156280667676,-1.4842009832879834,1.5211875120825487,-2.254212386685289,1.3741239820618008,-4.007028828360287,0.12400378913761419,-0.2616605713429565,0.5194491047298078,-0.6041732398702996,-0.8960125516574511,1.1455732109161514
109,-1.6808141825377119,-1.501108168943372,1.551986849995139,-2.2392429824528,1.402415454776487,-4.035766366734363,0.1190461763154457,-0.2616031916288654,0.5167614670450793,-0.6540911150632133,-0.9305299235837221,1.1693539640041561
110,-1.6901136759374147,-1.5174885793359798,1.5818265764352337,-2.2247399782474337,1.4298254532897543,-4.063608532889946,0.1142427129891501,-0.2614810334155945,0.5139528852268458,-0.7060960039981657,-0.9636436765436409,1.1951304746476887
111,-1.6991103810070447,-1.5333356491587824,1.6106947315702898,-2.2107091869073967,1.4563429916097155,-4.090544167621342,0.10959854577076523,-0.26129530039022164,0.5110408056468059,-0.7602824324984605,-0.9952610534108862,1.2231105067577468
112,-1.707800994017318,-1.548643559122581,1.6385807145671234,-2.1971557607563303,1.4819583320860685,-4.116563379746772,0.10511817894021239,-0.2610479929388401,0.5080431486886845,-0.8167385445685572,-1.0252938391065225,1.253488486797793
113,-1.7161826466989014,-1.5634072569705757,1.6654753218736205,-2.1840841729972817,1.506663020574611,-4.141657581827339,0.10080544515393212,-0.26074187066145504,0.5049780989359848,-0.8755368520700799,-1.0536589246306878,1.286436477642249
114,-1.7242529181728274,-1.5776224784929505,1.6913707855003772,-2.171498199106648,1.5304499216018277,-4.1658195258860165,0.09666348563115325,-0.26038039827375126,0.501863904588484,-0.9367226151667619,-1.0802792944133786,1.322092764931305
115,-1.732009846880901,-1.591285768541471,1.7162608113023894,-2.1594008982281396,1.5533132535294127,-4.189043339126648,0.09269474002380326,-0.25996767768147283,0.49871868833928096,-1.000299936166543,-1.105085508743171,1.3605481350528041
116,-1.7394519425161103,-1.6043945020440566,1.7401406172607214,-2.1477945945667356,1.5752486237188448,-4.2113245596529065,0.08890094583019505,-0.25950836905645613,0.4955602714689476,-1.0662160675785775,-1.1280177287159883,1.4018303438208026
117,-1.7465781979530357,-1.616946905019375,1.763006971764176,-2.13668085878264,1.5962530636959285,-4.232660172187282,0.08528314690527497,-0.25900760370290515,0.49240601245610904,-1.134345020783478,-1.1490282809910006,1.4458878618650455
118,-1.7533881011782633,-1.6289420755914334,1.7848582318909707,-2.126060489385231,1.6163250643153289,-4.253048643790075,0.08184171035769154,-0.25847089139142104,0.4892726609750477,-1.2044722606458396,-1.1680846784521282,1.4925746827314554
119,-1.7598816472207854,-1.6403800050041464,1.8056943816903996,-2.1159334941270327,1.6354646109251538,-4.272489959578374,0.07857635091017039,-0.25790402467018564,0.4861762277587486,-1.2762829398153002,-1.1851729024245619,1.5416386489165161
120,-1.7660593500824264,-1.6512615986359527,1.8255170704645445,-2.1062990713976495,1.6536732185314973,-4.290985658445054,0.07548616163621899,-0.25731298245105516,0.4831318704560474,-1.3493565234227765,-1.2003006263068023,1.5927161486212271
121,-1.7719222546682278,-1.6615886970143676,1.8443296510498883,-2.097155591617745,1.6709539669629523,-4.308538868777726,0.07256964987262039,-0.2567038349260948,0.48015379530790164,-1.4231704886345682,-1.213499948432831,1.6453358702020073
122,-1.7774719487168849,-1.671364096830588,1.8621372180990172,-2.0885005786329787,1.687311536035227,-4.325154344177738,0.06982477704133339,-0.25608265160904636,0.4772551742119968,-1.4971148287694502,-1.2248291446687687,1.6989333468339378
123,-1.782710574731139,-1.6805915719540852,1.878946646362318,-2.080330691107977,1.7027522407156424,-4.340838499179183,0.0672490010930417,-0.2554554140269502,0.474448076537026,-1.5705173501256384,-1.2343729890837287,1.7528762825213355
124,-1.7876408419081935,-1.6892758944471686,1.8947666289696046,-2.0726417039202785,1.7172840662877062,-4.355599444967838,0.0648393203029932,-0.2548279343186137,0.47174341488647237,-1.6426775649627858,-1.242241344183417,1.8064984659648082
125,-1.7922660380701192,-1.6974228555795974,1.9096077157118203,-2.0654284895543045,1.7309167035156667,-4.36944702510017,0.0625923172031476,-0.2542057807361321,0.46915090389385844,-1.7129049986491633,-1.2485659729888348,1.859138093346263
126,-1.7965900415942713,-1.705039286843149,1.9234823513227064,-2.0586849994952834,1.7436615838090566,-4.382392851222333,0.060504201517315795,-0.2535942107991082,0.46667903105354613,-1.7805566410166378,-1.2534958153913496,1.910175233035984
127,-1.8006173333436921,-1.712133080966209,1.936404913760461,-2.0524042456232587,1.7555319143872365,-4.394450338789122,0.05857085107251411,-0.25299811262249355,0.4643350385487895,-1.8450684977967347,-1.2571912205424283,1.9590633908987252
128,-1.8043530085975252,-1.7187132129283706,1.948391752489441,-2.046578281606986,1.7665427134439815,-4.4056347427829845,0.05678784978455489,-0.25242195473107537,0.46212491502683467,-1.9059776497445504,-1.259817766473783,2.0053515863917033
129,-1.8078027889814186,-1.724789760974994,1.9594612267617806,-2.0411981842979445,1.776710845311963,-4.4159631934329635,0.055150521953831785,-0.25186974448767463,0.4600533962843226,-1.9629333605387769,-1.261540298490781,2.048695482860684
130,-1.8109730343979482,-1.7303739276318217,1.9696337438991294,-2.0362540351242453,1.786055055627389,-4.425454731933735,0.05365396225332768,-0.2513449950985856,0.45812397385947756,-2.015697873424577,-1.262517697886656,2.0888582140065375
131,-1.8138707549570103,-1.7354780607195504,1.9789317975742962,-2.031734901484623,1.7945960064944861,-4.434130346164556,0.05229306094083503,-0.2508507010179101,0.45633891057550896,-2.064139039262375,-1.2628987040039306,2.1257030508438213
132,-1.816503622906243,-1.7401156743684125,1.9873800060928937,-2.0276288181423707,1.8023563116500787,-4.44201300640824,0.0510625239770687,-0.25038932145096776,0.45469926213689643,-2.1082175992565477,-1.2628189145751478,2.159180733707746
133,-1.8188799845614314,-1.7443014700327786,1.9950051506750541,-2.0239227686193084,1.8093605716281393,-4.449127701070177,0.04995688787761335,-0.2499627715539464,0.4532049039420944,-2.147971894609829,-1.2623989260353352,2.1893142424415375
134,-1.82100887223692,-1.7480513575057173,2.0018362137370738,-2.0206026665897374,1.8156354089243107,-4.455501472397264,0.04897052926637106,-0.24957242084033196,0.45185456233823346,-2.1835022567004545,-1.2617434680319437,2.2161832588374923
135,-1.8229000161760185,-1.7513824759336223,2.007904417173125,-2.017653337274381,1.8212095031605378,-4.461163452196962,0.04809766922905465,-0.24921909823198074,0.4506458496014737,-2.2149566294478715,-1.2609413347974274,2.2399098730565594
136,-1.8245638564814168,-1.7543132148307587,2.013243260636861,-2.015058498834363,1.8261136262495112,-4.4661448975562035,0.04733237268534675,-0.24890310313179004,0.44957530197747037,-2.2425183009763257,-1.2600659081944938,2.260646410777169
137,-1.8260115550455875,-1.7568632350938738,2.017888559823158,-2.012800743765154,1.8303806775593037,-4.470479226560423,0.04666854310602771,-0.24862422184337432,0.44863842015679223,-2.266396086067945,-1.2591760870157778,2.2785657217921744
138,-1.8272550074812024,-1.7590534900167607,2.0218784847497404,-2.0108615202905193,1.8340457190778698,-4.47420205401251,0.0460999129956888,-0.24838174861918558,0.4478297115880347,-2.2868169348176366,-1.2583174701250452,2.2938539042885733
139,-1.828306855051542,-1.7609062463048786,2.025253598038882,-2.009221113756488,1.8371460105776327,-4.4773512271518445,0.04562003064173356,-0.24817451058014256,0.4471427340446573,-2.3040207285828394,-1.257523676913594,2.3067052243317128
140,-1.8291804966008964,-1.7624451050899093,2.0280568931990524,-2.0078586280253115,1.8397210447799983,-4.479966861373198,0.0452222436959945,-0.2480008957158448,0.44657013985934185,-2.31825692417871,-1.2568177211541238,2.317318889554039
141,-1.8298901004849863,-1.763695022944352,2.030333832906616,-2.0067519668694045,1.8418125825199452,-4.4820913759457905,0.04489968020638127,-0.24785888314341495,0.44610372022118644,-2.329782682204515,-1.256213380789669,2.3258973106185503
142,-1.8304506165013663,-1.7646823328961232,2.0321323872875063,-2.005877815365303,1.8434646879105605,-4.483769529732259,0.04464522775306751,-0.24774607477426713,0.44573444889630887,-2.3388621334184667,-1.2557165257732419,2.332645501709566
143,-1.8308777878198317,-1.7654347654431048,2.033503072198846,-2.0052116212876436,1.8447237635075586,-4.485048456907583,0.04445151136741489,-0.2476597275108086,0.4454525246818801,-2.3457664756672765,-1.2553263792374905,2.3377713095560217
144,-1.8311881629128397,-1.7659814695677958,2.0344989875107005,-2.004727576503085,1.845638585473906,-4.485977702678154,0.044310870923511714,-0.24759678506865346,0.4452474118382304,-2.3507746389733235,-1.25503669501395,2.341486205264719
145,-1.8313991074859128,-1.7663530337518316,2.0351758553876835,-2.0043985983642907,1.8462603387443073,-4.48660925900071,0.04421533869343434,-0.2475539084939733,0.4451078776649918,-2.35417430033725,-1.2548368379659323,2.344006416880698
146,-1.8315288164080386,-1.766581506990606,2.035592058570663,-2.004196311103878,1.84664265218976,-4.486997600301292,0.0441566177502082,-0.24752750441922844,0.44502202629684556,-2.356263069229388,-1.254712753819045,2.345554219696678
147,-1.831596325642094,-1.7667004198078522,2.0358086786584253,-2.004091027228367,1.8468416337821507,-4.487199719194313,0.044126061889671886,-0.24751375007318768,0.44497732769467335,-2.357349698669109,-1.2546478131132401,2.34635923495039
148,-1.8316215241752527,-1.7667448052702333,2.035889534389361,-2.0040517289121427,1.846915905758773,-4.4872751622014615,0.044114657727229604,-0.24750861403144767,0.4449606407010727,-2.3577552054205246,-1.2546235103670444,2.346659615866931
149,-1.8316251659493812,-1.7667512200018982,2.035901219923089,-2.0040460493914134,1.8469266397868749,-4.487286065470718,0.04411300961153313,-0.2475078716601144,0.44495822891788156,-2.3578138065636924,-1.254619995225932,2.3467030234155364
