nimar13/UR3e_dataset_trayectorias/data/trayectorias_completas_UR3e_JTRAJ/trayectoria_420.csv
Punto,shoulder_pan_joint,shoulder_lift_joint,elbow_joint,wrist_1_joint,wrist_2_joint,wrist_3_joint,Posicion_X,Posicion_Y,Posicion_Z,Roll,Pitch,Yaw
0,0.29290937060242594,-0.23947668176011883,-2.0380452068976718,0.0011838467623821458,1.7360457354279362,3.252794562533179,0.06715627111885196,0.14065696377406223,0.5067243003890766,-0.08374637014566463,-0.8471404912815135,-2.598940872027424
1,0.29290807288224047,-0.23947496736193655,-2.0380440652593546,0.001169994795660414,1.7360360342606933,3.2527712191751945,0.06715533893406717,0.14065746810360202,0.5067244708855525,-0.08375473512340909,-0.8471317306400716,-2.5989597213059086
2,0.29289909356503185,-0.2394631049240455,-2.0380361659196478,0.0010741488617320672,1.7359689089597687,3.2526096994435925,0.06714888896614755,0.14066095784622482,0.5067256499127272,-0.08381262812516871,-0.8470711078815933,-2.5990901350952473
3,0.2928750371319321,-0.23943132434018852,-2.0380150028475827,0.0008173686139840266,1.7357890739819546,3.2521769729313976,0.067131609756134,0.14067030835234853,0.5067288027007361,-0.08396784256428379,-0.8469086487231893,-2.5994394393213347
4,0.2928288162845002,-0.23937026268937525,-2.0379743411617435,0.00032400367473990155,1.7354435479000951,3.251345553492906,0.06709841385178296,0.1406882786897413,0.5067348360510714,-0.08426652839633617,-0.8465963235072469,-2.60011022165166
5,0.29275364769340595,-0.2392709586195335,-2.0379082133902755,-0.00047835174362189444,1.7348816216221763,3.249993422771117,0.06704443755286517,0.14071751700754334,0.5067445798997686,-0.08475358285206644,-0.8460878750105605,-2.6012001167933905
6,0.29264304774711386,-0.239124846731161,-2.0378109157308897,-0.0016589042175500297,1.7340548266104134,3.2480039537251666,0.06696504159062544,0.1407605670196667,0.506758763207516,-0.08547314898433307,-0.8453386050100598,-2.602801510193272
7,0.2924908283005668,-0.23892375196097654,-2.0376770043108703,-0.0032837064912021423,1.7329169031003413,3.2452658341577534,0.06685581270842937,0.14081987541212557,0.5067779852466905,-0.08646920064956576,-0.8443051297214417,-2.605001176971304
8,0.2922910924238696,-0.23865988396557172,-2.0375012914470805,-0.005415702855326717,1.731423768319903,3.2416729902425723,0.06671256617371973,0.14089779999533886,0.506802683300737,-0.0877861931227382,-0.8429451146848814,-2.6078798727529904
9,0.29203823015097313,-0.23832583150506242,-2.0372788419059673,-0.008114774526144982,1.7295334847085377,3.237124510051744,0.06653134931445648,0.1409966184379365,0.5068330977407436,-0.08946975896309335,-0.8412170001304282,-2.611511893053542
10,0.29172691422835795,-0.23791455682674015,-2.0370049691635703,-0.011437785024232792,1.7272062281362714,3.231524567083248,0.06630844623228366,0.14111853743255648,0.5068692353971623,-0.09156742900829948,-0.839079728226455,-2.6159646180063096
11,0.2913520958637181,-0.23741939004872373,-2.0366752316655248,-0.015438625553402502,1.7244042561228041,3.2247823437883505,0.066040383896527,0.14126570215605425,0.5069108321014131,-0.09412935847985554,-0.8364924838199862,-2.6212980595129096
12,0.2909090004746445,-0.2368340235436106,-2.036285429087071,-0.02016826037958486,1.7210918760566,3.2168119550990357,0.06572393986505838,0.14144020589592898,0.5069573152326273,-0.09720903814969403,-0.8334144602500403,-2.6275644283063095
13,0.29039312343730944,-0.23615250632212847,-2.0358315985930577,-0.0256747722097109,1.717235413413976,3.207532371955438,0.06535615190797321,0.14164409972121267,0.5070077670693045,-0.10086397039199986,-0.8298046614974688,-2.6348077389160607
14,0.28980022583514964,-0.23536923841678667,-2.0353100110979496,-0.03200340757059384,1.7128031799781902,3.1968673448332714,0.06493432982618988,0.141879402079174,0.5070608897142816,-0.10515628980984501,-0.8256217512814433,-2.643063471023048
15,0.2891263302075504,-0.23447896526552783,-2.034717167525833,-0.039196622187810885,1.7077654420585313,3.1847453272712603,0.0644560697583019,0.14214810819872192,0.5071149723342454,-0.11015330811386786,-0.8208239586920087,-2.6523583060601306
16,0.2883677162985293,-0.23347677209537912,-2.0340497950704215,-0.047294126364585264,1.7020943887094082,3.1710993993985714,0.06391927125439838,0.1424521991772064,0.5071678614319055,-0.11592796321566767,-0.8153690485442519,-2.662709957979894
17,0.2875209168054199,-0.23235807830610403,-2.033304843455065,-0.05633293036066795,1.695764099949437,3.155867191462243,0.06332215736461294,0.14279365061940358,0.5072169348494817,-0.12255915329296987,-0.8092143628572173,-2.674127116660962
18,0.28658271312755557,-0.23111863185385356,-2.032479481192752,-0.06634738977121964,1.6887505149805324,3.1389908073546158,0.06266329794266248,0.14317444068599072,0.5072590801856829,-0.13013193811330495,-0.802316937727951,-2.6866095212335104
19,0.2855501311149531,-0.229754503634818,-2.0315710918461174,-0.07736925090569272,1.6810314004069942,3.120416748140765,0.061941636300665015,0.14359655739407395,0.5072906782938196,-0.13873759237998778,-0.7946336974441998,-2.700148178460308
20,0.2844204368169968,-0.22826208186887825,-2.030577270287449,-0.08942769616671285,1.6725863184545984,3.1000958355859294,0.06115651927148086,0.14406200499479974,0.5073075925146926,-0.14847349944980834,-0.7861217250441045,-2.71472573804903
21,0.28319113223112186,-0.2266380664832573,-2.029495818958693,-0.10254938942896125,1.6633965951896843,3.0779831356829432,0.06030773063932055,0.14457280923343827,0.507305164282746,-0.15944287853702516,-0.7767386058032991,-2.730317032321801
22,0.28185995105149847,-0.22487946349617183,-2.028324744131462,-0.1167585214180563,1.653445288738245,3.0540378821796663,0.05939552778939805,0.14513102127637897,0.5072782157255739,-0.17175434440933007,-0.766442837450628,-2.7468897820791516
23,0.28042485441771525,-0.2229835794004837,-2.0270622521670374,-0.13207685508943548,1.642717157505015,3.0282234001064148,0.058420681304215974,0.1457387200682533,0.5072210598528868,-0.18552130539584383,-0.755194298442432,-2.764405463966482
24,0.2788840266634633,-0.22094801554735125,-2.025706745776379,-0.14852377100723735,1.6311986283925604,3.000507029303392,0.057384517099308134,0.14639801286205645,0.5071275188988998,-0.20086121290911002,-0.7429547635271188,-2.7828203275319074
25,0.27723587106521985,-0.21877066252988106,-2.0242568202801294,-0.16611631272318345,1.6188777650203665,2.9708600479481198,0.05628896054692145,0.1471110336470165,0.5069909513390801,-0.21789468314174945,-0.7296884542615781,-2.8020865429390316
26,0.27547900559093197,-0.2164496945667793,-2.0227112598686214,-0.18486923215545975,1.6057442359439278,2.9392575960828675,0.0551365818846584,0.14787993918449646,0.5068042880454674,-0.23674451855199702,-0.7153626112272331,-2.8221534535404
27,0.27361225864870037,-0.21398356388600318,-2.0210690338618833,-0.2047950349675995,1.5917892828738367,2.9056785991420853,0.05393064205042185,0.1487069023530002,0.5065600779716521,-0.25753466259219976,-0.6999480745210506,-2.8429689018251763
28,0.27163466483546334,-0.21137099510841256,-2.0193292929696436,-0.22590402594736397,1.5770056888948716,2.8701056914798317,0.05267513792853287,0.1495941025010108,0.5062505436663679,-0.28038912530215476,-0.6834198596951941,-2.8644805931735493
29,0.26954546068568014,-0.2086109796314214,-2.0174913655513413,-0.24820435438562505,1.5613877466850872,2.8325251398972076,0.05137484583852878,0.1505437125125757,0.5058676468012593,-0.3054309194531825,-0.6657577176548761,-2.8866374597962636
30,0.2673440804200152,-0.20570277001264917,-2.015554753876127,-0.271702059455247,1.5449312267349027,2.7929267671697846,0.05003536195240522,0.15155788230693817,0.5054031637619671,-0.3327810466462961,-0.6469466690036235,-2.909390987433008
31,0.26503015169402144,-0.20264587435357245,-2.0135191303828734,-0.2964011155899685,1.5276333455661901,2.751303875575036,0.04866313819282929,0.15263871852159297,0.5048487711909632,-0.3625575701206838,-0.6269775058015776,-2.9326964698211344
32,0.2626034913468245,-0.19944005068317647,-2.0113843339401782,-0.3223034778632838,1.509492733951365,2.7076531704197695,0.04726551204960561,0.15378826016935374,0.5041961411852035,-0.394874806226007,-0.6058472564926296,-2.9565141603849625
33,0.260064101149806,-0.19608530134160637,-2.0091503661063723,-0.34940912736732554,1.4905094051324732,2.6619746835675553,0.04585072866016508,0.15500845011544914,0.5034370456420885,-0.42984265995802845,-0.5835596126590944,-2.980810296591007
34,0.25741216355528784,-0.19258186736381894,-2.0068173873895256,-0.3777161165917463,1.4706847230402815,2.6142716969661577,0.04442795343815818,0.15630110229114938,0.502563469014968,-0.46756612219141974,-0.5601253190807649,-3.005557979374525
35,0.2546480374452155,-0.18893022286323397,-2.004385713507452,-0.4072206148026,1.4500213705133658,2.5645506661749677,0.04300727350850635,0.1576678646463253,0.5015677284872173,-0.5081449378644596,-0.5355625311318861,-3.0307378973046095
36,0.25177225387984214,-0.18513106941538582,-2.001855811647716,-0.43791695342122455,1.4285233175171994,2.512821143892431,0.041599686223583725,0.15911017794453294,0.500442600305712,-0.5516734459549563,-0.5098971457023119,-3.0563388920595913
37,0.24878551184641207,-0.18118533044157484,-1.9992282967276411,-0.4697976714031237,1.406195789363244,2.459095703483479,0.04021707309932486,0.1606292306199561,0.49918145073563,-0.5982405841212557,-0.48316311347571056,-3.0823583677438404
38,0.2456886740078448,-0.17709414559251896,-1.9965039276543122,-0.5028535606168476,1.3830452349280362,2.4033898625069625,0.03887215762711525,0.16222591004441886,0.49777836981553875,-0.647930043711448,-0.45540274147533405,-3.108802551121012
39,0.24248276245141864,-0.17285886513200513,-1.9936836035845844,-0.5370737112228765,1.3590792948722785,2.3457220062430792,0.03757844559164051,0.1639007506925487,0.496228305812647,-0.7008205546451857,-0.42666699526656154,-3.135686612638428
40,0.23916895443745442,-0.1684810443205407,-1.990768360185088,-0.5724455570525018,1.3343067698599265,2.2861133112208045,0.03635014675949433,0.1656538798411243,0.49452719801198486,-0.7569862744531407,-0.39701581007565967,3.120150648194411
41,0.23574857814799943,-0.16396243779900513,-1.9877593658922355,-0.6089549209867077,1.308737588777279,2.224587668745325,0.03520207709982835,0.1674849615909551,0.49267210523030447,-0.8164972513758201,-0.3665184193425831,3.0923057003811696
42,0.23222310843551106,-0.15930499397230136,-1.9846579181722268,-0.6465860603350535,1.2823827769520666,2.1611716084254664,0.034149541056418306,0.16939314015189474,0.49066132723658695,-0.8794199276148441,-0.33525370785950687,3.063922363139486
43,0.22859416257154055,-0.15451084939300724,-1.981465439781056,-0.6853217122145552,1.2552544243725403,2.0958942217011254,0.03320819380776225,0.1713769834786155,0.4884945160975825,-0.9458176452604043,-0.3033105946188403,3.0349509265731873
44,0.22486349599541683,-0.14958232314502723,-1.9781834750245173,-0.7251431389285681,1.2273656539065612,2.0287870853707,0.032393883923475086,0.17343442848086635,0.4861727743602996,-1.0157511137268662,-0.270788447730817,3.005333924135144
45,0.22103299806293028,-0.14452191122724373,-1.9748136860182113,-0.766030173345667,1.1987305895206886,1.9598841851185227,0.031722477343926324,0.17556272915095206,0.48369873694489823,-1.0892787933799848,-0.23779753015114308,2.9750067271709577
46,0.2171046877950164,-0.13933228093716846,-1.9713578489475507,-0.8079612642785302,1.1693643244992693,1.889221839042285,0.031209664165803758,0.17775840904673276,0.4810766336613149,-1.1664571451854793,-0.20445947031356335,2.9438982916677947
47,0.21308070962643966,-0.13401626525459429,-1.9678178503277672,-0.8509135218628198,1.139282889663527,1.8168386211804757,0.03087075029641454,0.18001721963418982,0.4783123293900024,-1.247340690557118,-0.17090774587366275,2.911932090758407
48,0.20896332915447724,-0.12857685722524642,-1.9641956832639171,-0.8948627629360648,1.1085032215906496,1.742775285039806,0.03072043662886569,0.1823341060234825,0.4754133391883465,-1.3319818192820012,-0.13728816138969346,2.879027277700141
49,0.20475492888760286,-0.12301720434443406,-1.9604934437108879,-0.9397835564165413,1.0770431308328812,1.6670746871226443,0.03077258897136191,0.18470318162092,0.4723888159040681,-1.420430276951527,-0.10375929164302286,2.8451001350542926
50,0.20045800399417035,-0.11734060294070181,-1.9567133267334031,-0.9856492686821572,1.0449212701366073,1.589781710454442,0.03104000251734415,0.1871177131618547,0.46924950829669027,-1.5127322577139293,-0.07049285123617577,2.810065875498599
51,0.1960751580510977,-0.1115504925594813,-1.952857622766031,-1.0324321089493298,1.0121571026614467,1.51094318811117,0.03153416514840172,0.18957011748278574,0.4660076881859597,-1.6089290250119803,-0.037673938040163446,2.7738408664113527
52,0.19160909879255056,-0.10565045034674247,-1.948928713873188,-1.0801031746518721,0.9787708701993387,1.430607826746745,0.03226502429742206,0.19205197123313714,0.4626770457562602,-1.7090549846888177,-0.005501083199106992,2.7363453516323784
53,0.18706263385862615,-0.0996441854326452,-1.9449290700091462,-1.1286324968198733,0.944783561393633,1.348826130120462,0.033240762444028474,0.19455403451816067,0.4592725528387698,-1.8131351447283597,0.025813975619094303,2.697506736356156
54,0.18243866654403698,-0.09353553331519088,-1.9408612452780396,-1.1779890854585777,0.9102168799581781,1.2656503226244251,0.03446758654768011,0.19706628920619512,0.4558102947546462,-1.9211819180684304,0.05604689692027039,2.657263480863061
55,0.1777401915467946,-0.08732845024387356,-1.93672787419387,-1.2281409749272716,0.8750932128964106,1.181134272810978,0.035949536827484835,0.1995779923300931,0.45230727211516353,-2.033191264011488,0.08496182680029343,2.615569611177341
56,0.17297029071689352,-0.08102700760333195,-1.932531667940513,-1.2790552693181616,0.8394355987204434,1.0953334169201336,0.03768832025629375,0.2020777446703029,0.44878117481709384,-2.1491382241136434,0.11231309988886032,2.5723997954659703
57,0.16813212880499467,-0.07463538629700067,-1.9282754106317244,-1.3306981878352564,0.8032676956701561,1.0083046824070072,0.039683173938283654,0.20455357423416246,0.44525013131925956,-2.2689719927549747,0.13784766880119184,2.527754851430123
58,0.16322894921110945,-0.06815787113076135,-1.923961955571146,-1.383035110173252,0.7666137499322822,0.920106411469245,0.04193076317700986,0.2069930339527695,0.44173243711212234,-2.3926107698757297,0.16130836422686118,2.481667443160365
59,0.15826406973328333,-0.06159884519659492,-1.9195942215123125,-1.4360306218964105,0.7294985638594993,0.8307982845744553,0.04442511851316351,0.20938331251529374,0.4382462670680205,-2.5199367663871297,0.18243805066982718,2.434207603200731
60,0.15324087831627972,-0.05496278425623252,-1.9151751889186563,-1.4896485598174416,0.691947464189518,0.74044124398764,0.047157615322414366,0.21171135686408393,0.4348093770561292,-2.6507918557926224,0.20098468150300897,2.3854875926829546
61,0.14816282880026357,-0.04825425112480694,-1.9107078962235156,-1.543852057376388,0.6539862702641683,0.6490974172986252,0.05011699872440022,0.2139640044964684,0.43143880079495883,-2.7849744634011078,0.21670717064461326,2.3356655145732717
62,0.1430334366694853,-0.04147789005450456,-1.9061954360901383,-1.5986035900195048,0.615641262248493,0.5568300409494897,0.05328945558123622,0.21612812337509113,0.42815054836954236,-2.922238324600322,0.22938189140491794,2.284947054926697
63,0.13785627480096466,-0.03463842111821683,-1.9016409516716901,-1.6538650205781387,0.5769391493498348,0.4637033837620015,0.056658734281082715,0.21819075695194012,0.4249593131367823,-3.0622936923977875,0.23880949753263894,2.233584778174569
64,0.13263496921317403,-0.027740634593190927,-1.8970476328712595,-1.709597644647616,0.5379070380369213,0.3697826704650402,0.06020631183827323,0.22013927157482086,0.42187819386134184,3.0783738991944674,0.24482165598402578,2.1818745687322982
65,0.12737319481472292,-0.020789385344682443,-1.8924187126018641,-1.76576223596612,0.4985724002589609,0.2751340052220357,0.06391160662998788,0.22196150338024223,0.41891843885193314,2.9337553420891473,0.2472872088756423,2.1301490939511467
66,0.1220746711530408,-0.01378958720960588,-1.8877574630464575,-1.8223190917935757,0.4589630416647257,0.1798242951583897,0.0677522338680239,0.22364590169249565,0.4160892185959851,2.7874199769976635,0.24611726620387778,2.0787685318071567
67,0.11674315816306183,-0.0067462073801867195,-1.8830671919179345,-1.8792280782905277,0.4191070698216448,0.08392117388892029,0.0717042997127773,0.2251816659514021,0.4133974329186034,2.6397624175668817,0.24126878609510666,2.028109197253096
68,0.11138245191590798,0.00033573921238705395,-1.8783512387191372,-1.9364486758970259,0.3790328624348902,-0.012507074954721809,0.07574272881594282,0.22655887328380145,0.41084755802584194,2.491174742299438,0.2327463260454043,1.9785510304835203
69,0.10599638036757297,0.007451195514313946,-1.8736129710028628,-1.9939400247115064,0.33876903556646765,-0.10939159419661415,0.07984161906873488,0.2277685940159685,0.4084415379464449,2.3420333596528726,0.22060182996353203,1.9304650991963999
70,0.10058879910760604,0.014595067965527064,-1.8688557806318673,-2.0516609698696726,0.2983444118543037,-0.20666302958913363,0.08397461647120165,0.22880299269174378,0.40617872388148024,2.1926870029159993,0.20493252050812777,1.8842022667574367
71,0.09516358710779582,0.021762232116042723,-1.8640830800388732,-2.1095701069233783,0.2577879887313368,-0.3042516062855283,0.08811530235889918,0.22965541250672344,0.40405586383531433,2.0434468164859876,0.18587715658158793,1.8400839888189353
72,0.08972464247085388,0.028947538242308835,-1.8592982984865762,-2.1676258272195064,0.21712890664460494,-0.40208720531248154,0.09223758475357005,0.2303204414815559,0.4020671436676702,1.894579167019109,0.16361105859007768,1.798395870634834
73,0.08427587817909876,0.0361458169635539,-1.854504878327649,-2.225786363278858,0.17639641727433375,-0.5000994400426855,0.09631608536525943,0.23079395916352735,0.4002042794130382,1.7463014237080892,0.13834037901885488,1.7593842251156606
74,0.0788212178431395,0.04335188485813474,-1.84970627126475,-2.2840098341750226,0.13561985175303004,-0.5982177326674076,0.10032651377712817,0.23107316314910814,0.39845665940161795,1.5987805851767465,0.11029609977546795,1.7232555008274821
75,0.07336459145055962,0.05056055007988536,-1.8449059346105283,-2.3422542909132718,0.09482858888456258,-0.6963713906690652,0.10424602059495049,0.23115657524336158,0.3968115334279142,1.4521343499281585,0.07972818239896338,1.690178163047515
76,0.06790993111460014,0.05776661797446647,-1.8401073275476294,-2.4004777618094377,0.054052023363257096,-0.7944896832937918,0.10805352183560363,0.23104402759645729,0.39525424499155987,1.3064340641380328,0.04690020343708154,1.6602864403954538
77,0.06246116682284503,0.06496489669571148,-1.8353139073887024,-2.4586382978687884,0.01331953399298591,-0.8925019180239939,0.11172998754845855,0.230736629664462,0.39376850152040643,1.1617089338963842,0.012084697845512521,1.633685292953416
78,0.05702222218590325,0.07215020282197748,-1.8305291258364051,-2.516694018164916,-0.02733954809374417,-0.9903375170509445,0.11525868858760055,0.23023671731325146,0.39233667651536286,1.0179509353192533,-0.024440672680096573,1.6104559910549354
79,0.05159701018609275,0.07931736697249336,-1.8257564252434113,-2.5746031552186235,-0.06789597121671198,-1.08792609374734,0.11862539655076576,0.22954778580462964,0.3909401367616648,0.8751199620766383,-0.0623960993673221,1.590661783101754
80,0.04618942892612615,0.08646123942370632,-1.8209992348724158,-2.6323241003767874,-0.10832059492887502,-1.1851975291398595,0.12181853313587425,0.22867440875863507,0.3895595871575957,0.7331488836090045,-0.10150179498588924,1.5743532428376046
81,0.04080335737779106,0.09357669572563321,-1.8162609671561412,-2.6898154491912685,-0.14858442179729803,-1.2820820483817528,0.12482926649641192,0.22762214546452322,0.38817542533709964,0.5919483237806966,-0.1414794384608609,1.5615729958433637
82,0.035442651130637104,0.10065864231820698,-1.811545013957344,-2.747036046797768,-0.18865862918405263,-1.3785102972253949,0.1276515535578029,0.22639743910740193,0.38676809811705865,0.45141109342181235,-0.1820530100397113,1.5523596155403547
83,0.03011113814065819,0.10770202214762603,-1.8068547428288209,-2.8039450332947196,-0.2285146010271335,-1.4744134184948638,0.13028212864235958,0.2250075085838138,0.3853184518846355,0.3114163138787766,-0.22294914558057802,1.5467505434099869
84,0.02481261447897609,0.1147018202827027,-1.802193493273414,-2.860501889122175,-0.26812395962136826,-1.5697231285585111,0.13272044009506,0.22346023659736122,0.38380806934809386,0.17183335077388828,-0.2638971442894116,1.544783925899027
85,0.01955084008052488,0.12165306953121124,-1.7975645730040188,-2.9166664804406794,-0.3074585973993291,-1.6643717938015143,0.13496853786350826,0.22176405665787136,0.3822195855910405,0.032525738940588134,-0.30462876635626857,1.5464992756134432
86,0.01432953449273433,0.12855085605623717,-1.7929712542035883,-2.9723991045101563,-0.34649070871224286,-1.758292507098476,0.13703091612438745,0.21992784146112943,0.380536977073126,-0.10664467749814505,-0.34487795891521544,1.551936864000395
87,0.009152372624213534,0.1353903249925248,-1.78841676978514,-3.0276605350687884,-0.38519282161090196,-1.8514191642859643,0.1389143160325946,0.21796079491019463,0.3787458180818755,-0.2458131419122279,-0.3843806527222224,1.5611357461829682
88,0.004022980493435413,0.14216668606282723,-1.7839043096517628,-3.082412067711906,-0.42353782962657593,-1.9436865406351007,0.14062749447191092,0.21587234976545422,0.37683350012775485,-0.3851066691725589,-0.4228747785491506,1.5741303175759835
89,-0.0010550690225806791,0.14887521919425262,-1.779437016956622,-3.136615565270853,-0.46149902355192474,-2.0350303673241132,0.14218096528892396,0.21367207259225957,0.37478941085176765,-0.5246377954476215,-0.4601006604552992,1.590945320401132
90,-0.006078260439584371,0.15551128013461502,-1.775017984362966,-3.1902335031918847,-0.4990501232219069,-2.125387407910928,0.14358671988446045,0.21136957732660125,0.37260507014409605,-0.6644972417813964,-0.49580194975158914,1.6115892724851857
91,-0.011043139917410572,0.1620703060687818,-1.7706502503041324,-3.243229014915044,-0.5361653092946899,-2.2146955348057222,0.14485793421648888,0.20897444841550683,0.3702742223156568,-0.8047454638794052,-0.5297272632760501,1.6360463978727406
92,-0.01594631951129566,0.16854782123502077,-1.7663367952435542,-3.2955659372530395,-0.5728192550325639,-2.30289380574348,0.14600866924057698,0.20649617412401916,0.3677928842853599,-0.945403252262472,-0.5616326749012954,1.6642673132318835
93,-0.020784481423194667,0.1749394425413524,-1.7620805379347653,-3.347208855770135,-0.6089871580828516,-2.3899225402566096,0.14705357159090693,0.2039440902480755,0.36515935081046624,-1.086441809916664,-0.5912851706192022,1.696158970946003
94,-0.025554382253095476,0.18124088518189385,-1.7578843316814086,-3.398123150161023,-0.6446447722588182,-2.475723396147451,0.14800758090514385,0.2013273341441913,0.362374158765776,-1.2277730545785155,-0.6184671057060889,1.7315746655869642
95,-0.030252857250337772,0.18744796825321086,-1.7537509605972392,-3.4482750396297153,-0.6797684393205854,-2.560239445960896,0.14888564964377435,0.19865480869250188,0.35944001334414166,-1.369241226944438,-0.6429815911988468,1.7703052324627575
96,-0.034876824564927134,0.19355662037066557,-1.7496831358661324,-3.497631628268424,-0.7143351207560418,-2.64341525345694,0.1497024805763621,0.19593515555714705,0.35636167978630096,-1.5106171565220128,-0.6646585879309725,1.8120728272365938
97,-0.039423289498851766,0.19956288528476285,-1.7456834920020905,-3.546160950436425,-0.748322429561747,-2.7251969500832196,0.1504722863334525,0.19317673690256842,0.35314584483827854,-1.6515966367151191,-0.6833613142520025,1.8565287672240696
98,-0.043889348757398805,0.20546292749750172,-1.7417545831092474,-3.5938320161389647,-0.7817086620238562,-2.8055323114476423,0.15120857458465098,0.19038762456901784,0.34980095257164434,-1.7918041799020776,-0.6989924084823608,1.9032567275113557
99,-0.04827219470047128,0.21125303787872207,-1.7378988791418752,-3.6406148564061382,-0.8144728294990156,-2.8843708337909177,0.15192396153159402,0.18757559560610376,0.3463370194836116,-1.9308028939867015,-0.7114991723234759,1.9517820505158683
100,-0.05256911959390398,0.21692963928245446,-1.7341187621643905,-3.6864805686717563,-0.846594690195289,-2.961663810459118,0.15263001552865912,0.18474813300812154,0.3427654339235079,-2.068110370887662,-0.7208772026317873,2.0015870725043783
101,-0.05677751986077828,0.22248929216326685,-1.7304165226113613,-3.7314013621522317,-0.8780547809530574,-3.037364408376277,0.15333713179146918,0.18191243048591718,0.3390987448777135,-2.2032194558766243,-0.7271718276360387,2.0521313458716035
102,-0.06089490033274059,0.2279287001926149,-1.7267943555475112,-3.775350603225476,-0.9088344490259344,-3.1114277445169485,0.1540544383475266,0.1790754001423549,0.335350444998995,-2.335621828474333,-0.7304769997846087,2.102874695369297
103,-0.06491887850131728,0.2332447158751887,-1.723254356927728,-3.8183028608097622,-0.9389158838616769,-3.1838109623787574,0.15478973264476406,0.1762436819861652,0.3315347525038057,-2.4648317457641937,-0.730931621375084,2.153300464797461
104,-0.06884718876923124,0.2384343461652636,-1.7197985198570676,-3.860233951742627,-0.9682821488830946,-3.254473308454994,0.15554944757841802,0.17342365431534537,0.32766639620056415,-2.5904072624488346,-0.7287136200193575,2.2029362727542097
105,-0.07267768670171781,0.2434947580830471,-1.7164287308507615,-3.9011209861597234,-0.9969172132689668,-3.3233762087071703,0.15633864513593,0.17062144411933708,0.32376040747271595,-2.7119667610055322,-0.7240323697785089,2.251370114025923
106,-0.07640835327784146,0.24842328433102767,-1.7131467660942226,-3.9409424128737403,-1.0248059837349466,-3.3904833450376017,0.1571610354007644,0.16784293678179663,0.3198319225426407,-2.8291995337982443,-0.7171202111305304,2.2982605508992484
107,-0.08003729914181235,0.25321742891032173,-1.7099542877030516,-3.9796780647532426,-1.0519343363144742,-3.455760731761945,0.1580190183021357,0.1650937845061213,0.3158959978063148,-2.9418701873900543,-0.7082238380832546,2.3433407664308343
108,-0.08356276885430036,0.25787487273702503,-1.706852839983043,-4.017309204101588,-1.0782891481396852,-3.519176792081801,0.15891374524784455,0.16237941302773795,0.3119674404731822,-3.049817525466077,-0.6975962133006491,2.3864171373551537
109,-0.08698314514375527,0.26239347925856094,-1.7038438456901905,-4.053818568035792,-1.1038583292223336,-3.5807024345572778,0.15984519762760357,0.1597050263149768,0.30806065618880163,3.130236163197377,-0.6854894882931869,2.4273635610591384
110,-0.0902969531577198,0.2667713000700256,-1.7009286022906942,-4.089190413865419,-1.128630854234686,-3.6403111295795547,0.16081227911741378,0.15707560908954246,0.3041895147752698,3.0319521084371206,-0.672149198402876,2.4661129972109657
111,-0.09350286471414582,0.2710065805305393,-1.6981082782209664,-4.123410564471447,-1.152596794290444,-3.697978985843431,0.16181291874255377,0.15449592711447577,0.3003672347098865,2.938496567046596,-0.6578098144545792,2.5026476187302995
112,-0.096599702552713,0.2750977653795954,-1.6953839091476373,-4.156466453685171,-1.1757473487256522,-3.7536848268199527,0.16284418175676074,0.15197052529944946,0.29660628648715437,2.8498095472361458,-0.6426915896154364,2.536988716549933
113,-0.09958644458614341,0.27904350435340586,-1.6927563942275625,-4.188347171667067,-1.1980748768796055,-3.8074102672289065,0.1639023855563909,0.14950372375854765,0.2929183145816589,2.7657995368461354,-0.626998548661191,2.5691871772822763
114,-0.1024622281515164,0.28284265780125395,-1.690226492367827,-4.219043510285692,-1.219572929875774,-3.859139789511442,0.16498321805845564,0.14709961202358354,0.2893140773557924,2.6863518898448193,-0.6109174224542226,2.5993150347456195
115,-0.105226354261589,0.2864943023018389,-1.687794818485753,-4.248548008496547,-1.2402362824026891,-3.908860820302632,0.16608185621816465,0.1447620416665453,0.2858034039404222,2.6113359392538458,-0.5946173217005659,2.627458332436584
116,-0.1078782918561072,0.28999773627962666,-1.6854618397689058,-4.276854997720966,-1.2600609644948833,-3.9565638069040254,0.16719308263316848,0.14249461761862803,0.28239516686001004,2.540610789480204,-0.5782499584218153,2.653711341488469
117,-0.11041768205312508,0.2933524856211971,-1.6832278719351004,-4.303960647225013,-1.2790442933137705,-4.002242293756243,0.16831139846709336,0.14030068849183158,0.27909726897596393,2.4740298644997756,-0.5619502502130215,2.678172054654179
118,-0.1128443424003227,0.2965583092915929,-1.6810930754924054,-4.329863009498327,-1.297184904928601,-4.045892998911508,0.1694311312142801,0.13818333621391013,0.2759166431811224,2.4114443559345498,-0.545837173302697,2.7009388087333606
119,-0.11515827112631594,0.2996152049506686,-1.6790574519991517,-4.354562065633042,-1.3144827860973045,-4.08751589050625,0.170546536112268,0.13614536528060592,0.27285926319072046,2.3527057422398676,-0.5300147606182624,2.7221078601963917
120,-0.11735965139198101,0.3025234145694413,-1.6771208403239375,-4.378059770702668,-1.330939306047492,-4.127114263233683,0.17165189028125039,0.13418929191258427,0.2699301637366477,2.297667551128315,-0.5145731677594755,2.7417717374051005
121,-0.11944885554176432,0.3052834300464333,-1.6752829129056348,-4.400360099140935,-1.3465572482572803,-4.164694814816311,0.1727415789247073,0.1323173333806511,0.2671334684769064,2.2461865231731317,-0.4995897518970339,2.7600182066387546
122,-0.12142644935500124,0.30789599882402374,-1.6735431720133955,-4.421469090120693,-1.3613408422362436,-4.200267722478561,0.17381017315832295,0.13053139773351996,0.26447242397530485,2.198123313179757,-0.4851301260605755,2.7769297101994237
123,-0.12329319629723301,0.3103621295047998,-1.671900946006657,-4.4413948929328395,-1.3752957953063358,-4.233846719419343,0.17485249924213533,0.12883307412981276,0.2619494381816834,2.1533428425168624,-0.4712491645155546,2.79258315808108
124,-0.12505006177152067,0.312683097467902,-1.670355385595149,-4.460147812365113,-1.388429324382777,-4.265449171284597,0.1758636991719501,0.12722362394166065,0.25956612194441453,2.111714393156495,-0.4579919446346348,2.8070499770546475
125,-0.12669821736976372,0.31486045048537203,-1.6689054600989,-4.4777403540810585,-1.4007501877549693,-4.295096152639861,0.17683928273980692,0.12570397276279574,0.25732333220875353,2.07311151421849,-0.4453946175669367,2.8203963410238213
126,-0.1282390451240163,0.316896014338504,-1.6675499537082414,-4.4941872699988625,-1.4122687168674197,-4.322812523442888,0.17777517130011208,0.12427470342061382,0.2552212156915874,2.037411794937623,-0.43348520476025537,2.8326835235566823
127,-0.1296741417577989,0.31879189843419153,-1.6662874617438168,-4.509505603670236,-1.4229968481006523,-4.348627005516132,0.17866773357925528,0.12293605006023517,0.2532592519699878,2.004496544209583,-0.42228432055467785,2.843968327558594
128,-0.1310053229374235,0.32055050142127817,-1.6651163869165853,-4.523714735659334,-1.43294815455209,-4.3725722590194245,0.17951381394398722,0.12168789333977267,0.2514362950733816,1.974250405968507,-0.4118058230908021,2.8543035583713037
129,-0.13223462752329773,0.32217451680689857,-1.6640349355878299,-4.53683642892158,-1.4421378778170038,-4.394684958922408,0.18031075359998433,0.12052975675022054,0.24975061282300964,1.9465609312241132,-0.4020573970064469,2.8637385155343043
130,-0.13336432182125346,0.32366693857283746,-1.6630411140291619,-4.548894874182599,-1.4505829597693989,-4.415005871477231,0.18105640522971234,0.1194608040507753,0.24819992331410107,1.9213181212249217,-0.39304107208916206,2.8723194854255802
131,-0.13439690383385683,0.3250310667918739,-1.6621327246825266,-4.559916735317072,-1.4583020743429387,-4.433579930691092,0.18174914160079333,0.11847983779094001,0.24678142808304301,1.898413951528174,-0.3847536823945857,2.8800902223854217
132,-0.1353351075117213,0.32627051324412415,-1.6613073624202133,-4.569931194727635,-1.4653156593118482,-4.450456314798725,0.18238785868578844,0.11758529887423746,0.24549184164105303,1.8777418833985855,-0.37718727046134276,2.8870924100443216
133,-0.1361819070048309,0.3273892070333999,-1.6605624108048564,-4.5789699987237125,-1.4716459480718171,-4.4656885227350465,0.18297197383457317,0.11677526710443772,0.24432741718560863,1.8591963666372966,-0.3703294412402447,2.8933660976965783
134,-0.13694052091385167,0.3283914002035484,-1.659895038349446,-4.587067502900483,-1.4773170014209356,-4.479334450607734,0.1835014195342412,0.11604746264346714,0.24328396841936203,1.842672336421114,-0.3641636702638468,2.8989501089030245
135,-0.13761441654145035,0.3292816733548065,-1.6593021947773292,-4.594260717517697,-1.4823547393405931,-4.491456468169748,0.18397663328143143,0.11539924830013516,0.24235688751231205,1.8280647058186412,-0.3586695704468147,2.9038824212403385
136,-0.1382073141436102,0.3300649412601486,-1.658780607282221,-4.600589352878581,-1.4867869727763825,-4.502121495291906,0.18439854408052742,0.11482763255997208,0.24154115933545614,1.8152678551950154,-0.35382312174313857,2.9082005173726224
137,-0.138723191180945,0.33074645848163087,-1.6583267767882082,-4.606095864708712,-1.4906434354190026,-4.511401078435515,0.18476855607042422,0.1143292732583596,0.2408313721724967,1.8041751196058504,-0.3495968677015192,2.911941708501994
138,-0.13916628657001873,0.33133182498674385,-1.6579369742097536,-4.610825499534888,-1.493955815485208,-4.519371467124824,0.1850885297742325,0.11390048179127196,0.2402217251798179,1.7946782754256068,-0.34596008275302326,2.915143431833111
139,-0.13954110493465954,0.33182699176476094,-1.657607236711709,-4.614826340064061,-1.4967577874986802,-4.526113690419724,0.18536076146173175,0.11353722774996433,0.23970603291374706,1.786667027789877,-0.34287891383106406,2.9178435240159803
140,-0.13985242085727378,0.3322382664430825,-1.657333363969312,-4.618149350562147,-1.4990850440709451,-4.531713633388211,0.18558796111459125,0.11323514385744203,0.2392777272780857,1.7800285009094052,-0.3403164996565648,2.9200804726528635
141,-0.140105283130171,0.33257231890359273,-1.6571109144281988,-4.620848422232958,-1.5009753276823012,-4.536262113579031,0.18577322948996491,0.11298953107533465,0.23892985726420068,1.7746467338986558,-0.3382330707124497,2.9218936478975652
142,-0.14030501900686776,0.3328361868989975,-1.656935201564408,-4.622980418597093,-1.5024684624627511,-4.5398549574942315,0.18592003478929267,0.11279536373964612,0.2386550868612933,1.77040218543271,-0.3365860325769713,2.9233235159626068
143,-0.14045723845341485,0.33303728166918,-1.6568012901443891,-4.624605220870746,-1.5036063859728195,-4.5425930770616425,0.18603218945603206,0.11264729457265787,0.23844569150645772,1.7671712512841748,-0.33533003487940927,2.9244118359999876
144,-0.14056783839970732,0.3331833935575541,-1.6567039924850033,-4.625785773344665,-1.5044331809845808,-4.544582546107595,0.18611382764832174,0.11253965940593381,0.23829355342402472,1.7648257995857493,-0.33441702768332016,2.925201841352776
145,-0.14064300699080157,0.33328269762739593,-1.6566378647135345,-4.6265881287630375,-1.504995107262502,-4.545934676829393,0.18616938395982513,0.11246648143606919,0.23819015617304334,1.7632327295075547,-0.33379630659522735,2.9257384056026514
146,-0.14068922783823323,0.3333437592782089,-1.656597203027696,-4.62708149370229,-1.5053406333443675,-4.546766096267877,0.1862035739936996,0.11242147482036724,0.23812657868241027,1.762253559920128,-0.3334145473459286,2.926068193185257
147,-0.14071328427133256,0.3333755398620659,-1.656576039955631,-4.627338273950022,-1.5055204683221746,-4.547198822780064,0.18622137743025247,0.1123980474043261,0.2380934890076725,1.7617440555298374,-0.33321583000970945,2.9262397936306814
148,-0.14072226358854145,0.33338740229995656,-1.6565681406159238,-4.627434119883963,-1.5055875936230976,-4.54736034251167,0.18622802426784543,0.11238930235664223,0.23808113799489808,1.7615538989118904,-0.3331416524324815,2.926303837740053
149,-0.14072356130872699,0.3333891166981391,-1.656566998977607,-4.6274479718506765,-1.5055972947903413,-4.547383685869651,0.18622898495869103,0.11238803847057549,0.23807935298886376,1.761526417813801,-0.3331309318569282,2.926313093263454
