nimar13/UR3e_dataset_trayectorias/data/trayectorias_completas_UR3e_JTRAJ/trayectoria_021.csv
Punto,shoulder_pan_joint,shoulder_lift_joint,elbow_joint,wrist_1_joint,wrist_2_joint,wrist_3_joint,Posicion_X,Posicion_Y,Posicion_Z,Roll,Pitch,Yaw
0,2.957328453800736,-0.25875899195943264,-1.5221524545305147,-0.1292455259578107,-5.32231936438811,3.687318507363983,-0.27688044429257785,-0.13483106794886104,0.5325807987836096,1.562438606123735,-0.88289823628275,-1.3141863637996654
1,2.9573352738080882,-0.2587624573549491,-1.522150362304588,-0.1292530548530472,-5.322295625035891,3.687305605348663,-0.27687741210284833,-0.13483153281584218,0.5325832258463881,1.5623978142707187,-0.8829145894633306,-1.3141500930249062
2,2.957382463495098,-0.2587864354712978,-1.5221358855626235,-0.1293051495490488,-5.322131365300793,3.6872163324148786,-0.27685643111852204,-0.13483474768203316,0.5326000178737373,1.5621155284580486,-0.8830277260200804,-1.313899084410417
3,2.957508889093188,-0.2588506750942446,-1.522097101012921,-0.12944471612633981,-5.321691298062206,3.686977161851091,-0.27680021808943195,-0.13484334606878262,0.5326449919252997,1.5613589594997765,-0.8833306913351305,-1.313226262589338
4,2.9577517970195877,-0.25897410194638826,-1.5220225822865958,-0.12971287248388513,-5.320845774513053,3.6865176312925425,-0.2766922009113591,-0.13485980715973045,0.5327313482176875,1.5599041030086573,-0.8839122286125706,-1.3119321199580585
5,2.958146836219593,-0.25917483003975567,-1.5219013930834717,-0.1301489730036632,-5.319470706389941,3.685770300454402,-0.27651649935090994,-0.13488641080918717,0.5328716352131782,1.557534644176107,-0.8848563857407806,-1.3098234845181203
6,2.9587280805088345,-0.2594701730283973,-1.5217230803179724,-0.13079063321523945,-5.3174474882033245,3.6846707088649158,-0.276257903509186,-0.1349251786891312,0.5330777017178815,1.554040564653276,-0.8862419794926307,-1.3067119444093456
7,2.9595280509155413,-0.25987665556098266,-1.5214776672650139,-0.13167375446033935,-5.314662919467663,3.6831573335985537,-0.27590185122230354,-0.1349778042364936,0.5333606381649166,1.5492164923576741,-0.8881419303414223,-1.3024119783811898
8,2.9605777380228058,-0.2604100246333954,-1.5211556467058964,-0.13283254855742174,-5.311009126931577,3.681171547009156,-0.27543440586733736,-0.13504557395343536,0.5337307090333477,1.5428598269993234,-0.8906224743350072,-1.2967388329005698
9,2.9619066243108474,-0.26108526094132933,-1.5207479740741978,-0.1342995624662521,-5.3063834868080075,3.6786575744630845,-0.27484223631844096,-0.13512928252300613,0.5341972781420654,1.534768667186834,-0.8937422512676984,-1.289506179137357
10,2.9635427064992794,-0.26191659023288316,-1.5202460606016643,-0.13610570295247576,-5.300688547004377,3.6755624520723673,-0.2741126010585346,-0.13522914413359943,0.5347687283692911,1.524739560266734,-0.8975512609805176,-1.2805235778150956
11,2.9655125178893726,-0.2629174946611564,-1.519641766464103,-0.13828026125219103,-5.293831949352742,3.671835984427848,-0.2732333386793073,-0.1353447023619896,0.5354523771922429,1.5125650950079248,-0.902089672110172,-1.2695937782854163
12,2.9678411507063194,-0.26410072413684454,-1.518927393927275,-0.1408509377365226,-5.285726351839956,3.6674307023323336,-0.27219286718148217,-0.1354747409512157,0.5362543893264394,1.4980313617968444,-0.9073864600960933,-1.2565098820930807
13,2.9705522784414993,-0.26547830768083447,-1.5180956804927863,-0.1438438665761947,-5.276289350837824,3.6623018205337416,-0.2709801946055903,-0.1356171978409274,0.5371796876778325,1.4809153178322174,-0.9134578439113901,-1.2410524134050376
14,2.9736681781947443,-0.26706156477679993,-1.5171397920439813,-0.14728364040610425,-5.265443403333265,3.656407195458249,-0.2695849435695482,-0.13576908486802303,0.5382318638097285,1.4609821196532222,-0.9203054841515822,-1.2229863627235074
15,2.977209753016603,-0.2688611167237971,-1.5160533159918337,-0.15119333498989432,-5.253115749158468,3.649707282943439,-0.2679973922526023,-0.13592641565716368,0.5394130891749628,1.4379825274271367,-0.927914399473478,-1.2020583115107395
16,2.9811965542506043,-0.2708868979888595,-1.5148302544208399,-0.1555945338845271,-5.2392383332210475,3.6421650959714498,-0.2662085342353885,-0.13608414436447966,0.540724028474638,1.4116505518572355,-0.9362505551774842,-1.177993810817691
17,2.9856468038755244,-0.2731481675595941,-1.51346501723491,-0.16050735310485736,-5.223747727734207,3.6337461624021223,-0.26421015937246733,-0.13623611812129752,0.5421637566782641,1.381701614532974,-0.9452580791409066,-1.1504952859214657
18,2.9905774168476498,-0.27565352029677603,-1.511952415303261,-0.1659504657882055,-5.206585054446892,3.6244184827061465,-0.2619949575258809,-0.1363750462422891,0.5437296814739994,1.347831636964475,-0.9548560699093368,-1.1192408822815916
19,2.996004023443043,-0.27841089828694454,-1.5102876536063086,-0.17194112685893095,-5.187695906873954,3.614152487698212,-0.2595566465148036,-0.13649248950452753,0.5454174732067145,1.3097176734256395,-0.9649349851247329,-1.0838848668441052
20,3.001940991599807,-0.2814276021949982,-1.5084663243815595,-0.17849519769300526,-5.167030272526304,3.602920996270153,-0.256890125025881,-0.13657887305637012,0.5472210046973337,1.267020964747327,-0.9753526438722189,-1.044060459548927
21,3.00840144926035,-0.2847103026167901,-1.5064844002695033,-0.18562717078258548,-5.14454245514107,3.5906991731241,-0.25399165047060634,-0.1366235267588556,0.5491323037074852,1.2193936073562817,-0.9859299553096772,-0.9993862858558751
22,3.0153973067136493,-0.28826505143172365,-1.5043382274595047,-0.19335019440058726,-5.120190996911761,3.5774644865056215,-0.25085904086064764,-0.13661475697303582,0.5511415212033653,1.1664903663157722,-0.9964466120275647,-0.9494779743914844
23,3.022939278937519,-0.2920972931553477,-1.5020245188356964,-0.20167609726525815,-5.0939386007184195,3.5631966659368794,-0.2474918986928227,-0.13653995395461113,0.5532369189624711,1.1079874170140716,-1.0066371737116513,-0.8939666785799462
24,3.0310369079408703,-0.2962118762919522,-1.4995403471228705,-0.2106154132047509,-5.065752052357782,3.5478776599497706,-0.2438918535900339,-0.13638573906713342,0.5554048804331552,1.0436097887310705,-1.016188221272004,-0.8325262886428919
25,3.039698585105981,-0.30061306468716337,-1.4968831380323713,-0.22017740582169654,-5.0356021427734365,3.5314915938190783,-0.24006281903681076,-0.1361381559366652,0.5576299490725793,0.9731686963201581,-1.0247375687573088,-0.76491051238177
26,3.0489315735307563,-0.3053045488805391,-1.4940506634079866,-0.23037009315777773,-5.003463590285984,3.5140247272956184,-0.23601125699047854,-0.13578290939946383,0.5598948986227944,0.8966083789046064,-1.031876822155088,-0.69099943494191
27,3.058742030370996,-0.31028945745816466,-1.491041034371841,-0.241200272358302,-4.96931496282319,3.4954654123393887,-0.23174644246426684,-0.13530565559235622,0.5621808399033359,0.8140591617429124,-1.0371587458859386,-0.6108522642503421
28,3.0691350291826587,-0.31557036840524777,-1.4878526944702872,-0.25267354433677497,-4.93313860015015,3.4758040508527146,-0.22728071840302544,-0.134692345753951,0.5644673686655701,0.7258892574371166,-1.0401107416493316,-0.5247587682049094
29,3.0801145822641254,-0.32114932045871425,-1.4844844128197991,-0.2647943384394734,-4.894920536099443,3.455033052413399,-0.22262972935686243,-0.133929625195944,0.5667327588313995,0.6327432606281215,-1.0402550361774068,-0.4332773471725791
30,3.091683662998467,-0.3270278244598033,-1.480935277252863,-0.27756593711001887,-4.85465042080129,3.4331467920078698,-0.21781262067149,-0.13300528742415457,0.5689542049894937,0.5355525346884111,-1.0371347973411476,-0.3372449294004562
31,3.1038442281957055,-0.3332068747066629,-1.4772046874638702,-0.29099050055395054,-4.812321442913715,3.4101415677643265,-0.21285218824324445,-0.13190878150357827,0.5711081173106259,0.435504653874574,-1.03034353931063,-0.23774584178228098
32,3.1165972404350812,-0.3396869603069453,-1.47329234815501,-0.3050690914032986,-4.767930251852702,3.38601555868589,-0.20777496243732924,-0.13063176844872038,0.5731704710392161,0.3339676136449245,-1.0195534531147945,-0.13603535782503975
33,3.129942690407318,-0.34646807653040246,-1.4691982621821602,-0.31980169938115754,-4.721476880022351,3.3607687823837473,-0.20261120866352358,-0.12916871967611784,0.5751172113970886,0.23237808904064997,-1.0045375933679888,-0.03342719238511813
34,3.1438796192568863,-0.3535497361614814,-1.464922723700781,-0.3351872659662595,-4.672964665045039,3.334403052810304,-0.19739482648364562,-0.127517547400542,0.5769247130842414,0.1321159289215213,-0.9851818085427022,0.06883287830432627
35,3.158406140924267,-0.36093098085191944,-1.460466311311806,-0.3512237090575469,-4.622400171991576,3.3069219379923283,-0.19216312914020178,-0.12568025333980426,0.5785702915799086,0.03439243458065091,-0.961484774111002,0.1696797302392312
36,3.173519464488221,-0.36861039247334,-1.455829881207535,-0.3679079476387466,-4.5697931156113665,3.2783307177641,-0.18695648620175545,-0.12366357830031262,0.580032761151752,-0.059825355987681746,-0.9335474736747776,0.2683057221373993
37,3.1892159165080476,-0.3765861044698477,-1.4510145603175262,-0.38523592644294247,-4.515156282562563,3.2486363415005584,-0.1818178137702199,-0.12147963127094899,0.5812930319077241,-0.1498450521597443,-0.9015557119303748,0.3641923168290964
38,3.205490963365854,-0.3848558132106238,-1.4460217394544879,-0.4032026406171487,-4.458505453642228,3.2178473858504515,-0.1767918995272011,-0.11914647272337402,0.5823347354322255,-0.23523821747177706,-0.8657599959890189,0.45710074115965704
39,3.2223392336088184,-0.39341678934252167,-1.4408530664601715,-0.4218021603868831,-4.399859326016494,3.1859740124694813,-0.17192455392273293,-0.11668862311266294,0.5831448656181555,-0.31580143076537903,-0.8264564905815811,0.5470344992762949
40,3.2397545402914547,-0.40226588914266226,-1.4355104393512628,-0.44102765572074076,-4.339239435450713,3.1530279257534533,-0.16726158410149244,-0.11413746434443947,0.5837144183466726,-0.3915039267078662,-0.7839713919789734,0.6341885330455537
41,3.2577299033178777,-0.41139956587102955,-1.4299959994652747,-0.4608714209949665,-4.276670078539624,3.1190223305714246,-0.16284759373392502,-0.11153149951000804,0.5840390108088842,-0.46243390669503914,-0.7386496677468785,0.7188970686165803
42,3.2762575717840674,-0.4208138811230656,-1.4243121246064396,-0.4813248996580287,-4.2121782349375065,3.083971889998851,-0.15872461971663154,-0.10891643480130002,0.5841194586623293,-0.5287510652821109,-0.6908480835222821,0.8015876131366132
43,3.295329046320134,-0.4305045161822666,-1.4184614221916014,-0.5023787088951925,-4.145793489588342,3.0478926830507342,-0.1549306255866238,-0.10634504752568288,0.5839622870422027,-0.590648693629522,-0.6409318772918631,0.8827443416192929
44,3.3149351014325825,-0.4404667833727775,-1.412446722396107,-0.5240226642930925,-4.077547954955966,3.0108021624147714,-0.15149788122023816,-0.10387680586161192,0.5835801498869009,-0.648325840885374,-0.5892742508868002,0.9628811785564214
45,3.335065807846578,-0.450695637411988,-1.4062710712996995,-0.5462458045043066,-4.007476193254236,2.9727191121845022,-0.14845126861897673,-0.10157720971318979,0.5829921312772078,-0.7019684792042503,-0.5362578778110632,1.0425232706858918
46,3.3557105548482093,-0.46118568676312777,-1.3999377240324105,-0.569036415911929,-3.9356151386771776,2.933663605592457,-0.14580656387673468,-0.09951682796033207,0.5822239027090841,-0.7517380755424885,-0.4822777485133118,1.122194910331891
47,3.3768580726267556,-0.471931204987862,-1.3934501379204507,-0.5923820572941436,-3.862004019629154,2.8936569627433024,-0.1435687552337496,-0.0977700156999722,0.5813077115836053,-0.7977660195576487,-0.42774480608362603,1.2024118970357227
48,3.3984964546169496,-0.4829261420988865,-1.3868119656321043,-0.6162695844887969,-3.7866842809550167,2.8527217083469933,-0.14173046582813772,-0.09641330575537144,0.5802821788339975,-0.8401526824480768,-0.37308992345274844,1.2836765109400416
49,3.4206131798412427,-0.4941641359125234,-1.3800270483236192,-0.6406851750579712,-3.709699506170268,2.8108815294519176,-0.14027055667491833,-0.09552348167527284,0.5791918876031995,-0.8789702930024145,-0.31876781922772474,1.3664735298555193
50,3.44319513525207,-0.5056385234013164,-1.373099408785101,-0.6656143529525586,-3.6310953396912153,2.7681612331780445,-0.13915298983135416,-0.09517535436796964,0.5780867502611824,-0.9142692078231506,-0.26526049898545523,1.4512659676565618
51,3.4662286380741145,-0.5173423520466262,-1.3660332445864034,-0.6910420131768331,-3.550919409065136,2.7245867044500742,-0.13832603296354895,-0.09543928095430038,0.5770211477637909,-0.9460874642426731,-0.21307974549293857,1.5384894272068383
52,3.489699458146574,-0.5292683911912259,-1.3588329212230221,-0.716952446453025,-3.4692212472004256,2.6801848637305827,-0.13772188400161667,-0.09637848173304531,0.5760528432785311,-0.9744636954856911,-0.1627680746540964,1.6285441737779844
53,3.513592840265421,-0.5414091433918968,-1.3515029652619857,-0.7433293638858933,-3.3860522145967655,2.634983624753173,-0.13725678777523367,-0.09804622851489664,0.5752416809263355,-0.9994535140222786,-0.11489744285865693,1.721784302405211
54,3.5378935265256746,-0.5537568557720233,-1.3440480574877482,-0.7701559216272992,-3.3014654215752754,2.5890118522556187,-0.13683170515682563,-0.10048299403264005,0.5746480901144772,-1.021149277155389,-0.07006486916271853,1.8185037704771394
55,3.5625857786636583,-0.5663035313741881,-1.336473026048082,-0.7974147455407794,-3.2155156505086753,2.5422993197130177,-0.13633357923986908,-0.10371366660474257,0.5743314258856159,-1.039702684881109,-0.028884075725797948,1.9189196706407854
56,3.587653400399269,-0.5790409405127684,-1.328782839599969,-0.8250879558661188,-3.128259278051439,2.494876667070936,-0.13563722265724631,-0.10774494559692607,0.5743481855323994,-1.0553489000333058,0.00802767306568622,2.0231539707544006
57,3.6130797597782403,-0.5919606321265309,-1.3209826004554934,-0.8531571918839248,-3.0397541973699593,2.446775358478553,-0.13460782581980532,-0.11256304039177967,0.5747501509242378,-1.0684298823169815,0.04006805182045062,2.1312160029835194
58,3.6388478115144074,-0.6050539451312269,-1.313077537727734,-0.8816036365802,-2.950059740372697,2.3980276400218186,-0.13310405846743428,-0.11813179754119574,0.5755825140316202,-1.0794135903245579,0.06667340054041325,2.2429890531378
59,3.664940119331973,-0.6183120197721883,-1.3050730004766555,-0.9104080413109148,-2.8592365999403495,2.3486664974565894,-0.13098170761996714,-0.1243913767276793,0.5768820494818901,-1.0889050004156353,0.08734672805027009,2.358225118061496
60,3.6913388783077696,-0.6317258089769225,-1.2969744508550023,-0.9395507504665819,-2.7673467521559996,2.2987256139417855,-0.1280977652082577,-0.1312575855555426,0.5786754021387482,-1.0976450029726201,0.1016879483023664,2.476551780971364
61,3.718025937213527,-0.6452860897077084,-1.2887874572541889,-0.9690117261368276,-2.674453378535278,2.248239327772536,-0.1243148499780209,-0.13862196583383535,0.5809775592321003,-1.1064945688083976,0.10942331095317073,2.5974937974567385
62,3.7449828208581364,-0.6589834743141914,-1.2805176874501936,-0.9987705727749692,-2.580620788256522,2.197242590113323,-0.11950582243046741,-0.14635270010540855,0.583790575141572,-1.116404162971711,0.11043044237880659,2.7205093529229125
63,3.7721907524299114,-0.6728084218859779,-1.2721709017494498,-1.028806561862581,-2.4859143403909387,2.1457709227311352,-0.11355843034547958,-0.1542963773652563,0.5871026123534374,-1.128371656618778,0.10475564765932618,2.8450376015382273
64,3.7996306758388596,-0.6867512496052335,-1.2637529461347379,-1.059098656574075,-2.390400366132746,2.093860375728611,-0.10637980746650973,-0.1622806222850277,0.5908873543209177,-1.143394864618934,0.09262124366234074,2.970551101558825
65,3.8272832780589416,-0.7008021440992745,-1.2552697454110793,-1.0896255364412704,-2.2941460910293543,2.041547485277192,-0.09790064061736765,-0.17011755432399836,0.595103835089751,-1.1624261634690345,0.07442245965255101,3.096605260840026
66,3.855129011470339,-0.7149511727931673,-1.2467272963516263,-1.120365622017967,-2.1972195572115023,1.988869231350261,-0.08807882191900339,-0.17760800371718927,0.5996967169139975,-1.1863358135588578,0.05071532747618389,-3.0603078190441306
67,3.883148116201717,-0.7291882952623205,-1.238131660843555,-1.151297099544519,-2.0996895456234332,1.9358629954563034,-0.07690241346733934,-0.18454637260153237,0.6045970311676415,-1.2158879139112673,0.022198398615121667,-2.933994208526044
68,3.9113206424724916,-0.7435033745850826,-1.2294889590339597,-1.1823979456124079,-2.0016254982530413,1.8825665183720428,-0.06439177186887748,-0.19072599371390403,0.6097233803028718,-1.2517293710450845,-0.010308319139507855,-2.807663190104358
69,3.9396264729350916,-0.7578861886953359,-1.2208053624757411,-1.2136459518288165,-1.9030974403620382,1.8290178578755953,-0.050600708872663706,-0.1959448083966173,0.6149835801951734,-1.294389039032398,-0.04588417067389652,-2.6811955169047654
70,3.9680453450172264,-0.7723264417350926,-1.2120870872735017,-1.245018749481201,-1.8041759027161035,1.7752553464796166,-0.03561660086204302,-0.20001116212958026,0.620276703820703,-1.3442820780957485,-0.08352641511759848,-2.554352184513166
71,3.996556873264147,-0.7868137754070911,-1.203340387229437,-1.2764938342018655,-1.7049318438150456,1.7213175491644486,-0.019559402509886588,-0.20274950119884186,0.6254954697498485,-1.4017138102092281,-0.12216592479215121,-2.4268093153935153
72,4.025140571680916,-0.8013377803273887,-1.194571546989227,-1.3080485906325336,-1.605436572122966,1.667243221111267,-0.0025795663309663604,-0.20400574966666885,0.6305289033205572,-1.4668777540477727,-0.16068080951463548,-2.2982024642298606
73,4.053775876074667,-0.8158880073779609,-1.1857868751879295,-1.3396603170889236,-1.5057616682984074,1.6130712654352317,0.015145082272952703,-0.20365215220791322,0.635265185419786,-1.539843855774587,-0.1979099684352425,-2.1681789801370646
74,4.082442166396871,-0.8304539790592923,-1.1769926975958718,-1.3713062502253193,-1.4059789074245224,1.558840690918632,0.033413418219251464,-0.20159138564924373,0.6395945942766057,-1.6205351150764724,-0.2326694422247229,-2.0364570111579536
75,4.1111187890856025,-0.8450252008429762,-1.168195350264543,-1.4029635896991448,-1.306160181239222,1.5045905697440363,0.052005899119485714,-0.19775976954194752,0.643412440115371,-1.7086939324598087,-0.26377478608703525,-1.902888396543955
76,4.139785079407806,-0.8595911725243081,-1.159401172672485,-1.4346095228355416,-1.2063774203653308,1.4503599952274344,0.0706900811996582,-0.19212944251222436,0.6466218912864978,-1.8038435973837827,-0.29007224525273334,-1.7675198511723043
77,4.168420383801557,-0.8741413995748798,-1.1506165008711875,-1.466221249291931,-1.1067025165407722,1.3961880395514,0.08922656498279977,-0.1847094145826044,0.6491365937100233,-1.9052548861535739,-0.3104799865617187,-1.6306430366002278
78,4.197004082218325,-0.8886654044951776,-1.1418476606309778,-1.4977760057225984,-1.0072072448486962,1.3421137114982198,0.1073751487688902,-0.17554545380227202,0.6508829930162653,-2.011931251383082,-0.3240378890124066,-1.4928209435514324
79,4.225515610465246,-0.903152738167176,-1.1331009605869127,-1.529251090443264,-0.9079631859476374,1.28817591418305,0.12490096072405743,-0.16471881571659086,0.6518022802948574,-2.1226261597194265,-0.3299607968022483,-1.3548780164331766
80,4.253934482547381,-0.9175929912069325,-1.1243826853846735,-1.5606238880956478,-0.8090416483017036,1.2344134027870721,0.1415803444294254,-0.15234387367651014,0.6518518972985947,-2.2359005983537674,-0.3276868164657663,-1.2178469172036752
81,4.282240313009981,-0.9319758053171858,-1.115699088826455,-1.5918718943120558,-0.7105135904107014,1.180864742290625,0.157206287648246,-0.13856475403047505,0.6510065545404955,-2.350217722027401,-0.3169108497549033,-1.0828757346428695
82,4.310412839280756,-0.9462908846399478,-1.1070563870168595,-1.6229727403799452,-0.6124495430403085,1.1275682652063637,0.17159320879955398,-0.12355112039512804,0.6492587350847405,-2.4640588308725127,-0.2975954027544737,-0.9511120649452041
83,4.338431944012134,-0.9605280071091011,-1.0984607515087885,-1.653904217906497,-0.5149195314522403,1.074562029312406,0.1845809485572791,-0.1074932834145083,0.6466186769971677,-2.5760365436367305,-0.2699556795832286,-0.8235885588485462
84,4.366277677423532,-0.9746770358029937,-1.0899183024493353,-1.6846443034831937,-0.4179929976343866,1.0218837753854757,0.1960378530589576,-0.09059683517437218,0.6431138473994308,-2.6849817754104186,-0.23442219667600633,-0.7011336457486695
85,4.393930279643614,-0.9887279302970349,-1.0814351017256767,-1.7151711833503893,-0.321738722530994,0.9695708849340559,0.20586287804915104,-0.07307701984274251,0.63878793991017,-2.789990472971368,-0.1915890312731568,-0.5843216794645679
86,4.421370203052561,-1.0026707580162906,-1.073017146110965,-1.7454632780618842,-0.22622474827280303,0.9176603379315322,0.21398668741823748,-0.05515305392057487,0.6336994440955648,-2.890428824081296,-0.14215758753623248,-0.47346388060035516
87,4.448578134624336,-1.016495705588077,-1.064670360410221,-1.7754992671494958,-0.13151830040721801,0.8661886705493433,0.22037176259438784,-0.037042601111960755,0.6279198496680806,-2.9859058355107253,-0.08688441045800875,-0.36863117470661405
88,4.475535018268946,-1.03019309019456,-1.0564005906062257,-1.8052581137876365,-0.03768571012846156,0.8151919328901318,0.22501157887908654,-0.018956589250328892,0.6215315590182888,-3.0762266244004515,-0.02653842996786634,-0.2696954793929038
89,4.502222077174703,-1.0437533709253457,-1.0482135970054125,-1.8347190894578826,0.055207663492258696,0.7647056467208824,0.22792893919880766,-0.0010945314209636534,0.6146255888907294,3.1218463596741124,0.0381303305046056,-0.17637670825098553
90,4.5286208361505,-1.05716716013008,-1.0401150473837593,-1.8638617986135495,0.14709751127660642,0.7147647632060785,0.22917358343309804,0.016359517764629707,0.6072991454789353,3.041903512989706,0.10641105650932658,-0.08828633033966142
91,4.554713143968066,-1.070425234771042,-1.0321105101326806,-1.8926662033442647,0.2379206517089587,0.6654036206408485,0.22881921153092874,0.033240274810290224,0.5996531569787068,2.967044660989812,0.17764330235676556,-0.0049623782080377024
92,4.580481195704232,-1.083518547775737,-1.0242054474049211,-1.9211126480405394,0.32761510870621624,0.6166559021841156,0.22696007062516488,0.049403749705660624,0.5917898439512245,2.8971746943769126,0.2512212768735161,0.0741060447349966
93,4.6059075550832045,-1.0964382393894998,-1.0164052082604456,-1.9491818840583468,0.41612018938770046,0.5685545935917329,0.22370726038744437,0.06472895526326647,0.5838104011174804,2.8322188598741067,0.32659335597682265,0.1494648500053566
94,4.630975176818814,-1.1091756485280801,-1.0087150218123329,-1.9768550943836845,0.5033765618449317,0.5211319409496511,0.21918490747407357,0.07911881492041171,0.5758128549665057,2.7721480821160673,0.40325848251534185,0.22169103266927537
95,4.655667428956797,-1.121722324130245,-1.0011399903726668,-2.004113918297164,0.5893263329115301,0.47441940840704877,0.21352635001331124,0.09250031105338935,0.5678901504306633,2.7170025058306826,0.480760604596417,0.2913982586538833
96,4.6799681152170525,-1.134070036510372,-0.9936850825984289,-2.0309404760385723,0.6739131259330273,0.4284476359094942,0.20687045786823918,0.10482394150709974,0.5601285075239257,2.666916658851686,0.5586818207648984,0.3592522673642277
97,4.703861497335899,-1.1462107887110426,-0.9863551266373924,-2.0573173934714397,0.7570821585366874,0.3832463969320834,0.19935819524089252,0.11606257202362862,0.5526060759179375,2.6221503944621016,0.6366344608887139,0.42599769552203154
98,4.727332317408358,-1.158136827855643,-0.9791548032740112,-2.083227826747631,0.838780320401395,0.33884455621259235,0.19112951049163132,0.12620978618145193,0.545391902575951,2.5831311740445875,0.7142518990579392,0.49249993516457247
99,4.750365820230402,-1.1698406565009525,-0.9720886390753138,-2.108655486971907,0.9189562510274749,0.29527002748462294,0.18232061523022788,0.1352778423366454,0.5385452153410156,2.550515848444446,0.7911773862511797,0.5598087739023087
100,4.772947775641231,-1.1813150439897457,-0.9651609995367956,-2.1335846648664933,0.9975604175065316,0.252549731210749,0.1730616920744445,0.14329534922690867,0.5321150142570201,2.525284778749664,0.8670494576288017,0.6292556785028434
101,4.795064500865524,-1.1925530378033824,-0.9583760822283103,-2.1580002554356676,1.0745451922912759,0.21070955231567368,0.16347504907208316,0.1503047689671383,0.5261399527591017,2.5088894160142075,0.9414812403786496,0.7026051851002079
102,4.816702882855718,-1.203547974914407,-0.9517379099399639,-2.1818877826303202,1.149864930965415,0.16977429791936594,0.15367371952566694,0.15635984893877763,0.520648482959736,2.503488752336477,1.0140287403078332,0.7822953844934527
103,4.837850400634263,-1.2142934931391407,-0.9452503238280041,-2.205233424012534,1.2234760500134323,0.12976765507021248,0.14376048948343217,0.16152307348316142,0.5156592332212497,2.5123332280015793,1.0841388960594465,0.8718258245478646
104,4.858495147635895,-1.2247835424902807,-0.9389169765607153,-2.228024035420158,1.2953371045904918,0.09071214847816655,0.13382732185796162,0.16586321332978876,0.5111815820801353,2.54038491812795,1.1510599624748872,0.9763814992201374
105,4.878625854049891,-1.2350123965294908,-0.9327413254643078,-2.2502471756313716,1.3654088662922215,0.0526290982478983,0.12395513616452332,0.16945303628582395,0.507216390313615,2.5952660026167473,1.2136819590548484,1.1037848454891432
106,4.898231909162337,-1.2449746637200012,-0.9267266256688131,-2.271891131029272,1.4336544009245964,0.01553857761193278,0.11421389618983677,0.1723672277748835,0.5037568523750282,2.6884166758261663,1.2702551392452834,1.2656568676061433
107,4.917303383698407,-1.2546652987792037,-0.9208759232539745,-2.2929449402664366,1.5000391462737683,-0.020540629336183613,0.10466295429510122,0.17468055512180303,0.5007894293710242,2.8351805827094028,1.3179482523276165,1.477505466364469
108,4.935831052164595,-1.2640796140312394,-0.9151920483951397,-2.3133984189294985,1.5645309898758883,-0.05559106990875762,0.09535160018343326,0.1764662956777535,0.4982948279668345,3.048808392099106,1.3524546104674124,1.752731591369778
109,4.953806415191019,-1.2732132907596059,-0.9096776085091522,-2.3332421842037236,1.627100346786972,-0.08959666509078268,0.08631976339478308,0.17779493645705544,0.49624899281905266,-2.962591238266315,1.3687286366323075,2.082767794174498
110,4.971221721873656,-1.2820623905597466,-0.9043349814002428,-2.3524676795375834,1.687720237352754,-0.12254275180681518,0.07759882205908533,0.1787331422496335,0.4946240840744427,-2.680670786956417,1.3642444833007246,2.4197198773312576
111,4.9880699921166185,-1.2906233666916447,-0.8991663084059267,-2.3710671993073165,1.7463663649784893,-0.15441612518777958,0.0692124750589052,0.17934298037225516,0.49338941587264695,-2.444176983865602,1.3418642697928422,2.708147368740027
112,5.004345038974425,-1.2988930754324204,-0.8941734875428882,-2.3890339134815237,1.8030171938988255,-0.1852050808378891,0.061177640264225765,0.17968138338828687,0.4925123364046704,-2.272212092804616,1.3075440927646338,2.9290625206443703
113,5.020041490994252,-1.3068687874289284,-0.8893581666528796,-2.406361892285717,1.8576540269476256,-0.21489945710143132,0.053505347484387275,0.17979982621147322,0.49195903469116664,-2.1549300409044974,1.2665419208474975,3.0924207810835838
114,5.035154814558206,-1.3145481990503494,-0.8847217365486082,-2.4230461308669176,1.9102610833278328,-0.2434906773296568,0.04620160087330435,0.17974419087996535,0.4916952636732504,-2.0764743734033027,1.2222918883655867,-3.0690013733591743
115,5.049681336225586,-1.3219294437407867,-0.8802653241596339,-2.439082573958207,1.9608255763813007,-0.270971792147634,0.0392681914283062,0.17955479074646605,0.49168697331007305,-2.02419885085314,1.1768328064267168,-2.976084894294589
116,5.063618265075155,-1.3290111033718666,-0.8759897856782546,-2.454468140543308,2.0093377913586155,-0.2973375217210794,0.03270344571377969,0.179266525643675,0.4919008510463433,-1.9895117908488313,1.1313681643154587,-2.9033236029995875
117,5.076963715047391,-1.3357922195953233,-0.8718956997054046,-2.4692007485211667,2.0557911631889576,-0.32258429802322297,0.02650290185925085,0.17890914049746867,0.49230477018052515,-1.96678747437433,1.0866275361646494,-2.8449937797076807
118,5.089716727286769,-1.3422723051956074,-0.8679833603965439,-2.4832793393705144,2.100182354249978,-0.34671030710165596,0.020659908130296577,0.17850756161831866,0.4928681492950966,-1.952325937640524,1.0430682803223554,-2.7972988166124066
119,5.101877292484003,-1.348451355442465,-0.8642527706075529,-2.4967039028144447,2.142511332137542,-0.3697155313452001,0.015166142906206617,0.1780822872615171,0.4935622279973747,-1.943648457591919,1.000985696565678,-2.7576643873805438
120,5.113446373218348,-1.3543298594435549,-0.8607036350406156,-2.5094755014849914,2.1827814474356986,-0.3916017917507304,0.01001205772103752,0.17764981178858172,0.49436026578019504,-1.9390573393916972,0.9605743398791307,-2.724298036379498
121,5.124425926299816,-1.359908811497022,-0.8573353533901269,-2.521596295587691,2.2209995114864087,-0.412372790190048,0.0051872471697913,0.1772230656942342,0.4952376718817629,-1.9373643936947145,0.9219632750739721,-2.6959175628676917
122,5.134818925111475,-1.365189722444104,-0.8541470134885731,-2.5330695675661596,2.257175874159448,-0.4320341516767172,0.0006807510079175523,0.17681185672661823,0.49617207465233404,-1.9377216497071879,0.8852370899275577,-2.6715817330899165
123,5.144629381951715,-1.3701746310217309,-0.8511373844524286,-2.54389974676669,2.2913245016222463,-0.4505934666329523,-0.0035187052440838404,0.17642330019710992,0.4971433391792948,-1.9395137220218543,0.8504488735310207,-2.65058272458247
124,5.153862370376492,-1.3748661152151063,-0.8483049098280429,-2.5540924341027713,2.3234630541097063,-0.4680603331564086,-0.007422524355533703,0.17606222925655038,0.4981335418435075,-1.9422878225723925,0.8176285077538743,-2.63237627968671
125,5.162524047541602,-1.3792673036103156,-0.845647700737544,-2.5636544267197108,2.3536129636940375,-0.48444639928709776,-0.011042099115304377,0.17573157834269396,0.499126910140544,-1.9457072019264114,0.7867881343630677,-2.616535337549466
126,5.170621676544954,-1.3833818867469199,-0.8431635290247184,-2.572593742659211,2.381799512054674,-0.49976540527421065,-0.014388714894820374,0.175432735140765,0.5001097355609944,-1.9495194871673471,0.7579258666176092,-2.6027185964870387
127,5.178163648768821,-1.3872141284705441,-0.8408498204009103,-2.5809196455238768,2.4080519082480167,-0.5140332258429474,-0.01747348656209289,0.17516585822853645,0.5010702666398882,-1.9535346983024697,0.7310283769811793,-2.590648773092787
128,5.185159506222124,-1.3907688772854798,-0.8387036475909104,-2.588642669141879,2.4324033664773497,-0.5272679124614328,-0.02030732377310537,0.17493015909996523,0.501998588506757,-1.9576096868079096,0.7060727444904704,-2.5800972862806355
129,5.191619963882667,-1.394051577707271,-0.8367217234788558,-2.5957746422314587,2.4548911838625544,-0.5394897356074857,-0.022900919267017,0.17472414849122211,0.502886494438256,-1.9616369224124655,0.6830278004879414,-2.570873277461066
130,5.197556932039426,-1.3970682816153235,-0.8349003942541064,-2.602328713065533,2.4755568182102055,-0.5507212270355346,-0.02526475543643053,0.17454584789321667,0.5037273540713237,-1.9655362811131953,0.6618551246686137,-2.5628156058538916
131,5.20298353863482,-1.3998256596054923,-0.8332356325571544,-2.6083193741362622,2.4944459657831404,-0.5609872220434724,-0.027409125095601984,0.17439296785508904,0.5045159821062561,-1.9692489430142595,0.6425097902088239,-2.5557869148653523
132,5.207914151606948,-1.402331012342676,-0.8317230306255041,-2.6137624868196108,2.511608639070471,-0.570314901739458,-0.029344163000018568,0.17426305519610494,0.5052485105395649,-1.9727327995046535,0.6249409234869375,-2.5496691580913313
133,5.21236440123187,-1.4045922819134105,-0.8303577934395747,-2.618675306039939,2.5270992445573173,-0.5787338353087854,-0.031079885259444315,0.17415361158272144,0.5059222667333719,-1.9759589583288193,0.6090921227700541,-2.5443601645968372
134,5.216351202465866,-1.4066180631784708,-0.8291347318685807,-2.623076504934571,2.5409766604947253,-0.5862760222807637,-0.032626234320020014,0.17406218612574698,0.506535658964518,-1.9789090599350083,0.5949017666360288,-2.539770950277602
135,5.219892777287727,-1.4084176151254693,-0.8280482558164346,-2.6269861995183605,2.5533043146695222,-0.5929759347955752,-0.033993127661092915,0.1739864447400193,0.5070880705105563,-1.9815732021465378,0.5823032340720629,-2.5358235682868546
136,5.223008677040971,-1.4100008722214343,-0.8270923673676283,-2.6304259733482676,2.5641502621740857,-0.5988705598710666,-0.035190508755488924,0.17392421901303715,0.5075797628266936,-1.9839483270410703,0.5712250524349382,-2.532449350968997
137,5.225719804776153,-1.4113784557654232,-0.8262606539331401,-2.633418902187942,2.573587263176205,-0.6039994416696608,-0.036228399177596855,0.17387353727306373,0.5080117879495083,-1.9860369630421502,0.5615909856995478,-2.5295874374859415
138,5.228048437593097,-1.4125616852411143,-0.8255462813963117,-2.6359895786722705,2.5816928606890004,-0.608404723765176,-0.03711695101359625,0.17383264045086733,0.5083859099301644,-1.9878462424970562,0.5533200729673725,-2.527183511133094
139,5.230018248983194,-1.4135625896693864,-0.8249419872587511,-2.6381641369719917,2.5885494583406485,-0.6121311914096985,-0.037866498936312984,0.1737999852081154,0.5087045348500596,-1.98938713428796,0.5463266255959858,-2.525188691987825
140,5.231654331171624,-1.4143939189609385,-0.8244400737862172,-2.6399702774582083,2.5942443981442596,-0.6152263138004166,-0.03848761145784942,0.17377423667125846,0.5089706488027459,-1.9906738448661925,0.5405201902362199,-2.5235585465139168
141,5.2329832174596635,-1.4150691552688728,-0.8240324011545193,-2.6414372913670414,2.5988700382678376,-0.617740286346482,-0.03899114097160045,0.17375425297080035,0.5091877631333122,-1.991723351245851,0.5358054843181629,-2.5222521877417923
142,5.234032904566929,-1.4156025243412889,-0.8237103805954007,-2.642596085464125,2.6025238308039293,-0.6197260729358831,-0.03938827224692126,0.17373906364775174,0.509359866205444,-1.9925550371305116,0.5320823099682547,-2.521231448813729
143,5.234832874973639,-1.4160090068738733,-0.823464967542443,-2.643479206709231,2.6053083995395925,-0.6212394482022461,-0.03969056905034739,0.17372784385460102,0.5094913810112014,-1.9931904092918464,0.5292454518713896,-2.520460119832135
144,5.235414119262876,-1.416304349862513,-0.8232866547769433,-2.644120866920802,2.6073316177262074,-0.6223390397917328,-0.039910018542329784,0.1737198861489134,0.5095871280421541,-1.9936528761393442,0.5271845641573598,-2.5199032436551985
145,5.235809158462883,-1.416505077955883,-0.8231654655738181,-2.6445569674405833,2.608706685849339,-0.6230863706298777,-0.040059073043877694,0.17371457155390857,0.5096522929949411,-1.9939675745002223,0.5257840509514291,-2.519526470964902
146,5.2360520663892824,-1.416628504808028,-0.8230909468474934,-2.644825123798129,2.609552209398484,-0.6235459011884217,-0.040150688688974964,0.17371134144257144,0.5096923990800712,-1.994161234226846,0.5249229447724316,-2.5192954788929054
147,5.236178491987372,-1.4166927444309718,-0.8230521622977909,-2.6449646903754216,2.6099922766370414,-0.6237850717522093,-0.04019836038221502,0.17370967169079196,0.5097132839288684,-1.9942620735168917,0.5244747864879329,-2.51917546094674
148,5.236225681674389,-1.4167167225473212,-0.8230376855558248,-2.6450167850714204,2.610156536372142,-0.6238743446859942,-0.04021615237260365,0.17370905044335055,0.5097210813370863,-1.994299720840739,0.5243075100617736,-2.519130699079733
149,5.2362325016817355,-1.4167201879428366,-0.8230355933298998,-2.6450243139666556,2.610180275724372,-0.6238872467013152,-0.04021872364041092,0.17370896074883094,0.5097222083301243,-1.9943051621135142,0.5242833348795115,-2.5191242315713205
