nimar13/UR3e_dataset_trayectorias/data/trayectorias_completas_UR3e_JTRAJ/trayectoria_163.csv
Punto,shoulder_pan_joint,shoulder_lift_joint,elbow_joint,wrist_1_joint,wrist_2_joint,wrist_3_joint,Posicion_X,Posicion_Y,Posicion_Z,Roll,Pitch,Yaw
0,4.185958921200282,2.8576546583986318,1.5354801600223573,3.566959136046611,-0.341743488996868,5.59679406618911,0.3801243403719748,0.21992666140550726,0.33597734595390927,0.997528818206905,-0.34008224639469914,-0.5705604801462748
1,4.185932411463144,2.8576573366765468,1.5354773129819086,3.5669452905460886,-0.341734034988243,5.596783315592445,0.3801308570049907,0.21991717752741072,0.33597600115262927,0.99750282094883,-0.3400733915163438,-0.5705809085967247
2,4.185748982599558,2.857675868488905,1.535457613450699,3.56684948935374,-0.341668619852311,5.596708928972959,0.380175940352614,0.21985154964058476,0.33596669572534316,0.9973229409417873,-0.3400121191649308,-0.5707222672547024
3,4.185257559467609,2.8577255169525757,1.5354048365586896,3.5665928289728828,-0.3414933665669326,5.596509640241574,0.38029666083882924,0.21967567407370026,0.3359417626708328,0.9968410501477903,-0.33984794087317965,-0.5711010496880337
4,4.184313363230697,2.8578209090688977,1.5353034336340172,3.5660996943399867,-0.3411566435235859,5.596126736674365,0.38052835354358805,0.21933754178767326,0.33589384551655344,0.9959152694353801,-0.33953239915654077,-0.5718291069785044
5,4.182777824511946,2.857976044497688,1.5351385228761243,3.56529771346698,-0.3406090335561439,5.595504023693724,0.3809044400295942,0.21878704068629756,0.335815884576558,0.9944099618854606,-0.33901896262976844,-0.5730139365538768
6,4.180518496548615,2.85820430433125,1.5348958800288866,3.5641177120835477,-0.33980330296965233,5.594587789649535,0.3814561885627915,0.2179757096087234,0.33570110057178904,0.9921957489411733,-0.33826289972798057,-0.5747590374304739
7,4.17740896834651,2.858518459868378,1.5345619290537422,3.5624936682794344,-0.3386943705691072,5.593326770600342,0.3822124214095657,0.21685645523902028,0.335542976330432,0.9891495442215541,-0.3372211369094512,-0.5771643195378984
8,4.173328777834388,2.858930681388367,1.5341237328028205,3.5603626671467454,-0.3372392766882327,5.59167211509452,0.3831991762073229,0.21538324354079671,0.33533523734455045,0.9851545996917377,-0.33585210770003365,-0.5803265555078927
9,4.168163325018368,2.859452546925019,1.5335689836920698,3.5576648554222476,-0.33539715221825883,5.589577348951443,0.38443932677166154,0.21351077778796704,0.33507183202142116,0.980100558713323,-0.3341155994347429,-0.5843398639704025
10,4.1618037851363425,2.8600950510406506,1.532885994374387,3.55434339612967,-0.33312918763669885,5.586998340042662,0.3859521672136618,0.21119417577993554,0.33474691252814015,0.9738835103021379,-0.33197260500343306,-0.589296214009658
11,4.1541470218123875,2.8608686136001,1.5320636884127454,3.5503444232220085,-0.3303986020361273,5.583893263073064,0.3877529619773138,0.2083886593787484,0.3343548171816542,0.9664060387076235,-0.32938518726698995,-0.5952859409891456
12,4.145095500211169,2.8617830885447337,1.5310915909533236,3.545616996223821,-0.3271706121529576,5.580222564362053,0.3898524634442967,0.20504927007449253,0.3338900553798811,0.957577262208105,-0.32631636403941977,-0.6023982644566022
13,4.134557200192352,2.8628477726664556,1.5299598193986341,3.540113054873536,-0.32341240139621963,5.575948926624712,0.39225639815828034,0.20113062486526206,0.33334729610035907,0.947312854801033,-0.3227300215993705,-0.6107217992930918
14,4.122445529465014,2.864071414381713,1.528659074080652,3.533787373765747,-0.31909308887633747,5.571037233752981,0.3949649225534696,0.19658672732056276,0.33272136100882693,0.9355350442737406,-0.318590864579981,-0.6203450516843907
15,4.108679236742051,2.8654622225055038,1.5271806289339436,3.52659751699352,-0.3141836984339072,5.565454535596819,0.3979720493850861,0.19137084926761128,0.33200722321965725,0.922172579992757,-0.3138644097744668,-0.6313568918872883
16,4.093182324894589,2.8670278750253844,1.5255163221687944,3.518503792790691,-0.3086571276684744,5.559170012745382,0.40126504689849113,0.18543549907393297,0.33120001273179717,0.907160663681321,-0.308517030880829,-0.6438469961645702
17,4.075883964106391,2.8687755278754765,1.5236585469443389,3.509469208174167,-0.30248811696731215,5.5521549413081885,0.40482381417634195,0.1787324929576505,0.33029502952653517,0.8904408365075117,-0.3025160604950216,-0.6579062507048501
18,4.056718405028269,2.870711823710475,1.5216002420416876,3.4994594235862295,-0.2956532185341983,5.544382657696294,0.40862023809781967,0.17121314608157245,0.32928776525581055,0.871960816028844,-0.2958299547595175,-0.6736271108658665
19,4.035624891932493,2.872842900679655,1.5193348825370576,3.488442707536835,-0.28813076541819344,5.535828523403453,0.41261753994711015,0.16282860030030527,0.32817393437062226,0.851674276987402,-0.28842852500415456,-0.6911039097221808
20,4.012547575867196,2.875174401200878,1.5168564704748992,3.476389891245916,-0.2799008405424187,5.526469889787302,0.4167696229211743,0.15353030522987632,0.3269495154369697,0.8295405706771368,-0.28028323950880735,-0.7104331106954812
21,3.9874354278107926,2.8777114807346025,1.5141595255410256,3.463274323285682,-0.2709452457328332,5.5162860628505195,0.4210204355908348,0.14327066867225818,0.32561080326023173,0.8055243786614004,-0.27136759721235865,-0.7317135000211924
22,3.96024215182638,2.880458816557886,1.5112390757357417,3.4490718242229215,-0.2612474707470116,5.505258268022,0.42530337071995916,0.13200389120535264,0.3241544722863816,0.7795952980434763,-0.26165757383752436,-0.7550463159639935
23,3.9309260982161502,2.883420616538398,1.5080906480469716,3.4337606412613035,-0.25079266230292235,5.493369614938024,0.42954072366792,0.11968699777560993,0.3225776515685132,0.7517273573094642,-0.25113213955076025,-0.7805353130156636
24,3.8994501766758014,2.8866006279084235,1.5047102591233883,3.417321402883678,-0.23956759310770492,5.480605062223429,0.43364323977310815,0.10628107622376463,0.32087801137841265,0.7218984639757892,-0.23977384598841192,-0.8082867607388634
25,3.865781769448944,2.8900021460388716,1.5010944059475422,3.3997370734943773,-0.2275606308864475,5.4669513822727795,0.43750978547394404,0.09175272864587537,0.3190538613043844,0.6900897878665503,-0.2275694793113967,-0.8384093783709721
26,3.829892644481513,2.893628023213282,1.497240056508989,3.3809929080615184,-0.2147617074109651,5.4523971260315385,0.44102718324599993,0.0760757361576992,0.3171042594076372,0.6562850867834532,-0.21451077495118445,-0.8710142076471441
27,3.791758868576176,2.8974806774018345,1.4931446404774185,3.361076406759303,-0.2011622875285766,5.436932587777234,0.4440702554338628,0.05923293082500744,0.3150291317105113,0.6204699845637024,-0.20059518891685638,-0.9062144273805592
28,3.751360720546743,2.9015621010353536,1.4888060398757836,3.3399772696103196,-0.18675533819088305,5.420549769900633,0.4465021263809286,0.04121826011702979,0.31282940096171663,0.582631214993879,-0.1858267199629243,-0.9441251139607796
29,3.708682604372575,2.9058738697793167,1.484222579753429,3.317687351127845,-0.17153529748254506,5.403242347686913,0.44817483548774206,0.02203901916450111,0.3105071232689091,0.5427558487106654,-0.17021677655861078,-0.984862951888989
30,3.663712962352995,2.910417151307863,1.479393018859219,3.294200614958145,-0.1554980436500606,5.385005634096826,0.4489303154739801,0.0017182143705499892,0.308065630811011,0.5008305240399731,-0.15378508240375505,-1.028545897545349
31,3.6164441882616956,2.915192714077798,1.4743165403146672,3.269513088522775,-0.13864086413054233,5.365836544547877,0.4486017896417338,-0.019702991345655424,0.30550967844697935,0.4568407066999235,-0.13656061411441112,-1.075292797370279
32,3.5668725405011514,2.9202009361026033,1.468992742287064,3.2436228176608832,-0.12096242458049605,5.3457335616954875,0.4470156387653998,-0.04216281593629183,0.3028455916313421,0.41077000745014564,-0.11858256451448153,-1.1252229583540383
33,3.5149980552570237,2.925441813726443,1.4634216286626054,3.2165298212715108,-0.1024627379045977,5.32469670021417,0.4439937817880333,-0.06557645790375621,0.3000814126387378,0.3625995911727021,-0.099901324528779,-1.1784556640274009
34,3.460824459652575,2.9309149703981694,1.4576035997195227,3.188236045955894,-0.08314313328447115,5.302727471578697,0.4393566042410636,-0.08983385357433264,0.29722704170088093,0.3123077156014317,-0.08057947573484578,-1.2351096229564165
35,3.4043590849030747,2.936619665445334,1.4515394428012098,3.1587453206597633,-0.06300622520746646,5.2798288488452725,0.4329264537628936,-0.11479770235447159,0.2942943692827667,0.25986944305031284,-0.06069278390147101,-1.2953023290879615
36,3.345612779470211,2.9425548028481896,1.4452303229893524,3.1280633113156475,-0.04205588249543668,5.256005231432698,0.4245317029539805,-0.14030188387960504,0.29129739538525046,0.2052565740435287,-0.040331180981438265,-1.3591493043263176
37,3.2845998222164985,2.948718940013704,1.4386777737770566,3.0961974754851727,-0.020297197333516148,5.23126240990355,0.4140113559627954,-0.16615040173569723,0.28825233147475243,0.1484378576047957,-0.01959971866350545,-1.4267631837920804
38,3.221337835559689,2.9551102965495617,1.4318836877419772,3.063157017001366,0.0022635457011016547,5.205607530745343,0.4012201468199135,-0.19211699511144242,0.2851776804252858,0.08937953877437586,0.001380529654281615,-1.4982525939383944
39,3.155847698627181,2.9617267630381736,1.4248503072194465,3.0289528406109545,0.025618900610386963,5.179049061151708,0.3860340451464987,-0.21794556088966838,0.28209428973160044,0.028046308983312545,0.02247165007344028,-1.5737207640616413
40,3.0881534604104273,2.9685659098106845,1.4175802149756032,2.993597506616668,0.04976029094669587,5.1515967538035525,0.3683560493879269,-0.24335152286453238,0.2790253732333626,-0.0355972719873602,0.04351819511632261,-1.653263804223344
41,3.018282252919345,2.9756249957209797,1.4100763248805204,2.9571051855195396,0.07467804078399237,5.12326161165024,0.34812211054472725,-0.26802427062833967,0.2759964966966994,-0.10158481446922636,0.06434667230884757,-1.736968579299799
42,2.946264204336728,2.9829009769196935,1.4023418725813344,2.919491612661208,0.10036140568907109,5.094055852690756,0.3253069923419182,-0.29163076708895425,0.27303552284734883,-0.16994553700653187,0.0847652859610068,-1.8249101126206173
43,2.8721323521726525,2.990390515628214,1.3943804061753735,2.880774042866216,0.1267986036927788,5.063992874754879,0.2999298391941335,-0.3138203898140987,0.27017251185281016,-0.2407010604131113,0.10456402056669986,-1.9171484669945529
44,2.795922556418887,2.9980899889126933,1.3861957768832869,2.8409712050843168,0.1539768462612382,5.033087220284353,0.27205919387297417,-0.3342310272452186,0.2674395738195851,-0.3138615451040443,0.12351517078437357,-2.0137250799188338
45,2.717673412703306,3.005995497458053,1.3777921297221725,2.800103257032771,0.18188236926706813,5.001354541114052,0.24181718541964567,-0.3524963967603693,0.26487067061153013,-0.3894212079417223,0.14137443651764248,-2.1146585774705486
46,2.6374261654442934,3.014102874341992,1.369173894178706,2.758191739838649,0.21050046396060806,4.968811563253159,0.20938259762472883,-0.36825448888942774,0.2625013652068463,-0.46735332469589735,0.1578827084209902,-2.219940160770688
47,2.555224621005155,3.0224076938089937,1.360345774882269,2.715259532681133,0.23981550794113904,4.9354760516663285,0.17499253224970857,-0.38115697290072104,0.2603685178881771,-0.5476049153950847,0.1727686643758911,-2.329528750310133
48,2.471115060848528,3.0309052800443332,1.3513127422780786,2.671330807433818,0.2698109961281061,4.901366775054861,0.13894240163432214,-0.3908793266306665,0.2585099297895026,-0.6300914179770547,0.18575227565890276,-2.4433461823842144
49,2.3851461546907906,3.039590715948086,1.3420800233003152,2.6264309833070136,0.300469571732341,4.86650347063787,0.10158402427836039,-0.3971313818558401,0.25696393568424974,-0.7146917694430036,0.19654927754754037,-2.561272867021305
50,2.2973688736564695,3.0484588519091327,1.332653092045251,2.580586681490043,0.3317730572272847,4.8309068089334595,0.06332165527900335,-0.3996679105042282,0.2557689493627595,-0.8012444136037602,0.20487658981029258,-2.6831444184442983
51,2.207836403432653,3.0575043145791683,1.3230376604443794,2.5338256797935483,0.36370248532020855,4.794598358539885,0.024605860753476056,-0.39829882188049565,0.25496296647778627,-0.8895448133186913,0.21045857872054624,-2.808749830038934
52,2.1166040574233964,3.0667215156467087,1.313239668937543,2.4861768672917886,0.39623812992343777,4.757600550916731,-0.014074760296922104,-0.3928985023291553,0.2545830312907553,-0.9793450322522125,0.21303394075231716,-2.9378317553494067
53,2.023729189904133,3.0761046606110987,1.3032652771460616,2.4376701989649416,0.42935953712557384,4.719936645166079,-0.0522038953186853,-0.38341381162358573,0.25466467527969056,-1.0703558406309277,0.21236287294371864,-3.0700893487754213
54,1.9292711091760846,3.085647757556518,1.2931208545458623,2.3883366503414063,0.4630455561627157,4.681630692813675,-0.08924965100683649,-0.3698702593582195,0.25524133701774016,-1.1622515808355576,0.20823409639498125,3.078001403208027
55,1.8332909907206698,3.0953446259259905,1.282812971140607,2.338208172140104,0.4972743703896825,4.642707502590104,-0.12467815363051807,-0.35237592299932907,0.2563437740419288,-1.2546777171842034,0.20047124073772202,2.940438087405948
56,1.7358517903539146,3.105188905295389,1.2723483881348214,2.2873176449127772,0.5320235282512369,4.60319260521196,-0.15796815864778108,-0.3311227385427677,0.2579994785469594,-1.3472606352250673,0.18893809886365975,2.800793039022689
57,1.6370181573808602,3.115174064147445,1.2617340486070237,2.235698833686296,0.5672699742533056,4.563112218163013,-0.18862611348443875,-0.3063848943101728,0.2602321096020974,-1.4396189183103045,0.17354233302089606,2.6594599017124696
58,1.5368563477499713,3.125293408645754,1.2509770681828518,2.183386342604954,0.6029900799342036,4.522493210475384,-0.2162010424202255,-0.27851418523409055,0.26306095514801847,-1.5313750885915178,0.15423735079149123,2.516826174582111
59,1.4354341372075514,3.1355400914087848,1.240084725708195,2.130415569572773,0.6391596748358545,4.481363067510708,-0.2402985784595446,-0.2479323334600823,0.26650043723957123,-1.6221667140804246,0.13102225174382207,2.3732609767435657
60,1.332820734452147,3.145907120283885,1.2290644539223192,2.0768226608958025,0.6757540774750144,4.439749855741317,-0.26059346034903863,-0.21512044326358368,0.2705596738238142,-1.7116558738424341,0.10393994062362744,2.2291043121847696
61,1.229086694288955,3.156387367121289,1.2179238301309978,2.0226444659244223,0.7127481263144939,4.3976821875313945,-0.27683984785278787,-0.18060592416636595,0.27524210975659297,-1.7995362154635735,0.07307367603586826,2.0846585587067357
62,1.1243038307842372,3.1669735765481257,1.2066705668796387,1.9679184916956416,0.75011621073438,4.3551891859181575,-0.2888788865063096,-0.1449473743835703,0.2805452287555205,-1.8855371719547602,0.03854244674306725,1.9401825589475619
63,1.0185451304197333,3.177658374742425,1.195312502626415,1.912682857575406,0.7878323020032574,4.312300449393026,-0.2966430725730765,-0.10871805543273415,0.2864603565684128,-1.96942525282839,0.0004956266118369888,1.7958883271369104
64,0.9118846652470567,3.188434278207126,1.1838575924153907,1.8569762499008908,0.8258699842494337,4.269046016682786,-0.30015712459370564,-0.07248869642779049,0.29297256382649395,-2.0510026174295657,-0.040892645124637195,1.651940069307798
65,0.8043975060421187,3.1992937025440837,1.1723138985496524,1.8008378766228073,0.8642024854321586,4.225456331530767,-0.29953525118302593,-0.03681043329599047,0.3000606748902548,-2.130103333206846,-0.08542896593435037,1.5084549893666472
66,0.6961596354595265,3.210228971228076,1.1606895812644353,1.7443074219477035,0.9028027083128487,4.181562207478008,-0.29497490414918986,-0.002198706437173483,0.3076973865381972,-2.206587802413572,-0.13290574645660916,1.3655052302554498
67,0.5872478611870022,3.221232324380812,1.1489928894002532,1.687425000980265,0.9416432614263079,4.137394792644432,-0.2867473080365484,0.030881093886925358,0.3158494976649388,-2.280335817027913,-0.18310564762564074,1.2231202640016632
68,0.477739729099782,3.2322959275449383,1.1372321510760273,1.6302311143656159,0.9806964900519506,4.092985534510012,-0.2751852472331447,0.06202553198223168,0.3244782483279236,-2.3512385962597846,-0.2358052520363466,1.0812890662573622
69,0.3677134364150403,3.243411880458047,1.1254157643622138,1.572766602931622,1.0199345071850239,4.048366144695945,-0.2606687554163383,0.090902013794748,0.3335397636033401,-2.4191899986641574,-0.2907779126666844,0.9399614535238908
70,0.2572477448462793,3.2545722258266827,1.1135521879539327,1.5150726023311867,1.0593292245078303,4.0035685637458185,-0.24360947639375502,0.1172542648661436,0.34298559487966684,-2.484076899394847,-0.34779576817728397,0.7990479889022771
71,0.14642189375775683,3.2657689581003497,1.1016499318440975,1.4571904976845622,1.0988523833609491,3.9586249259067854,-0.22443454009432603,0.14090421107879716,0.3527633485312419,-2.545768487550713,-0.4066309348504206,0.6584178418471647
72,0.035315513318886715,3.2769940322455198,1.0897175479965426,1.3991618782216388,1.1384755857144597,3.9135675239107313,-0.20357081607238808,0.16175029144171965,0.362817389471453,-2.604103957493599,-0.4670558805398077,0.5178938860383655
73,-0.07599146234135112,3.288239372519639,1.077763621019152,1.3410284919242557,1.1781703251391629,3.8684287737554444,-0.1814303673459221,0.1797624471589519,0.37308960497573024,-2.6588777097721144,-0.5288429547367322,0.37724409741797155
74,-0.18741888198000023,3.299496881245134,1.0657967588369888,1.2828322001684986,1.217908017777804,3.8232411794857883,-0.15839783237887145,0.19497422776066992,0.3835202124676397,-2.709820683044297,-0.5917629866519106,0.23616791403230794
75,-0.2988864640857152,3.3107584475834235,1.0538255833654233,1.2246149323670017,1.2576600333162937,3.778037297974873,-0.13482031980426779,0.2074726184490128,0.3940485937412413,-2.756575708792685,-0.6555827591124975,0.09427554743548863
76,-0.41031388372436783,3.322015956308919,1.0418587211832597,1.1664186406112433,1.2973977259549354,3.7328497037052157,-0.11100022031684763,0.21738631101789604,0.40461413739599333,-2.7986636509429683,-0.7200609973878579,-0.048942864543991674
77,-0.5216208593846066,3.3332612965830384,1.029904794205869,1.1082852543138593,1.3370924653796394,3.6877109535499284,-0.08719113726774805,0.22487320555359566,0.41515707111310446,-2.8354352895974224,-0.7849422350857479,-0.19416316701688008
78,-0.632727239823474,3.344486370728208,1.0179724103583143,1.0502566348509372,1.3767156677331482,3.6426535515538756,-0.06359692778230017,0.23010793793525988,0.425619265809303,-2.8660009821148735,-0.84994745167124,-0.3422959918933575
79,-0.7435530909119983,3.355683103001875,1.006070154248479,0.9923745302043114,1.4162388265862678,3.597709913714841,-0.040373645842318354,0.23327018004912395,0.43594499464867653,-2.889125371312777,-0.9147595630492121,-0.4945910635919709
80,-0.8540187824807539,3.3668434483705107,0.9942065778401983,0.9346805296038783,1.4556335439090735,3.552912332764717,-0.017634002653871335,0.23453436132094266,0.4460816313379087,-2.9030668022940906,-0.9790003964638302,-0.6527972370095962
81,-0.9640450751654974,3.3779594012836194,0.9823901911263845,0.8772160181698831,1.4948715610421477,3.508292942950648,0.004546179838469155,0.2340613213291318,0.45598027401817337,-2.9053297837976526,-1.0421931540960818,-0.8194098399446422
82,-1.0735532072527185,3.389023004447746,0.9706294528021584,0.8200221315552341,1.5339247896677897,3.4638836848162287,0.02612014037821523,0.23199223651045972,0.4655962833249816,-2.8922855857031258,-1.1036996362995648,-0.9980501522086748
83,-1.1824649815252428,3.400026357600481,0.9589327609379765,0.7631397105877973,1.5727653427812487,3.4197162699826533,0.04706163663080444,0.22844498363392923,0.4748897257294465,-2.8586163013940196,-1.1626134326692898,-1.1940216310369784
84,-1.2907028521078345,3.410961626284474,0.9473084436527595,0.7066092559126922,1.6113655656619397,3.3758221459298934,0.06735634544717616,0.22351292345516832,0.4838257160057917,-2.79662111864506,-1.21757929437321,-1.4150040901188337
85,-1.3981900113127725,3.4218210506214315,0.935764749787021,0.6504708826346084,1.6496980668446648,3.332232460777874,0.0869938072386316,0.21726592344096698,0.4923746554910042,-2.695837862038172,-1.266507680600969,-1.6714327309941273
86,-1.5048504764854513,3.432596954086133,0.9243098395759968,0.5947642749600925,1.68773574909084,3.2889780280676337,0.10596042439960025,0.20975330019448052,0.5005123656138075,-2.544788037838833,-1.306227448974643,-1.974753766536569
87,-1.6106091768499553,3.4432817522804324,0.9129517753227729,0.5395286408398565,1.7254518403597174,3.2460892915425026,0.12423390271166049,0.20100825872146,0.508220118876136,-2.338971291543167,-1.3324532005126235,-2.3294307041473634
88,-1.7153920403546756,3.453867961707269,0.901698512071414,0.4848026666110776,1.7628199247796035,3.2035962899292665,0.14177938649842295,0.1910533419227239,0.5154845719838685,-2.095776328049002,-1.3410306727620913,-2.7180342221888116
89,-1.8191260805178633,3.4643482085446724,0.8905578882800926,0.43062447163969786,1.7998139736190826,3.161528621719345,0.15854739506552618,0.17990638096130718,0.5222976080688461,-1.8566097207765597,-1.330666327320466,-3.0991142011204187
90,-1.9217394832732673,3.474715237419773,0.8795376164942168,0.37703156296272766,1.8364083762582428,3.119915409949953,0.17447353103615548,0.16758645325232047,0.5286560968596765,-1.6586294290555605,-1.3041945241437864,2.847718226227907
91,-2.023161693815691,3.484961920182804,0.8686452740195596,0.3240607899305452,1.8725779711598944,3.0787852669852773,0.1894798103287742,0.15411940463661913,0.5345615831987901,-1.512601394395616,-1.2664199551217756,2.5669051397163836
92,-2.1233235034465743,3.4950812646811125,0.8578882935953884,0.2717482988492055,1.9082980768407918,3.038166259297647,0.20347736615327047,0.13954256850906785,0.5400199154392387,-1.4110711437969679,-1.2216049383658554,2.3342243538024703
93,-2.222157136419634,3.5050664235331688,0.8472739540675898,0.22012948762272178,1.9435445228428616,2.9980858722487014,0.21637021024867206,0.12390840864094427,0.5450408259752797,-1.342384391871941,-1.1727090302351062,2.1380678496194614
94,-2.319596336786388,3.5149107029025672,0.8368093710618045,0.169238960395397,1.9782936807044145,2.9585709748705575,0.22805969556939124,0.10728691510142968,0.5496374764709921,-1.2967143874392142,-1.121624153518256,1.968653475866676
95,-2.4155764552418013,3.524607571272039,0.8265014876565495,0.11911048219409537,2.012522494931381,2.919647784646987,0.23844931503647646,0.08976668538608626,0.553825980271196,-1.266991050849751,-1.0695517602891254,1.818953127677626
96,-2.510034535969851,3.534150668217459,0.8163570650563496,0.06977693357055692,2.0462085139685238,2.8813418322945825,0.24744948785724682,0.07145471803203376,0.5576249140419148,-1.2483536679366014,-1.0172748368274336,1.6841444836998303
97,-2.6029094034891145,3.543533813181849,0.8063826732648685,0.021270265243710895,2.07932992117066,2.8436779265439274,0.2549820236422688,0.05247502765714336,0.5610548299375361,-1.2374749874339237,-0.965323147919066,1.560934156952054
98,-2.694141749498371,3.5527510142493894,0.796584681758032,-0.026378547258049778,2.111865565773889,2.8066801189207755,0.2609840094064215,0.032966254390993224,0.5641377785803842,-1.2320512396877854,-0.9140694886519773,1.4470467878381572
99,-2.7836742197221866,3.5617964769194255,0.7869692501571603,-0.07313954895454344,2.1437949938668135,2.7703716685272006,0.2654109293866647,0.013078484899140227,0.566896851922494,-1.2304601994288435,-0.8637858920435977,1.3408822146351789
100,-2.871451500756507,3.570664612880472,0.7775423189020962,-0.11898385077151552,2.1750984793617567,2.734775006822791,0.2682388964348641,-0.007030473696844135,0.5693557536981116,-1.2315392039931594,-0.8146770818748817,1.2412926473915011
101,-2.9574204069142453,3.5793500487842245,0.7683095999243328,-0.1638836748983188,2.205757054965992,2.6999117024058013,0.26946594114912026,-0.02719912049261217,0.5715384037274742,-1.2344412755321614,-0.7669008712185601,1.147438010172172
102,-3.0415299670708755,3.587847635019565,0.7592765673201423,-0.20781240014563274,2.2357525431529597,2.6658024257943307,0.2691123664410457,-0.047266352776291876,0.5734685808537497,-1.2385408413521748,-0.7205809126185057,1.0586909636932293
103,-3.1237315115100053,3.5961524544865657,0.7504484480237061,-0.2507446073031474,2.2650675871334878,2.6324669142075017,0.2672202275999284,-0.06707541237549328,0.5751696078367218,-1.24337094904991,-0.6758148565479102,0.9745735238775016
104,-3.203978758769022,3.6042598313705048,0.7418302124802394,-0.2926561244972721,2.2936856818270295,2.5999239363466096,0.2638520390270714,-0.08647750924100407,0.5766640801338687,-1.2485806883522825,-0.632679686857284,0.8947140073306332
105,-3.282227902484596,3.612165339915864,0.733426565319125,-0.3335240725488138,2.321591204832857,2.5681912571763093,0.25908883776290514,-0.1053349846004889,0.5779736392092062,-1.2539057664789663,-0.5912352841895089,0.8188172689458633
106,-3.3584376982383652,3.6198648132003437,0.7252419360270381,-0.3733269103307162,2.3487694474013177,2.537285602705783,0.2530277508332875,-0.12352391764642645,0.5791187898521203,-1.2591477812648928,-0.5515268593461686,0.7466437924900206
107,-3.432569550402455,3.6273543519088647,0.7172804696210768,-0.4120444801257115,2.3752066454050285,2.507222624769904,0.24577921924709242,-0.1409361204794174,0.5801187599834625,-1.2641593352227796,-0.5135866597152874,0.6779947910281502
108,-3.5045875989850614,3.634630333107578,0.7095460173218915,-0.4496580529840415,2.400890010310106,2.4780168658104227,0.23746402773154826,-0.15748050349213236,0.5809914005874306,-1.2688331293483541,-0.47743520870674044,0.6127014655527677
109,-3.5744588064761373,3.6416894190178732,0.7020421272268078,-0.48615037408116635,2.425807760147401,2.4496817236571093,0.22821027790816817,-0.17308382580991463,0.5817531227406623,-1.2730938049333962,-0.4430822499841439,0.5506171944441738
110,-3.642153044692904,3.648528565790384,0.6947720349829654,-0.5215057080754537,2.44994915048371,2.4222294163089515,0.21815042565466544,-0.18769087173518234,0.582418868213189,-1.2768917064580398,-0.41052751238378127,0.49161182509858276
111,-3.707643181625407,3.6551450322789965,0.6877386544604347,-0.5557098844658643,2.4733045053929947,2.395670946715315,0.2074184828991593,-0.20126411392312452,0.583002109782201,-1.2801980036329037,-0.37976137479135647,0.435567497368133
112,-3.770905168282219,3.6615363888148535,0.6809445684253546,-0.588750342949675,2.495865248427614,2.3700160675571116,0.19614746191228627,-0.21378293731392184,0.5835148772171057,-1.2830007872351714,-0.3507654853594843,0.3823755981362183
113,-3.831918125535921,3.667700525980368,0.6743920192130592,-0.6206161787801481,2.517623933589534,2.3452732460279613,0.18446711789153217,-0.22524250513517388,0.5839678048475171,-1.285301873025634,-0.3235133718420089,0.33193455935131483
114,-3.8906644309687834,3.673635663383224,0.6680828994012029,-0.6512981881242634,2.538574276301561,2.3214496286153885,0.17250202453781605,-0.2356523503246895,0.5843701966966076,-1.2871141303018598,-0.29797106685103214,0.28414828819505256
115,-3.9471298057182906,3.6793403584303883,0.6620187424828892,-0.680788913420395,2.558711184378569,2.298551005881965,0.16036999833588078,-0.24503477343323846,0.5847301053312545,-1.288459208848219,-0.27409776194011287,0.2389250705322017
116,-4.001303401322744,3.684813515102115,0.6562007135398065,-0.7090826887360127,2.5780307889986966,2.2765817772464896,0.14818087096816368,-0.25342312244288623,0.5850544208276438,-1.2893655780544313,-0.25184649666208064,0.19617682562641814
117,-4.053177886566871,3.690054392725955,0.6506295999153475,-0.7361756851253869,2.5965304756745935,2.2555449157651726,0.13603559602552862,-0.2608600219565914,0.5853489665569982,-1.2898668199154053,-0.23116488261493293,0.1558186166932676
118,-4.1027495343274225,3.6950626147507593,0.6453058018877438,-0.7620659559872767,2.6142089152246397,2.2354419329127833,0.12402566599081852,-0.2673956097807769,0.5856185988423233,-1.2900001369123206,-0.2119958576791173,0.11776834172879336
119,-4.1500183084187015,3.699838177520694,0.6402293233431933,-0.7867534824226414,2.6310660947441535,2.2162728433638392,0.11223280823480797,-0.27308582881873744,0.5858673079066027,-1.2898050487593107,-0.19427846199826038,0.08194654449994647
120,-4.194987950438289,3.7043814590492414,0.6353997624489822,-0.8102402185923463,2.64710334857664,2.1980361297737527,0.10072892421357901,-0.2779908120637495,0.5860983179108161,-1.289322260362861,-0.17794862466130346,0.04827629808604041
121,-4.237666066612462,3.708693227793205,0.6308163023266276,-0.832530137074821,2.662323389284979,2.180728707560027,0.08957623383964143,-0.28217338882448045,0.5863141842537186,-1.2885926883329515,-0.1629399484258346,0.016683123832528922
122,-4.278064214641894,3.712774651426723,0.6264777017249936,-0.8536292742238007,2.676730338622673,2.16434588968343,0.07882758671945857,-0.2856977314885616,0.5865168866640623,-1.2876566359734196,-0.1491844790950197,-0.012905082447030782
123,-4.316197990547238,3.716627305615275,0.6223822856934222,-0.8735457755260168,2.6903297585050625,2.14888135142912,0.06852690320348936,-0.2886281543606428,0.5867079169517191,-1.2865531076287036,-0.13661344622380245,-0.040558137415953786
124,-4.352087115514671,3.720253182789686,0.6185279362548681,-0.8922899409588805,2.7031286819805453,2.134327095187876,0.05870971059328166,-0.2910280695175822,0.5868883605910649,-1.2853192531836253,-0.12515796256347422,-0.06634368400366117
125,-4.385755522741519,3.7236547009201333,0.6149120830790236,-0.9098742703481779,2.7151356442017986,2.120673415237233,0.04940374304248475,-0.2929590992343686,0.5870589715840635,-1.2839899328822448,-0.1147496709232121,-0.09032734005285092
126,-4.417231444281867,3.7268347122901595,0.6115316941554396,-0.9263135087258068,2.7263607133970185,2.1079088625226365,0.040629577370008385,-0.2944803403106574,0.5872202402897082,-1.2825973918132634,-0.10532132879005458,-0.11257288514647983
127,-4.446547497892098,3.7297965122706715,0.6083832664666704,-0.9416246916874211,2.7368155218411063,2.096020209438665,0.03240128092041946,-0.295647772481231,0.58737245411032,-1.281171032664847,-0.09680732296415565,-0.13314248521541364
128,-4.473740773876521,3.7325438480939557,0.6054628166613854,-0.9558271907501794,2.746513296826934,2.0849924146101397,0.0247270515574786,-0.29651380090444046,0.5875157510944886,-1.2797372748488651,-0.08914410850266104,-0.15209695173765164
129,-4.498852921932908,3.7350809276276795,0.6027658717275117,-0.9689427587104174,2.7554688916365153,2.0748085876733615,0.017609833708636113,-0.2971269213534256,0.5876501666529628,-1.2783194879246205,-0.08227056831033493,-0.1694960304161451
130,-4.521930237998205,3.737412428148902,0.6002874596653549,-0.9809955750013355,2.7636988165122895,2.0654499540572093,0.01104789798141189,-0.2975314960426195,0.5877756736902581,-1.2769379874427795,-0.07612829167556834,-0.18539871307439412
131,-4.543023751093983,3.7395435051180828,0.5980221001607231,-0.9920122910507292,2.7712212696282927,2.0568958197643727,0.00503537517472823,-0.2977676278660665,0.5878922165342038,-1.2756100818601248,-0.07066177186031013,-0.199863566025605
132,-4.562189310172116,3.7414798009530816,0.5959637952580725,-1.0020220756386653,2.778056168061412,2.0491235361524662,-0.0004372615338905546,-0.29787112107246905,0.5879997391016294,-1.2743501599938722,-0.06581852446818276,-0.21294906822997192
133,-4.579487670960312,3.7432274538031747,0.5941060200336152,-1.011056660255198,2.784225178762573,2.0421084647152785,-0.0053827698488429915,-0.297873516935294,0.5880982077744046,-1.273169809516035,-0.061549129715865666,-0.22471395302540834
134,-4.594984582807754,3.744793106323053,0.5924417132684696,-1.0191503844580172,2.789751749528002,2.035823941863848,-0.009816768457837046,-0.2978021936899226,0.5881876294796663,-1.2720779581572494,-0.05780720291647378,-0.23521754797693634
135,-4.608750875530724,3.7461839144468447,0.5909632681217603,-1.0263402412302458,2.7946611399704304,2.0302412437076836,-0.013757423490761096,-0.29768052081484286,0.5882680654745658,-1.271081030513601,-0.054549298461937505,-0.24452010832209944
136,-4.620862546258067,3.747407556162103,0.5896625228037782,-1.032665922338035,2.798980452490313,2.0253295508359503,-0.017225189312416258,-0.2975280585566713,0.5883396413323287,-1.270183114562244,-0.051734753386739746,-0.25268314049246704
137,-4.6314008462768825,3.7484722402838235,0.5885307512490878,-1.0381698636883154,2.802738663247049,2.0210559130986088,-0.020242600399311462,-0.29736079438118124,0.5884025536154707,-1.2693861331279006,-0.04932547723480694,-0.2597697131801601
138,-4.6404523678780905,3.7493867152284572,0.5875586537896669,-1.042897290686506,2.8059666531302208,2.0173852143876037,-0.022834110114105566,-0.29719140872980204,0.5884570737059135,-1.2686900165586508,-0.047285695465709966,-0.26584475432226196
139,-4.6481091312020695,3.7501602777879075,0.586736347828023,-1.0468962635941725,2.808697238730791,2.0142801374179964,-0.025025971520935778,-0.29702956304167066,0.5885035492422948,-1.2680928737301052,-0.045581654053966275,-0.2709753331462941
140,-4.654468671084075,3.7508027819035386,0.5860533585103407,-1.0502177228867513,2.810965203312354,2.0117011285092214,-0.02684615495711126,-0.29688220344459154,0.5885424035933636,-1.2675911591808153,-0.04418129328301804,-0.27523092701812596
141,-4.659634123900091,3.7513246474401907,0.5854986093995911,-1.0529155346112393,2.8128073277823207,2.009606362366144,-0.028324296870278088,-0.29675387381379653,0.588574133773935,-1.2671798346795822,-0.04305389903571505,-0.27868367324131127
142,-4.663714314412232,3.7517368689601804,0.5850604131486681,-1.0550465357439354,2.8142624216632024,2.00795170686032,-0.029491674423112565,-0.29664703204298737,0.5885993071870866,-1.2668525238346022,-0.04216974015369184,-0.2814086061604378
143,-4.666823842614335,3.752051024497309,0.5847264621735238,-1.056670579548042,2.8153713540637506,2.006690687811128,-0.030381200540836418,-0.29656236337277886,0.5886185575534957,-1.2666016584861282,-0.04149970069291209,-0.2834838799296113
144,-4.6690831705776645,3.7522792843308688,0.584483819326286,-1.0578505809314809,2.8161770846502394,2.005774453766941,-0.031027434407191967,-0.29649908448797524,0.5886325803661414,-1.2664186155895294,-0.04101491615151346,-0.2849909771257485
145,-4.670618709296406,3.752434419759661,0.5843189085683931,-1.0586525618044949,2.8167246946176876,2.0051517407862907,-0.03146660287915452,-0.2964552318417037,0.5886421281862023,-1.2662938431184623,-0.04068642299776777,-0.2860149030394566
146,-4.671562905533335,3.7525298118759824,0.5842175056437209,-1.059145696437385,2.8170614176610274,2.004768837219091,-0.03173662886237774,-0.29642792730882184,0.5886480060739393,-1.2662169732188007,-0.04048483108634233,-0.28664436499017043
147,-4.6720543286652685,3.7525794603396516,0.5841647287517122,-1.0594023568182482,2.817236670946408,2.004569548487707,-0.031877163334950165,-0.2964136138314398,0.588651067427087,-1.266176920454439,-0.04038002882902429,-0.2869719354181714
148,-4.672237757528862,3.752597992152012,0.5841450292205006,-1.0594981580105927,2.81730208608234,2.004495161868215,-0.03192961838827341,-0.2964082532142552,0.5886522104792825,-1.266161962532728,-0.0403409312912278,-0.28709419684684473
149,-4.672264267265987,3.752600670429926,0.5841421821800536,-1.0595120035111112,2.817311540090963,2.0044844112715534,-0.03193719932196621,-0.2964074776728809,0.588652375693548,-1.26615980041429,-0.040335281732312184,-0.28711186612150646
