nimar13/UR3e_dataset_trayectorias/data/trayectorias_completas_UR3e_JTRAJ/trayectoria_231.csv
Punto,shoulder_pan_joint,shoulder_lift_joint,elbow_joint,wrist_1_joint,wrist_2_joint,wrist_3_joint,Posicion_X,Posicion_Y,Posicion_Z,Roll,Pitch,Yaw
0,5.613558079114759,-2.6718623855887174,-1.5187956531341762,6.016229638345559,-1.4698404446675744,4.073184773277859,-0.21401862828600987,0.34751938279651495,0.19788321033053444,0.5743899476122081,-1.2968169155999492,-0.2943388737795689
1,5.613554649061506,-2.6718597449257384,-1.5187931830505799,6.016228890848358,-1.4698263467941486,4.07318199742501,-0.21401679957457118,0.34752126042304066,0.19788446560781606,0.5743460790041636,-1.2968079276788056,-0.2942991956069929
2,5.613530915488937,-2.6718414733824645,-1.51877609179748,6.016223718689864,-1.4697287993575983,4.073162790462265,-0.21400414592063602,0.34753425201954274,0.19789315083023923,0.5740426155700102,-1.296745724568431,-0.29402472530584284
3,5.613467331021715,-2.6717925222040844,-1.5187303027271932,6.01620986199209,-1.4694674606247176,4.073111333207377,-0.21397024345839413,0.34756905542124017,0.19791641574290997,0.5732302687564516,-1.2965789649673929,-0.2932900387147005
4,5.613345162953559,-2.6716984698174264,-1.5186423258595094,6.016183238414476,-1.4689653372363318,4.07301246576857,-0.21390509621004092,0.3476359155463112,0.19796110103617623,0.571672161418976,-1.2962581059406477,-0.29188108218267694
5,5.613146482010429,-2.6715455131801744,-1.5184992497897245,6.016139940705104,-1.468148738022827,4.072851678450872,-0.21379912329489048,0.34774462315758975,0.19803373089669163,0.5691457838504169,-1.2957350213171157,-0.28959709394073324
6,5.612854151113716,-2.6713204591300874,-1.518288733596677,6.016076234251896,-1.4669472278196818,4.072615102662462,-0.21364314417791244,0.34790451138412676,0.19814050210457618,0.5654455516066127,-1.2949625247113756,-0.28625311268998777
7,5.612451814143416,-2.671010715734218,-1.5179989987507825,6.015988554633831,-1.4652935812829961,4.072289501821002,-0.21342836242988789,0.3481244503766275,0.19828727032655763,0.5603858135822287,-1.293893829231088,-0.2816829244189079
8,5.611923884701328,-2.670604283638133,-1.5176188210220678,6.015873505172152,-1.463123736705024,4.071862262259976,-0.21314634849096636,0.34841284043090454,0.19847953422121095,0.5538041478123835,-1.2924819798310465,-0.2757422872665729
9,5.611255534874234,-2.670089747415129,-1.5171375223882069,6.0157278544815656,-1.4603767498297024,4.07132138413503,-0.2127890219504055,0.34877760387500006,0.19872241794113352,0.5455647682655445,-1.2906792976273662,-0.26831225982501583
10,5.610432683997081,-2.6694562669154536,-1.5165449629425547,6.015548534021458,-1.4569947476681833,4.070655472330311,-0.21234863387464673,0.3492261759797253,0.19902065258799073,0.5355618491360439,-1.288436877526531,-0.25930244130671765
11,5.609441987416173,-2.668693568615524,-1.5158315328021832,6.015332635647102,-1.4529228823143625,4.069853727364802,-0.21181774973100048,0.3497654951201389,0.19937855714990774,0.5237225554865886,-1.2857041805285456,-0.24865391414022625
12,5.608270825252353,-2.6677919369671454,-1.5149881440159148,6.0150774091608605,-1.4481092847604127,4.068905936298666,-0.21118923346306478,0.35040199238784225,0.19980001942679484,0.5100095537546315,-1.2824287593936265,-0.2363416640199995
13,5.606907291164188,-2.6667422057467287,-1.5140062224723585,6.014780259863398,-1.4425050187123114,4.067802463639577,-0.21045623327495658,0.3511415808316301,0.20028847742807443,0.4944227677222183,-1.2785561505475123,-0.22237624432629569
14,5.605340181111156,-2.665535749404511,-1.512877699807944,6.01443874610489,-1.4360640344053734,4.066534242249063,-0.20961216967326815,0.35198964448756503,0.20084690170909494,0.4770001517369568,-1.274029955945788,-0.206804457826813
15,5.603558982116831,-2.664164474413774,-1.5115950053149572,6.014050576836225,-1.4287431224197813,4.065092764248846,-0.20865072629745887,0.35295102734921624,0.20147777909737563,0.4578172804238909,-1.2687921263244957,-0.1897088558350591
16,5.601553861032068,-2.6626208106200617,-1.5101510578495743,6.013613609160218,-1.4205018674961145,4.063470071927176,-0.2075658440405153,0.35403002242471754,0.2021830982476846,0.43698560858951746,-1.262783442539152,-0.17120590927587795
17,5.599315653298186,-2.6608977025904004,-1.508539257739897,6.013125845882813,-1.4113026023508821,4.061658748645171,-0.20635171892176982,0.3552303610292736,0.2029643374556504,0.4146493384601367,-1.2559441757888243,-0.15144278936582317
18,5.596835851710161,-2.658988600962517,-1.5067534786939878,6.012585433064298,-1.4011103614920517,4.059651909743156,-0.2050028041225465,0.3565552024693138,0.2038224551527545,0.39098093987483373,-1.2482148921602996,-0.13059280391281822
19,5.5941065951798015,-2.656887453794058,-1.504788059707904,6.011990657570507,-1.389892835034581,4.057443193447001,-0.2035138165327606,0.3580071242870134,0.20475788350057716,0.3661754917121339,-1.239537354085631,-0.10884965771909985
20,5.5911206574989425,-2.6545886979118087,-1.5026377969737332,6.011339944624031,-1.377620322515948,4.055026751774459,-0.20187974808291861,0.35958811325038287,0.20577052549826114,0.3404441328084273,-1.229855462862216,-0.0864208253739201
21,5.587871436102626,-2.65208725026091,-1.5002979357876283,6.010631855355421,-1.3642656867116816,4.052397241441506,-0.20009588205137724,0.3612995572933992,0.20685975601330878,0.31400700814415666,-1.219116183705781,-0.06352042206677566
22,5.584352940832287,-2.6493784992540803,-1.497764162457842,6.009865084354405,-1.3498043074508923,4.049549814768675,-0.1981578144417721,0.363142238631349,0.2080244271407803,0.2870861530743295,-1.2072703983979032,-0.04036201488267612
23,5.580559782698941,-2.6464582961208314,-1.4950325962127609,6.009038457221084,-1.334214035431803,4.0464801105874,-0.19606148042083144,0.3651163282970415,0.20926287828833678,0.25989876336997625,-1.1942736399173515,-0.017151821865798555
24,5.576487162646369,-2.6433229462566885,-1.4920997811089425,6.008150928117152,-1.31747514603728,4.043184245146352,-0.19380318569325822,0.3672213823621458,0.21057295137274323,0.2326512502202792,-1.1800866770155487,0.005917302638654166
25,5.572130860314298,-2.6399692005724105,-1.4889626779391478,6.007201577317095,-1.2995702931503617,4.039658803017775,-0.19137964256915302,0.3694563401227584,0.21195201149577347,0.2055343860032572,-1.1646759323826716,0.028670791349386642
26,5.567487222801595,-2.6363942468432056,-1.4856186561403777,6.006189608759401,-1.2804844629697916,4.035900828003827,-0.18878801035196807,0.3718195245375555,0.21339697344214065,0.17871972552383392,-1.1480137335594953,0.050956012359946824
27,5.562553153429446,-2.632595701057953,-1.4820654857019067,6.005114347597773,-1.2602049278255478,4.031907814042919,-0.18602593954301067,0.3743086452086667,0.2149043343073703,0.152357359093927,-1.130078409097771,0.0726445870953831
28,5.557326100504544,-2.6285715987684193,-1.478301329073319,6.003975237752327,-1.2387211999943732,4.02767769611605,-0.18309161922417427,0.3769208041879697,0.21647021251771054,0.1265749374792159,-1.1108542523276914,0.0936334390905804
29,5.551804046082273,-2.62432038643848,-1.474324733072542,6.00277183946081,-1.2160249855153074,4.023208841153148,-0.1799838268463666,0.3796525048732439,0.21809039344568873,0.10147781832671979,-1.0903313809117818,0.11384472529191972
30,5.545985494729894,-2.619840912793335,-1.4701346207938828,6.0015038268298015,-1.1921101380052157,4.01850003893941,-0.17670197951990674,0.3824996642282106,0.21976038175236104,0.0771501261162217,-1.068505522329898,0.13322485925783206
31,5.539869462289732,-2.6151324201687314,-1.4657302835160613,6.000170985385924,-1.166972612474321,4.013550493021636,-0.17324618577828582,0.38545762851689364,0.22147546049965136,0.05365649303388317,-1.0453777542460971,0.15174286036770432
32,5.53345546464236,-2.610194535860178,-1.4611113726102463,5.998773209627049,-1.1406104191417339,4.008359811614569,-0.1696172966717275,0.38852119268542035,0.22323075697269049,0.031044251450715585,-1.020954225310587,0.1693882599382805
33,5.526743506469783,-2.6050272634721674,-1.45627789144809,5.997310500573506,-1.113023577250983,4.002927998507235,-0.16581695494591006,0.39168462345324273,0.22502131503257336,0.009345872160474125,-0.9952458773304602,0.18616877173160268
34,5.519734070018627,-2.5996309742673924,-1.4512301873097628,5.995782963319292,-1.0842140688855468,3.99725544396928,-0.161847640978171,0.3949416860913173,0.22684217368473997,-0.011418522121652085,-0.9682681847455037,0.20210789902860807
35,5.5124281038633205,-2.5940063985159676,-1.4459689432919884,5.994190804583276,-1.0541857927843825,3.991342915657308,-0.15771271408280177,0.39828567476824916,0.22868845139821337,-0.031238698601432028,-0.9400409225931381,0.21724261055906446
36,5.504827011669285,-2.5881546168446445,-1.440495170216078,5.992534330260409,-1.0229445181574577,3.9851915495212213,-0.15341644776292673,0.4017094462385697,0.23055543554785787,-0.05011200326566156,-0.910587970027182,0.2316211786379234
37,5.496932640956112,-2.5820770515860345,-1.4348101985359658,5.990813942972932,-0.9904978385012806,3.9788028407105553,-0.14896405748303704,0.40520545653287005,0.23243867617795308,-0.06804125401495939,-0.8799371531514353,0.24530123838555581
38,5.48874727186076,-2.575775458127824,-1.428915670246244,5.989030139621582,-0.9568551254144315,3.9721786344808203,-0.14436171956730678,0.40876580019067116,0.23433408310393153,-0.08503286717711714,-0.848120128470036,0.2583480986659622
39,5.480273605900728,-2.5692519162619947,-1.4228135307901972,5.987183508936804,-0.9220274824130924,3.9653211170998386,-0.13961657989746312,0.4123822514577777,0.23623802518392323,-0.10109522507490626,-0.8151723065721626,0.2708333137886764
40,5.4715147547372505,-2.5625088215340437,-1.4165060209678373,5.9852747290299515,-0.8860276987465776,3.9582328067540815,-0.1347367511927547,0.4160463067549574,0.23814743040748249,-0.11623727716883546,-0.7811328146363958,0.28283350963693016
41,5.462474228938478,-2.555548876592199,-1.4099956688439386,5.983304564944501,-0.848870203212865,3.950916544455011,-0.12973129780481027,0.4197492276193149,0.2400598852708394,-0.13046735752041483,-0.7460444958190503,0.29442944778157654
42,5.453155926742664,-2.5483750825366425,-1.4032852816560728,5.981273866207261,-0.8105710179741266,3.943375484945414,-0.12461020715223514,0.423482083229103,0.24197373174216547,-0.14379219585094236,-0.7099539434442876,0.3057053052133134
43,5.443564122821346,-2.540990730268725,-1.396377937722643,5.979183564379571,-0.7711477123722581,3.935613087605744,-0.1193843471525477,0.42723579155257174,0.24388815997304403,-0.15621609725434255,-0.6729115680205069,0.31674814448579985
44,5.433703457042542,-2.533399391840187,-1.38927697835092,5.977034670608519,-0.7306193567444107,3.9276331073604576,-0.11406540927990555,0.4310011581173447,0.24580329479031385,-0.1677402657423816,-0.634971695365965,0.3276475483413903
45,5.423578923233921,-2.525604911802377,-1.3819859997450759,5.974828273178142,-0.6890064762385224,3.9194395855843536,-0.10866583718177868,0.4347689113839412,0.24772027391247525,-0.1783622485175657,-0.5961926944547575,0.3384953934871242
46,5.413195857946004,-2.517611398555471,-1.3745088449142193,5.9725655350606415,-0.6463310046288457,3.9110368410089107,-0.10319874112049383,0.43852973372997844,0.24964131578361565,-0.18807548063011215,-0.5566371339259478,0.34938573946816953
47,5.402559929215334,-2.5094232156976894,-1.3668495955804305,5.970247691467583,-0.6026162381314812,3.9024294606286274,-0.09767779885876929,0.44227428711399,0.2515697749115895,-0.19686891309696838,-0.5163719664788385,0.3604148100663282
48,5.391677125327675,-2.501044973374518,-1.359012564086796,5.96787604740111,-0.5578867892199063,3.893622290607358,-0.09211714397312473,0.44599323259208573,0.25351018264156905,-0.20472671140484894,-0.4754687405571815,0.371681045972684
49,5.3805537435811885,-2.4924815196279257,-1.351002285305444,5.9654519752051485,-0.5121685404405076,3.884620427184653,-0.08653124294484656,0.44967724300783535,0.255468271395778,-0.2116280154636565,-0.4340038387563701,0.38328520837723423
50,5.369196379049623,-2.483737931745583,-1.342823508545578,5.962976912116619,-0.46548859822810895,3.8754292075820964,-0.08093476273372462,0.45331700836500366,0.2574509805685623,-0.21754675649160649,-0.3920587422180164,0.3953305133816649
51,5.357611913345498,-2.474819507610082,-1.334481189461513,5.960452357816637,-0.4178752467215052,3.866054200909644,-0.0753424308728341,0.45690323362139734,0.2594664424848896,-0.2224515310361828,-0.34972031984441126,0.40792277661356546
52,5.34580750338329,-2.465731757048153,-1.32598048196071,5.957879871981729,-0.36935790157899095,3.856501199071963,-0.06976889042078453,0.4604266289054798,0.26152394710999755,-0.22630553745093177,-0.3070811403961428,0.421170545969242
53,5.333790570142618,-2.4564803931798864,-1.3173267301118097,5.955261071835035,-0.31996706379388984,3.8467762076747682,-0.06422855235892698,0.46387789244875266,0.26363388453637915,-0.22906658576959094,-0.26423980433734773,0.4351851979269541
54,5.321568787431429,-2.4470713237679487,-1.3085254600526692,5.952597629697519,-0.26973427351008783,3.836885436931163,-0.05873544821343442,0.46724768683756757,0.2658076646676653,-0.23068719816343347,-0.2213012905511986,0.45008096926569235
55,5.309150070649181,-2.437510642566802,-1.2995823718983963,5.949891270539174,-0.21869206383756357,3.8268352925679743,-0.053303085805771325,0.47052660950754793,0.26805761396107963,-0.23111482412975617,-0.17837731062803916,0.4659748912482319
56,5.296542565550034,-2.427804620671925,-1.290503331649383,5.9471437695302365,-0.16687391466791657,3.816632366732094,-0.047944311081429644,0.473705158720194,0.27039684957266613,-0.2302922022717849,-0.1355866601737447,0.48298658740087197
57,5.283754637006028,-2.4179596978690276,-1.2812943630993425,5.944356949592383,-0.11431420648990054,3.806283428896817,-0.042671178929832854,0.476773696561544,0.27283913176202357,-0.22815790890965967,-0.09305555232607289,0.5012378890825556
58,5.2707948577702775,-2.407982473983274,-1.2719616397433418,5.94153267894995,-0.06104817420495201,3.7957954167681773,-0.03749483578466021,0.4797224107733684,0.27539869594351096,-0.2246471425330795,-0.05091791323231532,0.5208522154088026
59,5.2576719972401476,-2.3978797002284984,-1.2625114766858392,5.9386728686811345,-0.007111860942722981,3.7851754271912887,-0.032425416583269494,0.4825412774546706,0.27809006630486366,-0.21969280170021482,-0.009315612490892999,0.5419536563955688
60,5.244395010220444,-2.3876582705564253,-1.2529503225487164,5.935779470269202,0.04745792812339111,3.774430707056682,-0.02747195836944311,0.4852200268423753,0.2809278534367773,-0.2132269214149864,0.03160140657525555,0.5646656914445354
61,5.230973025686602,-2.377325213005888,-1.2432847513793157,5.9328544731537,0.10262367196071809,3.763568644206643,-0.022642332451790703,0.48774811448327726,0.28392653891228814,-0.205182537719909,0.07167514138978763,0.5891094710954851
62,5.217415335547862,-2.366887681052047,-1.233521454558473,5.929899902281658,0.15834717986178148,3.752596758341552,-0.017943196590505132,0.4901147001349892,0.28710025020659036,-0.1954960499605898,0.11073974435214118,0.615401590616578
63,5.203731383410467,-2.35635294495561,-1.2236672327085545,5.926917815658802,0.2145896376287646,3.741522691926222,-0.013379968190627523,0.49230863667455194,0.29046252974038256,-0.18411014185088875,0.1486220025833252,0.6436512925744384
64,5.18993075334084,-2.345728383112048,-1.2137289876014898,5.923910301900759,0.27131165375798716,3.730354201096236,-0.008956818945845222,0.4943184711455755,0.29402610214811165,-0.17097730228517546,0.18514215879453647,0.6739570558533025
65,5.176023158628769,-2.3350214734008183,-1.2037137140668082,5.920879477784264,0.32847330562436916,3.7190991465642864,-0.004676690820731636,0.49613245983764503,0.29780264410315854,-0.15606395055063568,0.22011515596408993,0.70640256494912
66,5.162018430550597,-2.3242397845345786,-1.1936284918996716,5.917827485798373,0.38603418566590264,3.7077654845265124,-0.0005413327000555277,0.4977385989684945,0.30180256116396387,-0.13935511420052743,0.25335239018858396,0.7410521097529171
67,5.147926507132406,-2.3133909674084094,-1.1834804777689127,5.914756491695663,0.4439534475681186,3.6963612575688387,0.00344864350911463,0.49912467213713707,0.30603477612974034,-0.1208595289066605,0.28466404900896713,0.7779455449228565
68,5.133757421913201,-2.302482746449032,-1.173276897125066,5.911668682043448,0.5021898524485611,3.684894585573316,0.007293689044008008,0.5002783152455262,0.3105065333064007,-0.10061492906931604,0.31386209292983147,0.8170930383845375
69,5.119521292708097,-2.2915229109640247,-1.1630250361084058,5.908566261774981,0.5607018150412508,3.6733736566244546,0.010995228896271116,0.5011870990616645,0.31522322288066845,-0.07869318247133132,0.34076390221356156,0.8584699538592526
70,5.105228310371501,-2.2805193064910454,-1.1527322334569787,5.905451451740663,0.6194474498811608,3.6618067179155673,0.014555559423584559,0.5018386290355221,0.32018822928484664,-0.055204806277297874,0.3651965571336511,0.9020123281534103
71,5.090888727560305,-2.269479826147048,-1.1424058724146406,5.902326486259255,0.6783846174886801,3.6502020666551056,0.017977735820044596,0.5022206614002641,0.3254028070118595,-0.030302308350504025,0.3870016483055658,0.947613497109022
72,5.076512847497061,-2.2584124019775023,-1.13205337263909,5.899193610669078,0.7374709705540852,3.638568040972998,0.021265452507688732,0.5023212340160609,0.3308659868192361,-0.004181757251154075,0.40604042940363805,0.9951224645655395
73,5.062111012733175,-2.2473249963056117,-1.121682182109903,5.896055078879231,0.7966640001220124,3.626913010826989,0.02442291961590992,0.5021288098639168,0.3365745146543214,0.02291797232075754,0.42219903778360746,1.0443445651417678
74,5.047693593912091,-2.2362255930815333,-1.1112997690365694,5.892913150920788,0.8559210817759211,3.6152453689089787,0.02745473871666838,0.5016324305937245,0.3425228249569477,0.05071868163820642,0.43539343456416546,1.0950448213020516
75,5.03327097853247,-2.225122189231595,-1.1009136137665263,5.889770090498016,0.9151995218225668,3.603573521551357,0.030365780883043956,0.5008218770942049,0.3487030492685118,0.07890920083201022,0.44557367262523917,1.1469541353314001
76,5.018853559711386,-2.2140227860075163,-1.0905312006931922,5.886628162539573,0.9744566034764772,3.591905879633346,0.03316106994261189,0.4996878337002515,0.3551050603180727,0.10715441300162307,0.45272710519671805,1.1997781141006296
77,5.0044517249475,-2.2029353803356253,-1.0801600101640052,5.883489630749725,1.033649633044404,3.5802508494873373,0.03584567351496986,0.49822205240014317,0.36171655098836314,0.1351063811994613,0.4568802085900983,1.2532079558155707
78,4.990075844884256,-2.1918679561660803,-1.0698075103884548,5.880356755159549,1.0927359861098074,3.56861682380523,0.03842460406726091,0.4964175132620946,0.3685231468094495,0.16241669162911632,0.4580988077589169,1.3069325098854836
79,4.97573626207306,-2.1808284758220826,-1.0594811493461167,5.877231789678141,1.1516731537173275,3.557012172544768,0.04090273180837785,0.49426857727320556,0.3755085499068297,0.18874893339519058,0.4564866469920839,1.3606504284518455
80,4.961443279736464,-2.1698248713491037,-1.0491883466946899,5.874116979643823,1.210418788557237,3.5454452338358813,0.04328471078894523,0.49177112787620414,0.3826547116645842,0.21379021591381445,0.4521824138666024,1.4140813094929467
81,4.9472071505313595,-2.1588650358640966,-1.0389364856780294,5.8710145593753555,1.2689307511499264,3.5339243048870195,0.045574919098643314,0.48892269769766494,0.38994203077145345,0.23726078449753973,0.4453554726236219,1.4669748916553893
82,4.9330380653121555,-2.1479568149047186,-1.028732905034183,5.86792674972314,1.3271671560303693,3.5224576328914967,0.04777741357357718,0.4857225772785444,0.3973495728144732,0.2589210921305336,0.43620066801616947,1.519117659557042
83,4.918946141893964,-2.13710799777855,-1.0185848909034236,5.864855755620431,1.3850864179325848,3.511053405933823,0.04989589896202276,0.482171903032382,0.4048553071841535,0.2785760496956768,0.424932608276299,1.5703365839307326
84,4.904941413815793,-2.12632630891231,-1.0084996687362875,5.86180376363454,1.4426472979741183,3.499719743896049,0.05193371106353051,0.4782737221534389,0.41243635676658713,0.296076529703897,0.41177982578120087,1.6205000754515282
85,4.891033819103722,-2.11561939920108,-0.9984843952016054,5.858772939518045,1.499808949840502,3.4884646893640996,0.05389381296832577,0.4740330327583406,0.42006925572709,0.31131847764923914,0.39697915761694974,1.6695165121585414
86,4.877233189034094,-2.104994837357518,-0.9885461500945407,5.855765425760001,1.5565309659697233,3.477296198534113,0.05577880319278266,0.46945679815041846,0.4277302106387805,0.3242401573976362,0.38077060359164466,1.717330874956274
87,4.863549236896699,-2.094460101261081,-0.9786919282446223,5.8527833391371455,1.6127734237367077,3.4662221321187836,0.057590934241142845,0.4645539347246863,0.4353953602758863,0.334818119789008,0.36339282534797684,1.7639200909944062
88,4.849991546757959,-2.08402256930724,-0.9689286314237797,5.849828768265104,1.6684969316377716,3.455250246253693,0.05933213992880401,0.4593352736617092,0.44304102956978647,0.3430624565669369,0.34507936262872574,1.809287660380798
89,4.836569562224117,-2.0736895117567027,-0.9592630602543792,5.846903771149601,1.7236626754750963,3.444388183403654,0.06100406968048305,0.45381349716976943,0.4506439735067879,0.34901181535001763,0.32605557138221497,1.8534580580711935
90,4.823292575204414,-2.06346808208463,-0.9497019061172565,5.844010372737669,1.7782324645412109,3.4336434632690467,0.06260812796622071,0.4480030506073379,0.4581816071185089,0.3527285366121117,0.30653623745022013,1.8964712907371357
91,4.8101697146742834,-2.0533653083298535,-0.9402517430597537,5.841150562468854,1.8321687778034415,3.423023473692158,0.06414551705543721,0.4419200323349116,0.4656322181641376,0.35429415546394355,0.28672378875363325,1.9383778726683378
92,4.7972099354385325,-2.043388084444101,-0.9309190197037531,5.83832629182642,1.8854348100883884,3.4125354615635186,0.06561728134765586,0.43558206359253576,0.4729751596128389,0.35380540576888,0.26680701510053356,1.9792343814340272
93,4.784422006894527,-2.0335431616412034,-0.9217100511537122,5.835539471888567,1.9379945182664047,3.402186523728241,0.06702435166949487,0.4290081410658175,0.48019101958706684,0.35137077999817024,0.2469602037131373,2.0190996710768916
94,4.7718145017953795,-2.023837139746326,-0.9126310109046993,5.832791970879629,1.989812667436051,3.3919835978923616,0.06836758810124029,0.42221847508160076,0.48726176700600166,0.3471076372861664,0.22734260598036476,2.058031759838717
95,4.759395785013133,-2.0142764585451802,-0.9036879227504262,5.830085611721286,2.0408548771085764,3.3819334535291725,0.06964782010192742,0.4152343165607601,0.49417087175556995,0.3411398125710773,0.2080981630704163,2.0960853687700274
96,4.747174002301943,-2.0048673891332416,-0.8948866526912853,5.827422169583769,2.0910876673923804,3.3720426827855667,0.07086588292837827,0.40807777594960654,0.500903398790926,0.3335956577914331,0.18935543202548727,2.1333100631593727
97,4.73515706906127,-1.9956160252649744,-0.8862329008423855,5.824803369437075,2.140478505177481,3.362317691388372,0.0720226495801906,0.40077163735605353,0.5074460761338477,0.32460643762103775,0.17122766781727874,2.169748936195069
98,4.723352659099063,-1.986528274703046,-0.8777321933415825,5.822230883602167,2.1889958503199933,3.352764689550691,0.07311905773924851,0.39333917103784627,0.51378733724774,0.314305003214449,0.15381302931538385,2.2054377696984235
99,4.7117681933949385,-1.9776098505675448,-0.8693898742575172,5.819706329302185,2.2366092018265986,3.3433896828782395,0.0741561313998453,0.3858039472362062,0.5199173387455484,0.30282467459196905,0.137194887527835,2.240404606977935
100,4.700410828863372,-1.9688662626852018,-0.8612110974976512,5.817231266213655,2.2832891440389966,3.3341984632756825,0.07513499709641072,0.37818965412933375,0.5258279548018868,0.2902982730333233,0.12144222253762511,2.2746696755564724
101,4.689287447116886,-1.9603028089386103,-0.8532008187162992,5.8148071940176935,2.3290073928183945,3.3251965998529776,0.07605689482408436,0.3705199224079877,0.5315127499934401,0.2768572572459022,0.10661010127944065,2.3082456012270516
102,4.678404643229227,-1.9519245666154386,-0.8453637872226647,5.81243554995122,2.373736841729973,3.316389429831708,0.07692318390859713,0.36281815866217204,0.5369669325771363,0.26263092973496516,0.09274023185352212,2.341137858759734
103,4.667768714498558,-1.9437363837576576,-0.8377045378888763,5.810117706358162,2.4174516082273323,3.307782049451425,0.07773534421338033,0.3551073894264456,0.5421872904319122,0.24774569174836458,0.07986159174524203,2.373345408258961
104,4.657385649210639,-1.935742870510751,-0.83022738305802,5.807854968240662,2.460127079837009,3.2993793048759823,0.07849497317244218,0.34741011737376215,0.5471721120376114,0.23232433572403993,0.06799112746008099,2.404861469624134
105,4.647261115402019,-1.9279483904729413,-0.8229364044521754,5.805648570810285,2.5017399603428983,3.2911857830998787,0.07920377920761551,0.33974819078583157,0.5519210949460639,0.21648537289986328,0.05713452207648107,2.4356743909441834
106,4.6374004496232155,-1.920357052044403,-0.8158354450804521,5.803499677039232,2.5422683159707455,3.283205802854592,0.07986357212980234,0.3321426870721618,0.5564352442189853,0.20034240040918905,0.04728702545028448,2.4657685701749155
107,4.627808645701896,-1.912972699776485,-0.8089281011470224,5.801409375211542,2.5816916215726176,3.275443405514921,0.08047625113839948,0.32461381076958246,0.560716763270466,0.18400351670397716,0.038434339645647624,2.4951253933034194
108,4.618490343506083,-1.9057989057209288,-0.8022177139591566,5.799378676474302,2.6199908068113524,3.2679023460053243,0.08104379102440676,0.31718080613678357,0.564768939465267,0.16757079658756494,0.030553549952775972,2.5237241565245006
109,4.6094498177073095,-1.8988389607790843,-0.7957073618352586,5.797408512388852,2.6571483023450666,3.2605860837062535,0.08156822715463824,0.3098618841703594,0.5685960266952724,0.15113983769379083,0.02361408986509889,2.551542944767558
110,4.600690966543833,-1.8920958660511333,-0.7893998520128982,5.795499732482,2.6931480860115835,3.253497773360497,0.08205163977087054,0.302674163614555,0.5722031269930902,0.13479938921180226,0.0175787268439343,2.5785594441445263
111,4.592217300583801,-1.8855723241853037,-0.7832977125568517,5.79365310179722,2.7279757290129227,3.246640255979515,0.08249613808288632,0.29563362531914467,0.5755960730519583,0.1186310713903848,0.012404554741152825,2.604751671379501
112,4.584031931488449,-1.8792707307270935,-0.7774031842671294,5.791869298445871,2.761618442099768,3.24001604974978,0.08290384457192443,0.2887550791201692,0.5787813133125271,0.10270919126159472,0.008043978449441372,2.6300986088086393
113,4.576137560775276,-1.8731931654684835,-0.771718212587017,5.790148911158394,2.794065121755943,3.2336273409391145,0.08327687985478113,0.282052142276615,0.5817658010572783,0.08710065649954034,0.004445676706400364,2.654580738860949
114,4.56853646858124,-1.8673413837971604,-0.7662444395111077,5.7884924368355275,2.825306396382868,3.227475974803027,0.08361734839174474,0.2755372283915314,0.5845568887290554,0.07186498574168045,0.0015555299354647958,2.6781804768118374
115,4.561230502425935,-1.8617168080457356,-0.7609831954933328,5.786900278099512,2.8553346724840383,3.2215634464910554,0.08392732525648006,0.26922154567650425,0.5871622284676468,0.05705441035319407,-0.0006824985376391896,2.7008825048445004
116,4.554221065974778,-1.8563205188409606,-0.7559354913550049,5.785372740845298,2.884144180849476,3.2158908919531,0.08420884412495856,0.263115103381175,0.5895896796428194,0.042714059740102284,-0.0023255377281916558,2.7226740139189056
117,4.547509107802201,-1.8511532464529497,-0.751102010192849,5.783910031791756,2.9117310227402244,3.2104590788457665,0.08446388658521436,0.2572267252012565,0.5918472239581427,0.02888222006234921,-0.0034310484746133693,2.743544862560132
118,4.54109511015483,-1.8462153621443966,-0.7464830992870335,5.78251225603288,2.9380932160728124,3.2052683974386986,0.08469437282114073,0.2515640684957157,0.5939428885108301,0.015590654633300121,-0.0040561327893286585,2.7634876634284002
119,4.534979077714668,-1.8415068695197934,-0.7420787620092135,5.781179414589002,2.9632307416036996,3.200318851520926,0.08490215368232049,0.246133648182664,0.5958846770213329,0.002864973417968863,-0.004256916589190812,2.782497809471838
120,4.529160526362289,-1.8370273958746481,-0.737888649730553,5.779911401957994,2.9871455891137986,3.195610049307187,0.08508900411819785,0.24094086424019467,0.5976805092942964,-0.009274961194390368,-0.004088007329119519,2.8005734516836145
121,4.523638471940017,-1.8327761835447074,-0.7339120537297756,5.778708003666477,3.009841803592864,3.1911411943442847,0.0852566179285777,0.23599003180933364,0.599338168840693,-0.020814604856211488,-0.0036020262833179524,2.817715440110511
122,4.518411419015115,-1.8287520812551747,-0.7301478971011897,5.777568893821032,3.0313255314240353,3.1869110764174158,0.08540660376296325,0.231284412977778,0.600865258479759,-0.03174428972998063,-0.002849213697044892,2.833927238928693
123,4.513477349642965,-1.8249535354699216,-0.7265947266627173,5.7764936326594025,3.0516050665682863,3.1829180624565074,0.08554048228802971,0.22682624941220197,0.602269163648394,-0.04205878165180632,-0.0018771037939273529,2.8492148252507135
124,4.508833712130262,-1.8213785817407162,-0.7232507048639467,5.775481664101709,3.070690896748851,3.1791600874425594,0.08565968443469058,0.22261679510051724,0.6035570230739503,-0.05175684540146976,-0.0007302656736838988,2.8635865799856814
125,4.504477409798193,-1.8180248360564395,-0.720113601694153,5.774532313301652,3.088595749635769,3.175634645313984,0.08576555063289436,0.2186563485611109,0.604735706412683,-0.060840826096600395,0.0005498945392987722,2.8770531776522987
126,4.500404789745619,-1.8148894861922953,-0.7171807865903344,5.773644784197719,3.10533463903029,3.172338779872934,0.08585933094259732,0.21494428397169602,0.605811798418579,-0.06931625330419688,0.0019252753592226746,2.8896274806325004
127,4.496611631612274,-1.8119692830590486,-0.7144492203452535,5.7728181570644,3.1209249110493795,3.169269075691661,0.08594218599234693,0.21147908076393962,0.606791589184172,-0.07719147307085587,0.003361170680766505,2.9013244420214868
128,4.493093136341935,-1.8092605320522175,-0.711915447015466,5.7720513860633815,3.13538629031017,3.1664216490188295,0.08601518864182825,0.20825835132010917,0.6076810699839797,-0.08447731175900824,0.004826314887956192,2.912161020023351
129,4.4898439149456175,-1.8067590844013193,-0.7095755858293622,5.7713432967947735,3.148740926114436,3.163792138685876,0.08607932629074982,0.20527886649343796,0.6084859342502749,-0.09118677436884041,0.006292887495109842,2.922156105790508
130,4.48685797726476,-1.8044603285190695,-0.7074253230951923,5.770692583848296,3.161013438633071,3.1613756970133364,0.08613550376297721,0.20253657875355247,0.6092115832177863,-0.09733477894139103,0.007736482253599511,2.9313304657206407
131,4.4841287207344,-1.802359181350611,-0.7054599041091081,5.770097808354506,3.172230965090546,3.1591669807171803,0.08618454670130578,0.20002664283173746,0.6098631357864466,-0.10293792768236533,0.009136045352953892,2.93970669850775
132,4.481648919146375,-1.8004500797227259,-0.7036741250631968,5.7695573955359905,3.182423205949381,3.1571601418151642,0.08622720541422199,0.19774343380714107,0.6104454421673995,-0.1080143146177714,0.010473786996544639,2.9473092066845274
133,4.479410711412491,-1.7987269716930658,-0.7020623249535201,5.769069632258586,3.1916224710946084,3.1553488185331577,0.0862641591211829,0.19568056263409261,0.6109631008951815,-0.11258336888498592,0.011735070267646362,2.95416418197585
134,4.477405590327731,-1.7971833078993544,-0.7006183774881383,5.7686326645825785,3.199863726018269,3.153726126211488,0.08629602054697537,0.19383088916203797,0.6114204788065655,-0.11666573216741595,0.012908280843864096,2.960299603489214
135,4.475624391333405,-1.795812032908616,-0.6993356829951518,5.768244495313914,3.20718463800386,3.152284648211273,0.08632334081859111,0.19218653274316094,0.6118217336023356,-0.12028316828763233,0.013984680785694903,2.9657452475757164
136,4.474057281280374,-1.7946055765663989,-0.6982071603307365,5.767902981555405,3.213625622310798,3.1510164268207594,0.08634661461947978,0.19073888055818458,0.6121708386209812,-0.1234585025730807,0.014958249333475193,2.970532708085346
137,4.472693747192209,-1.793555845345983,-0.69722523878718,5.767605832257944,3.2192298883589006,3.14991295416167,0.08636628555619232,0.18947859381822582,0.6124716094617126,-0.12621558829095167,0.015825513407910857,2.9746954256921327
138,4.471522585028389,-1.7926542136976034,-0.6963818500009131,5.7673506057717026,3.224043485912845,3.148965163095532,0.08638275169107629,0.1883956120198127,0.6127277320974475,-0.12857929720689348,0.016585370331310516,2.9782687249620308
139,4.470531888447482,-1.7918915153976744,-0.6956684198605407,5.767134707397346,3.2281153512666743,3.148163418130024,0.08639637119205337,0.18747915544116453,0.612942792115806,-0.13057553114933582,0.01723890517527444,2.9812898578637594
140,4.4697090375703254,-1.7912580348979983,-0.6950758604148881,5.766955386937238,3.23149735342819,3.147497506325305,0.0864074680464999,0.1867177260707938,0.613120304717246,-0.13223125135200625,0.017789205099025252,2.9837980524684795
141,4.469040687743233,-1.7907434986749946,-0.6945945617810276,5.7668097362466515,3.234244340303513,3.1469566282003614,0.08641633778100817,0.18609910715440323,0.6132637450840378,-0.13357452229689257,0.01824117307164504,2.9858345656395335
142,4.468512758301145,-1.7903370665789087,-0.6942143840523125,5.766694686784971,3.2364141848814905,3.1465293886393324,0.08642325312240454,0.1856103615332869,0.6133765787118622,-0.13463456678462155,0.018601343469595816,2.9874427385702225
143,4.468110421330847,-1.7900273231830406,-0.6939246492064177,5.7666070071669076,3.2380678314181717,3.146203787797872,0.08642846952784344,0.1852378289272913,0.6134622912675293,-0.13544182901417007,0.018877702205070502,2.988668054083984
144,4.4678180904341325,-1.7898022691329531,-0.6937141330133694,5.7665433007137,3.239269341621317,3.145967212009463,0.08643223050330627,0.1849671222883917,0.613524417502191,-0.13602804255476567,0.019079514265656336,2.9895581946621337
145,4.467619409491,-1.7896493124957011,-0.6935710569435856,5.766500003004326,3.240085940834832,3.1458064246917647,0.08643477262039186,0.18478312331801014,0.6135665687097884,-0.13642630023252086,0.019217161825058993,2.990163100210185
146,4.467497241422844,-1.7895552601090428,-0.6934830800759013,5.766473379426714,3.2405880642232114,3.1457075572529574,0.08643633013107489,0.18466997720314002,0.613592458176173,-0.13667112312561916,0.01930199641056896,2.990535024613624
147,4.467433656955624,-1.7895063089306635,-0.6934372910056157,5.766459522728939,3.240849402956088,3.145656099998069,0.08643713906926273,0.18461108658477932,0.6136059240159596,-0.13679852605302914,0.019346208976556065,2.9907285901675618
148,4.4674099233830535,-1.7894880373873887,-0.6934201997525149,5.766454350570445,3.2409469503926482,3.1456368930353236,0.08643744071659921,0.18458910472866963,0.6136109487426158,-0.1368460771393996,0.019362722125016756,2.9908008389911562
149,4.467406493329802,-1.7894853967244098,-0.6934177296689186,5.766453603073245,3.2409610482660662,3.1456341171824764,0.08643748429828621,0.18458592782516714,0.6136116748632525,-0.13685294922445784,0.019365109124001103,2.9908112805564486
