nimar13/UR3e_dataset_trayectorias/trayectorias_ejecutadas_filtradas/trapezoidal/trayectoria_222_result_filtrado.csv
timestamp,q1,q2,q3,q4,q5,q6,qd1,qd2,qd3,qd4,qd5,qd6,tau1,tau2,tau3,tau4,tau5,tau6
1749052513.0542853,-3.3066817870517733,-2.446300198166274,-1.6714221366428426,5.7642067481748835,-1.0506876559648988,-4.507560307789664,0.003618780635776107,-1.3530925584311687e-06,-0.00024591706542667255,-0.005743648659424241,-0.0004950540530893735,-1.9747305626578938e-05,-0.0672716498374939,1.2895976305007937,0.6754268407821655,0.4666860997676849,-0.4118647277355194,-0.0543757528066635
1749052513.0543308,-3.3066635474443755,-2.446303051513568,-1.6714193009549714,5.764200251300871,-1.050694738069771,-4.507559214704813,0.003831911910570755,-1.0206378011467358e-06,-9.040033188905095e-05,-0.005284851647059711,-0.0004384245388803439,0.00039437318916609056,-0.078523151576519,1.2903656959533691,0.6776612401008606,0.4572167098522186,-0.4252550899982452,-0.0331395119428634
1749052513.054371,-3.3066458453202956,-2.446305736902308,-1.6714166218388262,5.764193875265121,-1.0507014305649138,-4.507558080257971,0.004023301075047009,-4.854036017643456e-07,6.316063771270487e-05,-0.00483782218511597,-0.00038290962957994955,0.000792578107919292,-0.0977742671966552,1.3054962158203125,0.6799905896186829,0.4516129195690155,-0.4098180830478668,-0.0282130986452102
1749052513.0544095,-3.3066291694556913,-2.4463081337838877,-1.6714141798241033,5.764187699929893,-1.0507073833084724,-4.507556806321426,0.004171411417707248,2.4773469967800615e-07,0.00021093895586745694,-0.00441133429985345,-0.00032957934705028725,0.0011582976865003338,-0.1108962744474411,1.3066458702087402,0.6925159096717834,0.4147236049175262,-0.417285293340683,-0.0340975373983383
1749052513.054447,-3.306613914659949,-2.446310142643975,-1.6714120228962843,5.764181793966922,-1.050712327416276,-4.507555306024871,0.0042588165463164716,1.1506822330611874e-06,0.00034946314235980423,-0.004011904814654165,-0.00027943691798866234,0.0014776388322866173,-0.1112861037254333,1.3116466999053955,0.6961450576782227,0.4349245131015777,-0.4023760259151459,-0.0356363207101821
1749052513.0544844,-3.306600352464004,-2.446311690147571,-1.6714101627903455,5.764176213531709,-1.0507160964562487,-4.507553514563015,0.004273687968053142,2.169033315765284e-06,0.0004758313866790409,-0.0036432535856901664,-0.00023337717889266682,0.001740363382472404,-0.0998596921563148,1.3073997497558594,0.6989651322364807,0.4118784070014953,-0.3907077610492706,-0.0342026054859161
1749052513.054522,-3.306588617761067,-2.446312731575796,-1.6714085765345659,5.7641710010860185,-1.0507186333795588,-4.507551396363814,0.004210598104717258,3.2210757844303162e-06,0.0005878529688437622,-0.0033062383936014617,-0.0001921400869342433,0.0019403984404152655,-0.1058910489082336,1.3369848728179932,0.6905607581138611,0.4064623415470123,-0.3909802734851837,-0.0272658765316009
1749052513.0545597,-3.3065787123130246,-2.446313250587135,-1.6714072131189812,5.764166184367847,-1.0507199831331868,-4.507548948317046,0.004070589061601238,4.1995637056944225e-06,0.0006841044933645086,-0.002999256942160841,-0.00015626558805585946,0.0020758565883258764,-0.0937287956476211,1.3005008697509766,0.6927238702774048,0.4117461740970611,-0.3905868828296661,-0.0271186977624893
1749052513.0545964,-3.306570523735709,-2.446313256871877,-1.6714060041129217,5.76416177559018,-1.0507202733431837,-4.507546199285931,0.0038605610490044565,4.976803899125331e-06,0.0007638980066716233,-0.0027190025498382746,-0.00012605861088784475,0.0021486305263598814,-0.0926579087972641,1.3165875673294067,0.7028425335884094,0.4312244355678558,-0.3925198018550873,-0.0313081443309783
1749052513.054634,-3.3065638564888853,-2.4463127826594806,-1.6714048761715683,5.764157771116643,-1.0507196871516027,-4.507543206498108,0.0035921219466160054,5.413379349401652e-06,0.0008271720346648359,-0.0024613844865066497,-0.00010157198438781614,0.0021636883288757287,-0.0752876624464988,1.3085123300552368,0.6952992677688599,0.4141459763050079,-0.3904363214969635,-0.0303192436695098
1749052513.054671,-3.306558469775781,-2.446311879142797,-1.6714037630294423,5.76415415210313,-1.0507184330465587,-4.507540049681279,0.003280097702864066,5.3705142524804414e-06,0.0008743326655098123,-0.002222406893621238,-8.261123611322896e-05,0.0021282191783389467,-0.0795281007885932,1.310717225074768,0.7121723890304565,0.4170190095901489,-0.3975108563899994,-0.0113827288150787
1749052513.0547085,-3.30655411638515,-2.4463106136838073,-1.671402615032504,5.764150886648191,-1.050716716504354,-4.507536823847288,0.002940921631331061,4.725680525392149e-06,0.0009060830154562346,-0.0019988455424998653,-6.876062603230274e-05,0.0020507672303351015,-0.0632291063666343,1.289714813232422,0.6984319090843201,0.4155035614967346,-0.3954761028289795,-0.0246432721614837
1749052513.0547454,-3.30655057656293,-2.4463090681412556,-1.6714014052703776,5.764147933570092,-1.0507147174855826,-4.507533631426071,0.002591099199632468,3.390575565998937e-06,0.0009232801479198261,-0.0017886435087194428,-5.9426179805179273e-05,0.0019404545615703773,-0.057750716805458,1.305229902267456,0.7040716409683228,0.4128786623477936,-0.3831672370433807,-0.0234857201576232
1749052513.0547822,-3.306547682140379,-2.446307337813346,-1.6714001322904524,5.764145247150193,-1.0507125763071252,-4.50753057424429,0.002245895866781165,1.330100227889656e-06,0.0009268485170265435,-0.001591027096620577,-5.388952223610216e-05,0.0018063480355505152,-0.0729243531823158,1.296673059463501,0.6944118142127991,0.397290974855423,-0.3998072743415832,-0.0200255811214447
1749052513.054819,-3.3065453283552797,-2.4463055296762466,-1.6713988197518956,5.764142781641117,-1.0507103885708364,-4.507527745793657,0.001918336512780291,-1.419518753258183e-06,0.0009177618796605625,-0.0014063958806468499,-5.1365820700633416e-05,0.0016569837389536174,-0.0768224596977233,1.3071274757385254,0.6805716156959534,0.407671570777893,-0.3923379778861999,-0.017644315958023
1749052513.0548563,-3.3065434734754344,-2.4463037584953256,-1.671397513299549,5.764140494497821,-1.050708208293335,-4.5075252242324,0.0016185507405304571,-4.735728760835997e-06,0.0008970857532784879,-0.0012360605328788643,-5.105973538707735e-05,0.0015000360113402442,-0.0520402938127517,1.3096567392349243,0.7075178027153015,0.3935204148292541,-0.3926156759262085,-0.0349080264568328
1749052513.0548928,-3.306542128477215,-2.446302140284555,-1.6713962748249438,5.764138348001064,-1.0507060574385794,-4.507523066494963,0.0013534564702160432,-8.400313487538533e-06,0.0008660544705979647,-0.0010818983302391875,-5.221453648778256e-05,0.0013421079699377709,-0.0449677109718322,1.2877578735351562,0.6936518549919128,0.4012631475925445,-0.4006288051605224,-0.0222586989402771
1749052513.0549295,-3.3065413400808508,-2.4463007839000985,-1.6713951745006808,5.764136309714906,-1.050703939535297,-4.507521303895794,0.001126745706777169,-1.2098325300483326e-05,0.0008261463573760048,-0.0009459816971481711,-5.4151139511777284e-05,0.0011886214752539477,-0.0873318314552307,1.2817001342773438,0.6950510740280151,0.4026516675949096,-0.4057457149028778,-0.0371206700801849
1749052513.0549655,-3.306541170591502,-2.4462997822948744,-1.6713942815318594,5.764134352695908,-1.0507018546706208,-4.5075199398676595,0.0009391186051810664,-1.5427698005343615e-05,0.000779122473176469,-0.000830219488678022,-5.629544917880247e-05,0.0010437886891221028,-0.0659340620040893,1.2838393449783323,0.7019101977348328,0.3898193538188934,-0.4054793417453766,-0.0331966578960418
1749052513.0550025,-3.306541677732508,-2.446299204770222,-1.6713936550552568,5.764132456375739,-1.050699812875967,-4.50751895068712,0.0007887023125095357,-1.7921438431610485e-05,0.0007270081850358593,-0.000736038019731831,-5.819388311832213e-05,0.0009106496220118734,-0.0739811807870864,1.262209177017212,0.6936156153678894,0.4091115593910217,-0.4007457196712494,-0.043628379702568
1749052513.0553691,-3.3065428972191637,-2.446299091002106,-1.6713933366289258,5.764130608535788,-1.0506978431267995,-4.507518289644119,0.0006715880661782115,-1.9083443505086995e-05,0.0006720153774942221,-0.0006641189944331939,-5.951813247943591e-05,0.0007911599326782278,-0.0674618259072303,1.2788677215576172,0.6920498013496399,0.3960857987403869,-0.4050722420215606,-0.0299455374479293
1749052513.05735,-3.3065448300921654,-2.446299447414245,-1.6713933453188266,5.764128808009668,-1.0506959962014397,-4.5075178940679566,0.000582422888318172,-1.8437802733985267e-05,0.0006164179800667826,-0.0006142032866746944,-6.006103525680199e-05,0.0006863129308208604,-0.0875439196825027,1.252899408340454,0.6885080933570862,0.4012453258037567,-0.3953249752521515,-0.0282536149024963
1749052513.102295,-3.3065474357392497,-2.446300246621767,-1.6713936757884695,5.764127067109783,-1.0506943412388292,-4.507517693663069,0.0005149998018342435,-1.5589967754750735e-05,0.0005624010137509539,-0.0005849628381852368,-5.9725872197835834e-05,0.0005962811638466562,-0.0901324972510337,1.2496466636657717,0.6967913508415222,0.3962034881114959,-0.4125290513038635,-0.0200295448303222
1749052513.102342,-3.3065506304185974,-2.4463014305193282,-1.6713942992121937,5.764125412638263,-1.0506929572446666,-4.507517618463963,0.00046280123261303646,-1.0296487924739045e-05,0.0005119045272223224,-0.0005739389570873137,-5.8511471042112714e-05,0.0005205662543180776,-0.0941808298230171,1.246903657913208,0.6912448406219482,0.4090570509433746,-0.408221036195755,-0.0308078527450561
1749052513.1023824,-3.3065542904369427,-2.446302916723343,-1.6713951663617805,5.7641238848213305,-1.0506919215095696,-4.507517605356806,0.00041946282608369933,-2.5382564310547924e-06,0.00046648115849244864,-0.0005775452237378118,-5.649528188275022e-05,0.0004581493426266671,-0.0941808298230171,1.246903657913208,0.6912448406219482,0.4090570509433746,-0.408221036195755,-0.0308078527450561
1749052513.1024222,-3.3065582590101434,-2.446304606966859,-1.6713962119943149,5.7641225343118085,-1.05069129708088,-4.5075176029052075,0.00037913852500109213,7.409440300651527e-06,0.00042718178070542067,-0.0005911368801200215,-5.3816147646764777e-05,0.0004076370207493817,-0.0946728289127349,1.2400732040405271,0.6847155094146729,0.3989344537258148,-0.403880774974823,-0.0183172225952148
1749052513.1024606,-3.306562355945544,-2.4463063955991555,-1.6713973597812313,5.764121417955653,-1.0506911214472556,-4.507517574587381,0.0003367619480845513,1.8918118155598506e-05,0.0003944792687177834,-0.0006091542149701089,-5.065793628794886e-05,0.00036739870760094806,-0.0894744917750358,1.2379939556121826,0.6819901466369629,0.4090768694877624,-0.4069601893424988,-0.021388828754425
1749052513.1024983,-3.306566389392786,-2.4463081769265043,-1.6713985273914098,5.764120594011525,-1.0506913984960213,-4.507517500385372,0.00028821311494837227,3.09673891749887e-05,0.00036823669671207874,-0.0006253523746741162,-4.723462051130342e-05,0.0003356918697430474,-0.0790372639894485,1.2254655361175537,0.6875254511833191,0.4132342040538788,-0.4131950139999389,-0.0325201898813247
1749052513.1025374,-3.306570168950523,-2.446309851199074,-1.6713996317460462,5.764120117233237,-1.0506920953691683,-4.507517376322929,0.0002304116970965298,4.2135255693720695e-05,0.00034772335440014246,-0.0006331315594537625,-4.37768624525023e-05,0.00031077211542827974,-0.097398042678833,1.2285499572753906,0.6971994042396545,0.4013980329036712,-0.4056149423122406,-0.0292761325836181
1749052513.1025753,-3.3065735193354975,-2.4463113297453067,-1.6714005946327812,5.7641200340489185,-1.0506931449692183,-4.507517211599609,0.0001613654747052602,5.062541208722572e-05,0.00033167947376142937,-0.0006259778965846346,-4.051973933774073e-05,0.0002909860279776996,-0.1056421399116516,1.2188198566436768,0.6874964833259583,0.4130459725856781,-0.4290654361248016,-0.0349098891019821
1749052513.1026127,-3.3065762936037797,-2.446312539715404,-1.6714013486774368,5.764120378036095,-1.0506944537102814,-4.507517023666084,8.020277771465318e-05,5.433760380931151e-05,0.00031842814429016873,-0.0005980159887138563,-3.7690976578453047e-05,0.0002748454268297759,-0.0885740667581558,1.2241265773773191,0.6890689730644226,0.4168996810913086,-0.4173006117343902,-0.0357718467712402
1749052513.1026497,-3.306578384704268,-2.446313428411248,-1.671401843225408,5.764121165901814,-1.0506959129989688,-4.507516832451186,-1.2790159533068335e-05,5.098405732974306e-05,0.0003060304567172935,-0.0005446600208187118,-3.549897349212417e-05,0.0002610825097682162,-0.1081089749932289,1.2052472829818726,0.6877451539039612,0.398885041475296,-0.4267429411411285,-0.0415782034397125
1749052513.102686,-3.306579734107375,-2.4463139667863105,-1.671402049242929,5.764122394150498,-1.050697412204802,-4.507516655214954,-0.00011611866327868121,3.825098502333793e-05,0.0002924774180409744,-0.0004633328886621952,-3.41200305877869e-05,0.00024868606850426565,-0.072149246931076,1.2037897109985352,0.6949880123138428,0.4130546152591705,-0.4316441714763641,-0.042781114578247
1749052513.102723,-3.306580336475607,-2.446314151755647,-1.6714019621957097,5.76412403645985,-1.0506988507606183,-4.507516503026432,-0.00022701960950271207,1.3999340897877836e-05,0.00027590955026984127,-0.00035420400405077935,-3.368450575066868e-05,0.00023691962400617734,-0.0737339779734611,1.1853675842285156,0.695010244846344,0.4143094718456268,-0.4343425929546356,-0.0456721484661102
1749052513.1027598,-3.306580239860023,-2.446314007400424,-1.6714016021398197,5.764126041547485,-1.0507001474944273,-4.507516379211579,-0.00034140218819665735,-2.3506559985098437e-05,0.00025485228739275496,-0.0002208785316130179,-3.4262104222999485e-05,0.00022532281174209118,-0.1050869971513748,1.1885888576507568,0.6796324253082275,0.410311758518219,-0.4309718906879425,-0.0535596311092376
1749052513.1027975,-3.3065795415209784,-2.4463135854997065,-1.671401010866516,5.764128331215285,-1.0507012460730452,-4.507516279729251,-0.0004537996587015569,-7.536012292391054e-05,0.00022845241565197055,-7.095643891611286e-05,-3.5847087753954715e-05,0.00021369762647470482,-0.1008376255631446,1.1921480894088743,0.6971568465232849,0.4181489050388336,-0.4261026680469513,-0.0383262932300567
1749052513.1028354,-3.3065783797717145,-2.4463129656050007,-1.6714002466048128,5.764130798367111,-1.0507021162796328,-4.507516195270642,-0.0005573397009750505,-0.00014178703890428573,0.0001966981127499484,8.362833175839424e-05,-3.8344798604814274e-05,0.00020208123826674708,-0.0834110602736473,1.1696069240570068,0.681785523891449,0.3974572122097015,-0.4415512979030609,-0.0374843627214431
1749052513.102872,-3.306576922123321,-2.446312254136682,-1.6713993772152618,5.764133305020988,-1.0507027516524652,-4.507516114755656,-0.0006437430369312305,-0.0002219621417481276,0.0001606030276538319,0.000226577378695433,-4.1561449101892316e-05,0.00019070708605030672,-0.0870689898729324,1.151183009147644,0.6950592398643494,0.4089784324169159,-0.4281265437602997,-0.040211021900177
1749052513.1029086,-3.3065753498750707,-2.4463115812521905,-1.6713984728642486,5.764135680670392,-1.050703164658238,-4.50751602971459,-0.0007033704139620027,-0.0003138996262477576,0.00012233380843507642,0.00033758279914759495,-4.519953608161604e-05,0.00017995593585657215,-0.0559698119759559,1.169974446296692,0.6839367747306824,0.3883461952209472,-0.4501689970493316,-0.0390080511569976
1749052513.102946,-3.3065738395537836,-2.446311094071394,-1.6713975989538197,5.764137721751997,-1.0507033808418829,-4.507515938754981,-0.0007253515771999599,-0.0004144456865121742,8.526108588131704e-05,0.0003931197335059709,-4.886141243469797e-05,0.00017029865383394165,-0.0823776349425315,1.1669142246246338,0.6999512910842896,0.4001340568065643,-0.4374654293060303,-0.0427811294794082
1749052513.1029832,-3.3065725422382553,-2.4463109454696474,-1.6713968098427623,5.764139193215328,-1.0507034332168042,-4.507515851064492,-0.0006978361630823935,-0.0005193950835315576,5.391668152705616e-05,0.00036769129986183476,-5.2063405898781714e-05,0.00016223266965566444,-0.0758482664823532,1.1591284275054932,0.6862851977348328,0.4091874659061432,-0.4375702440738678,-0.0479138940572738
1749052513.1030197,-3.3065715624732444,-2.446311278869248,-1.6713961437470433,5.7641398330612885,-1.0507033577161478,-4.507515788017625,-0.0006083987757755004,-0.0006237395798831207,3.3845131310773004e-05,0.0002354921258601089,-5.426235893771409e-05,0.0001562145418953881,-0.0596575066447258,1.1376633644104004,0.7005589604377747,0.4066699147224426,-0.4360952079296112,-0.0448300242424011
1749052513.1030564,-3.3065709389200726,-2.4463122108173736,-1.6713956190471835,5.764139360298631,-1.0507031900502373,-4.507515782539909,-0.0004446095248900171,-0.0007220379867238402,3.134566858635037e-05,-2.759971768804919e-05,-5.4895543154184216e-05,0.00015259168755727432,-0.0525669902563095,1.1365947723388672,0.7122157216072083,0.388602465391159,-0.4441007673740387,-0.0588562786579132
1749052513.103094,-3.3065706291461647,-2.446313814151269,-1.6713952319644028,5.764137486253709,-1.0507029639250216,-4.507515876571089,-0.00019475258264737045,-0.0008088780460439701,5.311141677323362e-05,-0.0004418510512022932,-5.343358601101143e-05,0.0001515371566661786,-0.0771905928850174,1.155132532119751,0.71022629737854,0.3923600018024444,-0.4374655783176422,-0.0492890179157257
1749052513.1033683,-3.306570501062801,-2.4463161048660305,-1.6713949553288363,5.764133928620894,-1.0507027102845234,-4.507516117307045,0.0001513542405523319,-0.0008793826046257569,0.0001057850760929835,-0.0010215232001549752,-4.9444391624325054e-05,0.00015299222161159167,-0.0394087806344032,1.1545225381851196,0.7132025361061096,0.3728323578834533,-0.444379597902298,-0.0429534912109375
1749052513.1054251,-3.3065703331377256,-2.4463190352829156,-1.67139473816298,5.764128427059607,-1.0507024570367263,-4.507516552835779,0.0006015100244555982,-0.000929698164407926,0.00019546369042130877,-0.0017729794104148025,-4.266414685261889e-05,0.0001566223656105707,-0.0204476341605186,1.1412827968597412,0.7147943377494812,0.3676699995994568,-0.4549086987972259,-0.0417547523975372
1749052513.146282,-3.306569824341974,-2.4463224949270255,-1.6713945060523576,5.764120758681597,-1.0507022286353267,-4.507517227586302,0.0011603363403355053,-0.0009573954675913102,0.0003271974310069153,-0.002693292984400946,-3.3069536262360504e-05,0.00016179281656318492,-0.0346859768033027,1.158444881439209,0.7294540405273438,0.3404800593852997,-0.4507054984569549,-0.0506563335657119
1749052513.1463294,-3.3065686132358367,-2.446326319053888,-1.6713941625727975,5.76411075171589,-1.0507020450106315,-4.507518177844271,0.0018286231219315485,-0.0009617144659599062,0.0005045364995001004,-0.003769566545123488,-2.0943449423557186e-05,0.0001675698862567882,-0.0221465677022933,1.158840537071228,0.7210943102836609,0.3334290385246277,-0.4606189131736755,-0.0484350323677063
1749052513.1463692,-3.306566304328679,-2.4463303034167145,-1.671393592181556,5.7640982960827465,-1.0507019197547791,-4.507519427411001,0.002602885582360648,-0.0009436038008761837,0.0007291834899965001,-0.004979102012965157,-6.924992701723e-06,0.0001727538508289359,-0.0005501583218574,1.170130491256714,0.7376889586448669,0.348956286907196,-0.4416454136371612,-0.0484310686588287
1749052513.146408,-3.3065624989980806,-2.4463342229122667,-1.671392664884698,5.7640833502014095,-1.0507018580490781,-4.507520983363989,0.0034751786191685144,-0.000905535473129937,0.0010008024567999766,-0.0062904678643923686,7.966223808490093e-06,0.0001759477896006744,0.0064881220459938,1.1581087112426758,0.7503637671470642,0.3372673988342285,-0.4523541629314422,-0.0561340004205703
1749052513.146446,-3.306556827629282,-2.4463378513777196,-1.6713912427429956,5.7640659436140895,-1.0507018552201801,-4.507522832067221,0.004433191575275854,-0.0008511104878661246,0.0013170168580715416,-0.007665419609880567,2.2341508452362002e-05,0.0001756645896095666,0.043338306248188,1.1683080196380615,0.7554826140403748,0.3166260123252868,-0.4524884521961212,-0.0603960454463958
1749052513.146484,-3.306548979328785,-2.4463409801147162,-1.671389188017887,5.764046174892945,-1.0507018967846795,-4.507524936060832,0.005460630119499146,-0.0007845015780528551,0.0016735959850774358,-0.009061557354041919,3.449904839956757e-05,0.00017047121451464742,0.045760191977024,1.1740343570709229,0.7574426531791687,0.3114320635795593,-0.4408605992794037,-0.0460332334041595
1749052513.1465218,-3.306538725835594,-2.446343433444144,-1.6713863725529856,5.764024204256563,-1.0507019604852288,-4.507527232760121,0.0065378777804168215,-0.0007097988247789294,0.0020647925857091064,-0.010435547721117088,4.2530815790251284e-05,0.0001591654332101801,0.0178087204694747,1.1937206983566284,0.7489171624183655,0.3205277621746063,-0.4466744363307953,-0.0475850105285644
1749052513.1465592,-3.3065259371016906,-2.4463450802884177,-1.6713826877515854,5.764000240738195,-1.0507020202839739,-4.507529635649907,0.007642908257892428,-0.0006303328085866327,0.002483772403690261,-0.011746681480110184,4.448308474180279e-05,0.00014097573827962987,0.0663118809461593,1.1957299709320068,0.7690479755401611,0.2794121205806732,-0.433422178030014,-0.0504838973283767
1749052513.146597,-3.306510587218132,-2.4463458412748986,-1.6713780541454812,5.763974524510752,-1.0507020515605288,-4.507532038115968,0.00875239283099833,-0.0005480511057086643,0.0029230838422281925,-0.012960475893344986,3.8568241497949785e-05,0.00011577052452132702,0.0488439053297042,1.2187507152557373,0.7723533511161804,0.2978527843952179,-0.4321875870227813,-0.0432987511157989
1749052513.1466348,-3.306492750681277,-2.4463456913185064,-1.6713724291426613,5.763947305650469,-1.0507020360533006,-4.507534319650627,0.009842926239919544,-0.00046301971554910923,0.003375144352084421,-0.014051975687683432,2.3419588995812562e-05,8.425823633223139e-05,0.0579238086938858,1.230578899383545,0.7840479016304016,0.2713025212287903,-0.4328290522098541,-0.0439839512109756
1749052513.1466718,-3.3064725901967047,-2.446344658044414,-1.6713658113690733,5.7639188209371355,-1.0507019649462948,-4.507536353913968,0.010892287694389385,-0.00037311038307122975,0.003832740433120432,-0.015008386185639953,-1.6257125612670063e-06,4.815672347835519e-05,0.0859815999865531,1.2716267108917236,0.7910625338554382,0.2955074310302734,-0.4305585324764251,-0.0392001569271087
1749052513.146713,-3.3064503381102277,-2.4463428164927743,-1.671358240307254,5.763889270334506,-1.050701839273268,-4.507538017833182,0.011880659579162931,-0.00027391631734137765,0.004289527396840721,-0.015830709589562533,-3.623696942178564e-05,1.0308117743631634e-05,0.0918338373303413,1.2685630321502686,0.7778545618057251,0.2789814174175262,-0.4217377305030823,-0.0484230667352676
1749052513.1467507,-3.306426274006314,-2.446340280299769,-1.6713497906577082,5.763858794792578,-1.0507016679763177,-4.507539200652655,0.012791735264718425,-0.00015891395847805395,0.004740480197865316,-0.01653415531350075,-7.88207141651782e-05,-2.528419921917516e-05,0.0866089835762977,1.2955734729766846,0.784205436706543,0.289082407951355,-0.4206635057926178,-0.0263570547103881
1749052513.1467917,-3.306400701011294,-2.4463371893198813,-1.6713405617984254,5.7638274570301835,-1.0507014645911756,-4.5075398117450955,0.01361364968042073,-1.9861043604287148e-05,0.005182220078276143,-0.017147242262618406,-0.00012630321162784776,-5.351697039872729e-05,0.1062201559543609,1.301545262336731,0.7897160053253174,0.2719970047473907,-0.4187814891338348,-0.0369668006896972
1749052513.14683,-3.3063739230319777,-2.4463336938145055,-1.6713306636700385,5.763795226888606,-1.05070124333617,-4.507539786074595,0.014339662892288753,0.00015260478203931807,0.005613150883824004,-0.017709675374893534,-0.0001739976230647156,-6.836111199898862e-05,0.1191810220479965,1.329782247543335,0.8015161156654358,0.2743067443370819,-0.4121338427066803,-0.0273756980895996
1749052513.1468673,-3.3063462247383213,-2.446329936024175,-1.6713202011906112,5.7637619726285685,-1.0507010148817988,-4.507539086553714,0.014968528740485312,0.0003682234962095895,0.006033380160354012,-0.018269225397310587,-0.0002155869647682764,-6.315348474886037e-05,0.1173827722668647,1.339542031288147,0.8040598630905151,0.281282365322113,-0.4042575061321258,-0.0188265144824981
1749052513.1469045,-3.3063178556149304,-2.4463260309653925,-1.6713092597238832,5.763727459247716,-1.0507007818230407,-4.507537703157816,0.015504496374982397,0.000636295036221758,0.006444445362502831,-0.018877942660696305,-0.00024324818289099271,-3.099929158511838e-05,0.114809937775135,1.3534799814224243,0.8013795018196106,0.2674241065979004,-0.3848939836025238,-0.028084173798561
1749052513.1469417,-3.306289018827458,-2.4463220491393094,-1.6712978939914103,5.763691354559428,-1.0507005339118174,-4.50753564925885,0.01595692292951116,0.00096485547543424,0.006848890794756141,-0.019588083770509856,-0.00024793247685487034,3.473621591635402e-05,0.0855712220072746,1.3479790687561035,0.7888116836547852,0.2469197511672973,-0.378276914358139,-0.0270230174064636
1749052513.146979,-3.306259864995389,-2.446318004009044,-1.6712861220785247,5.763653243248625,-1.050700243265054,-4.5075329560114925,0.016339518403672218,0.0013599069595088243,0.007249744992333534,-0.02044812992545938,-0.00021980257734489106,0.00013988305222549757,0.1033823788166046,1.388984203338623,0.8090206384658813,0.2429980337619781,-0.3724217116832733,-0.0340734720230102
1749052513.147016,-3.3062304903028186,-2.4463138464769716,-1.671273925082646,5.763612648266502,-1.0506998599813344,-4.5075296658347,0.016669295270452515,0.0018247509797825834,0.007649946912612644,-0.021499235403834725,-0.0001488097742536078,0.0002889191383794919,0.1205238103866577,1.3860743045806885,0.8220679759979248,0.2504229545593261,-0.361889123916626,-0.0142069905996322
1749052513.1474106,-3.3062009377864983,-2.446309467439575,-1.671261251863717,5.763569057848946,-1.0506993087709107,-4.507525826094572,0.016965343500844977,0.002359471473545242,0.008051776637878864,-0.022772374170051207,-2.5373573382687134e-05,0.0004844810555764249,0.1458587944507599,1.4055190086364746,0.8058672547340393,0.231411725282669,-0.3514466285705566,-0.0063517689704895
1749052513.14943,-3.306171200251405,-2.4463047081553406,-1.6712480275247072,5.763521955444252,-1.0506984871608969,-4.507521483921275,0.01724757661311526,0.002960617827209573,0.008456359789618718,-0.024286365916997284,0.0001588927745761197,0.0007269975535486645,0.1388351619243621,1.420014500617981,0.8189462423324585,0.2249834537506103,-0.3480862379074096,0.0090399384498596
1749052513.1902804,-3.306141223301351,-2.44629937687035,-1.6712341638412562,5.76347084922608,-1.0506972656833988,-4.507516682733594,0.017535580964107376,0.0036211381542828546,0.008863318658335301,-0.026046876218419293,0.0004104838013978347,0.001014503884420329,0.1449169516563415,1.4588422775268557,0.832332193851471,0.202958881855011,-0.3106602728366852,0.0143434405326843
1749052513.1903267,-3.306110907540246,-2.446293269121012,-1.6712195699829904,5.763415297849692,-1.0506954904706909,-4.5075114606268585,0.017847653500080177,0.004330601744804518,0.009270626422130075,-0.028046408110706505,0.0007334118740068027,0.001342674194102298,0.1210167407989502,1.447413682937622,0.8410840630531311,0.210668072104454,-0.3081839978694916,0.0003851950168609
1749052513.1903672,-3.30608010987597,-2.4462861885789042,-1.6712041623685592,5.763354929741982,-1.0506929887730474,-4.507505850338408,0.018200056960693635,0.005075727064149045,0.009674688698547774,-0.030265233758482276,0.001128803206517467,0.0017050734894365558,0.1494458317756652,1.464802861213684,0.8473132252693176,0.2106655687093734,-0.3043570816516876,0.0026862621307373
1749052513.1904063,-3.3060486446137674,-2.446277965322265,-1.6711878729981706,5.7632894544139734,-1.0506895776749356,-4.507499880107922,0.018606482407342115,0.005841202379183563,0.010070640901009363,-0.032673150225198185,0.001594736646329004,0.002093588852986158,0.1653978824615478,1.5203533172607422,0.827895998954773,0.1718098372220993,-0.3028927445411682,-0.004178300499916
1749052513.1904447,-3.306016285366384,-2.4462684690213607,-1.671170655865421,5.763218665791,-1.050685075599238,-4.5074935746231395,0.019077696260739116,0.006610748854726844,0.0104528182656363,-0.035231882261542745,0.0021263457585637873,0.0024989703936272186,0.2029337733983993,1.498003005981445,0.8593841791152954,0.1986222118139267,-0.2829838693141937,0.0128796696662902
1749052513.1904843,-3.3059827687937635,-2.4462576156527196,-1.6711524910866877,5.763142438937649,-1.050679315334315,-4.50748695551432,0.019621351988880313,0.0073683285222583324,0.010815332326069717,-0.03789790401234013,0.002716161389885409,0.0029114115614634153,0.176128938794136,1.536893367767334,0.8490063548088074,0.1950734257698059,-0.2751308679580688,0.0085324347019195
1749052513.1905231,-3.3059478011203574,-2.4462453677727862,-1.6711333863761488,5.763060722387091,-1.0506721567010542,-4.507480041317401,0.020241947842874395,0.008099352596895482,0.011152676868540753,-0.04062542149883315,0.0033546340925061932,0.003321121951037223,0.210858404636383,1.5231695175170898,0.8468000888824463,0.1953662186861038,-0.2654161751270294,0.0140935778617858
1749052513.190561,-3.3059110684244355,-2.4462317296296794,-1.671113375640871,5.762973528448387,-1.0506634969564908,-4.507472847106231,0.0209409051045235,0.00879172397579147,0.011460288895287735,-0.04336925818229515,0.004030753134995771,0.0037188716146897114,0.1853454560041427,1.5506806373596191,0.8658615350723267,0.201410174369812,-0.2568133175373077,0.0223709642887115
1749052513.1905997,-3.305872251571958,-2.446216739059663,-1.671092514890025,5.762880923591025,-1.050653277598303,-4.507465383984833,0.021716734087078183,0.009436569629190048,0.011735002462512792,-0.046087419238056926,0.00473267635620334,0.004096494577074897,0.2088920325040817,1.5683960914611816,0.8465566039085388,0.2012108862400055,-0.2416928857564926,0.0346023142337799
1749052513.190638,-3.3058310458960913,-2.446200458145549,-1.6710708762549729,5.76278302052602,-1.0506414869328173,-4.507457658563894,0.022565256758848372,0.010028577367743723,0.011975350770626362,-0.048743170574371844,0.005448304429557286,0.004447329643241604,0.2272888123989105,1.5588340759277344,0.8685541152954102,0.1819434463977813,-0.2292866259813308,0.0161874890327453
1749052513.1906765,-3.3057871842347395,-2.446182964262048,-1.671048541382865,5.762679972850364,-1.0506281582805677,-4.50744967271696,0.02347986588707253,0.01056592342992959,0.012181691608764467,-0.051306545529666646,0.006165768012893472,0.0047665629356947676,0.236301451921463,1.556235671043396,0.8728498220443726,0.2045333981513977,-0.2176229059696197,0.0225923359394073
1749052513.1907144,-3.30574046030248,-2.446164342612922,-1.6710255954425846,5.762571971932472,-1.0506133641973103,-4.507441424275456,0.024451817489133935,0.011049843499964343,0.01235615187587783,-0.05375527098217931,0.006873829663223342,0.005051433368079761,0.236301451921463,1.556235671043396,0.8728498220443726,0.2045333981513977,-0.2176229059696197,0.0225923359394073
1749052513.1907525,-3.305690748371351,-2.4461446807072464,-1.6710021224309275,5.762459244337263,-1.0505972077892276,-4.50743290940826,0.025470572331282162,0.01148395302822581,0.012502407004388347,-0.05607516583020596,0.007562215366096497,0.005301274837702681,0.2253319025039672,1.5926793813705444,0.8657724261283875,0.1864785552024841,-0.2198171913623809,0.0259119868278503
1749052513.1907902,-3.3056380153959877,-2.446124064525564,-1.6709782017762693,5.762342047318088,-1.0505798128609707,-4.507424126827929,0.02652421438281824,0.011873457697941027,0.012625328951269,-0.058260091761289226,0.008221877886886483,0.005517394104874676,0.264005959033966,1.6307603120803833,0.8620708584785461,0.2093798816204071,-0.2051531672477722,0.0319704115390777
1749052513.1908278,-3.3055823231558503,-2.44610257569597,-1.6709539058716871,5.762220660437449,-1.0505613147982005,-4.5074150829276585,0.02759996680817102,0.012224401565374273,0.012730550639564093,-0.060311532524777764,0.00884517204605519,0.005702812165627917,0.2438373863697052,1.6459347009658811,0.8669306635856628,0.1888457685708999,-0.1980385333299636,0.0188710093498229
1749052513.1908655,-3.305523820254991,-2.4460802890573654,-1.6709292982624995,5.762095372951599,-1.0505418536035038,-4.507405796248183,0.02868479614888669,0.012543071167088972,0.01282400345673338,-0.062237871043058016,0.009425917152057223,0.005861917749297475,0.2277207821607589,1.612863302230835,0.8760941624641418,0.1795348972082138,-0.1725292950868606,0.0448257029056549
1749052513.1909025,-3.3054627259314637,-2.4460572704113135,-1.670904432533546,5.761966468100009,-1.0505215696555144,-4.507396299695723,0.029766058590477214,0.012835614348142448,0.012911484925468973,-0.06405344298717501,0.009959345305803632,0.006000086262326954,0.2304436862468719,1.63617205619812,0.8765912652015686,0.1906679570674896,-0.1698817610740661,0.0371589958667755
1749052513.19094,-3.3053993087014346,-2.4460335747297974,-1.6708793521510537,5.7618342060610095,-1.050500601888302,-4.50738663942899,0.030832124042023977,0.013107865196603388,0.012998304965812169,-0.06577745139224335,0.010441968163301275,0.006123306464001522,0.2402725368738174,1.6275285482406616,0.879487156867981,0.1628570109605789,-0.1662256717681884,0.0463795661926269
1749052513.190977,-3.3053338628706066,-2.4460092453198303,-1.6708540914122383,5.761698807221496,-1.0504790873508876,-4.507376870055056,0.031872927300150566,0.013365319828181248,0.01308904427035209,-0.06743279690035398,0.01087141307224306,0.006237837572816312,0.2348387390375137,1.654389262199402,0.904011607170105,0.1961008012294769,-0.1702598929405212,0.0323573350906372
1749052513.1910143,-3.3052666855085318,-2.445984314299563,-1.6708286772902452,5.761560437236168,-1.0504571606356132,-4.507367046714656,0.03288042711754386,0.01361319580229207,0.013187442203958927,-0.06904481767826211,0.011246276925652695,0.006349899943222892,0.2476106882095337,1.6462584733963013,0.8817176222801208,0.1975448280572891,-0.1610772013664245,0.0284209549427032
1749052513.1914177,-3.305198055995487,-2.4459588042546905,-1.6708031315587237,5.761419195486556,-1.0504349516819385,-4.507357215583257,0.03384897412129821,0.013856521246713126,0.013296416376936147,-0.07063988852379768,0.011566036122225202,0.006465389239030375,0.2329096794128418,1.6617478132247925,0.893204927444458,0.209493339061737,-0.1306648403406143,0.0411235392093658
1749052513.193391,-3.305128219639806,-2.4459327304505627,-1.6707774723551472,5.761275108726779,-1.050412581120496,-4.507347404770077,0.03477558104087697,0.01410021958459252,0.013418200024710362,-0.0722438444693215,0.011831043331995193,0.006589599722170806,0.2432137429714203,1.6629215478897097,0.8961280584335327,0.1806039065122604,-0.1332558095455169,0.0456276834011077
1749052513.2383168,-3.305057376063639,-2.4459061028548255,-1.6707517143797534,5.761128131398999,-1.0503901534578224,-4.507337617305769,0.035660064098460675,0.01434917139874666,0.013554566589099011,-0.07388027188237535,0.012042630238383308,0.006726945676965995,0.2685209512710571,1.683078050613403,0.8931549787521362,0.176415741443634,-0.1604099869728088,0.0454157590866088
1749052513.2383635,-3.304985672301795,-2.4458789274496553,-1.6707258671930805,5.7609781531341735,-1.0503677494843116,-4.507327827182843,0.03650500614225205,0.014608245158748567,0.013707097715748595,-0.0755688013501043,0.012203308050689058,0.006880678882742033,0.2203499376773834,1.6770756244659424,0.9008134603500366,0.1674457937479019,-0.1475954353809356,0.0558142960071563
1749052513.2384045,-3.304913200103222,-2.4458512065508797,-1.6706999315047792,5.760825012690559,-1.0503454197265323,-4.50731797880185,0.037315499929961596,0.01488229386832743,0.013877445896875978,-0.07732358048434225,0.0123170164834914,0.007052614626077437,0.2749375104904175,1.6899293661117554,0.9125911593437196,0.1714615523815155,-0.1384948641061782,0.0530000030994415
1749052513.2384443,-3.304839996688415,-2.4458229379887824,-1.6706738939131704,5.760668516562329,-1.0503231803594575,-4.507307989876716,0.0380986703835233,0.015176115498786566,0.01406754731116304,-0.07915208210532855,0.012389339205846811,0.007242899693435522,0.2775803208351135,1.7040075063705444,0.9211295247077942,0.2255585789680481,-0.1503369212150573,0.0685444772243499
1749052513.2384832,-3.304766047976562,-2.4457941131814875,-1.670647721158338,5.760508459948387,-1.050301012119086,-4.507297757642687,0.038863030646053724,0.015494373921258527,0.014279750699182294,-0.08105434979612465,0.012427599823178308,0.007449877696148144,0.2754454016685486,1.7172952890396118,0.9334235191345216,0.175209030508995,-0.1219059005379676,0.0783999264240264
1749052513.238521,-3.3046912931642507,-2.44576471439168,-1.6706213553103484,5.760344647683396,-1.050278862109096,-4.507287167877225,0.03961776366469505,0.01584147810788953,0.014516838485582415,-0.08302274644948868,0.012440774132648184,0.007670116709843535,0.2884764671325683,1.6962857246398926,0.9278008341789246,0.1836990416049957,-0.1362084597349167,0.0648944973945617
1749052513.2385592,-3.3046156298423575,-2.445734711671022,-1.670594711215197,5.76017691309956,-1.0502566483259128,-4.507276105778421,0.040372018545615965,0.01622142313071881,0.01478192519911385,-0.08504226539117349,0.0124391859240869,0.007898648415114827,0.2649963200092315,1.7357560396194458,0.9296929836273192,0.1653493493795395,-0.1266776472330093,0.0807504951953888
1749052513.238597,-3.3045389195570176,-2.4457040600139917,-1.6705676770715492,5.760005133495849,-1.050234266813423,-4.5072644672705575,0.04113428402272556,0.016637605848077913,0.015078232543055292,-0.08709146121908623,0.012433989365566491,0.008129424745643913,0.2885728180408478,1.7593157291412354,0.9621578454971312,0.1763136088848114,-0.1463792771100998,0.0731727480888366
1749052513.2386346,-3.30446099441483,-2.445672697052207,-1.6705401184282584,5.759829241541203,-1.050211601048469,-4.507252169071624,0.04191187863149751,0.01709263635746692,0.015408766610181352,-0.08914402308525537,0.012436482155172368,0.008355941214020671,0.3414773046970367,1.7558820247650146,0.95786851644516,0.1610323339700698,-0.1354847997426986,0.0587098598480224
1749052513.2386754,-3.3043816655990237,-2.445640541441335,-1.6705118852616199,5.759649232216532,-1.0501885326276894,-4.5072391561262615,0.04271058617243632,0.017588167720449074,0.01577595322564566,-0.09117093411198712,0.012457330149811296,0.008571929132796908,0.2898634076118469,1.744745850563049,0.9766563177108764,0.1887872368097305,-0.1243481114506721,0.063968688249588
1749052513.2387152,-3.3043007343698725,-2.4456074921747253,-1.670482821191064,5.759465164942925,-1.0501649521102518,-4.507225405785318,0.043534451209542906,0.01812476059803231,0.01618130436906917,-0.09314305466501299,0.012505798654870892,0.00877200265029489,0.273266851902008,1.7661702632904053,0.9719321727752686,0.1936731785535812,-0.1297842860221862,0.0782221257686615
1749052513.238753,-3.304218005306629,-2.4455734293024993,-1.6704527734775696,5.759277160686643,-1.0501407689812048,-4.507210929034749,0.0443857266031256,0.01870179277681277,0.016625181597330695,-0.09503387076209534,0.012589074587717727,0.00895216678615875,0.2956066727638244,1.7686536312103271,0.9750485420227052,0.2053007781505584,-0.1284531056880951,0.0758911967277526
1749052513.2387905,-3.3041333004420608,-2.4455382165884223,-1.6704216023070706,5.75908539420111,-1.0501159198131835,-4.507195769599281,0.04526494881590508,0.019317423045929327,0.017106697306054013,-0.09682209922141014,0.012711743229101239,0.009110136500053741,0.3156247138977051,1.7968714237213137,0.9958667159080504,0.200105607509613,-0.1255707591772079,0.0727223753929138
1749052513.2388277,-3.3040464721199805,-2.4455017063983013,-1.6703891879887403,5.758890082039084,-1.0500903738212854,-4.50718000154626,0.04617111847485219,0.019968624269941285,0.017623764623860273,-0.09849385462377407,0.01287546904841563,0.009245461350175989,0.3353255093097687,1.77949857711792,0.9846126437187196,0.2130708396434784,-0.1095393002033233,0.0777654647827148
1749052513.2388651,-3.3039574124843627,-2.4454637467891156,-1.6703554351181553,5.758691467362782,-1.0500641352832651,-4.507163725318785,0.04710197323100752,0.02065130454156438,0.01817327923348,-0.10004414153407112,0.013078920711356079,0.009359478809166686,0.3367384076118469,1.8046212196350095,0.9885582327842712,0.2029529809951782,-0.0971419513225555,0.0638620257377624
1749052513.2389026,-3.303866058446446,-2.4454241904525507,-1.6703202734489604,5.758489802803595,-1.050037242660861,-4.507147061610015,0.048054342658030595,0.02136052954323394,0.018751393439997113,-0.10147750336769111,0.013317963669769782,0.009455129122335974,0.3537637591361999,1.795128345489502,0.9971080422401428,0.2518516778945923,-0.101011149585247,0.0781320333480835
1749052513.23894,-3.303772392013624,-2.4453829047758315,-1.6702836559689642,5.758285332710418,-1.050009764616972,-4.507130142692282,0.04902456769532558,0.02209084060634974,0.019353828348738094,-0.10280772646220461,0.013586115335043157,0.009536661415448622,0.3434557914733886,1.7894967794418335,0.9876576066017152,0.2380216866731643,-0.0844335556030273,0.0766273736953735
1749052513.238978,-3.3036764363406284,-2.4453397818523053,-1.6702455551923288,5.758078276149358,-1.0499817934890716,-4.5071131016024575,0.05000895304743123,0.022836637657490454,0.019976168986811826,-0.10405659033450865,0.01387522582613691,0.009609252006490857,0.3532499372959137,1.8093254566192627,0.9911950826644896,0.2296422719955444,-0.0869840085506439,0.0889154076576232
1749052513.239015,-3.303578247882613,-2.4452947470129036,-1.6702059588381963,5.757868811974327,-1.049953437028377,-4.507096060331971,0.051004204552215646,0.02359257550565045,0.020614098161471524,-0.10525178720559521,0.014176318925535124,0.009678549168467266,0.3472196459770202,1.7999155521392822,0.9884123206138612,0.2394160777330398,-0.0922807231545448,0.1005178391933441
1749052513.2390523,-3.303477905193382,-2.445247764541745,-1.6701648659263997,5.7576570671141,-1.0499248092034488,-4.507079118455698,0.05200779328433847,0.0243539114032758,0.021263541253122853,-0.10642426980538242,0.014480502826568925,0.009750158977671685,0.3556668162345886,1.7972573041915894,0.9861211180686952,0.2447600960731506,-0.1027235686779022,0.0902013778686523
1749052513.23909,-3.3033754954835657,-2.445198839715048,-1.670122283956942,5.757443108880079,-1.0498960207041022,-4.507062343542749,0.05301819262333873,0.025116739039754785,0.021920711630912387,-0.10760537627336222,0.014779841741983548,0.009829094531506813,0.3666492998600006,1.7978832721710205,0.9970282316207886,0.2114632874727249,-0.094750627875328,0.099302589893341
1749052513.2391272,-3.3032711005767386,-2.4451480169937496,-1.6700782273294146,5.7572269416167305,-1.0498671696572,-4.507045764481544,0.05403495471583479,0.025878049118898145,0.022582063771911787,-0.10882411068409795,0.015068079712562826,0.009919224431059352,0.3726182878017425,1.80077862739563,0.998476266860962,0.2119499295949936,-0.0756437927484512,0.1079227477312088
1749052513.2394242,-3.303164783886863,-2.4450953747890813,-1.6700327166688576,5.757008507473401,-1.0498383330217504,-4.507029368579743,0.055058621318372795,0.026635579457868,0.023244177123203126,-0.11010493357420387,0.015341133056608967,0.010022775328119451,0.3754342794418335,1.7961288690567017,0.977889358997345,0.2256898134946823,-0.0796539932489395,0.0973975211381912
1749052513.2413476,-3.303056579726354,-2.44504101748685,-1.6699857784713525,5.756787690583818,-1.0498095591320613,-4.507013102794888,0.056090490762535354,0.027387466846792708,0.023903606363537132,-0.11146633061411922,0.015597306861502297,0.010139963070184662,0.3923704624176025,1.8006843328475952,0.9989954829216005,0.2173720151185989,-0.0929068103432655,0.0988213568925857
1749052513.28228,-3.302946486152113,-2.444985065446732,-1.6699374445859065,5.756564323629262,-1.0497808618856064,-4.506996878647415,0.05713228095075097,0.028131776673035402,0.024556740851985313,-0.11292027562835696,0.015837228861077256,0.010268835963394488,0.3985256552696228,1.8234083652496336,0.9944629073143004,0.2161849737167358,-0.0794190466403961,0.1153487712144851
1749052513.282326,-3.3028344625795145,-2.4449276437275698,-1.6698877514267028,5.756338195769983,-1.04975221711518,-4.50698057962588,0.05818573732897028,0.028866031685689957,0.02519971425808155,-0.11447252272763886,0.016063527187509995,0.010405397765265454,0.3919751644134521,1.7921781539916992,0.9990420937538148,0.2014780044555664,-0.0719125866889953,0.1051321923732757
1749052513.2823665,-3.302720433046761,-2.4448688704576247,-1.6698367391777056,5.756109061310234,-1.049723561735516,-4.50696406973215,0.05925223878269387,0.029586860649255985,0.025828391947589624,-0.1161235138808065,0.016280309314279585,0.010544030997972622,0.3916133046150207,1.8127098083496092,0.9766153693199158,0.2213006913661956,-0.0636201202869415,0.0959196984767913
1749052513.2824056,-3.3026042951245307,-2.4448088460386037,-1.6697844513227953,5.755876649038278,-1.049694796232286,-4.506947202301614,0.06033245665272366,0.030289841985370682,0.026438442042610755,-0.11786961761944917,0.016492526504049466,0.010678173988921307,0.4057099819183349,1.8040220737457275,0.9963340759277344,0.1910023391246795,-0.0597325414419174,0.1075482070446014
1749052513.282444,-3.3024859332370657,-2.444747644574558,-1.6697309345937243,5.7556406725858,-1.0496657907273508,-4.5069298289242194,0.061426119542317456,0.030969550843301576,0.02702547647988965,-0.1197044257578039,0.016705325645169748,0.010801144061884182,0.4115967154502868,1.769575834274292,0.9884204864501952,0.177838534116745,-0.05875064432621,0.1145530492067337
1749052513.282482,-3.30236523388451,-2.4446853088404703,-1.6696762391099196,5.755400842132145,-1.049636394082361,-4.506911808719238,0.06253192274667835,0.03161975901262731,0.027585240406008408,-0.12161989836314761,0.016923490629145853,0.010906970475540333,0.3715819120407104,1.783091425895691,0.9870815277099608,0.1983761042356491,-0.0620879977941513,0.1096587926149368
1749052513.2825208,-3.30224209942368,-2.4446218497528722,-1.6696204183059558,5.755156877397076,-1.0496064446948645,-4.506893018215714,0.06364759713071255,0.03223371157599851,0.02811383189442498,-0.12360722271375107,0.01715104957015798,0.010991111470147193,0.4632529616355896,1.7901232242584229,0.9898746609687804,0.1782522499561309,-0.047656774520874,0.1252512633800506
1749052513.2825584,-3.302116457272239,-2.4445572508907603,-1.6695635283044417,5.754908521349791,-1.0495757814640778,-4.506873361724866,0.06477012703487557,0.0328044240097259,0.028607939682143882,-0.12565731625319534,0.01739107281398726,0.011050965697362707,0.4489163756370544,1.7972238063812256,0.9729710817337036,0.1551430225372314,-0.047651395201683,0.0970573127269744
1749052513.2825963,-3.301988262744509,-2.444491478188563,-1.6695056267051944,5.75465555366832,-1.0495442539823991,-4.506852781525857,0.06589608152285728,0.033324987344528455,0.029065084955387243,-0.12776095686319125,0.01764562961424996,0.011086129082201293,0.4009529948234558,1.7734893560409546,0.9814631938934326,0.1933330297470092,-0.044876292347908,0.1096020638942718
1749052513.2826333,-3.3018574955936018,-2.444424494287502,-1.669446771188731,5.754397802918605,-1.0495117317222638,-4.5068312666482875,0.06702199405985453,0.033788896311210785,0.029483844363570273,-0.12990857448729157,0.017915837260130567,0.011098386737115076,0.4366209506988525,1.7511188983917236,0.9867620468139648,0.1857955008745193,-0.0407749265432357,0.1154803857207298
1749052513.2826705,-3.301724151964799,-2.4443562761457116,-1.6693870185900692,5.7541351566306345,-1.0494781121624315,-4.506808858762341,0.06814470697061173,0.03419040989306122,0.029864023762365802,-0.13208979736623602,0.01820194048171879,0.011091470620990702,0.3914276659488678,1.769340753555298,0.9530621767044068,0.1622424870729446,-0.0168197751045227,0.1198724135756492
1749052513.2827082,-3.3015882344157284,-2.4442868336180585,-1.6693264249510535,5.753867568568309,-1.0494433273956143,-4.506785653857602,0.06926161368530995,0.034524935083281194,0.030206752708859117,-0.1342929234137654,0.01850339229466619,0.011070653475616862,0.4263808727264404,1.7831437587738037,0.9593610763549804,0.1720753461122512,-0.0316445082426071,0.136069118976593
1749052513.2827454,-3.3014497427457417,-2.4442162260596416,-1.669265046542871,5.753595062289677,-1.0494073483384112,-4.506761798972682,0.07037078051408456,0.03478941451500605,0.030514479549277558,-0.1365045591254242,0.018818945328586693,0.01104226802632722,0.4229059219360351,1.781294584274292,0.9514897465705872,0.1582283824682235,-0.0262365043163299,0.128948301076889
1749052513.2827835,-3.301308667657764,-2.444144573775482,-1.6692029412936222,5.753317729845487,-1.0493701857190527,-4.50673748392719,0.07147097658592517,0.03498269724152006,0.03079086365401465,-0.13870967438989074,0.019146782032212543,0.01101322099227344,0.4169973731040954,1.7802667617797852,0.9560271501541138,0.1443176567554474,-0.0102892369031906,0.1106318160891532
1749052513.2828217,-3.301164988226047,-2.4440720616508744,-1.6691401698124428,5.753035724635223,-1.0493318874610267,-4.506712928511322,0.07256165786022764,0.03510587048441096,0.031040580467154518,-0.1408922234472153,0.019484706348012158,0.010990525358919718,0.4357013404369354,1.774272084236145,0.9650537967681884,0.1538407206535339,-0.015919953584671,0.1202524676918983
1749052513.2828588,-3.301018673403507,-2.44399893366297,-1.6690767953745849,5.752749248182384,-1.0492925325346407,-4.506688365931077,0.07364293498041109,0.035162525658293295,0.031269069406628124,-0.14303630807724604,0.01983039868790122,0.010980837261024123,0.425237238407135,1.7925516366958618,0.9653371572494508,0.1623947322368621,-0.0240729004144668,0.1296549439430236
1749052513.2828956,-3.3008696875179195,-2.4439254786856415,-1.6690128826711126,5.7524585317127,-1.0492522217332176,-4.506664023680641,0.07471551777407512,0.03515892500744095,0.031482257119881,-0.14512768052524333,0.020181715477935788,0.01098998484689661,0.4506897032260895,1.797515034675598,0.9486856460571288,0.1648427546024322,0.0073329955339431,0.1329089552164077
1749052513.2829328,-3.300717999406037,-2.4438520093328893,-1.66894849558808,5.752163814599017,-1.0492110662713579,-4.506640103457399,0.0757805944552303,0.03510402755722026,0.031686277595376545,-0.14715527013143187,0.020537003338151248,0.01102251169749547,0.4193160235881805,1.7548469305038452,0.9432530999183656,0.1680601239204406,0.0088676810264587,0.1438807100057602
1749052513.28297,-3.3005635940959652,-2.4437788363345425,-1.668883694550554,5.751865322587242,-1.0491691755331811,-4.506616762145911,0.07683959672269547,0.035009332950254476,0.03188719363299316,-0.14911240614438578,0.020895393609180846,0.011081295494805802,0.4090301990509033,1.804509162902832,0.9481241106987,0.1990511864423751,0.0087260156869888,0.128979817032814
1749052513.2830071,-3.3004064849662043,-2.443706241380488,-1.6688185339633683,5.751563248905774,-1.0491266455506054,-4.506594096155423,0.0778938343587572,0.034888520574040606,0.03209071381656394,-0.15099749571999807,0.021257034309039302,0.011167315348348897,0.4242106676101684,1.8256986141204836,0.9542081356048584,0.1586022973060608,0.02214927226305,0.1335945874452591
1749052513.2833788,-3.3002467237257402,-2.4436344516595794,-1.66875306009835,5.751257740842042,-1.049083549794702,-4.506572131329553,0.07894404232765675,0.034756899208095375,0.03230190270233444,-0.15281406514386023,0.02162319936794687,0.011279625136711926,0.4296370446681976,1.8307991027832031,0.9576241374015808,0.1471010148525238,0.0066699460148811,0.1733603477478027
1749052513.2853713,-3.300084405809689,-2.4435636192765764,-1.6686873095918688,5.7509488933808655,-1.049039933579057,-4.506550820066667,0.07998994142193515,0.034630722123993464,0.032524895335275736,-0.1545702284284759,0.021996202664168726,0.01141556071329208,0.4092141389846802,1.8398587703704836,0.9423426985740662,0.1766498237848281,0.01889518648386,0.1290189027786255
1749052513.3262858,-3.2999196697053312,-2.4434938081792237,-1.6686213086032593,5.750636750261245,-1.0489958128456618,-4.50653004618601,0.08102994212055495,0.034526445418147735,0.032762641094095414,-0.1562777517398632,0.022379058184318977,0.011571177604705978,0.4157987236976623,1.846053123474121,0.9487128257751464,0.152421087026596,0.0219318903982639,0.1360292732715606
1749052513.3263326,-3.299752689827041,-2.4434249902071032,-1.6685550726007048,5.750321311403457,-1.048951177496271,-4.5065096367421855,0.08206110810971867,0.034460009921343446,0.033016710573040634,-0.1579509095953942,0.02277487670625006,0.011741881017025212,0.4232222139835357,1.8464218378067017,0.9718553423881532,0.1439964026212692,0.0147204659879207,0.1526527255773544
1749052513.3263736,-3.2995836635664757,-2.4433570504683733,-1.6684886066763667,5.75000254431644,-1.0489059987826272,-4.506489378892796,0.08307944593336204,0.03444621755843263,0.033287200305949935,-0.1596053056680373,0.023186061187391402,0.0119231670563836,0.3741706013679504,1.865095376968384,0.9555233120918274,0.1450942754745483,0.0468725860118866,0.1444557458162307
1749052513.3264134,-3.2994127940969773,-2.4432898005381665,-1.6684219063059726,5.749680396351804,-1.0488602394606183,-4.506469039336576,0.08408051114246508,0.03449825622865145,0.03357276040164646,-0.16125679203038074,0.023613430465438245,0.012111350605219312,0.3961438238620758,1.8877373933792116,0.9252219796180724,0.1662967056035995,0.0327800661325454,0.1424073278903961
1749052513.3264518,-3.2992402714172724,-2.44322299634482,-1.6683549585371455,5.7493548049500065,-1.0488138645911433,-4.5064483836715885,0.08506023357458664,0.03462740040209917,0.03387075041871873,-0.162920568327933,0.02405544067012729,0.01230413168989204,0.3975043892860412,1.8810986280441284,0.9506723880767822,0.1390116512775421,0.0522904954850673,0.1238154023885726
1749052513.3264902,-3.2990662546828764,-2.443156356826837,-1.6682877435624417,5.74902570418847,-1.0487668505476058,-4.506427193168549,0.08601579110629295,0.03484287722082501,0.03417751075626106,-0.16461046861597048,0.0245076786851209,0.012500867578423608,0.4456691145896911,1.9402261972427368,0.9854391813278198,0.1171457543969154,0.0483265072107315,0.1576460003852844
1749052513.3265278,-3.2988908587294596,-2.4430895799987633,-1.6682202364039445,5.7486930274374055,-1.0487191903298714,-4.506405277090461,0.08694633017620904,0.0351518486425802,0.03448873207440152,-0.1663383649586602,0.024962776169056098,0.012702474223788349,0.4178774356842041,1.9097908735275269,0.9601651430130004,0.132171556353569,0.0380537584424018,0.1369378864765167
1749052513.326566,-3.2987141468489107,-2.4430223546460756,-1.668152408155801,5.748356707220413,-1.0486708944745575,-4.506382479897615,0.08785335306903087,0.035559432328666166,0.03479990538939327,-0.16811357168974797,0.025410840631122283,0.012910961591827436,0.3768366575241089,1.929937720298767,0.9446126222610474,0.1794240623712539,0.0654855519533157,0.1479514837265014
1749052513.326604,-3.2985361307367116,-2.4429543676563505,-1.6680842262357427,5.7480166741121295,-1.0486219880836434,-4.506358684019658,0.0887406606677432,0.03606867795112599,0.035106819984906154,-0.16994215763082285,0.025840424211655166,0.013128690876189312,0.3932473957538605,1.9049391746521,0.9434545636177064,0.1426228135824203,0.0699208676815033,0.1519592106342315
1749052513.326641,-3.298356777495743,-2.442885308295779,-1.6680156535314266,5.7476728565096025,-1.048572505256666,-4.506333809696262,0.08961384191244244,0.03668043784602636,0.035406045945014376,-0.17182617037454487,0.026239954849037156,0.01335750833730955,0.4415081739425659,1.9614803791046145,0.9578368663787842,0.1304710507392883,0.0667336285114288,0.1738035380840301
1749052513.3266785,-3.2981760227449004,-2.4428148712777222,-1.6679466469119375,5.7473251824828635,-1.0485224824221964,-4.506307813374304,0.09047940977493106,0.03739312241823109,0.03569532184597887,-0.17376290544286827,0.02659944724100889,0.013597941871466545,0.3989855945110321,2.003528118133545,0.9561172723770142,0.1259732246398925,0.0446652323007583,0.1655300557613372
1749052513.326715,-3.297993788061787,-2.4427427603249137,-1.6678771558771293,5.746973584013296,-1.0484719519573442,-4.506280685525469,0.09134375755901857,0.03820239493327565,0.03597378867548225,-0.1757444476610058,0.02691221102362639,0.013848627918464848,0.4039148390293121,1.951396942138672,0.9456116557121276,0.1363355219364166,0.0394131131470203,0.1727861762046814
1749052513.3267555,-3.297810000172248,-2.4426686933749795,-1.6678071219647932,5.746618003135941,-1.0484209371972113,-4.506252448067362,0.09221212874951236,0.039100900642711954,0.0362420591699871,-0.17775772723327823,0.02717621218884664,0.014106071949715195,0.4195151329040527,1.9718880653381348,0.9519131183624268,0.1179816201329231,0.0364801734685897,0.1668220162391662
1749052513.3267944,-3.2976246088570873,-2.4425924098663305,-1.6677364790956353,5.74625839898775,-1.0483694493860851,-4.506223151290374,0.09308777783132556,0.04007811561974899,0.036502157141117784,-0.179785260989148,0.027394756554086904,0.01436476290113889,0.4151731133460998,1.945088267326355,0.9527978897094728,0.1120000034570694,-0.0015590339899063,0.1604382991790771
1749052513.3268318,-3.2974376007550434,-2.4425136797817695,-1.6676651546198826,5.74589475460758,-1.0483174864008362,-4.506192870298473,0.09397147143800282,0.04112035748193384,0.03675737770430978,-0.1818066078756045,0.02757627062401776,0.014617593837219256,0.4196956753730774,1.944481372833252,0.9671251773834229,0.1122854426503181,0.014884278178215,0.1698362976312637
1749052513.3268692,-3.2972490068462603,-2.4424323134626613,-1.6675930706506976,5.745527082527885,-1.0482650326678813,-4.506161701116224,0.09486143047008819,0.04221096466330669,0.03701210282629623,-0.18380039621942307,0.0277331412779926,0.0148565049877418,0.3625434637069702,1.9773786067962649,0.963816463947296,0.1394108235836029,0.0514745712280273,0.1580555588006973
1749052513.3269062,-3.2970589020780525,-2.4423481709209103,-1.667520145339853,5.745155428489121,-1.04821205999418,-4.506129756610717,0.09575372979659885,0.04333064604083341,0.03727157808695609,-0.18574663461755977,0.027879793168899637,0.015073257120675962,0.3978942632675171,1.9752817153930664,0.9529212713241576,0.1190298050642013,0.0519926697015762,0.1813298016786575
1749052513.326943,-3.2968673965466464,-2.4422611696304166,-1.6674462939657597,5.744779872674226,-1.0481585297868312,-4.5060971623275154,0.09664307182407753,0.044458016102376006,0.03754164137660402,-0.18762894748567616,0.02803036604686402,0.015260248846704856,0.3676491975784302,1.9789369106292725,0.9737263321876526,0.1417039036750793,0.0793006122112274,0.1588497161865234
1749052513.32698,-3.296674619209498,-2.442171290320741,-1.6673714299534121,5.744400527720414,-1.0481043975924398,-4.506064052296341,0.09752377345815998,0.04557033279704719,0.03782839797139282,-0.18943639786023414,0.028196445935726858,0.015411299026198408,0.3882873654365539,1.9602854251861568,0.9807624220848083,0.1341250389814376,0.0783469229936599,0.1655688732862472
1749052513.327016,-3.296480696957033,-2.442078580656212,-1.6672954661363477,5.744017532735168,-1.0480496204757133,-4.506030564725724,0.0983907733105402,0.04664443039799067,0.038137844460900835,-0.19116465684985418,0.028385280070713115,0.01552232135998109,0.3422921895980835,1.932479739189148,0.9496578574180604,0.1363570988178253,0.0927325338125228,0.1656333059072494
1749052513.327401,-3.2962857331505186,-2.4419831566498877,-1.6672183166540617,5.743631042826871,-1.0479941665869317,-4.505996837324675,0.0992404751074782,0.047657801896015976,0.03847544425581304,-0.1928164118682265,0.028598785697969687,0.01559182581557818,0.3901250660419464,1.9407085180282595,0.962565004825592,0.1167557537555694,0.0755219087004661,0.1684404909610748
1749052513.3293548,-3.2960897898245305,-2.44188520140215,-1.6671398998817604,5.743241214215887,-1.0479380250860746,-4.505963002027636,0.10007129194670884,0.048589758834206735,0.038845655892735094,-0.1944010308042066,0.02883349474117856,0.015621194959241786,0.3971050381660461,1.931706190109253,0.9627681970596312,0.1231612190604209,0.0864900350570678,0.1753878444433212
1749052513.3742998,-3.2958928767306395,-2.4417849605795676,-1.6670601427336464,5.742848185700501,-1.0478812141692282,-4.505929179276409,0.10088383781539374,0.049422589175291715,0.039251425920834956,-0.1959335876294869,0.02908140527453507,0.015614702183879984,0.4004630744457245,1.930005431175232,0.962656021118164,0.1286852210760116,0.0773417502641677,0.162725955247879
1749052513.3743458,-3.2956949487122724,-2.441682734151215,-1.6669789865117874,5.742452058028912,-1.047823785352036,-4.505895472504467,0.10168079669521075,0.05014263591594499,0.03969368245157924,-0.19743340238428778,0.029331564413414054,0.01557925962970849,0.3812592923641205,1.939270496368408,0.9746954441070556,0.1247057765722274,0.0772387385368347,0.1649847030639648
1749052513.3743868,-3.295495910983124,-2.441578864206654,-1.6668963941247286,5.742052873491319,-1.0477658228586448,-4.5058619637349935,0.10246654761086137,0.05074122007803125,0.04017088943888186,-0.1989222683314063,0.029572099136956725,0.015523906124299628,0.3943158388137817,1.897958755493164,0.969865083694458,0.0878714323043823,0.0657068789005279,0.1696529537439346
1749052513.3744254,-3.2952956301809126,-2.441473718987182,-1.6668123579894942,5.741650598628811,-1.047707437620531,-4.50582871102897,0.10324662985291708,0.05121533124253236,0.04067873063265839,-0.20042254512173174,0.029792348417490278,0.015459074001093004,0.3947950899600982,1.9065574407577517,0.9608935117721558,0.1120525375008583,0.0332281216979026,0.1672683656215667
1749052513.374464,-3.2950939481251145,-2.4413676735844327,-1.6667269074506355,5.741245113123256,-1.047648756154426,-4.505795747903837,0.10402712149756776,0.05156801325629373,0.04120998492125924,-0.20195529094755266,0.02998473676395209,0.015395707984346018,0.3851894736289978,1.8988056182861328,0.9715567231178284,0.079551450908184,0.043999046087265,0.1658019870519638
1749052513.3745024,-3.29489069535833,-2.441261088364599,-1.6666401144354683,5.740836207550461,-1.0475899054366182,-4.505763084123952,0.10481399851803895,0.05180838542607189,0.04175464238479785,-0.20353858368897756,0.0301460720170148,0.015344339618107265,0.4090405702590942,1.8691259622573853,0.994235336780548,0.1297904700040817,0.0338043421506881,0.1788395941257476
1749052513.37454,-3.294685702619396,-2.4411542870900305,-1.6665520964354945,5.74042359179512,-1.047530995502388,-4.505730707013798,0.10561254380116994,0.05195125845563718,0.042300298165294424,-0.2051861434335307,0.030278053038918628,0.015314234639337499,0.4520688056945801,1.8710683584213257,0.983253300189972,0.0971618294715881,0.0113365054130554,0.1937766075134277
1749052513.3745778,-3.2944788097467548,-2.441047537450534,-1.666463016446141,5.740006914699887,-1.0474721019277053,-4.505698582898909,0.10642687540927628,0.052016327496296984,0.0428328375407914,-0.20690632868063577,0.030386926491418213,0.01531272083014154,0.4710617959499359,1.9250705242156985,0.9781776070594788,0.0782161206007003,0.0242032930254936,0.1905324757099151
1749052513.3746157,-3.294269872421595,-2.4409410367315028,-1.6663730798354954,5.739585794149777,-1.0474132509589635,-4.50566665896204,0.10725964773443869,0.052026953003984924,0.04333737806129824,-0.20870154760288884,0.03048240315665432,0.015344768319246352,0.4493196606636047,1.8463462591171265,0.9541423320770264,0.0964545905590057,0.038282610476017,0.1827362477779388
1749052513.3746529,-3.2940587673733424,-2.440834904545546,-1.6662825282135267,5.739159855393865,-1.047354410547828,-4.505634866048108,0.10811194094644039,0.05200857740892269,0.04379937803359419,-0.21056810835777365,0.030576081914140036,0.015412840390449604,0.4166757464408874,1.8948097229003904,0.95688658952713,0.0782994851469993,0.0385996624827384,0.1670448184013366
1749052513.3746903,-3.2938453965379653,-2.4407291833151152,-1.6661916304009,5.738728773987581,-1.047295489955388,-4.50560312267069,0.10898330761093282,0.05198687686001319,0.04420579228681974,-0.21249652762448973,0.030679690416840048,0.015516981878539648,0.448802649974823,1.9207582473754885,0.9753187894821168,0.0587809383869171,0.023065622895956,0.1855382919311523
1749052513.3747282,-3.2936296905488587,-2.440623846019056,-1.6661006706350272,5.738292318479986,-1.0472363486420273,-4.50557134005512,0.10987192040048123,0.05198580819786895,0.04454617413993182,-0.21447231938162367,0.03080342885555235,0.01565508670600472,0.4355427026748657,1.9333429336547847,0.9697771072387696,0.0819906145334243,0.0244173146784305,0.1776412576436996
1749052513.3747654,-3.293411611803198,-2.4405188099153317,-1.6660099342421855,5.737850387387313,-1.0471768128953125,-4.505539427729766,0.11077477648187277,0.05202575656739598,0.04481366052339768,-0.21647728119465484,0.030954626640829153,0.0158232871473151,0.4499490261077881,1.904365420341492,0.9601913690567015,0.0540152490139007,0.0282613523304462,0.1740913093090057
1749052513.3748026,-3.29319115707599,-2.440413954509485,-1.6659196912408978,5.7374030355669285,-1.0471166972784836,-4.505507298938749,0.11168794590368106,0.05212199054323924,0.04500579488607325,-0.21849125536472447,0.031136830671587817,0.016016415832844286,0.4393947720527649,1.9208213090896609,0.96032053232193,0.0629796832799911,0.0231577903032302,0.1828005164861679
1749052513.3748398,-3.2929683593820327,-2.440309141765189,-1.665830178739681,5.7369504867869905,-1.0470558277414457,-4.5054748750914735,0.11260687509226668,0.05228359219398697,0.04512513222495627,-0.22049424841207246,0.03134936440952789,0.016228493594230897,0.4468148946762085,1.9697540998458865,0.960917592048645,0.064433716237545,0.0378480106592178,0.1730672717094421
1749052513.374877,-3.292743288632159,-2.4402042363256093,-1.6657415833849607,5.736493131478582,-1.0469940635755979,-4.505442088700443,0.11352675704583945,0.05251297458519972,0.045179556533047525,-0.22246866323484574,0.03158734140354378,0.016453196043800987,0.4743178784847259,1.9475743770599363,0.9883034825325012,0.0784962624311447,0.036997452378273,0.1798708140850067
1749052513.3749156,-3.2925160505421185,-2.440099123350426,-1.665654025292869,5.736031510577396,-1.046931315803908,-4.5054088846658615,0.11444295632729778,0.052806036856317656,0.045182241177505994,-0.22440129156824645,0.03184208889457917,0.01668425854989714,0.4633096158504486,1.9200507402420044,0.974467933177948,0.0750791952013969,0.0390538349747657,0.1817419528961181
1749052513.374953,-3.2922867832047187,-2.4399937216194054,-1.6655675448062535,5.735566287438953,-1.046867560024214,-4.5053752201810084,0.1153514410369262,0.053152928859759654,0.04515119514271349,-0.22628469268217064,0.03210193009941946,0.01691579588117228,0.434236615896225,1.9146307706832888,0.9535112380981444,0.1055410653352737,0.0637794286012649,0.1875055134296417
1749052513.37499,-3.2920556507809855,-2.4398879900109933,-1.665482093152321,5.735098209999498,-1.0468028423534947,-4.5053410638988,0.11624914877350906,0.05353931528472191,0.045108359977382356,-0.22811767221200485,0.03235327013618554,0.017142535381689854,0.4212376773357391,1.955862045288086,0.96978360414505,0.0557718947529792,0.0580373369157314,0.2014245688915252
1749052513.3750272,-3.291822833881105,-2.43978192640829,-1.665397527754161,5.7346280651910355,-1.0467372779850495,-4.505306395145471,0.11713421820084279,0.053947975106628,0.045078261326290184,-0.22990474479189504,0.03258191260054728,0.01735998189866138,0.449870616197586,1.931320309638977,0.981400430202484,0.1168970242142677,0.055238302797079,0.1906506866216659
1749052513.375064,-3.2915885163769842,-2.439675559335661,-1.6653136126562054,5.734156627730123,-1.0466710428207382,-4.505271203688258,0.11800604630018353,0.05436056028159917,0.04508627965038157,-0.23165465947811392,0.032774498716657795,0.017564538334140872,0.4581677913665771,1.9318442344665527,1.0068707466125488,0.0682015568017959,0.0247729979455471,0.208773985505104
1749052513.375101,-3.2913528687855633,-2.4395689337987516,-1.6652300243126832,5.733684605905731,-1.0466043595211574,-4.505235489977079,0.11886515881372034,0.05475935174558744,0.04515667406918544,-0.23337823836507046,0.032919925601268704,0.017753595030324018,0.4294377565383911,1.9155611991882324,1.0112299919128418,0.1166581362485885,0.0360979549586772,0.1880926191806793
1749052513.3754168,-3.2911160291100217,-2.4394620934838214,-1.6651463628199332,5.73321258755652,-1.046537479906535,-4.50519926526385,0.11971289478466575,0.05512886951275361,0.045310546857837405,-0.23508590134442325,0.03301058854420355,0.01792558277050824,0.458548367023468,1.9405858516693115,1.006700873374939,0.1000612154603004,0.0155277028679847,0.1903201192617416
1749052513.3773842,-3.2908780828829465,-2.43935506157513,-1.6650621684230114,5.7327409897565,-1.046470665668114,-4.505162550872555,0.12055091912053208,0.05545721130027431,0.04556395790143996,-0.23678531482681633,0.03304331398408635,0.01807997080341388,0.4537184834480285,1.9083037376403809,1.0352658033370972,0.0936884731054306,0.0217929482460021,0.183351844549179
1749052513.4182796,-3.2906390447515834,-2.4392478223436216,-1.6649769427500778,5.732270015806469,-1.046404168849693,-4.505125376219239,0.12138060707603443,0.05573701719765525,0.0459263891069681,-0.23847959788418854,0.03301989278789333,0.01821719221101072,0.445851981639862,1.9272319078445437,1.0489403009414673,0.0934813320636749,0.0344146564602851,0.1842322796583175
1749052513.4183266,-3.290398844241711,-2.439140305769261,-1.6648901738548871,5.73179962311764,-1.0463382130062067,-4.505087775750454,0.12220238562750992,0.055965992378044026,0.04639972727314564,-0.24016643051646208,0.032947169684283094,0.01833849552277136,0.4193094372749328,1.9153798818588257,1.0418874025344849,0.082275241613388,0.0466529875993728,0.2003886103630066
1749052513.4183671,-3.2901573184916604,-2.4390323776936045,-1.6648013639228263,5.731329505627133,-1.0462729757983085,-4.50504978542626,0.12301514902481782,0.05614696549558971,0.04697788670916377,-0.24183823674214353,0.03283668716649739,0.018445746462814248,0.4323768019676208,1.9354777336120603,1.0543105602264404,0.0980716943740844,0.0310783609747886,0.1786614060401916
1749052513.4184058,-3.2899142146462497,-2.438923837864972,-1.6647100583846568,5.730859094511947,-1.0462085740043143,-4.505011439499369,0.12381588067025391,0.05628751060434136,0.047647132849783676,-0.24348339306190345,0.032703921585943645,0.018541224243776334,0.4095329046249389,1.93104887008667,1.056739091873169,0.1213787421584129,0.0528931468725204,0.1936574131250381
1749052513.418444,-3.289669203939677,-2.4388144274797545,-1.6646158750485558,5.730387580947395,-1.0461450521039124,-4.504972768223535,0.12459961032683237,0.05639920196891732,0.04838709840455155,-0.24508820248395716,0.03256718502833908,0.01862745912804691,0.4466874301433563,1.9145426750183103,1.052285075187683,0.1101055741310119,0.0303614139556884,0.2017781287431717
1749052513.418482,-3.2894219082661897,-2.438703846679685,-1.6645185316839801,5.7299139640154815,-1.0460823754505273,-4.504933797033441,0.1253598051231093,0.056496591467375734,0.04917240942347989,-0.24663924170314014,0.032446295441011686,0.018707135068176336,0.4356948435306549,1.9592132568359373,1.052933692932129,0.1294467449188232,0.032811015844345,0.1712584942579269
1749052513.418523,-3.2891719384963993,-2.4385917812725686,-1.6644178703470855,5.729437125020435,-1.0460204287431982,-4.5048945477168205,0.12608922440763073,0.05659599853927816,0.0499747662593931,-0.2481256661460907,0.03236113432829305,0.01878304339444767,0.4477461874485016,1.957216739654541,1.027575135231018,0.1377511471509933,0.0472837835550308,0.1718896925449371
1749052513.4185617,-3.288918942012605,-2.4384779367175096,-1.6643138766106276,5.7289559259716265,-1.0459590201933375,-4.5048550418031175,0.12678116653212898,0.05671419410863292,0.0507652629523804,-0.24954112634693246,0.03233021295753342,0.018858046475347907,0.4306510090827942,1.994147062301636,1.0102800130844116,0.150385320186615,0.04880952835083,0.1686035245656967
1749052513.4185991,-3.2886626546811155,-2.4383620759225875,-1.6642066916075293,5.728469324724565,-1.0458978913132806,-4.504815305603519,0.12743091827668165,0.056867047020873564,0.051516696220187536,-0.2508850649791596,0.03236935788127958,0.018935013613810003,0.427483856678009,1.9710627794265747,1.0383535623550415,0.1222821325063705,0.0418554842472076,0.2059232294559478
1749052513.4186378,-3.2884029496857248,-2.4382440555991267,-1.6640966143182374,5.727976492590938,-1.04583673145338,-4.5047753753847655,0.12803711705019089,0.057068186895334085,0.05220563203828586,-0.25216328493568424,0.032490612614810545,0.01901672009450915,0.427483856678009,1.9710627794265747,1.0383535623550415,0.1222821325063705,0.0418554842472076,0.2059232294559478
1749052513.4186754,-3.288139873129492,-2.4381238543654353,-1.6639840911027994,5.727476913859677,-1.0457751952568264,-4.504735300584959,0.12860269972636357,0.05732773922640522,0.05281405794916337,-0.2533877758296487,0.032701437543114,0.019105730871294867,0.4408594667911529,1.988971829414368,1.0180180072784424,0.1705633103847503,0.0707196071743965,0.1944379210472107
1749052513.4187129,-3.2878736561849533,-2.4380015856939137,-1.663869690003661,5.726970444760974,-1.0457129206940547,-4.504695143141718,0.12913517407594283,0.057651223149847414,0.053330512656394234,-0.25457584766796937,0.03300426851075194,0.019204301856762696,0.4174970090389251,2.007554054260254,0.9832577109336852,0.140328362584114,0.093305617570877,0.1764102280139923
1749052513.4187503,-3.287604697958227,-2.437877491239201,-1.6637540597756748,5.726457316453922,-1.0456495459366064,-4.50465497206802,0.1296460897068102,0.05803874853458959,0.05375061943078389,-0.2557486575889713,0.03339645853692532,0.019314319414032544,0.4121756553649902,2.017673254013061,1.0022324323654177,0.1223914548754692,0.0596809573471546,0.2037228643894195
1749052513.418789,-3.287333521344284,-2.437751914779772,-1.6636378775328846,5.725938081753455,-1.0455847249115273,-4.5046148541214555,0.1301497440617763,0.05848465984616469,0.05407697306827735,-0.2569292533076481,0.03387057801731414,0.019437273284545142,0.4108239710330963,1.9899898767471316,0.9956164360046388,0.1281858086585998,0.0848510563373565,0.1917597949504852
1749052513.418829,-3.2870607116716735,-2.43762526195071,-1.6635217922749428,5.725413520621624,-1.0455181428086637,-4.504574842887284,0.13066129278329344,0.05897772688273231,0.054318379447383165,-0.2581403086573767,0.0344149986835894,0.019574235430885375,0.4122890532016754,2.021186113357544,0.9946506023406982,0.0960324853658676,0.0783895254135131,0.1787652671337127
1749052513.4188666,-3.286786850898053,-2.437497953929669,-1.6634063724714083,5.724884527051429,-1.045449533022287,-4.504534969000002,0.1311945460665429,0.05950190189132969,0.054488530157729455,-0.25940177989016805,0.035014653244283135,0.01972580928632887,0.2867155075073242,1.953262448310852,0.9419249296188354,0.1380144655704498,0.0708083137869834,0.184035986661911
1749052513.4189036,-3.2865124584390313,-2.4373703835050646,-1.663292064333425,5.724351998866458,-1.0453786959576186,-4.504495233563484,0.13175983828978774,0.06003759042208908,0.054604291366825895,-0.2607287465338664,0.03565186161865786,0.019892028080558073,0.3212171494960785,1.9419814348220823,0.9619954824447632,0.141215443611145,0.0687699913978576,0.1981680542230606
1749052513.4189413,-3.2862379458927444,-2.4372428801823727,-1.663179164754563,5.723816746184841,-1.0453055184937898,-4.504455605711305,0.13236244020057208,0.060563338060989874,0.054683873186359686,-0.26212971616030023,0.03630714858735942,0.020072214913030805,0.349334716796875,1.9451149702072144,0.990270972251892,0.1405544579029083,0.1024990975856781,0.1943673193454742
1749052513.4189782,-3.2859635889566863,-2.4371156882362626,-1.6630678103004077,5.723279427519069,-1.045229991396473,-4.504416024240647,0.133001977960282,0.061057806318546244,0.05474519228966076,-0.2636056734802011,0.03696003147855517,0.020264853454756187,0.5090811848640442,1.9867143630981443,1.0321340560913086,0.0998613536357879,0.0874213427305221,0.1825196295976638
1749052513.419016,-3.2856895165020847,-2.4369889587231373,-1.662957981419297,5.7227405162583285,-1.045152221204571,-4.504376402621131,0.13367314774098665,0.06150187939508881,0.05480469933521948,-0.26515011641061703,0.03758980779640795,0.020467533882531374,0.4162607192993164,1.943040132522583,1.0125349760055542,0.1075729206204414,0.0876271352171897,0.1923101395368576
1749052513.419388,-3.2854157144666476,-2.4368627539388528,-1.6628495192970214,5.722200295163202,-1.0450724333510084,-4.50433663641226,0.1343676449717468,0.061880703532995004,0.05487679188048147,-0.2667501947241504,0.03817640475719523,0.02067702394210603,0.4193785190582275,1.943346738815308,1.0009019374847412,0.1018891185522079,0.1027612388134002,0.2071022391319275
1749052513.4213803,-3.2851420411941814,-2.4367370609101844,-1.6627421516990832,5.721658872889735,-1.044990964371288,-4.5042966120569154,0.1350767822155224,0.0621854287462742,0.05497372435067993,-0.268388840168419,0.03870135635872659,0.020889477555215735,0.3672638535499573,1.8688480854034424,0.9755085110664368,0.1298449337482452,0.0874720513820648,0.1918660551309585
1749052513.4623902,-3.2848682509398466,-2.43661180945038,-1.6626355239281718,5.7211162146719685,-1.0449082426356826,-4.504256216051242,0.13579397516610092,0.06241442758072241,0.0551057636742219,-0.27004753145203075,0.039148943228187925,0.021100750871931088,0.3797372579574585,1.9632155895233157,0.982197880744934,0.1409023404121399,0.0596282184123992,0.1919892877340316
1749052513.4624364,-3.28459402291856,-2.4364868902906944,-1.6625292315115097,5.720572178954705,-1.0448247586787012,-4.5042153436148595,0.1365163067850716,0.06257382382942173,0.055281302253707754,-0.27170919546416533,0.03950746528407541,0.02130676614781795,0.3432005047798157,1.9332150220870967,0.9690538644790648,0.1007232293486595,0.0709545761346817,0.1869299113750457
1749052513.4624777,-3.2843189938397686,-2.4363621698414484,-1.6624228519669377,5.720026552576808,-1.0447410275297895,-4.504173906185858,0.13724472635340734,0.06267726082362135,0.05550673323388241,-0.2733607683480246,0.03977052940543517,0.021503857627038554,0.324459433555603,1.930895566940308,1.0077252388000488,0.1037802100181579,0.0811136439442634,0.1774116456508636
1749052513.462518,-3.2840427919766424,-2.4362374998855763,-1.662315973605856,5.719479078846937,-1.0446575464772883,-4.504131837323069,0.13798293349480203,0.06274493589359435,0.05578605768849452,-0.2749950871771996,0.0399381523669334,0.02168904999808523,0.4398239254951477,1.9345378875732424,1.0136691331863403,0.1091152504086494,0.0514591559767723,0.1919203102588653
1749052513.4625566,-3.2837650705479215,-2.4361127222932115,-1.6622082197838355,5.718929475442949,-1.0445747526658749,-4.504089096881666,0.13873542838177955,0.06280199808171924,0.05612034712105493,-0.27661195707094444,0.04001743661034199,0.02186024916749793,0.4481069445610046,1.9698293209075928,1.0021225214004517,0.0922436863183975,0.0510768890380859,0.1883807480335235
1749052513.4625952,-3.283485537845873,-2.4359876700459426,-1.6620992674965673,5.718377442048423,-1.044492985630605,-4.504045673523447,0.1395054267950502,0.06287645109916919,0.056507261993158184,-0.2782183494956831,0.04002259358090359,0.02201635302847875,0.4649028480052948,1.9684081077575684,1.000902533531189,0.1069226413965225,0.0385263785719871,0.1796500533819198
1749052513.4626336,-3.2832039813837683,-2.4358621663291182,-1.6619888598352475,5.717822660195178,-1.0444124596188724,-4.504001585591795,0.14029328703419752,0.06299673101812713,0.056940814023143015,-0.2798277080899377,0.03997416580792612,0.02215730387440458,0.4362996518611908,1.967663288116455,1.0337028503417969,0.1326698213815689,0.0462556220591068,0.1862069815397262
1749052513.4626718,-3.282920283572656,-2.4357360234904246,-1.661876812459489,5.717264789345945,-1.0443332490979562,-4.503956880142749,0.14109583112359333,0.06318914126241162,0.05741149249497821,-0.2814583185595067,0.039897417683471846,0.022284099143114456,0.3973462283611297,1.963678479194641,1.0038455724716189,0.1229936480522155,0.0289386138319969,0.2000351399183273
1749052513.4627109,-3.2826344272227663,-2.4356090435304476,-1.6617630147963651,5.716703463842613,-1.0442552887593626,-4.503911629742448,0.1419066107745438,0.06347533467068836,0.057906792580156484,-0.2831307249675635,0.03982000529946722,0.02239875983312891,0.4453346133232116,1.976853847503662,1.0063472986221311,0.1535817682743072,0.0433659590780735,0.1893111765384674
1749052513.462749,-3.2823464904415944,-2.43548102143428,-1.6616474270746597,5.71613829516592,-1.0441783872700447,-4.503865926853129,0.14271691638022513,0.06387004437084753,0.05841210420833982,-0.2848643086003569,0.03976917841425746,0.022504239330799133,0.4083400964736938,2.001373767852783,0.9966962933540344,0.1150934994220733,0.0798046439886093,0.1926684379577636
1749052513.462787,-3.2820566319205264,-2.4353517519578034,-1.6615300744364754,5.715568882942196,-1.0441022522738839,-4.503819876235797,0.1435172147437463,0.06437927759271438,0.05891185728534193,-0.2866733890677639,0.03976888305959397,0.022604249442200443,0.407058835029602,2.0064735412597656,1.0075719356536863,0.0906994640827179,0.0812485367059707,0.1858539879322052
1749052513.4628334,-3.2817650687250435,-2.4352210395679927,-1.661411039080775,5.7149948361581115,-1.044026522937372,-4.503773586287297,0.14429869885314264,0.06499918268242508,0.05939079124888726,-0.2885634866261198,0.03983717820876491,0.022702987612561093,0.4431537687778473,2.015796661376953,0.9952394962310792,0.0434311479330062,0.0759252384305,0.1885655224323272
1749052513.4628744,-3.2814720493237073,-2.4350887104185275,-1.6612904507898385,5.714415803381426,-1.0439508058922446,-4.503727160135298,0.1450546864618369,0.06571576676947749,0.05983522340799555,-0.2905285619811717,0.03998432611444693,0.022804766439154973,0.3937165439128876,2.015575647354126,0.9819437265396118,0.0058975368738174,0.0626366958022117,0.1935099363327026
1749052513.4629128,-3.281177824795916,-2.434954624776214,-1.6611684757336853,5.713831508132201,-1.043874710709771,-4.50368068687574,0.1457816761756894,0.06650557685153674,0.06023420669030838,-0.29254998600667503,0.040211782135337555,0.022913567527841235,0.4218369722366333,2.017050504684448,1.0107685327529907,-0.0013938806951045,0.0593615248799324,0.1779636740684509
1749052513.4629505,-3.2808826211126036,-2.4348186882578187,-1.661045303550431,5.71324178365199,-1.0437978817871967,-4.50363423319094,0.14647993852414165,0.06733736437497721,0.060580472533279035,-0.29459764579132103,0.04051215301065592,0.02303256065844586,0.440771996974945,2.0019164085388184,0.985304057598114,0.0680854767560958,0.0828017145395279,0.1835053265094757
1749052513.4629884,-3.2805866151626306,-2.434680860537794,-1.6609211332705174,5.712646600680882,-1.0437200244977083,-4.503587835940279,0.14715357574327473,0.0681746413671099,0.06087105162368518,-0.29663307350091217,0.040870065836321544,0.02316364374869895,0.3711244165897369,2.000961780548096,0.9897503852844238,0.0741753280162811,0.0738480240106582,0.1919354498386383
1749052513.4630258,-3.2802899167524027,-2.4345411607482244,-1.6607961592376357,5.712046082578511,-1.0436409243650866,-4.503541496841922,0.1478100372543069,0.06897891682261055,0.06110747251559792,-0.29861399815503503,0.04126381051569232,0.02330707004720078,0.3994162082672119,1.9535880088806152,0.9713828563690186,0.1013423427939415,0.0791272073984146,0.1789133995771408
1749052513.4630628,-3.279992558042772,-2.4343996693981795,-1.6606705584699173,5.711440503980451,-1.0435604585567222,-4.503495180678669,0.1484591464468771,0.0697132938995719,0.06129547155235434,-0.300499456054509,0.04166756962551353,0.023461234944252972,0.3950386047363281,1.970963478088379,0.979123592376709,0.0601002871990203,0.0650146454572677,0.1921310424804687
1749052513.4631,-3.279694490847994,-2.434256527014032,-1.6605444809018521,5.710830271832936,-1.0434785991781814,-4.503448818309508,0.1491117763273689,0.07034603978900089,0.06144420856505533,-0.30225461392569747,0.042054011027410285,0.023622687998669546,0.4294017553329468,1.973179578781128,0.9911062717437744,0.0495029091835022,0.0464182049036026,0.191671222448349
1749052513.4632082,-3.279395591186472,-2.4341119297233544,-1.6604180437217113,5.710215890686016,-1.043395408141759,-4.503402315017767,0.14977837751456444,0.07085373051610866,0.061565058533988574,-0.3038546720897541,0.042396990432798556,0.023786407333553337,0.4470528960227966,1.9136037826538088,0.9747274518013,0.0390907898545265,0.0534488856792449,0.180531620979309
1749052513.4633908,-3.2790956698201392,-2.4339661217905793,-1.6602913305490856,5.709597916903021,-1.043311024074947,-4.503355563531802,0.1504675886024225,0.07122361284464042,0.06167012146568373,-0.30528747599949657,0.04267410713066422,0.023946324794992938,0.4229806065559387,1.921164870262146,0.987274169921875,0.0947740823030471,0.0599493980407714,0.2028300911188125
1749052513.506297,-3.278794487433488,-2.433819384946116,-1.6601643954927552,5.708976908280747,-1.0432256426882276,-4.503308459876617,0.15118514886498816,0.07145489737496762,0.06177064691443747,-0.3065546781468974,0.04286887889701665,0.02409603602201784,0.4674346446990967,1.916326642036438,0.9804090261459352,0.1091353967785835,0.0425331741571426,0.1866858303546905
1749052513.5063431,-3.278491773405535,-2.4336720244853853,-1.6600372713675628,5.708353376153032,-1.0431394929354576,-4.5032609194866255,0.15193328932788377,0.07155880347509885,0.061875596564678476,-0.3076714466407519,0.04297233892086448,0.024229588402841687,0.4639510214328766,1.9230644702911377,1.0067602396011353,0.1060789972543716,0.0435962080955505,0.1627967953681945
1749052513.506383,-3.2781872474010068,-2.433524352506919,-1.6599099807315432,5.707727746417388,-1.0430528119715856,-4.503212890871087,0.1527106888028674,0.07155731996114297,0.06199056150504916,-0.30866483837746084,0.042983898667735,0.024342224106011313,0.4398131966590881,1.9272984266281128,1.0087077617645264,0.081928551197052,0.0249915570020675,0.1680011302232742
1749052513.5064223,-3.277880642891173,-2.4333766690649017,-1.6597825479450425,5.7071003342440685,-1.0429658221767824,-4.503164364510864,0.15351295446565805,0.07148080270189294,0.062117206917798914,-0.30957105884783237,0.04291137134112836,0.024430968203972926,0.4228505194187164,1.925551176071167,0.9852975606918336,0.096128337085247,0.0137188732624053,0.2000546604394912
1749052513.5064604,-3.2775717311729586,-2.4332292424121107,-1.659655010076988,5.706471334776897,-1.0428787132391903,-4.5031153754819595,0.15433346930099967,0.07136467337532222,0.06225333971778702,-0.3104319088775463,0.042770124745490926,0.024494986057166268,0.4458976686000824,1.9374330043792725,1.0110116004943848,0.0780461728572845,0.037009984254837,0.1648895144462585
1749052513.5065036,-3.277260343811167,-2.4330822900708386,-1.6595274243262046,5.705840829378136,-1.0427916314805346,-4.5030659994420805,0.15516439374302643,0.07124559793741196,0.06239360066550604,-0.3112907651577418,0.042581438881555904,0.02453567389188239,0.5065637230873108,2.005739450454712,1.0282310247421265,0.1010629385709762,0.0394570231437683,0.160116821527481
1749052513.506543,-3.2769463910727743,-2.4329359630352547,-1.6593998700280734,5.705208804454331,-1.0427046773681976,-4.503016342908142,0.1559976306244912,0.07115759678467208,0.06253069303320777,-0.31218847545197836,0.04237027324669372,0.024556479401158435,0.4392378628253937,1.9533429145812988,1.0172138214111328,0.0862010344862937,0.0564590096473693,0.179598182439804
1749052513.5065808,-3.27662987399968,-2.4327903354856044,-1.6592724443667655,5.704575178162273,-1.0426179105184001,-4.5029665298909896,0.15682563199301583,0.07112855233123731,0.06265698304244224,-0.31315958990274606,0.04216276533116406,0.02456247615741342,0.4443921446800232,2.014538049697876,1.011282444000244,0.0610260516405105,0.0608029216527938,0.1728080362081527
1749052513.506618,-3.2763108882025356,-2.4326454017509063,-1.6591452521807324,5.7039398297254005,-1.0425313596751191,-4.502916687507433,0.15764199763351291,0.07117752257304671,0.0627662424616888,-0.314229371871085,0.04198383600878103,0.024559744790665958,0.4680168628692627,1.9816431999206543,1.0040910243988037,0.006839096546173,0.0758693367242813,0.1814143657684326
1749052513.5066557,-3.2759896181905996,-2.43250108116276,-1.659018391216213,5.703302626694296,-1.0424450339409488,-4.502866932876469,0.15844185758095758,0.07131315481272094,0.06285526371064272,-0.3154119716737898,0.04185524098812397,0.024554645537556843,0.4807698130607605,2.023514747619629,1.0187829732894895,0.029677677899599,0.0721204280853271,0.1682896912097931
1749052513.5066926,-3.2756663221689366,-2.4323572302764465,-1.6588919347633075,5.702663446861658,-1.0423589317936137,-4.502817362657651,0.1592220416826384,0.07153335371697007,0.06292508267144684,-0.31670996118232264,0.04179429087592941,0.024553090167099646,0.4679885506629944,2.03672456741333,1.0219261646270752,0.0348744839429855,0.0936488583683967,0.1741310358047485
1749052513.5067294,-3.2753413087637466,-2.432213660902595,-1.6587659140284552,5.702022193208496,-1.042273045964715,-4.502768045600791,0.15998103375562012,0.07182621453247363,0.0629815967788888,-0.31811514854857575,0.041813304010354005,0.024559925496989807,0.3673899173736572,1.969799518585205,0.9978987574577332,0.1235672533512115,0.0780227929353714,0.1786920130252838
1749052513.506766,-3.275014908631171,-2.4320701616025544,-1.658640302964748,5.701378801864442,-1.042187363926298,-4.502719017842967,0.160718707178376,0.07217208954273177,0.06303545105245517,-0.31961033084564416,0.041919702396080144,0.024578521805427758,0.4266675412654876,1.9958266019821167,1.0032894611358645,0.1025488376617431,0.0933054462075233,0.1863581240177154
1749052513.506803,-3.2746874446143117,-2.4319265198056295,-1.6585150084031635,5.700733244329177,-1.04210186467315,-4.502670280433895,0.16143586312597671,0.0725465237788579,0.06310116912530472,-0.32117152556561246,0.04211655148551603,0.024610618897859617,0.3835428655147552,1.970484495162964,1.0261598825454712,0.0721615105867385,0.0782499015331268,0.17768295109272
1749052513.5068395,-3.2743592038315716,-2.431782541546338,-1.6583898678623832,5.700085525823864,-1.0420165128352004,-4.502621798666338,0.16213364934385907,0.07292370088703813,0.06319562144434096,-0.3227702983403052,0.042403299276591144,0.024656428279465483,0.4235844910144806,1.9911396503448489,1.0144166946411133,0.0892192497849464,0.0807015374302864,0.1845422834157943
1749052513.5068767,-3.2740304143442143,-2.4316380661390147,-1.6582646562758905,5.6994356814422895,-1.0419312514096644,-4.502573503214883,0.16281300525680908,0.07327999551758078,0.06333603380863277,-0.3243759952399345,0.042776485571750796,0.024714938526643065,0.419091522693634,1.955904603004456,1.0432124137878418,0.0852128714323043,0.0780438706278801,0.1828130632638931
1749052513.5069132,-3.2737012283329463,-2.431492974015718,-1.6581391014370268,5.69878377097532,-1.0418459946851224,-4.502525293543508,0.16347431268415533,0.07359722319184513,0.06353782239026874,-0.325957852965659,0.04323025142897069,0.024784340339938708,0.4638300538063049,1.960456132888794,1.0588204860687256,0.1248247027397155,0.0876501128077507,0.1712414324283599
1749052513.5069509,-3.273371713000837,-2.4313471872403465,-1.6580129066958327,5.698129872503477,-1.0417606229993828,-4.50247704407896,0.16411738892746594,0.07386520353821084,0.06381257164360028,-0.3274870196803592,0.043756562959835994,0.024862484095003842,0.4339726865291595,1.9659594297409055,1.051780104637146,0.1224206387996673,0.088095337152481,0.1915744841098785
1749052513.506988,-3.2730418496736964,-2.4312006634275027,-1.6578857784816892,5.697474074587281,-1.0416749807767338,-4.502428613184845,0.16474183707309611,0.07408331562874182,0.06416643667023446,-0.3289384956179939,0.0443451528450987,0.024947297750102758,0.4397830367088318,1.9507145881652832,1.0422589778900146,0.1153070107102394,0.0773769319057464,0.1800921857357025
1749052513.5070257,-3.2727115409428564,-2.431053384658261,-1.6577574554484975,5.6968164670770856,-1.0415888791083725,-4.502379854347029,0.1653476182188502,0.07426083002557972,0.06459916921694589,-0.330292949279222,0.044983260073445996,0.02503711249666975,0.3827192783355713,1.9710490703582764,1.0752065181732178,0.1251136660575866,0.0719361528754234,0.2024813890457153
1749052513.5070667,-3.2723806251841876,-2.4309053435369936,-1.6576277353997972,5.696157130846817,-1.0415021040320922,-4.502330628530244,0.16593561501808407,0.07441594018522307,0.0651038789440385,-0.33153829839517257,0.04565530979276432,0.025130858428062577,0.4248353838920593,1.985253095626831,1.1016464233398438,0.1406998187303543,0.1155024468898773,0.1597192883491516
1749052513.5073645,-3.2720488971575,-2.4307565288749537,-1.6574964958946463,5.695496127029196,-1.041414431163351,-4.502280816532714,0.1665079680720415,0.07457356716975247,0.06566757060770424,-0.3326708626662375,0.046342725587457806,0.025228104687759493,0.402339905500412,1.9995830059051516,1.0891331434249878,0.1288994997739792,0.0906757414340972,0.1783263683319091
1749052513.5093503,-3.2717161326118407,-2.43060691355914,-1.6573637049889005,5.6948334868095705,-1.0413256460328975,-4.502230330314407,0.16706806688477235,0.07476216206515478,0.06627242026398243,-0.33369583175893686,0.047024093421830906,0.025328938209406404,0.3755258023738861,1.9938639402389529,1.0479319095611572,0.193142682313919,0.0893152579665184,0.1650192737579345
1749052513.5502856,-3.2713821142078587,-2.430456446837138,-1.6572294201017193,5.6941692034845905,-1.0412355676924654,-4.502179122459268,0.16762020738270006,0.0750098700354916,0.06689764812154149,-0.33462681871008326,0.04767586332860371,0.025433710569519458,0.4152429401874542,2.010974884033203,1.05255126953125,0.160309687256813,0.1001640036702156,0.1819982826709747
1749052513.5503318,-3.2710466558860443,-2.430305052479805,-1.6570937751094448,5.693503228779542,-1.0411440716198814,-4.502127192876973,0.16816904628882065,0.07534053142426209,0.06752173877696245,-0.3354844256325751,0.04827365772269281,0.02554272800761838,0.4600420594215393,2.00818395614624,1.0781307220458984,0.1286972761154174,0.07139852643013,0.194951131939888
1749052513.550372,-3.2707096230693473,-2.4301526331823418,-1.6569569577421632,5.692835474901203,-1.0410511073843096,-4.502074591635978,0.16871905734941733,0.07577005456765049,0.06812469933326039,-0.33629398359854884,0.04879408274591598,0.02565599188187226,0.4545470774173736,2.075626373291016,1.0612454414367676,0.1316638886928558,0.0764749944210052,0.1758036464452743
1749052513.5504117,-3.270370946694393,-2.429999080381911,-1.6568191806876988,5.6921658226574525,-1.0409567073265655,-4.502021416870153,0.16927418371520817,0.07630368445758291,0.06869005208434135,-0.33708282617503976,0.04921678243590176,0.025773089403504593,0.3968819677829742,2.0711324214935303,1.0329971313476562,0.1544918566942215,0.0655304044485092,0.1855964362621307
1749052513.5504496,-3.2700306298446793,-2.4298442877151945,-1.6566806504027285,5.691494134721659,-1.040860984602952,-4.501967807292585,0.16983777530434427,0.07693460430649483,0.06920631935211141,-0.33787753150703304,0.04952639463413505,0.025893283070672166,0.3855181932449341,2.0241737365722656,1.032351851463318,0.1526904553174972,0.0526028126478195,0.1912823021411895
1749052513.550488,-3.2696887464747615,-2.4296881657994382,-1.6565415376545758,5.690820272095658,-1.0407641215988044,-4.50191392986684,0.17041276349152643,0.07764414200280205,0.0696678538777305,-0.33870152587214436,0.0497140761266094,0.026015775943860803,0.4994696378707886,2.079406499862671,1.0798689126968384,0.1091581061482429,0.0217434540390968,0.1715368926525116
1749052513.5505264,-3.2693454323383957,-2.4295306558999545,-1.6564019534499421,5.690144111086829,-1.0406663517811974,-4.50185996424553,0.17100193605812625,0.07840362469134302,0.0700749748948351,-0.3395733390817906,0.0497783476540047,0.02614007105643723,0.4404579997062683,2.0569517612457275,1.037158727645874,0.1086149588227272,0.0490642897784709,0.1809557825326919
1749052513.550564,-3.269000868973389,-2.429371740307171,-1.6562619333357542,5.689465557661247,-1.0405679387190268,-4.501806086183122,0.17160814982301945,0.07917767342015757,0.07043345688194147,-0.34050567520395847,0.04972514943258324,0.026266315737035778,0.3840311765670776,1.9963657855987549,1.0298819541931152,0.1377913206815719,0.0550750121474266,0.1722993999719619
1749052513.550602,-3.268655262484808,-2.4292114478499336,-1.656121432124918,5.688784555968967,-1.0404691553946321,-4.501752451943053,0.17223434316586297,0.07992850679035692,0.07075346768404432,-0.34150532046552096,0.04956716233054933,0.026395528922016652,0.3959882259368896,1.9885870218276975,1.0092226266860962,0.1211763620376586,0.0529391318559646,0.174234390258789
1749052513.55064,-3.2683088196626815,-2.429049853751899,-1.655980329937732,5.688101088329474,-1.0403702658725003,-4.501699184923635,0.17288329609280673,0.08062066857295555,0.07104808146315558,-0.3425737861517701,0.049322579556269355,0.026529645997977504,0.4596773386001587,1.95799720287323,1.040086030960083,0.11871287971735,0.0327029451727867,0.1928082108497619
1749052513.5506775,-3.267961724464042,-2.428887073751868,-1.6558384490318452,5.68741516510412,-1.0402715104883835,-4.501646364824255,0.1735572201409071,0.08122553630790207,0.07133152847616415,-0.34370852937784724,0.049013560032158565,0.02667136636090931,0.4518669247627258,1.9658043384552,1.0496615171432495,0.0835066437721252,0.0416924208402633,0.1869668215513229
1749052513.5507147,-3.2676141179187255,-2.4287232530069467,-1.6556955792500765,5.686726804609543,-1.0401730949948598,-4.501594019154044,0.17425736352406435,0.08172500860258045,0.07161738597306266,-0.3449046062131675,0.04866456742197378,0.02682383203527047,0.389454573392868,1.9519813060760496,1.0146076679229736,0.062521643936634,0.0580334328114986,0.1774799823760986
1749052513.550752,-3.2672660838169127,-2.428558550938708,-1.655551508407447,5.686036005333356,-1.0400751833658417,-4.501542117055782,0.1749838122618576,0.08211388157126592,0.07191692920653353,-0.3461566095237527,0.048300752830184056,0.026990188372557417,0.4195136129856109,1.8917925357818604,1.0397542715072632,0.0908317044377327,0.0430422164499759,0.1807454973459243
1749052513.5507898,-3.2669176411247265,-2.4283931238869507,-1.6554060531608314,5.685342714778264,-1.0399778932839774,-4.501490566154449,0.17573557074968726,0.08240058182556212,0.07223783171021886,-0.3474606589327228,0.047946512823373415,0.027173086010005554,0.3973193764686584,1.9402942657470703,1.0462833642959597,0.1043738722801208,0.0410949923098087,0.1823360323905944
1749052513.5508273,-3.266568742623244,-2.4282271079185183,-1.6552590861349634,5.684646800689732,-1.039881292932194,-4.501439213826716,0.17651089181088675,0.08260612191094581,0.07258334886217449,-0.34881608008259063,0.047624338086644714,0.027374188546049016,0.4307712316513061,1.9601926803588867,1.0508220195770264,0.1351065188646316,0.0573819950222969,0.1973956525325775
1749052513.5508647,-3.2662192785474047,-2.428060604155228,-1.6551105560288715,5.683948030730696,-1.0397853977338085,-4.501387854301221,0.17730775707820656,0.0827613842750213,0.07295205636981367,-0.3502263567878734,0.04735403162358835,0.027593752789133577,0.4225831031799316,1.9307498931884768,1.0215351581573486,0.1242295950651168,0.0534091591835022,0.1795973479747772
1749052513.5509017,-3.265869084097774,-2.4278936686352126,-1.6549604986060134,5.683246065712483,-1.0396901662931342,-4.5013362421995735,0.1781244002079798,0.0829030871815094,0.07333814307983982,-0.351699049752717,0.047152308076189815,0.0278303410297489,0.4747341871261596,1.999117612838745,1.0446062088012695,0.0940484479069709,0.063565194606781,0.1918458640575409
1749052513.5509388,-3.2655179500707723,-2.427726308198687,-1.6548090376217541,5.682540469448313,-1.039595496113039,-4.501284111825105,0.17895979558945263,0.08306898297825695,0.07373218110362341,-0.3532446181973874,0.04703270477333823,0.028080707233489467,0.4573805928230285,2.0171024799346924,1.0176798105239868,0.0545581802725791,0.0694597065448761,0.1892910152673721
1749052513.5509758,-3.2651656360053996,-2.4275584831669774,-1.6546563758811044,5.681830735539819,-1.039501221338364,-4.501231200171225,0.17981405641526074,0.08329294775732449,0.07412223969695303,-0.35487434608061463,0.04700566900074606,0.028339877940175465,0.3914054930210113,2.019811153411865,1.010841965675354,0.0642460584640502,0.0742054805159568,0.1748193055391311
