nimar13/UR3e_dataset_trayectorias/trayectorias_ejecutadas_filtradas/trapezoidal/trayectoria_030_result_filtrado.csv
timestamp,q1,q2,q3,q4,q5,q6,qd1,qd2,qd3,qd4,qd5,qd6,tau1,tau2,tau3,tau4,tau5,tau6
1749046928.5982926,-4.183058287544482,-0.7647182837530867,0.5346974915155968,5.354832722321335,-0.7244470259165627,5.28915822067451,0.005211020998756867,-0.0005768497669812535,-0.00012521639474724608,-0.00261362023406377,0.0006913727869172547,-0.0027096489481139583,-0.0732721909880638,-1.5628620386123655,-1.1560968160629272,-0.2825947403907776,0.2397105693817138,0.0145104229450225
1749046928.5983448,-4.183047891163388,-0.7647250930563205,0.5346944738637234,5.354826793538464,-0.7244427649941321,5.289155448510709,0.004905824490469579,-0.0005536437758391052,-0.00011480687797523047,-0.002582834210936071,0.000657397524031737,-0.0029002691195671375,-0.0579866170883178,-1.5720651149749756,-1.152914047241211,-0.2812385261058807,0.2541292607784271,-0.0008221566677093
1749046928.5983863,-4.183037898068529,-0.7647316545077107,0.5346915500114545,5.354821079522277,-0.7244385346493604,5.2891526313848285,0.004598491501771567,-0.0005309632881051273,-0.00010440422208051993,-0.002550076747029193,0.0006243956859271225,-0.0030772807686709545,-0.0632049292325973,-1.553297758102417,-1.1553044319152832,-0.2997870445251465,0.2396393120288849,-0.0037617981433868
1749046928.598425,-4.1830286356124295,-0.7647377206091718,0.5346888025941217,5.3548157325068715,-0.724434424595862,5.28914969852654,0.00428648545844558,-0.0005087376183570149,-9.47282092313028e-05,-0.0025114532160159975,0.0005929789064578172,-0.003226595840546133,-0.0623502507805824,-1.579743266105652,-1.1523133516311646,-0.2858873307704925,0.2403495609760284,0.0100989043712615
1749046928.5984676,-4.183020392811142,-0.764743084497322,0.5346863026605109,5.354810868129332,-0.7244305065107601,5.28914660954096,0.003967954204094933,-0.0004868657462843381,-8.660654854876628e-05,-0.0024640029366839646,0.0005636151428115553,-0.0033367455639543245,-0.0875367522239685,-1.548182249069214,-1.147448182106018,-0.2790236175060272,0.2419829368591308,0.0108565390110015
1749046928.5985067,-4.183013403102046,-0.7647475940325458,0.5346841066995114,5.354806555751034,-0.7244268324619684,5.2891433620155786,0.003642099172566792,-0.0004652230308333377,-8.091476176625887e-05,-0.002405881355130121,0.0005365877851850036,-0.003399718593604078,-0.0833603367209434,-1.5500900745391846,-1.15400493144989,-0.2826817333698272,0.241127997636795,0.0079651772975921
1749046928.5985444,-4.183007828957607,-0.7647511590759329,0.534682254909941,5.354802814301721,-0.7244234391486793,5.2891399921031015,0.0033094653506856664,-0.00044366552544069875,-7.849477690645487e-05,-0.0023363542957384785,0.0005119786509062765,-0.0034113798127302455,-0.0821704119443893,-1.5539028644561768,-1.1548969745635986,-0.2943592965602875,0.2456004321575164,0.0112621784210205
1749046928.5985816,-4.183003750016443,-0.7647537519853338,0.5346807703838244,5.35479961434804,-0.7244203560046826,5.289136568273781,0.0029721049296011015,-0.0004220337775854913,-8.005539385127598e-05,-0.002255603283649897,0.0004896762981063771,-0.0033714391055434923,-0.0684002861380577,-1.5618023872375488,-1.1654618978500366,-0.2822537720203399,0.2262848019599914,0.0148537904024124
1749046928.598619,-4.183001156542186,-0.7647554022422545,0.5346796589737141,5.354796886027847,-0.7244176141352356,5.289133179662115,0.002633574922670941,-0.00040015865746894887,-8.606060541934908e-05,-0.002164379021651636,0.0004694068308692198,-0.0032830045701109727,-0.0684002861380577,-1.5618023872375488,-1.1654618978500366,-0.2822537720203399,0.2262848019599914,0.0148537904024124
1749046928.5986564,-4.182999949740132,-0.7647561867378576,0.5346789099065328,5.354794531439506,-0.7244152530536072,5.289129921190902,0.0022987485644647633,-0.00037787134375861614,-9.661470926201378e-05,-0.0020635731646869073,0.0004507810383807602,-0.0031518085970597275,-0.0906179770827293,-1.5551353693008425,-1.165944218635559,-0.2864817678928375,0.238139808177948,-0.0034830570220947
1749046928.5986936,-4.182999949774518,-0.7647562175903775,0.5346784974431291,5.354792439470156,-0.7244133230144327,5.289126878038909,0.001973449267585462,-0.00035501846790621987,-0.00011135595714457709,-0.0019537943615104514,0.0004333499037210268,-0.0029852305743256224,-0.0756812691688537,-1.56879460811615,-1.1655482053756714,-0.2988575994968414,0.2217347919940948,0.0070169568061828
1749046928.5987313,-4.183000911484027,-0.7647556293588883,0.5346783838416292,5.354790501075313,-0.7244118820264148,5.289124112192106,0.0016639485034520337,-0.0003314821351492553,-0.00012937282562754872,-0.0018350310747586658,0.00041666046716224233,-0.002791257198076515,-0.0496836863458156,-1.5173285007476809,-1.1597825288772583,-0.2787759602069855,0.231692761182785,0.0016717314720153
1749046928.5987766,-4.183002546896885,-0.7647545671645226,0.5346785235256734,5.354788623388124,-0.7244109879956411,5.289121653654172,0.0013763951557000558,-0.00030720339711264553,-0.000149158452559092,-0.0017064675793947667,0.00040030555206456875,-0.0025775221087098355,-0.0889004170894622,-1.530763864517212,-1.152814269065857,-0.2889645397663116,0.2299748659133911,0.0009180307388305
1749046928.5988157,-4.183004552614677,-0.7647531766679478,0.5346788679069077,5.354786741253564,-0.7244106875733374,5.289119498084598,0.0011162527962870288,-0.0002822066904876607,-0.00016861892001765404,-0.0015664982715115606,0.00038396327322662435,-0.002350550321180164,-0.0722671970725059,-1.5375158786773682,-1.1494330167770386,-0.2898546159267425,0.2309092581272125,0.0041949450969696
1749046928.5988529,-4.183006639069866,-0.7647515962633948,0.5346793700581997,5.354784824740908,-0.7244110038961932,5.289117611149253,0.000887809877697202,-0.00025662170334238293,-0.00018514947338388365,-0.001412963403819736,0.0003674246478267322,-0.002115300650775421,-0.0867927223443985,-1.502861261367798,-1.151116967201233,-0.2687454223632812,0.2346003949642181,0.0019731521606445
1749046928.5988944,-4.183008557958802,-0.7647499513945881,0.5346799884777043,5.354782881304133,-0.7244119253977727,5.289115938218223,0.0006938040951706329,-0.00023069830194797259,-0.00019578918192239743,-0.0012436080091494431,0.00035060940160233303,-0.001875056965465645,-0.0897465720772743,-1.4925347566604614,-1.157884955406189,-0.280300110578537,0.2253495752811432,0.0004773139953613
1749046928.598932,-4.183010124181016,-0.7647483506683751,0.5346806894168037,5.354780951966657,-0.7244133974288594,5.2891144169496505,0.0005351778467996098,-0.00020480994670650832,-0.0001974588798486667,-0.001056743959448289,0.0003335710447233384,-0.0016316749440325531,-0.0897465720772743,-1.4925347566604614,-1.157884955406189,-0.280300110578537,0.2253495752811432,0.0004773139953613
1749046928.598969,-4.183011229419877,-0.7647468834055536,0.5346814475406443,5.354779102074471,-0.7244153179933771,5.289112990019267,0.0004109638950977623,-0.0001794417640250689,-0.00018727958440530065,-0.000852070632900507,0.0003164925699467064,-0.0013861509143421747,-0.0744028538465499,-1.5088376998901367,-1.1599764823913574,-0.2834024131298065,0.22800213098526,-0.0058295130729675
1749046928.599006,-4.183011845758851,-0.7647456183136426,0.5346822449751549,5.354777408220003,-0.7244175387208,5.2891116154888635,0.00031829090723025,-0.00015516128097483396,-0.0001629593115932524,-0.0006315822073363078,0.0002996738791557112,-0.0011394453489276318,-0.0744248032569885,-1.487947940826416,-1.1697360277175903,-0.2884802222251892,0.2149857580661773,0.0095153450965881
1749046928.5990431,-4.183012019079823,-0.764744603035256,0.5346830690048191,5.354775943473497,-0.7244198719867192,5.289110272769475,0.0002524967311106572,-0.00013257268881772513,-0.00012322592594687096,-0.00040046261806537164,0.00028351154699728673,-0.0008934659282020685,-0.0744248032569885,-1.487947940826416,-1.1697360277175903,-0.2884802222251892,0.2149857580661773,0.0095153450965881
1749046928.599084,-4.183011853374049,-0.7647438644426506,0.5346839088188993,5.354774763038992,-0.7244221044200805,5.28910896289992,0.00020733990645865747,-0.00011225877125095959,-6.827327787261938e-05,-0.00016784870526139386,0.0002684710775081123,-0.00065209364963101,-0.0867808610200882,-1.4825499057769775,-1.1674517393112185,-0.2773968279361725,0.2056300044059753,0.0019495487213134
1749046928.5991209,-4.18301148860108,-0.7647434096986786,0.5346847518636882,5.3547738920126555,-0.7244240158643354,5.289107702989999,0.00017530203230615608,-9.4717210763925e-05,-1.785555153792409e-07,5.266634750088e-05,0.00025505159225343993,-0.00042212074504564373,-0.111530065536499,-1.4774219989776611,-1.1719378232955933,-0.2844887375831604,0.2160702645778656,7.95125961303711e-05
1749046928.5992277,-4.183011076113878,-0.7647432281555736,0.5346855805437887,5.354773316206282,-0.7244254016472831,5.289106515838791,0.00014797173772947557,-8.029901495066649e-05,7.675815034866463e-05,0.00024291019206080196,0.0002437430173287526,-0.00021396351795302022,-0.0995798707008361,-1.4788966178894043,-1.163759708404541,-0.2630363702774048,0.2113701403141021,-0.0009584426879882
1749046928.6007671,-4.183010756238312,-0.7647432940103424,0.5346863699897622,5.3547729762086345,-0.7244260952468228,5.289105416462924,0.00011649561287770372,-6.915633838047068e-05,0.0001558041680162092,0.0003804869102649747,0.00023497640556506267,-4.202051209346004e-05,-0.114927090704441,-1.4765561819076538,-1.1637648344039917,-0.2808439135551452,0.1889981627464294,0.0103588104248046
1749046928.6422677,-4.183010641746516,-0.7647435694002241,0.5346870872340246,5.354772764291482,-0.7244259882707257,5.289104397473571,7.207499700294368e-05,-6.120576243347495e-05,0.0002277644530924713,0.0004396707923790674,0.0002290690525289015,7.54305759751982e-05,-0.098307266831398,-1.4684816598892212,-1.1706351041793823,-0.266934335231781,0.2232262194156646,0.0109628438949584
1749046928.642315,-4.183010808918671,-0.7647440075510051,0.5346876916281363,5.354772523673264,-0.7244250450078068,5.28910341519034,6.4812974439465e-06,-5.61118607648155e-05,0.0002811732730191126,0.00039284707698289596,0.00022616742011215954,0.00011686509242463636,-0.111530601978302,-1.473748803138733,-1.1907404661178589,-0.2852150797843933,0.2087647914886474,0.0050157904624938
1749046928.642359,-4.183011295805151,-0.764744555739466,0.5346881359519771,5.354772049958299,-0.7244233095237593,5.289102378185488,-8.74433987999686e-05,-5.3294837121222285e-05,0.000302733582759366,0.0002124468613789991,0.0002261923768718605,5.868804096793861e-05,-0.1273165047168731,-1.4499536752700806,-1.189357876777649,-0.2835718989372253,0.2046203315258026,-0.0043803453445434
1749046928.642399,-4.183012106329207,-0.7647451580235168,0.5346883674427279,5.354771094886706,-0.7244209042030353,5.289101139544123,-0.0002153387491901792,-5.196490229402044e-05,0.000278007992228083,-0.00012674486231340623,0.00022879269467969768,-0.00012309251953694747,-0.1413752138614654,-1.4493296146392822,-1.1890521049499512,-0.2995898425579071,0.2066693902015686,-0.0045744180679321
1749046928.6424365,-4.183013219018015,-0.7647457577969478,0.5346883279381363,5.354769372552536,-0.7244180195736805,5.289099493707412,-0.0003809723741146001,-5.118453842188209e-05,0.0001923369064280315,-0.000645097322076819,0.00023331389227051872,-0.0004508106175262439,-0.1807017624378204,-1.476834416389465,-1.197708249092102,-0.3006806671619415,0.2061117589473724,-0.0047327280044555
1749046928.6424792,-4.183014599376338,-0.7647463002559161,0.5346879526326671,5.354766568040974,-0.7244148960948508,5.289097178660926,-0.0005860173984914898,-4.995788113532275e-05,3.192714566971551e-05,-0.0013557058829167937,0.00023879016266352125,-0.0009428853127291181,-0.1477723866701126,-1.4658948183059692,-1.2296714782714844,-0.3018659651279449,0.2059604525566101,-0.0224940180778503
1749046928.6425178,-4.18301621438849,-0.7647467348369461,0.5346871675539907,5.354762348264447,-0.7244117994276801,5.289093884263351,-0.000829986882817505,-4.7344354431505825e-05,-0.00021497854371070778,-0.002262311478526323,0.00024396704492221622,-0.0016115901457567066,-0.1430740654468536,-1.4770982265472412,-1.2286756038665771,-0.336929053068161,0.1948122680187225,-0.0160541534423828
1749046928.6425552,-4.183018046605994,-0.7647470175807906,0.5346858864136453,5.3547563747642375,-0.7244089916796391,5.289089267149994,-0.0011103301277247423,-4.259158787275418e-05,-0.0005569694778239932,-0.0033578506906145867,0.0002473615167772361,-0.002461101139235617,-0.1668932735919952,-1.488057255744934,-1.2497773170471191,-0.3428900241851806,0.1944071650505066,-0.0312041342258453
1749046928.642593,-4.183020104743987,-0.7647471132572787,0.5346840076392366,5.354748318286979,-0.7244067021491245,5.289082971735941,-0.0014226740656299074,-3.5280591629061315e-05,-0.0009985094247249348,-0.004623869132213648,0.00024736416944331455,-0.0034860631051100255,-0.1969997733831405,-1.4882442951202393,-1.280765414237976,-0.3443545401096344,0.1958985030651092,-0.0250778198242187
1749046928.64263,-4.183022428404503,-0.7647469970705258,0.5346814122378278,5.354737874869484,-0.7244051018178775,5.289074655707914,-0.001761182037824227,-2.547422164020317e-05,-0.0015392908839707627,-0.006030929620655195,0.00024238503756499852,-0.004670865352717949,-0.1969997733831405,-1.4882442951202393,-1.280765414237976,-0.3443545401096344,0.1958985030651092,-0.0250778198242187
1749046928.6426673,-4.183025086255166,-0.7647466558708346,0.5346779629897236,5.354724782893426,-0.7244042856283024,5.289064017382218,-0.002119006599861716,-1.3858258452974795e-05,-0.002174013031315911,-0.00754002161123734,0.00023104055758484078,-0.005989747616567804,-0.1839201748371124,-1.5072929859161377,-1.2964985370635986,-0.3571542799472809,0.1751695871353149,-0.0319400429725647
1749046928.6427047,-4.18302816875769,-0.7647460889545956,0.5346735054784519,5.354708840186578,-0.7244042650833296,5.2890508216455485,-0.002488821748544699,-1.863135470641967e-06,-0.002892637338243324,-0.009104874697483898,0.00021237422570649983,-0.007407788006068839,-0.2011007070541381,-1.5170996189117432,-1.2827439308166504,-0.3606312870979309,0.203053593635559,-0.0411446690559387
1749046928.6427417,-4.183031777570565,-0.7647453086576349,0.5346678715470926,5.354689919865094,-0.7244049714239409,5.2890349211038625,-0.0028634161793390954,8.246284746097146e-06,-0.0036810903393630235,-0.010675019422928205,0.00018609821974552906,-0.00888276673183381,-0.2103492617607116,-1.5439035892486572,-1.2735004425048828,-0.3944368958473205,0.1843731701374054,-0.0495694875717163
1749046928.6427858,-4.183036014009728,-0.7647443409855358,0.5346608857942302,5.354667983226027,-0.7244062677209512,5.289016269680224,-0.0032363059393423895,1.3325197935186344e-05,-0.004522296543141151,-0.012199402463936379,0.00015283810284727703,-0.010367841161451747,-0.2022567093372345,-1.5784430503845217,-1.2989472150802612,-0.3993688225746155,0.2076783180236816,-0.0663098990917205
1749046928.642824,-4.183040968788399,-0.7647432264650038,0.5346523755087711,5.3546430876208975,-0.7244079673283195,5.288994927082666,-0.0036022930646578857,9.358353643029658e-06,-0.005397373266696174,-0.01363031675326357,0.00011435839547774531,-0.011814895553331508,-0.2120928466320037,-1.5895190238952637,-1.303802490234375,-0.4283734560012817,0.1995137631893158,-0.0642635226249694
1749046928.642861,-4.183046714770161,-0.7647420212611227,0.5346421837956586,5.354615387142983,-0.7244098559201666,5.28897105389265,-0.003957880486243468,-8.467910235684242e-06,-0.006286824859017158,-0.014927340388022103,7.374396759213429e-05,-0.013178343527377227,-0.223253458738327,-1.5925884246826172,-1.3171889781951904,-0.4076994657516479,0.1869501769542694,-0.0833282470703125
1749046928.642898,-4.183053303548859,-0.7647407983891402,0.5346301846145367,5.354585124528843,-0.724411714172535,5.288944898099747,-0.004301472861062727,-4.562854880487344e-05,-0.0071716211858010755,-0.016060909783805213,3.5511541492439334e-05,-0.014419076114987576,-0.2278224229812622,-1.6051568984985352,-1.3139317035675049,-0.3889669179916382,0.2017134130001068,-0.0853633880615234
1749046928.6429348,-4.183060765506972,-0.7647396485798488,0.5346162975041596,5.354552613920289,-0.7244133380839956,5.2889167745774515,-0.00463334508630158,-0.000108061400307485,-0.008034097963911992,-0.01701512075233942,5.6277104520515595e-06,-0.015508178776770756,-0.2452030777931213,-1.6329549551010132,-1.3059735298156738,-0.3870741724967956,0.2218848764896392,-0.0835815668106079
1749046928.642971,-4.183069112123924,-0.7647386801299965,0.5346004994256836,5.354518215537542,-0.724414554416322,5.288887039312528,-0.004955417930570889,-0.0002019178682823158,-0.00885865272071237,-0.01778939974965924,-8.584816358274833e-06,-0.016430003119351156,-0.2296659052371978,-1.6256136894226074,-1.314347267150879,-0.3796491622924804,0.218978464603424,-0.0795506834983825
1749046928.6430078,-4.183078339035037,-0.7647380170426704,0.5345828315480247,5.354482304296064,-0.7244152299286313,5.288856060270669,-0.005270914201418831,-0.00033327816570372565,-0.00963223356385994,-0.01839883257962084,1.3375566844298526e-06,-0.017184191289013277,-0.2613548934459686,-1.6315433979034424,-1.3159921169281006,-0.4090784192085266,0.2301259934902191,-0.0725204497575759
1749046928.6431203,-4.183088428632825,-0.7647377950820344,0.5345633996250692,5.354445234852768,-0.7244152744886234,5.288824186726011,-0.005583969404858296,-0.0005078479239664243,-0.010344637336985579,-0.018873139334472825,4.4664411531438726e-05,-0.017786329333459684,-0.248350441455841,-1.658388614654541,-1.3134441375732422,-0.4058579206466675,0.2433226704597473,-0.0555941313505172
1749046928.6447954,-4.18309935171506,-0.764738155954603,0.5345423675347206,5.354407305807193,-0.7244146390259356,5.288791718796059,-0.0058992484152353905,-0.0007306486471707307,-0.010988647720736105,-0.019254466261422132,0.00013103200543641846,-0.01826705384073492,-0.2775682806968689,-1.6428062915802002,-1.315082311630249,-0.4208007454872131,0.2656944692134857,-0.0677114725112915
1749046928.686279,-4.183111068544309,-0.7647392403204268,0.5345199444392531,5.354368726040945,-0.7244133093416282,5.288758878809385,-0.006221591654196224,-0.001005705565690794,-0.01156004799437632,-0.01959427208913595,0.00026992852163153246,-0.018669634918309842,-0.2565972208976745,-1.667837381362915,-1.3175668716430664,-0.4100859463214874,0.2691351473331451,-0.0719648301601409
1749046928.6863253,-4.183123530199736,-0.7647411804589143,0.5344963669234527,5.354329586355121,-0.7244112964034712,5.288725786056296,-0.006555694593280649,-0.0013357298400307055,-0.012057538274808929,-0.019949616449693362,0.0004701442432273851,-0.01904626622328216,-0.2704396247863769,-1.6761209964752195,-1.322704553604126,-0.430290937423706,0.2614476382732391,-0.0879709422588348
1749046928.6863651,-4.183136681073649,-0.7647440932959421,0.5344718783419519,5.35428983947283,-0.7244086236160645,5.288692436683862,-0.006905819689504045,-0.0017217976388960784,-0.012482576946817855,-0.02037914638130953,0.0007392326589588439,-0.01945346106077859,-0.2952046990394592,-1.7152011394500732,-1.3324536085128784,-0.4354318380355835,0.3061035871505737,-0.109232559800148
1749046928.686404,-4.183150463090704,-0.7647480743768355,0.534446708256947,5.3542492910335895,-0.7244053120217916,5.28865869105104,-0.007275547001653609,-0.0021630488882862548,-0.012839155488069858,-0.020939057182770723,0.0010830251646635719,-0.019947052053318412,-0.2952046990394592,-1.7152011394500732,-1.3324536085128784,-0.4354318380355835,0.3061035871505737,-0.109232559800148
1749046928.686443,-4.183164821906007,-0.7647531932332539,0.5344210549554049,5.3542076033171835,-0.7244013652186017,5.288624271205324,-0.007667577110662787,-0.00265645264383057,-0.013133511168309454,-0.021679288828719463,0.0015052286031471032,-0.020577316482841,-0.2798192203044891,-1.7189794778823853,-1.3308100700378418,-0.4590097963809967,0.2926772534847259,-0.0970534831285476
1749046928.6864812,-4.183179714854604,-0.7647594903730561,0.5343950733446834,5.354164311986289,-0.724396756348333,5.288588770542535,-0.008083597482109845,-0.003196697168124098,-0.013373786802918553,-0.02264020639963248,0.0020071139851151752,-0.021384711132683927,-0.3081458210945129,-1.7299824953079224,-1.3270411491394043,-0.4724183678627014,0.301801323890686,-0.1122978180646896
1749046928.6865191,-4.183195119807119,-0.7647669759411556,0.5343688691306735,5.354118854341359,-0.7243914194264122,5.2885516760745315,-0.008524212183993187,-0.003776250889076844,-0.013569655708837836,-0.02384999527649613,0.002587283475084338,-0.022396614163086165,-0.3333609700202942,-1.7216137647628784,-1.3249876499176023,-0.4658874869346618,0.3157213628292084,-0.1229276210069656
1749046928.6865587,-4.183211043602099,-0.7647756301052231,0.5343424986195177,5.3540706059930585,-0.7243852466798155,5.288512401682979,-0.008988924340170098,-0.004385609668085186,-0.013731931687077875,-0.02532296923291942,0.003241492662748409,-0.023625353347891443,-0.3185381889343261,-1.7212443351745603,-1.310325264930725,-0.4995995759963989,0.3329022824764251,-0.1181081235408783
1749046928.6866002,-4.183227528528473,-0.764785405352966,0.5343159723979878,5.354018921917998,-0.7243780927579676,5.288470329023288,-0.009476157372448585,-0.005013712129634235,-0.013872173044758662,-0.027058932132363128,0.0039625163744307105,-0.025067664817753185,-0.3226182758808136,-1.7310748100280762,-1.3104548454284668,-0.5024556517601013,0.3420768678188324,-0.1316569447517395
1749046928.6866384,-4.183244655381049,-0.7647962309104757,0.5342892608932633,5.3539631776252605,-0.7243697858770155,5.288424851794982,-0.009983303503276536,-0.00564848428623441,-0.014002275442245925,-0.0290436481115119,0.004740076550231947,-0.02670558582901816,-0.3345426619052887,-1.7590537071228027,-1.3184131383895874,-0.5137491226196289,0.3442458212375641,-0.1416549682617187
1749046928.6866758,-4.183262541886775,-0.7648080192441736,0.5342623003129551,5.353902806458578,-0.7243601451486307,5.288375418893198,-0.010506791525722146,-0.006277470184162195,-0.01413404496284957,-0.03125036704991324,0.00556088383657418,-0.028508648440431605,-0.3403914272785187,-1.7858338356018066,-1.343321681022644,-0.5322713851928711,0.3644136488437652,-0.1468764841556549
1749046928.6867137,-4.183281335859428,-0.7648206741876823,0.5342349982901282,5.35383732976521,-0.7243490023697516,5.28832157215038,-0.011042167771425169,-0.006888504136206879,-0.014278754022965506,-0.033642237732276044,0.006408863021544421,-0.030437116338353117,-0.3285829126834869,-1.7563031911849976,-1.3236864805221558,-0.5194820761680603,0.3643916249275207,-0.1468605101108551
1749046928.6867528,-4.183301203283873,-0.7648340998593172,0.5342072392454398,5.353766377780236,-0.7243362253779007,5.288262974850173,-0.01158418442636492,-0.007470369367452364,-0.014446699577586512,-0.036175342872175165,0.007265626863629742,-0.03244590272252314,-0.3179703056812286,-1.737945795059204,-1.3247312307357788,-0.5258855223655701,0.3832023441791534,-0.1516667008399963
1749046928.6867907,-4.183322312527215,-0.7648482093283735,0.5341788899169366,5.353689700583681,-0.7243217391034872,5.288199428292407,-0.012126890972879025,-0.008013373549629554,-0.01464679623682684,-0.03880202892389663,0.008111230065847054,-0.0344887374862994,-0.3252775073051452,-1.7748719453811646,-1.3352892398834229,-0.5470654368400574,0.3752498626708984,-0.1441818922758102
1749046928.6868277,-4.183344816803638,-0.764862931949818,0.5341498058003126,5.353607170031404,-0.724305540341868,5.288130875494707,-0.012663732183375196,-0.008509775814372796,-0.014886243987650108,-0.04147419156502399,0.008925179893618568,-0.03652213749247534,-0.3252775073051452,-1.7748719453811646,-1.3352892398834229,-0.5470654368400574,0.3752498626708984,-0.1441818922758102
1749046928.6868658,-4.183368837555224,-0.7648782184108452,0.5341198392196232,5.353518774444474,-0.7242877034238869,5.288057392894935,-0.013187669093628888,-0.008954033401426933,-0.015170308596257863,-0.044146217622452515,0.00968762204426566,-0.03850878908543487,-0.3156965970993042,-1.8080378770828247,-1.322474718093872,-0.533271074295044,0.3847926259040832,-0.1719468683004379
1749046928.6869226,-4.1833944511880015,-0.7648940428433513,0.5340888490759449,5.353424607692199,-0.724268376058064,5.287979171820755,-0.01369134941201947,-0.0093428820960142,-0.015502236531040084,-0.04677736692136207,0.010380586600594788,-0.040420068919374386,-0.3055866360664367,-1.8069137334823608,-1.303513765335083,-0.5266177654266357,0.3771427273750305,-0.1675641983747482
1749046928.6869595,-4.183421680578078,-0.7649104017811463,0.5340567111870512,5.353324853642341,-0.7242477667176868,5.287896491588118,-0.014167351945170483,-0.00967529458691807,-0.01588329786327508,-0.04933347884674442,0.010989180171329993,-0.042237572492424796,-0.3263584077358246,-1.8378536701202397,-1.3109793663024902,-0.5335081219673157,0.3852079510688782,-0.18031907081604
1749046928.6869962,-4.183450491468198,-0.7649273101025673,0.5340233273615431,5.353219766686233,-0.7242261262065135,5.287809686166031,-0.014608513348958555,-0.009952361081162544,-0.016312926328710422,-0.0517879808988914,0.011502633873553441,-0.04395364587563823,-0.3401649296283722,-1.8384809494018557,-1.3175735473632812,-0.5371383428573608,0.4116145372390747,-0.164776474237442
1749046928.6870377,-4.183480793037402,-0.7649447943706835,0.5339886315814442,5.353109649518553,-0.7242037262425077,5.287719106869782,-0.015008319638497086,-0.010177114470031076,-0.016788919275726556,-0.05412224803284882,0.011915140975701628,-0.04557100116904195,-0.3442540466785431,-1.82124662399292,-1.320133924484253,-0.5150268077850342,0.4147470593452453,-0.1522885710000991
1749046928.6872635,-4.183512441798509,-0.7649628842935289,0.5339525926221302,5.352994830216157,-0.7241808374307966,5.287625084359647,-0.01536131934905734,-0.010354297589794333,-0.017307666947548456,-0.056325413371826206,0.012226427566688469,-0.04710154462268649,-0.3400946259498596,-1.8302801847457888,-1.3205578327178955,-0.5396625995635986,0.4104909002780914,-0.1619719862937927
1749046928.6888547,-4.1835452482087625,-0.7649816033583395,0.533915213312946,5.352875641353145,-0.7241577084636993,5.287527894011668,-0.01566350121193496,-0.010490060997875196,-0.017864386129765333,-0.05839376329754777,0.012441992613363017,-0.04856457459661424,-0.2948092818260193,-1.8601369857788088,-1.314732789993286,-0.5353821516036987,0.4127780497074127,-0.1703005880117416
1749046928.730266,-4.183578985531129,-0.765000959914251,0.5338765270377979,5.352752403860926,-0.7241345481662812,5.287427729143571,-0.015912582669625457,-0.0105915907275129,-0.01845333317079521,-0.06032986140544101,0.012572944578291667,-0.04998452546456968,-0.2948092818260193,-1.8601369857788088,-1.314732789993286,-0.5353821516036987,0.4127780497074127,-0.1703005880117416
1749046928.7303114,-4.183613400468233,-0.7650209400851847,0.5338365921839411,5.35262541719622,-0.7241115119418643,5.287324685999903,-0.016108172825430183,-0.01066668601323172,-0.01906797501159812,-0.062141541050226914,0.01263537399348853,-0.051388445776373054,-0.3156051635742187,-1.8603674173355105,-1.3161576986312866,-0.5323989391326904,0.4068254232406616,-0.1755721569061279
1749046928.7303522,-4.183648225057766,-0.7650415038833975,0.533795485319171,5.35249495529208,-0.7240886937618407,5.287218762365776,-0.016251794344809157,-0.01072332405084595,-0.019701113662222835,-0.0638408927650628,0.012649249359161977,-0.05280340399785657,-0.3194877505302429,-1.852134704589844,-1.3270397186279297,-0.5301445126533508,0.4116526544094085,-0.1835016906261444
1749046928.7303965,-4.183683189344829,-0.765062585577399,0.5337532939400057,5.352361265730749,-0.7240661238388344,5.287109868796379,-0.016346765252775182,-0.010769257411143514,-0.020344986106987185,-0.06544335031226174,0.012636900447585798,-0.054254011910996734,-0.3116479814052582,-1.8743019104003904,-1.3212658166885376,-0.5333517789840698,0.4236663579940796,-0.1987584233283996
1749046928.730436,-4.183718034361544,-0.7650840986384766,0.5337101095669468,5.352224568750882,-0.7240437708888993,5.286997849178244,-0.01639795293738668,-0.010811689233421748,-0.020991382333901146,-0.06696694155987605,0.01262123553467795,-0.05576024391566727,-0.317250519990921,-1.8700900077819824,-1.318793535232544,-0.5182633399963379,0.4360806345939636,-0.1867042630910873
1749046928.7304757,-4.1837525248413225,-0.7651059446677846,0.5336660216811763,5.352085053430466,-0.7240215471731453,5.2868825066132885,-0.016411423923406342,-0.010857060010806802,-0.02163182519614158,-0.06843171862545432,0.012623900085915648,-0.05733570981770345,-0.2951879203319549,-1.874209761619568,-1.2970983982086182,-0.5297688245773315,0.4463897943496704,-0.1915604770183563
1749046928.730518,-4.183786460870662,-0.7651280249233979,0.5336211126838813,5.351942870163507,-0.723999314836568,5.286763631208012,-0.016394027373992662,-0.010910957392176311,-0.022257837059071854,-0.06985932487340163,0.012663601045448235,-0.058986503522664636,-0.3001479506492615,-1.8955789804458616,-1.2957799434661863,-0.5118414759635925,0.4252002835273742,-0.2168998420238495
1749046928.7305555,-4.183819687512776,-0.7651502525454031,0.5335754540491773,5.351798120642676,-0.7239768932653998,5.286641027499109,-0.016352963486538984,-0.010978132746710062,-0.022861290384862995,-0.0712726054130073,0.012754783775006003,-0.060710691471221594,-0.2844343483448028,-1.9084038734436035,-1.2959083318710327,-0.5390550494194031,0.4353172183036804,-0.2049411535263061
1749046928.7305925,-4.183852101549624,-0.7651725632642112,0.533529104116415,5.351650848227759,-0.7239540684529001,5.286514540260178,-0.016295390724317835,-0.011062583671352834,-0.023434812901764353,-0.07269513478644685,0.01290677236559411,-0.06249843189233763,-0.2844343483448028,-1.9084038734436035,-1.2959083318710327,-0.5390550494194031,0.4353172183036804,-0.2049411535263061
1749046928.730629,-4.183883654930688,-0.7651949223842908,0.5334821080653428,5.351501032008152,-0.7239306057896777,5.2863840776939774,-0.016228114607684606,-0.01116764699640256,-0.023972200284328653,-0.07415053178254324,0.013123404026127548,-0.06433266762457128,-0.328449934720993,-1.9089984893798828,-1.310740351676941,-0.5444358587265015,0.4500882625579834,-0.2131460160017013
1749046928.7306654,-4.183914355125234,-0.7652173265056872,0.5334345001677546,5.351348586686244,-0.7239062668922855,5.286249630245264,-0.016157381900888265,-0.011296049285176116,-0.02446878776626901,-0.07566146106566292,0.013403137891137078,-0.06619034198134531,-0.2953536510467529,-1.9496378898620603,-1.288429856300354,-0.506971001625061,0.4460667371749878,-0.2002381384372711
1749046928.7307022,-4.183944263016276,-0.7652397998458141,0.5333863075795733,5.351193368382522,-0.7238808294411344,5.286111282166607,-0.016088784513100113,-0.011449885981609372,-0.024921748328736493,-0.07724828382941416,0.013739602388846741,-0.06804412018447246,-0.2925615310668945,-1.943107843399048,-1.2884767055511477,-0.5384871959686279,0.460631251335144,-0.2239625006914138
1749046928.7307384,-4.18397348891326,-0.7652623865908005,0.533337554268761,5.351035184982117,-0.7238541074468333,5.2859692128574665,-0.0160272589754145,-0.011630539055065831,-0.025330308058788317,-0.07892741385029209,0.014122536968816317,-0.06986458781714268,-0.2983852922916412,-1.9457790851593015,-1.281972050666809,-0.548909068107605,0.4542943835258484,-0.2085394710302353
1749046928.7307749,-4.184002186797808,-0.7652851416976604,0.5332882635613646,5.350873809348601,-0.7238259687848755,5.285823686454725,-0.015977152401068156,-0.011838577289828357,-0.02569588255797727,-0.08070954628705723,0.014539055231021171,-0.07162280991557715,-0.2941361963748932,-1.9642833471298216,-1.2920795679092407,-0.5634532570838928,0.4551918506622314,-0.1937058568000793
1749046928.7308197,-4.184030546620703,-0.7653081226553108,0.5332384582399009,5.350708994318581,-0.7237963474358536,5.285675030556581,-0.01594232012533915,-0.012073694986877116,-0.026022133368097854,-0.08259801043810043,0.014975106695874851,-0.07329301259780104,-0.3086080253124237,-1.9838343858718872,-1.2852331399917605,-0.5462812781333923,0.471210241317749,-0.1949851512908935
1749046928.730858,-4.184058784635578,-0.765331383994092,0.5331881579583734,5.350540489476583,-0.7237652490718036,5.285523607361158,-0.015926225211779613,-0.012334727644377446,-0.02631492555681954,-0.08458750687028618,0.015416967975036002,-0.07485506869493622,-0.28101247549057,-1.9487576484680176,-1.2852320671081543,-0.5349469184875488,0.4643633365631103,-0.2163621485233307
1749046928.7308946,-4.184087132063695,-0.7653549751565436,0.5331373746909883,5.350368060831271,-0.72373274973011,5.285369782136922,-0.01593201904991476,-0.01261974711710796,-0.026582152529728124,-0.08666342588125298,0.01585257421952692,-0.07629647761421593,-0.28101247549057,-1.9487576484680176,-1.2852320671081543,-0.5349469184875488,0.4643633365631103,-0.2163621485233307
1749046928.7309313,-4.184115822545113,-0.7653789412043793,0.5330861075964473,5.35019151455634,-0.723698988052268,5.285213894059804,-0.01596258705699317,-0.012926206397168008,-0.026833397382567466,-0.08880186977126606,0.01627251851589875,-0.07761362162111049,-0.3026068210601806,-1.984625577926636,-1.2906999588012695,-0.5632736682891846,0.4432408213615417,-0.205380767583847
1749046928.7309673,-4.184145079014459,-0.7654033251355273,0.5330343386608163,5.350010723984866,-0.7236641520021252,5.285056232771359,-0.016020542680945167,-0.013251097341023147,-0.027079425455348676,-0.09097047375932579,0.016670604172948564,-0.07881220406269952,-0.300626277923584,-1.992948293685913,-1.303639531135559,-0.560195803642273,0.4641120433807373,-0.2062542885541916
1749046928.731004,-4.1841751010062564,-0.7654281704150733,0.532982029857394,5.349825655897763,-0.7236284612419301,5.284897021551048,-0.01610815365441924,-0.013591105961373525,-0.02733153932286228,-0.09313012349241344,0.017043926647110637,-0.07990687234897927,-0.29281085729599,-2.007795810699463,-1.3086858987808228,-0.5640054941177368,0.4625364542007446,-0.1906773000955581
1749046928.731117,-4.1842060537246315,-0.7654535226428094,0.5329291219084042,5.3496363900564745,-0.723592146675279,5.284736406384706,-0.01622719536191058,-0.013942778228340927,-0.027600858486795485,-0.0952376261095491,0.017392559574010553,-0.08092008215918191,-0.3107622563838959,-1.988932490348816,-1.308845281600952,-0.5716814994812012,0.4760648012161255,-0.193995714187622
1749046928.7328255,-4.1842380601676785,-0.7654794299865085,0.532875534547113,5.34944312634053,-0.7235554292687814,5.284574450048007,-0.01637874815911683,-0.014302719212147152,-0.02789759969127943,-0.09724926052237663,0.0177189824879273,-0.08188029325303797,-0.3012019395828247,-2.014211416244507,-1.3175532817840576,-0.5497528314590454,0.464291512966156,-0.1874856203794479
1749046928.774278,-4.184271197041612,-0.7655059426931337,0.532821168465738,5.34924617650422,-0.7235185008606817,5.284411131029791,-0.01656297875751243,-0.014667832276772642,-0.028230427737985057,-0.09912493870552098,0.018027396617814384,-0.08281962713077312,-0.323007732629776,-2.0196292400360107,-1.313937425613403,-0.5410177707672119,0.4893518090248108,-0.1969040781259536
1749046928.7743242,-4.184305494262363,-0.7655331121046568,0.5327659095309706,5.349045941332646,-0.7234815096654368,5.284246348029968,-0.016778956278032085,-0.015035575329770422,-0.028605927283580548,-0.10083251575920471,0.018323044107305335,-0.08377116469666417,-0.3000224828720093,-2.036806344985962,-1.3053951263427734,-0.510285496711731,0.4855103492736816,-0.2301990985870361
1749046928.774365,-4.184340936926183,-0.7655609891878583,0.5327096358951786,5.34884287742036,-0.7234445524229053,5.284079931314449,-0.017024544775526,-0.015404186854250823,-0.029028223986935057,-0.10235164914804665,0.018611603612123263,-0.08476610764302674,-0.3000224828720093,-2.036806344985962,-1.3053951263427734,-0.510285496711731,0.4855103492736816,-0.2301990985870361
1749046928.7744043,-4.184377468319657,-0.7655896223301731,0.5326522280263292,5.348637459340813,-0.7234076739271617,5.28391166157394,-0.017296393207718204,-0.015772829825954595,-0.0294987666359917,-0.10367658433995432,0.018898700760354405,-0.08583106164947783,-0.3222078382968902,-2.0156052112579346,-1.3235889673233032,-0.5102584958076477,0.5012482404708862,-0.23060342669487
1749046928.774443,-4.184414993177422,-0.7656190545098461,0.5325935805661922,5.3484301419417175,-0.7233708732406052,5.283741294790616,-0.01759002457682923,-0.016141621372068104,-0.03001627268607489,-0.10481737981835616,0.019189550536326375,-0.08698571201785338,-0.3202167749404907,-2.055408239364624,-1.3210878372192385,-0.5144424438476562,0.485394537448883,-0.2495471537113189
1749046928.7744808,-4.184453381638402,-0.7656493205977934,0.5325336138790691,5.348221325133424,-0.7233341144724731,5.2835685890531305,-0.01790001550055651,-0.016511552608601408,-0.030576837356179228,-0.10579934995354681,0.01948873630084239,-0.08824113893461134,-0.2877868115901947,-2.0279929637908936,-1.3323993682861328,-0.5200058817863464,0.5080565214157104,-0.2436787784099578
1749046928.774518,-4.184492475348711,-0.7656804459252609,0.5324722826872932,5.348011321919186,-0.7232973390677202,5.2833933279249665,-0.01822025380311104,-0.01688433852507379,-0.03117421038567587,-0.10666079080622178,0.019800120014819563,-0.08959895572090598,-0.3057343065738678,-2.056952953338623,-1.357660889625549,-0.5001522302627563,0.5072180032730103,-0.2463921755552292
1749046928.774556,-4.184532097248953,-0.7657124471858423,0.5324095794072986,5.347800330304376,-0.723260476504776,5.283215335509862,-0.018544260682077165,-0.017262254645108457,-0.031800249195954824,-0.1074492748032467,0.02012686510332679,-0.09105136552134059,-0.3150043487548828,-2.073671102523804,-1.3559719324111938,-0.5207545757293701,0.5113782286643982,-0.2633842825889587
1749046928.7745934,-4.184572065661333,-0.7657453363594563,0.5323455306007538,5.347588410323645,-0.7232234510527574,5.283034480289981,-0.018865562886293843,-0.01764800959271702,-0.032445548052141046,-0.10821696081422494,0.020471535101253113,-0.09258214538556843,-0.3229345977306366,-2.0799965858459477,-1.3333606719970703,-0.5338720083236694,0.4938286542892456,-0.2526330351829529
1749046928.774636,-4.184612211738191,-0.7657791276971011,0.5322801862671278,5.347375467910138,-0.7231861834653358,5.28285066738797,-0.019178096770973055,-0.01804467615067739,-0.03310020820356164,-0.10901549746489572,0.020836211303002377,-0.09416848823018775,-0.311927318572998,-2.087761402130127,-1.34225332736969,-0.5314210057258606,0.5293667316436768,-0.2577219605445862
1749046928.774684,-4.184652397871729,-0.7658138469015977,0.532213603371818,5.3471612475452845,-0.7231485878724004,5.282663821509769,-0.019476619465560903,-0.018455668938039852,-0.03375466363066736,-0.10989117269072517,0.021222562766813457,-0.09578354491360219,-0.3029191493988037,-2.077437162399292,-1.34066903591156,-0.5481374263763428,0.5167161822319031,-0.2185815572738647
1749046928.7747345,-4.184692533980574,-0.7658495407030161,0.5321458266680381,5.346945335648378,-0.7231105653289374,5.282473864965141,-0.019757095212769103,-0.01888472753777121,-0.03440044061321309,-0.11088092936735439,0.021631814140529275,-0.09739940502369523,-0.3060566782951355,-2.0895473957061768,-1.3236125707626345,-0.5727124214172363,0.5059095025062561,-0.2328764051198959
1749046928.7747808,-4.184732588794812,-0.7658862844450174,0.5320768710413735,5.346727176475235,-0.7230719962450829,5.282280696459668,-0.020017020488217185,-0.019335850978404852,-0.03503073345471827,-0.11200972210063032,0.022064590756433845,-0.09899017072652944,-0.318795382976532,-2.0934207439422607,-1.3510611057281494,-0.5525223016738892,0.5223779678344727,-0.265472412109375
1749046928.77482,-4.184772593972424,-0.7659241853615103,0.5320067098618619,5.346506101926302,-0.723032734306716,5.282084176632574,-0.020255651575027178,-0.019813136766131896,-0.035640726487971834,-0.11328947736805588,0.022520662539510558,-0.1005347549248301,-0.2903511226177215,-2.0926456451416016,-1.3549962043762207,-0.5611083507537842,0.5419856905937195,-0.2391114234924316
1749046928.7748573,-4.1848126398278565,-0.7659633799096577,0.5319352729748041,5.346281376171098,-0.7229926046643095,5.281884125642303,-0.020474103070453796,-0.020320500661726255,-0.036227659437709954,-0.11471968188207622,0.022998641117639315,-0.10201907304902137,-0.3130849003791809,-2.121466398239136,-1.3395382165908811,-0.57111656665802,0.541587233543396,-0.2059146165847778
1749046928.774895,-4.184852862677184,-0.766004024558491,0.531862455995379,5.346052254824998,-0.7229514089398636,5.281680336328867,-0.020675295674060186,-0.02086128477905124,-0.036790683035410714,-0.11628939634110401,0.023495698772732374,-0.10343736947797762,-0.3130849003791809,-2.121466398239136,-1.3395382165908811,-0.57111656665802,0.541587233543396,-0.2059146165847778
1749046928.7749326,-4.184893425341866,-0.7660462806675679,0.5317881396822398,5.3458180551641465,-0.7229089384520659,5.281472602823797,-0.02086374785483447,-0.021437795944044866,-0.037330567928256765,-0.1179803130010355,0.024007376369749634,-0.10479251806844049,-0.3130849003791809,-2.121466398239136,-1.3395382165908811,-0.57111656665802,0.541587233543396,-0.2059146165847778
1749046928.7749708,-4.184934493981653,-0.7660902955727736,0.5317122150609236,5.345578228176825,-0.7228649947742218,5.281260758803716,-0.02104522697688233,-0.022050846521956217,-0.037849328994160325,-0.1197703764265254,0.02452753797864169,-0.10609527202153228,-0.2991285920143127,-2.115668535232544,-1.364070177078247,-0.5780757665634155,0.5324352979660034,-0.2267878353595733
1749046928.7750084,-4.18497621551793,-0.7661361833692664,0.5316346080489635,5.345332418300007,-0.7228194140978251,5.281044714550094,-0.0212262939927638,-0.022699383425019846,-0.03834983052939329,-0.12163745620898543,0.02504851470154444,-0.10736259564661005,-0.3186805844306946,-2.1331686973571777,-1.3665032386779783,-0.58350670337677,0.5281171202659607,-0.244538813829422
1749046928.775046,-4.185018699689384,-0.7661840092545373,0.5315552978182341,5.345080497411559,-0.7227720903698683,5.280824481736138,-0.0214137855581726,-0.023380277927778286,-0.0388354405000143,-0.12356255907803358,0.02556145708114116,-0.10861534418202934,-0.3318000435829162,-2.1237881183624268,-1.3572404384613037,-0.5656004548072815,0.5570881366729736,-0.2353202253580093
1749046928.775151,-4.18506200822824,-0.7662337802073793,0.531474325678542,5.344822567027096,-0.7227229926385998,5.280600180265675,-0.021614279444725257,-0.024088314394660804,-0.03930978422242832,-0.1255320914975279,0.026056890144914344,-0.10987563181740033,-0.307252824306488,-2.123511552810669,-1.3672457933425903,-0.5680660009384155,0.5383321642875671,-0.2392225861549377
1749046928.7767897,-4.185106151778156,-0.7662854429065828,0.531391794100458,5.344558931885112,-0.7226721737708909,5.280372028497479,-0.021833588364444437,-0.024816377670364237,-0.03977660791031254,-0.1275387814338185,0.026525448931538305,-0.11116423783541798,-0.3244985342025757,-2.12726092338562,-1.3747648000717163,-0.5915619730949402,0.559143602848053,-0.2620633840560913
1749046928.822307,-4.185151093929738,-0.7663388882735394,0.5313078572072145,5.344290053730636,-0.7226197693808194,5.280140322197227,-0.02207632612121574,-0.02555581264145745,-0.040239725000155095,-0.129581078006941,0.026958761301403497,-0.1124983623225962,-0.2941527962684631,-2.0742924213409424,-1.3417282104492188,-0.5413880348205566,0.5545328259468079,-0.2356629222631454
1749046928.8223536,-4.185196761076651,-0.766393961332585,0.5312227047020037,5.344016494916235,-0.7225659869546398,5.27990540759253,-0.02234558834722119,-0.026296921067237338,-0.04070300721176114,-0.13166114540973922,0.027350418439636467,-0.11388997470295131,-0.3408383727073669,-2.1418182849884038,-1.3862497806549072,-0.5904604196548462,0.5622407793998718,-0.2589027881622314
1749046928.822394,-4.185243056300675,-0.7664504748754098,0.5311365414385709,5.343738859601726,-0.7225110861161155,5.279667651994433,-0.022642787115012785,-0.02702956540120311,-0.04117039512829705,-0.13378187942333153,0.02769692493941646,-0.11534491077139081,-0.3315430283546448,-2.1371006965637207,-1.3898273706436155,-0.6122879981994629,0.544204592704773,-0.2442815899848938
1749046928.8224363,-4.185289875217058,-0.7665082252634445,0.5310495649801729,5.343457738103691,-0.7224553519885453,5.279427413769438,-0.022967668718316753,-0.027743852327885846,-0.04164591412956723,-0.13594361119655565,0.027998473540291176,-0.11686277091156708,-0.347001314163208,-2.1350793838500977,-1.3720948696136477,-0.5959913730621338,0.5742833018302917,-0.234094962477684
1749046928.8224752,-4.1853371218162305,-0.7665670086329949,0.5309619435263226,5.343173658416809,-0.7223990645377313,5.279185012918105,-0.02331851702375012,-0.0284308528233538,-0.04213367110463095,-0.13814124491843546,0.028259376455002642,-0.11843756194684076,-0.3332111537456512,-2.135072946548462,-1.3738430738449097,-0.6401728987693787,0.5523017048835754,-0.2519767880439758
1749046928.822513,-4.185384722663364,-0.7666266360020907,0.5308737966521337,5.342887048370894,-0.7223424674939478,5.2789407040485505,-0.023692501008823832,-0.029083278633317573,-0.042637783851703324,-0.14036247779975483,0.028488017107346893,-0.12005892073291613,-0.3319862782955169,-2.116305351257324,-1.3881546258926392,-0.6289358139038086,0.5417754650115967,-0.2421482503414154
1749046928.8225515,-4.185432638130564,-0.7666869462416595,0.530785181423683,5.342598211697067,-0.7222857409171585,5.278694654446333,-0.02408608332956999,-0.02969599966616667,-0.043162187743105186,-0.1425875147597461,0.028696252091080298,-0.12171366990205534,-0.3319862782955169,-2.116305351257324,-1.3881546258926392,-0.6289358139038086,0.5417754650115967,-0.2421482503414154
1749046928.8225927,-4.1854808696867405,-0.766747816266817,0.5306960861508289,5.342307319990196,-0.7222289814081031,5.278446930078306,-0.024495392209260086,-0.03026628603203929,-0.04371029332789702,-0.14479038669700117,0.028898276586151784,-0.1233874029089963,-0.3295978009700775,-2.114065408706665,-1.4006733894348145,-0.6345303058624268,0.562949538230896,-0.2443892061710357
1749046928.8226311,-4.185529462772414,-0.7668091679621356,0.5306064328490437,5.342014419412738,-0.7221721929573208,5.2781974909470835,-0.024916483148904912,-0.030793710636512404,-0.04428452474338399,-0.14694166849176943,0.029109054360604396,-0.12506580782987822,-0.3096519112586975,-2.11332106590271,-1.381594181060791,-0.6120381355285645,0.5702947378158569,-0.2381024062633514
1749046928.8226829,-4.185578505226594,-0.7668709712956235,0.5305160877930755,5.341719447716544,-0.7221152896262921,5.277946195248872,-0.025345469974022747,-0.0312797391407452,-0.0448858241027212,-0.1490121138144773,0.029342493488118456,-0.12673552770579585,-0.3325255513191223,-2.1286003589630127,-1.40639328956604,-0.6004489064216614,0.5824146270751953,-0.244584783911705
1749046928.8227284,-4.185628121293511,-0.7669332429447219,0.5304248783353214,5.341422256648193,-0.7220581095134216,5.277692811418751,-0.025778561177474096,-0.03172712136347761,-0.045513239280628094,-0.150976521417378,0.029609607062715745,-0.1283844845942115,-0.329842746257782,-2.1100802421569824,-1.3945410251617432,-0.5904190540313721,0.5934627056121826,-0.2533226013183594
1749046928.822768,-4.185678461118475,-0.7669960398791664,0.5303326138466404,5.3411226374102165,-0.7220004383292311,5.2774370387037814,-0.02621207087370514,-0.0321392396114863,-0.04616371538328101,-0.15281707844905032,0.029916922272852902,-0.13000172093683887,-0.329842746257782,-2.1100802421569824,-1.3945410251617432,-0.5904190540313721,0.5934627056121826,-0.2533226013183594
1749046928.8228052,-4.185729685975995,-0.7670594480420053,0.5302391086442555,5.340820349452522,-0.7219420400572685,5.277178537868048,-0.026642471254289053,-0.03251955138866029,-0.046832187535331096,-0.15452554045664202,0.03026538338724031,-0.13157691771890517,-0.3212895691394806,-2.1062748432159424,-1.424691915512085,-0.5847469568252563,0.5980769395828247,-0.2383235394954681
1749046928.822843,-4.1857819504489555,-0.7671235674600954,0.530144204371812,5.340515152426908,-0.7218826911027866,5.276916971596137,-0.02706652249711711,-0.032871204185905285,-0.04751202964364561,-0.15610389430854996,0.03064993397266288,-0.13309982516301697,-0.3683367371559143,-2.092343330383301,-1.4475501775741575,-0.6032909154891968,0.5963665246963501,-0.2515920400619507
1749046928.8228917,-4.185835383807524,-0.7671884961877097,0.5300477886465901,5.340206838300376,-0.7218222132774362,5.2766520499871294,-0.02748147567090499,-0.03319682976301111,-0.04819584937570867,-0.15756351735555638,0.031059871548507582,-0.1345598704132735,-0.3252696394920349,-2.076847553253174,-1.4024009704589844,-0.6035700440406799,0.607599675655365,-0.2333664000034332
1749046928.8229382,-4.18589007333344,-0.7672543157504511,0.5299498068079027,5.339895258546431,-0.721760500697666,5.276383573330524,-0.02788530993249688,-0.03349847395292645,-0.048876531542370115,-0.15892317101728248,0.03147996121736206,-0.13594617751252633,-0.3145415186882019,-2.121532440185547,-1.3792643547058103,-0.6148363947868347,0.5934127569198608,-0.2509477138519287
1749046928.8229764,-4.185946052295055,-0.7673210801020806,0.5298502647911657,5.339580341649345,-0.7216975365065349,5.276111463921356,-0.028276944473165203,-0.0337776047936837,-0.049548340373628694,-0.160206363536609,0.03189218778790434,-0.13724815641925892,-0.3286972343921661,-2.101010799407959,-1.3695250749588013,-0.5945785045623779,0.5981327295303345,-0.2688060402870178
1749046928.8230138,-4.186003294799493,-0.7673888090521986,0.5297492230133796,5.339262097880954,-0.721633396886152,5.27583578045784,-0.028656364747087257,-0.03403516365690554,-0.05020784361977762,-0.16143865968880824,0.03227792940549085,-0.1384567002486852,-0.3407759070396423,-2.089045286178589,-1.4005935192108154,-0.6309248805046082,0.5963088870048523,-0.2355479001998901
1749046928.823051,-4.186061718690705,-0.7674574862361948,0.5296467828256427,5.338940610155873,-0.7215682416436642,5.275556711532193,-0.02902462680630617,-0.03427165400862013,-0.05085445311264821,-0.16264541945314867,0.03262026427984773,-0.13956587664296538,-0.3593595027923584,-2.089272975921631,-1.3814313411712646,-0.6307958364486694,0.5763401985168457,-0.2432598173618316
1749046928.823092,-4.186121196147674,-0.767527061206676,0.5295430680836243,5.338616011659811,-0.7215022926189725,5.275274548428094,-0.029383742115406803,-0.034487274486618945,-0.0514904683823209,-0.16385024194331035,0.03290609209964003,-0.140574832060511,-0.3412550985813141,-2.0841264724731445,-1.3868879079818726,-0.6275960803031921,0.5835711359977722,-0.2365187257528305
1749046928.82313,-4.186181570182683,-0.7675974549873968,0.5294382047580419,5.338288453445594,-0.7214358033004945,5.274989641560222,-0.029736470789563697,-0.03468209480010544,-0.05212060939083801,-0.16507412110987654,0.033127772924463186,-0.1414895031014675,-0.3449114859104156,-2.079460382461548,-1.3770242929458618,-0.6120109558105469,0.5910416841506958,-0.2198089510202407
1749046928.823167,-4.18624267416112,-0.767668568070809,0.5293323016506903,5.337958068443302,-0.7213690250012543,5.274702348811869,-0.030086048679760436,-0.03485625788450309,-0.05275110243419527,-0.16633506362278255,0.033284058506437765,-0.1423237005899261,-0.3355291187763214,-2.0950868129730225,-1.3799673318862915,-0.6024692058563232,0.5843959450721741,-0.2332710921764373
1749046928.8232834,-4.186304350818263,-0.7677402892108396,0.5292254354342505,5.337624941137125,-0.7213021759268601,5.274412986589488,-0.03043585864603684,-0.03501018089802645,-0.05338844901912778,-0.16764777571351389,0.03338020337237864,-0.1430992120730236,-0.3355291187763214,-2.0950868129730225,-1.3799673318862915,-0.6024692058563232,0.5843959450721741,-0.2332710921764373
1749046928.8247726,-4.186366467376016,-0.7678125029863966,0.5291176429588338,5.3372890920284854,-0.7212354186928638,5.274121793921292,-0.030789054606262405,-0.03514472629862001,-0.05403806971880259,-0.16902307228342145,0.033427273828518476,-0.1438447351233934,-0.3393885791301727,-2.1137614250183105,-1.4008746147155762,-0.6231422424316406,0.5841152667999268,-0.242814689874649
1749046928.870289,-4.1864289246321755,-0.7678850946714102,0.5290089223978309,5.336950481429618,-0.7211688493216942,5.273828915572772,-0.031148165582637388,-0.035261323592250836,-0.05470305628910235,-0.17046690122832944,0.033440794491671255,-0.14459367168011267,-0.3556008636951446,-2.106570243835449,-1.3890938758850098,-0.6352792978286743,0.5900087952613831,-0.2368322312831878
1749046928.870335,-4.186491659821954,-0.7679579522772401,0.5288992425467364,5.336609030169799,-0.7211024975170873,5.273534403852406,-0.031514732431966376,-0.03536203840736611,-0.05538326061682644,-0.17197920688868185,0.033438959122638855,-0.14538103526973647,-0.3508660197257995,-2.098198890686035,-1.3899263143539429,-0.6287606954574585,0.5744091868400574,-0.2289900183677673
1749046928.8703756,-4.186554644549093,-0.7680309668185855,0.5287885575528007,5.3362646496258686,-0.721036335550245,5.273238234015252,-0.0318890449338697,-0.035449601055035765,-0.05607489104846887,-0.17355311349213598,0.03344066961594729,-0.1462398977339896,-0.3357177078723907,-2.1075994968414307,-1.3936618566513062,-0.6503767967224121,0.5782526731491089,-0.2352464199066162
1749046928.870414,-4.1866178796883435,-0.7681040323010722,0.5286768234140506,5.335917272194463,-0.7209702921835576,5.272940326601938,-0.03227004144256647,-0.03552741602021838,-0.05677068883804062,-0.17517496427462126,0.033463651930566024,-0.14719789400127156,-0.3304393291473388,-2.123807668685913,-1.378332018852234,-0.6737574934959412,0.5919036269187927,-0.2320923507213592
1749046928.8704517,-4.1866813892184815,-0.768177046733782,0.5285640127692673,5.335566874775195,-0.7209042684236519,5.272640570669485,-0.03265540694618353,-0.03559957425526737,-0.05746064499753972,-0.17682557885381311,0.0335228450483065,-0.14827429809828324,-0.3169273436069488,-2.1329264640808105,-1.370152235031128,-0.6616657972335815,0.5939038991928101,-0.2765822410583496
1749046928.8704894,-4.186745214683644,-0.7682499149464938,0.5284501253503894,5.335213490203122,-0.7208381527874553,5.272338843146146,-0.033041866543007704,-0.03567088049032981,-0.05813311910662853,-0.17848274984435442,0.03362919179668784,-0.14947808627399783,-0.3347477912902832,-2.1344118118286133,-1.3553783893585205,-0.6660764217376709,0.5920355319976807,-0.2596275508403778
1749046928.8705268,-4.186809411281716,-0.7683225534093521,0.5283351925166256,5.3348572040249636,-0.7207718345822138,5.272035020900623,-0.033425632561907365,-0.035746889237728,-0.05877615960241881,-0.1801245959388887,0.033788896355022364,-0.15080723836969118,-0.3442362248897552,-2.133318901062012,-1.3271141052246094,-0.6020278930664062,0.5870730876922607,-0.280517578125
1749046928.8705645,-4.186874045621828,-0.7683948968306478,0.5282192752891326,5.334498136364294,-0.7207052141777495,5.271728983699358,-0.03380293452517281,-0.03583392181038473,-0.05937881126718025,-0.1817330595840576,0.03400316159429316,-0.15224933495378778,-0.3305487930774688,-2.151047706604004,-1.3429527282714844,-0.5976736545562744,0.5782042741775513,-0.263904869556427
1749046928.8706014,-4.186939194561207,-0.7684669060774304,0.5281024562434932,5.33413641082365,-0.7206382094709919,5.271420608256844,-0.03417054654421067,-0.03593902054703336,-0.05993223120579308,-0.18329672171184797,0.034268384731254695,-0.15378332230864883,-0.3423047661781311,-2.139311552047729,-1.3343054056167605,-0.5901814103126526,0.6025003790855408,-0.2746396660804748
1749046928.870639,-4.187004944537126,-0.7685385767613898,0.5279848265081105,5.333772114526879,-0.7205707580425476,5.2711097558810245,-0.034526228198178924,-0.03606979117552359,-0.060430507342094215,-0.18481227876759898,0.034576770387233884,-0.15538216694435425,-0.3300266563892364,-2.128323554992676,-1.3516931533813477,-0.6122506856918335,0.5941662788391113,-0.2683994472026825
1749046928.8706872,-4.187071391128393,-0.7686099475529885,0.5278664699041984,5.333405255576496,-0.7205028151587608,5.270796258114787,-0.03486901214786883,-0.03623409624139283,-0.06087115111930546,-0.18628443957260668,0.03491730532678412,-0.15701602514616883,-0.3388600051403045,-2.1504838466644287,-1.310833215713501,-0.6246469616889954,0.6072710752487183,-0.2612490653991699
1749046928.8707373,-4.187138638688468,-0.7686811070135486,0.5277474469278465,5.333035726073344,-0.7204343486502143,5.270479905700413,-0.03519930135496473,-0.03643959826317916,-0.06125528283698001,-0.18772448616035145,0.03527701766217812,-0.15865552028913157,-0.3212046027183532,-2.154684543609619,-1.339166522026062,-0.6796848773956299,0.6041044592857361,-0.2484068125486374
1749046928.8707807,-4.1872067995846205,-0.7687521975580295,0.5276277817957171,5.332663279806743,-0.7203653323335539,5.270160446189359,-0.03551877287247015,-0.03669320039438416,-0.06158753695153414,-0.18914810126731557,0.03564241532196177,-0.16027474792815705,-0.3611670732498169,-2.185328722000122,-1.3351794481277466,-0.6965269446372986,0.6178179383277893,-0.2720165848731994
1749046928.870819,-4.187275991985533,-0.7688234150392187,0.5275074559278692,5.332287533192912,-0.7202957397648331,5.269837594881728,-0.035830112891886014,-0.03700046255233988,-0.06187570804780584,-0.19057315297190586,0.03600097532743564,-0.16185370624269327,-0.3022025525569916,-2.170353412628174,-1.3195290565490725,-0.662456214427948,0.617752194404602,-0.2589398324489593
1749046928.8708563,-4.187346334688213,-0.76889500249887,0.5273864105132421,5.331907995123278,-0.7202255398094224,5.269511061966045,-0.0361366228947469,-0.03736506061929263,-0.06213015746398481,-0.19201793289962632,0.03634254754650533,-0.1633799610018922,-0.3022025525569916,-2.170353412628174,-1.3195290565490725,-0.662456214427948,0.617752194404602,-0.2589398324489593
1749046928.8708937,-4.187417937930618,-0.7689672373890226,0.5272645586208486,5.33152412457255,-0.7201546947702027,5.26918059408596,-0.036441744073589355,-0.03778832496667871,-0.06236301352839533,-0.19349999974276313,0.03666054620766658,-0.16484947466368682,-0.3022025525569916,-2.170353412628174,-1.3195290565490725,-0.662456214427948,0.617752194404602,-0.2589398324489593
1749046928.870931,-4.1874908909614,-0.7690404133100193,0.5271418038343548,5.331135404361129,-0.7200831605163106,5.268846020857242,-0.03674855688978234,-0.03826888149257135,-0.06258722660155885,-0.19503547022462223,0.03695282360136991,-0.16626663327743704,-0.3397225439548492,-2.156282901763916,-1.317324161529541,-0.6368373036384583,0.6140199303627014,-0.2317255437374115
1749046928.8709674,-4.187565249460616,-0.7691148191725945,0.5270180593264058,5.330741410755718,-0.7200108867963018,5.2685072904881896,-0.03705932688451419,-0.03880243601387109,-0.06281557750132613,-0.19663843769236372,0.037222142534253266,-0.16764357317580614,-0.3505823314189911,-2.1997640132904053,-1.3548765182495115,-0.5926864147186279,0.6113506555557251,-0.2479946315288543
1749046928.8710043,-4.187641026903705,-0.7691907192098869,0.526893261036931,5.330341859265107,-0.7199378159036101,5.2681644800445495,-0.03737517554276832,-0.039381765052254235,-0.06305976682129012,-0.19832019928545547,0.03747618048081418,-0.16899893002156804,-0.3402608931064605,-2.1703989505767822,-1.3402268886566162,-0.6182745099067688,0.595100998878479,-0.2231267690658569
1749046928.871041,-4.187718192741367,-0.7692683361542624,0.5267673716493775,5.329936618083603,-0.7198638793340478,5.267817775845328,-0.03769594256116054,-0.039996969082069574,-0.06332971431559822,-0.20008812691969688,0.03772701739700119,-0.17035611278322985,-0.3536879122257232,-2.1843667030334477,-1.3452110290527344,-0.608638346195221,0.6212120652198792,-0.231465071439743
1749046928.8710778,-4.187796677736075,-0.7693478384372772,0.5266403761551384,5.329525694064338,-0.7197889937578624,5.267467431152449,-0.038020270281906236,-0.04063600061360329,-0.06363316447278312,-0.2019443008936991,0.03799009992189398,-0.1717411782704619,-0.3526245951652527,-2.1743595600128174,-1.3603206872940063,-0.6714380979537964,0.6190564036369324,-0.2493604570627212
1749046928.8711147,-4.187876384476843,-0.7694293316544911,0.5265122724088347,5.329109203253127,-0.7197130583044729,5.267113714559571,-0.03834589191603323,-0.04128542116354464,-0.0639756307022892,-0.2038843299584056,0.03828274168834926,-0.17318039020536333,-0.3033255636692047,-2.159769296646118,-1.3555476665496826,-0.6933282017707825,0.637235164642334,-0.2509205937385559
1749046928.8712194,-4.18795719984629,-0.769512854601091,0.5263830605078255,5.328687337552237,-0.7196359549108347,5.266756862124447,-0.038670060521656544,-0.041931296529996095,-0.06436062684733018,-0.20589693013112548,0.03862228944128432,-0.17469761025515862,-0.3352126777172088,-2.141467332839966,-1.3435734510421753,-0.6988705396652222,0.6202731132507324,-0.2634106874465942
1749046928.872767,-4.188039006165734,-0.7695983801030866,0.526252733912402,5.328260335049709,-0.7195575529199026,5.266397042448287,-0.038990034154829094,-0.04256012241028768,-0.0647900516553574,-0.20796470053311544,0.0390241300452443,-0.17631176519729788,-0.3614570498466491,-2.1560659408569336,-1.2997350692749023,-0.6886450052261353,0.6431249976158142,-0.2688290774822235
1749046928.9142947,-4.188121688656556,-0.7696858203274489,0.526121273973369,5.327828457612839,-0.7194777183215516,5.266034339377255,-0.0393035384931815,-0.04315968042487102,-0.06526454561463717,-0.2100661437979638,0.03949973142093933,-0.17803470930412338,-0.3274096846580505,-2.165818691253662,-1.3446284532546997,-0.6652534604072571,0.6262837648391724,-0.279659628868103
1749046928.914341,-4.188205138273186,-0.7697750356272796,0.5259886484778552,5.327391976754014,-0.7193963268565412,5.265668752828853,-0.039609145859842744,-0.04371974919904465,-0.06578366711999019,-0.21217850490271772,0.04005491877237424,-0.17986979894716376,-0.3383674621582031,-2.141418695449829,-1.3681871891021729,-0.6245439052581787,0.6438557505607605,-0.2953802943229675
1749046928.914382,-4.1882892503596185,-0.7698658457087263,0.5258548140071567,5.326951167341105,-0.7193132789265761,5.265300214832373,-0.03990652240924926,-0.04423262577801208,-0.06634583633416567,-0.21428067583077948,0.040688597260524595,-0.18181139671074012,-0.3147574365139007,-2.152617216110229,-1.3589015007019043,-0.5989317297935486,0.6665454506874084,-0.2468840181827545
1749046928.914421,-4.188373920606172,-0.7699580420133939,0.525719721214586,5.326506307832603,-0.7192285134926311,5.264928615674879,-0.04019650678932695,-0.044693440931050266,-0.06694811725163538,-0.21635539564161693,0.041392129252552104,-0.1838453509549401,-0.3234640955924988,-2.155626058578491,-1.3664566278457642,-0.6148324012756348,0.6778518557548523,-0.2774474620819092
1749046928.9144585,-4.1884590403525515,-0.7700514004149256,0.5255833216709053,5.326057684906942,-0.7191420183620434,5.264553834272427,-0.04048100900204762,-0.04510027346870041,-0.0675859862915458,-0.21839027287304227,0.04214952524530621,-0.18595031181742314,-0.3397097587585449,-2.14997673034668,-1.3821861743927002,-0.6554495692253113,0.6464825868606567,-0.2512555122375488
1749046928.914502,-4.188544493379411,-0.7701456934856253,0.5254455749001735,5.325605599603546,-0.7190538353859051,5.264175767270527,-0.04076275620129033,-0.04545408159566569,-0.0682532444977324,-0.2203776209980458,0.04293849166267467,-0.1880996065135521,-0.3201622068881988,-2.1460695266723637,-1.3738175630569458,-0.6391468644142151,0.6483181118965149,-0.2617499232292175
1749046928.9145408,-4.188630155862088,-0.770240701777229,0.5253064545700363,5.3251503716336925,-0.7189640604932612,5.263794352446174,-0.041044937537577285,-0.0457584741711826,-0.06894218346231458,-0.22231350211588605,0.043732218481999166,-0.19026334315476917,-0.3279008269309997,-2.1537413597106934,-1.368666172027588,-0.6654769778251648,0.6477875709533691,-0.2506636381149292
1749046928.9145784,-4.188715900198659,-0.7703362238213617,0.5251659531365911,5.3246923384693154,-0.7188728394754659,5.263409583306993,-0.041330794538294455,-0.046019346553869855,-0.06964403449029358,-0.22419653702447137,0.04450164715229781,-0.1924104506745069,-0.3283416330814361,-2.158012866973877,-1.3619415760040283,-0.6394122838973999,0.623894989490509,-0.2291305363178253
1749046928.9146156,-4.18880160238789,-0.7704320847740296,0.5250240843248501,5.3242318461675815,-0.7187803607462298,5.2630215129810995,-0.04162318440882081,-0.04624441089167145,-0.07034964298815148,-0.22602692246521913,0.04521789603466863,-0.19451047298724894,-0.330604612827301,-2.1445412635803223,-1.3573328256607056,-0.6229255795478821,0.6398284435272217,-0.2218312472105026
1749046928.9146528,-4.188887151955691,-0.7705281436820786,0.5248808827691481,5.323769229763538,-0.7186868460745032,5.262630246355643,-0.041924143059218634,-0.04644266078848388,-0.07105024742977559,-0.22780581308752276,0.045854555707263156,-0.19653507850920313,-0.3260160684585571,-2.148834705352783,-1.3627973794937134,-0.5783516764640808,0.6356996297836304,-0.2232320010662078
1749046928.9147022,-4.188972463152758,-0.770624299257399,0.5247364002235816,5.323304782740955,-0.7185925396751757,5.262235920156661,-0.04223449687794982,-0.0466238195328117,-0.07173822255066946,-0.22953496157256525,0.046389664868868204,-0.1984593766873592,-0.3478267192840576,-2.175056934356689,-1.3681541681289673,-0.5805181264877319,0.6270293593406677,-0.2461458295583725
1749046928.9147437,-4.189057486052587,-0.7707204939482591,0.5245906981574051,5.322838717698335,-0.7184976953393298,5.261838671884981,-0.0425535926887536,-0.04679782039785713,-0.07240766351038483,-0.2312164110617394,0.04680727571809599,-0.20026320755587962,-0.3749619126319885,-2.1747188568115234,-1.3780667781829834,-0.5895320177078247,0.6096173524856567,-0.2752914428710937
1749046928.914805,-4.18914221615948,-0.7708167160820625,0.5244438373636637,5.322371123643273,-0.7184025611341648,5.261438600890738,-0.04287921209560263,-0.046974350716493994,-0.07305472519686393,-0.23285212870914368,0.04709856920693193,-0.2019325432863381,-0.354515790939331,-2.185495376586914,-1.3501298427581787,-0.5972694158554077,0.6081120371818542,-0.2622523903846741
1749046928.914845,-4.189226701151866,-0.7709129997755803,0.5242958664370675,5.321901928799879,-0.7183073621081111,5.261035728428285,-0.04320770758733695,-0.04716246064969738,-0.07367767739626009,-0.23444365931409641,0.04726248529706065,-0.20346098701069204,-0.340223491191864,-2.145947217941284,-1.366145372390747,-0.6458302140235901,0.6055608987808228,-0.2075663805007934
1749046928.914883,-4.189311043373111,-0.7710094220197105,0.5241468121828443,5.321430880047013,-0.7182122830445478,5.2606299668921315,-0.04353435593084734,-0.04737020641732748,-0.07427668733172031,-0.23599200734099396,0.047305824342724956,-0.20485111640736917,-0.340223491191864,-2.145947217941284,-1.366145372390747,-0.6458302140235901,0.6055608987808228,-0.2075663805007934
1749046928.91492,-4.189395396847209,-0.7711060961735613,0.5239966752054526,5.320957548795935,-0.718117454430016,5.260221108777728,-0.043853885819567555,-0.047604288127699936,-0.07485339076704461,-0.23749792034730494,0.04724278350207074,-0.20611522097330207,-0.3346929848194122,-2.1874992847442627,-1.386654257774353,-0.6297608017921448,0.6034947037696838,-0.2281425595283508
1749046928.9149566,-4.189479958326065,-0.771203161567415,0.5238454324633728,5.3204813670832,-0.7180229444328574,5.2598088414232285,-0.04416111191985539,-0.047869668203916776,-0.07541035141078675,-0.23896255712962602,0.04709392614939601,-0.20727495789079994,-0.3287619650363922,-2.1682748794555664,-1.3576784133911133,-0.5704177021980286,0.5849012136459351,-0.1994613111019134
1749046928.9149935,-4.189564952991164,-0.771300769845042,0.5236930461978534,5.320001689532361,-0.7179287580995576,5.259392786279069,-0.04445159640178577,-0.04816920332313861,-0.0759505247564424,-0.2403882852530274,0.046884637400025166,-0.2083596454881935,-0.3550140857696533,-2.223345994949341,-1.387296438217163,-0.567864179611206,0.5795732736587524,-0.2190244197845459
1749046928.9150305,-4.18965061621124,-0.7713990693665228,0.5235394768239019,5.319517871205356,-0.7178348434362753,5.258972555606789,-0.04472225566883468,-0.048503352889842505,-0.07647683477581714,-0.24177921341570055,0.046643183472753626,-0.20940324628580276,-0.3260879516601562,-2.138448476791382,-1.3774874210357666,-0.5520550012588501,0.6157342791557312,-0.2136744260787964
1749046928.9150703,-4.189737172983907,-0.7714981892254098,0.5233846968135789,5.319029349926918,-0.717741103343592,5.258547817158699,-0.044971830860984746,-0.048870016467343666,-0.0769919466646646,-0.24314114418933155,0.046398549315520704,-0.2104404297767288,-0.348150372505188,-2.1706767082214355,-1.3978244066238403,-0.6172061562538147,0.5970830321311951,-0.2206190079450607
1749046928.9151838,-4.189824816947896,-0.7715982245102406,0.5232287029321621,5.318535722594837,-0.7176474121754934,5.258118357358949,-0.0452011502403125,-0.04926451711017594,-0.07749827605435851,-0.24448092492236864,0.04617825893133077,-0.2115023405514555,-0.3594082593917846,-2.1688082218170166,-1.368613362312317,-0.6238295435905457,0.5977124571800232,-0.2660816013813019
1749046928.916848,-4.189913691495894,-0.7716992244240368,0.5230715248319615,5.318036806327241,-0.7175536352889577,5.257684134286213,-0.04541313734208264,-0.04967972098789776,-0.07799820736241111,-0.24580550764318843,0.0460063794294306,-0.21261277723661612,-0.3720549643039703,-2.157902717590332,-1.370739221572876,-0.6745632886886597,0.5940907597541809,-0.2745097279548645
1749046928.962308,-4.1900038760342495,-0.771801184586433,0.5229132287529221,5.317532676745751,-0.7174596491377915,5.257245313088378,-0.045612557137356825,-0.05010627990898992,-0.07849441149816308,-0.24712118021274748,0.04590188461200378,-0.21378540692313297,-0.3326615691184997,-2.1273882389068604,-1.3392449617385864,-0.6588372588157654,0.6162129640579224,-0.2726725339889526
1749046928.962355,-4.1900953801298195,-0.7719040443281827,0.5227539159203543,5.317023677828269,-0.7173653587466101,5.256802278562339,-0.045805526157131786,-0.05053299251448181,-0.0789900951514061,-0.2484333008582377,0.04587752255830436,-0.2150224283341731,-0.3323694169521332,-2.1230502128601074,-1.356831192970276,-0.5969423651695251,0.6328756809234619,-0.2588872909545898
1749046928.9623966,-4.190188147002985,-0.7720076892541782,0.5225937161038118,5.316510401083116,-0.7172707095302628,5.256355622523619,-0.045998833828643095,-0.05094729121850674,-0.07948902140647,-0.24974655076344715,0.04593929490721315,-0.2163148139243704,-0.330433189868927,-2.123485565185547,-1.3425647020339966,-0.5986842513084412,0.6370200514793396,-0.2563181519508362
1749046928.9624362,-4.190282065836741,-0.7721119588196372,0.5224327775724817,5.315993636332339,-0.7171756916620355,5.25590610716868,-0.046199146782400224,-0.0513358701571639,-0.07999522096261351,-0.25106543036591467,0.04608660087462506,-0.21764398514529062,-0.4032982289791107,-2.1268136501312256,-1.3548036813735962,-0.5928613543510437,0.6144150495529175,-0.2420407831668853
1749046928.9624755,-4.1903769901940375,-0.7722166580034625,0.5222712552550479,5.315474301591706,-0.7170803370221035,5.255454609627893,-0.04641220753387777,-0.051685465162991655,-0.08051242956714148,-0.25239464888214724,0.046313021250945566,-0.21898457978970962,-0.3765007853507995,-2.118323564529419,-1.3829867839813232,-0.6515194773674011,0.626343309879303,-0.2642862200736999
1749046928.9625187,-4.190472758334473,-0.7723215714782703,0.5221092991478515,5.3149533638000115,-0.7169847102879118,5.255002056229279,-0.046642171764025436,-0.051983771443708374,-0.08104338868759368,-0.25373921416857675,0.04660763183196251,-0.2203078930536644,-0.3765007853507995,-2.118323564529419,-1.3829867839813232,-0.6515194773674011,0.626343309879303,-0.2642862200736999
1749046928.9625587,-4.19056921122767,-0.7724264784716726,0.5219470445884954,5.3144317626761515,-0.7168888962600666,5.254549355564933,-0.04689121806234313,-0.05222044437538776,-0.08158919602241083,-0.25510427081209747,0.04695666635495454,-0.22158559645882914,-0.3622337579727173,-2.116353988647461,-1.365952491760254,-0.647744357585907,0.6331121921539307,-0.2632884681224823
1749046928.962597,-4.190666205620514,-0.7725311671226658,0.5217846047961108,5.313910345240715,-0.7167929850163237,5.2540973362741274,-0.04715950458352312,-0.052388091649311457,-0.0821488807784448,-0.2564948660990696,0.04734530889240358,-0.22279339375838653,-0.3750973343849182,-2.11608624458313,-1.3801994323730469,-0.6540021300315857,0.6273762583732605,-0.2646447420120239
1749046928.9626343,-4.190763621690924,-0.7726354480416432,0.5216220647929698,5.313389811692157,-0.7166970558164265,5.253646691057143,-0.047445467026299044,-0.05248314457314281,-0.08271931646879126,-0.25791576497937546,0.04775938401417647,-0.22391428771570665,-0.3663490414619446,-2.088175058364868,-1.3713828325271606,-0.6194320917129517,0.594559371471405,-0.2641314566135406
1749046928.9626718,-4.190861366371236,-0.7727391670532897,0.5214594755827194,5.3128706702105,-0.7166011609047551,5.253197926996791,-0.04774637946326347,-0.052506497586732266,-0.08329549049979122,-0.25937126787431686,0.048186731948783604,-0.22494108797435675,-0.3496834933757782,-2.1142570972442627,-1.346543550491333,-0.6387178897857666,0.6263169646263123,-0.1928516924381256
1749046928.96271,-4.190959373810135,-0.7728422165970011,0.5212968483813234,5.312353200587329,-0.7165053114633392,5.252751324550888,-0.0480590459117687,-0.05246383188751411,-0.0838710516697109,-0.2608648755778213,0.04861811340855293,-0.22587775038583516,-0.3496834933757782,-2.1142570972442627,-1.346543550491333,-0.6387178897857666,0.6263169646263123,-0.1928516924381256
1749046928.962747,-4.191057604171764,-0.7729445448380514,0.5211341495644958,5.311837429805503,-0.7164094686408791,5.252306909756089,-0.04838046601927798,-0.05236558830334176,-0.0844389887042984,-0.2623987045917726,0.0490475785783701,-0.2267392054928273,-0.3680135607719421,-2.117153644561768,-1.353848218917847,-0.686838686466217,0.6322241425514221,-0.2110048532485962
1749046928.9627843,-4.191156041815898,-0.7730461619022398,0.5209712968252542,5.311323122107896,-0.7163135415808967,5.251864442779118,-0.04870833346783661,-0.05222660205966152,-0.08499228033567191,-0.2639727503877896,0.04947232715898495,-0.22754956757731412,-0.3600110411643982,-2.1085727214813232,-1.337449550628662,-0.6969574689865112,0.6355686187744141,-0.238951027393341
1749046928.9628208,-4.191254693861545,-0.7731471433265291,0.5208081565598011,5.310809782975649,-0.7162173920574142,5.251423422548244,-0.04904127800498454,-0.0520654304051417,-0.08552439545016904,-0.2655842785893132,0.04989214911517804,-0.2283389639101992,-0.3374672532081604,-2.092944622039795,-1.321466088294983,-0.7107769846916199,0.6414886713027954,-0.2346906512975692
1749046928.962858,-4.191353589599952,-0.7732476307702406,0.5206445432660081,5.3102966758420465,-0.7161208435118737,5.250983106369277,-0.04937883164010134,-0.05190339930243289,-0.08602958528169047,-0.2672276518211805,0.05030856148392657,-0.22913954129928132,-0.362160712480545,-2.146871566772461,-1.3596372604370115,-0.6839752197265625,0.6442070007324219,-0.2977226972579956
1749046928.9628956,-4.191452780160545,-0.7733478290950211,0.520480223691067,5.309782853715014,-0.7160236923161561,5.250542546343021,-0.04972116326770048,-0.05176339947117869,-0.08650297667806926,-0.26889474192928037,0.0507237641959385,-0.2299813554285117,-0.362160712480545,-2.146871566772461,-1.3596372604370115,-0.6839752197265625,0.6442070007324219,-0.2977226972579956
1749046928.9629326,-4.191552337091432,-0.7734479981777143,0.5203149294920123,5.309267210600057,-0.7159257203769968,5.250100646763637,-0.05006866943135389,-0.05166848588005671,-0.08694053166259164,-0.2705758396907706,0.05113955048924533,-0.23088879016871192,-0.3418436348438263,-2.128056287765503,-1.3335039615631104,-0.6873756647109985,0.6401028633117676,-0.2681183516979217
1749046928.962969,-4.191652348694647,-0.7735484383089084,0.5201483805223429,5.308748554998418,-0.7158267091061701,5.249656243996016,-0.05042152804748459,-0.05164035829915725,-0.08733897134227488,-0.2722608176729468,0.05155632926756922,-0.23187795603848121,-0.3476987481117248,-2.1301424503326416,-1.3029619455337524,-0.694076657295227,0.6365982890129089,-0.2534306943416595
1749046928.9630058,-4.191752913649133,-0.7736494695627831,0.5199803172168146,5.308225700908619,-0.7157264546448987,5.249208203516346,-0.050779319825894315,-0.051697810247010235,-0.08769576617270425,-0.2739403095298967,0.05197242720562903,-0.23295528675358482,-0.3806613683700561,-2.141923189163208,-1.3524895906448364,-0.7225430607795715,0.6622315645217896,-0.2595769762992859
1749046928.9630425,-4.191854132041272,-0.7737514070882806,0.5198105371224468,5.307697565718335,-0.7156247836937398,5.248755522677588,-0.05114080422901425,-0.051855240322091434,-0.08800927235416596,-0.27560678340020256,0.05238380945730156,-0.23411737875121033,-0.3771924972534179,-2.1682517528533936,-1.3364464044570925,-0.7187128067016602,0.6404132843017578,-0.2554756104946136
1749046928.963087,-4.191956094525983,-0.7738545352827811,0.5196389287650914,5.307163261769669,-0.715521568862198,5.248297425037264,-0.051503903488911734,-0.05212133455206273,-0.0882790472058856,-0.2772554733302637,0.052784280932010735,-0.23535203536342952,-0.3360698223114013,-2.1594431400299072,-1.3257604837417605,-0.7183374762535095,0.6455586552619934,-0.3065254092216491
1749046928.9631264,-4.192058871348489,-0.7739590844065746,0.5194654956140243,5.306622167936805,-0.715416741894938,5.24783343160405,-0.051865897671371744,-0.05249804422164862,-0.08850630897708557,-0.278885105613724,0.05316612796512348,-0.23664044743840068,-0.3360698223114013,-2.1594431400299072,-1.3257604837417605,-0.7183374762535095,0.6455586552619934,-0.3065254092216491
1749046928.963233,-4.192162503990021,-0.7740652134084268,0.5192903636857021,5.306073968308749,-0.7153103024305372,5.247363395174474,-0.05222377829529501,-0.05297998656556539,-0.08869444018548057,-0.2804982594891779,0.053521069905199434,-0.23796037515254273,-0.3690824508666992,-2.1665329933166504,-1.313556671142578,-0.6399019956588745,0.6334701776504517,-0.3219132423400879
1749046928.9650323,-4.192267002237346,-0.774173002013342,0.5191137688690822,5.305518648968216,-0.715202319798962,5.246887488002023,-0.05257467394149632,-0.05355437786476941,-0.08884939797159322,-0.28210116021005227,0.05384133728307718,-0.23929001548006767,-0.3443551957607269,-2.1722304821014404,-1.307775855064392,-0.6652540564537048,0.6347743272781372,-0.2878415584564209
1749046929.0063004,-4.192372348004634,-0.7742824530932728,0.5189360245847803,5.304956452551412,-0.7150929264189463,5.246406142170347,-0.05291625944131992,-0.05420156935929386,-0.0889799035154212,-0.28370280279184085,0.05412068566037349,-0.2406119645113188,-0.3343971669673919,-2.177935838699341,-1.330847978591919,-0.706676721572876,0.6408951878547668,-0.2406686246395111
1749046929.006346,-4.192478504995344,-0.7743935037328127,0.5187574753775759,5.304387800731741,-0.7149823032733278,5.245919953575529,-0.053247073479378605,-0.05489620072491674,-0.08909732818288481,-0.2853135111744771,0.054355190906038825,-0.24191645304552542,-0.3135968148708343,-2.148111581802368,-1.3287149667739868,-0.7353876829147339,0.6469032168388367,-0.2085044085979461
1749046929.006385,-4.192585431625834,-0.7745060416615375,0.5185784450780117,5.303813201179694,-0.7148706596385023,5.245429568693051,-0.053566684187588566,-0.05560892163075506,-0.08921525908318906,-0.2869432196384228,0.054543740243083706,-0.2432030321244711,-0.3876742422580719,-2.1703267097473145,-1.3678096532821655,-0.7230044603347778,0.6637169718742371,-0.2172981351613998
1749046929.0064237,-4.1926930942175575,-0.7746199235791039,0.5183991882818721,5.3032331556151,-0.7147582100895848,5.244935575145668,-0.053875666659050754,-0.056308566999932315,-0.08934878795490529,-0.2885998002883984,0.05468820345704567,-0.2444802028015505,-0.3150599896907806,-2.1402575969696045,-1.3382948637008667,-0.6878179311752319,0.6521576046943665,-0.2320984601974487
1749046929.0064614,-4.192801477979839,-0.7747349928378657,0.5182198520345702,5.302648081912077,-0.7146451519598236,5.244438413608183,-0.054175393972236245,-0.0569646138641061,-0.08951360574767918,-0.2902876515147275,0.05479330992341861,-0.2457630382552719,-0.3310378193855285,-2.1354994773864746,-1.3448734283447266,-0.7065553069114685,0.6328709125518799,-0.3159120976924896
1749046929.0064993,-4.192910594134857,-0.7748510950766326,0.5180404521315531,5.302058259026949,-0.7145316461255246,5.243938322422137,-0.054467681287410356,-0.05754970704416755,-0.08972499857878537,-0.29200663671346117,0.0548662696394928,-0.24706942279835484,-0.3303530812263489,-2.1323676109313965,-1.3808847665786743,-0.7169318199157715,0.6180076003074646,-0.3298490643501282
1749046929.0065367,-4.193020482337557,-0.774968091197644,0.5178608660486789,5.3014637997848215,-0.7144178031950741,5.243435319560967,-0.0547543524383485,-0.058042025255435795,-0.08999683896192173,-0.2937514463316046,0.05491618604320265,-0.24841590075540265,-0.3553352952003479,-2.129472494125366,-1.349632978439331,-0.7494519352912903,0.6347662806510925,-0.323838472366333
1749046929.0065744,-4.193131208232008,-0.7750858673887709,0.5176808423560462,5.300864653100743,-0.714303676125065,5.242929220709022,-0.0550368194497046,-0.058427267337465144,-0.09034065628412408,-0.2955115311424446,0.05495332995728145,-0.2498141526909064,-0.3514930307865143,-2.177210092544556,-1.409876585006714,-0.7823055386543274,0.6243916749954224,-0.3366401791572571
1749046929.0066285,-4.1932428565116195,-0.7752043417726614,0.5175000246507151,5.300260633983292,-0.7141892595323343,5.242419687879071,-0.05531576820800074,-0.05870006159982943,-0.09076485325498758,-0.29727177725695575,0.054988363536638926,-0.25126882293067876,-0.3476789891719818,-2.0453860759735107,-1.3741003274917605,-0.7219087481498718,0.6340662837028503,-0.307839035987854
1749046929.0067017,-4.193355520126978,-0.7753234670058101,0.5173179867677523,5.299651476838851,-0.7140744957458196,5.241906300085766,-0.05559101719910644,-0.05886463719194685,-0.09127411492651463,-0.29901395411687837,0.05503159977054478,-0.2527769775518021,-0.3554793298244476,-2.1370205879211426,-1.397825002670288,-0.7154024243354797,0.6355205774307251,-0.3060001134872436
1749046929.0067606,-4.1934692863680105,-0.7754432281596095,0.5171342753466744,5.29903690534143,-0.7139592874942188,5.24138863565916,-0.05586156767327092,-0.0589346554898135,-0.0918690448599252,-0.30071871331597455,0.05509235710873844,-0.25432907560825435,-0.3187572062015533,-2.1553666591644287,-1.4210509061813354,-0.6670690774917603,0.6202703714370728,-0.3236368894577026
1749046929.0068023,-4.1935842207364775,-0.7755636357222525,0.5169484554976951,5.298416710568354,-0.7138435165251183,5.240866354685573,-0.05612581427404056,-0.05893218715246626,-0.09254606354046241,-0.30236772031392334,0.05517844079073722,-0.2559111021991982,-0.3447401523590088,-2.170827627182007,-1.4275850057601929,-0.6792530417442322,0.6256044507026672,-0.3158491253852844
1749046929.006848,-4.193700350085566,-0.7756847144526348,0.5167601551026516,5.297790828169358,-0.7137270663889353,5.240339270235887,-0.056381853491143476,-0.058885916167663095,-0.09329760142998648,-0.3039455027231731,0.055295771436578045,-0.25750741977259034,-0.324074774980545,-2.1246676445007324,-1.3859270811080933,-0.690961480140686,0.6303262710571289,-0.3211713135242462
1749046929.0068874,-4.193817647323269,-0.7758064897240291,0.516569103325441,5.297159404892696,-0.7136098464833325,5.239807398939423,-0.056627820530565136,-0.0588287298642423,-0.09411259108748425,-0.30544078261251295,0.05544818677725125,-0.25910384168161615,-0.3153611719608307,-2.1717801094055176,-1.38781476020813,-0.7134037017822266,0.6375642418861389,-0.3013643622398376
1749046929.006925,-4.193936020596153,-0.7759289735515705,0.5163751594350655,5.296522844911194,-0.7134918136976988,5.239270984839992,-0.05686220113979568,-0.05879491319131461,-0.09497721388167288,-0.30684728446410114,0.05563744326726314,-0.2606903560525156,-0.3083118200302124,-2.1669809818267822,-1.4175174236297607,-0.7075892090797424,0.6368888020515442,-0.2368385791778564
1749046929.006962,-4.194055309827118,-0.7760521526144033,0.5161783289915642,5.295881827470136,-0.7133729879897127,5.238730494361419,-0.057084092911080186,-0.058817211879244095,-0.09587581475006923,-0.3081641356515541,0.05586341831024399,-0.26226288443868795,-0.3637997210025787,-2.183387994766236,-1.4145545959472656,-0.6894862055778503,0.6230400800704956,-0.2530069351196289
1749046929.0069993,-4.19417529262653,-0.7761759804019269,0.5159787655916337,5.295237289825313,-0.7132534590727163,5.238186583607964,-0.05729341327385704,-0.05892404377122242,-0.0967918773447344,-0.30939596361069593,0.056124464170410934,-0.26382357677148055,-0.3512727320194244,-2.150052309036255,-1.399928092956543,-0.6606449484825134,0.6301277279853821,-0.2705433964729309
1749046929.0070367,-4.19429570013226,-0.7763003751788482,0.5157767577454625,5.294590373321998,-0.7131333828326478,5.2376400418281515,-0.05749105472616463,-0.05913710388232622,-0.09770894781088617,-0.3105527122249907,0.056417829001392035,-0.2653794887337349,-0.3453498780727386,-2.1871166229248047,-1.4024085998535156,-0.6769341230392456,0.6357035636901855,-0.2913703918457031
1749046929.007074,-4.194416241590121,-0.7764252246160788,0.5155727022150195,5.293942335644587,-0.7130129676357231,5.237091717199314,-0.057678973100298486,-0.059469544770833854,-0.0986114149453726,-0.31164915289667755,0.0567400791896167,-0.2669399683335505,-0.3160771429538727,-2.162989854812622,-1.386186957359314,-0.6852444410324097,0.652452290058136,-0.3152197003364563
1749046929.007111,-4.194536634727524,-0.7765503965515672,0.5153670671447633,5.293294438591432,-0.7128924519381077,5.236542433800872,-0.05786017854640047,-0.05992485268942282,-0.09948510973281666,-0.3127040909599956,0.057087522261159235,-0.26851347838393014,-0.3502807915210724,-2.205333948135376,-1.4047080278396606,-0.6800397038459778,0.653973400592804,-0.3374287188053131
1749046929.0072222,-4.194656637480693,-0.7766757536805189,0.5151603499335531,5.292647827059305,-0.7127720755325084,5.235992911300487,-0.05803860033060513,-0.060496494049444884,-0.10031776152097942,-0.3137393119400375,0.05745667657919402,-0.27010471280252174,-0.3502807915210724,-2.205333948135376,-1.4047080278396606,-0.6800397038459778,0.653973400592804,-0.3374287188053131
1749046929.0087893,-4.194776075911814,-0.7768011688453281,0.5149530351762707,5.29200341813643,-0.7126520475652951,5.235443699379343,-0.05821882064570817,-0.061168364638352984,-0.10109939681560048,-0.31477831844492904,0.057844804832729156,-0.2717127059957601,-0.3589024841785431,-2.133902311325073,-1.403228998184204,-0.6516618132591248,0.6526955366134644,-0.3173310160636902
1749046929.0502837,-4.194894863674028,-0.7769265378357303,0.5147455568970086,5.291361816685545,-0.7125325152234169,5.23489513556819,-0.05840570565187565,-0.06191602142281304,-0.10182275750607604,-0.3158448990936249,0.05825043389545155,-0.2733303163849582,-0.3691046237945556,-2.184814214706421,-1.3895564079284668,-0.6713781356811523,0.625793993473053,-0.303741842508316
1749046929.0503294,-4.195013010035349,-0.7770517880632,0.5145382675618809,5.290723267004765,-0.712413537523188,5.234347329320169,-0.058603983734111346,-0.06270861550319046,-0.10248375242478956,-0.3169616029647923,0.058673692584243445,-0.2749451380729848,-0.3691046237945556,-2.184814214706421,-1.3895564079284668,-0.6713781356811523,0.625793993473053,-0.303741842508316
1749046929.0503705,-4.195130615723757,-0.7771768831765913,0.5143314149283721,5.29008764256083,-0.7122950683839794,5.233800169505585,-0.058817823486087974,-0.06351139059881314,-0.10308187047739578,-0.3181482651577067,0.05911627977164181,-0.27654163629335127,-0.347943514585495,-2.1647090911865234,-1.373133659362793,-0.6741561889648438,0.6338549256324768,-0.3327505886554718
1749046929.0504096,-4.19524785824797,-0.7773018249643924,0.5141251267332339,5.289454468919663,-0.7121769516621891,5.233253348042463,-0.05905045452116211,-0.06428856973727268,-0.103620413402694,-0.3194207717331161,0.05958095576568529,-0.278104116785458,-0.3442446589469909,-2.1092803478240967,-1.3459676504135132,-0.68780118227005,0.6555785536766052,-0.3268141448497772
1749046929.0504484,-4.195364970197213,-0.777426654386461,0.5139194026680329,5.288822970258785,-0.7120589285790555,5.232706390159728,-0.059303863493289456,-0.0650064131124137,-0.10410638230062522,-0.3207902087413244,0.06007059889528071,-0.27961999789545067,-0.384639024734497,-2.1794755458831787,-1.344471454620361,-0.6348462104797363,0.6421614289283752,-0.3144499063491821
1749046929.050486,-4.195482214439376,-0.7775514528495175,0.5137141136782651,5.288192130257168,-0.711940656387858,5.232158684473525,-0.05957859013762151,-0.06563619149491683,-0.10454989038951339,-0.3222624381544325,0.06058700725392156,-0.281082743540509,-0.3549947142601013,-2.1244051456451416,-1.3627020120620728,-0.6606224775314331,0.6578521728515625,-0.2307092845439911
1749046929.050524,-4.195599859171231,-0.7776763430631926,0.5135090100793069,5.28756076360408,-0.7118217367803502,5.23160951330591,-0.05987364160712366,-0.06615679796062993,-0.1049630730153465,-0.3238380764073508,0.06112968024860379,-0.2824937774900143,-0.3549947142601013,-2.1244051456451416,-1.3627020120620728,-0.6606224775314331,0.6578521728515625,-0.2307092845439911
1749046929.0505612,-4.195718154675594,-0.7778014873189477,0.5133037405907365,5.286927598857067,-0.7117017523636274,5.231058089552459,-0.060186534731488356,-0.0665567284262666,-0.10535859848168888,-0.32551287523730843,0.061694782954624744,-0.2838628217474354,-0.356235921382904,-2.1126623153686523,-1.38505220413208,-0.7023032307624817,0.6380581855773926,-0.2294266074895858
1749046929.0505984,-4.195837313342852,-0.7779270811635938,0.5130978828038337,5.286291371246364,-0.7115803083071547,5.230503605229658,-0.06051346678097822,-0.06683520272671714,-0.1057480028793424,-0.3272785628122475,0.06227443770092732,-0.28520643522054145,-0.3630240559577942,-2.096980094909668,-1.3655401468276978,-0.7096209526062012,0.6258054375648499,-0.2806666791439056
1749046929.0506358,-4.195957494604699,-0.7780533420653515,0.512890982564267,5.285650917051596,-0.7114570743964859,5.229945289998202,-0.060849609863629014,-0.06700227536584707,-0.10614013681339868,-0.32912417472238825,0.06285645239774598,-0.28654500524469534,-0.3882832527160644,-2.1075594425201416,-1.3866357803344729,-0.7006296515464783,0.6479132771492004,-0.3103588819503784
1749046929.050673,-4.196078796058385,-0.77818049448055,0.5126825972857951,5.285005256348233,-0.711331821845577,5.229382471935489,-0.06118951903861242,-0.06707789243867376,-0.10654000620951003,-0.33103773923287594,0.06342457991045838,-0.287898884579933,-0.3422514498233795,-2.121260404586792,-1.3824516534805298,-0.6650912761688232,0.6411200761795044,-0.2993647158145904
1749046929.0507193,-4.1962012511800895,-0.7783087537295043,0.512472337435646,5.2843536521906636,-0.7112044500502731,5.228814631447897,-0.06152763015637945,-0.06708996975548988,-0.10694822022526217,-0.33300797619384265,0.06395937461955807,-0.289284586419385,-0.3568234443664551,-2.125730514526367,-1.380730390548706,-0.6627034544944763,0.6478796005249023,-0.2917467951774597
1749046929.0507636,-4.196324833164212,-0.7784383111245953,0.5122599010820416,5.283695639805539,-0.711075000254123,5.228241441070976,-0.06185880058761731,-0.06707167774300245,-0.10736114669283404,-0.3350255913908553,0.0644396538459788,-0.29071187957921935,-0.3872794210910797,-2.150717496871948,-1.3804943561553955,-0.6742687225341797,0.6629337072372437,-0.2918200492858886
1749046929.050801,-4.196449463862007,-0.7785693220431433,0.5120450978974942,5.2830310254914306,-0.7109436548039603,5.2276627864172465,-0.062178830203785077,-0.06705820883981929,-0.1077717502644279,-0.33708387319495586,0.06484448899715992,-0.29218234135224025,-0.3354659378528595,-2.133565902709961,-1.3460944890975952,-0.7138930559158325,0.6299295425415039,-0.2857185006141662
1749046929.0508375,-4.196575026511363,-0.7787018975353885,0.5118278609418473,5.282359859600326,-0.7108107220126089,5.227078765930685,-0.06248490366990251,-0.06708336173116063,-0.10817098428063561,-0.33917853856803554,0.06515555743804462,-0.29368956837823895,-0.3091846108436584,-2.153294801712036,-1.3856654167175293,-0.7069631814956665,0.6388410925865173,-0.3174808621406555
1749046929.050875,-4.19670138092817,-0.7788360992626713,0.5116082463393963,5.281682390708527,-0.7106766079909295,5.226489669621423,-0.06277591359556849,-0.06717629424322982,-0.10854954425316629,-0.34130698252586494,0.06535959465792651,-0.2952209157424235,-0.3791457116603851,-2.1736881732940674,-1.3759880065917969,-0.676910400390625,0.6059190034866333,-0.3015623688697815
1749046929.050912,-4.196828379954892,-0.7789719373506986,0.5113864221257538,5.28099900904335,-0.7105417784081793,5.225895939525286,-0.06305264599225878,-0.06735877401963618,-0.10889976307377724,-0.34346719398699166,0.06545061954757972,-0.2967603627768707,-0.3408090472221374,-2.1849210262298584,-1.382314920425415,-0.6887026429176331,0.6205705404281616,-0.2992826104164123
1749046929.0509489,-4.196955885947745,-0.7791093708385518,0.5111626481341089,5.280310186740084,-0.7104067145797901,5.225298116902324,-0.06331782558526199,-0.0676432029499489,-0.1092174146565553,-0.34565664528523093,0.06543159743284654,-0.298291903471031,-0.3603687584400177,-2.1801207065582275,-1.3746532201766968,-0.749526858329773,0.6336514949798584,-0.2580298483371734
1749046929.050986,-4.197083785799356,-0.7792483105640201,0.5109372492100928,5.279616420901907,-0.7102718688970499,5.224696782781981,-0.06357602203948502,-0.06803161195413693,-0.10950318519812839,-0.34787147364520654,0.06531527472132853,-0.29980276162112934,-0.361551284790039,-2.1959228515625,-1.3591681718826294,-0.7682814598083496,0.6258562803268433,-0.2258989214897155
1749046929.0510228,-4.197212002755551,-0.7793886245327362,0.5107105844176567,5.27891818326456,-0.7101376242193673,5.224092499034452,-0.06383341166785433,-0.06851571544459331,-0.10976358212342642,-0.3501062114078169,0.0651240399258353,-0.3012857797262725,-0.3809089958667755,-2.185954570770264,-1.38471519947052,-0.8095007538795471,0.610929548740387,-0.2238898873329162
1749046929.051128,-4.19734050356745,-0.7795301458926518,0.510483015041713,5.278215878278912,-0.7100042607940535,5.22348575648417,-0.06409738376206864,-0.06907798850600713,-0.11001109328359171,-0.3523541355196451,0.06488878755138892,-0.30274054449738164,-0.3690143823623657,-2.182784080505371,-1.392830491065979,-0.7231898307800293,0.6253929138183594,-0.2677021026611328
1749046929.052779,-4.197469300381863,-0.7796726833097134,0.510254874006455,5.277509810224055,-0.7098719329652523,5.222876934817088,-0.06437598259278242,-0.0696936096563135,-0.11026348786641642,-0.3546080411517215,0.06464685591789802,-0.3041731407437199,-0.3637622892856598,-2.152194023132324,-1.3711910247802734,-0.6939383149147034,0.6055974960327148,-0.2895473539829254
1749046929.094278,-4.197598447748282,-0.7798160329553672,0.510026438935942,5.276800159649691,-0.709740656672419,5.222266276704473,-0.06467718797235282,-0.07033302432482859,-0.11054227175662558,-0.35686105585893446,0.06443918610131362,-0.30559475464123814,-0.3778729140758514,-2.116276264190674,-1.4066362380981443,-0.7265636920928955,0.608467161655426,-0.2963103652000427
1749046929.0943236,-4.19772803570781,-0.7799599909617926,0.5097979106494401,5.276086969633109,-0.709610307743055,5.221653876325454,-0.065008067074049,-0.07096484238103216,-0.11087047032170581,-0.35910713687946627,0.06430692860754295,-0.3070195614672326,-0.3789386749267578,-2.128890991210937,-1.4129228591918943,-0.7653263211250305,0.64573734998703,-0.2837834656238556
1749046929.0943637,-4.197858180075121,-0.7801043653231263,0.5095693984183823,5.2753701425286295,-0.7094806303372134,5.221039680691653,-0.06537387994087512,-0.07155878764592749,-0.111270068766168,-0.3613411116934974,0.06428781485167724,-0.30846238450283775,-0.3880771398544311,-2.145241498947144,-1.4275462627410889,-0.7697017788887024,0.6595467329025269,-0.2827788293361664
1749046929.0944033,-4.197989011047174,-0.7802489865583935,0.5093409126821925,5.274649447769259,-0.709351254496525,5.220423500956081,-0.06577727105356193,-0.07208845569393288,-0.11175951974957105,-0.36355836505664635,0.06441268546861381,-0.30993653896486084,-0.4198407232761383,-2.1157922744750977,-1.3945568799972534,-0.7308674454689026,0.6556650996208191,-0.2976543605327606
1749046929.0944414,-4.198120661371562,-0.7803937165978488,0.5091123651129574,5.273924540684575,-0.7092217214811841,5.21980503042419,-0.06621769942111715,-0.07253368135901013,-0.11235168152269273,-0.36575440227487555,0.06470257420091038,-0.31145215331237047,-0.3617793321609497,-2.1053061485290527,-1.408319115638733,-0.743767261505127,0.6416263580322266,-0.3165134191513061
1749046929.0944817,-4.198253255313472,-0.7805384552716966,0.5088835752570735,5.273194991219444,-0.7090915154320371,5.219183866537092,-0.0666912354937871,-0.07288234731984856,-0.11305240494595524,-0.3679245187263516,0.06516665756287576,-0.31301513337414133,-0.4011427462100982,-2.12512469291687,-1.3965665102005005,-0.7819032669067383,0.6561403870582581,-0.3190157115459442
1749046929.094519,-4.19838689933039,-0.7806831438474575,0.5086542828939828,5.272460320214373,-0.7089600997906537,5.218559535377055,-0.06719079445517846,-0.07313148555806367,-0.11385982657567216,-0.370063735337751,0.06580123508568275,-0.31462679468725063,-0.4460737109184265,-2.1335866451263428,-1.417001724243164,-0.7843805551528931,0.6657661199569702,-0.3132389783859253
1749046929.094556,-4.1985216748218726,-0.7808277655427688,0.5084241657359653,5.271720040139935,-0.7088269566662772,5.217931518407994,-0.0677067999712278,-0.07328755423259105,-0.11476431694459684,-0.3721670374767036,0.06658977229846513,-0.31628403024193147,-0.3747018873691559,-2.085460901260376,-1.4044195413589478,-0.767848014831543,0.6670774221420288,-0.2874846756458282
1749046929.0945933,-4.198657633011298,-0.7809723435784616,0.5081928625352508,5.270973697250467,-0.708691626880091,5.2172992817309805,-0.06822819073792215,-0.07336582495035067,-0.1157489953644875,-0.37422978711002075,0.06750395342568605,-0.3179797558610201,-0.3566375076770782,-2.1194684505462646,-1.4240130186080933,-0.7139725089073181,0.6803217530250549,-0.2640693187713623
1749046929.0946302,-4.198794792147663,-0.7811169376739847,0.5079600013686492,5.270220912897029,-0.7085537478651346,5.216662308340929,-0.06874360734581988,-0.07338889287401029,-0.11679073047430949,-0.3762480412793072,0.06850563941358423,-0.31970336561513735,-0.422855019569397,-2.2386631965637207,-1.4861239194869995,-0.7875801920890808,0.6799333691596985,-0.3420398831367492
1749046929.094667,-4.198933137452284,-0.7812616397547781,0.5077252317669108,5.269461422698951,-0.7084130861557852,5.21602013385779,-0.0692425555115858,-0.07338441760098886,-0.11786156046460079,-0.37821851539698215,0.06954958435275592,-0.3214410619859912,-0.3458006978034973,-2.1189610958099365,-1.4062585830688477,-0.7472485899925232,0.6654674410820007,-0.3334819078445434
1749046929.094704,-4.199072624065816,-0.7814065691666752,0.5074882580490232,5.268695112789959,-0.7082695611078432,5.215372385621657,-0.06971635287912185,-0.07338229461094833,-0.118930459501883,-0.3801380937864487,0.07058672035041078,-0.32317612642537913,-0.3545711040496826,-2.108368158340454,-1.399129033088684,-0.7806981801986694,0.6788267493247986,-0.3087947964668274
1749046929.0947404,-4.199213182569101,-0.7815518671041342,0.5072488703510724,5.267922051964431,-0.7081232570512703,5.214718823699339,-0.07015872674966993,-0.07341153330837774,-0.11996534798992183,-0.3820029995691756,0.07156778147554321,-0.32488934353679805,-0.3676969707012176,-2.150229215621948,-1.391566038131714,-0.7261211276054382,0.6687217354774475,-0.3179861009120941
1749046929.0947769,-4.199354725931033,-0.7816976895485761,0.5070069696409417,5.267142517360145,-0.7079744223444661,5.214059380643637,-0.07056602403801326,-0.07349718446429195,-0.12093522002522468,-0.38380787247604314,0.07244700905222906,-0.3265598117669412,-0.4271207451820373,-2.2114148139953613,-1.43174147605896,-0.7336510419845581,0.6786175966262817,-0.3175126612186432
