nimar13/UR3e_dataset_trayectorias/trayectorias_ejecutadas_filtradas/trapezoidal/trayectoria_088_result_filtrado.csv
timestamp,q1,q2,q3,q4,q5,q6,qd1,qd2,qd3,qd4,qd5,qd6,tau1,tau2,tau3,tau4,tau5,tau6
1749048652.114285,-1.1912483404414573,-2.236638680267799,0.9782268429336589,-5.89126036842813,2.008560109062244,0.8304490476629585,0.0005007755093210857,-0.0005444518894718791,0.00039668036279245174,-0.010925523588989008,0.0017209166721510775,-0.005174603656677467,0.1806460916996002,0.1967949867248535,-0.3970508873462677,-0.7964586019515991,0.0704016536474227,-0.0877252370119094
1749048652.1143315,-1.1912364175898886,-2.2366394715348807,0.9782294229027393,-5.891272869304587,2.0085567471216548,0.830443668230825,0.000412732818562624,-0.00010860392671602625,0.0003742237311554159,-0.009316480907671561,0.0015368270045044948,-0.0042286916575693815,0.1785461157560348,0.206336110830307,-0.3953898251056671,-0.7956010699272156,0.0501327104866504,-0.0851830095052719
1749048652.1143718,-1.1912249907515942,-2.2366400245400824,0.9782320495274293,-5.891284663115782,2.0085534724491265,0.8304386100264297,0.00032325443211615344,0.0003164520740028776,0.00035289253216496476,-0.007728942933137376,0.0013560464326548042,-0.003307958542058806,0.1408780515193939,0.2324077486991882,-0.4018435776233673,-0.7680926322937012,0.0465751104056835,-0.0676889270544052
1749048652.1144104,-1.19121453198611,-2.2366400691497863,0.9782347719598716,-5.89129513857701,2.008550328530426,0.8304342065560109,0.00023149228462189764,0.0007197734742066464,0.0003334267351390991,-0.006186664778325799,0.0011821691487919393,-0.0024326878121218418,0.1493157893419265,0.227485716342926,-0.3943826258182525,-0.754035472869873,0.0252747721970081,-0.0664701908826828
1749048652.1144483,-1.1912054273177555,-2.236639395015381,0.9782376200918451,-5.8913037958320835,2.0085473569849066,0.8304307356959029,0.0001370760140936695,0.0010915031266377378,0.0003164119828022482,-0.004713333334820896,0.0010183099021265538,-0.0016201776976912934,0.1361072659492492,0.2269333600997924,-0.4126249253749847,-0.7608822584152222,0.0200629644095897,-0.0581769794225692
1749048652.1144867,-1.1911979487445248,-2.2366378707298957,0.9782406012012993,-5.8913102805522675,2.008544597728985,0.830428398003277,4.02730011319304e-05,0.0014233959283656108,0.0003022324047084762,-0.0033319967307906544,0.0008669409019850565,-0.0008839046629356444,0.1533773094415664,0.2323841154575348,-0.4032863974571228,-0.7400124669075012,0.014586191624403,-0.0609966367483139
1749048652.114528,-1.1911922405486357,-2.2366354513994966,0.9782437006028804,-5.891314401837194,2.0085420887090817,0.8304273036174991,-5.7927831400357024e-05,0.001709217785091628,0.0002910422458165232,-0.0020642263623878794,0.0007298116382391982,-0.000233085302363503,0.1287339627742767,0.2065149843692779,-0.4165732264518738,-0.7217017412185669,-0.0003230310976505,-0.0524999946355819
1749048652.1145663,-1.1911883191544141,-2.2366321752214398,0.9782468854148278,-5.891316133469816,2.008539864752107,0.8304274687973509,-0.00015582448652497565,0.0019449567383298713,0.00028275956011834737,-0.0009291038412713728,0.0006079502559330228,0.0003273800505438412,0.1519650220870971,0.2296280562877655,-0.4253947138786316,-0.7213854789733887,0.0032384656369686,-0.0527791529893875
1749048652.1146042,-1.1911860844961417,-2.236628151101095,0.9782501100828902,-5.891315600310321,2.0085379552277542,0.8304288221136814,-0.00025110720166311365,0.0021288216426430407,0.0002770829647324311,5.7838682238903254e-05,0.0005017320033539895,0.0007966523878651407,0.1327672898769378,0.2328764796257019,-0.4165500402450561,-0.7196041345596313,-0.0159645341336727,-0.0294261872768402
1749048652.114645,-1.1911853405119792,-2.2366235400220176,0.9782533222672563,-5.891313053192052,2.0085363806479277,0.8304312190067342,-0.00034105129774794624,0.0022610581280433184,0.0002735298784738971,0.0008856058100086035,0.00041099170797132526,0.0011774839827149797,0.1162131130695343,0.2475000023841858,-0.416437953710556,-0.6862597465515137,-0.0247970782220363,-0.0252818316221237
1749048652.1146977,-1.1911858222761098,-2.2366185330196164,0.9782564680684384,-5.891308836507389,2.00853514903045,0.8304344621067374,-0.000422775044608627,0.0023436557280327517,0.00027149208235661114,0.0015485634097722797,0.0003351537992825303,0.0014756246516570528,0.155623972415924,0.2220798730850219,-0.4176309704780578,-0.6804759502410889,-0.0195438899099826,-0.0404050797224044
1749048652.1147535,-1.1911872269480441,-2.236613328570842,0.9782594961956352,-5.891303352745498,2.0085342534826145,0.8304383239754981,-0.0004935296006513794,0.0023800293888010383,0.0002703023447526864,0.002047026786322104,0.0002733546328271714,0.001699163267758245,0.1427256762981414,0.2438877820968628,-0.4257141649723053,-0.7019232511520386,-0.0245219729840755,-0.0371014028787612
1749048652.1147954,-1.1911892452266957,-2.236608112190172,0.9782623612437047,-5.891297027612641,2.0085336724106444,0.8304425691086945,-0.0005509810763706987,0.0023747282805708,0.00026930475939841096,0.0023875296404858616,0.00022453687186943614,0.0018578212039040852,0.1504136323928833,0.2292630076408386,-0.4175652265548706,-0.7013999819755554,-0.0393197797238826,-0.0204953700304031
1749048652.1148334,-1.191191589714076,-2.2366030407515676,0.9782650264397437,-5.891290278254262,2.0085333728107138,0.830446972969133,-0.0005934428565198733,0.0023331740425165783,0.0002679216002671844,0.002582673831916329,0.0001875036834675546,0.0019621929602727205,0.138449341058731,0.2504293024539947,-0.4163144528865814,-0.6789038181304932,-0.0545888990163803,-0.0199756473302841
1749048652.114871,-1.191194016877698,-2.2365982332202465,0.9782674660140657,-5.891283486035732,2.008533315830915,0.8304513369236024,-0.000620023338922979,0.0022613924752999544,0.0002657107091106455,0.002650476204503843,0.00016093070144031812,0.002022947802671724,0.1241684257984161,0.2594572305679321,-0.4308684468269348,-0.6662391424179077,-0.0380406714975833,-0.0246686041355133
1749048652.1149085,-1.191196340397807,-2.2365937682396253,0.9782696670144484,-5.891276974834466,2.0085334630058655,0.8304554987598165,-0.0006306714667436471,0.0021657020864708433,0.00026240905618092505,0.0026132017855670536,0.00014334434290414464,0.0020500517229500195,0.1368411481380462,0.2383842170238495,-0.41366046667099,-0.6728537082672119,-0.0312893316149711,-0.0161143392324447
1749048652.1149452,-1.1911984354252418,-2.23658968783905,0.9782716302717143,-5.891270995810978,2.0085337814064523,0.830459338937018,-0.0006261243726113126,0.0020523572765892705,0.00025795948343114965,0.0024957790436355813,0.0001330833264146898,0.002052107314418177,0.1483145952224731,0.2400030791759491,-0.4284476637840271,-0.6580344438552856,-0.046079121530056,0.0008101612329483
1749048652.1149824,-1.191200234954884,-2.2365860056719216,0.9782733704471068,-5.891265719594436,2.0085342460751696,0.830462783019879,-0.0006077796028132285,0.0019271870441290979,0.0002525186450270717,0.0023239820714000188,0.0001282639670403974,0.0020359136043473923,0.145070880651474,0.2394872903823852,-0.4357900023460388,-0.6441720724105835,-0.063757486641407,-0.0009639412164688
1749048652.1150188,-1.1912017205124068,-2.236582717677717,0.978274915353041,-5.891261236259791,2.008534838497577,0.8304658008391618,-0.0005775237758421887,0.0017952939878085274,0.0002464452364491438,0.002122601935745418,0.0001267691092059234,0.0020063131273372115,0.1430486440658569,0.2664527893066406,-0.4310020506381988,-0.6492879390716553,-0.0583037957549095,-0.0241017490625381
1749048652.115061,-1.191202909644669,-2.2365798128672565,0.9782763046524554,-5.891257562452647,2.0085355408680106,0.8304684027900227,-0.0005375502175091893,0.0016608713152380038,0.00024026908357692458,0.00191381376518002,0.00012627705555760593,0.0019663316238044326,0.1270972192287445,0.2631223499774933,-0.4304887950420379,-0.64764404296875,-0.0633808374404907,-0.0203108042478561
1749048652.1151743,-1.1912038425652596,-2.2365772820812624,0.9782775876433606,-5.891254653990387,2.0085363275677355,0.8304706335083075,-0.0004901925233318095,0.001527163572767048,0.00023464339104502756,0.0017158965173653385,0.00012434188786413248,0.0019175489135285014,0.1293999850749969,0.2426383197307586,-0.4176843166351318,-0.6443095207214355,-0.0595554560422897,-0.0199472457170486
1749048652.1168234,-1.191204569807982,-2.2365751231104163,0.9782788195821547,-5.891252421629052,2.0085371568061605,0.830472563162086,-0.0004377917211060923,0.0013965560646269698,0.00023028403513250742,0.001542399758413383,0.00011853049239515525,0.0018605923321174604,0.1357917338609695,0.2473256289958953,-0.4178126752376556,-0.6517775058746338,-0.0542257837951183,-0.0178418308496475
1749048652.1582725,-1.191205141922994,-2.2365733414668596,0.9782800562435838,-5.891250747546029,2.008537965794176,0.8304742768092518,-0.00038260403387173233,0.0012707460528402577,0.0002279009820771244,0.0014017899963297943,0.0001066144233725847,0.0017956332053735249,0.1484883725643158,0.2437818348407745,-0.4282228946685791,-0.6178933382034302,-0.0586719550192356,-0.0219733417034149
1749048652.1583183,-1.1912056014306114,-2.236571947153178,0.9782813470636983,-5.891249500421622,2.0085386718687306,0.8304758626804448,-0.0003267463264094189,0.0011509375563784794,0.00022812766180419018,0.0012975545574252243,8.680678362985128e-05,0.0017227923760662674,0.157396525144577,0.2316390424966812,-0.4370351135730743,-0.6452902555465698,-0.0507809519767761,-0.0104662030935287
1749048652.1583593,-1.1912059768227587,-2.2365709486670338,0.9782827278813413,-5.891248547820286,2.00853918025009,0.8304774007106684,-0.0002721690849559562,0.0010380116854404719,0.00023145442987444943,0.001228696278647098,5.8026169660091365e-05,0.0016424074251535528,0.1620201468467712,0.2325780689716339,-0.4256730675697326,-0.6406105756759644,-0.0429768189787864,-0.0096067041158676
1749048652.1584022,-1.19120627848593,-2.2365703460091444,0.9782842146409221,-5.891247765716893,2.008539397297355,0.8304789528403923,-0.00022064344669229757,0.0009326465205704619,0.00023817211103597345,0.0011905196492868978,2.0162092567024773e-05,0.0015551609804720541,0.1573468297719955,0.2102425992488861,-0.4266535639762878,-0.6472868919372559,-0.0467052347958087,-0.0109497159719467
1749048652.1584415,-1.1912064968121705,-2.236570124603296,0.9782857993206174,-5.891247045895815,2.008539246652479,0.8304805563214797,-0.00017374951999742886,0.0008353822939595839,0.00024833109643544385,0.0011755918442699503,-2.569015211433941e-05,0.0014621012893429972,0.1328334361314773,0.2486131191253662,-0.4331690967082977,-0.6507861614227295,-0.053094245493412,-0.0186476409435272
1749048652.1584797,-1.1912066031192656,-2.236570251795718,0.9782874488672635,-5.891246301995674,2.0085386848503592,0.8304822206237895,-0.0001328571525119046,0.0007466416004715557,0.0002617206596801867,0.0011747634623382513,-7.706166594707118e-05,0.0013645987816429156,0.1501168459653854,0.2513365149497986,-0.4122142195701599,-0.6477634906768799,-0.0423707030713558,-0.0100826919078826
1749048652.158517,-1.1912065539878172,-2.2365706769701283,0.9782891072384021,-5.891245474330574,2.0085377131086184,0.830483927834565,-9.909556574799156e-05,0.000666719699294525,0.0002778720291226975,0.001178153056898633,-0.00013004736105689263,0.001264279289445006,0.156087577342987,0.22178515791893,-0.4292699694633484,-0.6465535163879395,-0.036515612155199,-0.0169103890657424
1749048652.158554,-1.1912062990880232,-2.2365713353961167,0.9782907000735632,-5.891244532993383,2.008536383042063,0.8304856359239751,-7.331253855639998e-05,0.0005957593862236461,0.0002960870971493977,0.0011760305096703875,-0.00017938486265294177,0.0011629619617833644,0.1707228422164917,0.2261199653148651,-0.4320586621761322,-0.6613548994064331,-0.0464672893285751,-0.0016466230154037
1749048652.1585913,-1.1912057916172414,-2.236572155007554,0.9782921412818735,-5.891243478594421,2.0085347954736537,0.8304872840745823,-5.602574385594419e-05,0.0005337215182627861,0.0003154923728013253,0.0011595678253666284,-0.00021870494770228615,0.0010626134158140336,0.1497856378555297,0.2270037829875946,-0.4096443057060241,-0.6518093347549438,-0.0348563566803932,-0.0104617625474929
1749048652.158629,-1.1912049994216896,-2.2365730647209405,0.9782933408529427,-5.891242340227553,2.0085330927357745,0.8304887993945534,-4.736912004803453e-05,0.000480358204172255,0.0003351151451250284,0.0011214543636663716,-0.00024097264375101725,0.0009653143518711587,0.1637048721313476,0.2150117456912994,-0.42058265209198,-0.6553928852081299,-0.0352368950843811,-0.0267613232135772
1749048652.1586704,-1.1912039142186732,-2.2365740027948378,0.9782942131806822,-5.89124117060638,2.0085314455977445,0.8304901045276762,-4.703753424852116e-05,0.00043519213186630644,0.00035397619283445564,0.0010563927015837386,-0.00023912243667000805,0.0008732246191464566,0.1756274104118347,0.2082920968532562,-0.4243738651275635,-0.6457064151763916,-0.0495107173919677,-0.0238583832979202
1749048652.1587229,-1.1912025565603686,-2.2365749239421495,0.978294685078672,-5.891240038639644,2.0085300363184304,0.830491125760407,-5.423454318118935e-05,0.00039750305311049534,0.00037119090811789374,0.000961499967622578,-0.00020687107776099943,0.000788529233544269,0.1882841885089874,0.2126823961734771,-0.4258332848548889,-0.6595561504364014,-0.0302714928984642,-0.0044638961553573
1749048652.1587634,-1.1912009753444468,-2.2365758041809976,0.9782947026484898,-5.891239020018987,2.0085290394979953,0.8304918011456517,-6.763071417108296e-05,0.00036632127068173274,0.0003860682760143544,0.0008366380454968595,-0.00013966830957584826,0.0007133503010320253,0.1879900097846985,0.2224005460739135,-0.4126126170158386,-0.651785135269165,-0.036337487399578,-0.0150255411863327
1749048652.158802,-1.1911992421920659,-2.2365766426917304,0.9782942363016311,-5.891238186623087,2.008528602486137,0.8304920879201442,-8.534307488945819e-05,0.00034042802254873874,0.00039819454427454675,0.000684685900648707,-3.572116627747731e-05,0.0006496157934573571,0.1749892234802246,0.2068716585636139,-0.4290355145931244,-0.6521936655044556,-0.0229742266237735,-0.022460326552391
1749048652.1588397,-1.1911974421750642,-2.236577460332454,0.9782932834580591,-5.891237595606666,2.008528827147371,0.830491968239063,-0.00010494899911394853,0.0003183637498804884,0.00040748589777090495,0.0005117506574472945,0.00010299629547576406,0.0005988832991743912,0.1799760609865188,0.2108899354934692,-0.4297749400138855,-0.6578209400177002,-0.0301990248262882,0.0003584027290344
1749048652.1588771,-1.1911956629436704,-2.236578294954146,0.9782918687502249,-5.891237279001003,2.0085297548170886,0.8304914522592789,-0.00012354931026746553,0.00029844713254470863,0.0004141935161609509,0.0003272942968893722,0.00026985601578404547,0.0005621239837136093,0.1815812438726425,0.2120905220508575,-0.4128399491310119,-0.6558325290679932,-0.0398302488029003,-0.0327030420303344
1749048652.1589143,-1.1911939843566437,-2.236579194203699,0.9782900419219437,-5.89123723464776,2.008531356182092,0.8304905780055866,-0.000137894704286534,0.0002788102411523183,0.0004188472749051621,0.00014413444065771371,0.0004529328943632226,0.0005394786911127534,0.1946036517620086,0.208498477935791,-0.4363055229187011,-0.6474258899688721,-0.0240085944533348,-0.0219292193651199
1749048652.1589549,-1.1911924703237553,-2.2365802070783367,0.9782878738418961,-5.891237419286387,2.008533527282219,0.830489408089741,-0.00014458616725105037,0.0002574579295621857,0.00042213193466237,-2.1734549187989663e-05,0.0006347295350282666,0.0005300041992669128,0.1969008147716522,0.1710297465324401,-0.4203342795372009,-0.6511080265045166,-0.0374509058892726,-0.0207788348197937
1749048652.1589918,-1.1911911639223218,-2.236581375838322,0.9782854510303359,-5.891237744484121,2.008536091682039,0.8304880238983758,-0.0001403538763551722,0.00023236206373788323,0.0004247002819711592,-0.0001515560346002935,0.0007923818269706252,0.0005314328479627112,0.2071912586688995,0.1926162242889404,-0.4294807910919189,-0.6571025848388672,-0.0482320040464401,-0.0219524204730987
1749048652.159029,-1.19119008621074,-2.236582729628768,0.9782828690026858,-5.891238075857052,2.0085388074913273,0.8304865180991048,-0.00012241063301651864,0.00020160188719191882,0.0004269383722590403,-0.00022450663302665298,0.00089843188081878,0.000539972737309635,0.1886402517557144,0.180323451757431,-0.4356254935264587,-0.6455932855606079,-0.027720246464014,-0.0295759886503219
1749048652.1591277,-1.1911892386007914,-2.2365842803794966,0.978280224840053,-5.89123823576329,2.008541377220806,0.8304849862049615,-8.886591726021736e-05,0.00016355880517455746,0.0004287064281546514,-0.0002186949169341309,0.0009222114514820236,0.000550177826309856,0.1981438100337982,0.1761270463466644,-0.4490483105182647,-0.6601918935775757,-0.0337039567530155,-0.0291401296854019
1749048652.1614742,-1.1911886081302756,-2.2365860207133053,0.9782776096603127,-5.891238009305542,2.0085434590604643,0.8304835176060072,-3.91759258079881e-05,0.00011716629897926529,0.0004290839086283807,-0.0001124503014496604,0.0008318194001068418,0.0005549166463471009,0.2008644938468933,0.1734886020421981,-0.4335683584213257,-0.6502336263656616,-0.0500569716095924,-0.0421293526887893
1749048652.2063005,-1.1911881746217086,-2.2365879230712404,0.9782751017914443,-5.891237153018101,2.0085446795921107,0.8304821861928285,2.540571366672524e-05,6.220488492643484e-05,0.00042614852550592735,0.00011415427725068543,0.0005966038670757259,0.0005454640753841638,0.2048749029636383,0.1686802953481674,-0.4437244236469269,-0.6308752298355103,-0.0728132650256156,-0.047955498099327
1749048652.2063465,-1.1911879186502246,-2.2365899392984194,0.978272761375073,-5.891235405171127,2.0085446489283045,0.8304810407616787,0.00010142135594155001,-3.7952951194005843e-07,0.00041681679600916134,0.00047764863800108486,0.00018997918370286575,0.0005117320541308306,0.1984773725271225,0.156498908996582,-0.4562405943870544,-0.6270684003829956,-0.0673449039459228,-0.0583311170339584
1749048652.2063885,-1.1911878293433493,-2.236592000594031,0.978270627024816,-5.8912324964088345,2.0085429789849094,0.8304800957971311,0.0001828984725141179,-6.816584034380685e-05,0.0003967685779874683,0.0009895252414463846,-0.00040767241163784586,0.0004426422202578081,0.2124946117401123,0.1669143140316009,-0.4478118121623993,-0.6101316213607788,-0.0955453962087631,-0.0585076659917831
1749048652.206437,-1.1911879110802197,-2.236594018540008,0.9782687150176067,-5.891228159583675,2.008539304423009,0.8304793235975371,0.0002611884334396947,-0.00013699614758662674,0.0003604705349554937,0.001654785755460228,-0.001206332050583113,0.0003266271823911558,0.215831458568573,0.1790931522846222,-0.4723575413227081,-0.6069927215576172,-0.1073407977819442,-0.0617925375699996
1749048652.2064762,-1.1911881881815156,-2.2365958880912675,0.9782670210789397,-5.891222138199752,2.0085333046919964,0.8304786487450371,0.00032500518131668574,-0.00020080593410374927,0.00030130428442973396,0.002470852406183561,-0.002204267875633969,0.00015222975972321357,0.1968660950660705,0.1998225599527359,-0.4822224378585815,-0.5950161218643188,-0.1229118108749389,-0.0926723033189773
1749048652.206514,-1.191188706920887,-2.2365974926935994,0.9782655240609195,-5.891214193688932,2.0085247250735354,0.830477945688772,0.00036070330305534875,-0.0002515884803550893,0.00021179482782179675,0.003426997131892608,-0.0033869091922456027,-9.124594157326782e-05,0.1922062933444976,0.1761830449104309,-0.4981846213340759,-0.5904825925827026,-0.1585122197866439,-0.0938025563955307
1749048652.2065518,-1.1911895347525097,-2.236598710705489,0.978264189987403,-5.891204112417838,2.008513394573737,0.8304770398613264,0.00035281688516130985,-0.00027952888295567924,8.392470285279581e-05,0.004504390529746797,-0.004726968467818902,-0.000413087919353207,0.1729346215724945,0.1914879381656646,-0.4981440305709839,-0.576039731502533,-0.1829251646995544,-0.0987433642148971
1749048652.206592,-1.191190757326312,-2.236599421830185,0.9782629745664962,-5.891191713463876,2.0084992386805807,0.8304757123187742,0.000284855615030902,-0.00027332972176105245,-9.048931618377784e-05,0.00567681334998504,-0.006185979171840928,-0.0008205920247712857,0.1812958419322967,0.2201487421989441,-0.5211001038551331,-0.5707244277000427,-0.1694088578224182,-0.107884481549263
1749048652.20663,-1.1911924742663718,-2.236599512518283,0.978261822712197,-5.891176857703611,2.008482285214666,0.8304737074808489,0.00014032456083326836,-0.00022073145110119933,-0.00031938496334703493,0.00691202336229576,-0.007717232701747116,-0.0013185872257374248,0.1576716154813766,0.2167427241802215,-0.5159684419631958,-0.5399582386016846,-0.211295485496521,-0.1166537255048751
1749048652.2066674,-1.1911947946220973,-2.236598879886908,0.9782606647499081,-5.891159457848693,2.00846266176278,0.8304707433674448,-9.609804850294016e-05,-0.00010920745626684093,-0.000610035252981406,0.008173728191954598,-0.009269895897896539,-0.0019090910266000298,0.1181912571191787,0.2274585515260696,-0.538166880607605,-0.5492031574249268,-0.2223710417747497,-0.1163218170404434
1749048652.2067082,-1.191197832531806,-2.236597434198215,0.9782594102702213,-5.891139488147388,2.008440583701938,0.8304665238582378,-0.0004373203998472928,7.321112503844863e-05,-0.0009686388357594038,0.009424062271401495,-0.010793913897748798,-0.0025910762415272924,0.1082585304975509,0.2469707131385803,-0.5407782196998596,-0.5312397480010986,-0.2346649765968322,-0.1116006225347518
1749048652.20676,-1.191201703256975,-2.236595100235505,0.9782579414739393,-5.89111699195859,2.008416332725224,0.8304607527751346,-0.0008926505460306901,0.00033704871280564215,-0.0013999228398187407,0.010626394730217974,-0.012245173249599338,-0.003360295583691388,0.0902948677539825,0.2609688639640808,-0.54054194688797,-0.5189451575279236,-0.2480495125055313,-0.1225781291723251
1749048652.2067993,-1.1912065194911141,-2.236591818039034,0.9782561080242094,-5.891092085455404,2.008390226900024,0.8304531497569739,-0.0014667852480874503,0.0006905210479053253,-0.0019067488521963697,0.011748221720657575,-0.013590324830182975,-0.00420910798767438,0.0481272228062152,0.2794452905654907,-0.5549971461296082,-0.524867594242096,-0.2253602147102356,-0.1231774538755416
1749048652.2068367,-1.1912123877416345,-2.236587543337236,0.9782537249962349,-5.891064956112209,2.008362584344398,0.8304434677549132,-0.002159076843440581,0.0011387817874525953,-0.002489714863616328,0.012763850441158702,-0.014810658897358787,-0.005126293081479229,0.0807437375187873,0.2803127765655517,-0.5679402947425842,-0.513673722743988,-0.2237942218780517,-0.1353173702955246
1749048652.2068777,-1.1912194046859614,-2.2365822475474846,0.9782505748888515,-5.8910358551125,2.0083336835091785,0.8304315114087576,-0.0029631375480112378,0.0016833544683772042,-0.0031467682314554922,0.013656581739664128,-0.015904506304742418,-0.006096908184870597,0.0747056677937507,0.311218649148941,-0.5832493901252747,-0.5129963159561157,-0.2289501726627349,-0.1471215933561325
1749048652.206916,-1.191227653692415,-2.2365759166742856,0.9782464141570398,-5.8910050833774825,2.0083037238688175,0.830417154701217,-0.00386679135882731,0.002321792302314637,-0.00387287675510945,0.014420147669056537,-0.01688781796040202,-0.0071022980500788325,0.0496549680829048,0.2886599600315094,-0.5950835347175598,-0.5160183906555176,-0.2548145949840545,-0.1561143845319748
1749048652.2069557,-1.1912372018644122,-2.2365685483533966,0.9782409843174724,-5.89097297161428,2.008272791479547,0.8304003555873464,-0.004852360878538992,0.0030475699956589207,-0.004659825208929489,0.015059255733860877,-0.017792825139516043,-0.008120384707405242,0.0296754166483879,0.2919148802757263,-0.6060903072357178,-0.5212621092796326,-0.2406539320945739,-0.1607292741537094
1749048652.2069972,-1.191248097674628,-2.236560146924999,0.978234027156604,-5.890939855527898,2.008240834021095,0.8303811652779252,-0.005897293696334991,0.0038501894809617504,-0.0054961981802954096,0.015589216920654632,-0.018664952796095903,-0.009126338090886227,-0.0053828470408916,0.3026662766933441,-0.5995458364486694,-0.5150126814842224,-0.2560176849365234,-0.1577405780553817
1749048652.2070477,-1.1912603686505017,-2.236550717354551,0.9782253028727665,-5.8909060480383255,2.0082076492325833,0.8303597306292261,-0.0069751612899184206,0.004715487455441235,-0.006367583232968629,0.01603475630958246,-0.01955838726408688,-0.010093666206643028,0.0260188952088356,0.3675599098205566,-0.5969615578651428,-0.5075475573539734,-0.2780802547931671,-0.1593386083841323
1749048652.2070906,-1.1912740183076598,-2.236540259415384,0.9782146093195784,-5.89087181093262,2.0081728889992396,0.830336289210538,-0.008057056724232795,0.0056261511545514275,-0.007257003063521553,0.016428186908733763,-0.02053085072202144,-0.010995683501474758,-0.0083794742822647,0.3821925818920135,-0.6254297494888306,-0.5007562637329102,-0.2879693508148193,-0.163562074303627
1749048652.2071283,-1.191289022163402,-2.236528763532188,0.9782018001707106,-5.890837328646653,2.0081360789740854,0.8303111575115225,-0.009113361323475181,0.006562448819085969,-0.008145574703590218,0.01680715567170822,-0.021638195719165858,-0.011807241477280957,-0.0104391723871231,0.3125295341014862,-0.6332244873046875,-0.4878186881542206,-0.2988554239273071,-0.1590341031551361
1749048652.2071657,-1.191305324027275,-2.236516209235661,0.978186799893275,-5.890802686568522,2.0080966509703564,0.8302847132133835,-0.010115771951331872,0.007503151954935455,-0.009013388520484621,0.017212158995508424,-0.0229294055093934,-0.012506557390605104,-0.0104777291417121,0.3354223370552063,-0.6183271408081055,-0.4948259890079498,-0.3104925453662872,-0.1416730284690857
1749048652.2072752,-1.1913228349493508,-2.2365025665798877,0.9781696137920676,-5.890767855498749,2.0080539831029087,0.8302573726148902,-0.011039414611314611,0.008426590186414907,-0.009840582082987447,0.017683997476629763,-0.02444248178903791,-0.013076961238506891,-0.047173760831356,0.3714577555656433,-0.6393341422080994,-0.4908263683319092,-0.3302440345287323,-0.1453595161437988
1749048652.208771,-1.1913414373059117,-2.2364878002671573,0.9781503319542194,-5.890732683138394,2.0080074415471394,0.8302295643948677,-0.011864831752881225,0.00931176476645044,-0.010608550878531691,0.018261315267425898,-0.026201548234824915,-0.0135083893387643,-0.0265545547008514,0.3643206357955932,-0.6421236395835876,-0.462868720293045,-0.3409719169139862,-0.1488986164331436
1749048652.2543116,-1.1913609953456479,-2.236471875685811,0.9781291266177274,-5.890696893009531,2.0079564182341563,0.8302017011776314,-0.012579618590338227,0.010139456186727331,-0.011301202641807095,0.018978355366390132,-0.028215330804173818,-0.013798471918152156,-0.0565158650279045,0.4165433347225189,-0.6314612627029419,-0.4659285247325897,-0.3566436767578125,-0.1585114747285843
1749048652.254357,-1.1913813716281119,-2.236454765727763,0.9781062431473777,-5.890660090972639,2.0079003606365484,0.8301741509979546,-0.013179497771838295,0.010893273887078924,-0.011906138200832654,0.019863053334594528,-0.030477019505406308,-0.013953086418187268,-0.0493810549378395,0.3798270225524902,-0.6470320224761963,-0.4609461426734924,-0.355856716632843,-0.1468532979488372
1749048652.254397,-1.1914024469027504,-2.2364364571984066,0.9780819852155413,-5.890621779285447,2.0078387923984407,0.8301472114557252,-0.01366866851093008,0.011560594608274584,-0.012415634204920825,0.020935575754298788,-0.032965383588921024,-0.01398628168218241,-0.0218639075756073,0.3823113143444061,-0.6318484544754028,-0.4359309673309326,-0.370365560054779,-0.1488478183746338
1749048652.254436,-1.1914241397645982,-2.2364169558002374,0.9780566949959617,-5.890581377813412,2.0077713260067442,0.8301210895605896,-0.014059349969806501,0.012133323325753145,-0.01282731236733454,0.022207377091746083,-0.03564690941114774,-0.013919527870707965,-0.0668659955263137,0.4412684440612793,-0.6300607919692993,-0.4349577724933624,-0.371314138174057,-0.1352305114269256
1749048652.254474,-1.191446422276209,-2.23639628896969,0.9780307294906426,-5.89053825151566,2.007697670035771,0.8300958896782938,-0.014370549758921332,0.012608402229758781,-0.013144406929908786,0.02368080050468227,-0.038478661388013605,-0.013780313082688598,-0.0495007708668708,0.4248344302177429,-0.6245133280754089,-0.4185205996036529,-0.3804291486740112,-0.1420018374919891
1749048652.2545118,-1.1914693286156879,-2.2363745062216314,0.9780044346457745,-5.890491742826903,2.0076176333587568,0.8300716107101616,-0.014626201406443665,0.0129879994857328,-0.013375587254301134,0.02534919520998427,-0.041411531224090255,-0.013600181441695001,-0.0566035881638526,0.4292070865631103,-0.6390910148620605,-0.3910404145717621,-0.3762542009353637,-0.1339926719665527
1749048652.2545502,-1.191492955286165,-2.236351677002188,0.9779781194523157,-5.890441207253683,2.007531127662919,0.8300481521058529,-0.014852898768482801,0.013279329616099629,-0.013534350010271581,0.027197480538501684,-0.04439353956044768,-0.013412378299434117,-0.0858463495969772,0.4263104796409607,-0.6599878072738647,-0.4098424315452575,-0.3917000591754913,-0.1228299364447593
1749048652.2545886,-1.1915174530212178,-2.2363278862555473,0.977952032565803,-5.890386050381937,2.0074381685629836,0.8300253271123518,-0.015077492816457545,0.013494087629885309,-0.01363805098037707,0.029203065835858365,-0.0473728945496373,-0.013249328491970387,-0.0870560631155967,0.4394371509552002,-0.6516828536987305,-0.4010652601718902,-0.3817397952079773,-0.1310214698314666
1749048652.254656,-1.191543011869869,-2.236303228043997,0.9779263440671304,-5.8903257642878355,2.007338875056604,0.8300028811357225,-0.015324811013878349,0.013647521197231859,-0.013706684237356704,0.03133703663287565,-0.05030059885470779,-0.013140212772707502,-0.0804034098982811,0.4467731118202209,-0.6469283103942871,-0.3832719624042511,-0.402045339345932,-0.1478249132633209
1749048652.2547288,-1.191569841796908,-2.236277797804018,0.9779011346631873,-5.890259960912093,2.0072334668230036,0.8299805130280863,-0.015615726580842575,0.01375721899090925,-0.01376153067237145,0.03356553425256012,-0.05313251670079754,-0.013108909001053985,-0.1078120917081832,0.4565979242324829,-0.6562126278877258,-0.3897398114204407,-0.4135891199111938,-0.1369272768497467
1749048652.2547767,-1.1915981513709126,-2.236251684188502,0.9778763936366298,-5.890188399414888,2.0071222585386486,0.829957897086439,-0.0159657546325607,0.013841745374572256,-0.013823795199375129,0.035851279974133524,-0.05583093036178156,-0.013172517506469972,-0.1677101254463195,0.4690254926681518,-0.6811242699623108,-0.3879246413707733,-0.4013279676437378,-0.1542935669422149
1749048652.2548175,-1.1916281267864064,-2.2362249617562258,0.9778520252590831,-5.890111004113431,2.007005649822133,0.8299347035475264,-0.016384286854139982,0.013919280365152132,-0.013913342263301558,0.038155218084725356,-0.058365689952611356,-0.013340602804054684,-0.1677101254463195,0.4690254926681518,-0.6811242699623108,-0.3879246413707733,-0.4013279676437378,-0.1542935669422149
1749048652.2548552,-1.1916599129103858,-2.236197685836192,0.9778278617886935,-5.890027869730677,2.00688410899536,0.8299106157790462,-0.016874497475920985,0.014006417362080265,-0.01404762583558553,0.04043826440180809,-0.06071506982643866,-0.013615179068583515,-0.1570565551519394,0.4654786586761474,-0.6866390705108643,-0.3778138160705566,-0.3980588018894195,-0.1573222279548645
1749048652.2548928,-1.1916935977969423,-2.236169890608501,0.9778036803573095,-5.889939251962346,2.006758149397801,0.829885343375627,-0.017433868365175166,0.014117235840871191,-0.014240889186558251,0.04266313343312522,-0.0628663988395316,-0.013991365320562818,-0.1606262922286987,0.4896471500396728,-0.7086547017097473,-0.3855966329574585,-0.3804528713226318,-0.1366433501243591
1749048652.25493,-1.1917292023887756,-2.236141590802755,0.9777792212720218,-5.889845543957789,2.006628298937603,0.8298586315625206,-0.0180552062299992,0.014262717136713636,-0.014503678851687603,0.04479617054478208,-0.06481646486198046,-0.0144585533672383,-0.1868517398834228,0.4820556342601776,-0.7104555368423462,-0.4098560512065887,-0.3787016272544861,-0.1186502426862716
1749048652.254967,-1.1917666773948135,-2.236112786514923,0.9777542060457756,-5.889747242186598,2.0064950659167864,0.829830268020551,-0.0187279787142835,0.01445051956663293,-0.01484268082655065,0.04680905477920084,-0.06657165085763614,-0.015001882540310933,-0.1751237362623214,0.4828429520130157,-0.7094138860702515,-0.4174981713294983,-0.3698332607746124,-0.1536746323108673
1749048652.2550042,-1.191805908825729,-2.2360834696751577,0.977728354169164,-5.889644906762957,2.0063589052530757,0.8298000881295211,-0.019439785677222314,0.014685080242278978,-0.015260852518451658,0.04868020353755979,-0.06814776970130645,-0.015603812063487429,-0.1323435604572296,0.487954318523407,-0.7252811193466187,-0.3948113918304443,-0.4140612483024597,-0.1542534828186035
1749048652.2550416,-1.191846732199986,-2.236053630047599,0.9777013978957921,-5.889539121069576,2.006220188569761,0.8297679789755527,-0.02017779822855594,0.014967971409684928,-0.015757795683646846,0.050395726830010826,-0.06956960932130303,-0.016245619712625236,-0.1758478879928589,0.5019404292106628,-0.7224593758583069,-0.3996444344520569,-0.4082507491111755,-0.1548828184604644
1749048652.2550786,-1.1918889535653234,-2.2360232587629225,0.9776730941950009,-5.889430454292192,2.0060791803034776,0.8297338818900186,-0.020930027751879104,0.015298415862958345,-0.016330295966846233,0.05194983486598922,-0.07087021959107358,-0.016908712221446204,-0.182371973991394,0.4922970533370971,-0.7316992878913879,-0.4083296954631805,-0.4009780287742615,-0.1466808021068573
1749048652.2551155,-1.1919323740277525,-2.235992348329385,0.9776432329044215,-5.889319429290916,2.0059360211206068,0.8296977931058026,-0.021686323395004165,0.01567386181128458,-0.01697294728184772,0.05334466997458235,-0.07208992849300083,-0.017575687401863778,-0.189825177192688,0.5035691261291504,-0.7463937401771545,-0.4120689630508423,-0.3980072140693664,-0.1462394744157791
1749048652.2551525,-1.1919768139446385,-2.2359608893292258,0.9776116404279125,-5.889206497421476,2.005790719700985,0.8296597622239176,-0.022439037227055883,0.016090531049010197,-0.017678786126917787,0.054589595341839214,-0.07327499471250071,-0.01823113282453865,-0.1844762414693832,0.4951125383377075,-0.7507878541946411,-0.4088174998760223,-0.4034848809242248,-0.1280099749565124
1749048652.25519,-1.1920221332891905,-2.2359288649770113,0.977578179149786,-5.8890920212902484,2.0056431538088435,0.8296198883875718,-0.023183338870878176,0.016543880823910187,-0.018439878028222258,0.05570002817834664,-0.07447575326907631,-0.01886218119875954,-0.1930732578039169,0.5197956562042236,-0.7620901465415955,-0.4090327322483063,-0.4109739363193512,-0.2031314671039581
1749048652.2553952,-1.1920682456195364,-2.2358962451877233,0.9775427436815901,-5.888976265803317,2.005493081045465,0.8295783142748573,-0.023917201696084068,0.01702895141266869,-0.0192478167424079,0.056695952861752094,-0.07574413479672681,-0.019458866220852303,-0.2001050263643264,0.5214656591415405,-0.7528942823410034,-0.4200693368911743,-0.4305859804153442,-0.1575583219528198
1749048652.2569273,-1.1921151243634431,-2.2358629819139044,0.9775052556187981,-5.888859397194266,2.0053401587691404,0.8295352181528943,-0.02464111466799381,0.017540599183839718,-0.020094109804318094,0.0576002794038512,-0.07713053798908963,-0.020014330693893682,-0.2100636214017868,0.5016953945159912,-0.7639385461807251,-0.42878457903862,-0.4167447984218597,-0.1522552073001861
1749048652.2982771,-1.192162801559416,-2.235829007355967,0.9774656584598268,-5.888741488995999,2.0051839716762863,0.8294908041728051,-0.02535759166353187,0.018073634746428636,-0.020970432770999015,0.05843721191344149,-0.07868018219600433,-0.02052492952389575,-0.1998238563537597,0.5181258916854858,-0.7768375277519226,-0.436113178730011,-0.4385907053947449,-0.1612287163734436
1749048652.298322,-1.1922113603225655,-2.235794236172042,0.9774239138949266,-5.888622533271256,2.0050240646521083,0.8294452908911493,-0.026070552392644056,0.01862289894660782,-0.02186874721921979,0.059230762058871095,-0.08042922935519076,-0.02099024750475693,-0.1986200660467147,0.5176447033882141,-0.7860153913497925,-0.4354424774646759,-0.447732925415039,-0.148328885436058
1749048652.298363,-1.1922609227016605,-2.2357585720047726,0.9773800000741467,-5.888502455028147,2.0048599777879343,0.8293988979801965,-0.02678464282476999,0.01918331651592211,-0.022781300710945068,0.06000350359251654,-0.08240110421248975,-0.021413024879215103,-0.2117861062288284,0.5331879258155823,-0.7702774405479431,-0.4396764934062958,-0.4762036204338074,-0.1727563142776489
1749048652.2984014,-1.1923116344682665,-2.235721917600058,0.9773339118603892,-5.88838112774187,2.0046912801156194,0.8293518315064963,-0.02750455736979017,0.019749964599135635,-0.023700556047862056,0.06077563744700022,-0.08460351933549802,-0.021798962917523593,-0.2549828886985779,0.5307014584541321,-0.7838315367698669,-0.419012039899826,-0.4799409508705139,-0.1559847146272659
1749048652.2984395,-1.1923636483735114,-2.235684186710663,0.9772856625307027,-5.888258388252532,2.0045175988600024,0.8293042689548926,-0.028234421932309916,0.02031817887746971,-0.02461911587065291,0.0615644225141426,-0.08702669550641856,-0.02215637505283128,-0.2336453199386596,0.5326877236366272,-0.7965784072875977,-0.3887771070003509,-0.4811726212501526,-0.1554049849510193
1749048652.2984772,-1.19241710771605,-2.235645315213704,0.9772352859966329,-5.888134049904193,2.004338641841474,0.8292563459469169,-0.028977290352763453,0.020883698455116784,-0.02552970158328619,0.062384001122656026,-0.08964315282808213,-0.022495660475288656,-0.244132861495018,0.5521591305732727,-0.7945835590362549,-0.3860397934913635,-0.4886508285999298,-0.1659148931503296
1749048652.298514,-1.1924721322375238,-2.2356052688292367,0.9771828384926027,-5.888007913505549,2.0041542118023226,0.8292081468503398,-0.029734791928729732,0.02144283194031525,-0.026425214605900832,0.0632455911897561,-0.09240925784854724,-0.02282860387568837,-0.2350844293832779,0.544356107711792,-0.7771787643432617,-0.3956745862960815,-0.4885622262954712,-0.1834336817264557
1749048652.2985525,-1.1925288080429415,-2.2355640456411234,0.9771283988693058,-5.887879776337796,2.003964212608492,0.829159700960069,-0.030506946650562545,0.021992617324882977,-0.02729887248817833,0.06415794429249466,-0.0952684911063935,-0.02316753784618721,-0.2412046790122985,0.5565240383148193,-0.777673602104187,-0.3767702281475067,-0.504109263420105,-0.1819541752338409
1749048652.2985897,-1.1925871826052272,-2.235521672978284,0.9770720669908536,-5.887749439751621,2.0037686483041326,0.8291109848699607,-0.031292142517531873,0.02253094594064193,-0.02814439014881114,0.06512792464571686,-0.09815618799709179,-0.023524432668920334,-0.262525200843811,0.534258246421814,-0.7736865282058716,-0.3704422116279602,-0.5066992044448853,-0.1841416656970977
1749048652.2986293,-1.1926472652504607,-2.235478199546241,0.9770139600734116,-5.887616715751581,2.003567616637895,0.8290619305196579,-0.03208725043415848,0.023056623872772634,-0.028956170357590565,0.06616107564897863,-0.1010053167943703,-0.023909994661136278,-0.2542321383953094,0.5513451099395752,-0.7647171020507812,-0.3678026497364044,-0.4902294874191284,-0.1905979812145233
1749048652.298667,-1.1927090328352588,-2.2354336846045486,0.976954207093064,-5.887481432560207,2.0033612986981284,0.8290124374426567,-0.03288784228004624,0.023569355877814873,-0.029729473720556735,0.06726208474348745,-0.10375268615178941,-0.024332857002821257,-0.2649298310279846,0.565750002861023,-0.7727482318878174,-0.3599241375923157,-0.4722113609313965,-0.1681235134601593
1749048652.298712,-1.1927724395520152,-2.2353881863767033,0.9768929417535684,-5.887343438834478,2.003149945741831,0.8289623869676198,-0.03368848197558871,0.02406965850737342,-0.030460554870779418,0.06843508661061769,-0.10634484286047838,-0.024798939713439543,-0.2758340239524841,0.5684418082237244,-0.7713164687156677,-0.3618860840797424,-0.4714877009391784,-0.199213221669197
1749048652.2987645,-1.192837429110021,-2.2353417517866485,0.9768302949214263,-5.887202606112886,2.00293386363713,0.8289116557231831,-0.0344830750848016,0.024558731567642166,-0.03114677147017011,0.06968374521857879,-0.10874289094598703,-0.025311043043968404,-0.2641723752021789,0.5482763648033142,-0.779900312423706,-0.3729054927825928,-0.4625316262245178,-0.1970150917768478
1749048652.2988057,-1.1929039472187326,-2.2352944091218996,0.9767663876521149,-5.88705882915738,2.002713395115761,0.8288601261299302,-0.03526527646500269,0.02503832636284569,-0.03178668080705974,0.07101105992069758,-0.11092558032228006,-0.02586872126877102,-0.2562836706638336,0.5510765314102173,-0.7663593292236328,-0.3555487692356109,-0.4415724277496338,-0.2093449532985687
1749048652.298843,-1.192971952408031,-2.235246164496098,0.9767013257418385,-5.886912024115187,2.002488900443049,0.8288076926189192,-0.03602895446315947,0.025510640687332917,-0.032380126810311355,0.07241888963743062,-0.11289025688492642,-0.026468459051578453,-0.2866702675819397,0.5933985710144043,-0.7613078355789185,-0.3234791755676269,-0.4340728223323822,-0.1878565102815628
1749048652.2988806,-1.1930414235355824,-2.2351970022110823,0.9766351962367062,-5.8867621248277775,2.0022607377806496,0.8287542635569018,-0.03676869450734272,0.02597825150396782,-0.032928299909360616,0.07390728080298146,-0.11465157762666989,-0.027104141808946252,-0.2786020636558532,0.5856478214263916,-0.7631456851959229,-0.3212083876132965,-0.4494983553886413,-0.1979611068964004
1749048652.2989173,-1.1931123626311975,-2.2351468884640187,0.9765680658152791,-5.886609077970535,2.002029244827166,0.8286997597401143,-0.03748030747043599,0.026444076832109885,-0.033433743567527936,0.07547376737767725,-0.11623822517462415,-0.02776778120068033,-0.3142702281475067,0.5983141660690308,-0.7574285268783569,-0.332651823759079,-0.4412960708141327,-0.2175573110580444
1749048652.2989545,-1.1931847921957615,-2.235095777439599,0.9764999806951925,-5.8864528378403636,2.0017947230627673,0.828644110696868,-0.03816129889802522,0.026911345173001793,-0.03390029131356928,0.07711282850848174,-0.11768816339680126,-0.028450431193431054,-0.2898958623409271,0.5822946429252625,-0.766468346118927,-0.3047398030757904,-0.4600251615047455,-0.1955559104681015
1749048652.2989984,-1.1932587471198626,-2.235043618709293,0.9764309677747651,-5.886293361560169,2.0015574254598953,0.8285872500117859,-0.03881125211011282,0.02738354768742005,-0.034332936314032524,0.07881563736914807,-0.11904320125604714,-0.029143207494555286,-0.275482028722763,0.6196886301040649,-0.7475720643997192,-0.3107246160507202,-0.4725540578365326,-0.2308890670537948
1749048652.2990365,-1.1933342629713204,-2.2349903649177993,0.9763610369612808,-5.886130605416738,2.0013175482329,0.8285291105644569,-0.039432076401047,0.02786435661914162,-0.03473764802269476,0.08057015855214136,-0.12034372038491119,-0.029838300196304936,-0.2940080463886261,0.6261197328567505,-0.7605344653129578,-0.3086112141609192,-0.4759808480739593,-0.2059245258569717
1749048652.2991445,-1.1934113638033226,-2.2349359787481,0.9762901847972655,-5.885964523045841,2.0010752269855483,0.8284696201917249,-0.040028073973832845,0.028357508820934105,-0.035121151410915846,0.0823615916999394,-0.12162435582095382,-0.030529846776604648,-0.2974622249603271,0.6409664154052734,-0.7583673000335693,-0.3129411339759826,-0.4698640704154968,-0.1789338886737823
1749048652.3007524,-1.1934900529435182,-2.2348804380186986,0.9762183993832391,-5.885795066082812,2.000830537142589,0.8284086981775858,-0.0406057902562669,0.028866666896665442,-0.035490677509638344,0.08417312263024743,-0.12291122421152798,-0.031214519093401043,-0.2886407673358917,0.6374270915985107,-0.7520066499710083,-0.2969137132167816,-0.4863147139549255,-0.2072765380144119
1749048652.3422794,-1.1935703090624588,-2.2348237377109004,0.9761456662259589,-5.885622187570694,2.0005834978052373,0.828346253243576,-0.04117362824875491,0.029395276327608227,-0.03585368747380231,0.08598691842873293,-0.12422101384478902,-0.031891691714949065,-0.2692273557186126,0.6279453039169312,-0.7430409789085388,-0.284455806016922,-0.4690960645675659,-0.2082577645778656
1749048652.342325,-1.1936520878250043,-2.234765888102445,0.9760719742374678,-5.885445847877575,2.0003340775361047,0.8282821840409983,-0.04174122579824102,0.029946435187262848,-0.03621757185345442,0.08778527842875428,-0.12556193399243928,-0.03256311722530582,-0.2996481359004974,0.6559141874313354,-0.7682877779006958,-0.2896656095981598,-0.4888688027858734,-0.2146702706813812
1749048652.3423684,-1.193735327813424,-2.234706909044889,0.9759973209425433,-5.88526602225201,2.000082200406967,0.8282163831032969,-0.04231862463469829,0.030522786321800433,-0.036589332915501926,0.08955182447032413,-0.12693621563448224,-0.03323213546541444,-0.3220582604408264,0.653865396976471,-0.7594839334487915,-0.29680135846138,-0.4924273490905761,-0.2149673402309417
1749048652.3424082,-1.193819958874298,-2.234646821450575,0.9759217161135719,-5.8850827086658235,1.9998277509134441,0.8281487445818795,-0.04291530744410558,0.031126432357437648,-0.03697526723532857,0.09127259063109443,-0.12834360123581656,-0.03390255858912579,-0.3180710673332214,0.6559439897537231,-0.7585368156433105,-0.3143223226070404,-0.4369167685508728,-0.2255471646785736
1749048652.3424468,-1.193905911308081,-2.2345856378299387,0.9758451834104915,-5.884895934502864,1.9995705768419618,0.8280791750150317,-0.04353922320379216,0.03175886423650017,-0.0373806719588439,0.09293687235904549,-0.12978508554805665,-0.03457745924987055,-0.3541533350944519,0.6713853478431702,-0.7665457129478455,-0.3010400533676147,-0.4446135461330414,-0.2330774664878845
1749048652.3424852,-1.1939931246605284,-2.2345233539071154,0.9757677599859782,-5.884705760958512,1.999310489761479,0.8280076054077644,-0.04419593061960446,0.03242088695785892,-0.037809594839216074,0.0945377240238184,-0.13126610682077813,-0.03525811498052957,-0.3214020133018493,0.6299071907997131,-0.7534860968589783,-0.297848641872406,-0.4341885447502136,-0.2378192394971847
1749048652.342523,-1.1940815548897432,-2.234459942840536,0.9756894943375324,-5.8845122844294915,1.9990472636141414,0.8279340025853824,-0.04488796432023852,0.033112524806491225,-0.03826463713644044,0.09607204123539038,-0.1327984764903642,-0.03594332390915198,-0.3232957124710083,0.6472312211990356,-0.7584590911865234,-0.292240172624588,-0.4477445483207702,-0.2388056218624115
1749048652.3425608,-1.1941711786557567,-2.2343953526477396,0.9756104429022199,-5.884315634475396,1.9987806329804894,0.8278583781506332,-0.045614497898852926,0.03383289897123936,-0.038746811908578996,0.09754021557682054,-0.13440057281129117,-0.03662921987885782,-0.3565484583377838,0.6805914640426636,-0.7810996174812317,-0.3179211318492889,-0.4627419710159302,-0.2180090844631195
1749048652.3425975,-1.1942619939438008,-2.2343295065745767,0.9755306659696067,-5.884115968227066,1.9985102937074442,0.8277807939592171,-0.046371357942803344,0.034580097080223506,-0.039255465683528785,0.09894540076168608,-0.1360956534256583,-0.037309602016682035,-0.3440138697624206,0.6967451572418213,-0.7566558718681335,-0.2967711389064789,-0.4460890889167785,-0.2257375121116638
1749048652.3426342,-1.19435401726004,-2.2342623057669733,0.9754502234873896,-5.883913461603154,1.9982359090304493,0.8277013634786143,-0.0471514154549629,0.03535108207816147,-0.03978827868653065,0.10029248879624426,-0.13790849897666274,-0.037976686058239194,-0.3479107916355133,0.6840060949325562,-0.7480092644691467,-0.2755982279777527,-0.4775757789611816,-0.2265329509973526
1749048652.3426714,-1.19444727875316,-2.234193633801195,0.9753691713316898,-5.88370829834448,1.9979571235696214,0.827620248749989,-0.04794532511119144,0.036141687547606605,-0.04034135429637912,0.10158696508749464,-0.13986093834192695,-0.038622113963604994,-0.338367760181427,0.6700903177261353,-0.7800965309143066,-0.2783553302288055,-0.5036828517913818,-0.2256877124309539
1749048652.342708,-1.1945418172604376,-2.2341233631086856,0.9752875585634542,-5.883500658438573,1.9976735858026897,0.8275376530709634,-0.048742512694426074,0.03694670906539549,-0.040909396900461754,0.1028338635542979,-0.14196707255125418,-0.03923803612193617,-0.3390908241271972,0.6455811262130737,-0.7596496939659119,-0.2883864939212799,-0.5113174319267273,-0.2069719433784485
1749048652.3427448,-1.1946376771755136,-2.2340513635510955,0.9752054259569213,-5.883290707710839,1.9973849775080226,0.8274538099582175,-0.049532262675750366,0.03776005643089164,-0.04148597370657623,0.10403703490363718,-0.14422913515180913,-0.039818091749204115,-0.3625428974628448,0.6509812474250793,-0.7682203054428101,-0.2923051714897156,-0.5325257778167725,-0.2219819128513336
1749048652.3427825,-1.194734908173473,-2.233977513052543,0.975122805672887,-5.8830785900068445,1.9970910468113785,0.8273689693881658,-0.05030475180101968,0.038574918625165495,-0.042063862913263556,0.10519887756511066,-0.14663484479478137,-0.04035813928015465,-0.3522121906280517,0.6899402737617493,-0.7847924828529358,-0.2816981077194214,-0.5575060248374939,-0.196497306227684
1749048652.3428338,-1.1948335673749364,-2.2339017095102807,0.9750397215618791,-5.882864422494612,1.996791640079727,0.8272833827312008,-0.05105190512084594,0.03938392130965602,-0.04263549416497508,0.10632060922472367,-0.14915682972667785,-0.04085662930239663,-0.3473544716835022,0.6870356798171997,-0.7558186054229736,-0.2839213609695434,-0.5537945032119751,-0.1997171640396118
1749048652.3428907,-1.1949337220160177,-2.2338238826663526,0.9749561893904751,-5.882648293546179,1.9964867271815572,0.8271972880934705,-0.05176799961167351,0.04017929965423176,-0.04319347341988,0.10740309555120735,-0.15175430793576544,-0.04131457751051819,-0.3557765185832977,0.6740938425064087,-0.7700327634811401,-0.2769052982330322,-0.5248703360557556,-0.2130120396614074
1749048652.3429308,-1.195035449991256,-2.2337440044684636,0.9748722162923463,-5.882430261983238,1.9961764150076102,0.8271108977404096,-0.052449988281664583,0.04095313132447069,-0.04373115686011007,0.10844816836688709,-0.15437678462469118,-0.04173518016729067,-0.4105857014656067,0.6682705283164978,-0.7688229084014893,-0.2880048155784607,-0.5360224843025208,-0.2193648070096969
1749048652.342968,-1.195138836278765,-2.2336620965157166,0.9747877989043826,-5.8822103565618375,1.9958609459319883,0.8270243887000044,-0.05309755125890727,0.0416976599893802,-0.04424321738048576,0.1094602363501372,-0.15696916430100938,-0.04212319216408253,-0.3692750930786133,0.6886275410652161,-0.7676194310188293,-0.2835138738155365,-0.5170297026634216,-0.190912514925003
1749048652.3430054,-1.1952439648543942,-2.2335782332238603,0.9747029199688642,-5.881988575299735,1.9955406806928235,0.826937896650461,-0.05371289618827847,0.042405703262964035,-0.044726145586354606,0.11044785202926015,-0.1594774432745296,-0.04248422138562007,-0.347460925579071,0.677889347076416,-0.7776058316230774,-0.2844190597534179,-0.4830851554870605,-0.192751258611679
1749048652.3430426,-1.1953509073500086,-2.2334925394500886,0.9746175437016403,-5.8817648850325055,1.9952160678970599,0.8268515123615242,-0.054300337451084625,0.04307110540546162,-0.0451786358627314,0.11142481779991553,-0.16185410021291524,-0.04282406700616502,-0.362324595451355,0.6496535539627075,-0.7808765769004822,-0.3218185603618622,-0.4741811454296112,-0.17959925532341
1749048652.34315,-1.1954597107499652,-2.2334051819271963,0.9745316108644541,-5.881539221848719,1.9948876040680945,0.8267652798543594,-0.05486569796312262,0.043689177334510824,-0.04560181065290324,0.11241044369841945,-0.16406243816792748,-0.04314816776070378,-0.3898163735866546,0.6743327379226685,-0.7559921145439148,-0.3006492555141449,-0.462100476026535,-0.1877216249704361
1749048652.3447366,-1.1955703866748437,-2.2333163551637294,0.9744450349931727,-5.881311492751736,1.9945557888011667,0.8266791960050592,-0.05541560075056179,0.04425706455299567,-0.04599923245115273,0.11342871442362425,-0.1660794058942957,-0.043461174485396326,-0.3431587517261505,0.632540762424469,-0.7559297680854797,-0.2794549465179443,-0.4749604761600494,-0.1918416619300842
1749048652.3862753,-1.1956829043620274,-2.233226263968755,0.9743577013713937,-5.881081578442381,1.9942210797457247,0.8265932119543283,-0.0559567348768198,0.044773993187293165,-0.046376660147186693,0.11450633830051316,-0.1678967636602166,-0.04376664573304513,-0.3688911497592926,0.6517121195793152,-0.7721625566482544,-0.2800658941268921,-0.4622097611427307,-0.1980639845132827
1749048652.3863206,-1.1957971885216616,-2.2331351056299855,0.9742694699770549,-5.880849336942766,1.9938838521699616,0.8265072369355865,-0.05649518311031868,0.045241360914783646,-0.04674153871271319,0.11566987356505679,-0.16952076393927704,-0.04406687788587187,-0.4187836349010467,0.6673305034637451,-0.7838831543922424,-0.2795944511890411,-0.4890867471694946,-0.1990833431482315
1749048652.3863611,-1.1959131221856814,-2.2330430546052957,0.9741801827775313,-5.880614608036214,1.993544367560577,0.8264211449201672,-0.05703589191867746,0.04566265860411715,-0.04710226313451854,0.11694230938915182,-0.17097070550613194,-0.04436289777091216,-0.3989341259002685,0.6442536115646362,-0.77427738904953,-0.2505729496479034,-0.4715862274169922,-0.2013964354991912
1749048652.386408,-1.1960305538857052,-2.2329502516521416,0.9740896746316341,-5.880377218983906,1.9932027546503592,0.8263347839816666,-0.057582345023739975,0.04604322541699589,-0.04746730668267427,0.11833959961715042,-0.1722767569450291,-0.04465464732116937,-0.3771034777164459,0.634986162185669,-0.7764449119567871,-0.2485811114311218,-0.4801251888275146,-0.1927066147327423
1749048652.3864508,-1.196149308115422,-2.2328567982005967,0.9739977861363599,-5.880136992277648,1.9928590043800136,0.8262479877306542,-0.0581364616704553,0.046389855414541825,-0.0478443316041914,0.1198676951687364,-0.17347736113195786,-0.04494136865673062,-0.3760792016983032,0.6644312739372253,-0.7804765105247498,-0.2425803691148758,-0.4436412751674652,-0.1950590759515762
1749048652.386489,-1.1962691978998246,-2.232762755887062,0.9739043763950904,-5.879893755976036,1.9925129780240214,0.8261605876845076,-0.058698691643237835,0.04671029509201915,-0.0482394051773085,0.12152057909488924,-0.17461639220994604,-0.04522215938335599,-0.3709092140197754,0.6468549370765686,-0.792354166507721,-0.2557503879070282,-0.4351034164428711,-0.1982210129499435
1749048652.386526,-1.1963900383312354,-2.232668150609592,0.9738093338545123,-5.879647356427997,1.9921644258131712,0.8260724250552065,-0.05926824700353672,0.04701269838769651,-0.04865643253323341,0.1232796746777039,-0.17574011781601476,-0.0454966291588896,-0.3771034479141235,0.6738486886024475,-0.8043627142906189,-0.2302423119544983,-0.4654407501220703,-0.2074409425258636
1749048652.3865638,-1.196511660069183,-2.2325729801547416,0.9737125838302707,-5.879397672158841,1.9918130125763447,0.825983360238899,-0.059843407091220144,0.04730512075851134,-0.04909689317585251,0.12511480736147812,-0.17689398542774262,-0.04576556690832147,-0.3788121938705444,0.6339811086654663,-0.7978976964950562,-0.2298578172922134,-0.4696156084537506,-0.1942698806524276
1749048652.3866014,-1.1966339217294608,-2.232477224184954,0.9736140919513494,-5.879144626791814,1.9914583472979497,0.825893278406774,-0.06042184905309695,0.047595123595627564,-0.049559930169333806,0.1269866964466316,-0.1781193187004011,-0.04603152704197569,-0.3764446079730987,0.6921249032020569,-0.8114360570907593,-0.2548138499259949,-0.4662209749221802,-0.2147377580404281
1749048652.3866389,-1.196756719728615,-2.2323808549922726,0.973513863384933,-5.878888198522253,1.991100014388338,0.8258020901507802,-0.06100097621976539,0.047889533670409,-0.05004279001416707,0.12885074163680466,-0.17945013253277706,-0.046299254235626475,-0.3713148534297943,0.6851015686988831,-0.8183524012565613,-0.2587041556835174,-0.4869791567325592,-0.2095848470926284
1749048652.38669,-1.1968799940477917,-2.232283847058913,0.9734119382735271,-5.878628424015596,1.9907376050373229,0.8257097270883096,-0.06157823170949707,0.04819437204232984,-0.05054155061593156,0.1306616561910813,-0.18091038255886935,-0.04657588248380688,-0.3872550725936889,0.6611621975898743,-0.8027610182762146,-0.2851156890392303,-0.5051437020301819,-0.2045752704143524
1749048652.386731,-1.1970037290147075,-2.232186183562969,0.9733083843024483,-5.878365395516366,1.9903707469440137,0.8256161333956534,-0.0621513905850586,0.04851492992149267,-0.05105201395093244,0.1323783214073637,-0.18251200073153034,-0.046870865140469335,-0.3500640392303467,0.6878794431686401,-0.7913397550582886,-0.3109622895717621,-0.5177141427993774,-0.2087539732456207
1749048652.386768,-1.1971279493284408,-2.2320878587149715,0.973203287669863,-5.87809925121922,1.9899991304109141,0.8255212551411698,-0.06271881972429814,0.04885592317017238,-0.051570598385729416,0.13396815638888537,-0.18425401173053282,-0.04719561873032452,-0.3702455759048462,0.6769723892211914,-0.8264614939689636,-0.3034727573394775,-0.5289163589477539,-0.2110906094312667
1749048652.3868053,-1.1972527125925803,-2.2319888758147637,0.9730967438797518,-5.87783016040338,1.9896225289197145,0.8254250299081083,-0.0632796830485383,0.04922162202703911,-0.05209506056881074,0.13541035008799185,-0.18612288303733357,-0.047562887359140625,-0.3775032162666321,0.663772463798523,-0.8075743913650513,-0.3302653431892395,-0.5052377581596375,-0.2345117628574371
1749048652.386842,-1.1973781002044075,-2.231889241712506,0.9729888497222454,-5.877558306173437,1.9892408130964343,0.8253273793815576,-0.06383405832052884,0.049615854969852206,-0.05262490481551296,0.1366974881162501,-0.18809406521357208,-0.04798584753133486,-0.3314878344535827,0.6601849794387817,-0.787696361541748,-0.2904714941978454,-0.4938225150108337,-0.1907259672880172
1749048652.3868787,-1.197504208430663,-2.2317889589005255,0.9728796975532233,-5.877283869377198,1.9888539580238094,0.825228207111379,-0.06438293016483057,0.050041829520606436,-0.053161383876940554,0.1378353928228202,-0.1901344820532978,-0.048476979466977495,-0.3543799817562103,0.6793241500854492,-0.7967154383659363,-0.3325239717960357,-0.511856734752655,-0.2223416119813919
1749048652.3869154,-1.197631140983983,-2.231688016896288,0.9727693724973385,-5.8770070169182596,1.988462044540605,0.8251274025733268,-0.06492803821336889,0.050501776908930256,-0.05370706147595715,0.13884132636241622,-0.19220560434654924,-0.04904675239064713,-0.3385883271694183,0.6726655960083008,-0.8231367468833923,-0.2761431634426117,-0.4953223168849945,-0.2246041148900985
1749048652.3869522,-1.1977590036809016,-2.2315863848499897,0.972657952535753,-5.876727896171888,1.9880652551861508,0.8250248512428983,-0.06547158697173344,0.05099648601169084,-0.054265005271762395,0.13974100912646845,-0.1942667363559922,-0.04970222544697661,-0.3577240705490112,0.6882421374320984,-0.8270688056945801,-0.2460923641920089,-0.4861561357975006,-0.2380760908126831
1749048652.3869965,-1.197887901051184,-2.2314840072050868,0.9725455107632507,-5.876446635068293,1.9876638650256016,0.8249204490508454,-0.06601585777733861,0.05152482989769126,-0.054837787480146366,0.1405650994446692,-0.19627824880289874,-0.050445738869800145,-0.3753719627857208,0.6780439615249634,-0.8243177533149719,-0.2826716005802154,-0.5117513537406921,-0.2493131756782531
1749048652.3870628,-1.198017934289306,-2.2313808036019958,0.9724321184999909,-5.876163345565972,1.9872582271819201,0.8248141186574746,-0.06656279347163398,0.052083401107612885,-0.05542653663216182,0.14134580416551498,-0.19820463853405604,-0.05127391727848974,-0.3982912898063659,0.7196506857872009,-0.8413094282150269,-0.2541449069976806,-0.5144720673561096,-0.2486777305603027
1749048652.3871732,-1.1981491998996356,-2.2312766731772444,0.9723178475142806,-5.875878127440082,1.9868487528749899,0.8247058247243909,-0.06711363914119921,0.052666358911149194,-0.05603027567657686,0.14211414194064623,-0.200017399144627,-0.05217718828756311,-0.3413498699665069,0.6900196671485901,-0.8486615419387817,-0.2752404808998108,-0.5398850440979004,-0.2241242825984954
1749048652.388787,-1.1982817887002568,-2.231171502416204,0.9722027696393818,-5.875591069606163,1.9864358862887304,0.8245955857515345,-0.06766870856912152,0.05326555503689383,-0.05664571045478568,0.14289812835599008,-0.20169768456167184,-0.05313993304754333,-0.3725893795490265,0.683093249797821,-0.8526478409767151,-0.3002098500728607,-0.5036488771438599,-0.242814615368843
1749048652.4302852,-1.1984157850823225,-2.2310651751760013,0.9720869527966463,-5.875302247142336,1.9860200755387996,0.8244834807724623,-0.06822731551178188,0.05387095212259303,-0.057267527031955485,0.14372188401252384,-0.20323862492435293,-0.054141266198138596,-0.3637747168540954,0.6849033236503601,-0.8291800022125244,-0.2849377691745758,-0.4795079231262207,-0.228324294090271
1749048652.4303305,-1.1985512662285895,-2.230957583424168,0.9719704536666794,-5.875011713388819,1.985601741998179,0.8243696500050841,-0.06878787770680712,0.05447129623489651,-0.05788914060931702,0.14460545220364882,-0.20464696558720893,-0.05515633394639079,-0.3751760721206665,0.6707971692085266,-0.8297063708305359,-0.2940142750740051,-0.4193764328956604,-0.2068706303834915
1749048652.4303708,-1.1986883004965363,-2.230848637399728,0.9718533084382895,-5.8747194878863525,1.9851812507870588,0.8242542893887207,-0.06934817307554929,0.05505496434229482,-0.058503738662787415,0.1455649950244502,-0.20594355572641984,-0.05615794993267799,-0.3757598996162414,0.6597305536270142,-0.8209426999092102,-0.2898585200309753,-0.4402904510498047,-0.2095214426517486
1749048652.4304097,-1.1988269439080854,-2.2307382741739525,0.9717355238019043,-5.874425542332958,1.9847588851716618,0.8241376396779778,-0.06990569968679443,0.05561088483430518,-0.059105402821152196,0.1466130295350134,-0.20716223031520667,-0.057118374500310085,-0.3718760907649994,0.6516402959823608,-0.8256926536560059,-0.2845539450645447,-0.4267215728759765,-0.202540323138237
1749048652.430447,-1.1989672341559396,-2.2306264639337128,0.9716170705151486,-5.874129787798199,1.9843348271818524,0.8240199711545019,-0.0704580685657153,0.056129424540827574,-0.059690086389435446,0.14775844548253858,-0.2083468671426006,-0.05801108024036567,-0.3895736932754516,0.6585705876350403,-0.8004096746444702,-0.3146749436855316,-0.4636377096176147,-0.2015898674726486
1749048652.4304855,-1.1991091826220233,-2.2305132135414936,0.9714978814751201,-5.8738320667144475,1.9839091462512206,0.8239015650899791,-0.07100334946373163,0.05660314804720277,-0.060256256893781945,0.14900617125585305,-0.2095468109944291,-0.05881240164991478,-0.366023451089859,0.6770308613777161,-0.8022996783256531,-0.2855297923088074,-0.5020709037780762,-0.2022578120231628
1749048652.430524,-1.1992527659718994,-2.230398566906222,0.9713778554060508,-5.873532152599157,1.983481797095006,0.823782693249774,-0.07154029947636267,0.05702737890026007,-0.06080507716450592,0.15035649851897553,-0.21081129597068932,-0.05950299427759048,-0.377069741487503,0.6620029211044312,-0.8386170268058777,-0.2566495239734649,-0.5065295696258545,-0.1892903298139572
1749048652.4305618,-1.1993979195236122,-2.230282601704296,0.9712568662176829,-5.87322975931459,1.9830526271793005,0.8236635971993039,-0.07206843412801403,0.05740051870681468,-0.06134009121936916,0.15180422551638115,-0.2121837936869653,-0.06006901661007752,-0.3418202996253967,0.6153560876846313,-0.8251937627792358,-0.2776070237159729,-0.5237358808517456,-0.1884555220603943
1749048652.4305992,-1.1995445348022824,-2.230165422428192,0.9711347769718275,-5.872924560199608,1.9826213930195837,0.8235444697166456,-0.07258794555626777,0.057724105799576916,-0.06186648326992465,0.15333790420888257,-0.2136972526579928,-0.060502930047617955,-0.3822367787361145,0.6451824307441711,-0.7925965189933777,-0.2408977150917053,-0.5172624588012695,-0.1748148202896118
1749048652.430636,-1.1996924634040353,-2.2300471505762784,0.9710114562940285,-5.872616215765313,1.9821877834304762,0.8234254408034403,-0.07309952048414448,0.05800262426385221,-0.06239005690729167,0.15493952875174843,-0.215370960076362,-0.06080382881571404,-0.3838081955909729,0.6666556596755981,-0.8124646544456482,-0.2645295262336731,-0.4999641180038452,-0.1569089889526367
1749048652.4306817,-1.1998415282458788,-2.229927913564981,0.9708867941699593,-5.872304407060503,1.9817514469194613,0.8233065703765693,-0.07360414182577188,0.05824310453924676,-0.06291612416257038,0.15658495134654848,-0.21720934960226465,-0.0609772692727158,-0.3322469592094421,0.654072642326355,-0.8444714546203613,-0.2467755377292633,-0.5142287015914917,-0.1554739326238632
1749048652.4307308,-1.1999915415245426,-2.2298078342132923,0.9707607137908859,-5.8719888705986,1.9813120197767136,0.8231878487458184,-0.07410295284215933,0.05845457328955601,-0.06344850987958672,0.15824516256423915,-0.21920265653002188,-0.0610346446835881,-0.3948593437671661,0.6289021968841553,-0.8436918258666992,-0.2965140342712402,-0.4785154461860657,-0.1619714498519897
1749048652.4307766,-1.2001423267750322,-2.22968702230236,0.9706331768555165,-5.871669430103379,1.9808691513150731,0.8230692047120685,-0.0745972232000596,0.058647405751719554,-0.06398886344444911,0.15988836709449544,-0.22132902274266653,-0.060992221052891045,-0.3732768595218658,0.6760563850402832,-0.8375564813613892,-0.3021771907806396,-0.4819521009922027,-0.1753337234258651
1749048652.4308157,-1.2002937410427454,-2.2295655689279488,0.9705041814253408,-5.871346020380292,1.9804225234541284,0.8229505198933387,-0.0750884075973685,0.058832624928520004,-0.0645364119258063,0.16148258832657222,-0.22355753740618547,-0.060869991680476375,-0.3469160795211792,0.6974079608917236,-0.8298046588897705,-0.3029828071594238,-0.492552101612091,-0.1773302257061004
1749048652.4308531,-1.2004456929507652,-2.2294435435225153,0.9703737534307292,-5.871018699503588,1.9799718632972045,0.8228316469306677,-0.07557825371056352,0.059021192719938075,-0.06508819000929728,0.1629984142660469,-0.22585174075308093,-0.060690510554668994,-0.3605558276176452,0.673442542552948,-0.8279188275337219,-0.3014655411243438,-0.5013396143913269,-0.1718681454658508
1749048652.4308908,-1.2005981534029588,-2.229320992922519,0.9702419344638791,-5.8706876472851866,1.9795169489080267,0.8227124287077154,-0.0760689027117969,0.05922333678200646,-0.06563967279331266,0.1644114890144395,-0.2281732375376582,-0.06047783106380168,-0.3554214239120483,0.6442499756813049,-0.8174434304237366,-0.3005101382732391,-0.5100395083427429,-0.1647148430347442
1749048652.4309282,-1.200751157227935,-2.2291979418447485,0.9701087691916277,-5.870353150314498,1.9790576096016594,0.8225927157900277,-0.07656292868936974,0.059447942306470936,-0.06618565016108145,0.16570444496631562,-0.23048516970512886,-0.06025662443728357,-0.3573643267154693,0.6391854286193848,-0.7879597544670105,-0.3116598129272461,-0.5227325558662415,-0.164767637848854
1749048652.4309652,-1.2009047955836638,-2.2290743944681743,0.9699742956492259,-5.870015576055246,1.9785937226465296,0.8224723799298079,-0.07706327775686896,0.059702024160030565,-0.066721137446162,0.1668681136009726,-0.2327553260905007,-0.06005149873235052,-0.3587696254253387,0.6678048968315125,-0.7856857180595398,-0.2985306084156036,-0.4850089251995086,-0.1943875700235366
1749048652.4310026,-1.2010592002384215,-2.2289503372498087,0.9698385409869809,-5.869675339974906,1.9781252085434269,0.8223513223681876,-0.07757308796780826,0.05999030005949158,-0.06724212731110522,0.1679020016718639,-0.234958633573362,-0.05988649136742485,-0.3719840049743652,0.6779269576072693,-0.8111384510993958,-0.2811519205570221,-0.4865556359291076,-0.1867958605289459
1749048652.431039,-1.2012145220418076,-2.228825743391025,0.9697015239695023,-5.869332870229991,1.9776520271427969,0.8222294764275629,-0.07809539482191716,0.0603149061606286,-0.0677460489522893,0.1688141451184023,-0.23707875301373146,-0.0597846688121819,-0.3547472059726715,0.6569322347640991,-0.8019680976867676,-0.3120817542076111,-0.4720230102539062,-0.193985715508461
1749048652.4311495,-1.2013709069235283,-2.228700579271016,0.9695632638175884,-5.868988574120862,1.9771741766934863,0.8221068044525647,-0.07863275343196409,0.06067531459677171,-0.06823189057458037,0.16962052359937663,-0.2391085726134076,-0.05976774056539316,-0.3639318645000458,0.7245733737945557,-0.8029244542121887,-0.300637811422348,-0.4889689087867737,-0.1944762766361236
1749048652.4328065,-1.20152847331906,-2.2285748125870066,0.9694237932658875,-5.868642809637137,1.9766916972196646,0.8219832896983742,-0.0791868329947226,0.06106851201059883,-0.06870002650605603,0.17034420362254848,-0.24104956818185283,-0.05985558696214942,-0.3724263310432434,0.7187429666519165,-0.8216972351074219,-0.2929368913173675,-0.4773144721984863,-0.2080347836017608
1749048652.4742882,-1.2016872947775075,-2.228448421138095,0.9692831725199668,-5.8682958642424286,1.9762046782655909,0.8218589243962884,-0.07975805468689923,0.06148946753360826,-0.06915184546323322,0.17101428332588411,-0.2429102209574739,-0.06006561560439591,-0.3551557958126068,0.6680105328559875,-0.7922335863113403,-0.3200187683105469,-0.5073586702346802,-0.2069480270147323
1749048652.4743335,-1.2018473905437164,-2.2283214006293646,0.9691415005062304,-5.867947941875012,1.9757132693409543,0.8217336959683771,-0.08034534680337997,0.06193185510991975,-0.06958929274693566,0.17166458876807636,-0.24470385382419263,-0.06041190010148072,-0.3661726117134094,0.6283025145530701,-0.8135539293289185,-0.3454440832138061,-0.5291059613227844,-0.2104340195655822
1749048652.474374,-1.2020087252642826,-2.228193769883793,0.9689989204748563,-5.867599158255747,1.9752176900140752,0.8216075741071269,-0.08094608272548698,0.062388920407611126,-0.07001442430940288,0.17233198951332568,-0.24644630523878858,-0.06090411374237334,-0.4028138220310211,0.6744642853736877,-0.8161841630935669,-0.3329851031303406,-0.5339710712432861,-0.2261774837970733
1749048652.4744132,-1.2021712171699508,-2.2280655724268517,0.9688556183275362,-5.867249544117295,1.974718236120964,0.8214805017715062,-0.08155624630677823,0.06285433929113753,-0.07042904030085151,0.17305421314571856,-0.24815380539977092,-0.06154633642950846,-0.3509816229343414,0.675262451171875,-0.7859370112419128,-0.3493117988109588,-0.5164070725440979,-0.2087092995643615
1749048652.4744508,-1.2023347526844228,-2.2279368742704686,0.9687118134608624,-5.866899055634597,1.97421527903403,0.8213523926122346,-0.08217082798566082,0.06332292509005119,-0.07083443316203313,0.173867155010062,-0.24984129189751447,-0.06233586601645023,-0.4021707773208618,0.6604233980178833,-0.7925435900688171,-0.3022951483726501,-0.5110578536987305,-0.1952248960733413
1749048652.4744897,-1.2024992045641052,-2.227807758449623,0.9685677430269098,-5.866547590730294,1.9737092559061111,0.8212231359890358,-0.08278439950863985,0.06379108712159615,-0.07123126220725073,0.17480186481789012,-0.25152126208486053,-0.06326220021720953,-0.3454039692878723,0.6413112282752991,-0.7985242605209351,-0.3052619993686676,-0.4998596012592315,-0.2142003923654556
1749048652.474527,-1.2026644503663944,-2.2276783171485297,0.9684236412365607,-5.866195008962159,1.973200649827833,0.8210926091149086,-0.08339177192275335,0.06425699626079076,-0.07161956245444279,0.1758815807276138,-0.25320316432105106,-0.06430638932592395,-0.3592457771301269,0.6581794023513794,-0.8061327338218689,-0.281587153673172,-0.5075870752334595,-0.2270549684762954
1749048652.4745643,-1.2028303883450693,-2.227548642137853,0.968279715789635,-5.8658411516641715,1.9726899597993865,0.8209606943419862,-0.08398863028962843,0.06472046639880777,-0.0719989007946407,0.1771193002331201,-0.25489330417651557,-0.06544099537320285,-0.3599216341972351,0.6851287484169006,-0.78982013463974,-0.2498209476470947,-0.534217119216919,-0.2402681857347488
1749048652.4746015,-1.2029969487915386,-2.2274188140037787,0.9681361237612999,-5.865485858322271,1.9721776613885016,0.8208272983319546,-0.08457205694694574,0.06518260929622126,-0.07236868131594736,0.17851636124785253,-0.2565952473785923,-0.06663088672392703,-0.3653795123100281,0.6820890307426453,-0.7923029661178589,-0.2696275115013122,-0.5400571227073669,-0.250424176454544
1749048652.474639,-1.2031641002395885,-2.2272888904965416,0.9679929492724936,-5.865128975268451,1.971664160001872,0.8206923691135961,-0.0851408905295585,0.06564535179527231,-0.07272856489177144,0.18006233059861257,-0.258310659821171,-0.0678349966106981,-0.3830697536468506,0.6742215752601624,-0.8024539351463318,-0.2718133926391601,-0.5129038095474243,-0.2309441417455673
1749048652.474683,-1.2033318515372462,-2.2271588943693956,0.9678501851327613,-5.86477035405813,1.9711497399324451,0.8205559072112175,-0.08569590290990947,0.06611091005467545,-0.07307892484854571,0.18173620273804228,-0.2600403967687702,-0.0690089861841162,-0.352570503950119,0.6922858953475952,-0.7706509828567505,-0.3103248476982116,-0.4893037378787994,-0.2002196609973907
1749048652.4747443,-1.203500251973299,-2.227028801383709,0.9677077206164478,-5.864409839333396,1.9706345137837105,0.8204179682377675,-0.08623979133681686,0.06658130212678998,-0.0734212317013591,0.1835086067392858,-0.26178550763933367,-0.0701085520265886,-0.3794379234313965,0.6988897323608398,-0.7692170143127441,-0.3134008646011352,-0.4883309006690979,-0.2169185131788253
1749048652.474811,-1.2036693917150738,-2.2268985297187394,0.9675653376524237,-5.864047248925868,1.9701183783137524,0.8202786562461929,-0.08677697667107644,0.06705795963195788,-0.07375825609027421,0.1853445308129125,-0.26354779714341814,-0.07109299210040003,-0.3676681518554687,0.7135899066925049,-0.7766402363777161,-0.2993748784065246,-0.5037490129470825,-0.2175567150115966
1749048652.4748788,-1.2038394035723747,-2.226767932736973,0.9674227176491579,-5.86368235144011,1.9696009838172746,0.8201381090867583,-0.08731319365715187,0.06754147567677303,-0.07409400516638245,0.18720607187362398,-0.2653297526825534,-0.07192862968548301,-0.3837555646896362,0.6709384918212891,-0.7688533067703247,-0.2998786270618438,-0.5274093747138977,-0.2111325562000274
1749048652.474945,-1.2040104651735302,-2.226636797613414,0.9672794605356706,-5.863314847858402,1.9690817244714485,0.8199964784682203,-0.08785487694779259,0.06803149944572874,-0.07443336161328834,0.18905487546824007,-0.26713393865304447,-0.07259175671189667,-0.3541495501995086,0.70725017786026,-0.7679943442344666,-0.3054277598857879,-0.5475422739982605,-0.1968501061201095
1749048652.4750118,-1.2041827990083511,-2.2265048522599655,0.9671351161924366,-5.862944363659953,1.968559756197854,0.8198539082014265,-0.08840838393132437,0.06852676292227196,-0.0747814654572335,0.19085415225749122,-0.26896219824773443,-0.07307083003926827,-0.3856641352176666,0.6863679885864258,-0.8008931279182434,-0.285709410905838,-0.5742203593254089,-0.1983068883419037
1749048652.4750788,-1.2043566671530246,-2.2263717819493554,0.9669892264390779,-5.86257045669083,1.9680340462631543,0.8197105143118556,-0.08897913710990894,0.06902521001203189,-0.07514295056876247,0.19257034850126037,-0.270815048469687,-0.07336770914364021,-0.3801839351654053,0.6969486474990845,-0.7911223769187927,-0.2553886771202087,-0.5456429719924927,-0.1828323900699615
1749048652.4751458,-1.2045323580229925,-2.226237255247752,0.9668413736242141,-5.862192643652094,1.9675034550863033,0.8195663704174111,-0.08957080591782778,0.06952419645387575,-0.07552119750417025,0.19417465386264798,-0.27269149062503695,-0.07349778751873487,-0.3827477693557739,0.6759735941886902,-0.803139865398407,-0.2812017798423767,-0.5050547122955322,-0.1913500130176544
1749048652.4752123,-1.2047101640352256,-2.2261009568839722,0.9666912301941745,-5.861810444740707,1.9669668456682265,0.8194215009818465,-0.09018466944273376,0.07002073702077238,-0.07591777109213119,0.19564451573662384,-0.274589208798684,-0.07348897234233268,-0.4147043824195862,0.6711553335189819,-0.8134841918945312,-0.2947717308998108,-0.5240369439125061,-0.1921373009681701
1749048652.4752803,-1.2048903512877642,-2.225962623545141,0.9665386026619401,-5.861423441971279,1.9664232097860097,0.8192758836399772,-0.09081928797034823,0.07051178687038023,-0.07633217385234763,0.19696518916294542,-0.2765049561601025,-0.0733795999327238,-0.4101473987102508,0.6649969816207886,-0.8198445439338684,-0.3191103935241699,-0.5501676797866821,-0.1931946873664856
1749048652.475457,-1.2050731249624667,-2.225822077371904,0.9663834630285603,-5.8610313422389915,1.9658717930592513,0.8191294595430677,-0.09147055421045132,0.070994549091549,-0.07676198140408365,0.19813114351579186,-0.278434915510748,-0.07321550112949805,-0.4101473987102508,0.6649969816207886,-0.8198445439338684,-0.3191103935241699,-0.5501676797866821,-0.1931946873664856
1749048652.476818,-1.205258596717129,-2.2256792510620085,0.9662259609956123,-5.860634031919157,1.9653121950877321,0.8189821479558053,-0.09213211338734416,0.07146679889055801,-0.07720334984496882,0.19914698139560139,-0.2803749169237723,-0.07304651034554971,-0.3806549310684204,0.7065286040306091,-0.8376215696334839,-0.3568097352981567,-0.5530091524124146,-0.2015495300292968
1749048652.5182772,-1.2054467618068563,-2.225534198671673,0.9660664121252744,-5.86023160826982,1.9647444203208124,0.8188338596131112,-0.09279606938829095,0.07192720772631611,-0.07765180936944281,0.20002749121365934,-0.28232048397756526,-0.07292272409626277,-0.369564414024353,0.61933434009552,-0.7868150472640991,-0.3611075282096863,-0.5064562559127808,-0.1976031363010406
1749048652.5183232,-1.2056374924400561,-2.225387088695824,0.9659052613758523,-5.859824377555356,1.964168864593372,0.8186845042903739,-0.09345385429245393,0.07237563580837551,-0.07810319455340375,0.20079657079042276,-0.284266694003745,-0.07289077595884727,-0.3693575859069824,0.6675935387611389,-0.7767884731292725,-0.3217250108718872,-0.5179093480110168,-0.2165618240833282
1749048652.518364,-1.2058305495594521,-2.2252381806913317,0.9657430272678345,-5.859412820342594,1.9635862400218747,0.8185339916106062,-0.09409712644625252,0.07281334024747639,-0.07855452473687836,0.2014849835788645,-0.2862078224577364,-0.07299034894472062,-0.355962187051773,0.6641566157341003,-0.7916251420974731,-0.3358649611473083,-0.5205351114273071,-0.2286960482597351
1749048652.5184028,-1.2060256100332976,-2.2250877911781166,0.9655802364804423,-5.85899753482453,1.9629974582893222,0.818382228027054,-0.09471856181138064,0.07324303378575274,-0.07900465584495636,0.2021271771794936,-0.28813679172386925,-0.0732511245903116,-0.3922108709812164,0.6626259684562683,-0.7996788620948792,-0.301960825920105,-0.4998326003551483,-0.2207665890455246
1749048652.518441,-1.2062223029952854,-2.2249362563486814,0.9654173598182074,-5.858579173089275,1.9624035004928966,0.8182291147220714,-0.09531241498633854,0.07366874176627207,-0.07945458229239417,0.2027576293652761,-0.2900445790773067,-0.07369036444844404,-0.3284803628921509,0.6646279096603394,-0.7915550470352173,-0.2920571565628052,-0.5643885731697083,-0.2122722864151001
1749048652.518479,-1.2064202485894922,-2.224783898093514,0.9652547587446819,-5.858158382546343,1.9618052995719804,0.8180745503390252,-0.09587476851126274,0.07409544023244756,-0.07990735067794867,0.20340731087270017,-0.29191986071631076,-0.07431130923291886,-0.4188082814216614,0.6755648255348206,-0.8079134225845337,-0.2928361594676971,-0.5732661485671997,-0.2258023023605346
1749048652.5185168,-1.2066190935650543,-2.2246309975318503,0.9650926488800641,-5.8577357592745045,1.961203653323416,0.8179184401680837,-0.09640346879443192,0.07452849805337387,-0.08036762197229183,0.20410082239400124,-0.29374916301918724,-0.07510255285105552,-0.3759796619415283,0.6762549877166748,-0.8028486967086792,-0.3147492408752441,-0.5316318273544312,-0.2348255962133407
1749048652.5185544,-1.2068185398508484,-2.224477777840201,0.9649310839724066,-5.857311815390214,1.9605991763409836,0.8177607109343881,-0.09689783823765381,0.07497298057769279,-0.08084097056054546,0.2048545968856725,-0.2955176349807095,-0.07603850886958012,-0.3780677914619446,0.6926063895225525,-0.8334947228431702,-0.3027763962745666,-0.5056285262107849,-0.2271049916744232
1749048652.5185924,-1.2070183639120875,-2.2243243961172725,0.964769960863179,-5.856886959722052,1.9599922902207259,0.8176013284183751,-0.0973583115644522,0.07543290377831141,-0.08133303906066741,0.20567632763762675,-0.297210334198474,-0.07708103365047117,-0.3754691183567047,0.6579023599624634,-0.8139882683753967,-0.3037991225719452,-0.4787057042121887,-0.2475892156362533
1749048652.5186567,-1.2072184261629255,-2.224170942542144,0.964609042970217,-5.856461489723485,1.9593832445484516,0.8174403141151189,-0.09778614251127664,0.0759105534248218,-0.08184867820186846,0.20656556271037105,-0.2988137647294219,-0.07818218335587979,-0.3627595603466034,0.6970836520195007,-0.814175546169281,-0.2955041527748108,-0.5103484392166138,-0.2374206334352493
1749048652.5187294,-1.207418670842792,-2.224017444401578,0.9644479973948209,-5.856035592030086,1.9587721574046841,0.8172777571682083,-0.09818327282497778,0.07640599234683354,-0.08239119074620904,0.2075152456357823,-0.30031739708902183,-0.07928794889002505,-0.3607705235481262,0.6973587274551392,-0.8274556398391724,-0.3012967109680176,-0.5263713598251343,-0.2069794088602066
1749048652.518777,-1.2076191175207496,-2.223863872735081,0.9642864394974939,-5.8556093490185335,1.9581590633657335,0.8171138187845434,-0.09855237954987797,0.07691686332968824,-0.08296177528156216,0.20851389344423626,-0.30171500163912296,-0.08034266033400933,-0.3502211272716522,0.6825242042541504,-0.8134316802024841,-0.2835801839828491,-0.5535194277763367,-0.202157586812973
1749048652.5188165,-1.2078198459674885,-2.223710150196968,0.964123978746654,-5.8551827490365635,1.9575439585949557,0.8169487278276889,-0.09889704971528519,0.0774385534249976,-0.08355923663089258,0.20954807390678837,-0.3030057253850338,-0.08129363939037744,-0.3244730830192566,0.6764618158340454,-0.8200395107269287,-0.3141462802886963,-0.5080220699310303,-0.2192087769508361
1749048652.5188549,-1.2080209768018757,-2.223556159827559,0.9639602604004264,-5.854755698544729,1.9569268357898435,0.8167827678233452,-0.09922199139074986,0.07796472063203601,-0.08417999273385952,0.21060485414207947,-0.3041948619470473,-0.0820956496095456,-0.3959411084651947,0.6794289350509644,-0.8253679275512695,-0.3111359477043152,-0.495687186717987,-0.2067452669143676
1749048652.5188923,-1.2082226509584713,-2.223401755118871,0.9637949986216212,-5.854328035136812,1.9563077056089901,0.8166162569101837,-0.0995331775687334,0.0784881130437909,-0.08481836635834726,0.21167392678366484,-0.3052942256835165,-0.08271474185921138,-0.3490448296070099,0.6831536889076233,-0.8347480893135071,-0.3173906505107879,-0.492167592048645,-0.1875536888837814
1749048652.51893,-1.2084250110652452,-2.223246771631624,0.9636279978488066,-5.853899541165259,1.9556866047985515,0.8164495231895131,-0.09983782805948457,0.07900155469437617,-0.08546711589896953,0.21274917412866673,-0.3063220251422628,-0.08313117186143672,-0.3739351630210876,0.66771399974823,-0.8364667296409607,-0.316995620727539,-0.4872682690620422,-0.1636517792940139
1749048652.518968,-1.2086281869658415,-2.223091039697179,0.9634591609086655,-5.853469958217152,1.9550635937860823,0.8162828783885229,-0.10014416544680962,0.07949893943646925,-0.08611813686295296,0.21382951013548265,-0.30730218776663576,-0.08334114824629903,-0.370627224445343,0.6696380376815796,-0.8181191682815552,-0.3276512920856476,-0.4935143589973449,-0.1791435480117797
1749048652.5190058,-1.2088322863154306,-2.2229343970879536,0.9632884844017202,-5.8530390026314825,1.9544387476768192,0.8161165927855912,-0.10046093716720648,0.07997606431196819,-0.08676324865333422,0.21491894477040058,-0.3082631805578663,-0.08335726058499368,-0.3901040554046631,0.675079345703125,-0.8236979246139526,-0.2847098708152771,-0.5033376216888428,-0.1735239326953888
1749048652.5190437,-1.209037390089979,-2.2227767004202463,0.9631160437233568,-5.852606381632865,1.9538121444510792,0.8159508740056272,-0.1007967625742044,0.08043115147695075,-0.08739496976935102,0.21602593278785098,-0.3092364267175633,-0.08320755239638403,-0.3678833842277527,0.6650853157043457,-0.7991202473640442,-0.2775830626487732,-0.4957835376262665,-0.160208061337471
1749048652.519081,-1.2092435521821383,-2.2226178343737075,0.9629419711737676,-5.8521718089709385,1.9531838530303616,0.8157858515477417,-0.10115941367872064,0.08086495805679239,-0.08800718604528054,0.21716217653109765,-0.31025441561450323,-0.08293333615456853,-0.4319885969161987,0.6709583401679993,-0.8259225487709045,-0.2665171027183532,-0.467297613620758,-0.1679259538650512
1749048652.5191925,-1.2094508018380494,-2.2224577181672585,0.962766430988795,-5.851735018691388,1.9525539222970765,0.8156215678290876,-0.10155515536562013,0.0812804516070044,-0.08859563315615268,0.2183411177787879,-0.3113485911826042,-0.08258596572361403,-0.3925710916519165,0.6816105842590332,-0.8069283366203308,-0.2672145366668701,-0.4728967249393463,-0.1673395335674286
1749048652.5208528,-1.2096591474197553,-2.2222963088664742,0.9625895950325981,-5.8512957758628925,1.951922370901817,0.8154579754667216,-0.10198825770224096,0.08168211777317604,-0.08915813900872288,0.21957634885155541,-0.312547138173706,-0.08222285869399765,-0.3983029127120971,0.6712554097175598,-0.8141732811927795,-0.2760143876075744,-0.5101808905601501,-0.1982730627059936
1749048652.5622842,-1.2098685800099458,-2.2221336011707873,0.9624116223713326,-5.8508538835028725,1.9512891774294279,0.8152949398781276,-0.10246075699362421,0.0820750425143978,-0.08969459874239093,0.22088010003061168,-0.31387286995944613,-0.08190309257830235,-0.3838013112545013,0.7053540945053101,-0.7880949378013611,-0.295194149017334,-0.5159915685653687,-0.2096519619226455
1749048652.562331,-1.2100790759025413,-2.221969623700228,0.9622326449415454,-5.850409185435608,1.9506542712140365,0.81513224622548,-0.10297249270291434,0.08246395219943697,-0.09020668919070367,0.22226186424814626,-0.3153414933846075,-0.08168290115075785,-0.3608884513378143,0.6889559030532837,-0.7905406951904297,-0.2811017036437988,-0.4968813359737396,-0.2015216946601867
1749048652.5623715,-1.2102905979301959,-2.2218044325036006,0.9620527602008883,-5.849961565323497,1.9500175250907754,0.814969610133919,-0.10352139712128569,0.08285239043012539,-0.09069737309449843,0.22372716639729595,-0.3169605046993563,-0.08161138677199307,-0.3878346383571625,0.6613966226577759,-0.8147051334381104,-0.2729154527187347,-0.4768263101577759,-0.2007099092006683
1749048652.5624168,-1.2105030964006174,-2.221638103104976,0.9618720303724343,-5.849510942575294,1.9493787518492904,0.8148066920981685,-0.10410397446479357,0.0832421679133047,-0.09117028395870236,0.22527650988547593,-0.31872884143708347,-0.08172674449284618,-0.3792894780635834,0.728602409362793,-0.8084729313850403,-0.233267992734909,-0.4807499349117279,-0.2269529849290847
1749048652.5624754,-1.2107165107635114,-2.2214707224964125,0.9616904869916237,-5.8490572662623785,1.9487377057873747,0.8146431155757433,-0.10471587975474128,0.08363316296379611,-0.09162910057991308,0.22690461446386048,-0.3206372614801675,-0.08205325881177358,-0.3962798118591308,0.7036447525024414,-0.7985427975654602,-0.2822529375553131,-0.4805507063865661,-0.1922105550765991
1749048652.5625272,-1.2109307730554928,-2.221302382111895,0.9615081390412276,-5.84860050853749,1.9480940897909547,0.8144784882842562,-0.10535249524241039,0.0840234950924016,-0.0920770076399402,0.2286001351388627,-0.32266934017348864,-0.08259928334423139,-0.3725548982620239,0.6674938797950745,-0.7811505794525146,-0.2321741878986358,-0.5216594338417053,-0.219993844628334
1749048652.562568,-1.2111458139133007,-2.2211331722241,0.9613249829027172,-5.84814065905255,1.9474475673546712,0.8143124255310382,-0.10600940487468269,0.08441004427624726,-0.09251630735103815,0.2303460675915369,-0.32480297551262327,-0.08335635932852135,-0.3836292922496795,0.7171388864517212,-0.8135111331939697,-0.2445871084928512,-0.5294549465179443,-0.2293521463871002
1749048652.5626056,-1.2113615715505164,-2.2209631775812437,0.9611410124155376,-5.84767772119883,1.9467977784137174,0.8141445739679108,-0.10668268986850069,0.08478923453991158,-0.09294821743498634,0.23212097663105166,-0.3270122927528471,-0.08429958609664717,-0.3908385634422302,0.713632345199585,-0.7954679131507874,-0.24092797935009,-0.4982015192508697,-0.2469372600317001
1749048652.5626435,-1.2115780033973047,-2.22079247367425,0.9609562272994853,-5.8472117098893985,1.9461443578738222,0.8139746340319899,-0.10736900992630752,0.08515794502193903,-0.0933728723137709,0.23390103182060024,-0.3292697873745374,-0.08538931750849828,-0.3769421577453613,0.6946352124214172,-0.7844144701957703,-0.2252519726753235,-0.4756659269332886,-0.2439441978931427
1749048652.5626905,-1.211795099035052,-2.220621123022931,0.9607706381514154,-5.8467426498065524,1.945486955948494,0.8138023792822429,-0.1080654830049663,0.0855143746769686,-0.0937895335541862,0.23566262649869943,-0.3315484728811676,-0.08657418499689794,-0.4042248427867889,0.666916012763977,-0.8219705820083618,-0.2604775428771972,-0.481339156627655,-0.2386940121650695
1749048652.5627396,-1.2120128918994442,-2.2204491712609804,0.9605842666270572,-5.846270573012228,1.9448252593260855,0.8136276708832707,-0.10876941697166398,0.0858586889652055,-0.09419700484335271,0.23738515675917812,-0.33382378674060276,-0.08779531019504373,-0.3556436002254486,0.6945669054985046,-0.791174054145813,-0.2722550928592682,-0.5036789178848267,-0.2213893234729766
1749048652.5627797,-1.2122314665661478,-2.2202766432745693,0.960397140548779,-5.845795515388411,1.944159011507284,0.8134504657996015,-0.1094779700060119,0.08619332459814416,-0.09459422465428631,0.23905342949221572,-0.33607507795705355,-0.08899138905677828,-0.4025637507438659,0.7102982401847839,-0.8092066049575806,-0.2787115573883056,-0.5124253034591675,-0.2262328267097473
1749048652.5628316,-1.2124509587911683,-2.220103539924785,0.9602092851782364,-5.845317512088798,1.9434880296835961,0.8132708177300472,-0.11018782257007662,0.0865229062853048,-0.09498096478465562,0.2406592118377101,-0.3382865889652001,-0.09010416935301009,-0.3696284890174866,0.6294229030609131,-0.7936466932296753,-0.2756558954715729,-0.4880740940570831,-0.2258509993553161
1749048652.5628712,-1.2126715468882872,-2.2199298359568678,0.9600207130411802,-5.844836592710506,1.942812215104103,0.8130888702004174,-0.11089493960530634,0.08685380574452246,-0.09535850454177092,0.24220162269593226,-0.3404478880779731,-0.09108375741099267,-0.4234883785247803,0.6915242671966553,-0.7753551602363586,-0.2661099433898926,-0.4818540811538696,-0.212227314710617
1749048652.5629082,-1.2128934349793767,-2.2197554797417554,0.9598314150199744,-5.844352777036399,1.942131554665574,0.8129048417227956,-0.11159449342179559,0.08719342405051687,-0.0957301132214148,0.2436863354361704,-0.34255373421141333,-0.09189318220016343,-0.388604462146759,0.688601016998291,-0.7928234338760376,-0.265928715467453,-0.5128753781318665,-0.1961492896080017
1749048652.5629451,-1.2131168304452375,-2.2195803954934488,0.9596413549016921,-5.843866071915372,1.9414461133097423,0.812719003883427,-0.11228099901848301,0.08754930481522931,-0.0961011884499315,0.2451238227210852,-0.3446034392297471,-0.09251169723455137,-0.3872902989387512,0.7093520164489746,-0.7804369926452637,-0.263443648815155,-0.5118378400802612,-0.1902986466884613
1749048652.5629816,-1.2133419190651056,-2.2194044883166755,0.9594504685285443,-5.843376469387629,1.940756018866786,0.8125316545260105,-0.11294867380141047,0.08792819860752703,-0.096478965694116,0.24652705364342856,-0.3465999317489868,-0.09293641501585734,-0.3813124001026153,0.695589005947113,-0.7887352705001831,-0.2497448474168777,-0.5383778810501099,-0.192381277680397
1749048652.563018,-1.2135688417630037,-2.2192276518390424,0.9592586677017764,-5.842883945938133,1.940061442342208,0.8123430892759295,-0.11359197790519227,0.08833519963487936,-0.09687180975749389,0.24790910752652234,-0.3485488044504823,-0.09318205493675176,-0.3641085624694824,0.7169516086578369,-0.806711733341217,-0.2415558099746704,-0.512657105922699,-0.184289738535881
1749048652.563054,-1.2137976766361838,-2.2190497776340083,0.959065848374693,-5.842388462984139,1.939362576880333,0.8121535750466091,-0.11420624148820814,0.08877306071648908,-0.09728819146350051,0.24928109982868257,-0.35045753875773056,-0.09327882531064122,-0.4059219062328338,0.7241961359977722,-0.7876267433166504,-0.2297159284353256,-0.4920926690101623,-0.1929260194301605
1749048652.563091,-1.2140284290683032,-2.2188707653912982,0.9588719022846984,-5.8418899691727315,1.9386596179204303,0.8119633288643113,-0.11478826115750602,0.08924176454431859,-0.09773551877065194,0.25065066468837394,-0.35233488510893973,-0.09326870815291231,-0.3689184486865997,0.6667218208312988,-0.8315938711166382,-0.2529256045818329,-0.4823618531227112,-0.2032506167888641
1749048652.5632083,-1.2142610313874402,-2.218690532630936,0.9586767307084127,-5.841388405368343,1.937952746003156,0.8117725045967441,-0.11533675379850139,0.08973839672859103,-0.09821901919630517,0.2520210699904058,-0.3541902033254281,-0.09320062465701959,-0.3597067892551422,0.7086941003799438,-0.7795244455337524,-0.2693449258804321,-0.5144920945167542,-0.2065388262271881
1749048652.5647526,-1.214495351992917,-2.21850902246797,0.9584802584100298,-5.840883713079769,1.9372421129651922,0.8115811891465006,-0.11585258844262238,0.0902573405798031,-0.09874085937695543,0.25339091825843213,-0.3560325741190175,-0.09312509382371231,-0.3920669853687286,0.7403528690338135,-0.8244056701660156,-0.2856528759002685,-0.5300488471984863,-0.2300503402948379
1749048652.6062832,-1.2147312122867335,-2.2183262077663892,0.9582824453153774,-5.84037584648389,1.9365278320880621,0.8113894083065348,-0.11633876892906914,0.09079079890278025,-0.09929964837596696,0.25475434156396276,-0.3578696560762724,-0.0930890343621604,-0.3647970855236053,0.7509149312973022,-0.8307165503501892,-0.2505321800708771,-0.5312892198562622,-0.2203268110752105
1749048652.6063335,-1.2149684082564378,-2.2181420904345694,0.9580832933653507,-5.839864787250859,1.9358099727354303,0.8111971407370899,-0.11680019625924196,0.0913296279460187,-0.09989041579814768,0.2561016136744676,-0.35970643949331854,-0.09313129646217055,-0.4017148613929748,0.7598632574081421,-0.8232441544532776,-0.2382121682167053,-0.5009324550628662,-0.2045994251966476
1749048652.606376,-1.2152067326866158,-2.217956695731527,0.9578828466944116,-5.839350560310101,1.9350885596412841,0.8110043367974651,-0.11724327426123936,0.0918644201491116,-0.10050508504640819,0.25742012933834707,-0.36154413239684563,-0.0932793643961518,-0.3508655428886413,0.6865179538726807,-0.8218008875846863,-0.2726903557777405,-0.5025819540023804,-0.2068246304988861
1749048652.606415,-1.2154459942838627,-2.2177700628583845,0.9576811846947983,-5.838833247896283,1.934363576290334,0.8108109379986125,-0.11767542364319931,0.09238670081899582,-0.10113337399421236,0.2586956952867321,-0.3633794172943788,-0.09354748887169825,-0.385162889957428,0.6993821859359741,-0.8303350806236267,-0.2714159488677978,-0.5543557405471802,-0.2355048656463623
1749048652.606453,-1.215686031423687,-2.2175822340821787,0.9574784091571216,-5.838312998949988,1.9336349711399405,0.8106168931752945,-0.11810455500689732,0.0928900482712515,-0.10176396669675539,0.25991403268203284,-0.365204298517831,-0.09393633705963692,-0.3765183985233307,0.6992161870002747,-0.7895253896713257,-0.2633630037307739,-0.5501407980918884,-0.2373571097850799
1749048652.6064923,-1.2159267201111597,-2.2173932446857254,0.9572746278445863,-5.8377900312936,1.9329026651734456,0.8104221689357306,-0.11853854288644324,0.09337094219918522,-0.10238574597827413,0.26106233876381807,-0.3670067133838148,-0.09443409729948227,-0.4119154512882232,0.7219352126121521,-0.7921090722084045,-0.2754348218441009,-0.5621328353881836,-0.2510292828083038
1749048652.6065328,-1.2161679773106995,-2.217203115346108,0.9570699372388884,-5.837264624963821,1.932166559641574,0.8102267537758342,-0.11898473835446821,0.09382919098606653,-0.10298888409106402,0.2621307354080413,-0.36877194391126994,-0.09501882599220084,-0.3498479127883911,0.6456688046455383,-0.8171993494033813,-0.3018504679203033,-0.488058865070343,-0.2069345712661743
1749048652.6065707,-1.216409761431439,-2.2170118477833665,0.9568644070220732,-5.836737106499602,1.9314265436376739,0.8100306567178891,-0.1194495439084304,0.0942678624794748,-0.10356565346171019,0.2631134523377333,-0.370484636487846,-0.09566168528361933,-0.4163212776184082,0.6968982815742493,-0.7910101413726807,-0.285564661026001,-0.4876424968242645,-0.230267584323883
1749048652.606608,-1.2166520713011917,-2.216819424142209,0.9566580684886378,-5.8362078253910745,1.9306825018134885,0.8098339021262093,-0.11993805580330327,0.09469272842861788,-0.10411091075489856,0.26400963310192277,-0.3721310187360314,-0.09633063830708667,-0.3687899708747864,0.7309937477111816,-0.8298472166061401,-0.2926931083202362,-0.5204588174819946,-0.2273913472890854
1749048652.606645,-1.216894943972851,-2.216625810423784,0.956450908579326,-5.8356771248414985,1.9299343226772536,0.8096365224867237,-0.12045377468493276,0.09511132246393512,-0.10462228341310333,0.2648236978447469,-0.3737008147597709,-0.09699417075046825,-0.3760640621185303,0.7400543689727783,-0.8054383397102356,-0.2722924947738647,-0.4953774809837341,-0.2165933698415756
1749048652.606682,-1.2171384509900762,-2.2164309638976456,0.9562428705043527,-5.835145309503283,1.929181907656128,0.8094385506152073,-0.1209984009360886,0.09553178466833155,-0.10510011763132875,0.2655652492084253,-0.37518843551077863,-0.09762466375134439,-0.3694432377815246,0.7212042808532715,-0.7964643239974976,-0.2783872783184051,-0.4758399724960327,-0.1988641023635864
1749048652.6067195,-1.2173826925790314,-2.216234843573349,0.9560338610060685,-5.834612613247393,1.928425180845347,0.8092400122006961,-0.1215717518473982,0.09596169436897765,-0.10554722903033495,0.26624856395279584,-0.37659322271757917,-0.09820110761310583,-0.3762586116790771,0.701259970664978,-0.8106330037117004,-0.3046090602874756,-0.4846121072769165,-0.2034996598958969
1749048652.6067562,-1.2176277894234735,-2.2160374218122807,0.9558237632949812,-5.8340791703617,1.927664099279215,0.8090409189939483,-0.1221718459553369,0.0964070704230526,-0.10596846273746045,0.26689175660920944,-0.37791880366901404,-0.09871091072853906,-0.4187141060829162,0.7549934983253479,-0.8057844638824463,-0.2808992862701416,-0.5432760715484619,-0.2122521847486496
1749048652.606793,-1.2178738722040163,-2.2158386946245767,0.9556124537066392,-5.833544993526307,1.9268986634876955,0.8088412626336065,-0.12279518584179201,0.09687166290026655,-0.10637005636192429,0.26751571614182124,-0.37917190017710717,-0.09915064455285892,-0.3834971189498901,0.6802158951759338,-0.7764315009117126,-0.3164916038513183,-0.568436324596405,-0.1969888508319854
1749048652.6068506,-1.2181210700689415,-2.2156386885285224,0.9553998194475269,-5.833009961283874,1.9261289278692113,0.8086410094120329,-0.12343723202720465,0.09735658926473512,-0.10675882278000527,0.2681429012993921,-0.3803611062581067,-0.09952567987276448,-0.4051765501499176,0.6883543729782104,-0.7966739535331726,-0.2895580530166626,-0.528126060962677,-0.1928382813930511
1749048652.6068945,-1.2183695001817867,-2.2154374629277003,0.9551857747439007,-5.832473816774814,1.9253550100974912,0.8084400971184775,-0.1240930071857375,0.09786029543372325,-0.10714121846664888,0.26879604912285604,-0.3814960987123172,-0.09984879478011992,-0.3953644037246704,0.7086122035980225,-0.8287603855133057,-0.3060741126537323,-0.5067077279090881,-0.1884295344352722
1749048652.6069326,-1.218619260444744,-2.215235108259146,0.9549702733261144,-5.831936178730238,1.92457709861826,0.8082384357789791,-0.12475772481263378,0.09837876904956454,-0.10752241426058363,0.26949682101492906,-0.3825875000372999,-0.10013795095110221,-0.404227077960968,0.6867427229881287,-0.7939434051513672,-0.3020533621311188,-0.5198604464530945,-0.1767912805080413
1749048652.6069694,-1.2188704260174719,-2.215031741176228,0.954753316212275,-5.831396565290833,1.923795457381964,0.8080359140112493,-0.1254273182106505,0.0989059169773301,-0.1079055152718806,0.27026439542385516,-0.383647328085985,-0.10041353007831495,-0.3609567284584045,0.6649465560913086,-0.8327956199645996,-0.2990980148315429,-0.5206174850463867,-0.1833177655935287
