nimar13/UR3e_dataset_trayectorias/trayectorias_ejecutadas_filtradas/trapezoidal/trayectoria_067_result_filtrado.csv
timestamp,q1,q2,q3,q4,q5,q6,qd1,qd2,qd3,qd4,qd5,qd6,tau1,tau2,tau3,tau4,tau5,tau6
1749048037.1503613,4.859485339108457,-2.780054780552695,-0.39903528538099337,1.7318968327258208,-0.021623855889143118,3.639542826644509,-0.0034771081399790765,0.0031293412083398123,-3.312909033088561e-06,-0.00036715390175429325,-8.211786529433348e-06,0.0003659312028336003,0.0935938358306884,1.601237654685974,0.6727733016014099,-0.3886085450649261,0.3306750357151031,0.0427204295992851
1749048037.150434,4.859474885299596,-2.780053744531985,-0.3990337632011425,1.7318955673969,-0.021617897688344736,3.63953918399111,-0.00415032347197312,0.0030549355770888493,0.0001500702142597819,-0.0004495843140616479,0.0001415305443532997,-4.8598850627302155e-05,0.0935938358306884,1.601237654685974,0.6727733016014099,-0.3886085450649261,0.3306750357151031,0.0427204295992851
1749048037.1505077,4.859464215197361,-2.7800525840212647,-0.3990323700470949,1.731894410960062,-0.021612194313571236,3.639535615466884,-0.004807262152960526,0.002974006304196118,0.00029584102792479136,-0.0005251070730183968,0.00028503612695734585,-0.00045189495951277435,0.0636207610368728,1.633055567741394,0.6740705370903015,-0.3797585964202881,0.3338642120361328,0.0225020665675401
1749048037.1505775,4.859453146760519,-2.780051247491624,-0.39903124347631996,1.7318934492702727,-0.02160703395484817,3.6395320942304945,-0.005423841268982084,0.002881019432494375,0.0004266527030544944,-0.0005890506047342329,0.0004158055052072828,-0.0008323145634129601,0.0322286784648895,1.6980172395706177,0.6623746752738953,-0.3834757208824157,0.3502125740051269,0.0164496228098869
1749048037.1506498,4.859441551836293,-2.7800497185530095,-0.3990304996854815,1.731892752625517,-0.021602671980678355,3.6395286023496727,-0.005977087938826379,0.0027716041929407406,0.0005364946169846055,-0.0006378800465678701,0.0005283754622214333,-0.0011791432580234306,0.0602397881448268,1.7036561965942385,0.6662452816963196,-0.3887481987476349,0.3331283926963806,0.0318035818636417
1749048037.1507204,4.859429372391598,-2.780048020388005,-0.39903022306763514,1.7318923699618807,-0.021599313851463433,3.639525139147364,-0.006446178280723185,0.0026430020734312214,0.0006211589307783107,-0.0006695278348350909,0.000618710254595149,-0.0014831162026210003,0.0539777353405952,1.6904510259628296,0.681717574596405,-0.3886658251285553,0.3464071750640869,0.0140437064692378
1749048037.1507893,4.8594166285697336,-2.780046213771406,-0.39903045854687225,1.7318923263401895,-0.021597101394287107,3.63952172516998,-0.006813467336641632,0.002494380377069595,0.0006784834659981589,-0.0006835488425200759,0.0006844328922161883,-0.001736915344103813,0.0580930598080158,1.6793595552444458,0.6648983359336853,-0.3821731507778168,0.3371736109256744,0.0229982733726501
1749048037.1508594,4.85940341858334,-2.7800443888924553,-0.39903120717161156,1.7318926235820165,-0.021596103166931193,3.6395184011900654,-0.007065408937623435,0.002326968558105505,0.0007083574592870415,-0.0006810882568655896,0.0007248738886885226,-0.0019355848927826676,0.0484400764107704,1.694121479988098,0.6674395203590393,-0.3925857841968536,0.340106189250946,0.0336593873798847
1749048037.1509273,4.859389911369048,-2.780042652141578,-0.39903242542637385,1.731893243056866,-0.02159630984721076,3.6395152226390413,-0.0071932676648457225,0.0021439804749685976,0.0007125162709365967,-0.0006646765687614463,0.0007409454879554023,-0.0020767993730660566,0.059461124241352,1.6922485828399658,0.6622334122657776,-0.396449327468872,0.3499484658241272,0.0089701348915696
1749048037.150998,4.8593763333107765,-2.780041109772204,-0.3990340287284746,1.7318941491141846,-0.02159763570122499,3.6395122508090476,-0.007193557309025187,0.0019503100828693193,0.0006941788452344061,-0.0006378853542448491,0.0007348762927377589,-0.0021609317205440624,0.0664895474910736,1.72764790058136,0.670153021812439,-0.3796055316925049,0.3448019027709961,0.0256404113024473
1749048037.1510663,4.859362950442694,-2.7800398510124165,-0.39903589933509037,1.7318952917553707,-0.021599926821605126,3.6395095426612465,-0.007068178430695662,0.0017520281985282124,0.0006575937981245253,-0.0006048884853260721,0.0007098574151622178,-0.0021908998702994194,0.0595240220427513,1.7220977544784546,0.6752551198005676,-0.3899805247783661,0.330278992652893,0.0069961547851562
1749048037.1511216,4.859350047706598,-2.780038933721211,-0.3990378982454804,1.73189660795785,-0.021602975741978014,3.6395071410883184,-0.006824255062422924,0.0015557454594494707,0.0006075591309642825,-0.0005699772396685211,0.0006696558643017515,-0.0021718078913175193,0.0903798714280128,1.734993577003479,0.6830245852470398,-0.3875052034854889,0.3425989151000976,0.0035153403878211
1749048037.1511626,4.859337907173733,-2.7800383755881666,-0.39903987976302147,1.7318980222628133,-0.02160654047738423,3.6395050673117986,-0.00647368448037764,0.0013679264896173406,0.0005489711465993847,-0.0005370765773070982,0.0006182461954327974,-0.002110428811974529,0.0705635547637939,1.7313446998596191,0.6857655644416809,-0.3873890936374664,0.3320008516311645,0.0077313063666224
1749048037.1512003,4.859326787388789,-2.7800381526996203,-0.3990417065631753,1.7318994480756236,-0.021610364878174908,3.6395033168718527,-0.006032422108604991,0.0011942405571116516,0.00048644399394659336,-0.0005093055601272383,0.0005595005352242168,-0.0020145930887022455,0.0687943398952484,1.7498408555984497,0.6752479672431946,-0.3796404600143432,0.3307560086250305,0.0212718993425369
1749048037.1512375,4.859316905796229,-2.780038205280748,-0.39904326280978714,1.7319007910781112,-0.02161419720375347,3.639501860151731,-0.0055195349682904005,0.0010390209202628276,0.0004240253489559061,-0.0004886189441560843,0.0004969628549760172,-0.0018925498745494017,0.0537669733166694,1.7424253225326538,0.681738555431366,-0.389880508184433,0.3369216918945312,0.0067835627123713
1749048037.1512744,4.859308425635747,-2.7800384485585456,-0.39904446326259596,1.731901955383725,-0.021617804952452066,3.639500647381184,-0.004956075577297328,0.0009048854434759823,0.00036501826244961076,-0.0004755602630195014,0.0004337181939476591,-0.001752364014696423,0.0650845691561698,1.733165979385376,0.6843506693840027,-0.3900130689144134,0.3355798125267029,0.0067806225270032
1749048037.1513157,4.859301448171782,-2.7800387859498574,-0.3990452573061813,1.7319028521124262,-0.0216209854130592,3.639499616801651,-0.004363852306429755,0.000792549497637119,0.0003119057127125957,-0.0004691496443635943,0.0003723532852938403,-0.0016014056818303062,0.0536647364497184,1.7463525533676147,0.6908501982688904,-0.3809388875961303,0.3452562689781189,0.0012368932366371
1749048037.1513648,4.859296010737141,-2.7800391222428287,-0.39904562804951915,1.7319034092729757,-0.02162357237350334,3.6394987037470417,-0.0037641942480640105,0.0007008415077559095,0.00026636385331556164,-0.0004669221799610064,0.00031499303801323,-0.001445982434845124,0.0710877403616905,1.7424994707107544,0.6934236884117126,-0.3899857103824615,0.3297784626483917,-0.0098177902400493
1749048037.151409,4.8592920904856,-2.780039375240433,-0.39904558768682563,1.7319035813497115,-0.02162543976984502,3.63949784834053,-0.0031768166113336047,0.0006269135606087773,0.00022934280883469952,-0.00046512467476536,0.0002633884519790055,-0.0012911514856100285,0.0796116814017295,1.7350138425827026,0.6896306872367859,-0.3744837939739227,0.3447980880737304,-0.0043762139976024
1749048037.151447,4.859289612882747,-2.7800394846902408,-0.3990451709165754,1.7319033569005329,-0.0216265030492173,3.639497000314151,-0.0026188792198529407,0.0005666250567162151,0.00020119020330440732,-0.0004590696971834436,0.00021902626994812477,-0.001140729857447882,0.0546392910182476,1.7460800409317017,0.6868937611579895,-0.3757109344005584,0.3440310060977936,0.020634151995182
1749048037.151549,4.85928846318535,-2.780039417412305,-0.3990444282982088,1.7319027627947003,-0.02162671889074181,3.63949612059845,-0.0021043003883422676,0.0005150664984703563,0.00018179215794330623,-0.0004436357579481321,0.0001832291519128406,-0.0009974936490153507,0.0449562668800354,1.7219884395599363,0.6844010949134827,-0.3706988394260406,0.3246400356292724,0.0113998530432581
1749048037.1527646,4.859288498817023,-2.7800391679974408,-0.39904342098725604,1.7319018642773356,-0.021626083765888277,3.6394951803051923,-0.0016433528686997723,0.00046718269910212343,0.00017070879300536536,-0.00041389106685957674,0.00015721727196515935,-0.0008635309178893018,0.0552295446395874,1.725732922554016,0.6922027468681335,-0.3705813586711883,0.3278089165687561,-0.0005253255367279
1749048037.1944945,4.859289560698839,-2.7800387553903967,-0.3990422174699567,1.7319007605844394,-0.02162463174874593,3.639494158284098,-0.001242536559895379,0.0004184493940308217,0.00016728569715388495,-0.000365805879159728,0.00014210763819421323,-0.0007406917983518706,0.0522196181118488,1.6996673345565796,0.6816470623016357,-0.3692780137062073,0.3353245258331299,-0.0030678482726216
1749048037.1945722,4.859291482098047,-2.780038216579677,-0.3990408920304883,1.7318995762158527,-0.02162243207914412,3.639493038434046,-0.0009046976348380573,0.0003655539645764958,0.00017072869316673414,-0.0002970055712561844,0.00013883558324412752,-0.0006310671169644988,0.0246356949210166,1.6923667192459106,0.6766287088394165,-0.3718159794807434,0.3316172361373901,-0.0082813017070293
1749048037.194644,4.859294094256515,-2.780037598950437,-0.3990395240747709,1.7318984482971156,-0.021619586917948835,3.6394918074495384,-0.0006293471307305817,0.0003070295253948966,0.0001801358133385096,-0.00020750434096578768,0.00014799306355688192,-0.0005374230891507449,0.0578315109014511,1.6923176050186155,0.6947373747825623,-0.3614521920681,0.3274708986282348,-0.0059758499264717
1749048037.1947055,4.859297228864918,-2.780036952514581,-0.39903819732336887,1.7318975108908048,-0.021616229122298734,3.6394904530467094,-0.00041312551349580726,0.0002437920759023447,0.00019448700908251292,-0.00010034928529923024,0.00016958979185002134,-0.0004635241121145006,0.0471410453319549,1.6941665410995483,0.6829829812049866,-0.3783223628997803,0.3236663937568664,-0.0100761279463768
1749048037.1947465,4.859300718288367,-2.7800363226295386,-0.3990369982708238,1.7318968776505905,-0.021612519062643432,3.6394889623244593,-0.00025036316872475604,0.00017953315984091403,0.0002125981709978281,1.7901635638584543e-05,0.0002027548407369284,-0.0004142877180255565,0.0673912093043327,1.6681910753250122,0.699888288974762,-0.3707273304462433,0.3312979638576507,0.0052888095378875
1749048037.1947858,4.859304395157587,-2.7800357435180407,-0.3990360139198722,1.7318966246698844,-0.02160863937819579,3.6394873199001685,-0.00013369636093784633,0.00012092610179479814,0.00023305115355533917,0.0001369446343734496,0.00024540713341898447,-0.0003957346383973372,0.0666664540767669,1.6606550216674805,0.6843782067298889,-0.3588555455207824,0.31000816822052,0.0111993104219436
1749048037.1948247,4.859308093187361,-2.7800352329743037,-0.3990353292066989,1.7318967755922559,-0.021604787360783768,3.639485505720426,-5.4707735873008385e-05,7.761301859477106e-05,0.0002541155044090201,0.00024280768288535644,0.00029393206949189125,-0.0004147210825309971,0.0486724898219108,1.6756110191345217,0.6843199133872986,-0.3627802729606628,0.331489086151123,0.0121769271790981
1749048037.1948628,4.859311650552481,-2.780034788628057,-0.3990350244701627,1.7318972909359651,-0.02160116574535083,3.6394834927604593,-4.565712113940886e-06,6.195288395589751e-05,0.0002736802884671642,0.00031829362384815774,0.00034290732762943046,-0.00047846736478733873,0.0468929782509803,1.68681538105011,0.6713756918907166,-0.3511343598365783,0.3059322535991668,0.0208015851676464
1749048037.1949012,4.859314915982006,-2.7800343857482614,-0.3990351729065845,1.7318980630992817,-0.021597973401297647,3.6394812449427336,2.5361453008801888e-05,8.852797272150794e-05,0.00028921535609380077,0.00034381513578623856,0.00038492266143691603,-0.0005939242918073819,0.0713629052042961,1.701614499092102,0.6779130101203918,-0.3654529452323913,0.2990983128547668,0.0121032483875751
1749048037.1949394,4.859317756596098,-2.7800339760492623,-0.3990358375939906,1.731898917713117,-0.021595397517474888,3.639478715518622,4.2940746704262765e-05,0.00017342633903196991,0.00029778013569971024,0.0002986113916213453,0.00041053551405504946,-0.0007670437303735697,0.0780366584658622,1.7127238512039185,0.6791533827781677,-0.3861429393291473,0.2886622250080108,-0.0004469649866223
1749048037.1949773,4.859320065983763,-2.7800334867043386,-0.3990370677318939,1.731899621134127,-0.021593608456751914,3.6394758461130037,5.4781416942524786e-05,0.0003333398913773023,0.00029609425515213824,0.00016229150950512825,0.00040839616127562594,-0.0010020398089129739,0.0718039274215698,1.733244776725769,0.6493014693260193,-0.3809123933315277,0.2827370166778564,-0.0218539237976074
1749048037.195015,4.859321771112648,-2.7800328188941212,-0.3990388942354023,1.731899893216138,-0.021592757780713637,3.6394725666951406,6.583478644398436e-05,0.0005845379934910974,0.0002806781115079053,-8.339983651472731e-05,0.000365563024830464,-0.0013007387601734776,0.0855157375335693,1.759188532829285,0.6480483412742615,-0.4056847691535949,0.282004177570343,-0.0114140398800373
1749048037.195052,4.859322837005711,-2.7800318456381428,-0.39904132534955156,1.7318994241371235,-0.021592979173248705,3.6394687966640187,7.910486426599207e-05,0.0009417904363977693,0.0002480633709198114,-0.00045274886392863414,0.00026801151448663707,-0.0016621140470763718,0.0832096338272094,1.790721416473389,0.6636314988136292,-0.4185142815113067,0.2790661156177521,0.0009848773479461
1749048037.1950889,4.8593232683833705,-2.780030409300679,-0.3990443431117651,1.7318978938611254,-0.02159439122394243,3.6394644469626214,9.548367608993976e-05,0.0014173153286989543,0.00019506402281628803,-0.0009543676954558632,0.00010131946441868558,-0.002082084629860396,0.1018312126398086,1.7758067846298218,0.6442515254020691,-0.4275529086589813,0.2649461328983307,-0.0155831817537546
1749048037.1951258,4.859323107634284,-2.7800283198436873,-0.39904790129799683,1.7318949926804859,-0.0215971006002609,3.639459423026773,0.00011371979181236329,0.0020198150857936724,0.00011908881947369942,-0.001589840248856714,-0.00014850925477430626,-0.0025536162650329802,0.0685950368642807,1.7778147459030151,0.6285882592201233,-0.4521640241146087,0.2428791970014572,-0.0064670145511627
1749048037.1951632,4.859322428823692,-2.78002535520046,-0.3990519252614353,1.7318904412291127,-0.02160120443152645,3.639453628662803,0.00013052170921633072,0.0027536468387576963,1.846621961489108e-05,-0.0023529399531729382,-0.0004941408789137703,-0.003067114600430916,0.0915692448616027,1.8149051666259768,0.618291437625885,-0.4638336896896362,0.2389791756868362,-0.0240084826946258
1749048037.1951993,4.85932132814902,-2.780021264750008,-0.3990563140141879,1.7318840083903053,-0.02160679164575634,3.639446971281323,0.00014078949855042249,0.0036181715652676516,-0.00010725626816032832,-0.0032296018215476623,-0.0009459977905420811,-0.003611051381188101,0.0915692448616027,1.8149051666259768,0.618291437625885,-0.4638336896896362,0.2389791756868362,-0.0240084826946258
1749048037.1952364,4.859319912016257,-2.7800157760261275,-0.3990609448836146,1.7318755255788416,-0.021613943882852014,3.639439368793076,0.00013795842581314132,0.004607347535709902,-0.00025708396962380244,-0.004198751101273681,-0.0015114027646929164,-0.004172741452895828,0.0509928837418556,1.9005730152130127,0.611882209777832,-0.5065709948539734,0.2234245836734771,-0.0242190882563591
1749048037.1952732,4.859318284272394,-2.780008604129634,-0.39906568085831445,1.731864895909054,-0.02162273676757581,3.6394307578630345,0.00011442788342369467,0.00570965628647524,-0.000428466967669709,-0.005233974622940423,-0.0021938308144311596,-0.0047391953199708865,0.0723844319581985,1.9022608995437624,0.6052218079566956,-0.502741813659668,0.2217928320169448,-0.0400458946824073
1749048037.19531,4.859316534046835,-2.7799994631397937,-0.39907038029650704,1.7318520968454638,-0.021633241617995676,3.6394211024296803,6.20401341877766e-05,0.006908436607851797,-0.0006173562209076727,-0.006305891444486959,-0.0029922909884987203,-0.005297995127445297,0.0386737287044525,1.8709559440612795,0.6090795993804932,-0.5194953680038452,0.1973652094602584,-0.0341971777379512
1749048037.1954238,4.859314725460676,-2.7799880788145734,-0.39907490816822344,1.7318371752680275,-0.021645526602567352,3.6394104007321912,-2.7430810531344282e-05,0.008182645393715946,-0.0008184522345024491,-0.007384970589483321,-0.0039008454098774592,-0.005838156073415448,0.048073336482048,1.9080345630645752,0.5963159203529358,-0.5300589799880981,0.1899217218160629,-0.0331061854958534
1749048037.1967702,4.859312890256857,-2.7799742016549227,-0.39907914761282737,1.7318202346523661,-0.02165965566761187,3.639398688922806,-0.00016181817376505827,0.009507998037595809,-0.0010256456327526282,-0.008444481166234122,-0.004908283132366104,-0.006350924663041583,0.0350851565599441,1.9481734037399288,0.5930343270301819,-0.5611736178398132,0.1670284420251846,-0.0557888932526111
1749048037.2424386,4.85931102394851,-2.7799576191477042,-0.3990830104408141,1.7318014152462362,-0.021675683675592937,3.6393860400251907,-0.00034816141065445455,0.010858403085936458,-0.00123260933573275,-0.009463244372723422,-0.005997992616886045,-0.006830434927084681,0.0070640221238136,1.9805567264556885,0.605958878993988,-0.5644428730010986,0.171654999256134,-0.0403428599238395
1749048037.2425015,4.859309085357401,-2.7799381660362514,-0.3990864453466362,1.7317808694460626,-0.021693647126897222,3.639372558296753,-0.0005923890198687836,0.01220759329744857,-0.001433464298860977,-0.010427874273963321,-0.007148095520404286,-0.007274117412894944,0.008424274623394,1.9767625331878664,0.5906011462211609,-0.5440810918807983,0.1736471056938171,-0.0393668040633201
1749048037.2425556,4.859306998849421,-2.779915731729367,-0.3990894429520742,1.7317587356498862,-0.021713551195215747,3.6393583701262533,-0.0008990965832633358,0.01353083757965383,-0.0016234247594057603,-0.011334240398284616,-0.008331902091442129,-0.007682760887424464,-0.0186623483896255,1.9826676845550537,0.5994289517402649,-0.5552895665168762,0.1707441955804824,-0.0594121925532817
1749048037.2426083,4.859304658537982,-2.7798902641577876,-0.3990920372524741,1.7317351142902704,-0.02173535506826523,3.6393436128916417,-0.001271413431481244,0.014806583978452288,-0.0017993450551178716,-0.012187967852167214,-0.009518729680565276,-0.008060174225503433,0.007269874215126,2.0005788803100586,0.5851691961288452,-0.5639996528625488,0.1601047217845916,-0.0571693554520607
1749048037.2426603,4.859301934047878,-2.7798617695642247,-0.39909430353705894,1.7317100492890656,-0.02175895847523017,3.6393284229673473,-0.0017109333004564262,0.016017853846560404,-0.0019601260961305367,-0.013003911599601492,-0.010675103859939482,-0.008412470266062568,-0.0097626373171806,1.9731698036193848,0.5697007775306702,-0.5631569623947144,0.1512014418840408,-0.0476241111755371
1749048037.242713,4.859298677679151,-2.779830308215961,-0.3990963533306197,1.7316835170004001,-0.021784192699689627,3.639312923830453,-0.0022176789977113257,0.017153208852649343,-0.002106970202535454,-0.013804683068054878,-0.011766341733572402,-0.008747064006286678,-0.0133391767740249,1.976457118988037,0.5672574639320374,-0.596056342124939,0.1475137025117874,-0.0487586185336113
1749048037.242766,4.859294732789583,-2.779795986898831,-0.39909832721451927,1.7316554233342105,-0.021810819123755154,3.6392972151567378,-0.002790085717263836,0.018207158471952152,-0.0022434810879284946,-0.014618438098868605,-0.012758490956048711,-0.00907152229884404,-0.0319737941026687,2.0038318634033203,0.5853267312049866,-0.5890939235687256,0.1586534529924392,-0.0559626519680023
1749048037.2428193,4.859289942927546,-2.7797589497709767,-0.3991003864318072,1.7316256085393207,-0.021838537318257762,3.6392813638198196,-0.0034250132873312263,0.019179961750259922,-0.002375592500916291,-0.01547622654639069,-0.013620553441461286,-0.009392419194963295,-0.0465936064720153,1.9897576570510864,0.584191620349884,-0.6043896079063416,0.1451516151428222,-0.0631643757224083
1749048037.242875,4.859284160723233,-2.779719369207239,-0.3991027040208012,1.7315938581244756,-0.021867003075640178,3.63926539765191,-0.004117814205182117,0.020076883604744983,-0.0025112916554249198,-0.01640923857416809,-0.014326858282030288,-0.009714350373385293,-0.0431671217083931,2.0079545974731445,0.5583375692367554,-0.6362302899360657,0.1583883613348007,-0.0883677750825882
1749048037.2429352,4.859277255034317,-2.779677437706464,-0.39910545602586056,1.7315599176466618,-0.02189585488832679,3.6392493025810158,-0.004862476051969977,0.02090706132213248,-0.0026601057925149103,-0.01744625870964064,-0.014859377867350964,-0.010039249893382955,-0.0464441925287246,1.9987529516220093,0.5581713318824768,-0.609794557094574,0.151569664478302,-0.0717552825808525
1749048037.242996,4.85926911485495,-2.7796333612125608,-0.39910881325981024,1.7315235087107157,-0.021924745633233485,3.6392330234133756,-0.005651825279475499,0.021682189687064573,-0.0028323553473988206,-0.018611568873546248,-0.015209725083303562,-0.01036613107102105,-0.0375457108020782,1.9862362146377563,0.557346522808075,-0.6125662922859192,0.1704009175300598,-0.0840265750885009
1749048037.2430573,4.859259649345463,-2.779587353636435,-0.3991129341325526,1.7314843436011422,-0.021953375214285253,3.639216468270495,-0.0064777450088399765,0.02241522828140381,-0.0030382341523599614,-0.01992344721623138,-0.015380546850409548,-0.010691330135855071,-0.0521368235349655,1.9681239128112795,0.5488269925117493,-0.6462046504020691,0.170777827501297,-0.0994265004992485
1749048037.2431,4.859248784667062,-2.779539632015706,-0.39911795905078773,1.7314421366099675,-0.021981519902168636,3.6391995164469892,-0.007331348508196917,0.02311928373396364,-0.0032868265987187886,-0.021393308773369372,-0.015386057022465878,-0.01100925819565983,-0.0779905617237091,1.9732722043991089,0.5371164679527283,-0.6362898945808411,0.1922962218523025,-0.0892470628023147
1749048037.2431378,4.8592364592740065,-2.7794904115887413,-0.39912400674321846,1.7313966113218937,-0.0220090547480893,3.6391820289867676,-0.008203073360993823,0.023806751662619197,-0.003585188981086201,-0.02302543840436231,-0.015251539980042016,-0.011313571530866854,-0.0798057466745376,1.993776559829712,0.5476675629615784,-0.653423547744751,0.1576339453458786,-0.0880207121372222
1749048037.2431753,4.8592226193816375,-2.779439900082043,-0.39913117265769366,1.7313475045116953,-0.02203596632617669,3.639163860679655,-0.009082706010717112,0.024488741653177562,-0.003937603504221263,-0.02481718949416424,-0.015011796801796755,-0.011598577635262744,-0.1074845641851425,1.9929463863372805,0.5341352820396423,-0.6480602622032166,0.1903885304927826,-0.0890756994485855
1749048037.2432127,4.859207215720753,-2.7793882907080936,-0.3991395293697287,1.7312945683006207,-0.022062354198824907,3.6391448719455046,-0.009959385805462148,0.02517476411791975,-0.0043450737523124125,-0.02675948175109527,-0.014708667637277264,-0.011860634072456584,-0.0803430527448654,2.0108907222747803,0.5439184308052063,-0.6476813554763794,0.162986010313034,-0.0696078687906265
1749048037.2432497,4.859190202012107,-2.7793357537221297,-0.3991491286552042,1.731237572425488,-0.022088421005519446,3.639124939461359,-0.010821651083457185,0.025872631421308436,-0.0048050905717911185,-0.028837440688760447,-0.014387903570069527,-0.012099286993530783,-0.0906361937522888,2.0289645195007324,0.527428388595581,-0.6674443483352661,0.162542775273323,-0.1056119203567504
1749048037.2432868,4.859171535197958,-2.7792824268334155,-0.3991600044721059,1.7311763080026228,-0.02211445266282806,3.639103965032019,-0.011657577383086483,0.026588513693152675,-0.005311669644721799,-0.0310310735954994,-0.014095740057736086,-0.012317936802799698,-0.1033805161714553,2.0228705406188965,0.5247778296470642,-0.6601605415344238,0.1712318658828735,-0.10022833943367
1749048037.2433236,4.859151177365016,-2.779228405218998,-0.3991721757472696,1.7311105933985325,-0.022140791365612745,3.639081882548584,-0.012455037359036374,0.02732708704542303,-0.005855644811561879,-0.033315946234052866,-0.01387552510739572,-0.012523898143726883,-0.1113786920905113,2.030925750732422,0.539415180683136,-0.6739510297775269,0.1841373145580291,-0.0952136218547821
1749048037.2433603,4.859129099385689,-2.779173732217032,-0.3991856478747334,1.731040282045988,-0.02216780470166767,3.6390586627898203,-0.013202095864199683,0.02809171587285061,-0.0064251865523761685,-0.03566388093323844,-0.013764695529593352,-0.01272782483633455,-0.0977730602025985,2.033023834228516,0.5231466889381409,-0.6959253549575806,0.1699881553649902,-0.102364681661129
1749048037.2433977,4.859105286404801,-2.7791183918508793,-0.3992004122758987,1.7309652714410768,-0.02219585434740796,3.6390343155234,-0.01388753568328207,0.02888462316315386,-0.007006500698612668,-0.0380437230916952,-0.013792314315044784,-0.012942584385028152,-0.1178216487169265,2.061481475830078,0.5308163166046143,-0.6810380816459656,0.1645213216543197,-0.1018596291542053
1749048037.2434342,4.859079745118314,-2.779062304205469,-0.39921644397598754,1.7308855122903715,-0.02222526765924816,3.6390088881332128,-0.014501480993772136,0.029707024833628654,-0.007584651998140035,-0.040422221662573046,-0.013977314034468965,-0.013181774216211545,-0.0943976789712905,2.0600745677948,0.5249188542366028,-0.6974365711212158,0.1657782644033432,-0.1169439554214477
1749048037.2436545,4.8590525121837995,-2.779005324564225,-0.399233697671036,1.730801016869095,-0.022256314977021865,3.638982460108127,-0.015036052430417734,0.030559230881008342,-0.00814445140985685,-0.04276505371633744,-0.014327538553352066,-0.01345814385708354,-0.1146760508418083,2.102280616760254,0.5410271883010864,-0.6993474364280701,0.1571831554174423,-0.1384996026754379
1749048037.2447803,4.8590236623294745,-2.7789472471413528,-0.3992521032232296,1.7307118658076304,-0.022289194462919906,3.638955133312353,-0.015485962154492546,0.031440735757828256,-0.008671341953519138,-0.04503800714396452,-0.014839623581826666,-0.01378219369833545,-0.1338298320770263,2.134661674499512,0.5486536026000977,-0.7128146886825562,0.161747470498085,-0.1031730622053146
1749048037.2902985,4.858993314286841,-2.778887813975433,-0.3992715619211013,1.7306182124095657,-0.022324024960750623,3.6389270188081806,-0.015848948088079916,0.03235032499986111,-0.00915221663393147,-0.047208323029566304,-0.0154996983091197,-0.014161157402126819,-0.0968117341399192,2.090236186981201,0.5339009761810303,-0.7047653794288635,0.1662999391555786,-0.1228120699524879
1749048037.2903445,4.858961632864995,-2.7788267289924615,-0.39929194491155723,1.7305202832677664,-0.022360846180598852,3.638898221686818,-0.016125959237454524,0.03328621980424607,-0.009576109527214794,-0.04924618254683373,-0.016284832213193948,-0.014598471305124693,-0.1266362965106964,2.123868942260742,0.5303394794464111,-0.7074049711227417,0.150356650352478,-0.1356183886528015
1749048037.290385,4.858928826239747,-2.7787636765510992,-0.3993130947716969,1.7304183737917096,-0.02239962484004559,3.638868825575124,-0.016321042233826938,0.03424627734738418,-0.009934719109186729,-0.05112629339366965,-0.01716509962179156,-0.015093731039759204,-0.1125843226909637,2.173955202102661,0.5408172011375427,-0.7062936425209045,0.1503155678510666,-0.1285982131958007
1749048037.2904236,4.858895138489249,-2.7786983430289336,-0.39933483045227264,1.730312837642102,-0.022440265156745114,3.6388388783032433,-0.016440936910878723,0.03522826371286521,-0.010222744895102592,-0.05282949177532073,-0.018106088552698924,-0.015643056981059684,-0.143503651022911,2.163037061691284,0.5516495704650879,-0.7037493586540222,0.1744909286499023,-0.1105641797184944
1749048037.2904618,4.858860838179197,-2.7786304391492718,-0.39935695516439285,1.7302040699418018,-0.0224826220981611,3.6388083800719904,-0.01649444757279061,0.036230206765627174,-0.010438038261791783,-0.05434424311500396,-0.019071641102659416,-0.016239740893042733,-0.1201657205820083,2.1627180576324463,0.5401883125305176,-0.7090612053871155,0.16714808344841,-0.1307735592126846
1749048037.2905047,4.858826204290315,-2.778559719955705,-0.3993792663607792,1.7300924850940675,-0.022526515972111773,3.6387772756747037,-0.016491695443136122,0.03725081135911877,-0.010581583530992748,-0.05566790971279774,-0.020026592140231128,-0.016875028598657627,-0.0856328830122947,2.191185474395752,0.5423504710197449,-0.7107610106468201,0.1650704890489578,-0.1269378215074539
1749048037.290543,4.858791511129167,-2.7784859991455644,-0.39940156677806415,1.7299784907594955,-0.022571747260426888,3.6387454526408756,-0.01644336690460072,0.03828989250901603,-0.01065733320370477,-0.05680765686121617,-0.02093928405078816,-0.01753891164069105,-0.1064151525497436,2.214580535888672,0.5426455736160278,-0.7043025493621826,0.1592446565628051,-0.1269169747829437
1749048037.2905817,4.858757014003202,-2.7784091553292254,-0.3994236755579825,1.7298624600266659,-0.02261811097414404,3.638712746921959,-0.016360056976817788,0.039348771744846786,-0.010671919584604228,-0.057780882246021355,-0.021783676646155672,-0.018220846386485735,-0.0970752835273742,2.222540616989136,0.5565489530563354,-0.6958882808685303,0.1666748076677322,-0.1458663642406463
1749048037.2906196,4.858722937090928,-2.7783291295177115,-0.3994454386593008,1.729744704155517,-0.02266541007514313,3.6386789566342874,-0.016251779138707716,0.04043058228412136,-0.01063425764213393,-0.05861506611351159,-0.022540926592911372,-0.018910368422954568,-0.1187036857008934,2.212226152420044,0.5601658225059509,-0.6957712173461914,0.1608355343341827,-0.137915551662445
1749048037.290657,4.858689464130115,-2.7782459150519183,-0.399466737899713,1.7296254484250524,-0.02271346756974554,3.638643862793878,-0.01612767791264343,0.04154041934664637,-0.010555048750104467,-0.059346949654736726,-0.02320036002226816,-0.019597603700758845,-0.0883202776312828,2.206001281738281,0.5426310300827026,-0.6995968222618103,0.163886547088623,-0.1504518091678619
1749048037.2906945,4.858656731789756,-2.7781595426594152,-0.3994874979525334,1.7295048134817692,-0.022762136871886877,3.6386072545266694,-0.015995942551806513,0.04268525449247462,-0.010446196721217249,-0.060020973177874526,-0.023759797106860124,-0.02027369136042124,-0.1031928658485412,2.2067387104034424,0.5608425140380859,-0.7083396911621094,0.182872474193573,-0.1549238115549087
1749048037.2907317,4.85862482538381,-2.778070064034714,-0.3995076905972229,1.7293828041366477,-0.022811310128095695,3.6385689552245903,-0.01586388387310878,0.0438735379330486,-0.010320154288735008,-0.060686967890479025,-0.024225216750885032,-0.02093113037510243,-0.0683502852916717,2.2526440620422363,0.5521875023841858,-0.719058632850647,0.1733067333698272,-0.1589654982089996
1749048037.2907765,4.8585937769306655,-2.777977537071229,-0.39952733565634385,1.7292593068659323,-0.022860924307455364,3.6385288456163725,-0.01573811005099386,0.045114462026021124,-0.010189226408723264,-0.06139719449225688,-0.024609788085787836,-0.021564050471225803,-0.1116320714354515,2.2669386863708496,0.5534089803695679,-0.7431775331497192,0.177856296300888,-0.1601953655481338
1749048037.2908149,4.858563566014483,-2.7778820147771546,-0.3995464984248247,1.7291340965141788,-0.022910964831193627,3.638486879853485,-0.015624727655272183,0.04641693514653248,-0.010064866564923272,-0.06220292063499223,-0.02493234900875396,-0.022168399741957123,-0.0954089239239692,2.254744291305542,0.5539025664329529,-0.7288007140159607,0.1575670838356018,-0.1722234487533569
1749048037.290852,4.858534123999092,-2.7777835387107905,-0.39956528387307005,1.7290068520296362,-0.022961466414850005,3.6384430916193593,-0.01552950252673642,0.0477883803003506,-0.009957013808734016,-0.06315078599070607,-0.0252154707221252,-0.022742046609454263,-0.1168257519602775,2.2601161003112797,0.5545843839645386,-0.7562445402145386,0.1863873749971389,-0.1936738342046737
1749048037.2908883,4.858505341735683,-2.7776821370792453,-0.399583828154655,1.728877180455053,-0.023012510749307397,3.638397588901837,-0.01545793676138191,0.049233511541119115,-0.009873527154639988,-0.06427921189074053,-0.025483292696079445,-0.023284806711886964,-0.1184634566307067,2.276545763015747,0.5587244033813477,-0.7394523024559021,0.1797058880329132,-0.190248817205429
1749048037.2909253,4.85847708016531,-2.7775778272129834,-0.39960228784366486,1.7287446477661046,-0.023064220694018787,3.63835053809801,-0.015415245334010142,0.05075326305965515,-0.00981977383483694,-0.06561510080088494,-0.025759331124018427,-0.023798408619971845,-0.1347303688526153,2.278014659881592,0.5514451265335083,-0.75355464220047,0.168875440955162,-0.1689120531082153
1749048037.290962,4.858449182490514,-2.777470621370441,-0.3996208272079903,1.7286088145216532,-0.0231167508834275,3.6383021400435944,-0.015406240597019864,0.05234405106585433,-0.00979841622811413,-0.06717107122631534,-0.026064455914361472,-0.024286397238290826,-0.1338513940572738,2.2861287593841557,0.5394498705863953,-0.7693098783493042,0.1674981564283371,-0.1747256815433502
1749048037.290999,4.8584214862419355,-2.777360533836833,-0.399639604120538,1.7284692737434761,-0.02317027514064374,3.6382526019183112,-0.015435148553158053,0.053997519556092846,-0.009809422510456463,-0.06894349552665668,-0.026415207903320623,-0.02475395212605471,-0.1159653291106224,2.317898988723755,0.5423247218132019,-0.7638225555419922,0.1614434719085693,-0.1737728863954544
1749048037.291036,4.858393833757647,-2.777247586822783,-0.39965875585526217,1.7283256880097078,-0.023224971723293453,3.6382021095588404,-0.01550538492900428,0.05570085089354393,-0.009850303702359306,-0.07091162927400167,-0.0268226000990483,-0.025207590174121938,-0.145132690668106,2.261861085891724,0.5612318515777588,-0.7893602252006531,0.1611193567514419,-0.1716706156730651
1749048037.291077,4.85836608009467,-2.7771318132063865,-0.39967838648948284,1.7281778224665103,-0.02328100788338079,3.6381508044745816,-0.015619315722968792,0.05743763097205762,-0.009916557156161507,-0.07303809624348627,-0.027291513639219313,-0.025654737653266126,-0.1419163644313812,2.314795970916748,0.5493770837783813,-0.7969395518302917,0.142251119017601,-0.1779097914695739
1749048037.291115,4.858338097808195,-2.7770132553669966,-0.3996985575295794,1.7280255704539507,-0.023338525259911296,3.638098768840013,-0.015778023988475456,0.05918917765086197,-0.010002274765874708,-0.07527088990705764,-0.02782074942552673,-0.026103188857326567,-0.145092099905014,2.306853771209717,0.5398864150047302,-0.7948958873748779,0.1500757187604904,-0.1965979486703872
1749048037.291222,4.858309778313297,-2.776891960585891,-0.3997192827662077,1.727868968839097,-0.02339762732319654,3.6380460201602287,-0.015981106305344037,0.06093618636175828,-0.010100856484618823,-0.07754688140946175,-0.028403722759313518,-0.026560500333451614,-0.1342790722846985,2.2954256534576416,0.5463807582855225,-0.7733270525932312,0.1611219644546508,-0.1770271062850952
1749048037.2927842,4.858281029978696,-2.7767679743041045,-0.3997405276698059,1.727708200980642,-0.023458369818278313,3.6379925156118524,-0.016226526418346012,0.06266051188809058,-0.01020575805798911,-0.07979663002818403,-0.029029701556966422,-0.027033383391733723,-0.1404337435960769,2.237964391708374,0.545454204082489,-0.763826847076416,0.1354857087135315,-0.1836060583591461
1749048037.3342984,4.858251773799275,-2.776641332709234,-0.3997622132161857,1.7275435863987882,-0.02352075512650243,3.6379381645909086,-0.016510556265589272,0.06434688372096467,-0.010311194784194056,-0.08195011843745598,-0.029685414462459727,-0.027527147745134616,-0.1645229309797287,2.321232318878174,0.5591586232185364,-0.7771758437156677,0.1563469320535659,-0.1770731806755066
1749048037.3343437,4.858221938164602,-2.7765120556493357,-0.39978422387505436,1.7273755575056347,-0.023584731503642157,3.6378828468777327,-0.016827834415844685,0.06598435562889385,-0.010412721041857418,-0.08394290822666303,-0.03035681459685859,-0.02804522817189144,-0.1904090791940689,2.285813570022583,0.5635367631912231,-0.7516242861747742,0.1633096933364868,-0.1687090545892715
1749048037.334385,4.858191454490075,-2.7763801401131856,-0.3998064193263132,1.7272046249775577,-0.023650197939497637,3.637826433167043,-0.0171715663338566,0.06756732576725612,-0.010507614839210087,-0.08572214326438635,-0.031030780635042117,-0.02858881251352545,-0.186211496591568,2.2835781574249268,0.552465558052063,-0.7448119521141052,0.1596453040838241,-0.1777980029582977
1749048037.3344245,4.858160255120902,-2.7762455541078794,-0.39982864910678173,1.7270313343639052,-0.023717014775953688,3.637768804622487,-0.017533875982852738,0.06909601407720259,-0.010595024988552899,-0.08725181738303535,-0.03169655976449055,-0.029156590709583124,-0.1856136918067932,2.3389668464660645,0.5844311714172363,-0.7486202120780945,0.172271654009819,-0.1864936202764511
1749048037.3344624,4.858128274068843,-2.776108231076071,-0.3998507689094677,1.7268562172609943,-0.023785019358735813,3.6377098685444946,-0.017906293888714477,0.07057632820820858,-0.010675882335591861,-0.08851675539525007,-0.03234679946283547,-0.029744655169148794,-0.1916541755199432,2.2837092876434326,0.5833723545074463,-0.7231757640838623,0.1563288867473602,-0.1842170059680938
1749048037.3345015,4.858095450089813,-2.7759680657964734,-0.3998726568542399,1.7266797409084573,-0.023854045140527618,3.6376495680585923,-0.018280339859382173,0.07201909048008352,-0.010752618612861411,-0.08952482799776011,-0.032978074446602716,-0.030346592097336533,-0.1972867101430893,2.3335914611816406,0.566438615322113,-0.7027830481529236,0.1603129655122757,-0.193540945649147
1749048037.3345392,4.858061730739802,-2.7758249133897928,-0.39989422786094414,1.7265022605175213,-0.023923941912016456,3.637587884910717,-0.018648139284271007,0.0734386534877369,-0.010828758611315147,-0.09030704942484706,-0.03359088494236502,-0.03095380120299958,-0.186661034822464,2.332948684692383,0.5865495800971985,-0.727716326713562,0.181046262383461,-0.1691368073225021
1749048037.334578,4.858027075759677,-2.7756785930691485,-0.3999154443660259,1.7263239790411615,-0.023994594244104685,3.6375248358847987,-0.019003007020548406,0.07485100948585814,-0.010908449361590262,-0.09091540793534626,-0.03418916951813578,-0.03155605879438877,-0.1865988671779632,2.367112636566162,0.5858851075172424,-0.7344117760658264,0.1620710045099258,-0.1877255290746688
1749048037.334616,4.8579914585759365,-2.775528897491256,-0.3999363220718716,1.7261449192282887,-0.024065935045818235,3.637460464654327,-0.01933994166181179,0.07627158686944419,-0.010995975523758368,-0.0914185259797114,-0.034779430005245575,-0.03214229425441177,-0.1849085837602615,2.3259153366088867,0.5691000819206238,-0.7103027701377869,0.1626098155975341,-0.1678237915039062
1749048037.3346531,4.857954865564536,-2.7753756073660423,-0.3999569300863301,1.7259649123102239,-0.024137951811224575,3.6373948316483977,-0.019655989432851746,0.07771299861256731,-0.011095298476191267,-0.09189547748667921,-0.03536960510345154,-0.032701493575809155,-0.1914303600788116,2.311689853668213,0.5642145872116089,-0.6989455819129944,0.1383549571037292,-0.156011089682579
1749048037.33469,4.857917293537716,-2.7752185100536693,-0.39997738545389816,1.725783606342698,-0.024210684693595826,3.6373280046279657,-0.019950455142187178,0.07918304080841318,-0.011209652418150869,-0.09242827324508547,-0.03596785096401159,-0.03322360155906749,-0.2259250432252884,2.3436288833618164,0.5631973147392273,-0.7289345264434814,0.1304070949554443,-0.1783349215984344
1749048037.3347278,4.857878746341579,-2.7750574206000707,-0.39999784256758497,1.7256004951625288,-0.024284217352359888,3.637260052200649,-0.02022495406347736,0.08068323052399815,-0.011341226221966098,-0.09309368589976197,-0.03658138621529358,-0.03370029237041948,-0.229108527302742,2.3443057537078857,0.5752191543579102,-0.7692869901657104,0.1369048655033111,-0.166386216878891
1749048037.334777,4.857839231404884,-2.7748922037164303,-0.40001847834141285,1.725414966408582,-0.024358662699014835,3.637191041576188,-0.020483309907591493,0.082208123023096,-0.011490948023760536,-0.09395523736586704,-0.037215535892492754,-0.03412552150531214,-0.2032424509525299,2.345665693283081,0.5543525815010071,-0.771350622177124,0.1251628696918487,-0.1564792394638061
1749048037.3348186,4.8577987567859795,-2.7747227949930813,-0.40003947443244664,1.7252263644501413,-0.024434145966698257,3.6371210406731693,-0.02073130821862398,0.08374555889908211,-0.011658376895425333,-0.09505626073980598,-0.037873073882004185,-0.03449583781758895,-0.2216963768005371,2.348797559738159,0.5484474301338196,-0.7788588404655457,0.1336440145969391,-0.1500277817249298
1749048037.3348572,4.857757329068736,-2.774549219013955,-0.4000609982926336,1.7250340616007835,-0.02451078740925065,3.6370501235055133,-0.02097631631072053,0.08527786942146584,-0.011841703652783439,-0.09641490374352732,-0.038553927062518895,-0.034810488599123175,-0.2345759868621826,2.3349671363830566,0.5294586420059204,-0.787752628326416,0.1094480380415916,-0.1695517152547836
1749048037.3348951,4.8577149524029215,-2.7743716014096993,-0.40008318537692716,1.7248375288300055,-0.024588686884958386,3.636978376831176,-0.021226788034958623,0.08678393281325426,-0.012037870576520933,-0.09802174927896057,-0.039255266472900605,-0.03507137378633591,-0.2345759868621826,2.3349671363830566,0.5294586420059204,-0.787752628326416,0.1094480380415916,-0.1695517152547836
1749048037.3349328,4.857671628820766,-2.774190171764757,-0.4001061252076309,1.72463639590582,-0.024667912604215157,3.636905905491542,-0.021491683870157017,0.08824184441607809,-0.01224282395264879,-0.09984043636940915,-0.039971966239748864,-0.035282898343018024,-0.2520866990089416,2.2897286415100098,0.536170244216919,-0.7952295541763306,0.1156365275382995,-0.1555830687284469
1749048037.3349705,4.857627359598188,-2.774005255169751,-0.4001298537610559,1.7244304917627122,-0.024748496073366415,3.6368328340029588,-0.021779845946273257,0.08963184951227608,-0.012451901268953375,-0.10181131809780854,-0.040697359730664295,-0.0354517481588665,-0.2488931119441986,2.2012383937835693,0.5483454465866089,-0.7874760627746582,0.1229512244462966,-0.1514769345521927
1749048037.335008,4.857582147102541,-2.773817252343839,-0.40015435355784723,1.724219859611571,-0.024830434394439153,3.636759303064175,-0.022099370203914483,0.0909391009097093,-0.012660327272291504,-0.1038578244724875,-0.0414241735343396,-0.035586590462881616,-0.2684235572814941,2.238987922668457,0.5395274758338928,-0.7788670063018799,0.1241495162248611,-0.1512999534606933
1749048037.335045,4.857535996518083,-2.7736266109126033,-0.40017956126748927,1.7240047465803603,-0.024913699559531214,3.6366854613636006,-0.02245701824917347,0.09215577875960257,-0.012863762814134434,-0.10589484977734133,-0.042145488493151986,-0.03569768781175247,-0.2455901801586151,2.233919620513916,0.5370323657989502,-0.779821515083313,0.1254280358552932,-0.157312735915184
1749048037.3351552,4.857488917027508,-2.773433792163009,-0.400205381276769,1.7237855719665527,-0.024998252689015402,3.636611454454877,-0.022857711500243964,0.09328218867161957,-0.013058831759427972,-0.10783820867668906,-0.042855575918038395,-0.03579641968770868,-0.2594976127147674,2.1904637813568115,0.5159745216369629,-0.7426995635032654,0.1162801757454872,-0.1578951627016067
1749048037.3367815,4.857440922245976,-2.7732392377816746,-0.4002317028966114,1.7235628801871639,-0.025084060009716788,3.636537412873757,-0.023304146179876778,0.09432663274681756,-0.013243550210366955,-0.10961404309600593,-0.04355048559441413,-0.03589472152339909,-0.2501222193241119,2.215348958969116,0.5319246649742126,-0.7395260334014893,0.1230509355664253,-0.1548860520124435
1749048037.3783145,4.857392029855252,-2.7730433403276846,-0.4002584186022011,1.7233372848198951,-0.025171107187937233,3.6364634412671264,-0.0237965579055337,0.0953040697458691,-0.01341759649410682,-0.11116703432670134,-0.0442283062911424,-0.036004467602974335,-0.2747118473052978,2.2087621688842773,0.5276237726211548,-0.7041786909103394,0.1107712686061859,-0.1440975069999694
1749048037.3783607,4.8573422605687755,-2.772846420200083,-0.4002854407303266,1.723109409804275,-0.025259409314835987,3.636389609695732,-0.024332651522461852,0.09623378655913094,-0.013582384539484035,-0.11246639480849054,-0.04488906689793397,-0.03613683643105332,-0.2712070345878601,2.218902111053467,0.5349311232566833,-0.7020977139472961,0.1004522442817688,-0.1623866856098175
1749048037.3784018,4.857291636817107,-2.7726487108215996,-0.4003127143786611,1.722879833407493,-0.02534901485423669,3.6363159478585625,-0.024907696631051267,0.09713646614143673,-0.013740931955569663,-0.11350888043434998,-0.04553429628504162,-0.036301704081659274,-0.2550449073314667,2.233562469482422,0.5190010070800781,-0.6897062063217163,0.1257566660642624,-0.1267779171466827
1749048037.3784416,4.857240181616933,-2.7724503526980473,-0.4003402249173106,1.7226490399559555,-0.025440002747898434,3.6362424426946958,-0.025514773499925394,0.09803114361720525,-0.01389754115249821,-0.1143184483551221,-0.0461663147122068,-0.03650711195062757,-0.2580686807632446,2.195306301116944,0.5145301818847656,-0.6761355400085449,0.1142410337924957,-0.1335376948118209
1749048037.3784802,4.857187917709975,-2.772251396032228,-0.40036799942624385,1.7224173834156706,-0.02553247265667129,3.636169039396333,-0.026145144778226555,0.09893257371482116,-0.014057332298005116,-0.11494263545701333,-0.04678737979351191,-0.03675885009149319,-0.2555580735206604,2.2495663166046143,0.5177721977233887,-0.7142754197120667,0.1064993515610694,-0.1426081657409668
1749048037.3785188,4.857134866496824,-2.7720518107834695,-0.4003961022694902,1.7221850655588733,-0.02562652923033485,3.636095645400654,-0.026788731422416844,0.09984947123069722,-0.014225680466940194,-0.11544618614580505,-0.04739883731979281,-0.037060189830561724,-0.2780455350875854,2.277721405029297,0.5288966298103333,-0.7167776226997375,0.1159336268901825,-0.1543183773756027
1749048037.3785572,4.85708104619752,-2.771851502445485,-0.4004246257479872,1.721952129833973,-0.02572226227673269,3.636022136752601,-0.02743467874071698,0.10078392815139284,-0.01440761937036397,-0.11590283957057869,-0.048000423941605926,-0.03741179381697759,-0.2855717241764068,2.1985106468200684,0.5139191746711731,-0.7149249315261841,0.1045124307274818,-0.1624301970005035
1749048037.3785954,4.857026469246159,-2.7716503312109566,-0.4004536773212775,1.7217184705068764,-0.02581972547863052,3.6359483663297145,-0.028071994155637017,0.10173207864204267,-0.014607282144764054,-0.11638642113086388,-0.04858984722021918,-0.03781182488944456,-0.2577475011348724,2.2048163414001465,0.5026617646217346,-0.7196750044822693,0.1100599244236946,-0.145140916109085
1749048037.3786342,4.856971139545034,-2.7714481316411437,-0.40048336528618783,1.7214838553121483,-0.025918916828358462,3.635874173369138,-0.028690218315246575,0.10268583224926615,-0.014827451106373839,-0.11696243986503777,-0.04916274513366124,-0.0382562587313178,-0.2767187654972076,2.1802186965942383,0.5083931088447571,-0.7741331458091736,0.1064840406179428,-0.1586980521678924
1749048037.3786745,4.856915050217386,-2.7712447298909018,-0.4005137850400142,1.7212479585565152,-0.026019764256990645,3.6357993933512156,-0.02928007021257822,0.10363529648661152,-0.015069274677919277,-0.11768129387230382,-0.04971310028659233,-0.03873937808704447,-0.2862603068351745,2.198967218399048,0.5150295495986938,-0.7644612193107605,0.1041372716426849,-0.1474445015192031
1749048037.3787203,4.856858182131274,-2.7710399563156223,-0.40054500800440673,1.7210104002778661,-0.02612211981337718,3.6357238669325156,-0.02983399970266712,0.10457140480703767,-0.015332178666573944,-0.11857395376767153,-0.05023413457760677,-0.039254399086912535,-0.2450425028800964,2.1407158374786377,0.5001304745674133,-0.7845273613929749,0.0873196274042129,-0.1531018763780594
1749048037.3787742,4.856800503390278,-2.7708336526674615,-0.40057707474751153,1.7207707860824348,-0.026225764889658346,3.6356474467405113,-0.030346589019634364,0.10548825742142108,-0.015613960331130803,-0.11965063181377558,-0.050719622140089106,-0.03979416286673712,-0.2448675632476806,2.141136884689331,0.5180383920669556,-0.7785602807998657,0.1166753098368644,-0.1740669310092926
1749048037.3788147,4.856741970309245,-2.7706256744120163,-0.40060999284564197,1.7205287422236377,-0.02633042737830967,3.635570001516887,-0.030814766859108715,0.10638475954703318,-0.015911021728463242,-0.12090247734773817,-0.05116544160069389,-0.04035181670914976,-0.2921854257583618,2.155794143676758,0.517414391040802,-0.781631350517273,0.1273882389068603,-0.1621397882699966
1749048037.3788536,4.856682530656382,-2.7704158895058484,-0.40064373896730693,1.720283941500084,-0.026435809529500424,3.6354914179566094,-0.031237833807597197,0.10726529195138011,-0.016218683910162072,-0.1223058442143762,-0.05157108235626991,-0.040921405218069695,-0.2670015394687652,2.199976921081543,0.5142438411712646,-0.7711294293403625,0.120579719543457,-0.1687107682228088
1749048037.3788917,4.856622129757484,-2.7702041752845847,-0.4006782639907832,1.7200361172793106,-0.026541623007806804,3.635411601100296,-0.03161733384173475,0.10813934507765981,-0.016531529368821476,-0.1238282527462913,-0.05194077096768026,-0.04149830071059781,-0.261016696691513,2.200422525405884,0.523899257183075,-0.7546056509017944,0.1171622052788734,-0.1662791669368744
1749048037.3789291,4.856560719324837,-2.7699904150966295,-0.4007134997875702,1.7197850649191444,-0.026647625780083145,3.635330474064114,-0.031956820450732386,0.10902024744888204,-0.016843742350023668,-0.12543490283907513,-0.05228391640052027,-0.042079432356811844,-0.2512476444244385,2.2109973430633545,0.5132240056991577,-0.7304567098617554,0.1531062573194503,-0.1705821901559829
1749048037.378967,4.856498267772849,-2.769774495964265,-0.4007493663856874,1.719530631821322,-0.026753654673823606,3.635247977505497,-0.03226155191512381,0.1099232782510644,-0.01714944174148784,-0.12709454062863088,-0.05261467929473304,-0.042663320440605536,-0.2571169137954712,2.2368581295013428,0.5206779837608337,-0.7286767363548279,0.1663798093795776,-0.181528627872467
1749048037.3790047,4.856434769843828,-2.7695563078226133,-0.40078577835795065,1.7192726992304632,-0.026859648035102206,3.635164068908635,-0.03253812907562812,0.11086354332320016,-0.017443015239017246,-0.1287836556949635,-0.052950632761443156,-0.04324996475051345,-0.2826809287071228,2.249669551849365,0.5126272439956665,-0.7331192493438721,0.1472811102867126,-0.1685546934604644
1749048037.379042,4.8563702531937185,-2.769335744083129,-0.4008226495471687,1.7190111604444809,-0.026965654619103413,3.6350787215772224,-0.03279408089650257,0.11185400202190579,-0.017719463898643054,-0.13048835847273407,-0.05331067767404815,-0.043840654058755604,-0.2717379331588745,2.2508819103240967,0.5143909454345703,-0.7165848612785339,0.1348525732755661,-0.1899459213018417
1749048037.3790789,4.856304780279329,-2.7691127028532554,-0.4008598958528656,1.7187459009241917,-0.027071827150915894,3.6349919229801486,-0.033037407952947434,0.11290396674390908,-0.017974760312304577,-0.1322037815020339,-0.05371255828051107,-0.04443775230333511,-0.2499241232872009,2.2485556602478027,0.5066496133804321,-0.711845338344574,0.1304646581411361,-0.1917055249214172
1749048037.379189,4.856238444960022,-2.768887088213984,-0.4008974366688744,1.718476785581824,-0.02717840150239265,3.634903671853116,-0.03327610280008789,0.11401827764454238,-0.018206215052095357,-0.1339313634470743,-0.054170431802307156,-0.045044488575310355,-0.2842936813831329,2.2556862831115723,0.5260778665542603,-0.747722327709198,0.1074914932250976,-0.2057891488075256
1749048037.380777,4.856171364195768,-2.7686588112402313,-0.4009351962057653,1.7182036571827546,-0.0272856648848809,3.634813973523813,-0.03351767725230516,0.11519720700437501,-0.01841282957125699,-0.13567481711922896,-0.054692943904245804,-0.04566474787328217,-0.3098585605621338,2.232053756713867,0.5353778004646301,-0.7650419473648071,0.1028928160667419,-0.1871578395366668
1749048037.4223034,4.8561036659888455,-2.7684277907178356,-0.40097310593074764,1.7179263473658444,-0.02739391848661375,3.63472283349228,-0.03376873899460112,0.11643699668782752,-0.018595587293663902,-0.13743586193579072,-0.05528216801260988,-0.046302836206877855,-0.2479953467845916,2.2173593044281006,0.522991418838501,-0.7853142619132996,0.1040147691965103,-0.1834791898727417
1749048037.42235,4.856035475264298,-2.768193953738483,-0.401011108721487,1.7176446986770801,-0.027503441008848245,3.634630250125982,-0.03403466535896027,0.11773081158660119,-0.018757610190393376,-0.1392108366246688,-0.05593362172913727,-0.046963180238653146,-0.2903732359409332,2.2065470218658447,0.5181012153625488,-0.7977116703987122,0.0810021311044693,-0.1862760484218597
1749048037.4223938,4.855966899544042,-2.767957236529145,-0.40104916442840033,1.7173585930610724,-0.027614459208740682,3.6345362079479386,-0.03431941532907604,0.11906983979743131,-0.01890410416445201,-0.14098907479398035,-0.056637404876270135,-0.04764992000719018,-0.2979706823825836,2.193142890930176,0.5451915860176086,-0.7932996153831482,0.0859869271516799,-0.1924873143434524
1749048037.4224346,4.855898016011976,-2.767717585876782,-0.4010872557547023,1.7170679803650355,-0.027727130050092284,3.634440673112836,-0.03462550728112727,0.1204443044320109,-0.019042040220115675,-0.1427534842823913,-0.05738031880607863,-0.04836636402397341,-0.3239903748035431,2.2310807704925537,0.5411969423294067,-0.8048442602157593,0.1018728464841842,-0.1786668300628662
1749048037.422473,4.855828861201632,-2.7674749612452962,-0.40112539293427324,1.7167729000950025,-0.02784153686794513,3.6343435922879657,-0.03495417234238102,0.12184425117850842,-0.019179562867894035,-0.14448323353790202,-0.058148636389659336,-0.049114303382544765,-0.2997830212116241,2.246581554412842,0.5362235903739929,-0.7606183290481567,0.1028848439455032,-0.2025979161262512
1749048037.422511,4.855759424342792,-2.767229337232764,-0.40116361574843573,1.7164734909797594,-0.027957699401027082,3.6342448954971003,-0.035305664860562774,0.12326009527653231,-0.01932517398825382,-0.1461579351163561,-0.05893102937288035,-0.04989323331691926,-0.308818519115448,2.2643842697143555,0.5146799683570862,-0.7434089183807373,0.111703023314476,-0.1967750787734985
1749048037.422553,4.855689645273002,-2.766980705614032,-0.40120199195728956,1.71616998548577,-0.028075594973682016,3.6341445028517154,-0.03567967274242024,0.12468301204701936,-0.019486801018536927,-0.1477623397630297,-0.05972107294851527,-0.05069960195901342,-0.3029410243034363,2.2779672145843506,0.5139287114143372,-0.7416297197341919,0.1316117495298385,-0.1977748572826385
1749048037.422592,4.855619417432417,-2.766729076095358,-0.40124061202913247,1.7158626895773237,-0.028195186024992314,3.6340423346371775,-0.03607573926413403,0.12610530954237703,-0.019670904337197006,-0.14929040677784242,-0.06051877247995763,-0.051526266439308334,-0.3085755109786987,2.272512912750244,0.5106176733970642,-0.6982154846191406,0.1504894942045211,-0.2106867581605911
1749048037.4226296,4.855548595679761,-2.766474475123635,-0.4012795809028298,1.7155519509559272,-0.02831644803293691,3.633938323803259,-0.03649360517377138,0.12752091046899192,-0.019881785865877636,-0.1507477437192237,-0.06133070084841073,-0.05236234586308136,-0.3231538534164428,2.27795672416687,0.5062711834907532,-0.730353593826294,0.1487787663936615,-0.2035188674926757
1749048037.4226704,4.855477007738751,-2.766216942413018,-0.4013190082458006,1.7152381211669576,-0.02843939185274885,3.6338324293822417,-0.03693340903152765,0.12892598918275677,-0.02012121950072537,-0.1521517890232355,-0.06216858488148112,-0.053193600694609204,-0.3242889642715454,2.202676773071289,0.493416428565979,-0.7309060096740723,0.1399475634098053,-0.2123741060495376
1749048037.4227145,4.855404467459774,-2.7659565250779568,-0.4013589990629875,1.714921517965496,-0.028564075607104313,3.633724648865036,-0.037395725946303686,0.13031968467011956,-0.020388448944882384,-0.153529653009282,-0.06304651079642253,-0.054003356689245136,-0.3231520354747772,2.2882003784179688,0.5183063745498657,-0.7156624794006348,0.1144350320100784,-0.2112478911876678
1749048037.422752,4.8553307880333225,-2.7656932695632617,-0.4013996463476416,1.7146023940302417,-0.028690603474332655,3.633615027393648,-0.037881454522221226,0.13170469518783948,-0.020680518976070345,-0.15491409140406967,-0.06397726929572266,-0.05477386876983392,-0.3143976330757141,2.21390438079834,0.508484959602356,-0.7408176064491272,0.087458848953247,-0.1890097856521606
1749048037.422789,4.8552557937411285,-2.765427212173007,-0.4014410267697722,1.7142809166051025,-0.028819111703373396,3.6335036619130943,-0.03839157204547601,0.133087506353457,-0.020992846411470995,-0.1563385081008052,-0.06496862141371014,-0.0554879246252781,-0.3413256704807281,2.219234704971313,0.5070949792861938,-0.7750847935676575,0.064564436674118,-0.1928698867559433
1749048037.422827,4.855179329507029,-2.7651583697125552,-0.4014831994888932,1.7139571602534385,-0.02894974516505598,3.6333906991171037,-0.038926785164525926,0.13447803566572666,-0.02131990481813618,-0.15783206737255848,-0.06602032976467144,-0.05613044828506936,-0.3447108566761017,2.24826979637146,0.5089358687400818,-0.77935791015625,0.0579659640789032,-0.1768722981214523
1749048037.4228685,4.855101268087714,-2.7648867320869748,-0.4015262073812123,1.7136311121243375,-0.029082629761185263,3.63327632701596,-0.0394871214764674,0.13588858964842715,-0.02165588879143974,-0.15941591058084142,-0.06712263234497737,-0.056689897089149406,-0.329084575176239,2.248642921447754,0.5362420678138733,-0.7946341037750244,0.0743008553981781,-0.2094583511352539
1749048037.4229062,4.8550215149313365,-2.764612258447034,-0.4015700794702718,1.7133026865784784,-0.02921784652499943,3.633160761066349,-0.04007152974199533,0.1373322051909131,-0.021995238487406307,-0.1611011506420554,-0.06825649505909917,-0.057159336569269185,-0.3544939160346985,2.2774250507354736,0.5194459557533264,-0.7849188446998596,0.0852818712592125,-0.1984283030033111
1749048037.422943,4.854940010549889,-2.7643348778179213,-0.401614833265446,1.7129717443395194,-0.029355412352672944,3.633044226666997,-0.04067756791865642,0.1388206420318141,-0.022332948606967568,-0.1628888443194645,-0.06939557926026411,-0.05753717231284375,-0.3624630272388458,2.358304262161255,0.505898654460907,-0.766113817691803,0.0711048617959022,-0.2002304345369339
1749048037.42298,4.854856730130813,-2.764054494289638,-0.4016604760817133,1.7126381110259452,-0.02949527039992254,3.6329269401314006,-0.0413012520769966,0.1403624430720573,-0.022664656586331235,-0.16477164708038328,-0.07050952106333142,-0.05782756007357724,-0.3319568037986755,2.31284499168396,0.4877266883850097,-0.735535740852356,0.086582139134407,-0.1884724050760269
1749048037.4230208,4.8547716804095495,-2.7637709959162877,-0.4017070050463891,1.7123015911285229,-0.029637290869650453,3.632809090093581,-0.04193711640311438,0.14196151340824803,-0.022986579499213903,-0.16673648013640074,-0.07156791251963453,-0.058040499003647286,-0.3532183766365051,2.321890354156494,0.4911465644836426,-0.7440670132637024,0.1106740236282348,-0.1933387815952301
1749048037.4230592,4.85468489439816,-2.763484265692712,-0.4017544060540563,1.7119619758092848,-0.029781281053485625,3.632690821001329,-0.042578498425851014,0.14361654623394254,-0.0232954124192084,-0.1687673948058855,-0.0725443050711566,-0.05819158019417429,-0.3666754961013794,2.2714340686798096,0.4852913320064544,-0.7392932772636414,0.1478708684444427,-0.1971942782402038
1749048037.4231722,4.85459642504347,-2.7631941926633257,-0.4018026521816923,1.711619045428564,-0.02992700258858867,3.632572220027664,-0.043218021228153304,0.14532137133552656,-0.02358829156309043,-0.1708479400690448,-0.07341959509220203,-0.0583013567876355,-0.3464249968528747,2.248233795166016,0.5047253966331482,-0.7214686870574951,0.1153249144554138,-0.1916465163230896
1749048037.424782,4.854506339081209,-2.762900681492339,-0.4018517020233058,1.7112725695632263,-0.030074193601779008,3.632453308381366,-0.043848205827171284,0.14706602500016078,-0.02386287405868397,-0.1729626595279906,-0.07418428895066831,-0.05839433386350164,-0.3535353541374206,2.235201358795166,0.5149636268615723,-0.7579920291900635,0.1349355727434158,-0.2072843462228775
1749048037.466299,4.854414712257776,-2.762603659479719,-0.40190149822936805,1.7109223079446159,-0.03022259307282804,3.6323340377118503,-0.044462121526522576,0.1488381629928272,-0.024117524650284255,-0.17509772324647507,-0.07483937872133421,-0.058497630611337545,-0.3457580804824829,2.241448879241944,0.508038341999054,-0.7646947503089905,0.1183342635631561,-0.215219497680664
1749048037.4663465,4.854321626740975,-2.762303080676511,-0.4019519664982597,1.7105680152058163,-0.030371964330081082,3.6322142920831313,-0.045053974475941866,0.15062442635142212,-0.024351556363608754,-0.1772409889636526,-0.07539585127322745,-0.058639418631207085,-0.348931610584259,2.271915435791016,0.5048679113388062,-0.7641327381134033,0.10849379748106,-0.2066913545131683
1749048037.4663925,4.854227171031812,-2.761998927185362,-0.40200301549872325,1.710209450956678,-0.030522114686343495,3.632093895625579,-0.04561954388597803,0.15241150393469796,-0.024565456522610912,-0.1793818888551339,-0.07587312056563619,-0.05884726582598723,-0.3296345472335815,2.273989677429199,0.502999484539032,-0.7722066640853882,0.0934999659657478,-0.2190077006816864
1749048037.4664328,4.854131442195853,-2.761691207925964,-0.4020545385206503,1.7098463950449916,-0.030672909223541375,3.6319726253862643,-0.0461563980785801,0.1541868346613461,-0.024761036320310327,-0.18151143860608182,-0.07629682725204245,-0.059146507009971365,-0.3161909580230713,2.256610870361328,0.5161446928977966,-0.7679784297943115,0.0829483866691589,-0.2241445481777191
1749048037.466472,4.854034549805013,-2.7613799553295304,-0.40210641764447247,1.7094786664807113,-0.03082427832624405,3.6318502283321985,-0.04666385686578538,0.15593905458050408,-0.024941462638642824,-0.18362243519777666,-0.07669644136084035,-0.05955872916299049,-0.3531738519668579,2.291189193725586,0.519512951374054,-0.759145200252533,0.0958242863416671,-0.2334265261888504
1749048037.4665103,4.853936620474862,-2.7610652208736663,-0.40215853063813034,1.7091061438163029,-0.030976219940371974,3.631726441121082,-0.04714271014098615,0.1576583487652226,-0.02511115664179877,-0.18570966856006255,-0.07710294977561431,-0.06010041686530575,-0.3123604357242584,2.264263868331909,0.5058570504188538,-0.7226640582084656,0.1329264938831329,-0.2246996015310287
1749048037.4665525,4.85383780130491,-2.7607470710354467,-0.40221075985426935,1.708728784843264,-0.03112879798051874,3.6316010110905546,-0.04759474813468794,0.15933681018233678,-0.02527556607036734,-0.18776983996969251,-0.07754669556581488,-0.06078176754349339,-0.3251074850559234,2.251073122024536,0.49602210521698,-0.7228787541389465,0.1441611647605896,-0.2077328562736511
1749048037.4665918,4.853738260305133,-2.760425585631104,-0.40226300166194817,1.7083466439354336,-0.031282137714019595,3.631473716895809,-0.04802219594872658,0.16096878732670536,-0.025440830400728674,-0.18980093282149982,-0.07805527763739481,-0.0616056782983101,-0.3379020690917969,2.224820852279663,0.5210126638412476,-0.7277074456214905,0.1319941133260727,-0.2342973202466964
1749048037.46663,4.853638182497787,-2.760100860080946,-0.40231517482619333,1.707959885695741,-0.03143641787020329,3.6313443874191647,-0.04842716358973028,0.16255109449869232,-0.02561335984221155,-0.1918010151208234,-0.07865140042944761,-0.0625669471210067,-0.333909273147583,2.225532054901123,0.507037341594696,-0.7219051718711853,0.1449085175991058,-0.2308006435632705
1749048037.466681,4.853537761668434,-2.759773011773511,-0.40236722669564984,1.7075687933384018,-0.03159185845940316,3.6312129178605304,-0.04881121773540123,0.16408293505831684,-0.025799347231748353,-0.19376677012551738,-0.07935068610673654,-0.06365181105401596,-0.3291780948638916,2.194740056991577,0.4987269043922424,-0.7603714466094971,0.118055447936058,-0.247015044093132
1749048037.466729,4.853437188893148,-2.759442188793803,-0.4024191367160759,1.7071737695415172,-0.031748703393637646,3.6310792819956843,-0.049175156592423934,0.16556547834768112,-0.026004235290101294,-0.19569230026255066,-0.08015965030221574,-0.06483800743872821,-0.3449726402759552,2.237156867980957,0.5188944339752197,-0.7954469323158264,0.0938058495521545,-0.2330343425273895
1749048037.4667687,4.853336639362566,-2.75910857757138,-0.40247091739403323,1.706775326881118,-0.03190719809311828,3.630943539393588,-0.049519033616665334,0.16700118949196796,-0.026232175530790897,-0.19756880071887598,-0.08107419458672825,-0.06609553062007943,-0.3285926282405853,2.278550148010254,0.5038936138153076,-0.794076144695282,0.0841521173715591,-0.2483282834291458
1749048037.466806,4.8532362588530304,-2.758772405304669,-0.4025226132787044,1.706374065007649,-0.032067563977155544,3.630805836193667,-0.04984243483864107,0.16839314127367258,-0.026485536762006046,-0.19938550609741426,-0.08207900999409845,-0.0673881520554454,-0.3643759489059448,2.3306925296783447,0.5075272917747498,-0.7968366742134094,0.072504922747612,-0.2397589832544326
1749048037.4668438,4.853136151058142,-2.7584339336702115,-0.4025742986644742,1.7059706327916309,-0.03222997335689104,3.6306663981939473,-0.05014496690925337,0.169744556272455,-0.026764541191339235,-0.2011319261934499,-0.08314819672624454,-0.0686756212882734,-0.3486508429050445,2.3166446685791016,0.5115441083908081,-0.7730579972267151,0.0810587555170059,-0.2135084867477417
1749048037.466881,4.853036367079734,-2.7580934419547947,-0.4026260744848099,1.7055656757624273,-0.03239452906886179,3.630525515622202,-0.05042686138337591,0.1710587118156521,-0.027067112708925794,-0.20280093149528208,-0.08424721428633461,-0.06991633625308238,-0.327328622341156,2.260938882827759,0.4911101162433624,-0.7249133586883545,0.0872475355863571,-0.2123804986476898
1749048037.466919,4.852936898322649,-2.757751199780966,-0.40267806449716714,1.7051597719444966,-0.03256125283184177,3.630383519947012,-0.05068956235595589,0.17233914124398525,-0.027389005060964942,-0.20439188825873353,-0.08533603644466606,-0.07107021359601322,-0.3482882082462311,2.195181369781494,0.4931707978248596,-0.719420313835144,0.1148849204182624,-0.2265446782112121
1749048037.466957,4.852837673526847,-2.7574074318279593,-0.4027304106660754,1.7047533620283475,-0.03273008479677019,3.630240754232512,-0.05093616228344554,0.17358989945527956,-0.027724233033459268,-0.2059129243295123,-0.08637315917880051,-0.07210150684374014,-0.3402086794376373,2.245921850204468,0.5011762976646423,-0.7002406716346741,0.1036529541015625,-0.2152279019355774
1749048037.4669938,4.852738559941973,-2.7570622792790807,-0.40278326772510686,1.7043466820520536,-0.032900894555669115,3.6300975397250395,-0.05117158683728765,0.17481564176135791,-0.02806576327965025,-0.2073815977029896,-0.08731996101836607,-0.0729813675441198,-0.3475277721881866,2.269965887069702,0.5097498893737793,-0.7264409065246582,0.1063218936324119,-0.1999883353710174
1749048037.4670303,4.852639368220482,-2.7567157645769433,-0.40283679708857495,1.7039397079518013,-0.03307350172635301,3.6299541424708512,-0.051402480335674454,0.17602140632243327,-0.028406353626974815,-0.20882368012848784,-0.0881448788972573,-0.07368997065748445,-0.2852248549461365,2.246605634689331,0.5073899626731873,-0.7375199198722839,0.0960908755660057,-0.1687711626291275
1749048037.4670677,4.85253986064709,-2.756367766566271,-0.40289116042386125,1.7035321212270267,-0.03324770270298522,3.6298107444792667,-0.051636791774133176,0.177212195688969,-0.028739389736007537,-0.21027029216318227,-0.08882691413823786,-0.07421802758202103,-0.348057210445404,2.2824294567108154,0.4846107363700866,-0.7878027558326721,0.1142841577529907,-0.1757269948720932
1749048037.467174,4.852439762584436,-2.7560180118824307,-0.40294651322536873,1.703123303543675,-0.03342329932955035,3.629667423836899,-0.05188311387333059,0.17839260006322294,-0.02905957114747736,-0.21175404357322747,-0.08935806898319745,-0.07456753158818041,-0.3502439558506012,2.302625894546509,0.4988580048084259,-0.7851952314376831,0.1556327044963836,-0.1543436795473098
1749048037.4687767,4.852338777188393,-2.7556660860678543,-0.4030029986264486,1.7027123655166836,-0.03360012490067182,3.62952414714158,-0.05214988224211799,0.17956671312829814,-0.029363333469088895,-0.21330500708816508,-0.08974441992738491,-0.07475165201672898,-0.3420579731464386,2.275410890579224,0.5334591269493103,-0.7911794781684875,0.1191238015890121,-0.1633009910583496
1749048037.5142982,4.852236603343708,-2.7553114653537194,-0.4030607414197609,1.70229821129557,-0.03377806307612629,3.6293807759384156,-0.052444571142745165,0.1807384427413242,-0.029648942182805248,-0.2149472508567275,-0.09000569082827783,-0.07479379794120161,-0.3397113680839538,2.20892333984375,0.5077943801879883,-0.7664053440093994,0.1142304465174675,-0.1734427511692047
1749048037.5143442,4.852132956350077,-2.7549535677044776,-0.4031198419270377,1.70187963594984,-0.03395705645468423,3.6292370867795474,-0.0527730076852707,0.18191208137005097,-0.02991625694563789,-0.21669636169236556,-0.09017339835670221,-0.07472596900970142,-0.3498550951480865,2.1876823902130127,0.4917882978916168,-0.7647735476493835,0.1366291046142578,-0.1825801730155944
1749048037.5143847,4.852027590268742,-2.7545918189313805,-0.40318036924406486,1.7014554470516488,-0.03413710387841013,3.6290928022414377,-0.05313888635181119,0.18309281976681063,-0.030166245673989546,-0.21855807126498797,-0.09028783782860159,-0.0745865767496624,-0.3761856257915497,2.294171094894409,0.5167595744132996,-0.775461733341217,0.1324537694454193,-0.1860961019992828
1749048037.5144238,4.851920320082665,-2.7542257256043396,-0.40324235377956164,1.7010245955414551,-0.034318248507640634,3.628947627963008,-0.053543530264601735,0.18428688747311747,-0.030400398607835954,-0.22052789918229931,-0.09039428627250183,-0.0744179491389362,-0.3761856257915497,2.294171094894409,0.5167595744132996,-0.775461733341217,0.1324537694454193,-0.1860961019992828
1749048037.514467,4.851811040799827,-2.753854941735011,-0.4033057799556625,1.7005862952028985,-0.0345005613646498,3.6288012889716534,-0.05398591736563067,0.18550118669837767,-0.03062021211790782,-0.22259169958834296,-0.09053882017240304,-0.07426372437216192,-0.3510850667953491,2.330932378768921,0.5191649198532104,-0.7982739210128784,0.1341975778341293,-0.1933577954769134
1749048037.5145075,4.851699739595205,-2.7534793138400353,-0.4033705809831281,1.7001401081964198,-0.03468412621619101,3.6286535580558263,-0.054462951875975205,0.18674253445099107,-0.03082686666016608,-0.2247270749952016,-0.090764130796509,-0.07416630004472252,-0.3583201169967651,2.326637029647827,0.5030713081359863,-0.8301167488098145,0.1020631790161132,-0.2081760019063949
1749048037.514546,4.851586497194635,-2.753098892797561,-0.40343663786581985,1.6996859799350277,-0.03486903024799999,3.628504270772257,-0.0549699130561246,0.18801680019328046,-0.03102113951271219,-0.2269056749609084,-0.09110570883677853,-0.0741644478784981,-0.357270210981369,2.349217653274536,0.5358584523200989,-0.8282686471939087,0.100017175078392,-0.2010283768177032
1749048037.5145843,4.851471476913099,-2.752713910807706,-0.4035037837246033,1.6992242195716196,-0.03505536124340478,3.628353325880656,-0.055500976736766586,0.1893282395288817,-0.031203512307864317,-0.2290963250906486,-0.09158875477333332,-0.07429115705224891,-0.3467900454998016,2.303011417388916,0.5119621753692627,-0.8473095893859863,0.0885497480630874,-0.1934120506048202
1749048037.5146222,4.851354903204574,-2.7523247322305666,-0.4035718128509375,1.6987554358963228,-0.035243208250734,3.6282006745710005,-0.05604969933873285,0.19067918455731186,-0.03137438903421818,-0.2312687224379036,-0.09222611781677588,-0.07457174994387528,-0.3506331145763397,2.3378705978393555,0.5139384865760803,-0.8189740180969238,0.1029404923319816,-0.224820077419281
1749048037.5146596,4.8512370341303095,-2.75193179226647,-0.4036404928360424,1.69828044575515,-0.03543266144063661,3.62804630422713,-0.05660938095304571,0.19207004958731747,-0.03153434314944815,-0.2333971776935604,-0.09301745347775373,-0.07502232345093268,-0.3794180452823639,2.235938310623169,0.4977543950080871,-0.8058980107307434,0.1119756996631622,-0.2207855582237243
1749048037.514697,4.851118132639999,-2.7515355365364016,-0.40370957810600866,1.69780017231874,-0.03562380811556977,3.627890222057306,-0.057173276563057145,0.19349947774301257,-0.03168434261732844,-0.2354637274803724,-0.09394963916562152,-0.07564859193090664,-0.3447957038879394,2.3365049362182617,0.5077029466629028,-0.7903833389282227,0.1117972135543823,-0.2311214804649353
1749048037.5147352,4.850998440545104,-2.751136370601789,-0.403778823748336,1.6973155471466101,-0.035816723911850826,3.6277324421812365,-0.057734686522381805,0.19496447582921303,-0.031825922601314637,-0.2374600006756416,-0.09499834614631321,-0.07644522523182722,-0.3650874495506286,2.385838508605957,0.5411838889122009,-0.8156536817550659,0.1039193272590637,-0.2256207019090652
1749048037.5147724,4.850878157646463,-2.750734624091186,-0.4038479990997218,1.6968274259673815,-0.0360114598476896,3.6275729781456927,-0.058287003520640125,0.1964605336180131,-0.031961272888433895,-0.239387514888385,-0.09613056048877695,-0.07739577580376446,-0.360535204410553,2.409961223602295,0.5279061198234558,-0.8381844758987427,0.0976581275463104,-0.2212570905685424
1749048037.5148094,4.850757427288579,-2.7503305305110515,-0.40391690090770777,1.6963365243128914,-0.0362080270587657,3.62741184154224,-0.05882380666718088,0.19798186953894,-0.032093204146057513,-0.24125648030293229,-0.09730777073465965,-0.07847327415558353,-0.351988673210144,2.379079818725586,0.5178082585334778,-0.8514784574508667,0.1068656146526336,-0.2198323607444763
1749048037.5148468,4.850636328877258,-2.749924221217269,-0.40398536581747,1.6958433757178693,-0.03640638228370308,3.6272490460603013,-0.059339074217553224,0.1995219586954954,-0.03222498135046688,-0.24308350534029619,-0.09848950106714646,-0.07964155530383925,-0.3781352639198303,2.3898303508758545,0.5409765243530273,-0.8528870940208435,0.0899866670370101,-0.2524965107440948
1749048037.5148835,4.850514877606495,-2.749515730398378,-0.40405328147431596,1.6953483123546684,-0.03660641826715047,3.627084615079081,-0.05982754125143235,0.20107436477255347,-0.032360058013923484,-0.2448887036304509,-0.09963688773218993,-0.08085736712225493,-0.3480510711669922,2.342636108398437,0.517487108707428,-0.8294491767883301,0.0961600393056869,-0.2318430691957473
1749048037.5149205,4.8503930313218975,-2.749105007299433,-0.4041205949803721,1.6948514659254161,-0.03680796340027192,3.6269185903272128,-0.060285167052366403,0.20263372113705505,-0.032501777927575484,-0.2466926167927192,-0.10071606083238074,-0.08207327950906698,-0.3557706475257873,2.340554714202881,0.5332356691360474,-0.7901709079742432,0.0967288240790367,-0.2496232092380523
1749048037.5149574,4.8502707034796435,-2.7486919322597183,-0.4041873172376779,1.6943527853388893,-0.03701079339483606,3.626751039324252,-0.06070961871730548,0.20419661835669967,-0.032653108083065416,-0.2485132287133115,-0.10170113970512817,-0.08324131717326319,-0.3158495426177978,2.36951208114624,0.5366270542144775,-0.8159754872322083,0.0984930992126464,-0.22858527302742
1749048037.5149946,4.850147779757017,-2.748276334136342,-0.404253522075752,1.6938520669509785,-0.03721465488150967,3.6265820597883143,-0.061100647179837354,0.20576220274849452,-0.03281643474527029,-0.2503632885168277,-0.10257663141849863,-0.08431707373958867,-0.3553052246570587,2.4377453327178955,0.5321667790412903,-0.8371741771697998,0.1231540367007255,-0.201213389635086
1749048037.5150354,4.850024135130321,-2.7478580077825114,-0.40431933985729523,1.6933489927938115,-0.03741929781263213,3.626411779569907,-0.06146024277194869,0.2073324105105433,-0.03299342396614396,-0.2522482139104825,-0.10333896815090339,-0.08526389521740536,-0.3544593155384063,2.422386884689331,0.5240662097930908,-0.8660427331924438,0.1316759139299392,-0.2332265079021453
1749048037.5150733,4.849899648832059,-2.747436730945766,-0.4043849461150825,1.6928431722300863,-0.03762451163577174,3.6262403510935823,-0.061792503311223476,0.20891184648279232,-0.033184940095163915,-0.25416492631417203,-0.10399690309610729,-0.08605663368519155,-0.3084124326705932,2.3431379795074463,0.5226931571960449,-0.8705382943153381,0.1281073838472366,-0.2129263579845428
1749048037.5151105,4.849774215975322,-2.7470122801621253,-0.404450546386366,1.6923341829189922,-0.03783015963299546,3.6260679400997926,-0.062103211203823,0.21050732106529257,-0.03339102321808405,-0.25610193582536317,-0.10457055361053882,-0.08668450155313048,-0.3318064212799072,2.3107404708862305,0.5179135203361511,-0.8942774534225464,0.1381501853466034,-0.2278246730566024
1749048037.5152128,4.849647755745587,-2.7465844452611967,-0.4045163587075798,1.691821607969426,-0.038036206127820674,3.625894709715883,-0.062399182929987584,0.2121270439979168,-0.03361092388805763,-0.2580407719225478,-0.10508903598467467,-0.08715266431177787,-0.3660381436347961,2.3847618103027344,0.534157395362854,-0.8211987614631653,0.130792811512947,-0.2166623473167419
1749048037.516753,4.849520216470109,-2.7461530422288063,-0.40458259536439567,1.691305067561339,-0.03824273204932467,3.6257208021280722,-0.0626875119570827,0.2137795202824562,-0.033843173663161016,-0.25995850328606607,-0.10558684978088949,-0.08748233725800013,-0.3458520770072937,2.393198013305664,0.5341115593910217,-0.7806599736213684,0.1211662590503692,-0.2041587978601455
1749048037.5583234,4.849391577897728,-2.745717924323769,-0.404649445605861,1.6907842446215973,-0.03844993558485936,3.6255463207660386,-0.06297485472336657,0.21547229687137762,-0.034085655582760686,-0.26183077246871544,-0.10609939484388033,-0.08770927920946874,-0.3594491481781006,2.419273853302002,0.5203666687011719,-0.7588931918144226,0.1295072138309478,-0.2123043835163116
1749048037.55837,4.8492618510775305,-2.7452789913198,-0.4047170610404418,1.6902589047411998,-0.0386581164889805,3.625371315652212,-0.0632668909323785,0.21721078491472143,-0.0343356544677394,-0.2636346599701851,-0.10665818733478862,-0.08788071771021247,-0.3487059473991394,2.3753604888916016,0.5138577818870544,-0.7608348727226257,0.1122300028800964,-0.1856244653463363
1749048037.5584106,4.849131076324017,-2.744836196511659,-0.4047855451372551,1.6897289102515798,-0.038867645023590504,3.625195773739602,-0.06356802828810978,0.21899735755334904,-0.03458990664295738,-0.2653508562097537,-0.10728644062665033,-0.088050904977124,-0.3740789890289306,2.370148181915283,0.5441750288009644,-0.8091752529144287,0.1209893003106117,-0.2222130596637725
1749048037.5584493,4.848999319692351,-2.7443895508349074,-0.4048549476370316,1.689194227730859,-0.03907891908294602,3.625019615297788,-0.06388134379027663,0.22083080201604724,-0.034844700293691466,-0.2669649688223463,-0.10799567481252503,-0.08827567843463222,-0.3442895710468292,2.386217832565308,0.5407506227493286,-0.8398763537406921,0.0956874638795852,-0.2100444734096527
1749048037.5584877,4.8488666681975525,-2.7439391233625585,-0.40492526395034034,1.6886549279869347,-0.03929231518163263,3.6248426969866334,-0.06420868778932752,0.22270607039601337,-0.03509607722102497,-0.26846812703624123,-0.10878391307163986,-0.08860655514505268,-0.3089382946491241,2.341025114059448,0.5110360383987427,-0.8268171548843384,0.0862040221691131,-0.2361998409032821
1749048037.558525,4.848733223934439,-2.7434850377766886,-0.40499643909668037,1.688111178185016,-0.039508140177392306,3.62466482192557,-0.06455084652284813,0.22461422530313857,-0.03534015723485673,-0.26985719315781515,-0.10963581721433684,-0.0890849917279945,-0.3545708060264587,2.299407958984375,0.5321364402770996,-0.806428849697113,0.0960229784250259,-0.2390051633119583
1749048037.5585625,4.848599097382133,-2.7430274650196695,-0.40506837560165904,1.6875632269297294,-0.039726590649644886,3.624485756460414,-0.06490767624063834,0.22654254534597376,-0.03557356515102107,-0.27113482751874907,-0.11052482674438967,-0.08973746326426353,-0.3541461527347564,2.3583123683929443,0.5303694605827332,-0.7919512987136841,0.0535897612571716,-0.2329157441854477
1749048037.5586,4.848464400416834,-2.742566612731003,-0.4051409448365861,1.6870113840970322,-0.039947725723400204,3.624305252446733,-0.06527817529906713,0.2284748704633738,-0.035793901449601345,-0.27230949275494565,-0.11141704402048848,-0.09057195233798394,-0.3412722945213318,2.353266954421997,0.5365046858787537,-0.7632960677146912,0.0850957185029983,-0.236466109752655
1749048037.5586376,4.848329239708503,-2.742102712043752,-0.4052140011081231,1.6864559976646394,-0.04017145703334305,3.6241230730437346,-0.06566051739401361,0.2303923156524845,-0.036000170219594785,-0.27339536252073393,-0.11227631450882761,-0.09157631390949754,-0.3718727827072143,2.3086695671081543,0.5386413931846619,-0.7838330268859863,0.1339365690946579,-0.2693288624286651
1749048037.5586746,4.848193710965963,-2.7416360021745265,-0.40528739721251517,1.6858974297976974,-0.040397556983197754,3.623939019479079,-0.06605210327248393,0.2322744104507593,-0.0361930699725615,-0.2744120619908548,-0.11306973761898317,-0.09271881017430222,-0.3468143045902252,2.2641658782958984,0.5488883852958679,-0.7967627048492432,0.1460846215486526,-0.2605145573616028
1749048037.5587122,4.8480578939358185,-2.7411667134581204,-0.4053609995615176,1.685336034214418,-0.04062568404865217,3.6237529559303976,-0.06644969072478416,0.23410058355417585,-0.03637507002345107,-0.2753841640756032,-0.11377275690507642,-0.0939508837242486,-0.367300271987915,2.3186678886413574,0.54389488697052,-0.8194218277931213,0.1321373283863067,-0.2311703115701675
1749048037.55875,4.847921847683826,-2.740695050094109,-0.40543470094011,1.6847721364713752,-0.04085542193903576,3.623564829480592,-0.06684963325596185,0.2358518087936689,-0.03655023900009388,-0.27634034253579026,-0.11437305330903631,-0.09521195616243648,-0.3635035455226898,2.330569267272949,0.5222976803779602,-0.8163183927536011,0.1287123262882232,-0.232541412115097
1749048037.5587876,4.847785605984564,-2.740221174445597,-0.40550842960775174,1.6842060183228702,-0.041086328020345154,3.6233746821695543,-0.06724820772350841,0.23751221032552766,-0.036723854425054714,-0.27731204637412854,-0.11487268251763248,-0.09643575320086488,-0.3290185332298279,2.2511768341064453,0.5164350271224976,-0.731960117816925,0.1331840008497238,-0.2504324913024902
1749048037.5588248,4.847649173488,-2.7397451948446654,-0.40558215439119133,1.6836379068432752,-0.04131798539127581,3.6231826527362165,-0.06764196660381977,0.23907045662051696,-0.036901877916672716,-0.2783315703592109,-0.11528818005684768,-0.09755744551917654,-0.3360319137573242,2.253408670425415,0.5012597441673279,-0.7554141283035278,0.1282433569431305,-0.2219575047492981
1749048037.558862,4.847512524111969,-2.739267158573863,-0.4056558860842093,1.6830679686474246,-0.041550052345179445,3.6229889668945834,-0.06802803668122383,0.24052079696327536,-0.037090397628173385,-0.27942952011759215,-0.11564863257455388,-0.09852079654797151,-0.3365163803100586,2.289479970932007,0.5389060974121094,-0.7900859713554382,0.1448960751295089,-0.2351952493190765
1749048037.5588994,4.847375603191796,-2.7387870512863617,-0.4057296756486098,1.6824963092032592,-0.04178230284025637,3.6227939168288055,-0.06840430728267914,0.2418636005082136,-0.037295109136190864,-0.2806319050078175,-0.11599195991143478,-0.09928450417222191,-0.3866258263587951,2.250737428665161,0.5218029022216797,-0.828300416469574,0.1575562953948974,-0.1819566786289215
1749048037.5589373,4.847238334024309,-2.738304803566459,-0.4058036096183194,1.6819229766753823,-0.04201465235873616,3.6225978325584833,-0.0687694912060981,0.24310528657139643,-0.03752085633315787,-0.2819573333247301,-0.11635988282595877,-0.09982698729279217,-0.3338198065757751,2.214301824569702,0.5135562419891357,-0.8243220448493958,0.1345064491033554,-0.1649709194898605
1749048037.5589745,4.847100627913309,-2.7378203043533578,-0.4058778030956112,1.681347968969402,-0.04224716536535884,3.6224010492134853,-0.06912308049606071,0.24425762808047816,-0.03777122595619612,-0.28341488539761417,-0.11679226433350416,-0.1001490097813276,-0.3030930161476135,2.2553811073303223,0.4951100051403045,-0.8075641989707947,0.1049979403614997,-0.1678656935691833
1749048037.5590112,4.846962395482346,-2.7373334196176073,-0.4059523909218699,1.680771242095293,-0.04248004338888268,3.622203874552717,-0.06946524957818546,0.24533656080380087,-0.03804819616988411,-0.2850031312930125,-0.11732166315422018,-0.10027377431581776,-0.3874103128910064,2.299591302871704,0.5223736763000488,-0.7861508131027222,0.0943786278367042,-0.164922297000885
1749048037.559049,4.846823556661388,-2.7368440135268046,-0.4060275178288523,1.6801927181065528,-0.0427135960000246,3.622006560290883,-0.06979677988035829,0.2463607615679799,-0.03835185876283235,-0.28671050568621315,-0.11796895354448451,-0.1002444407432894,-0.4062556028366089,2.231987953186035,0.5019420981407166,-0.7973031997680664,0.0685057267546653,-0.1713989228010177
1749048037.559209,4.846684047608781,-2.736351968872996,-0.40610332838168123,1.6796122916643985,-0.04294819973647097,3.6218092795051167,-0.07011908202990197,0.24735027253193803,-0.038680244048053404,-0.28851698790928343,-0.1187407030733466,-0.10011936557372154,-0.3603570163249969,2.213928699493408,0.5040732622146606,-0.7963613867759705,0.0727455615997314,-0.1686175316572189
1749048037.5607953,4.846543824298025,-2.7358572037999274,-0.4061799572711887,1.679029835180312,-0.043184251603573115,3.6216121112616473,-0.07043435260408902,0.24832533216893413,-0.03902927977004067,-0.29039685285921685,-0.11962868208529183,-0.09996564876479236,-0.3781688213348388,2.331432819366455,0.510678768157959,-0.8457593321800232,0.0804020017385482,-0.204701542854309
1749048037.6023154,4.846402863473025,-2.7353596825853375,-0.4062575202184657,1.6784452029652737,-0.04342212403747705,3.6214150330061634,-0.07074582163073796,0.24930542183658472,-0.03939291789000287,-0.29232215028921277,-0.12061148859233624,-0.09985176787236409,-0.3690325319766998,2.269572257995605,0.5282240509986877,-0.8207989931106567,0.0817933157086372,-0.2023898810148239
1749048037.602362,4.846261161596328,-2.7348594191761233,-0.40633610570313783,1.6778582347547888,-0.04366212748995258,3.6212179210662554,-0.07105796342605554,0.2503084488785903,-0.03976346029056208,-0.29426646885030017,-0.12165791557942653,-0.09984016750798443,-0.3443962633609772,2.2499828338623047,0.5136311054229736,-0.8023826479911804,0.0580536052584648,-0.2167795300483703
1749048037.602402,4.846118731884515,-2.734356473267166,-0.4064157680070629,1.6772687587418451,-0.04390448537252711,3.6210205593856055,-0.07137650894255348,0.25134997518870944,-0.04013209664145481,-0.29620842510638723,-0.12273144188711317,-0.0999806569020974,-0.3409470319747925,2.2341644763946533,0.4898982346057892,-0.7548832297325134,0.0667788684368133,-0.2509207129478454
1749048037.6024406,4.845975599391434,-2.7338509398809374,-0.40649652244364215,1.6766765942763773,-0.04414932397362001,3.620822656080061,-0.07170813984541373,0.252442426067892,-0.040489632436517875,-0.29813426256193964,-0.12379510906994778,-0.10030535504461949,-0.3673874735832214,2.2217772006988525,0.5070085525512695,-0.7525652647018433,0.1000390797853469,-0.2397670596837997
1749048037.6024785,4.845831794382495,-2.733342934421395,-0.4065783437422887,1.6760815547254446,-0.04439667720975502,3.620623866708931,-0.0720598498956638,0.2535942631648519,-0.04082733736228733,-0.30003905454078456,-0.12481603204716446,-0.1008257226204644,-0.3780992329120636,2.2485523223876958,0.5151960849761963,-0.7647236585617065,0.1079552844166755,-0.2437758594751358
1749048037.602521,4.845687344517417,-2.7328325757558294,-0.4066611681948152,1.6754834512110277,-0.04464650329518081,3.6204238225513996,-0.0724380803701687,0.25480918383690687,-0.04113779832017909,-0.301926294635214,-0.12576887016206886,-0.10153196267683062,-0.4009764790534973,2.315091133117676,0.5199089050292969,-0.8175944089889526,0.1166334375739097,-0.2638226151466369
1749048037.6025596,4.845542266548949,-2.732319969938445,-0.406744899489454,1.6748820976543208,-0.044898708376644926,3.620222161715336,-0.07284781751189225,0.2560855036233564,-0.04141563995775963,-0.3038060307517306,-0.12663776606783497,-0.10239480398408328,-0.376780241727829,2.2954907417297363,0.5221381783485413,-0.8104881048202515,0.1335667818784713,-0.2494000047445297
1749048037.6025968,4.845396558464534,-2.7318051968844608,-0.40682941744599166,1.67427731686929,-0.045153171201415376,3.620018560505827,-0.07329185168863228,0.2574159409458611,-0.0416579931360244,-0.3056920052343249,-0.12741653490483662,-0.10336943406469673,-0.4150832295417785,2.2951931953430176,0.5106982588768005,-0.8375411033630371,0.139771968126297,-0.2422743439674377
1749048037.602636,4.84525019315017,-2.731288301772656,-0.40691458833360555,1.6736689468097998,-0.04540976304703439,3.619812762199587,-0.0737703478290011,0.2587879984815898,-0.041864643297094516,-0.30759840154635526,-0.12810721281257384,-0.1044011229022849,-0.384193867444992,2.24597692489624,0.5109409689903259,-0.8010027408599854,0.1298269778490066,-0.2136374711990356
1749048037.6026733,4.845103114610214,-2.7307692922263525,-0.4070002752075866,1.6730568457242327,-0.04566835857670582,3.619604600334736,-0.07428079333847427,0.2601850141460998,-0.04203785634998001,-0.3095367711389186,-0.12871739010228733,-0.10543187937755052,-0.3852165043354034,2.2583467960357666,0.5174535512924194,-0.7925072908401489,0.1350663155317306,-0.2371994853019714
1749048037.6027143,4.844955237585514,-2.730248141424919,-0.4070863467932214,1.6724408948976945,-0.04592883580005203,3.619394013836635,-0.07481830322863722,0.26158779918755454,-0.04218193805231067,-0.31151361142094053,-0.12925699800307897,-0.10640735127417025,-0.4005674421787262,2.3043856620788574,0.5153471827507019,-0.8607016801834106,0.1119417995214462,-0.2211446464061737
1749048037.6027608,4.844806451142988,-2.7297247962823645,-0.4071726838930895,1.6718209979511562,-0.046191066242927396,3.619181051788208,-0.07537619682023147,0.2629766714517718,-0.04230262020485727,-0.313528965138906,-0.1297353307712481,-0.10728315104408989,-0.3349187076091766,2.294900894165039,0.5012670755386353,-0.8842564821243286,0.1088695600628852,-0.2160108536481857
1749048037.6028028,4.844656626412619,-2.729199188808991,-0.4072591830698541,1.671197076469595,-0.04645489909571368,3.618965866621728,-0.07594672965503219,0.2643336404306802,-0.04240637933967877,-0.31557629553396954,-0.13015902194914994,-0.10802985453749867,-0.4243574440479278,2.3190205097198486,0.5237154960632324,-0.8716810941696167,0.0729143619537353,-0.2278981208801269
1749048037.602841,4.844505628074121,-2.728671248036805,-0.40734575825063807,1.6705690629071812,-0.0467201449984026,3.618748696000255,-0.07652186594396525,0.26564445938974074,-0.0424997849241382,-0.31764367597237964,-0.13053144536697808,-0.10863605842966666,-0.4193753004074096,2.271937847137451,0.5358121395111084,-0.8500841856002808,0.0834935307502746,-0.2037292122840881
1749048037.6028786,4.844353328498528,-2.728140909837872,-0.40743234145262414,1.6699368928014198,-0.046986565635977806,3.6185298353080846,-0.07709399657206231,0.26690021764576377,-0.04258895429549788,-0.3197159991305278,-0.1308536238621255,-0.10910909621865451,-0.3595808148384094,2.2038869857788086,0.4915191233158111,-0.7962911128997803,0.1404601633548736,-0.2007640153169632
1749048037.6029155,4.844199622768008,-2.7276081227696123,-0.40751888366578914,1.6693004988260802,-0.047253874109958315,3.61830960408641,-0.0776565322015883,0.2680981735426081,-0.04267916961956913,-0.3217775951038116,-0.13112630336337144,-0.10947330170901279,-0.4040587544441223,2.2857580184936523,0.4866348803043365,-0.8087243437767029,0.1215068846940994,-0.2219103574752807
1749048037.6029532,4.844044442308217,-2.727072849435265,-0.40760535617639015,1.6686598088618252,-0.04752174858244374,3.6180883107654767,-0.0782043272990374,0.26924169438906537,-0.04277468479732316,-0.3238145478830259,-0.1313525258710183,-0.10976603943305786,-0.3973492383956909,2.3381457328796387,0.5134574770927429,-0.8251256942749023,0.1547710746526718,-0.213179126381874
1749048037.602991,4.843887764740804,-2.726535064114216,-0.40769175184452333,1.6680147491637876,-0.04778985891187194,3.6178662204681413,-0.07873391931983238,0.2703394250150742,-0.042878708062616865,-0.3258161840064129,-0.13153993068946904,-0.11003203877600268,-0.3819422721862793,2.3106908798217773,0.5072972774505615,-0.8625531196594238,0.1209531277418136,-0.2197989523410797
1749048037.6030283,4.843729617966182,-2.725994748053346,-0.40777808556687295,1.6673652522827427,-0.048057903474430765,3.617643530271789,-0.07924359229955828,0.2714040009964696,-0.04299349956506665,-0.32777554866552605,-0.13170214825811272,-0.11031681989426828,-0.3830730020999908,2.2876813411712646,0.5179080367088318,-0.8508410453796387,0.1387507915496826,-0.241944134235382
1749048037.6030705,4.84357007752015,-2.7254518836949506,-0.40786439339298425,1.6667112681170528,-0.04832565113009839,3.6174203552044553,-0.07973328922649472,0.27245065339808716,-0.04312050389503041,-0.32968899260725426,-0.13185893298484552,-0.11066014361814282,-0.3823497593402862,2.353179454803467,0.4886876940727234,-0.8437163233757019,0.1580260396003723,-0.2332881987094879
1749048037.6032114,4.8434092577318335,-2.724906448593967,-0.40795073018531963,1.6660527755758237,-0.04859298154166431,3.6171967267308265,-0.08020440327487681,0.27349595543640093,-0.04326046159507036,-0.3315551759988159,-0.13203498798584223,-0.11109043010561989,-0.387933075428009,2.3809382915496826,0.4984898567199707,-0.8490258455276489,0.1599354445934295,-0.2627209722995758
1749048037.6048026,4.843247298678115,-2.724358409389916,-0.408037166078859,1.6653897919115679,-0.048859916413094284,3.6169726036840406,-0.08065947942375552,0.27455682872567283,-0.04341349175713239,-0.33337387643077304,-0.13225768828277373,-0.11162096660427502,-0.3918735086917877,2.315048694610596,0.5139253735542297,-0.8868517279624939,0.1501234024763107,-0.2756590247154236
1749048037.6463242,4.843084351886531,-2.7238077162192216,-0.4081237823043551,1.6647223769596893,-0.04912663520326945,3.616747893492224,-0.08110186041513151,0.27564979274658563,-0.04357917692732622,-0.3351450042445425,-0.13255408360832302,-0.11224846892477862,-0.4057336151599884,2.2873177528381348,0.4859085977077484,-0.9339094161987304,0.1160754784941673,-0.2424423545598983
1749048037.6463706,4.842920567754629,-2.723254298175595,-0.4082106671202172,1.6640506303772538,-0.049393471356064235,3.616522479366398,-0.08153531425520497,0.2767903128162986,-0.04375669550296782,-0.3368681595350876,-0.1329476533356609,-0.11295419369792267,-0.3536198139190674,2.2759952545166016,0.499744713306427,-0.8905624151229858,0.1295828819274902,-0.2240968346595764
1749048037.646411,4.842756086528713,-2.7226980604771343,-0.40829791244025976,1.6633746813838988,-0.04966088833220918,3.6162962475296725,-0.0819636760992133,0.2779920407124916,-0.04394503752502836,-0.3385428719302238,-0.13345529587280802,-0.11370737615104719,-0.4095129370689392,2.3354122638702397,0.4897712469100952,-0.8388018012046814,0.101225659251213,-0.2406792044639587
1749048037.6464503,4.842591032883298,-2.722138883772952,-0.4083856112887702,1.6626946722022349,-0.04992943792431198,3.61606910842397,-0.08239052270211998,0.27926582865811106,-0.04414331156254588,-0.34016937578835227,-0.1340849743097657,-0.11447038493565265,-0.4042470753192901,2.422112226486206,0.4879739284515381,-0.7994807958602905,0.0914980247616767,-0.2277201861143112
1749048037.646489,4.842425512686662,-2.7215766257520384,-0.40847385584241663,1.6620107379865277,-0.05019970601535365,3.615841007588251,-0.08281888485389029,0.28061860613922723,-0.044351108570361696,-0.34174952024094624,-0.13483432970842765,-0.1152047233283731,-0.3692198693752289,2.410550355911255,0.4841441512107849,-0.8275480270385742,0.1040230318903923,-0.2141979187726974
1749048037.6465275,4.842259610162326,-2.7210111251282894,-0.4085627357530874,1.6613229870288606,-0.05047225289270524,3.6156119251033836,-0.08325099997389697,0.28205239016805717,-0.044568848696504654,-0.3432873420207143,-0.13569043224482302,-0.11587689763992677,-0.3762852251529693,2.379394292831421,0.4827769100666046,-0.8457959294319153,0.1135075539350509,-0.1903700977563858
1749048037.646566,4.842093384305036,-2.720442208065685,-0.4086523364704424,1.6606314851094748,-0.05074755616913257,3.6153818658502104,-0.08368810690669241,0.28356372592927986,-0.044798018198577136,-0.3447889690785499,-0.1366306877751936,-0.11646322201527247,-0.3915856480598449,2.4114110469818115,0.4901733696460724,-0.8594498634338379,0.0942054986953735,-0.180289551615715
1749048037.646606,4.8419268645534315,-2.71986969694212,-0.4087427371271394,1.659936247136802,-0.05102596389673683,3.6151508449813843,-0.0841302865670842,0.28514374557153516,-0.045041212286375074,-0.3462617653979822,-0.1376247765253408,-0.1169528310894312,-0.3665724992752075,2.396758556365967,0.5001499056816101,-0.8018419146537781,0.0977075323462486,-0.1850698888301849
1749048037.6466484,4.841760046827812,-2.7192934210457915,-0.40883400731400293,1.6592372381447984,-0.05130766348614485,3.6149188734035644,-0.08457636232851999,0.2867788946125123,-0.04530192923919866,-0.34771284572301403,-0.13863738029955788,-0.117348501747727,-0.3846760094165802,2.4074978828430176,0.5105689764022827,-0.7833043336868286,0.1177977994084358,-0.1709286570549011
1749048037.646694,4.841592891682352,-2.718713228516205,-0.4089262021240998,1.658534384545839,-0.05159266908664702,3.614685947150961,-0.08502389009154582,0.28845226623419334,-0.045584104382364515,-0.34914724705762223,-0.13963135117285058,-0.11766527714587689,-0.380140483379364,2.402235507965088,0.4827506244182586,-0.8287041187286377,0.1313905864953994,-0.2072663754224777
1749048037.646742,4.841425326135943,-2.718128998593268,-0.40901935538347683,1.6578275951801102,-0.05188082705347505,3.6144520431440617,-0.08546927492674085,0.29014538891227304,-0.04589142411502707,-0.3505661637543093,-0.14057091010022368,-0.11792725977688144,-0.3718994855880737,2.3772406578063965,0.4650408029556274,-0.8633793592453003,0.1284217238426208,-0.2064271569252014
1749048037.6467872,4.841257249650694,-2.7175406530171093,-0.40911347182235375,1.657116790095026,-0.052171836687851025,3.6142171223574406,-0.08590803628651852,0.29184021968158624,-0.04622651066677456,-0.3519657170779703,-0.14142448473258976,-0.11816322861602462,-0.3879770934581756,2.360816478729248,0.4771313071250915,-0.8681144714355469,0.1278244853019714,-0.2279133945703506
1749048037.646826,4.841088543250595,-2.7169481654197973,-0.4092085197076707,1.6564019334407192,-0.052465281753989214,3.6139811397335877,-0.0863352076077325,0.29352103400678464,-0.04659010604744486,-0.3533366678010551,-0.14216691558757036,-0.11840189138805528,-0.3505916595458984,2.387932300567627,0.4619413018226623,-0.8016741275787354,0.1397395133972168,-0.214801475405693
1749048037.6468637,4.840919079867151,-2.7163515679122052,-0.4093044258866664,1.6556830658031065,-0.05276066742856706,3.6137440583139546,-0.08674581414699149,0.2951759093398233,-0.04698040123721825,-0.3546652643061087,-0.142780930780024,-0.11866758809848074,-0.3916800320148468,2.409334421157837,0.4626531898975372,-0.8313108086585999,0.1241067498922348,-0.2492977380752563
1749048037.6469011,4.840748734210218,-2.7157509545967637,-0.4094010750885315,1.654960330874738,-0.05305745758428257,3.6135058635871697,-0.08713534490425913,0.2967975666761887,-0.047392649217805984,-0.3559351360369403,-0.14325793897697725,-0.11897713310644313,-0.3483029007911682,2.420382261276245,0.4938372671604156,-0.8748219609260559,0.141516774892807,-0.2407042235136032
1749048037.6469386,4.840577391435498,-2.715146482090734,-0.40949831455939406,1.6542339915953217,-0.05335510868830486,3.6132665736396636,-0.08750013124909066,0.2983834264050418,-0.04781916537623334,-0.35712991973934477,-0.14359827302685038,-0.11933825394430735,-0.3935869932174682,2.3082261085510254,0.4816898703575134,-0.8665700554847717,0.113051101565361,-0.2675672173500061
