nimar13/UR3e_dataset_trayectorias/trayectorias_ejecutadas_filtradas/trapezoidal/trayectoria_113_result_filtrado.csv
timestamp,q1,q2,q3,q4,q5,q6,qd1,qd2,qd3,qd4,qd5,qd6,tau1,tau2,tau3,tau4,tau5,tau6
1749049473.7664597,0.38536696376710716,-0.8570153796783804,1.9774667415151963,3.1055721089249753,2.4954636023608137,-3.0521241035411992,0.007106226209836235,-0.0011557974217000376,0.00021851583884340835,0.00021190654648727404,-0.002095402148377834,0.001981747477158998,-0.0847857594490051,-1.1702532768249512,-0.4004429578781128,-0.0852531269192695,-0.3150847256183624,-0.0433734506368637
1749049473.7665322,0.3853756062761691,-0.8570255033235864,1.9774651632463391,3.1055730599408964,2.495457952231975,-3.0521272252348663,0.006592994134783987,-0.001117398621745415,0.0002113415688089485,0.00021097015061882408,-0.0021146622218489886,0.0018747809628470542,-0.0555683560669422,-1.177483320236206,-0.4049254059791565,-0.0934715196490287,-0.2913635671138763,-0.0552543327212333
1749049473.7665956,0.3853841435898263,-0.8570351237483737,1.9774635799056481,3.1055740068170263,2.495452405947486,-3.0521302037625744,0.006084215617735841,-0.0010795004497759994,0.00020263006970819592,0.00020968720698799167,-0.0021235469663489796,0.0017653169967436614,-0.0389289744198322,-1.165538668632507,-0.4057939946651459,-0.0906020328402519,-0.293419599533081,-0.0522655621170997
1749049473.7666574,0.3853924767071047,-0.8570438240981116,1.9774620283914532,3.1055749398957113,2.4954471080154508,-3.0521329233551495,0.005582459179747225,-0.0010416989367210932,0.00019223327230809612,0.0002077987504087104,-0.002113396841297101,0.0016533907690674625,-0.046658132225275,-1.1574372053146362,-0.4007050096988678,-0.1030798330903053,-0.3090271353721618,-0.0290213152766227
1749049473.7667189,0.3854005121498716,-0.8570512778549836,1.9774605450864764,3.1055758502222948,2.495442179547758,-3.0521352993401027,0.005090347884376774,-0.0010034771598856536,0.0001801415607373775,0.00020509309846944765,-0.002077801722919537,0.0015397108888715416,-0.0372904613614082,-1.1853512525558472,-0.3978766202926636,-0.0912890657782554,-0.3167697787284851,-0.0397726669907569
1749049473.766781,0.3854081656698326,-0.8570572745028161,1.9774591650277438,3.105576729883538,2.4954377123327256,-3.052137285004845,0.004610684449796453,-0.0009642388219233327,0.00016653472247988698,0.00020143298341788565,-0.0020132687140852154,0.0014257415560340937,-0.0421921387314796,-1.1688812971115112,-0.4154373109340668,-0.1051042154431343,-0.3225119709968567,-0.0395631790161132
1749049473.766843,0.3854153659563781,-0.8570617308354599,1.9774579216350092,3.105577571176877,2.495433767848441,-3.0521388718742863,0.004146502333962939,-0.0009233762209955431,0.000151825976790552,0.00019677650741972322,-0.0019194667031270831,0.0013136674354039504,-0.0198249593377113,-1.1684731245040894,-0.4004232883453369,-0.1083263829350471,-0.3274804353713989,-0.049451794475317
1749049473.766905,0.3854220575047837,-0.8570646876506989,1.9774568467400915,3.1055783652901594,2.49543038061184,-3.052140084918409,0.003701020304482374,-0.0008803581624847633,0.00013669233673850391,0.00019119022926456124,-0.0017990569558522737,0.001206234416429455,-0.0496352240443229,-1.165885329246521,-0.4035130739212036,-0.0926346108317375,-0.3257573843002319,-0.0508928373456001
1749049473.7669654,0.3854282017687023,-0.8570662932272225,1.977455970360384,3.105579101339529,2.49542756431894,-3.052140974844689,0.0032775096730476854,-0.0008348172191074549,0.0001220844258686412,0.00018485357589988834,-0.0016571869370423623,0.0011064779499762617,-0.0169809684157371,-1.1748833656311035,-0.4054989218711853,-0.0925879478454589,-0.3362674117088318,-0.0517131388187408
1749049473.7670274,0.38543377616416225,-0.857066776517519,1.9774553196370712,3.105579766370834,2.4954253186951396,-3.052141609154742,0.002879111337556187,-0.0007866187324405979,0.00010920949949242137,0.00017805454552236098,-0.0015007619257010579,0.0010173674393459417,-0.0227536633610725,-1.1552504301071167,-0.3890968263149261,-0.0898919329047203,-0.3334233164787292,-0.0403839088976383
1749049473.767089,0.38543877124482134,-0.8570664142867963,1.977454916757261,3.1055803464407115,2.495423634971333,-3.052142062766022,0.0025086496716836457,-0.000735902257847178,9.94829340904615e-05,0.0001711773077866506,-0.001337615998311582,0.0009414067822063469,-0.0101750493049621,-1.1670087575912476,-0.385712206363678,-0.1067125275731086,-0.3391948342323303,-0.0410259813070297
1749049473.7671502,0.38544318712085945,-0.8570654970037396,1.9774547763164219,3.1055808283986917,2.495422498566739,-3.052142408472732,0.0021684813630361045,-0.0006830941103332443,9.44458948637458e-05,0.0001646827897547173,-0.0011756889989505946,0.0008802360296906767,-0.042389839887619,-1.14116370677948,-0.385511040687561,-0.099494345486164,-0.3341420888900757,-0.0386472530663013
1749049473.7672124,0.3854470304923044,-0.8570642979604597,1.977454902981565,3.105581201724717,2.4954218886908537,-3.0521427076188834,0.0018603979144576567,-0.00062889410935309,9.565022243209971e-05,0.0001590835791661443,-0.0010222896560228257,0.0008342782345245702,0.0046282112598419,-1.1553633213043213,-0.3894170522689819,-0.1033618971705436,-0.324739396572113,-0.0181925967335701
1749049473.767273,0.3854503131908763,-0.8570630490979632,1.977455290134656,3.1055814598518716,2.4954217756171624,-3.0521430018500166,0.001585580051445228,-0.0005742407615970876,0.0001045156264756672,0.00015491441019162522,-0.000883496646833792,0.0008024714292321204,-0.007887415587902,-1.1557239294052124,-0.3764284551143646,-0.0932974591851234,-0.3258324265480041,-0.0519709512591362
1749049473.7673335,0.3854530521444359,-0.8570619255984504,1.977455919571978,3.1055816007399786,2.495422116911838,-3.0521433072577064,0.0013445873363743105,-0.0005202586180404241,0.00012216873508811044,0.00015269918596445847,-0.0007637256645858512,0.0007821205062205318,-0.0357172489166259,-1.1430448293685913,-0.3744131922721863,-0.1120429411530494,-0.3165250718593597,-0.030821107327938
1749049473.7673934,0.3854552699590962,-0.8570610397158385,1.9774567618675833,3.105581626849097,2.495422853930662,-3.052143612259534,0.0011373604506899264,-0.0004681905351889713,0.00014927800525190146,0.0001529151628589047,-0.0006654732838337372,0.0007688983617943822,-0.039885975420475,-1.138280749320984,-0.3761259913444519,-0.0855960473418235,-0.308802843093872,-0.0540136396884918
1749049473.767455,0.3854569953421902,-0.8570604429263279,1.9774577770828756,3.1055815449257995,2.495423909731548,-3.052143880042957,0.0009632171735924898,-0.00041931641793201954,0.00018590246875994243,0.00015595487098713894,-0.0005892360517504168,0.0007570194798523806,-0.0147549957036972,-1.1146055459976196,-0.3721604943275451,-0.067932091653347,-0.305421769618988,-0.0621529072523117
1749049473.7675157,0.3854582631107619,-0.8570601345874143,1.977458916009902,3.1055813661081473,2.4954251894740964,-3.052144055553808,0.0008208331759234085,-0.0003748590068715166,0.00023137524849792357,0.00016208677139428786,-0.0005335936067132134,0.0007396009168599084,-0.011354275047779,-1.1199275255203247,-0.3709900081157684,-0.0909569039940834,-0.3141478896141052,-0.0365109927952289
1749049473.7675755,0.3854591139916732,-0.8570600748641061,1.9774601226200994,3.1055811067145838,2.495426584304142,-3.0521440761863308,0.0007082105982927845,-0.0003358768935367255,0.00028424412134500735,0.00017141650901662987,-0.000495437018945923,0.0007092142463907936,-0.0438768938183784,-1.116734266281128,-0.3730259537696838,-0.0951306521892547,-0.306923508644104,-0.049206294119358
1749049473.767636,0.3854595945529037,-0.8570601995745586,1.9774613384113677,3.1055807896153853,2.495427979216868,-3.052143884678984,0.0006226465578517693,-0.00030314567841646493,0.0003422903548085875,0.00018385167427429968,-0.0004703184700114419,0.0006586170160548375,-0.0272105857729911,-1.1232860088348389,-0.3676235675811767,-0.0930322632193565,-0.3158321380615234,-0.055144652724266
1749049473.767854,0.38545975745634664,-0.8570604348074696,1.9774625087054245,3.105580445448954,2.495429264253378,-3.0521434421609572,0.0005607181451072105,-0.0002770302916735043,0.0004026426424962281,0.00019907397101751436,-0.000452896102251828,0.0005816341453811258,-0.053803227841854,-1.0923455953598022,-0.3648050725460052,-0.1002352908253669,-0.3182929158210754,-0.0449003763496875
1749049473.7693691,0.3854596619286572,-0.8570607095688065,1.9774635898975945,3.105580112612149,2.4954303470306667,-3.052142738891777,0.0005183007317221304,-0.00025735501643532176,0.00046199406044952583,0.00021652335048750478,-0.000437447466399518,0.0004741395484779204,-0.053803227841854,-1.0923455953598022,-0.3648050725460052,-0.1002352908253669,-0.3182929158210754,-0.0449003763496875
1749049473.810552,0.3854593740396137,-0.857060965076828,1.9774645558815123,3.1055798352474326,2.495431163765443,-3.0521418002961576,0.0004906343516115867,-0.00024328250663009857,0.0005169154452078268,0.00023539870345798124,-0.0004184249584213743,0.0003350675253424325,-0.0346269384026527,-1.1124686002731323,-0.3777956366539001,-0.0733527168631553,-0.3062838613986969,-0.0424061305820941
1749049473.8106322,0.38545896615445324,-0.8570611596417829,1.9774654019163613,3.1055796591916254,2.495431686129198,-3.0521406865866867,0.00047245012721863414,-0.0002332183507964122,0.0005642382727031012,0.00025467882134771623,-0.00039102595405365924,0.00016736395424044617,-0.0408762767910957,-1.0903146266937256,-0.3755479156970978,-0.0980276986956596,-0.3134075403213501,-0.0410537160933017
1749049473.8107011,0.3854585148297007,-0.857061268658592,1.9774661450011464,3.1055796265988667,2.49543192243027,-3.0521394853281123,0.00045816590505365996,-0.00022476166828032317,0.0006014570165371267,0.0002731655556520609,-0.00035174883499019703,-2.122843776719236e-05,-0.0469016954302787,-1.0929957628250122,-0.3718626797199249,-0.0842626765370369,-0.3182259202003479,-0.0695210322737693
1749049473.8107684,0.3854580964538536,-0.8570612802674737,1.9774668208325943,3.1055797703648294,2.495431913165323,-3.0521382973169673,0.0004421570968529876,-0.00021472222650373537,0.0006270835516672628,0.0002895490054518035,-0.0002989039203286977,-0.00021766527773608294,-0.0583141893148422,-1.0847759246826172,-0.354899138212204,-0.0800146237015724,-0.2998459637165069,-0.0613772049546241
1749049473.810836,0.3854577801608024,-0.8570611884136634,1.977467478141149,3.1055801094589213,2.495431722110246,-3.0521372170594736,0.00041910409730573026,-0.0001992191026133306,0.0006408851548152665,0.0003024930643812584,-0.00023304570509931013,-0.00040348939259351725,-0.0551993325352668,-1.0849236249923706,-0.3741083145141601,-0.0889947041869163,-0.316313624382019,-0.0530838146805763
1749049473.8109045,0.38545761816811713,-0.8570609857792738,1.9774681714315947,3.1055806459470086,2.495431424408484,-3.0521363101427297,0.00038441070660470505,-0.00017386591932022784,0.000643956480439244,0.0003107391835517423,-0.0001572903787062344,-0.0005552119446969355,-0.0722416266798973,-1.0654813051223757,-0.3778286576271057,-0.100651241838932,-0.3143306374549866,-0.061846449971199
1749049473.810972,0.385457634876223,-0.8570606588541603,1.9774689530537986,3.1055813640812264,2.4954310928185666,-3.052135590825928,0.00033467887978142944,-0.00013403562485268905,0.0006386061796891786,0.00031322623466958314,-7.74816222179158e-05,-0.0006452546328275812,-0.0616921856999397,-1.0579142570495603,-0.3741037249565124,-0.1067653074860572,-0.3045235872268677,-0.0717340484261512
1749049473.8110409,0.38545781752017355,-0.8570601862795916,1.9774698654141492,3.105582231449026,2.495430783021797,-3.0521350036730572,0.0002682147577980112,-7.518579693671026e-05,0.0006280682425436531,0.0003092240279562985,-2.169809201328124e-06,-0.0006434756365508521,-0.0706541612744331,-1.062329888343811,-0.3667471706867218,-0.1025661304593086,-0.3201780319213867,-0.071503609418869
1749049473.8111112,0.3854581119835728,-0.857059540206315,1.977470934209789,3.1055832018101457,2.495430519118936,-3.052134412521796,0.00018553027129982507,6.785211509522917e-06,0.0006160701715823997,0.0002984768629311278,5.7623555936408955e-05,-0.0005192408090496302,-0.0573557242751121,-1.0422528982162476,-0.3775309324264526,-0.0950712338089943,-0.3041216433048248,-0.0570969134569168
1749049473.8111787,0.38545842665672797,-0.8570586894969413,1.977472163710123,3.105584219012751,2.4954302811002442,-3.052133598650254,8.979457453078849e-05,0.0001151894176582854,0.0006063044937518977,0.00028135135258106455,8.887205116528113e-05,-0.00024392901176410536,-0.0633884891867637,-1.0350935459136963,-0.3551806807518005,-0.1015725508332252,-0.2999029755592346,-0.0616527646780014
1749049473.8112464,0.3854586450566921,-0.8570576033422049,1.9774735349843244,3.1055852214601787,2.495429996594109,-3.0521322682850314,-1.281845411712536e-05,0.00025225100056474844,0.000601858028482011,0.0002589797756939096,7.723894248367187e-05,0.0002063171987925499,-0.0684765204787254,-1.012117862701416,-0.3562934100627899,-0.0783910676836967,-0.3265649080276489,-0.032234601676464
1749049473.8113124,0.3854586455009276,-0.8570562539383064,1.977475007391815,3.1055861469726964,2.4954295389780503,-3.0521300682251837,-0.0001129443675865393,0.0004189026040963198,0.0006046552070410974,0.0002333868603997363,7.974473940297838e-06,0.000847857832021704,-0.0854986384510994,-1.010212779045105,-0.3662091493606567,-0.0852387025952339,-0.3192983567714691,-0.0460054576396942
1749049473.8113794,0.38545832455686035,-0.8570546170685426,1.9774765228313886,3.105586938223946,2.4954287328282727,-3.0521266076181393,-0.00019805938361714884,0.0006147136358890082,0.0006149683818949072,0.00020758506659546548,-0.00013303696255663355,0.0016871582035045594,-0.0620177835226058,-0.9986165761947632,-0.3784160614013672,-0.0963846072554588,-0.3281130194664001,-0.0144843310117721
1749049473.8114457,0.3854576204996876,-0.8570526698801957,1.9774780116057122,3.1055875489320006,2.4954273660906474,-3.052121483698076,-0.00025277394593393505,0.0008379720605381553,0.0006310413018455999,0.00018562207401322928,-0.00035816044223982674,0.0027190739658465527,-0.0456686988472938,-0.9799686074256896,-0.3797923326492309,-0.1067872121930122,-0.3371867537498474,-0.0065811239182949
1749049473.811513,0.38545653319726636,-0.8570503860353764,1.9774793985547656,3.1055879506880464,2.4954252069718716,-3.052114309254319,-0.00025941517371199697,0.0010859138274008223,0.0006488637187053526,0.0001725649872547931,-0.0006769300449450328,0.0039261430378881535,-0.0529524385929107,-0.9624701142311096,-0.3770858645439148,-0.0942685157060623,-0.3540661334991455,0.04498241096735
1749049473.811579,0.3854551373682058,-0.8570477295555599,1.9774806083135892,3.1055881399401373,2.4954220229463253,-3.0521047395252627,-0.0001988980065098378,0.0013550588727615665,0.000662126305544623,0.00017440905342013956,-0.0010951251601973042,0.0052791248583983486,-0.0377725288271904,-0.9604666829109192,-0.3820753097534179,-0.0867492780089378,-0.3495175838470459,0.0226398408412933
1749049473.8116455,0.38545358707863453,-0.8570446494792908,1.977481568980677,3.1055881443326236,2.495417599487279,-3.0520924962491423,-5.185176141727196e-05,0.0016415825853212194,0.0006623751308126135,0.00019790435802825916,-0.0016141247145229287,0.006738876332531154,-0.0369660705327987,-0.9505684971809388,-0.4001513123512268,-0.0836180970072746,-0.3651334643363952,0.0081798508763313
1749049473.8117125,0.38545211079067215,-0.8570410773996655,1.9774822139743677,3.1055880273638667,2.4954117567415364,-3.0520773869840387,0.0002000673343622268,0.00194164387086514,0.0006393725056533659,0.00025030147924580464,-0.0022306380001844953,0.008259459904528142,-0.0139927640557289,-0.9273332953453064,-0.4153764247894287,-0.0920440331101417,-0.369842529296875,0.0393598899245262
1749049473.8117783,0.38545099798512866,-0.8570369291123905,1.9774824823008785,3.1055878903033243,2.4954043629599014,-3.0520593183836695,0.0005727810984837224,0.0022516114282130273,0.0005816551329555565,0.0003390255144026015,-0.0029368609590355696,0.009792192782734415,0.0031975097954273,-0.9126237630844116,-0.4126020073890686,-0.0813790187239646,-0.3872550129890442,0.0400729179382324
1749049473.8118467,0.38545057976458635,-0.857032110533138,1.9774823177896272,3.1055878706588773,2.495395343844579,-3.0520383024178925,0.001078439816006628,0.002568165778007961,0.00047726133283246074,0.00047129599914171917,-0.003721035292639806,0.01129021127552563,0.0120918974280357,-0.9221725463867188,-0.4298722743988037,-0.0926886871457099,-0.389518678188324,0.0505912527441978
1749049473.81201,0.3854512064861331,-0.8570265271900139,1.9774816679810494,3.1055881371295033,2.4953846870453242,-3.0520144544395524,0.0017242524727613927,0.0028882870301696036,0.00031457820764580835,0.0006537163762953857,-0.0045683140996329715,0.012713050174746134,0.0369458794593811,-0.8979132175445557,-0.4516258835792541,-0.0719150677323341,-0.3996262550354004,0.0643611624836921
1749049473.8133895,0.38545322532142506,-0.8570200960129362,1.9774804832251653,3.1055888816210713,2.4953724411096534,-3.0519879820116094,0.002511613507702914,0.0032091589854933993,8.323954478568241e-05,0.0008918590273884416,-0.005461786533249523,0.014030714985579914,0.0372346639633178,-0.9015675783157348,-0.4552940726280212,-0.0762785971164703,-0.4072146713733673,0.0624766945838928
1749049473.8542838,0.38545695995013596,-0.8570127577089449,1.9774787162547713,3.1055903092810953,2.495358708701048,-3.0519591641055976,0.00343560451761998,0.0035280308993999787,-0.00022501051158520618,0.0011898694771078284,-0.0063835017722466145,0.01522675626182663,0.0381338223814964,-0.8819299936294556,-0.4677488803863525,-0.0873633101582527,-0.4085922241210937,0.0591028928756713
1749049473.8543296,0.38546269386001136,-0.8570044877685904,1.9774763221975873,3.1055926275499575,2.495343634906159,-3.0519283217398465,0.0044849043626729035,0.0038420792217955615,-0.0006155804087744178,0.001550107125853036,-0.00731536208917368,0.01629995407237974,0.0797968208789825,-0.8779689073562622,-0.4906321167945862,-0.0688878521323204,-0.3994491994380951,0.0716890841722488
1749049473.85437,0.3854706582971149,-0.8569953042743421,1.977473258760988,3.1055960350045724,2.495327392456037,-3.051895782807686,0.005642103945802021,0.00414829934475024,-0.0010905078332384029,0.0019728326252412454,-0.008239814333467689,0.017264391843824327,0.0628873109817504,-0.8880290985107422,-0.504220187664032,-0.0628552660346031,-0.4170927703380584,0.0668367221951484
1749049473.8544097,0.3854810255402171,-0.8569852712553139,1.9774694861814681,3.1056007104375065,2.4953101661005173,-3.0518618450399813,0.006884395359357357,0.004443436437848561,-0.0016482146082074497,0.002455948440423138,-0.009140333946549128,0.01814792268296561,0.0874772146344184,-0.9007978439331056,-0.5149685144424438,-0.064788207411766,-0.4239831268787384,0.0620153471827507
1749049473.8544478,0.38549390743025175,-0.8569744971369487,1.9774649665403252,3.105606802400532,2.495292138080847,-3.051826741375623,0.008184582305044645,0.004723950744786448,-0.002283561888888166,0.00299480494403944,-0.01000173800301305,0.01898926127252006,0.0623749122023582,-0.9022749662399292,-0.504227876663208,-0.0684835314750671,-0.4109206795692444,0.0765201821923255
1749049473.8544855,0.38550935813445497,-0.8569631285253992,1.977459662220471,3.10561441955966,2.4952734759455506,-3.0517906114704374,0.009512337983973048,0.004986017519233801,-0.002988171383931976,0.003582101780883063,-0.010810372067245728,0.019834115248153,0.0734872594475746,-0.8746595978736877,-0.517440676689148,-0.0581022463738918,-0.4253877699375152,0.106143020093441
1749049473.8545232,0.3855273796034285,-0.8569513400502542,1.9774535335205343,3.105623622649254,2.495254323196701,-3.051753481810066,0.010835626759831584,0.005225578008476521,-0.003750931049779007,0.0042079352521633565,-0.011554203707780226,0.02073086579004171,0.0894119888544082,-0.8757476210594177,-0.5394854545593262,-0.0647701174020767,-0.4252859950065613,0.1075432822108268
1749049473.85456,0.38554792837003343,-0.8569393213876342,1.9774465356925612,3.105634419257155,2.495234792690614,-3.0517152552782245,0.012122212901119863,0.005438467869387887,-0.004558594618350763,0.004860049406341585,-0.012222848544472148,0.02172631210549607,0.1067112833261489,-0.8960000276565552,-0.561264157295227,-0.0566616542637348,-0.4270619750022888,0.1398321092128753
1749049473.8545976,0.3855709228990952,-0.8569272629087776,1.97743861596963,3.1056467626774387,2.4952149624693876,-3.0516757096437193,0.013341195082044793,0.005620641791951127,-0.005396417845582286,0.005524326127629593,-0.012807565281019197,0.022861919903687765,0.1202355399727821,-0.8998397588729858,-0.555657148361206,-0.040980365127325,-0.4349622428417206,0.1452691406011581
1749049473.854635,0.38559625108154694,-0.8569153415477677,1.977429711461723,3.1056605554334586,2.495194873711569,-3.0516345036334096,0.014464513706933375,0.005768489507038563,-0.006248816779131624,0.006185499474289493,-0.013301276465539847,0.02417088143178691,0.1115918233990669,-0.9021905660629272,-0.5519089698791504,-0.0604332722723484,-0.4588964283466339,0.1116545349359512
1749049473.8546724,0.38562377739423476,-0.8569037083860742,1.97741974891383,3.1056756570754973,2.495174530656118,-3.051591189042,0.015468372578611283,0.005879209386051079,-0.007100045916703967,0.006828023293681591,-0.013698683573694777,0.025676140246973803,0.1213341802358627,-0.8898909687995911,-0.5613844394683838,-0.0691939294338226,-0.4555555284023285,0.1310980021953582
1749049473.8547094,0.38565334894071673,-0.8568924790790557,1.9774086470525019,3.1056918950404633,2.495153902603947,-3.051545227590753,0.016334500447678656,0.00595118440909308,-0.00793487574830453,0.007436986636185213,-0.013996531317939254,0.02738939772690362,0.1206958293914794,-0.904954433441162,-0.5649296045303345,-0.0647821351885795,-0.458472192287445,0.1579021364450454
1749049473.8547463,0.38568479958012236,-0.8568817277170859,1.977396321640849,3.105709077087272,2.495132928294031,-3.0514960118768797,0.017051159508598302,0.005984299715796997,-0.008739232409289545,0.007998973820024055,-0.014194031048006962,0.02931102202042597,0.1153032928705215,-0.9149836301803588,-0.5807052254676819,-0.0575353428721427,-0.4514282941818237,0.1499638259410858
1749049473.8547838,0.3857179518736736,-0.8568714843021603,1.977382692662969,3.1057270040157117,2.495111522910598,-3.0514428904353634,0.017613799307889887,0.005980151248067693,-0.009500770489503398,0.008502797517522481,-0.014293390718080966,0.031430722795650325,0.099920243024826,-0.9044980406761168,-0.5986548066139221,-0.0598170310258865,-0.4742726385593414,0.162703588604927
1749049473.854821,0.3857526172863118,-0.8568617358551657,1.977367692529346,3.105745481712313,2.495089587666921,-3.0513851972023787,0.018025271135417884,0.005942114946869629,-0.01020937281208346,0.008940070175653634,-0.01430034555240979,0.033728827593059535,0.1334906369447708,-0.9220518469810486,-0.5970234870910645,-0.0619611665606498,-0.4698373675346374,0.1680147051811218
1749049473.8548577,0.3857885954779202,-0.8568524310501436,1.9773512740035708,3.1057643318527997,2.495067021431203,-3.0513222852588093,0.01829556578880639,0.00587526850825318,-0.01085758146166601,0.009305600273044863,-0.014224557719848221,0.036177990660037615,0.1087458357214927,-0.9119425415992736,-0.5868732929229736,-0.0572615340352058,-0.4543468952178955,0.1725883930921554
1749049473.854895,0.3858256735032582,-0.8568434879779594,1.9773334167444425,3.10578340082952,2.4950437333353634,-3.0512535637667586,0.01844110328830902,0.005786178666350129,-0.011440950615383486,0.009597602591704927,-0.014079758524714105,0.03874517842457044,0.1143658384680748,-0.9178743958473206,-0.6038304567337036,-0.0440873280167579,-0.4385258555412292,0.1896252930164337
1749049473.8549323,0.385863625669635,-0.8568348042148245,1.9773141318002543,3.1058025665973723,2.495019654832063,-3.0511785358667334,0.018483661389299848,0.005682584676090823,-0.0119582852784158,0.009817709142613512,-0.013883541962856188,0.041393803442345285,0.107447326183319,-0.9029037356376648,-0.595949113368988,-0.0632099136710167,-0.4536625742912292,0.1959509551525116
1749049473.8549688,0.3859022150879128,-0.856826267935131,1.9772934637963118,3.1058217430494497,2.4949947493564375,-3.051096834267234,0.01844906096051828,0.0055730211527599705,-0.012411711557885953,0.009970772331492617,-0.013656781164113257,0.044085914513876494,0.1110388711094856,-0.8892657160758972,-0.6053612232208252,-0.0685527101159095,-0.4687320590019226,0.2019252479076385
1749049473.8550055,0.3859411985187205,-0.8568177683591438,1.977271490723003,3.1058408814298333,2.4949690177926005,-3.051008250382727,0.018365726534666168,0.005466427229338962,-0.012806527770642277,0.01006446610893277,-0.013422712073921645,0.046784384896520106,0.1110388711094856,-0.8892657160758972,-0.6053612232208252,-0.0685527101159095,-0.4687320590019226,0.2019252479076385
1749049473.8554373,0.3859803362496655,-0.8568092035323568,1.9772483212338303,3.1058599684961123,2.494942498476703,-3.0509127523318544,0.018263217706884778,0.005371779973854921,-0.013150812896849782,0.010108708673664807,-0.013205780689909656,0.04945506067588016,0.1158553585410118,-0.8854923844337463,-0.6044968366622925,-0.0612293407320976,-0.4627821445465088,0.2053026854991912
1749049473.8573802,0.3860194076891764,-0.8568004838107466,1.9772240894413449,3.10587902165815,2.494915261479539,-3.050810487572786,0.01817079440296082,0.005297766625710072,-0.01345480972482135,0.010114946439982746,-0.01303036103327027,0.05206882137931411,0.1075560078024864,-0.9066901803016664,-0.6084187030792236,-0.0662742108106613,-0.4512832760810852,0.2333898097276687
1749049473.9023175,0.3860582311742703,-0.8567915306948019,1.977198947469214,3.105898081790761,2.4948873982307807,-3.0507017681007143,0.018116052381472954,0.00525247990934384,-0.013730138648454317,0.010095352099488607,-0.012919430218977151,0.054603452354626006,0.1147188171744346,-0.8811783194541931,-0.6078546643257141,-0.0661966055631637,-0.4449915289878845,0.2298339456319809
1749049473.902364,0.38609668420913756,-0.8567822721906215,1.9771730563120877,3.105917204628938,2.494859008692302,-3.0505870395315875,0.018123659829631395,0.0052431012002187765,-0.013988921061491863,0.01006200126334266,-0.01289326299955554,0.05704514802082103,0.1358843743801117,-0.8847731947898865,-0.6033690571784973,-0.0875276774168014,-0.4574348330497741,0.2133333534002304
1749049473.9024036,0.38613471934392307,-0.8567726368066081,1.977146575654704,3.1059364517337826,2.4948301886199413,-3.0504668384521945,0.018214242517550674,0.005275543413131053,-0.01424289552400244,0.010026101472546315,-0.012968204426993372,0.05938940506677101,0.14105886220932,-0.8724002242088318,-0.6333256363868713,-0.0590790063142776,-0.4617507457733154,0.2150205373764038
1749049473.9024484,0.38617237182903424,-0.8567625484173573,1.9771196532567148,3.1059558820706608,2.494801018804441,-3.050341743796348,0.01840348603043457,0.0053540568068178584,-0.014502603479774896,0.009997348181904345,-0.013155600423255115,0.061641071001638466,0.1475121974945068,-0.8675939440727234,-0.6202461123466492,-0.0698300451040268,-0.4614415764808655,0.1802125573158264
1749049473.9024894,0.38620975752405173,-0.8567519239024552,1.9770924145060278,3.105975545101151,2.4947715570606728,-3.0502123277393656,0.018701530334859152,0.0054808360104702716,-0.014776714361395589,0.009983468146088071,-0.013460997930514506,0.06381339767824556,0.1555984169244766,-0.8606603145599365,-0.6258712410926819,-0.0778606832027435,-0.4810746908187866,0.2089483588933944
1749049473.902527,0.3862470620775519,-0.8567406748502452,1.9770649528182598,3.1059954758788577,2.4947418328180038,-3.050079110578381,0.019112720484239565,0.005655685697577708,-0.015071553259538214,0.009989982115753075,-0.013883743593664557,0.06592609747346061,0.1982648372650146,-0.8716557621955872,-0.636938750743866,-0.0666899383068084,-0.4905006289482116,0.2244827300310135
1749049473.9025643,0.38628452406688635,-0.8567287135628844,1.9770373216417505,3.1060156922717828,2.494711843807133,-3.04994252294466,0.019635751123791925,0.005875802498990064,-0.015390879639718094,0.010020185751647313,-0.014417088353045511,0.06800258531266294,0.2059518694877624,-0.8751747608184814,-0.6406501531600952,-0.0708102881908416,-0.4967569410800934,0.222018763422966
1749049473.9026031,0.38632241525662847,-0.8567159622833698,1.977009528869889,3.1060361944267987,2.494681554411752,-3.049802877649854,0.02026420066049027,0.006135722210674677,-0.015735936844657718,0.010075322316993523,-0.015048836733185845,0.07006676517592622,0.1849669367074966,-0.8384183049201965,-0.6425193548202515,-0.0630745738744735,-0.4915938675403595,0.2111611813306808
1749049473.9026408,0.3863610207468135,-0.8567023635843728,1.9769815344056796,3.1060569667604936,2.494650895414847,-3.0496603526300663,0.02098739618230673,0.006427472155270904,-0.016105754878344078,0.010154908127282824,-0.015762481954018814,0.07213982210797357,0.1932325214147567,-0.8409926891326904,-0.6390770673751831,-0.0608517825603485,-0.4897045493125915,0.244726076722145
1749049473.902678,0.3864006211012176,-0.8566878896174026,1.9769532513700492,3.106077982619531,2.4946197650380824,-3.0495149860009336,0.02179150022096781,0.006740955496299811,-0.016497657477649252,0.010257168848721954,-0.016538678010049563,0.0742374700253112,0.1791578531265258,-0.8541579246520996,-0.6521939635276794,-0.0784270316362381,-0.4959007203578949,0.2366609424352646
1749049473.902715,0.3864414778692102,-0.8566725483422032,1.9769245509900286,3.1060992111429293,2.4945880314871083,-3.0493666840160896,0.022660688136384003,0.007064568288926624,-0.01690790852704486,0.010379545635559232,-0.017356848838641265,0.07636799468906127,0.2283187359571457,-0.8453537225723267,-0.6499365568161011,-0.0668137669563293,-0.4969429671764374,0.2158454060554504
1749049473.9027517,0.3864838232262819,-0.856656385723581,1.9768952707427505,3.1061206251501834,2.494555537583456,-3.0492152421888954,0.0235782987526388,0.0073860098333663774,-0.017332427909207273,0.010519230013124199,-0.018196730094484123,0.07853127566190483,0.2054307907819748,-0.8574874997138977,-0.6668212413787842,-0.0502618849277496,-0.4952733814716339,0.23067307472229
1749049473.9027882,0.3865278537609923,-0.8566394839917815,1.9768652250870513,3.1061422085534187,2.494522108117225,-3.0490603785522397,0.024527879673930237,0.007693205951000599,-0.017767501328300548,0.010673683654585717,-0.019039670030248392,0.08071883301355957,0.2254629582166671,-0.8370519280433655,-0.6708593368530273,-0.06299489736557,-0.4914375841617584,0.2644842565059662
1749049473.9028246,0.3865737278331999,-0.8566219569869514,1.976834218027947,3.106163961984588,2.494487560027086,-3.04890177603146,0.025494089798617014,0.007975241661521465,-0.018210399962626227,0.010841095431109114,-0.019869569432427882,0.08291485201071871,0.2283622324466705,-0.8690598607063293,-0.6529437303543091,-0.0673201531171798,-0.4904548823833465,0.2355202138423919
1749049473.9028614,0.3866215654339789,-0.8566039438522368,1.9768020565661533,3.106185905846,2.4944517145867455,-3.048739128716792,0.02646344338054463,0.008223201437340354,-0.018659823107566142,0.011020726399098024,-0.020673406732370413,0.08509806771785129,0.2382357567548751,-0.867689311504364,-0.6495065689086914,-0.0901915282011032,-0.5044703483581543,0.2444540411233902
1749049473.9028974,0.3866714491794392,-0.856585601899439,1.976768563721361,3.106208080607925,2.4944144101014176,-3.0485721852629997,0.027424876515892933,0.008430833352444447,-0.019116090335276056,0.011213097861926853,-0.021441363506864868,0.08724430156683508,0.2242552787065506,-0.859881579875946,-0.6649008989334106,-0.0807028263807296,-0.5093511939048767,0.2523413002490997
1749049473.9029336,0.38672342531400017,-0.8565670988595355,1.976733589588441,3.106230544753874,2.49437551371407,-3.0484007824968584,0.028370103959731125,0.008594976908334542,-0.01958104343631413,0.011419993954595989,-0.02216662459883255,0.08932933730631488,0.2434846460819244,-0.8554803133010864,-0.6946315169334412,-0.0637646466493606,-0.495171308517456,0.2386686503887176
1749049473.9029698,0.3867775044966108,-0.8565486043985393,1.9766970191652538,3.106253371147666,2.494334931513237,-3.0482248639224476,0.02929373494924319,0.008715719593247908,-0.020057669065025794,0.01164427968992953,-0.022844961831517276,0.09133175210689276,0.250297337770462,-0.8720805048942566,-0.6842522621154785,-0.0589511543512344,-0.5172179937362671,0.2341171652078628
1749049473.903011,0.3868336631253814,-0.8565302808036834,1.9766587764845156,3.10627664260106,2.494292616505269,-3.048044480839882,0.030193139823829703,0.008796273865836602,-0.0205495063967766,0.011889568325425915,-0.023474215837304874,0.09323531813230895,0.2348804622888565,-0.8792624473571777,-0.6974999308586121,-0.0706855505704879,-0.5037394165992737,0.234302133321762
1749049473.903049,0.3868918462479973,-0.8565122729829979,1.9766188254230008,3.1063004471391955,2.4942485739130813,-3.0478597773223446,0.03106809495047563,0.008842592419768399,-0.021059940684123615,0.012159793420107269,-0.024053777920076437,0.09503066149509148,0.2498052418231964,-0.8899484872817993,-0.7042592763900757,-0.0663298815488815,-0.5265982747077942,0.2160060554742813
1749049473.9030864,0.3869519725765128,-0.8564946982187307,1.9765771679287094,3.1063248732194606,2.4942028630335127,-3.047670963266853,0.03192026686868309,0.008862765801408467,-0.02159149341420843,0.012458744828256357,-0.024584157151199243,0.09671598940528008,0.261340856552124,-0.8498027324676514,-0.7124862670898438,-0.0691829770803451,-0.5313751697540283,0.2220187038183212
1749049473.9031236,0.3870139414496364,-0.8564776364209906,1.9765338402396102,3.1063500051620725,2.4941555949391034,-3.047478281419717,0.03275261659863709,0.008866271794118887,-0.0221452079901848,0.012789619390785484,-0.02506669743464288,0.09829684780099679,0.2630142569541931,-0.8625335097312927,-0.6953641772270203,-0.0650378316640853,-0.5331528186798096,0.2457920014858245
1749049473.9033945,0.3870776414841008,-0.8564611219451103,1.9764889073818106,3.106375919181325,2.494106925783696,-3.0472819745160993,0.033568805609104885,0.008863160480163647,-0.022720207892520612,0.013154624320332771,-0.02550347602940469,0.09978502196824564,0.2514680027961731,-0.8521813750267029,-0.7197826504707336,-0.0718638449907302,-0.5280995965003967,0.2239892184734344
1749049473.9053793,0.38714296104062845,-0.8564451382435111,1.9764424562544463,3.1064026804422458,2.494057046147478,-3.0470822576975003,0.0343726669587583,0.00886325376138034,-0.023313480885397687,0.013554659341429394,-0.025897367511692998,0.10119681205223524,0.2677035927772522,-0.8457569479942322,-0.7338074445724487,-0.0636689811944961,-0.5248759388923645,0.2344698011875152
1749049473.9462814,0.38720980071257294,-0.8564296165162943,1.9763945879532492,3.1064303414422736,2.494006167356047,-3.0468792995657843,0.035167778448213345,0.008875420219037514,-0.02391991998715004,0.013989095233587524,-0.026252208986488414,0.10255098293493477,0.2499419450759887,-0.8354772925376892,-0.7209599614143372,-0.0575122386217117,-0.5104591250419617,0.2485169321298599
1749049473.9463274,0.3872780872842398,-0.8564144390491495,1.976345410314655,3.1064589418133277,2.4939545058855557,-3.046673213143678,0.03595715250981108,0.008906968699364115,-0.024532624636129208,0.014455661616039837,-0.02657297397190566,0.10386669573868877,0.2860050797462463,-0.8436384201049805,-0.7166702151298523,-0.0644839406013488,-0.5131216645240784,0.2445661276578903
1749049473.9463685,0.38734778732760655,-0.8563994471966405,1.9762950316744223,3.1064885094414154,2.49390226696712,-3.0464640562861627,0.036743045929336686,0.008963189682936861,-0.025143430400215848,0.014950451943147789,-0.02686586555366028,0.105161682929508,0.2839562594890594,-0.8555132150650024,-0.712479829788208,-0.0569203644990921,-0.5228174328804016,0.2503642439842224
1749049473.9464073,0.38741891771091974,-0.8563844531621834,1.9762435565440442,3.106519062630182,2.493849628451721,-3.0462518400523133,0.03752688523616617,0.009047059534982926,-0.025743600473559183,0.015468044825287899,-0.027138268254653805,0.106450856722244,0.3045712411403656,-0.830099880695343,-0.741366982460022,-0.0715676546096801,-0.5308149456977844,0.2410118877887725
1749049473.9464483,0.38749155041436373,-0.8563692541151637,1.9761910834973362,3.1065506128523754,2.4937967259533873,-3.046036542997285,0.038309291475652825,0.009159112060309327,-0.02632459087208548,0.01600172912318229,-0.027398535029670452,0.10774547444335407,0.3015530705451965,-0.8340121507644653,-0.725483775138855,-0.0586194396018981,-0.5340080857276917,0.2670747935771942
1749049473.946487,0.3875658099974032,-0.8563536470659017,1.976137705090678,3.106583167432633,2.493743640388217,-3.0458181289392656,0.03909017227523052,0.009297477418977783,-0.026878799002186357,0.016543810363130525,-0.027655616282730635,0.10905292955250251,0.3054963052272796,-0.8254730701446533,-0.7252262830734253,-0.0653367787599563,-0.5378437638282776,0.2515886127948761
1749049473.9465249,0.3876418631346279,-0.8563374433228468,1.9760835091199547,3.1066167314151745,2.4936903892829387,-3.04559656542222,0.03986884140965258,0.009458085847325222,-0.02740021530699736,0.017085969298259854,-0.027918559236855045,0.11037716542059754,0.2997967898845672,-0.8255881071090698,-0.7172410488128662,-0.0480372756719589,-0.538074254989624,0.226504847407341
1749049473.9465623,0.38771990046400345,-0.8563204819277866,1.9760285801315536,3.106651308010993,2.493636923342787,-3.045371839967695,0.04064413443355128,0.0096350266232576,-0.027884912620014895,0.017619639343819833,-0.02819592376277095,0.11171961137878739,0.2991617321968078,-0.8307110071182251,-0.7249653935432434,-0.0632441714406013,-0.5414051413536072,0.2628069221973419
1749049473.9466,0.38780011195674924,-0.8563026417217072,1.9759730000964468,3.106686897318041,2.493583129412946,-3.0451439714841904,0.04141450854433346,0.009821040635526877,-0.028331328478898896,0.018136372946793728,-0.0284951774149395,0.11308045234784041,0.3425799012184143,-0.8394563794136047,-0.7334480881690979,-0.0507484897971153,-0.5581140518188477,0.265680730342865
1749049473.946638,0.38788265858495846,-0.8562838514614135,1.975916847530784,3.106723493348843,2.493528840119234,-3.044913015051676,0.042178133523145575,0.0100081117112929,-0.028740323982166426,0.018628182946548076,-0.028822143237896683,0.11445999757575422,0.3174081444740295,-0.8497446179389954,-0.7375333905220032,-0.0571536272764205,-0.5554152131080627,0.2580406367778778
1749049473.9466753,0.3879676447398419,-0.8562640969886989,1.975860194906028,3.106761079767922,2.4934738494106856,-3.0446790596472315,0.04293298823343383,0.010188112276796854,-0.02911503310719992,0.0190878654933997,-0.029180572889336925,0.11585990431141543,0.3091708123683929,-0.8406391143798828,-0.737654447555542,-0.0537536665797233,-0.5637533664703369,0.2491526454687118
1749049473.9467125,0.3880550963876052,-0.8562434242951185,1.9758031047299083,3.106799625076403,2.4934179323218983,-3.044442219806465,0.043676972243075304,0.010353454471701095,-0.029460539837548285,0.019509319683799056,-0.029571904105985296,0.11728402652911196,0.3073205947875976,-0.8242371082305908,-0.7439417839050293,-0.0666780471801757,-0.5659191012382507,0.2383613586425781
1749049473.9467497,0.38814494873818073,-0.8562219375750388,1.9757456250397867,3.1068390781664017,2.4933608667733576,-3.0442026232430073,0.044408032939389885,0.010497696227647485,-0.029783433148785173,0.019887871189217896,-0.02999523996000304,0.11873871142216182,0.3389147520065307,-0.8317031860351562,-0.7463516592979431,-0.0469537638127803,-0.5836706757545471,0.2543555498123169
1749049473.9467864,0.3882370449728958,-0.8561997918816437,1.9756877851496566,3.106879365202668,2.493302455095039,-3.043960396836673,0.045124303639741396,0.010616051682171883,-0.030091292408079756,0.020220591588889864,-0.030447561992680415,0.12023246964651606,0.3173882961273193,-0.8374595642089844,-0.7477048635482788,-0.0750066712498664,-0.5731781125068665,0.2626290917396545
1749049473.9468231,0.3883311455207567,-0.8561771806686644,1.9756295923415272,3.1069203887243915,2.4932425429882064,-3.043715653189888,0.045824247057379926,0.01070575849320421,-0.03039214966678829,0.020506588959107994,-0.0309241605009518,0.12177507470303252,0.326693058013916,-0.8395630121231079,-0.7502654194831848,-0.0751739889383316,-0.5870845317840576,0.2408913820981979
1749049473.9468603,0.3884269460786804,-0.8561543192813899,1.9755710298892926,3.106962029636955,2.493181033791828,-3.0434684793645643,0.046506795257037666,0.010766264200311414,-0.03069396481837436,0.020747230811010292,-0.03141923290192567,0.12337625540173942,0.3398980498313904,-0.8340158462524414,-0.7581775188446045,-0.052571315318346,-0.5829120874404907,0.2656255066394806
1749049473.9468968,0.3885241019957159,-0.8561314262415994,1.9755120565301914,3.1070041522966334,2.4931178963721243,-3.043218928717886,0.04717146993327851,0.010799212396085231,-0.03100414078505828,0.0209462515875274,-0.03192657189227939,0.12504420288552495,0.2999122738838196,-0.8431851267814636,-0.7499151825904846,-0.0582035221159458,-0.5843186974525452,0.2200838178396225
1749049473.946934,0.3886222566406213,-0.8561087046571975,1.9754526074159489,3.107046612264125,2.493053165768219,-3.0429670161149986,0.047818459665596794,0.010808236465073567,-0.031329101174316074,0.02110969818085769,-0.03244025173052779,0.1267841240092504,0.2992195188999176,-0.8488499522209167,-0.7633847594261169,-0.0633971914649009,-0.5950934886932373,0.2563876211643219
1749049473.9469707,0.3887210717518135,-0.8560863259938569,1.9753925966786883,3.1070892657956986,2.492986936645999,-3.0427127161805245,0.048448632878267076,0.010798596136077193,-0.031673949400543286,0.021245679739119613,-0.03295523118567789,0.12859705775331012,0.3355838656425476,-0.8219336271286011,-0.7611743807792664,-0.0704097896814346,-0.5940641164779663,0.2606109380722046
1749049473.947007,0.388820258019289,-0.8560644177938492,1.9753319218677152,3.1071319800047914,2.492919350327342,-3.042455963546426,0.04906348308639175,0.01077670821852814,-0.03204222339697593,0.02136391230429517,-0.033467819876626184,0.13047914141576353,0.3096610605716705,-0.8525741100311279,-0.7620503306388855,-0.0748658031225204,-0.6008192896842957,0.2523778975009918
1749049473.947374,0.3889196037503361,-0.8560430560462973,1.9752704704174087,3.107174642830695,2.492850576664854,-3.0421966533560285,0.04966502644377021,0.010749622638870634,-0.032435753443122606,0.021475084241226933,-0.03397598571818484,0.13242145784020767,0.3289537727832794,-0.8324093818664551,-0.7711836695671082,-0.0701156109571456,-0.5979167222976685,0.2495929896831512
1749049473.9493809,0.38901899854199795,-0.856022262166631,1.9752081278523081,3.107217172256841,2.492780792563842,-3.0419346400631184,0.05025567868833341,0.010724486017808024,-0.03285462354978821,0.021590109262825643,-0.03447950196514103,0.1344105071441871,0.2829107046127319,-0.8445905447006226,-0.763314425945282,-0.0504865832626819,-0.620453953742981,0.2645156979560852
1749049473.9903183,0.3891184482092393,-0.8560020041164272,1.9751447867386462,3.10725952443286,2.492710159601419,-3.0416697333301888,0.05083812528836951,0.010708029722292848,-0.03329723458593439,0.021719364335305594,-0.03497993938311436,0.13642924701936332,0.3327483236789703,-0.8537088632583618,-0.7750102281570435,-0.039577379822731,-0.5903597474098206,0.2534882426261902
1749049473.9903643,0.3892180776240497,-0.855982201078621,1.9750803547831774,3.107301700361017,2.492638803612609,-3.041401691549117,0.05141518636820184,0.010706120410715314,-0.033760474961485834,0.02187201163939683,-0.03548050668032397,0.1384585630166403,0.3509638905525207,-0.820997416973114,-0.7981252074241638,-0.0631608739495277,-0.6177741885185242,0.2944445312023163
1749049473.990404,0.389318119859469,-0.8559627311578969,1.9750147603068537,3.107343750580684,2.492566798848821,-3.041130215481712,0.05198968136844507,0.010723410511348775,-0.03424001248322983,0.02205547335180475,-0.035985737962800614,0.14047897330636033,0.3335152864456177,-0.8454985022544861,-0.7811954617500305,-0.0477004647254943,-0.6118606925010681,0.2677181959152221
1749049473.9904425,0.389418892602422,-0.85594344159679,1.9749479537805654,3.107385776965086,2.492494158435977,-3.0408549458785488,0.052564306196520076,0.010763116668725502,-0.034730707825842706,0.022275083172132525,-0.03650102831115131,0.14247234069099943,0.3237358331680298,-0.8242018222808838,-0.7750280499458313,-0.0331019088625907,-0.6089828610420227,0.2603006362915039
1749049473.9904838,0.3895207652083775,-0.8559241608082627,1.9748799051377297,3.107427930563756,2.4924208319020327,-3.0405754692166083,0.053141534667837186,0.010826937745169695,-0.03522711259494951,0.022533905093325958,-0.037032034729027635,0.14442336436100592,0.3085257411003113,-0.8161966800689697,-0.7594733238220215,-0.0469693690538406,-0.6312887072563171,0.2564082145690918
1749049473.990522,0.38962412108063665,-0.8559047111533615,1.9748105978350898,3.107470404538732,2.4923467098171344,-3.040291334921054,0.0537235516511259,0.010915106638763545,-0.035723980367627736,0.02283270054972374,-0.03758398811053074,0.146320661438928,0.3384214341640472,-0.8505985140800476,-0.7797963619232178,-0.0479191839694976,-0.6198374629020691,0.2560705244541168
1749049473.990559,0.3897293199465886,-0.8558849211713434,1.974740021651913,3.1075134217310385,2.492271635027841,-3.040002085763174,0.05431222662970496,0.01102655536976093,-0.03621671742408953,0.023170032128125025,-0.038160989092953984,0.14815732013531527,0.3750871121883392,-0.8390306234359741,-0.7971487641334534,-0.0336641520261764,-0.628942608833313,0.2550266087055206
1749049473.9905963,0.38983666358005953,-0.8558646362366938,1.9746681665737622,3.1075572172542865,2.4921954194455913,-3.039707300617206,0.05490913913174441,0.011159161571491038,-0.036701731853279115,0.023542499076286767,-0.03876537142743125,0.1499308978282799,0.3353827893733978,-0.8359583020210266,-0.7887592911720276,-0.0499082505702972,-0.6426548361778259,0.2401984930038452
1749049473.9906332,0.3899463675626951,-0.8558437272134196,1.974595019564082,3.107602017599576,2.4921178646913993,-3.039406645487079,0.05551566259610176,0.011310038307932554,-0.037176676569653365,0.023945097649101715,-0.039397208342404684,0.15164293013105867,0.3479759395122528,-0.8541040420532227,-0.775086522102356,-0.0307505875825881,-0.6217509508132935,0.2477884143590927
1749049473.9906707,0.39005854153842767,-0.8558220970458583,1.974520564698537,3.1076480188181326,2.492038783927433,-3.0390999249280717,0.056133100251320706,0.011475829805994722,-0.037640593639461976,0.02437169016817455,-0.04005401992676441,0.15329809931678787,0.3479759395122528,-0.8541040420532227,-0.775086522102356,-0.0307505875825881,-0.6217509508132935,0.2477884143590927
1749049473.990708,0.39017318094468484,-0.8557996851231376,1.974444785544975,3.1076953671573273,2.4919580212740255,-3.0387871225622267,0.05676284970810398,0.011652984095395415,-0.03809395235076264,0.024815555093839297,-0.040730718398214724,0.15490327204436224,0.3465208709239959,-0.839963436126709,-0.7842952013015747,-0.0372751504182815,-0.621758759021759,0.2599973082542419
1749049473.990745,0.39029017314432685,-0.8557764690131634,1.9743676676533035,3.1077441456810635,2.491875465344926,-3.03846841859307,0.0574065528995954,0.011837987956951068,-0.03853855781524851,0.025269975490869387,-0.0414197978404679,0.1564666310793933,0.3763694763183594,-0.8258599042892456,-0.7979922890663147,-0.0408454686403274,-0.633370578289032,0.2825589776039123
1749049473.9907825,0.39040931878077406,-0.8557524631718731,1.9742891993691636,3.1077943695197545,2.4917910552833633,-3.0381441766698494,0.05806616734036506,0.012027562575246457,-0.03897731387514695,0.02572880425803736,-0.04211173256252506,0.15799706647734466,0.3370404541492462,-0.8036925792694092,-0.8145367503166199,-0.0402112528681755,-0.612060546875,0.2714087963104248
1749049473.990819,0.39053036519796397,-0.8557277145367762,1.97420937087803,3.1078459905002918,2.4917047803263475,-3.037814901485751,0.058743885510551055,0.012218821114426614,-0.039413851245105984,0.02618693021894404,-0.0427955077883549,0.15950387287131237,0.3146300315856933,-0.8407215476036072,-0.7923312783241272,-0.0268053263425827,-0.6106270551681519,0.2727653980255127
1749049473.9908557,0.3906530451783617,-0.8557022954079707,1.9741281732062483,3.1078989096712255,2.4916166755213216,-3.037481177173195,0.05944184739604307,0.012409383377433492,-0.03985206179706896,0.02664057421255347,-0.04345919471712009,0.16099668014788276,0.3831518292427063,-0.8309996128082275,-0.8045141696929932,-0.0296958237886428,-0.6234403848648071,0.2648122906684875
1749049473.990893,0.3907771133061161,-0.8556762946524088,1.974045599445829,3.1079529945904856,2.491526816017779,-3.0371436002210275,0.06016164549039674,0.01259743928024693,-0.04029560174349155,0.02708737392711812,-0.044090514528937357,0.16248547937544855,0.3361701369285583,-0.8244944214820862,-0.7907984256744385,-0.0459846034646034,-0.6293810606002808,0.2337478995323181
1749049473.99093,0.3909023740304419,-0.8556498088026453,1.9739616494410948,3.1080080977742686,2.4914353112804286,-3.036802719057929,0.06090370321640195,0.012781759648786502,-0.04074743824620231,0.027526260333376507,-0.04467739480856277,0.1639806073583455,0.3274651765823364,-0.808172345161438,-0.7970969080924988,-0.0271768122911453,-0.6145879626274109,0.2292068749666214
1749049473.9909666,0.39102869840990967,-0.8556229345956661,1.9738763374020363,3.108064073370545,2.4913422997342654,-3.036458988294276,0.06166668517638039,0.012961665655802647,-0.0412095136940879,0.027957172630437264,-0.045208564509945134,0.16549260136058802,0.3296585977077484,-0.8576962947845459,-0.7865544557571411,-0.0429464131593704,-0.6182076334953308,0.2203530967235565
1749049473.991003,0.39115602915915504,-0.8555957637249509,1.9737897004170324,3.108120790338522,2.491247943938399,-3.036112741083313,0.06244713090401797,0.013136977375241552,-0.04168258608962696,0.02838069233525478,-0.045674229742267376,0.16703189948083083,0.397561639547348,-0.8664045929908752,-0.8193458914756775,-0.0354910194873809,-0.6024647951126099,0.2523438036441803
1749049473.991043,0.39128437547847655,-0.8555683794741858,1.973701805198936,3.1081781414964027,2.4911524261389593,-3.035764179184102,0.0632394685847949,0.013307961096635115,-0.04216627250189127,0.028797690433590727,-0.04606682873765335,0.16860841434034884,0.3538936376571655,-0.833164632320404,-0.8175632953643799,-0.0259556770324707,-0.6234871745109558,0.2552053928375244
1749049473.991429,0.3914138002383223,-0.8555408541277834,1.9736127506084664,3.108236048435977,2.491055943957994,-3.0354133776662238,0.06403646269985273,0.01347528626072233,-0.04265927969749635,0.029209064935799996,-0.0463818075840354,0.17023103224028516,0.3592467010021209,-0.8428375124931335,-0.7981163859367371,-0.0082791447639465,-0.6054263710975647,0.2578340768814087
1749049473.9933784,0.39154440254686895,-0.8555132460289384,1.9735226642859356,3.1082944626672417,2.490958706056882,-3.0350602999980625,0.06483001174236488,0.013639993898883287,-0.04315976064067801,0.02961560362813872,-0.04661830720291679,0.1719070852562336,0.3411627411842346,-0.8363683819770813,-0.799502968788147,-0.0261230319738388,-0.5822680592536926,0.2632651329040527
1749049474.0342937,0.39167629864953457,-0.8554855958594411,1.973431692948923,3.108353363716863,2.4908609276761453,-3.034704819255816,0.06561209979802599,0.013803472575389842,-0.04366570258819064,0.03001795862275282,-0.046779613281446995,0.17364182239743184,0.3359634280204773,-0.8420016169548035,-0.8078230023384094,-0.0299963429570198,-0.578027606010437,0.2599984407424927
1749049474.0343385,0.39180960361041217,-0.8554579226921588,1.9733399874692557,3.108412755247143,2.4907628258913426,-3.0343467419189305,0.06637567245232526,0.013967432108045559,-0.04417524814671639,0.03041668571958197,-0.046873209967767414,0.17543789137399093,0.3590361475944519,-0.8456204533576965,-0.8123500347137451,-0.0300822779536247,-0.5892466306686401,0.2580012083053589
1749049474.0343788,0.39194441552625997,-0.8554302209531102,1.9732476852979628,3.108472660332479,2.49066461430188,-3.0339858317156074,0.0671152591519047,0.014133860112829888,-0.04468687857565826,0.030812288678175304,-0.04691032465933661,0.17729485552516308,0.3188166320323944,-0.8400184512138367,-0.8046259880065918,-0.0299930199980735,-0.5801374912261963,0.2560297846794128
1749049474.034418,0.39208080337532264,-0.8554024592751522,1.9731548936456305,3.1085331166823167,2.490566496675363,-3.0336218318797186,0.06782726477667567,0.014304945981217353,-0.04519943459333365,0.031205213369829073,-0.04690496673129758,0.17920881284280737,0.3375058770179748,-0.8422183394432068,-0.7907689213752747,-0.0361742973327636,-0.6082265973091125,0.278826355934143
1749049474.034456,0.3922187991257128,-0.8553745816098783,1.9730616768822662,3.1085941720570953,2.49046865889697,-3.033254484851336,0.06850995894429836,0.014482961127643596,-0.04571199366019899,0.03159575746251628,-0.046872607798888986,0.18117223483713799,0.3640176653861999,-0.8452543616294861,-0.8065832257270813,-0.029463417828083,-0.5928390026092529,0.2692701816558838
1749049474.034495,0.3923583944270773,-0.8553465104226079,1.9729680509094014,3.108655879801888,2.490371258826345,-3.032883549032161,0.0691632688012519,0.014670089919753562,-0.04622365155704781,0.03198389471193624,-0.04682875303402278,0.18317416751289128,0.3609971404075622,-0.84227454662323,-0.8019576668739319,-0.0348753854632377,-0.5823520421981812,0.2608700394630432
1749049474.034533,0.3924995420689565,-0.8553181515352352,1.9728739857667066,3.1087182944952,2.490274414561804,-3.032508812832451,0.0697885068025507,0.014868213476800169,-0.04673326734180878,0.03236904956146652,-0.04678766844956668,0.18520090284656052,0.3704500794410705,-0.832271933555603,-0.7935764193534851,-0.0371377766132354,-0.6064184904098511,0.2383342683315277
1749049474.0345705,0.39264216224572945,-0.8552894000752498,1.9727794157828196,3.108781467983874,2.4901781927211974,-3.0321301067512785,0.07038813213824965,0.015078661549109624,-0.047239227348771604,0.03274988540959664,-0.046761472992594075,0.18723713115219429,0.3557087779045105,-0.832106351852417,-0.8002326488494873,-0.0355347096920013,-0.611629843711853,0.2677637040615082
1749049474.034608,0.39278615316610027,-0.8552601469719389,1.9726842548853207,3.1088454462254735,2.4900825989724384,-3.0317473141547544,0.07096557309515732,0.015301963815852951,-0.04773927131924669,0.03312418010474723,-0.0467597195465442,0.1892674584362122,0.338196188211441,-0.8223803043365479,-0.7750735282897949,-0.015739731490612,-0.6107562184333801,0.282541811466217
1749049474.0346448,0.39293140455109615,-0.8552302855975298,1.9725884137986252,3.1089102671931723,2.4899875728436123,-3.031360380490755,0.07152507139050714,0.015537643175693491,-0.04823040970679012,0.03348884985728616,-0.0467895016567721,0.1912780738111637,0.363583505153656,-0.8367630839347839,-0.7709078192710876,-0.0269957445561885,-0.6124539971351624,0.2715059518814087
1749049474.034682,0.39307781156135063,-0.8551997184171986,1.9724918158752252,3.108975959709234,2.4898929879694194,-3.0309693193625185,0.0720714860146301,0.015784092431016628,-0.04870895474485973,0.03384014649369205,-0.0468560349978696,0.19325831087844803,0.3350818157196045,-0.8290634751319885,-0.8076748847961426,-0.0434220992028713,-0.6140154600143433,0.2627127468585968
1749049474.034719,0.39322528644351146,-0.8551683636083569,1.9723944090929313,3.109042542771222,2.4897986578449376,-3.0305742131218225,0.07261001684154497,0.016038561008644564,-0.049170690613200466,0.03417400317096937,-0.04696357437445751,0.1952018572564595,0.3290248215198517,-0.8208628296852112,-0.7991626262664795,-0.0402509272098541,-0.618506908416748,0.2621465921401977
1749049474.0347607,0.39337376592038475,-0.8551361613905435,1.9722961730043742,3.1091100249140657,2.4897043463235295,-3.030175205996389,0.07314585336102294,0.016297256685403803,-0.049611203580105276,0.03448646367903644,-0.04711645325316642,0.1971074121175438,0.3497495055198669,-0.8343347311019897,-0.7722259759902954,-0.0617738738656044,-0.613472044467926,0.2607625126838684
1749049474.0347986,0.39352321355242703,-0.8551030794626382,1.972197120611067,3.1091784033180305,2.4896097816790697,-3.029772489037325,0.07368379576691818,0.016555549394539997,-0.05002636182779226,0.03477412041741935,-0.04732000000948876,0.19897866695786062,0.3518199026584625,-0.8260622620582581,-0.7695062160491943,-0.0436773300170898,-0.6059179306030273,0.2769140303134918
1749049474.034835,0.39367361734824513,-0.8550691167829148,1.9720972958271583,3.1092476625558927,2.489514672900146,-3.0293662778416603,0.07422791644218266,0.016808256928718086,-0.05041288618056449,0.0350345051157809,-0.047581114984317614,0.20082358748241064,0.3532948493957519,-0.8132630586624146,-0.784385085105896,-0.020959049463272,-0.6186055541038513,0.2572231888771057
1749049474.0348728,0.3938249836514302,-0.8550343050811942,1.9719967674437706,3.109317773041557,2.4894187268073313,-3.028956785667217,0.07478132146668003,0.017049992758533944,-0.05076892101300321,0.035266402337612336,-0.04790838160331487,0.2026530923776751,0.3553154170513153,-0.8534991145133972,-0.7679917812347412,-0.0553564727306366,-0.6213909983634949,0.2950648665428161
1749049474.0349095,0.3939773289081673,-0.8549987078568029,1.9718956205973757,3.1093886894595157,2.489321664503081,-3.0285441958899315,0.07534604314834858,0.017275554255485062,-0.05109451532852537,0.03547006392702444,-0.04831169725708952,0.20447933392901302,0.3298031091690063,-0.8348429799079895,-0.7608258724212646,-0.0702380836009979,-0.6353663206100464,0.240579754114151
1749049474.034946,0.394130671259706,-0.8549624170413246,1.9717939467945873,3.1094603497254103,2.489223235527013,-3.0281286383699495,0.07592306467651254,0.017480319131923744,-0.05139194132341416,0.03564728902652947,-0.04880149898138226,0.20631385997032123,0.3596710562705993,-0.874281644821167,-0.7552090883255005,-0.0489936023950576,-0.6644502282142639,0.2825604081153869
1749049474.034983,0.39428502381139335,-0.8549255479213806,1.971691833520227,3.109532675236474,2.489123227945334,-3.027710173839736,0.0765124559836606,0.017660605018296707,-0.05166579410406827,0.03580132300515003,-0.04938770261115131,0.20816596121233463,0.317334920167923,-0.8843536376953125,-0.7687360644340515,-0.0443859994411468,-0.6711903214454651,0.2779203057289123
1749049474.0350358,0.3944403909324064,-0.8548882331715781,1.9715893544192482,3.1096055731146444,2.4890214727308884,-3.027288788890599,0.07711358331252997,0.017813945677014675,-0.051922833404207516,0.03593654787899944,-0.05007848190162789,0.21004148043069631,0.2884081304073334,-0.8514644503593445,-0.7440146207809448,-0.0623763650655746,-0.6766948103904724,0.2881838381290436
1749049474.0358272,0.3945967682086856,-0.8548506167032937,1.9714865610300047,3.109678940687361,2.488917841516545,-3.026864401975052,0.07772534543005478,0.0179392547011663,-0.052171554857767116,0.03605798983333083,-0.0508790069108386,0.21194228360955708,0.3781641721725464,-0.832827091217041,-0.7661707401275635,-0.0463065952062606,-0.6660973429679871,0.2741407752037048
1749049474.037384,0.39475414581218027,-0.8548128475552271,1.9713834769215874,3.1097526717269663,2.4888122381600395,-3.0264368787005584,0.078346396756509,0.018036876008445172,-0.052421516357659494,0.036170731216889386,-0.05179025047303804,0.2138664759870957,0.3720757961273193,-0.8325207233428955,-0.7594707608222961,-0.0525259375572204,-0.6793010234832764,0.2626250982284546
1749049474.078272,0.3949125142515508,-0.8547750736653447,1.971280094751291,3.1098266633979703,2.4887045861991774,-3.0260060530183397,0.07897534196862208,0.018108542836989545,-0.052682489328895674,0.03627935094133349,-0.052807960116361914,0.21580930926013905,0.3388157188892364,-0.8691930770874023,-0.7641229629516602,-0.0457106381654739,-0.6714049577713013,0.2706793248653412
1749049474.0783174,0.3950718710312963,-0.8547374353603698,1.9711763762770478,3.109900822823474,2.4885948156767332,-3.025571750000346,0.07961090703790613,0.018157270382083764,-0.05296354489613867,0.03638750742104485,-0.05392188022930544,0.21776459939748274,0.3901677131652832,-0.8668098449707031,-0.7626407742500305,-0.034236803650856,-0.6602013111114502,0.2645325660705566
1749049474.0783572,0.3952322267838155,-0.8547000586447723,1.971072254872935,3.109975072644612,2.4884828534575902,-3.0251338059504067,0.0802520883370209,0.018187194418638804,-0.053272206011908095,0.03649772898699429,-0.0551152988811913,0.21972637935773248,0.3318785429000854,-0.8613053560256958,-0.7772697806358337,-0.0517159402370452,-0.6538599729537964,0.2569686472415924
1749049474.0783963,0.39539360978291926,-0.8546630485720279,1.9709676397914813,3.110049355466055,2.4883686206399394,-3.024692082541205,0.08089826090030423,0.018203355363095114,-0.05361378812160138,0.036611420663158985,-0.05636499367725157,0.22169046224856506,0.3548808395862579,-0.8868963122367859,-0.7630882263183594,-0.0415709018707275,-0.6627885699272156,0.2653883397579193
1749049474.0784354,0.39555606811747823,-0.8546264830158378,1.9708624214735417,3.11012363723191,2.4882520388730867,-3.024246473172191,0.08154921352417685,0.018211427786706112,-0.05399101644015755,0.036729062670303486,-0.05764166341610294,0.22365560340552676,0.3456021547317505,-0.8646154999732971,-0.7798125743865967,-0.0313712805509567,-0.6938198208808899,0.2785692811012268
1749049474.0784736,0.3957196690701966,-0.8545904071324104,1.9707564775646167,3.110197909362598,2.488133044833263,-3.023796901510857,0.08220508962546745,0.018217406775112674,-0.05440396089546688,0.036850563940485526,-0.05891093673271546,0.2256240290900219,0.352090060710907,-0.8698898553848267,-0.7723637819290161,-0.0485142916440963,-0.6723417043685913,0.2867549061775207
1749049474.0785136,0.39588449556044475,-0.8545548288866054,1.9706496796185942,3.1102721892824277,2.488011609803714,-3.0233433139662615,0.08286624622426628,0.018227271124211526,-0.05485027877903412,0.03697572253200378,-0.06013501135507113,0.22760122592379262,0.3473767638206482,-0.8610082268714905,-0.7626358270645142,-0.0502969175577163,-0.6634445190429688,0.2743934690952301
1749049474.078552,0.3960506400035354,-0.8545197162825157,1.9705419004540914,3.1103465190818556,2.4878877601481384,-3.0228856691505106,0.08353307867338275,0.018246643065983368,-0.055325702865390756,0.03710472597578858,-0.06127488517717646,0.22959502516325095,0.3747140765190124,-0.8689704537391663,-0.7570804953575134,-0.0573591366410255,-0.6642937660217285,0.2714059352874756
1749049474.0785897,0.3962181964296735,-0.8544849972629693,1.9704330218034432,3.110420962403168,2.487761594625751,-3.0224239276133775,0.08420587309203298,0.018280462942668666,-0.05582467137832551,0.03723861021210508,-0.06229301907424506,0.23161414026039612,0.3849447071552276,-0.8485080599784851,-0.7942430377006531,-0.0513713099062442,-0.6519482135772705,0.3003559708595276
1749049474.0786266,0.3963872519946351,-0.8544505632422745,1.970322941578085,3.1104955999195316,2.487633295533229,-3.0219580442661385,0.08488473486781264,0.01833270290461862,-0.056340983053437634,0.03737959813289496,-0.06315616689484832,0.23366640868471342,0.3927854895591736,-0.8730846047401428,-0.7780724167823792,-0.0340248607099056,-0.641434907913208,0.3008124828338623
1749049474.0786636,0.3965578791495424,-0.854416276565361,1.9702115800445124,3.110570523835978,2.487503131996906,-3.021487964650674,0.08556961150609937,0.018406152056391532,-0.056868374181876555,0.037531258074377086,-0.06383806029026311,0.23575704004470024,0.3664793372154236,-0.8435380458831787,-0.7465671300888062,-0.0630953907966613,-0.6436924934387207,0.3147013187408447
1749049474.0787008,0.3967301297492212,-0.8543819810226986,1.9700988844604745,3.1106458317734154,2.487371454897659,-3.0210136252588335,0.08626039962472713,0.01850230541717339,-0.05740093833167754,0.0376984537698792,-0.06432166494411133,0.23788717177394073,0.3981313705444336,-0.8434662222862244,-0.7652091383934021,-0.0416352339088916,-0.6485809087753296,0.3342010676860809
1749049474.0787375,0.3969040321593334,-0.8543475136112746,1.9699848320848061,3.1107216204307533,2.4872386835933424,-3.020534957567491,0.08695710924314694,0.018621374509113997,-0.05793334071865285,0.037887095065744704,-0.06460081368772888,0.24005297587723726,0.3322731256484985,-0.8674834966659546,-0.7685114741325378,-0.0570119321346282,-0.6261970400810242,0.3346925377845764
1749049474.0787747,0.39707959194559783,-0.8543127156017749,1.9698694317736107,3.1107979796417244,2.487105284896744,-3.020051895065151,0.08766004975598836,0.01876241230329139,-0.058460827238572995,0.03810373245713235,-0.06468111840382501,0.24224545333782233,0.3651714920997619,-0.8423866629600525,-0.7690122127532959,-0.0442413501441478,-0.6298635005950928,0.3231217861175537
1749049474.0788124,0.39725679606126485,-0.8542774415675043,1.96975272447588,3.1108749876483226,2.4869717451074975,-3.0195643821712954,0.08836999226235503,0.018923520934365355,-0.05897908483023682,0.03835505304268882,-0.0645801216393044,0.24445091968646393,0.3621132969856262,-0.8531520962715149,-0.7651544809341431,-0.058585625141859,-0.6179400086402893,0.3235895931720733
1749049474.0788498,0.39743561967345303,-0.8542415658631095,1.969634782800272,3.1109527083277984,2.486838536597612,-3.0190723837164883,0.08908825387439563,0.019102098758547265,-0.05948404907829133,0.03864732543221081,-0.06432667303036345,0.24665206490043298,0.3856990933418274,-0.8377376794815063,-0.7697421908378601,-0.0594748593866825,-0.6186988353729248,0.294253408908844
1749049474.0788872,0.3976160341161422,-0.8542049867437089,1.9695157095317062,3.1110311907003814,2.48670608141092,-3.0185758937337797,0.08981665430715396,0.019295087623964802,-0.05997176083824992,0.03898581928602651,-0.06395953722298413,0.2488294047817696,0.3595850169658661,-0.8460665941238403,-0.7703391313552856,-0.0347907170653343,-0.604432225227356,0.3044846355915069
1749049474.0789242,0.3977980142857593,-0.8541676287356361,1.9693956346678896,3.1111104705278065,2.4865747152198923,-3.018074942636382,0.09055732063646782,0.019499194086098178,-0.060438350516747064,0.039374214571259974,-0.0635252784767485,0.2509629436146565,0.3420290350914001,-0.8355304598808289,-0.7743735313415527,-0.0454554930329322,-0.6161866188049316,0.3211502730846405
1749049474.0789623,0.3979815442325242,-0.8541294439563918,1.9692747103716532,3.111190573416709,2.486444655466553,-3.0175696020858838,0.09131235105826781,0.019711069043565763,-0.06088018912690256,0.03981403303421703,-0.06307552005673892,0.2530339123115838,0.4119723737239837,-0.8303461670875549,-0.7840372920036316,-0.0076628625392913,-0.620197057723999,0.3080214858055115
1749049474.0789993,0.3981666204160346,-0.8540904129086944,1.9691531033545187,3.1112715186270803,2.4863159774361088,-3.0170599867982704,0.09208337485620612,0.01992743569029686,-0.06129420074098047,0.04030416307326139,-0.0626637350417382,0.2550264832472146,0.3988600671291351,-0.8409875631332397,-0.756014347076416,-0.0250246673822402,-0.6339273452758789,0.3352302014827728
1749049474.079364,0.39835325255036186,-0.8540505450025193,1.9690309846471343,3.111353322723041,2.4861886013946095,-3.0165462525177564,0.09287106003096664,0.020145161197239553,-0.0616782895346423,0.04084057602627101,-0.06234178045825367,0.25692935770133635,0.3856384456157684,-0.846796452999115,-0.756805419921875,-0.0249555334448814,-0.6229089498519897,0.307518720626831
1749049474.08135,0.3985414619631214,-0.8540098787318947,1.9689085173085177,3.111436002297411,2.4860622928419187,-3.016028589916706,0.09367463270323734,0.020361279687601513,-0.062031802601082264,0.04141631321879739,-0.06215642803020209,0.25873708069183415,0.4226429164409637,-0.8377747535705566,-0.7469708919525146,-0.0051706731319427,-0.6450163125991821,0.291164755821228
1749049474.122273,0.39873127729744223,-0.8539684809985317,1.9687858431613934,3.1115195752410454,2.4859366764699327,-3.015507215097112,0.09449149102987497,0.020572991078330313,-0.06235593393361943,0.04202175990289983,-0.06214616306085564,0.2604509032741839,0.4151873290538788,-0.8262486457824707,-0.7530156373977661,-0.0340281575918197,-0.6634960174560547,0.3057791292667389
1749049474.1223197,0.3989227276568175,-0.8539264446763976,1.9686630699475867,3.1116040603403246,2.485811262751727,-3.01498235780226,0.09531701183622672,0.020777670070502553,-0.06265397905773258,0.0426451534241691,-0.06233851228454242,0.26207902853738213,0.4218931198120117,-0.8230631351470947,-0.7449572682380676,-0.0128580778837203,-0.6685927510261536,0.3105814456939697
1749049474.122361,0.399115833914281,-0.8538838834832748,1.9685402603004576,3.111689475345771,2.485685484520769,-3.0144542479787955,0.09614463667778719,0.02097291149025698,-0.06293137066302412,0.0432732389852054,-0.06274811878201239,0.2636361555822751,0.3507528901100158,-0.8418412208557129,-0.7529386281967163,-0.0485887452960014,-0.6520044207572937,0.3232458531856537
1749049474.1223996,0.3993105994987036,-0.8538409237454575,1.9684174237022436,3.111775834054784,2.4855587397834586,-3.01392310072746,0.09696627177728025,0.02115661635659404,-0.0631954600935746,0.0438919920716606,-0.06337571125398038,0.2651423419809653,0.3960323333740234,-0.8402053117752075,-0.7726336121559143,-0.0196759477257728,-0.6618438959121704,0.3219756484031677
1749049474.1224377,0.3995070022879671,-0.8537976935823278,1.9682945122968043,3.111863143220338,2.4854304365908604,-3.0133890999550617,0.09777296267282663,0.0213271017587958,-0.06345505532256833,0.04448734586013352,-0.06420803143186325,0.2666212854590999,0.3946507573127746,-0.8381823301315308,-0.792770266532898,-0.0316730663180351,-0.6702736020088196,0.3312466442584991
1749049474.122476,0.399704989230969,-0.8537543110259818,1.9681714211853274,3.1119513999508155,2.48530003605586,-3.0128523821537287,0.09855574505870707,0.021483207574456698,-0.06371976905064856,0.045045874598905446,-0.06521870562633449,0.26809814903274903,0.3764833807945251,-0.8281583189964294,-0.7527518272399902,-0.0460450798273086,-0.6878471970558167,0.2970925271511078
1749049474.122513,0.39990447490270187,-0.8537108731232876,1.9680479936477113,3.112040589688087,2.485167090324436,-3.012313022696,0.09930654345088147,0.02162437584522829,-0.06399925240844158,0.04555539553443063,-0.06636998224579571,0.2695970429918516,0.3546019494533539,-0.8341066837310791,-0.7945122122764587,-0.0346779897809028,-0.6596063375473022,0.2785288095474243
1749049474.12255,0.40010534436474293,-0.8536674478286386,1.967924031455929,3.1121306843086187,2.4850312732543847,-3.0117710270882934,0.10001898375957037,0.021750689412034785,-0.06430239375740465,0.04600547538148221,-0.06761520220411182,0.2711382979797419,0.3524328768253326,-0.8390655517578125,-0.7784105539321899,-0.0504113547503948,-0.6634026169776917,0.2835175991058349
1749049474.1225886,0.4003074597705019,-0.8536240696313013,1.967799309861422,3.112221639937575,2.4848924024457832,-3.011226328973088,0.10068900261158828,0.02186286754708018,-0.0646365662488269,0.04638785853939163,-0.06890182027148747,0.2727357666647696,0.3947963714599609,-0.8262296915054321,-0.8029439449310303,-0.0381265953183174,-0.6779388785362244,0.2955221533775329
1749049474.1226263,0.40051066959741394,-0.8535807388416784,1.9676735959597957,3.1123133947213097,2.4847504518426113,-3.0106787959295924,0.10131517424267442,0.021962222092520797,-0.0650070118522991,0.046696851805958874,-0.07017475970457432,0.27439454505783223,0.365343689918518,-0.8293536305427551,-0.7949470281600952,-0.0315817706286907,-0.6835840344429016,0.3375977277755737
1749049474.1226642,0.400714819423426,-0.8535374237811441,1.9675466683558598,3.112405867516887,2.484605554380651,-3.0101282433710086,0.10189872040145188,0.02205057846313685,-0.06541643680498192,0.04692968564510988,-0.07137986727455677,0.2761095988035969,0.3516966104507446,-0.8178502321243286,-0.7847207188606262,-0.0364305526018142,-0.6441624760627747,0.3411922454833984
1749049474.122702,0.4009197635047542,-0.8534940650340148,1.9674183357965662,3.1124989586360727,2.484457994366353,-3.009574455632429,0.1024432038931471,0.02213016589564795,-0.06586485966072378,0.04708683056860145,-0.0724672388580035,0.27786571355792683,0.3542008996009826,-0.8295128345489502,-0.7947477102279663,-0.0571868121623992,-0.644787073135376,0.324984461069107
1749049474.1227388,0.401125376527369,-0.8534505812502923,1.9672884527293364,3.112592553293868,2.484308189659583,-3.009017211602374,0.10295393655362638,0.022203482404005895,-0.06634971259202449,0.047172208245370384,-0.07339420648935119,0.27963894653388516,0.3766481280326843,-0.857858419418335,-0.8182132840156555,-0.0664070695638656,-0.6519855260848999,0.3107787072658539
1749049474.1227758,0.4013315645859331,-0.8534068763271467,1.9671569302540115,3.112686527622312,2.4841566642653246,-3.0084563106279907,0.1034371764006661,0.022273142355559335,-0.0668661656857535,0.047193226738870594,-0.07412782345414161,0.2813994197874757,0.3844368457794189,-0.8093112707138062,-0.8172767758369446,-0.0533877983689308,-0.6381841897964478,0.313558280467987
1749049474.1228127,0.40153827396153063,-0.8533628479200062,1.9670237413957274,3.112780756459736,2.484004012508469,-3.007891593792142,0.10389924774255065,0.022341720739570407,-0.06740762769925435,0.047160588075226724,-0.07464674648379856,0.2831149989712892,0.3570884168148041,-0.8213549256324768,-0.8197030425071716,-0.0637500882148742,-0.6273794174194336,0.3178100287914276
1749049474.1228497,0.40174549600369847,-0.8533183971268806,1.9668889200499633,3.1128751217753967,2.483850856664229,-3.0073229564932027,0.10434576108596812,0.022411617736151582,-0.06796636594117052,0.04708784776709594,-0.07494245762460638,0.2847552495287103,0.3718810677528381,-0.8301770687103271,-0.7870830297470093,-0.0434981882572174,-0.6079456806182861,0.3341453671455383
1749049474.122887,0.4019532666025251,-0.8532734388552877,1.9667525535817452,3.1129695205718777,2.4836978009174047,-3.0067503504572177,0.10478110033928294,0.0224849717056398,-0.06853417247817713,0.04699073761544195,-0.07501976700075794,0.2862950618735976,0.3867899179458618,-0.8024570941925049,-0.8146743774414062,-0.0819139331579208,-0.5937318205833435,0.323952704668045
1749049474.1229234,0.4021616595069389,-0.8532279118809315,1.9666147700673597,3.11306387149878,2.483545385673295,-3.006173776314667,0.10520827590235746,0.022563639514045265,-0.0691029912408663,0.046886290660162346,-0.07489651825574523,0.2877174176317228,0.368971586227417,-0.8345237970352173,-0.8212299942970276,-0.0412205457687377,-0.6072527170181274,0.2868466973304748
1749049474.12296,0.40237077405743255,-0.8531817871866806,1.9664757223323965,3.1131581200414526,2.4833940469836593,-3.0055932708090998,0.10562914007002845,0.022649243081403425,-0.06966542735477232,0.046791828409632245,-0.07460244262296238,0.28901488106188356,0.3505692183971405,-0.8096269369125366,-0.7884502410888672,-0.0534703135490417,-0.6400740146636963,0.2661768198013305
1749049474.1229963,0.40258071927029065,-0.8531350731448823,1.9663355717136128,3.113252242484161,2.4832440856845395,-3.0050088946262115,0.10604486515732911,0.0227432618307653,-0.07021508592425928,0.0467238853666589,-0.07417720481886231,0.29018956673405677,0.377834677696228,-0.821069061756134,-0.7988024353981018,-0.0444540530443191,-0.61301189661026,0.2667692601680755
1749049474.123369,0.4027915969592731,-0.8530878165725075,1.9661944743901356,3.1133462485346137,2.4830956497593912,-3.0044207270258476,0.10645652376360852,0.022847138995049508,-0.07074672039213252,0.04669715659048284,-0.07366781111381206,0.2912516011602548,0.3815426230430603,-0.8058067560195923,-0.8103815913200378,-0.0394540503621101,-0.6016222834587097,0.2479162514209747
1749049474.125388,0.40300348643302814,-0.8530400994041124,1.9660525721876045,3.1134401818349757,2.4829487317529737,-3.003828871691262,0.10686559383508419,0.022962363418477245,-0.07125620734495122,0.04672355991280166,-0.0731256284622147,0.2922164377168839,0.3817601501941681,-0.8490521907806396,-0.8084842562675476,-0.0470217540860176,-0.6062175035476685,0.3196755945682525
1749049474.166328,0.4032164325920977,-0.8529920313498255,1.965909988426424,3.113534117249007,2.482803181001562,-3.003233474880753,0.10727423847476608,0.023090487580401657,-0.07174040146274589,0.04681149972507277,-0.07260325575387802,0.29310168107186235,0.3567222356796264,-0.7990134954452515,-0.8007975220680237,-0.045183926820755,-0.6095012426376343,0.3571401238441467
1749049474.1663747,0.4034304385548649,-0.8529437393263142,1.9657668282525713,3.113628154214799,2.4826587282311054,-3.0026347530630146,0.10768527881418148,0.023233054160224413,-0.0721969450060695,0.04696539970511639,-0.07215142719704683,0.2939241893086539,0.3888019621372223,-0.8066650032997131,-0.7813847661018372,-0.0459033325314521,-0.6297036409378052,0.327664703130722
1749049474.1664162,0.40364546353814784,-0.8528953547857895,1.9656231822449801,3.1137224064241913,2.4825150182275175,-3.002033023871448,0.10810187241549034,0.02339142993079394,-0.07262410168084715,0.04718554091480566,-0.07181607632300505,0.2946980911317371,0.3917810022830963,-0.8061387538909912,-0.8022807836532593,-0.042511697858572,-0.6287054419517517,0.3148664236068725
1749049474.166456,0.40386142631158584,-0.8528470003710832,1.9654791318454063,3.1138169891293654,2.4823716454754745,-3.001428732226646,0.10852699948273829,0.02356657574702845,-0.07302066423721013,0.04746820865994551,-0.0716356799059258,0.29543404636898646,0.3658942580223083,-0.8196994066238403,-0.7933264970779419,-0.0401814952492713,-0.6553616523742676,0.3062992095947265
1749049474.166494,0.40407821376440267,-0.8527987774671252,1.96533475509477,3.113912006061987,2.482228188165261,-3.0008224632411475,0.10896291516255427,0.02375879889346653,-0.07338595965404174,0.047806124722802414,-0.0716390162441125,0.29613973332368493,0.3748165369033813,-0.8213324546813965,-0.7710305452346802,-0.0343840196728706,-0.6324458122253418,0.3055653870105743
1749049474.166532,0.40429569319910375,-0.8527507560723765,1.9651901311701416,3.114007538148872,2.482084237387248,-3.000214935044649,0.10941073420463253,0.023967533288389214,-0.07371994785796727,0.04818912284800975,-0.07184347258664842,0.2968212908397335,0.4005016088485718,-0.8129122853279114,-0.786101758480072,-0.0351684466004371,-0.653264582157135,0.3306813538074493
1749049474.1665692,0.4045137266045123,-0.8527029679763163,1.9650453422851841,3.114103636010476,2.4819394199290303,-2.9996069675172823,0.10987027513948057,0.024191182444108287,-0.07402338112980139,0.048605010282841324,-0.07225400394650819,0.2974853049286584,0.3923487961292267,-0.7883521318435669,-0.7765316963195801,-0.0286045372486114,-0.674937903881073,0.3287904858589172
1749049474.166607,0.4047321856860348,-0.8526554036337018,1.9649004716843712,3.1142003177346935,2.48179341433909,-2.9989994264332447,0.11034021424797183,0.024427052197523145,-0.07429796630651013,0.04904054380373308,-0.07286279352037742,0.29814086090420705,0.3584963083267212,-0.8009517788887024,-0.7531222105026245,-0.0250279083847999,-0.6594272255897522,0.2911276221275329
1749049474.166644,0.40495096730381136,-0.8526080126058764,1.9647555968476629,3.1142975726046314,2.481645960767664,-2.9983931462030995,0.11081850526672564,0.024671396756193852,-0.07454645825292895,0.04948243830754143,-0.0736496196653662,0.29880114875171304,0.392646849155426,-0.8187829852104187,-0.7636644244194031,-0.0283254384994506,-0.6548689603805542,0.2693071663379669
1749049474.166681,0.4051700093187338,-0.8525607071726061,1.9646107778072082,3.1143953703409495,2.4814968656648615,-2.9977888379731956,0.11130294456525745,0.02491959160023499,-0.07477262187795988,0.04991832344088083,-0.0745829188889482,0.2994841514154768,0.3792899847030639,-0.8361361026763916,-0.7630884647369385,-0.0281153544783592,-0.6741018295288086,0.2565418481826782
1749049474.166718,0.405389306364553,-0.852513368664615,1.9644660416926345,3.1144936742908103,2.4813460026699166,-2.9971869930171713,0.11179173567982717,0.02516642265168894,-0.07498103720897599,0.05033756812336122,-0.07562155511840492,0.3002121334175984,0.4163069128990173,-0.824103057384491,-0.788357675075531,-0.0239015892148017,-0.7072185277938843,0.297039121389389
1749049474.1667545,0.4056089241307122,-0.8524658560340772,1.9643213659834857,3.1145924562782423,2.4811933108252866,-2.996587793772202,0.11228393192534877,0.025406451039179177,-0.07517677616173118,0.05073190355955305,-0.07671733037563414,0.30100998044677396,0.4144487679004669,-0.8319595456123352,-0.7992887496948242,-0.0247246026992797,-0.6775566935539246,0.2997105419635772
1749049474.166791,0.4058290098605507,-0.8524180160492878,1.9641766639990843,3.1146917106898786,2.4810387906811426,-2.995991045978725,0.11277968263564582,0.025634392725934783,-0.0753650235434746,0.051095794423405706,-0.07781823612559795,0.3019027939119199,0.357817679643631,-0.8301169276237488,-0.7533909678459167,-0.0416270196437835,-0.6791865825653076,0.2881713509559631
1749049474.1668274,0.4060497962714932,-0.8523696943551725,1.964031776497411,3.1147914656221376,2.4808824983677007,-2.9953961445093458,0.11328025165684498,0.025845451340501906,-0.07555072443335355,0.05142653484969588,-0.07887231494540874,0.30291334193536784,0.3688737452030182,-0.8363202810287476,-0.7861239910125732,-0.0312757641077041,-0.6633303165435791,0.3030485212802887
1749049474.1668644,0.4062715961820379,-0.8523207466482049,1.963886472662242,3.114891789278075,2.4807245377501537,-2.994802082357344,0.11378781239928515,0.026035560279982002,-0.07573831572498083,0.05172407604996699,-0.07983182932328134,0.3040599276930686,0.4098421931266784,-0.8375325202941895,-0.7923630475997925,-0.0392927527427673,-0.624305009841919,0.2835012972354889
1749049474.1669016,0.4064947858060436,-0.852271049369711,1.9637404623091423,3.1149927901519563,2.4805650512778272,-2.99420750736395,0.11430506080859723,0.026201521122078988,-0.07593156481640594,0.051990621221872105,-0.08065731440963746,0.3053550262641163,0.4094398319721222,-0.8190222382545471,-0.7773226499557495,-0.0430546998977661,-0.6777870655059814,0.3192016780376434
1749049474.1669376,0.4067197758369084,-0.8522205094473377,1.9635934192523934,3.115094609961166,2.4804042105716344,-2.9936108253397933,0.11483472710239105,0.02634105948883398,-0.07613351026821515,0.0522300480137463,-0.08132108098929564,0.30680479724521614,0.3939898312091827,-0.8233195543289185,-0.7594199776649475,-0.0351892784237861,-0.6508037447929382,0.3108362555503845
1749049474.1669743,0.40694697109984945,-0.8521690726147817,1.9634450139201003,3.1151974089565897,2.480242207669826,-2.9930103417103613,0.11537909608460278,0.026452842043509082,-0.07634647586372496,0.052447235495339244,-0.08180981235475893,0.308409387163559,0.4134617447853088,-0.8261154890060425,-0.7896180152893066,-0.0299144759774208,-0.6506515145301819,0.3481924533843994
1749049474.1670103,0.40717672189932763,-0.8521167297335398,1.9632949516157796,3.115301344386109,2.4800792470423736,-2.9924044267874668,0.11593965123604302,0.026536497229650173,-0.07657211220710769,0.052647375886856196,-0.08212600073635618,0.31016379825378637,0.4203011095523834,-0.8125696778297424,-0.7797867059707642,-0.0384546816349029,-0.6470352411270142,0.3356983661651611
1749049474.1670473,0.40740927330837284,-0.8520635202447622,1.9631430111201809,3.1154065446736863,2.4799155372544206,-2.991791682541593,0.11651693563985817,0.026592657695811425,-0.07681142053573276,0.05283533784375086,-0.0822880563496481,0.3120590032247746,0.4203011095523834,-0.8125696778297424,-0.7797867059707642,-0.0384546816349029,-0.6470352411270142,0.3356983661651611
1749049474.167406,0.4076447218381081,-0.8520095314013644,1.9629890767803426,3.1155130839716323,2.4797512800468624,-2.991171083124357,0.11711066905088181,0.0266230085281012,-0.0770647346493617,0.05301512529375109,-0.08232900536152042,0.314082952497292,0.3941756188869476,-0.8540984988212585,-0.7741725444793701,-0.0410606823861599,-0.6258583068847656,0.3228675723075866
1749049474.16937,0.40788299018970003,-0.8519548918297032,1.96283315700436,3.1156209629349654,2.4795866544236,-2.990542061897338,0.11772007361430355,0.02663030333675967,-0.07733166684826294,0.05318946355964752,-0.08229379711064944,0.31622119480327954,0.3620314598083496,-0.8452306985855103,-0.775395929813385,-0.0420336723327636,-0.6586959958076477,0.3086201250553131
1749049474.2142997,0.4081238279074555,-0.851899759003438,1.962675384586398,3.115730100553162,2.479421794997635,-2.989904528927216,0.11834426744325303,0.02661831254055987,-0.07761104895995327,0.05335955614462106,-0.08223536694807744,0.3184570143888389,0.3719641864299774,-0.837837815284729,-0.7702100872993469,-0.0361380018293857,-0.6287217736244202,0.3145483732223511
1749049474.214346,0.4083668389890677,-0.8518443022502876,1.9625159991959393,3.1158403387815667,2.4792567672111536,-2.9892588224760646,0.11898254000870225,0.026591688598341164,-0.07790091347490476,0.05352507332160719,-0.08220972915530807,0.3207712126475991,0.3792687058448791,-0.8353286981582642,-0.8048459887504578,-0.0170078203082084,-0.6264966726303101,0.3596105277538299
1749049474.2143867,0.40861153034048436,-0.8517886847147562,1.9623553170481804,3.1159514582445023,2.479091545180365,-2.98860561530581,0.11963436202491172,0.026555752605971334,-0.07819856071303528,0.05368441842239568,-0.0822704871462725,0.32314183472265917,0.3742439746856689,-0.834261417388916,-0.7783324122428894,-0.0345952659845352,-0.6420273184776306,0.3603577017784118
1749049474.2144258,0.4088573708979752,-0.8517330480708757,1.9621936946918572,3.116063201054669,2.478925998748,-2.9879458022845378,0.12029908935349255,0.026516214840390462,-0.07850074414292996,0.05383525510520156,-0.0824632415903872,0.32554419452941524,0.2980732917785644,-0.8395005464553833,-0.7542147040367126,-0.0242829546332359,-0.6279459595680237,0.3089145123958587
1749049474.214463,0.4091038509140054,-0.851677502637921,1.9620314929000646,3.11617529616065,2.4787598946843383,-2.98728039038647,0.12097545024443396,0.026478845506932674,-0.07880398043359416,0.0539752007121431,-0.08282045087532908,0.32795147964777416,0.424913614988327,-0.830869734287262,-0.7822748422622681,-0.0613103508949279,-0.6388117671012878,0.3637984991073608
1749049474.214501,0.4093505328950753,-0.8516221237641298,1.9618690445296232,3.11628748315203,2.4785929141263225,-2.986610402829739,0.12166101492368459,0.02644912018610945,-0.0791049654412221,0.05410254120503446,-0.08335733930681953,0.3303360718944432,0.4462699294090271,-0.8535411953926086,-0.7947719693183899,-0.0615617781877517,-0.6675809025764465,0.3882856369018554
1749049474.2145803,0.40959708865402517,-0.851566953849513,1.9617066284084232,3.1163995316479234,2.478424685330155,-2.985936801487508,0.12235189435265567,0.026431873901380194,-0.07940106001889662,0.05421682414721958,-0.08406942574651864,0.3326715521520987,0.4160017371177673,-0.8214267492294312,-0.7947485446929932,-0.0412036031484603,-0.6854448318481445,0.359445571899414
1749049474.2146218,0.40984332016156816,-0.8515120085532485,1.961544450232197,3.1165112548814724,2.478254828093491,-2.9852604275120607,0.12304286353645134,0.026431002851356387,-0.07969079401858652,0.05431923790557462,-0.08493212416977158,0.33493517802955486,0.3910073935985565,-0.804140567779541,-0.7785712480545044,-0.0490900427103042,-0.6704022884368896,0.3557605147361755
1749049474.2146602,0.4100891646977686,-0.8514572853394313,1.9613826308175557,3.116622517471341,2.4780830041069772,-2.984581958651519,0.12372795746862698,0.02644925561628619,-0.0799743183449289,0.054412766217901816,-0.08590263659404448,0.3371104323208019,0.3970357179641723,-0.8321095108985901,-0.7753924131393433,-0.0372702479362487,-0.6744463443756104,0.3150944113731384
1749049474.2146974,0.41033468664163475,-0.8514027722556855,1.9612212015012807,3.1167332383115913,2.477908966304274,-2.9839018816472103,0.12440141099782416,0.026488153133506342,-0.08025372426202229,0.05450217174108973,-0.0869240516825214,0.33918909791499235,0.4044735431671142,-0.8343707323074341,-0.784665048122406,-0.0489684045314788,-0.6821895837783813,0.2956408262252807
1749049474.214735,0.4105800590826545,-0.851348454841897,1.9610601059481951,3.1168433899080767,2.4777326000831823,-2.983220478218632,0.1250586936816035,0.026548056450117093,-0.08053316032468,0.05459386957344774,-0.08793124569593286,0.3411723141953259,0.3582839369773865,-0.8430288434028625,-0.7907525300979614,-0.0620033890008926,-0.6581926345825195,0.2937864363193512
1749049474.2147727,0.4108255387539799,-0.8512943196531152,1.9608992073437483,3.1169529954834805,2.4775539500176076,-2.9825378230624304,0.12569736760639727,0.026628361932573334,-0.0808187094235675,0.054695709028694375,-0.08885791827766168,0.3430702510162579,0.3436362445354461,-0.8355123400688171,-0.8154327273368835,-0.0482478439807891,-0.6333065629005432,0.3230260014533996
1749049474.2148097,0.41107143781432076,-0.8512403540208986,1.9607383000166296,3.117062124974706,2.477373227377377,-2.9818537923420916,0.12631755552538587,0.02672776723237062,-0.08111802573279567,0.05481664079139006,-0.08964392317691254,0.34490034615174114,0.4212362766265869,-0.8234038949012756,-0.8034662008285522,-0.0452820807695388,-0.6271674633026123,0.3364413976669311
1749049474.214846,0.41131809558657434,-0.8511865429199853,1.9605771248190178,3.117170890763009,2.477190796467717,-2.9811680817072044,0.12692191477982312,0.026844542600347507,-0.0814397574266541,0.05496624984821003,-0.09024200254194972,0.3466843817972071,0.3909119367599487,-0.8100630640983582,-0.7985765337944031,-0.0490938797593116,-0.6190610527992249,0.3308117985725403
1749049474.214883,0.4115658525002053,-0.851132864587291,1.9604153877919452,3.117279443616578,2.4770071412012316,-2.9804802336829166,0.12751513756364052,0.02697676296700208,-0.08179279356576319,0.055154174189722044,-0.09062312020648954,0.3484449196030194,0.3416428565979004,-0.8153315782546997,-0.7956274151802063,-0.0468417108058929,-0.6260335445404053,0.3302709460258484
1749049474.214919,0.4118150275732521,-0.8510792865124372,1.9602527814173756,3.1173879688749015,2.476822816546081,-2.97978967456808,0.12810310880992642,0.027122487526510464,-0.08218538650668006,0.05538946398914517,-0.09077979339136624,0.35020171348334406,0.3997739553451538,-0.8123737573623657,-0.8307568430900574,-0.0625762045383453,-0.6120164394378662,0.3271232843399048
1749049474.2149563,0.4120659001470055,-0.8510257627154395,1.960089006968995,3.117496682398229,2.4766383915369077,-2.979095760298081,0.12869192210258193,0.027279897285444468,-0.08262422615906767,0.0556799390703402,-0.09072708550688352,0.3519686773650751,0.4001729488372803,-0.8019828796386719,-0.8023700714111328,-0.0341899693012237,-0.6021980047225952,0.3425796329975128
1749049474.2149932,0.41231869624075473,-0.8509722323765638,1.9599237955432502,3.1176058253727654,2.476454390971317,-2.9783978291497184,0.12928696835684103,0.02744741172807266,-0.08311356833633178,0.056031579730112385,-0.09050119647477065,0.35375184262187165,0.4129439294338226,-0.7913710474967957,-0.8352716565132141,-0.0483419299125671,-0.609473705291748,0.3478717803955078
1749049474.2150297,0.41257357968159314,-0.8509186193888868,1.9597569250528626,3.1177156568861077,2.4762712421244815,-2.97769525721134,0.12989227358692068,0.02762380320304223,-0.08365452515453943,0.056447959329618665,-0.09015585526277554,0.35554854699962785,0.370339035987854,-0.8051791191101074,-0.8338011503219604,-0.0389533713459968,-0.6257926225662231,0.3423623740673065
1749049474.215067,0.4128306480743768,-0.8508648324650312,1.9595882311752186,3.1178264434112557,2.476089231534323,-2.9769875110536224,0.13051018268914896,0.02780830992384478,-0.08424460714455297,0.05692971762675077,-0.08975696448727934,0.357347896659082,0.3821317255496979,-0.8150875568389893,-0.8181772828102112,-0.0290435478091239,-0.6159110069274902,0.2990283966064453
1749049474.215103,0.4130899337377211,-0.8508107659268034,1.9594176116528446,3.1179384450396532,2.475908475673446,-2.976274191800501,0.13114138581130377,0.028000720384623853,-0.08487757515813911,0.05747409179254902,-0.08937612196503104,0.35913236769923573,0.4095351099967956,-0.7976842522621155,-0.8139063715934753,-0.0345576554536819,-0.6146233081817627,0.3457164764404297
1749049474.2151392,0.4133514097405095,-0.8507563018382885,1.95924502480356,3.11805189941433,2.4757289081812415,-2.9755550659817196,0.1317851914561695,0.028201383507698168,-0.08554362467362733,0.05807455750103941,-0.08908370956838463,0.3608802788663204,0.3556878566741943,-0.8270118832588196,-0.8369073271751404,-0.0318880528211593,-0.6180490255355835,0.3395518362522125
1749049474.2154317,0.41361500079626035,-0.8507013142346613,1.9590704840768172,3.1181670054188575,2.4755502849797177,-2.974830080671464,0.1324398984640261,0.028411111292977995,-0.08622989554733428,0.05872066153022522,-0.08894221228519829,0.3625687737389659,0.3895647525787353,-0.796930730342865,-0.8370463252067566,-0.0377739667892456,-0.6021420955657959,0.3258172869682312
1749049474.2173865,0.4138805979844843,-0.8506456756955415,1.958894050788078,3.118283909106357,2.4753722068437463,-2.974099362806402,0.13310312927481474,0.028630981314498302,-0.08692128324690956,0.059398135342959756,-0.08900036417665316,0.3641768967707692,0.4133720695972442,-0.787735641002655,-0.8241029977798462,-0.0145208239555358,-0.6476457715034485,0.2982361316680908
1749049474.262308,0.41414807543395327,-0.8505892657108738,1.9587158268679625,3.1184026937768095,2.4751941570589877,-2.9733632045898486,0.13377205335295075,0.028862085515739617,-0.08760151330116073,0.060089367082916,-0.08928864366779884,0.3656883411185824,0.4008765816688537,-0.8008084297180176,-0.8142879605293274,-0.0124750584363937,-0.6447157263755798,0.3157429993152618
1749049474.2623537,0.41441730663464743,-0.8505319796736254,1.9585359486874123,3.1185233749974066,2.4750155501422633,-2.9726220380197894,0.13444351442701963,0.029105282000725537,-0.08825441153805413,0.06077427460222527,-0.08981654181883611,0.367093504194977,0.4074729681015014,-0.7721166014671326,-0.8011734485626221,-0.0430750027298927,-0.6572816371917725,0.3336975574493408
1749049474.2623944,0.4146881781649359,-0.850473737224572,1.9583545819021557,3.118645900510364,2.474835786574629,-2.9718764017558947,0.13511413193033514,0.02936098885607839,-0.08886525842227035,0.061431554225417184,-0.09057187248313739,0.36839061704550247,0.3904183506965637,-0.8046269416809082,-0.8102908730506897,-0.034555360674858,-0.6491481065750122,0.3248381912708282
1749049474.2624338,0.4149605992871934,-0.8504144890072679,1.9581719162530937,3.1187701546368154,2.4746543081731414,-2.9711269032261174,0.13578045414929557,0.02962903434553425,-0.08942207866914764,0.062040186845886615,-0.09152218192550476,0.36958589006835174,0.424854576587677,-0.786960780620575,-0.8137475252151489,-0.0419836714863777,-0.6731967926025391,0.3153685629367828
1749049474.2624738,0.4152345067792034,-0.8503542213066381,1.9579881589369053,3.11889596659461,2.4744706489282975,-2.970374178617354,0.13643920424919007,0.029908562001606413,-0.08991670833303524,0.06258100286127662,-0.09261809069878014,0.3706927850534826,0.3995609879493713,-0.8138020038604736,-0.7960203289985657,-0.0574527457356452,-0.675782322883606,0.3332935571670532
1749049474.262516,0.4155098651680179,-0.8502929582443349,1.9578035256492115,3.119023121824437,2.474284476665056,-2.9696188533770926,0.13708759448959543,0.030197987105507373,-0.09034549930507817,0.06303808420974148,-0.09379821388175293,0.3717306380311911,0.38105109333992,-0.7806273102760315,-0.7726007103919983,-0.0752198919653892,-0.6641187071800232,0.3319375514984131
1749049474.2625546,0.41578666301772227,-0.8502307612029296,1.9576182293170694,3.1191513751259365,2.47409562166552,-2.9688615058717,0.13772361440868613,0.030495011424812906,-0.0907095548141126,0.06339983430849767,-0.09499517371790664,0.3727229132655387,0.3796936273574829,-0.7823419570922852,-0.7825913429260254,-0.054116316139698,-0.6436610817909241,0.3315649926662445
1749049474.2625926,0.41606490611133295,-0.8501677252010325,1.957432467415437,3.1192804644055254,2.4739040894042517,-2.9681026365226706,0.138346174331394,0.0307967123304604,-0.09101444312048751,0.06365965531317706,-0.09614212998537541,0.37369537773619044,0.3857417106628418,-0.8197993040084839,-0.7794404029846191,-0.0208860076963901,-0.62181156873703,0.312087208032608
1749049474.26263,0.4163446084202888,-0.850103972245249,1.957246409336008,3.1194101241336596,2.4737100558567913,-2.967342643803373,0.13895503800577189,0.03109970910186191,-0.09126941712994792,0.06381628010589,-0.09717921009844276,0.37467444596438926,0.3947002291679382,-0.8192870616912842,-0.7827804088592529,-0.0505765043199062,-0.6614158153533936,0.3219533264636993
1749049474.262667,0.41662578183726434,-0.8500396421592791,1.9570601854829859,3.119540097999212,2.4735138455660133,-2.9665818071498027,0.13955057394430778,0.03140037292005014,-0.09148625677941037,0.0638738498081354,-0.09805923977393434,0.37568585007127486,0.4394284188747406,-0.8191366195678711,-0.7997697591781616,-0.0497984215617179,-0.6509352326393127,0.3243556618690491
1749049474.262704,0.4169084258488684,-0.8499748817951797,1.9568738796804055,3.119670150553581,2.473315894667401,-2.965820275892167,0.14013342673600673,0.03169501927815843,-0.09167791265279311,0.0638417880264827,-0.09875224779743758,0.37675366157518997,0.4061542153358459,-0.8481168746948242,-0.7833183407783508,-0.0746776759624481,-0.6280987858772278,0.3292507529258728
1749049474.2627444,0.4171925186309613,-0.8499098337862213,1.9566875261272019,3.1198000777171346,2.473116702879975,-2.9650580634668344,0.14070422576872713,0.0319800312863772,-0.09185714340703527,0.06373444807550122,-0.09924830997604016,0.3778995837155951,0.388168066740036,-0.8385894894599915,-0.7874385714530945,-0.068029299378395,-0.5976777076721191,0.3289299309253692
1749049474.2627826,0.4174780112626949,-0.8498446261464205,1.9565011114590019,3.119929715758744,2.4729167795700726,-2.964295047321893,0.14126342345735135,0.03225190254799389,-0.09203531551218276,0.06357046892595652,-0.0995583971092875,0.379142389971538,0.4299224615097046,-0.8028199076652527,-0.8113053441047668,-0.0782284885644912,-0.5955072045326233,0.3118337094783783
1749049474.2628253,0.4177648265356572,-0.8497793639674057,1.9563145815547553,3.120058947903013,2.4727165893756258,-2.963530976079795,0.14181131052539622,0.03250722783975042,-0.09222149175076566,0.06337180243995236,-0.09971303293721821,0.38049740880123795,0.40730881690979,-0.8336181044578552,-0.7742214798927307,-0.0811733603477478,-0.6136106252670288,0.3067700862884521
1749049474.262868,0.41805286297142247,-0.8497141240600515,1.9561278519530163,3.1201877075215143,2.4725165028982667,-2.962765485544572,0.14234820487587302,0.032742686367232814,-0.09242188612788897,0.06316244829336941,-0.0997587808683074,0.3819760216368861,0.3390932381153106,-0.8419386744499207,-0.7957738637924194,-0.0586602836847305,-0.6057700514793396,0.3188957571983337
1749049474.2629058,0.41834200334914406,-0.8496489527438683,1.9559408204172049,3.1203159772271105,2.4723167578327074,-2.9619981237095105,0.14287476049033773,0.032955054787395834,-0.09263971240965914,0.06296700711473657,-0.09975284623387802,0.38358521756046604,0.3711301386356354,-0.8262150287628174,-0.7943768501281738,-0.0748230367898941,-0.5959473252296448,0.3446685671806335
1749049474.2629433,0.4186321259108461,-0.8495838664834322,1.955753380149155,3.1204437839651282,2.472117435403691,-2.961228382701204,0.1433923003921954,0.03314126730343974,-0.09287540970426415,0.06280919913001594,-0.09975634944306631,0.3853272939430104,0.3912361264228821,-0.8377322554588318,-0.7947863340377808,-0.0743951201438903,-0.6173987984657288,0.3540984988212585
1749049474.2629795,0.4189231161071081,-0.8495188549750701,1.955565432048916,3.120571191025677,2.4719184557276717,-2.9604557337920405,0.14390305349018812,0.03329852105941552,-0.0931271955436864,0.06271048583689866,-0.09982703722166796,0.3871997777852709,0.4041526615619659,-0.8469922542572021,-0.8161660432815552,-0.0676183179020881,-0.6316835880279541,0.3581297993659973
1749049474.2630165,0.41921487735899726,-0.8494538864260223,1.9553768942662577,3.120698288563155,2.471719593507854,-2.959679661258599,0.1444101827024772,0.033424414538659124,-0.09339186755256992,0.06268889295590252,-0.10001231318889171,0.3891955826912974,0.364314317703247,-0.8692809343338013,-0.801995038986206,-0.0910372361540794,-0.6444643139839172,0.3445690274238586
