nimar13/UR3e_dataset_trayectorias/trayectorias_ejecutadas_filtradas/trapezoidal/trayectoria_003_result_filtrado.csv
timestamp,q1,q2,q3,q4,q5,q6,qd1,qd2,qd3,qd4,qd5,qd6,tau1,tau2,tau3,tau4,tau5,tau6
1749046216.3183146,1.0944055812656523,-1.387056376540499,2.1086473195667517,-1.1206300160407043,2.925088416211549,-1.9215545504451343,-0.0030608265772064905,0.00037695647886130707,0.00021946729263081687,0.001266707602979665,0.00017420059610902104,-0.00011052205974950798,0.1191441565752029,-0.5910236835479736,-0.7237836122512817,-0.2907050251960754,-0.0712305083870887,-0.0110492557287216
1749046216.3183632,1.0944107622041528,-1.3870572033226385,2.1086453888489745,-1.1206248045923406,2.9250807677607513,-1.921544075491651,-0.002887719875992387,0.00041450962366170103,0.00019686663738879186,0.0014213710508948001,7.037583261465424e-05,0.0005977074018736788,0.1385447680950164,-0.5484957098960876,-0.7329269647598267,-0.2750885486602783,-0.0866228193044662,-0.0017362609505653
1749046216.318405,1.09441555339491,-1.3870579246264891,2.108643482143996,-1.1206196265043196,2.925073611904005,-1.921533781384373,-0.0027159496074090988,0.0004525108521751556,0.00017592474525912586,0.001568646041616064,-3.605497784689196e-05,0.0012830000994385501,0.1034252494573593,-0.5545098781585693,-0.729195237159729,-0.2868164777755737,-0.0810073763132095,0.0006155520677566
1749046216.3184445,1.0944196838516382,-1.3870584078235035,2.1086416107245456,-1.1206145132275263,2.925067229013245,-1.9215238203955423,-0.0025476413815102173,0.0004924957064771036,0.00015635410721061535,0.0016994053050036922,-0.00014438807966644208,0.0019166116575356584,0.1183118820190429,-0.570636510848999,-0.7149748802185059,-0.2667741775512695,-0.0808318108320236,-0.0062067136168479
1749046216.3184867,1.0944229509081487,-1.3870585424635848,2.1086397861495563,-1.1206095103664075,2.9250618160674824,-1.9215143224327638,-0.0023850475057010127,0.0005356224387226664,0.0001376755108115484,0.0018057540669106549,-0.0002533094653711251,0.002474356398848378,0.1110227108001709,-0.5620701909065247,-0.7162294387817383,-0.2852744460105896,-0.1019605994224548,-0.0186124891042709
1749046216.318526,1.0944252327294137,-1.3870582457872576,2.1086380222776913,-1.1206046814790938,2.9250574712550885,-1.9215053870002379,-0.002230445040063497,0.0005825340854814618,0.00011924510482784458,0.0018815453524063156,-0.00036075808533574355,0.002938360501163268,0.1042486578226089,-0.5579710006713867,-0.7394812107086182,-0.2848796248435974,-0.0995329171419143,-0.0266212597489357
1749046216.318568,1.094426493425523,-1.387057464390164,2.1086363366688547,-1.1206001076389762,2.925054190520423,-1.9214970784892478,-0.002085975233217341,0.000633314381698348,0.00010029857193441038,0.0019227221576002414,-0.00046390169956551393,0.0032979405060997403,0.0793542265892028,-0.5521657466888428,-0.7303245663642883,-0.2814311981201172,-0.1063752472400665,-0.0024643316864967
1749046216.3186064,1.094426779830192,-1.387056173168095,2.108634750695993,-1.1205958830440088,2.9250518762773714,-1.9214894250612213,-0.0019534491660397396,0.0006875446616987279,8.001237736194529e-05,0.0019274549627149957,-0.0005592427531214996,0.0035495487063603695,0.0758512616157531,-0.5643421411514282,-0.7367834448814392,-0.2819272875785827,-0.1147658601403236,-0.0013105943799018
1749046216.318664,1.0944262097861337,-1.387054372637065,2.108633288143383,-1.120592107295203,2.9250503567994643,-1.9214824214265906,-0.0018341540292444248,0.0007444498355945459,5.758185562268122e-05,0.0018960691787959093,-0.0006428482918427694,0.003695898436512307,0.0757116377353668,-0.5623632073402405,-0.7407743334770203,-0.2805209159851074,-0.1326282173395156,-0.0030760988593101
1749046216.3187044,1.0944249529150436,-1.3870520853694543,2.1086319727346248,-1.1205888752747533,2.925049413199209,-1.9214760354561973,-0.0017286901598636503,0.000803101142145573,3.2316303989866056e-05,0.0018307877184659852,-0.0007106733976827023,0.003744526711536297,0.0757116377353668,-0.5623632073402405,-0.7407743334770203,-0.2805209159851074,-0.1326282173395156,-0.0030760988593101
1749046216.3187497,1.094423206174565,-1.3870493520822094,2.1086308254818182,-1.1205862660228565,2.9250488097048875,-1.9214702177171834,-0.0016368548857401142,0.0008626284154295221,3.75108702364008e-06,0.0017353400879895223,-0.0007589317800056031,0.0037061306867355844,0.0623529255390167,-0.5569918751716614,-0.7302930355072021,-0.2662025094032287,-0.1357969641685485,0.0149190574884414
1749046216.3188024,1.0944211676421798,-1.3870462277623523,2.108629862682893,-1.120584332352283,2.925048322575092,-1.9214649121985337,-0.001557574067899855,0.0009223933770505105,-2.8225723160997574e-05,0.0016145034348393121,-0.0007844666401461838,0.003593009190747699,0.0594612210988998,-0.5545161366462708,-0.7443788647651672,-0.2813792824745178,-0.123582974076271,0.0231536105275154
1749046216.318845,1.0944190124918576,-1.3870427779221397,2.1086290949125606,-1.1205830928374934,2.925047763746321,-1.9214600662236647,-0.0014888742657875704,0.0009820906576083006,-6.324014088164095e-05,0.0014736412656093784,-0.0007850869135244984,0.0034178586548740896,0.0782635509967804,-0.5376559495925903,-0.7470115423202515,-0.2685853838920593,-0.1151956617832183,0.0201256796717643
1749046216.3188827,1.0944168748099992,-1.3870390748385304,2.108628526859413,-1.1205825273691798,2.925046997026747,-1.9214556379783427,-0.0014278912078067695,0.0010417677648036244,-0.00010030764113824669,0.0013182962888762593,-0.000759849321444533,0.0031930457545802076,0.0743977427482605,-0.546604573726654,-0.7391753792762756,-0.2598779797554016,-0.1174966022372245,0.0069323405623435
1749046216.31892,1.0944148378236247,-1.3870351937533056,2.108628157680039,-1.1205825769748234,2.9250459466264034,-1.9214516008570537,-0.0013709211712353087,0.0011017776493504865,-0.00013773872102145154,0.0011538798395226793,-0.0007092777937657326,0.002930348385025688,0.0743977427482605,-0.546604573726654,-0.7391753792762756,-0.2598779797554016,-0.1174966022372245,0.0069323405623435
1749046216.318957,1.0944129336795374,-1.3870312093711268,2.1086279816105162,-1.1205831481359922,2.9250445991050156,-1.9214479444628771,-0.001313534143040283,0.0011626909057232244,-0.0001731001104982022,0.0009854833181604768,-0.0006355162730673004,0.0026410562818441376,0.0795850455760955,-0.5504918098449707,-0.7341365814208984,-0.2788853049278259,-0.1281625926494598,0.0263471528887748
1749046216.3189983,1.0944111525096665,-1.3870271931671414,2.108627988636799,-1.12058412123233,2.9250429999499588,-1.9214446724484167,-0.0012507740813104138,0.0012251988688494599,-0.00020325742927225805,0.00081781706988201,-0.0005424095208315348,0.0023362687208102174,0.0982195436954498,-0.5502702593803406,-0.7354079484939575,-0.2775129079818725,-0.1036106795072555,0.008169375360012
1749046216.3190362,1.0944094591439997,-1.3870232117858767,2.1086281650219236,-1.1205853620090491,2.925041245456672,-1.921441797615385,-0.0011774690267838518,0.0012900370438259164,-0.00022452160918935872,0.0006552608077804828,-0.0004355013910392097,0.00202721692129105,0.0752670168876648,-0.56756192445755,-0.7329246997833252,-0.261817455291748,-0.12197145819664,0.0087927877902984
1749046216.3190734,1.0944078142945095,-1.3870193262961104,2.1086284935814867,-1.1205867343590572,2.9250394703215474,-1.9214393348478649,-0.0010886639172065446,0.0013579530566957556,-0.000232914152458663,0.0005019907970362633,-0.0003219335862122834,0.00172546073068663,0.0846064686775207,-0.5214033722877502,-0.7303072214126587,-0.2662447094917297,-0.1248465254902839,-0.0023792646825313
1749046216.3191104,1.0944061956219069,-1.387015591513677,2.10862895384753,-1.1205881124643362,2.9250378317066192,-1.9214372925301193,-0.0009801748150511584,0.0014297355020969347,-0.00022455557526819252,0.0003621358643962605,-0.00021022257591440737,0.0014428498974602883,0.0846064686775207,-0.5214033722877502,-0.7303072214126587,-0.2662447094917297,-0.1248465254902839,-0.0023792646825313
1749046216.3192265,1.0944046136620147,-1.3870120543289188,2.1086295224763516,-1.120589390469762,2.925036491002895,-1.9214356633180862,-0.0008492463122063654,0.0015063088763363666,-0.00019616778477286707,0.0002399080795611764,-0.00010989031815417428,0.001191190087249779,0.0808235853910446,-0.5236411690711975,-0.7159967422485352,-0.2901713252067566,-0.1154454797506332,0.0186409093439579
1749046216.3208282,1.094403118743487,-1.3870087502706283,2.1086301741893076,-1.1205904883010112,2.925035594677878,-1.9214344157269936,-0.0006952747010977715,0.001588883834185289,-0.00014566559145142005,0.00013965442053379988,-3.09276586007675e-05,0.0009816062988365494,0.0803815722465515,-0.5013410449028015,-0.7303531169891357,-0.2813169956207275,-0.1241258829832077,-0.0002830326557159
1749046216.3664443,1.0944017974548346,-1.3870056983799381,2.1086308831773635,-1.1205913529312823,2.9250352556412347,-1.9214334887015827,-0.0005205396140236931,0.0016791318820935982,-7.279637124535233e-05,6.578241832614831e-05,1.692079135287612e-05,0.0008236461079107932,0.0680455267429351,-0.5246660113334656,-0.7354072332382202,-0.2829657793045044,-0.1300099790096283,-0.0023789778351783
1749046216.3665192,1.0944007598141812,-1.3870028953843996,2.108631624548345,-1.1205919552511499,2.9250355368519845,-1.9214327914499552,-0.0003308686638313641,0.0017793338834087636,2.0228302991713442e-05,2.2525284024316234e-05,2.504462230378301e-05,0.0007242060946409804,0.0995224714279174,-0.5124287605285645,-0.725178599357605,-0.2749471068382263,-0.1163976192474365,0.0130069367587566
1749046216.3665774,1.0944001200027165,-1.3870003105844744,2.108632375329139,-1.1205922835815196,2.9250364393362323,-1.9214322099147527,-0.0001361458353596061,0.0018924401213130356,0.00012817754722955785,1.3529774242607496e-05,-1.3000030444251137e-05,0.0006863920858563588,0.0995224714279174,-0.5124287605285645,-0.725178599357605,-0.2749471068382263,-0.1163976192474365,0.0130069367587566
1749046216.3666196,1.0943999740712322,-1.3869978825852278,2.1086331146892814,-1.120592335658373,2.9250378969337985,-1.921431619649697,4.943209895455776e-05,0.002021984557650792,0.0002423984229963604,4.127214520270372e-05,-0.00010036899810964827,0.0007084374871357631,0.119312971830368,-0.574523389339447,-0.7174479365348816,-0.269645094871521,-0.1293343305587768,0.0041396729648113
1749046216.366663,1.0944003778561868,-1.386995518307606,2.1086338231673745,-1.1205921113873323,2.92503977959935,-1.9214309033301487,0.00020744287918621166,0.002171822819757456,0.00035064181694844705,0.00010633266173431646,-0.000235802770084504,0.0007828078690956542,0.0977202951908111,-0.5397924184799194,-0.7226661443710327,-0.2937616109848022,-0.1228680908679962,0.002958308905363
1749046216.3667028,1.0944013279187286,-1.3869930941683228,2.1086344806576744,-1.1205916085838767,2.925041906006712,-1.9214299702348463,0.00031574434339584715,0.002345709250022891,0.00043718485705326226,0.00020658536985254813,-0.00041260287681969837,0.0008956174326775304,0.0918273329734802,-0.5252206921577454,-0.7238326072692871,-0.2785425782203674,-0.1120595782995224,0.0082762353122234
1749046216.366741,1.0944027477764329,-1.386990459394626,2.1086350628761594,-1.120590823260307,2.9250440648605105,-1.9214287749441075,0.00034944110002154435,0.0025467789945068362,0.00048329950518352703,0.0003363846597025525,-0.0006178418917327673,0.0010264743131533653,0.0972771644592285,-0.5393461585044861,-0.7366177439689636,-0.2808524370193481,-0.1138312444090843,0.0052721388638019
1749046216.3667789,1.0944044809970352,-1.3869874420337451,2.1086355361382245,-1.1205897550047128,2.9250460429720047,-1.9214273330225553,0.0002823093188905943,0.0027770380090898464,0.00046808846151775427,0.00048585041501587645,-0.0008319473478541375,0.0011488545425584282,0.0972771644592285,-0.5393461585044861,-0.7366177439689636,-0.2808524370193481,-0.1138312444090843,0.0052721388638019
1749046216.366817,1.0944062919040676,-1.3869838585179182,2.108635850614693,-1.1205884168891644,2.92504765701106,-1.9214257322318544,8.861983370554302e-05,0.0030369737176688966,0.0003696717294534819,0.0006403658595369966,-0.0010287959136304683,0.001231075430455038,0.0925301909446716,-0.5334045886993408,-0.7277203798294067,-0.2867400646209717,-0.0923610851168632,-0.0095987766981124
1749046216.3668652,1.0944078738041216,-1.3869795268385081,2.10863593274735,-1.1205868483686507,2.9250487851932476,-1.9214241384929214,-0.0002547629569520647,0.003325378639452788,0.00016666261595436432,0.0007804033964330059,-0.0011764323442911358,0.0012378954930154585,0.0549303889274597,-0.5091428756713867,-0.7639681100845337,-0.3146534562110901,-0.0806557685136795,-0.0163141041994094
1749046216.3669114,1.09440886381786,-1.386974281678162,2.1086356780289517,-1.120585128965524,2.9250493951913525,-1.9214227961736825,-0.0007661900714397978,0.0036394358349434,-0.00016017511899905044,0.0008817813717320864,-0.001238485905901838,0.0011327094206916802,0.0549303889274597,-0.5091428756713867,-0.7639681100845337,-0.3146534562110901,-0.0806557685136795,-0.0163141041994094
1749046216.3669508,1.094408862602687,-1.3869679884879955,2.1086349456056506,-1.1205833903017817,2.9250495651259865,-1.921422022361199,-0.0014571783452514005,0.003975063577076746,-0.0006262405077133211,0.0009164274612643107,-0.001176295063905304,0.000880235168623542,0.0578759610652923,-0.5535832643508911,-0.7650820016860962,-0.3219651579856872,-0.0474176257848739,-0.046274334192276
1749046216.3670068,1.094407456686346,-1.386960553477569,2.1086335559592113,-1.120581824299024,2.925049495286274,-1.9214221949190813,-0.0023307621166291275,0.004327471844207485,-0.0012415616709075701,0.0008536824036726902,-0.0009516716687729375,0.0004495111154344871,0.0200952887535095,-0.4936125874519348,-0.7871913313865662,-0.3161482810974121,-0.0355126038193702,-0.0238452069461345
1749046216.367047,1.0944042410703207,-1.386951927677117,2.1086312924014305,-1.120580686068472,2.925049509086281,-1.9214237346441998,-0.003380494594444873,0.004691849936223632,-0.0020096065201920385,0.0006621231012441568,-0.0005301441512910531,-0.0001830575037107617,0.0009152889251708,-0.5365315675735474,-0.8105885982513428,-0.3446508049964905,-0.0167146176099777,-0.0537277869880199
1749046216.367086,1.0943988402394103,-1.386942104833598,2.1086279065515314,-1.1205802909813618,2.925050042637722,-1.9214270826125908,-0.004590284676601249,0.005064079741159979,-0.002926605063472778,0.0003118209742994116,0.00011557570042906008,-0.0010309306314586122,0.0035007372498512,-0.5312384366989136,-0.8376086354255676,-0.3622456789016723,0.0246937274932861,-0.0916695296764373
1749046216.367123,1.0943909263892535,-1.3869311142357799,2.108623127470128,-1.1205810063167607,2.925051623219644,-1.9214326744953871,-0.00593514160852545,0.005441354086908255,-0.003981490508341078,-0.0002231136207907969,0.0010022435425293724,-0.0020953124613384616,0.0035007372498512,-0.5312384366989136,-0.8376086354255676,-0.3622456789016723,0.0246937274932861,-0.0916695296764373
1749046216.3671606,1.0943802341192836,-1.3869190102977293,2.108616673622816,-1.1205832383536496,2.925054837884802,-1.9214409141058244,-0.007382767882722286,0.005822584788655244,-0.005156486252847312,-0.0009619086380916389,0.0021332528557419773,-0.003364043995873659,0.0083657428622245,-0.520459771156311,-0.8156255483627319,-0.3765034675598144,0.0534498393535614,-0.1178000420331955
1749046216.367218,1.0943665708704893,-1.3869058608510114,2.108608266403843,-1.120587415665488,2.925060294485857,-1.9214521487374026,-0.008895842784631375,0.006208519547935402,-0.006428296556954214,-0.001914678600218443,0.0034967443759727082,-0.004811811476133872,-0.0794159844517707,-0.522804319858551,-0.8509647250175476,-0.3926659822463989,0.0829636454582214,-0.1454124301671981
1749046216.3672712,1.0943498222763826,-1.3868917358509563,2.108597643760726,-1.120593969006153,2.9250685784519037,-1.92146664884718,-0.010434796808096829,0.006601544102760165,-0.007769818472441132,-0.003080407386731701,0.005065028624750182,-0.006401829138889775,-0.0657632797956466,-0.5633361339569092,-0.8884899616241455,-0.3901506662368774,0.1044070720672607,-0.1503540277481079
1749046216.3673103,1.0943299517844869,-1.3868766979147042,2.108584572597984,-1.120603308100083,2.9250802094647907,-1.9214845941922618,-0.011960856838433202,0.007005206338316846,-0.00915226449232287,-0.004445611121343409,0.006795573757725211,-0.008088928860375518,-0.0881344676017761,-0.5047382116317749,-0.905479609966278,-0.4151793718338012,0.1258131265640258,-0.1500380933284759
1749046216.3673522,1.0943069945775339,-1.3868607959264436,2.108568858986716,-1.120615796136109,2.925095602531464,-1.9215060677783702,-0.013439104164472757,0.007423547465361874,-0.010547536979894141,-0.005983884208696061,0.00863362044686511,-0.00982372290553997,-0.0881344676017761,-0.5047382116317749,-0.905479609966278,-0.4151793718338012,0.1258131265640258,-0.1500380933284759
1749046216.3673897,1.0942810467163895,-1.3868440626575593,2.1085503555541627,-1.120631723604142,2.9251150377158788,-1.921531058190755,-0.014841244695086804,0.007860357497728662,-0.011930626459112735,-0.007656480177965434,0.010516264901342718,-0.01155729066216687,-0.1077550575137138,-0.5243843793869019,-0.9133017659187316,-0.4269293546676636,0.148044541478157,-0.1702192425727844
1749046216.3675115,1.09425225107279,-1.3868265165628553,2.1085289655710473,-1.120651283913258,2.925138641930122,-1.9215594701523016,-0.01614778954449059,0.008318482096800035,-0.013281759322532437,-0.009414025475255236,0.012377650431295148,-0.013245761859158966,-0.1245318800210952,-0.5349652767181396,-0.9341676831245422,-0.4471388459205627,0.1470645815134048,-0.1642830669879913
1749046216.3687708,1.0942207817541858,-1.3868081666482683,2.108504643203325,-1.1206745537172103,2.925166384709867,-1.9215911424579024,-0.017349406029832422,0.008799285267708028,-0.014588034246610078,-0.011199394403100962,0.014154754689939974,-0.014854234863848048,-0.0701891481876373,-0.5342586636543274,-0.9328399300575256,-0.461496889591217,0.1416568160057068,-0.140488252043724
1749046216.414291,1.0941868284497605,-1.3867890182296208,2.108477389457189,-1.1207014809390126,2.9251980881603568,-1.9216258717458072,-0.018447307491619103,0.009302320744151802,-0.01584435314599931,-0.012951663131604839,0.015793157539732715,-0.01635961494215251,-0.0958486199378967,-0.5210970044136047,-0.9358593225479126,-0.4785017967224121,0.1170904710888862,-0.1384627074003219
1749046216.414345,1.0941505817076391,-1.3867690772307795,2.1084472438362494,-1.1207318830890671,2.9252334497499577,-1.9216634398520707,-0.019452679568420776,0.009825208352376455,-0.017053541600403555,-0.01461090121526017,0.01725213317296978,-0.01775212533795244,-0.1301654726266861,-0.5354102849960327,-0.9446491599082948,-0.4724012017250061,0.1043569669127464,-0.1795816868543625
1749046216.4143877,1.0941122197414315,-1.3867483514683412,2.1084142726060704,-1.1207654575269825,2.925272075432485,-1.9217036417284874,-0.020385268098025253,0.010363675431717026,-0.018225648499852632,-0.016123370608831,0.018508453777100968,-0.01903541894323119,-0.124722421169281,-0.5333434343338013,-0.9514061212539672,-0.4593566060066223,0.0996559038758277,-0.1377412974834442
1749046216.4144268,1.0940718969870191,-1.3867268485567517,2.1083785554380703,-1.1208018037461867,2.925313519502051,-1.9217463103157806,-0.021271351799630207,0.010911713785768615,-0.019376509283067337,-0.01744653429526799,0.01955843235872617,-0.02022539497327295,-0.1455185711383819,-0.5595216751098633,-0.9491094946861268,-0.4411885738372803,0.1077475249767303,-0.1675112098455429
1749046216.414465,1.0940297343357872,-1.386704571025664,2.1083401726421833,-1.1208404557887641,2.925357326829526,-1.9217913348871547,-0.02214136690544318,0.011461810984816634,-0.020525742322784618,-0.018553196434135326,0.02041794927609261,-0.021347977453742124,-0.1455185711383819,-0.5595216751098633,-0.9491094946861268,-0.4411885738372803,0.1077475249767303,-0.1675112098455429
1749046216.414503,1.093985810879463,-1.3866815098678813,2.108299194921759,-1.1208809211751403,2.925403073185084,-1.9218386705766206,-0.02302743989819971,0.012005232481728427,-0.021694416676013933,-0.0194341577510371,0.021120460081571174,-0.022436209408854275,-0.1586221158504486,-0.5085585713386536,-0.9850187301635742,-0.4068721830844879,0.0937894582748413,-0.1615875512361526
1749046216.4145412,1.093940157198179,-1.386657638298336,2.108255676623911,-1.1209227218811422,2.925450400196702,-1.9218883387729802,-0.023961038698634425,0.01253235295353998,-0.02290268021198657,-0.020098978349118665,0.02171323173761441,-0.023527045683366162,-0.1459062695503235,-0.5270214080810547,-0.988011121749878,-0.4126598536968231,0.098099946975708,-0.1798043251037597
1749046216.414579,1.0938927506705398,-1.3866329080374267,2.1082096522613787,-1.1209654329442293,2.9254990425283256,-1.9219404199658505,-0.024970894102830234,0.01303305358338998,-0.02416765721707424,-0.020574742259014837,0.022252269489996566,-0.024658194953532286,-0.1652130037546157,-0.5102464556694031,-0.9995694160461426,-0.4185990691184997,0.1224168241024017,-0.1833213418722152
1749046216.4146328,1.093843513804556,-1.386607250580464,2.108161135301377,-1.1210087147882026,2.925548845605022,-1.9219950417397889,-0.026081286928070803,0.013497204700576772,-0.025501887278329003,-0.020903034834720988,0.022796551969482427,-0.02586528622751633,-0.1689549386501312,-0.5344111919403076,-1.0256283283233645,-0.4174239635467529,0.1194913536310195,-0.1835532784461975
1749046216.4146752,1.0937923167847017,-1.3865805853186814,2.108110118114268,-1.121052336105235,2.9255997727372334,-1.9220523647214107,-0.02731075348791577,0.013915234745736315,-0.02691247726974704,-0.021135605896965618,0.02340226304245985,-0.027179542850977564,-0.1689549386501312,-0.5344111919403076,-1.0256283283233645,-0.4174239635467529,0.1194913536310195,-0.1835532784461975
1749046216.414717,1.0937389848147756,-1.3865528348808533,2.108056572184668,-1.1210961853765902,2.9256519012507103,-1.9221125687656937,-0.028671239122071725,0.014278756451215282,-0.02840101136689012,-0.02132934873198672,0.024117678417167738,-0.02862606259095287,-0.2299131900072097,-0.5215195417404175,-1.0311896800994873,-0.4206551313400268,0.1276245564222335,-0.1945709437131881
1749046216.414765,1.0936833093794973,-1.38652394579014,2.1080004478233496,-1.1211402709248004,2.9257054084865803,-1.9221758411099334,-0.03016772056185125,0.014581196380350596,-0.029964152249122352,-0.02154125201611957,0.024979235238570416,-0.030222737829540467,-0.2213031202554702,-0.5385419726371765,-1.0226303339004517,-0.4419362545013428,0.1201966032385826,-0.188972532749176
1749046216.4148078,1.0936250610591194,-1.38649391024424,2.107941672837962,-1.1211847111661792,2.925760549898719,-1.9222423678220073,-0.031798305113732626,0.014818362452103663,-0.03159478320371635,-0.02182388906736333,0.026009110623559758,-0.03197980042117296,-0.2337335050106048,-0.5205985903739929,-1.031316876411438,-0.4208418130874634,0.1367510110139846,-0.195755124092102
1749046216.41486,1.0935640011225696,-1.3864627838129653,2.1078801502058373,-1.1212297177208905,2.9258176321574525,-1.9223123293004276,-0.03355478338307047,0.014988881945703742,-0.033283484220185705,-0.02222184141366452,0.027214404852727116,-0.03389993027649657,-0.2360626459121704,-0.5325203537940979,-1.0660852193832395,-0.4424738883972168,0.1365188360214233,-0.2272727489471435
1749046216.414903,1.0934998901204545,-1.3864306947526421,2.1078157554971457,-1.1212755741654015,2.9258769838952476,-1.9223858996235081,-0.035423567097601485,0.015094447336095492,-0.03502011335618098,-0.022769265182995956,0.028587815583841283,-0.035978822751101626,-0.2360626459121704,-0.5325203537940979,-1.0660852193832395,-0.4424738883972168,0.1365188360214233,-0.2272727489471435
1749046216.414942,1.0934324932963846,-1.3863978427952792,2.10774833512774,-1.121322612987975,2.9259389260801143,-1.9224632485156818,-0.03738690656354771,0.015139824159365524,-0.03679528336995677,-0.02348863898740376,0.030109538238269687,-0.0382060745061105,-0.269854873418808,-0.5415087938308716,-1.0637201070785522,-0.4373662769794464,0.1221876963973045,-0.2402830123901367
1749046216.4149828,1.0933615838438349,-1.386364487561079,2.1076777064057266,-1.1213711930425903,2.92600374373475,-1.922544544104415,-0.03942427164511908,0.01513260684677381,-0.038601566794372925,-0.02439060065171821,0.03175004747229006,-0.04056622584402047,-0.3254697918891907,-0.5649149417877197,-1.073032259941101,-0.450670838356018,0.1220675036311149,-0.2288234531879425
1749046216.415021,1.0932869455992327,-1.3863309285491576,2.107603660028809,-1.1214216793705274,2.9260716609910005,-1.9226299546591277,-0.04151379178170055,0.015082748194207584,-0.04043430816121018,-0.0254746910268798,0.03347339570231748,-0.04303979234580752,-0.3254697918891907,-0.5649149417877197,-1.073032259941101,-0.450670838356018,0.1220675036311149,-0.2288234531879425
1749046216.4150584,1.0932083767393415,-1.386297479746023,2.107525965213287,-1.1214744266047572,2.9261428219465113,-1.9227196480784678,-0.04363366627182756,0.01500192319244974,-0.04229197027961464,-0.02673077332701665,0.03524069158237747,-0.04560414437507676,-0.2938091456890106,-0.5340861678123474,-1.0910475254058838,-0.4486211538314819,0.124629758298397,-0.2024241387844085
1749046216.415096,1.0931256952141206,-1.3862644421060593,2.1074443768738313,-1.1215297664677815,2.9262172801397117,-1.9228137889160843,-0.04576346596365568,0.014902808219419115,-0.04417600591277481,-0.02814088339987285,0.037013480180373655,-0.04823416801811365,-0.2924939393997192,-0.5607849359512329,-1.107420563697815,-0.4520693123340606,0.1222069635987281,-0.2405424416065216
1749046216.4151373,1.0930387451976855,-1.386232076717737,2.1073586435810707,-1.1215879992193722,2.926294999205249,-1.9229125337547712,-0.04788525366653922,0.014798359209996148,-0.04609031830740728,-0.02968128310481746,0.03875681348378397,-0.05090275034981782,-0.3042013347148895,-0.5383700132369995,-1.1252098083496094,-0.4760316014289856,0.1372196525335312,-0.2346939146518707
1749046216.4151754,1.0929474029298611,-1.3862005809784923,2.10726851510192,-1.121649388259809,2.9263758657678163,-1.9230160260231182,-0.04998445668505028,0.014701160810373532,-0.04804042158123725,-0.03132452085969615,0.04044184280832619,-0.05358122079030742,-0.3240350186824798,-0.5413318872451782,-1.1444953680038452,-0.4741058051586151,0.0969732403755188,-0.2587954998016357
1749046216.4154084,1.0928515807307764,-1.3861700699014268,2.1071737492737808,-1.1217141565420465,2.926459712974364,-1.9231243907434288,-0.05205043515858947,0.014622897858626546,-0.050032418458833175,-0.0330413403281301,0.04204777378305183,-0.05623990354450783,-0.3240350186824798,-0.5413318872451782,-1.1444953680038452,-0.4741058051586151,0.0969732403755188,-0.2587954998016357
1749046216.4168816,1.0927512289638124,-1.3861405644368834,2.107074118906282,-1.1217824833604233,2.9265463505639353,-1.9232377289943012,-0.05407671198279251,0.014573974539306344,-0.052071898122339,-0.034802325772177255,0.04356303143579869,-0.05884889904830375,-0.3184800744056701,-0.561063289642334,-1.163312315940857,-0.4553404748439789,0.1106928288936615,-0.2360120415687561
1749046216.462506,1.092646336120308,-1.386111987941909,2.1069694194288537,-1.1218545007943574,2.926635596372481,-1.92335611188022,-0.05606086698641467,0.014563279040651566,-0.054162849844960344,-0.03657923907653754,0.04498553165914019,-0.06137915091891804,-0.2927567660808563,-0.5702381730079651,-1.1769568920135498,-0.4737987816333771,0.0847688168287277,-0.2582910358905792
1749046216.4625776,1.0925369269264797,-1.3860841708173843,2.1068594772720557,-1.1219302903087507,2.9267273046514264,-1.9234795743547974,-0.058004139411293607,0.014598068806897584,-0.05630669291949302,-0.03834607610091478,0.046322051855013216,-0.06380378899502112,-0.33734792470932,-0.563561737537384,-1.1677780151367188,-0.4864195585250854,0.1002306342124939,-0.2391911596059799
1749046216.4626436,1.0924230581304355,-1.386056862474158,2.106744158451435,-1.1220098808431755,2.9268213875188462,-1.9236081095689916,-0.05991081273856121,0.014683939816290823,-0.05850152470675228,-0.04007991747510527,0.04758679871752693,-0.06609966688993149,-0.3226657509803772,-0.5662519335746765,-1.1626293659210205,-0.4752345085144043,0.1032286137342453,-0.1969380676746368
1749046216.4627075,1.0923048117418086,-1.3860297494459843,2.1066233769479656,-1.1220932495450266,2.9269178266946088,-1.9237416643075316,-0.061787469035093565,0.014824843883666405,-0.06074167733556777,-0.041761649840369244,0.04879934791000746,-0.06824894701887682,-0.3365451693534851,-0.5436488389968872,-1.177105188369751,-0.475144624710083,0.0905563980340957,-0.2153112888336181
1749046216.4627695,1.0921822858750645,-1.3860024782645737,2.1064971027215935,-1.122180325419386,2.9270166737822185,-1.9238801360351419,-0.06364220158248447,0.015023126830922686,-0.0630176530506716,-0.04337659295903431,0.04998217896790494,-0.0702405611606473,-0.320425271987915,-0.5801911354064941,-1.1798585653305054,-0.4649996757507324,0.1049972847104072,-0.2168262600898742
1749046216.4628313,1.0920555839343455,-1.3859746812652138,2.1063653689562982,-1.1222709953181356,2.9271180392059297,-1.9240233723469693,-0.0654838675035181,0.015279573242626472,-0.06531648128059243,-0.04491500937417952,0.05115806969553144,-0.07207139833942257,-0.3418093025684356,-0.542097270488739,-1.1773566007614136,-0.4847774505615234,0.0906598716974258,-0.2183236479759216
1749046216.4628935,1.0919248035159186,-1.3859460029901143,2.1062282774435865,-1.1223651113299447,2.927222072150987,-1.924171173824008,-0.06732144190903032,0.01559345808004871,-0.06762250507125826,-0.04637242524554708,0.052347650930212264,-0.07374710425623804,-0.3662698268890381,-0.5389469265937805,-1.1811996698379517,-0.4720500111579895,0.1021125689148902,-0.2040447294712066
1749046216.4629564,1.0917900267438987,-1.3859161247916227,2.1060860003535784,-1.1224624987880099,2.9273289355468135,-1.924323301015696,-0.06916349941626874,0.01596261919226674,-0.06991855974462621,-0.04774967823143105,0.05356742713974223,-0.07528238055615294,-0.3322717845439911,-0.5388869047164917,-1.191274881362915,-0.4696577787399292,0.100538358092308,-0.2023654878139495
1749046216.4630194,1.0916513136179278,-1.3858847856939223,2.1059387765521804,-1.122562964551984,2.9274387806633353,-1.9244794855352991,-0.07101780924584637,0.016383573448114818,-0.07218745548776533,-0.04905263893305095,0.05482850839592104,-0.0767006654450818,-0.3727193474769592,-0.5308738946914673,-1.1615209579467771,-0.4675073027610779,0.1054416820406913,-0.1821137219667434
1749046216.4630823,1.0915086994453476,-1.385851798166142,2.1057869013309496,-1.1226663056120354,2.927551725438746,-1.9246394444527648,-0.07289100903260726,0.01685169791909752,-0.07441362314249206,-0.05029161020275771,0.05613617598885036,-0.07803310628081962,-0.3651150166988373,-0.5443440675735474,-1.1694438457489014,-0.4828530550003052,0.0960949808359146,-0.2009549289941787
1749046216.4631443,1.0913621967058142,-1.3858170578755487,2.1056307096075106,-1.1227723181579548,2.9276678397158142,-1.9248028967291166,-0.07478833269083515,0.017361484256160718,-0.07658473627948532,-0.0514804609157571,0.0574902562212077,-0.07931681429468633,-0.3464005589485168,-0.5004501342773438,-1.14463210105896,-0.4709411859512329,0.1089156419038772,-0.1898060590028762
1749046216.463206,1.091211800818482,-1.3857805467000228,2.105470553722972,-1.1228808070540532,2.9277871393522754,-1.9249695804342177,-0.07671339649016774,0.017906853210022094,-0.07869309338802645,-0.052635570764627465,0.05888614840784781,-0.08059249322772156,-0.4311846196651459,-0.5219987034797668,-1.1760021448135376,-0.4758458137512207,0.0944723039865493,-0.1985068321228027
1749046216.4632676,1.0910574982851042,-1.3857423284157118,2.105306777671084,-1.122991595350606,2.927909589685577,-1.9251392696192364,-0.07866806791929347,0.018481496632839267,-0.08073654264988227,-0.053774648960999,0.06031626581471628,-0.0819016240318681,-0.448567658662796,-0.5041130185127258,-1.1993764638900757,-0.4953431785106659,0.123432733118534,-0.2233326286077499
1749046216.463328,1.0908992747766924,-1.3857025367908704,2.1051396901550743,-1.1231045332026148,2.928035117209085,-1.9253117897364784,-0.08065243491805876,0.0190792059584391,-0.08271876516782638,-0.05491546578548996,0.061771606680771696,-0.0832834515526401,-0.4020071029663086,-0.5256862044334412,-1.1063731908798218,-0.4797698259353637,0.1126638054847717,-0.2255914807319641
1749046216.4633894,1.0907371204789607,-1.3856613565880396,2.104969539354835,-1.123219505368682,2.928163626870369,-1.9254870304415774,-0.08266486146334402,0.019694152896833475,-0.08464880418682302,-0.05607452830112589,0.06324317828843033,-0.08477204936830149,-0.433354377746582,-0.4937553405761719,-1.1279469728469849,-0.4840622246265411,0.0968805328011512,-0.2249224185943603
1749046216.4634504,1.09057103100762,-1.3856189992051078,2.104796492480579,-1.123336436285692,2.9282950213597263,-1.9256649544496947,-0.08470208551317975,0.020321105288000837,-0.08653984236739333,-0.05726574993911306,0.06472305091527875,-0.0863937298935205,-0.4522945582866668,-0.5093526840209961,-1.1765822172164917,-0.4886716306209564,0.1047786325216293,-0.2518074810504913
1749046216.4635117,1.0904010042835237,-1.3855756759268487,2.1046206228884916,-1.1234552916761416,2.9284292182699527,-1.9258456008596545,-0.08675931650601439,0.020955579490482847,-0.08840738134457561,-0.05849920050610005,0.06620491236858121,-0.08816502364773433,-0.4522945582866668,-0.5093526840209961,-1.1765822172164917,-0.4886716306209564,0.1047786325216293,-0.2518074810504913
1749046216.4635727,1.0902270355756438,-1.3855315723570556,2.1044419065014788,-1.123576076063264,2.9285661614985172,-1.9260290815849455,-0.0888303259440156,0.021593943393174216,-0.09026712775261532,-0.059780064690508956,0.0676841090726461,-0.09009139310115505,-0.4334020018577575,-0.4684953093528747,-1.178223967552185,-0.504814863204956,0.1096906140446662,-0.2370091378688812
1749046216.463634,1.0900491129925316,-1.385486827216183,2.1042602274495157,-1.1236988265268475,2.9287058251314866,-1.926215570826698,-0.09090757242795715,0.022233489205054035,-0.09213296919355052,-0.061107966694665755,0.06915727071533832,-0.09216679013876533,-0.4584414958953857,-0.4864186346530914,-1.1926681995391846,-0.517077624797821,0.1125762313604354,-0.2457015663385391
1749046216.4636962,1.0898672142929426,-1.3854415176352182,2.1040753910871195,-1.1238236039446001,2.9288482106091247,-1.9264052891965633,-0.09298243010149962,0.022872492962753888,-0.09401538507679157,-0.06247681490605633,0.07062169369439848,-0.09437411569153437,-0.4611736834049225,-0.4812046587467193,-1.1941970586776731,-0.5002647638320923,0.0940312147140502,-0.2799605429172516
1749046216.4637568,1.0896813049291445,-1.3853956520121942,2.103887142189992,-1.123950483073935,2.9289933395259458,-1.9265984846338755,-0.09504557342016483,0.02351026708599381,-0.09592049350067579,-0.06387526808326777,0.0720746840117604,-0.0966865851325602,-0.471479207277298,-0.5290268063545227,-1.150007963180542,-0.517642617225647,0.1154495626688003,-0.2644127905368805
1749046216.463819,1.089491337772541,-1.3853491707376426,2.103695187195954,-1.1240795422346492,2.929141244142524,-1.9267954113947867,-0.09708751601505393,0.024147191168509476,-0.09784975066457643,-0.0652878319316132,0.07351303682175521,-0.09906992632465474,-0.471479207277298,-0.5290268063545227,-1.150007963180542,-0.517642617225647,0.1154495626688003,-0.2644127905368805
1749046216.463971,1.0892972557553469,-1.385301954395841,2.1034992201804488,-1.1242108530791843,2.929291956706044,-1.9269963076647922,-0.0990992471360061,0.024784682011886473,-0.09980017446796302,-0.06669649587828462,0.07493278219271875,-0.10148523681081449,-0.4442419111728668,-0.5221247673034668,-1.1671794652938845,-0.5017342567443848,0.1120485141873359,-0.2347388863563537
1749046216.46479,1.0890989980254233,-1.3852538381003872,2.10329895146432,-1.1243444716681468,2.929445498510794,-1.9272013731759103,-0.10107289288874073,0.0254250602060661,-0.10176491441810769,-0.06808274830393232,0.07632927424208948,-0.10389223436339716,-0.4457967579364776,-0.4929474592208862,-1.172534704208374,-0.4993219077587127,0.1160699427127838,-0.2301663160324096
1749046216.5105336,1.0888965083435684,-1.3852046295937772,2.103094135949459,-1.1244804330619298,2.929601870323832,-1.927410750005479,-0.10300234235068424,0.026071303292109636,-0.10373403172916074,-0.06942977283731502,0.07769764044682956,-0.10625259151653745,-0.4447639882564544,-0.4832465052604675,-1.162342190742493,-0.5115302801132202,0.1097873076796531,-0.2559258341789245
1749046216.510616,1.088689742989162,-1.3851541282214068,2.1028845972118058,-1.1246187515108574,2.92976104632571,-1.9276245106559453,-0.1048837868482498,0.026726724983716626,-0.10569543027155046,-0.07072461341778732,0.07903352898973832,-0.10853305464953136,-0.4428938031196594,-0.4905306100845337,-1.1704670190811155,-0.4967506229877472,0.0890445634722709,-0.2290285676717758
1749046216.5106914,1.0884786754268527,-1.3851021422817182,2.1026702438154983,-1.1247594268306562,2.9299229734840453,-1.9278426566987195,-0.10671611594781484,0.02739464736484712,-0.1076359320114478,-0.07196008635214753,0.08033400792070365,-0.11070807968044898,-0.4620362520217895,-0.488351047039032,-1.1682498455047607,-0.4970530569553375,0.0809061378240585,-0.2108615636825561
1749046216.5107648,1.0882632961520093,-1.3850485032694881,2.1024510756172194,-1.1249024558040115,2.9300875774435418,-1.9280651292925226,-0.10850111245307338,0.028078121488474207,-0.10954249438363176,-0.07313621411099382,0.08159842374103764,-0.1127617441972009,-0.4577369391918182,-0.5020263195037842,-1.1925746202468872,-0.5112863779067993,0.0908670052886009,-0.2248768806457519
1749046216.5108385,1.08804360768671,-1.3849930763959517,2.10222717926401,-1.125047846487374,2.930254774868704,-1.9282918305312617,-0.11024339787549106,0.02877971670588957,-0.11140352585570754,-0.07426097127808055,0.08282905106306972,-0.11468873192118376,-0.4139810502529144,-0.5325412750244141,-1.1521562337875366,-0.495155394077301,0.0889547616243362,-0.1993308365345001
1749046216.5109107,1.0878196160022975,-1.3849357669934934,2.1019987134992157,-1.1251956331678936,2.9304244909181087,-1.9285226522454608,-0.11195009606206878,0.029501367839627476,-0.11321019205043725,-0.07535017895148677,0.084031437379393,-0.11649426160534408,-0.4305051863193512,-0.5067737102508545,-1.1635440587997437,-0.5032350420951843,0.0874253213405609,-0.2310288250446319
1749046216.510983,1.0875913203838588,-1.3848765222664232,2.10176588632586,-1.1253458898661879,2.9305966793458333,-1.9287575070076415,-0.11363021182883269,0.03024425985710843,-0.11495755258951627,-0.07642645854110364,0.08521441008374109,-0.11819296156055902,-0.4146648347377777,-0.4926210641860962,-1.0942542552947998,-0.4888558387756347,0.0753955543041229,-0.2203258574008941
1749046216.511057,1.0873587040305677,-1.384815327983797,2.1015289274138196,-1.12549874030271,2.930771341773824,-1.9289963552087943,-0.11529377137515391,0.031008740331371795,-0.11664535966270331,-0.07751725165628734,0.08638973874673003,-0.11980684893250325,-0.4692798256874084,-0.4916345477104187,-1.1270098686218262,-0.476993203163147,0.063262440264225,-0.2097899913787841
1749046216.5111296,1.0871217279342122,-1.3847522004348791,2.1012880602447828,-1.1256543620896868,2.93094854209394,-1.929239222400393,-0.11695083103723108,0.03179426433959973,-0.11827839301935272,-0.07865202849016897,0.08757145955796665,-0.12136271075696364,-0.4156534075736999,-0.4899203181266784,-1.1519556045532229,-0.5168546438217163,0.1072875261306762,-0.2223772853612899
1749046216.5112026,1.086880331122949,-1.3846871750789087,2.101043479350773,-1.1258129827312222,2.9311284118245644,-1.929486202319523,-0.1186105011373948,0.03259937748261027,-0.11986628478027667,-0.0798589391797833,0.0887749005502615,-0.12288925690452242,-0.4700551033020019,-0.4878686666488647,-1.146407127380371,-0.5271590948104858,0.1008007526397705,-0.2212075293064117
1749046216.5112734,1.0866344407572874,-1.3846202943679993,2.1007953382180786,-1.1259748651651196,2.9313111427390712,-1.929737442808346,-0.12028012385442935,0.03342172518540366,-0.12142286516504827,-0.08116128061477482,0.09001548432341137,-0.1244144112345653,-0.4700551033020019,-0.4878686666488647,-1.146407127380371,-0.5271590948104858,0.1008007526397705,-0.2212075293064117
1749046216.511343,1.0863839944358942,-1.3845515976706302,2.100543751836982,-1.1261402817373012,2.931496964775557,-1.929993114602042,-0.12196468716825742,0.03425805328404223,-0.12296510758472919,-0.08257420743009077,0.09130740142889167,-0.12596305260630228,-0.4851924479007721,-0.4810494780540466,-1.1460864543914795,-0.5534390807151794,0.09236741065979,-0.2401044815778732
1749046216.5114136,1.0861289734984663,-1.384481115684456,2.100288813801297,-1.1263094780313425,2.931686110521851,-1.9302533671151314,-0.12366648715261777,0.035104159992266244,-0.12451176972078047,-0.08410209337899036,0.09266224642692399,-0.1275554438674166,-0.4226706624031067,-0.4802537262439728,-1.131594181060791,-0.5281948447227478,0.1182399094104766,-0.2635840177536011
1749046216.5114844,1.085869441476911,-1.384408870409872,2.1000306228499737,-1.1264826310227105,2.931878771443357,-1.9305182796775409,-0.12538501217644052,0.03595478531239694,-0.12608184051187296,-0.0857368806388813,0.09408771887177239,-0.12920649102714574,-0.4767311215400696,-0.4643574357032776,-1.16249418258667,-0.5481426119804382,0.1043786853551864,-0.2533502280712127
1749046216.5115547,1.0856055789216095,-1.3843348803782451,2.0997693106216118,-1.1266598080981027,2.932075053575238,-1.9307878187748866,-0.12711702878951361,0.03680346843045037,-0.12769292889850112,-0.08745768240596936,0.09558652367785085,-0.13092582948118023,-0.4464880228042602,-0.4856934547424316,-1.170448660850525,-0.5706192851066589,0.1311339884996414,-0.2348778694868087
1749046216.5116248,1.0853377059024238,-1.3842591698390907,2.0995050623990803,-1.126840933990925,2.932274940817645,-1.9310618107592745,-0.12885687859175157,0.0376424417902,-0.1293597633047945,-0.08923183069327731,0.0971556409846607,-0.1327185543982355,-0.4825540482997894,-0.4878903031349182,-1.168952226638794,-0.5460584163665771,0.1143742129206657,-0.2428798675537109
1749046216.5116951,1.0850662855935496,-1.3841817799084124,2.0992381247709364,-1.127025772076689,2.932478272939139,-1.93133993634249,-0.1305970135249139,0.03846264547259608,-0.13109298747342868,-0.09101744554284279,0.09878614710036927,-0.13458627246340246,-0.4533364474773407,-0.476497083902359,-1.1857035160064695,-0.5636262893676758,0.1290138661861419,-0.226677119731903
1749046216.5117648,1.0847919051852037,-1.384102779161122,2.0989687970289665,-1.1272139251129452,2.932684743639018,-1.9316217494014445,-0.13232878389289207,0.03925393351309226,-0.13289841350657322,-0.09276741044121499,0.10046373247349204,-0.13652811432602277,-0.4509521126747131,-0.4891796410083771,-1.1843706369400024,-0.5495190620422363,0.1235535144805908,-0.2417099475860595
1749046216.5118346,1.0845152336322776,-1.3840222710359256,2.098697406117494,-1.127404858260117,2.9328939214945957,-1.9319067187358356,-0.13404345294893083,0.04000550838615293,-0.13477682046139725,-0.09443439399725037,0.10216997002851896,-0.1385414076244915,-0.4724637567996979,-0.4948364794254303,-1.1775413751602173,-0.5405222177505493,0.1361893713474273,-0.2245082259178161
1749046216.511904,1.0842369596820836,-1.3839403959786496,2.0984242679791616,-1.1275979439053379,2.933105293080705,-1.9321942874031148,-0.13573335492955171,0.040706569005447155,-0.13672428032724843,-0.09597632740298785,0.1038842498049029,-0.1406218319899732,-0.4387661218643188,-0.508889377117157,-1.1691094636917114,-0.5190900564193726,0.1164140701293945,-0.2483550608158111
1749046216.5119724,1.0839577177089523,-1.3838573273967207,2.098149640984867,-1.1277925238729838,2.9333183234670743,-1.9324839406254206,-0.1373930498849375,0.041347105734679764,-0.138732877433852,-0.09736159874886287,0.10558614838729334,-0.14276303479712785,-0.4387661218643188,-0.508889377117157,-1.1691094636917114,-0.5190900564193726,0.1164140701293945,-0.2483550608158111
1749046216.5120423,1.0836780115088727,-1.3837732617772642,2.097873678838933,-1.127987981390828,2.9335325260131464,-1.932775271536338,-0.13902028186983795,0.04191874111968111,-0.14079160251036474,-0.09857320369224933,0.10725788856430228,-0.14495586088396317,-0.4717848598957062,-0.4989514946937561,-1.187973976135254,-0.5097351670265198,0.1314364373683929,-0.2663098275661468
1749046216.5122108,1.083398146185505,-1.3836884043564621,2.0975963900275865,-1.1281838139639997,2.9337475320029247,-1.9330680353556784,-0.14061654954766548,0.0424155078919656,-0.14288719599828376,-0.09961121503414894,0.1088864971488384,-0.1471875052812123,-0.420943945646286,-0.5190203189849854,-1.1512949466705322,-0.5086764097213745,0.0880316868424415,-0.265298068523407
1749046216.512812,1.083118176297318,-1.3836029524859605,2.0973176091145342,-1.1283796988619763,2.9339631510247104,-1.9333621860134844,-0.14218716091387773,0.042834472686632076,-0.14500480019765385,-0.10049318343209362,0.11046528955938313,-0.14944098705960593,-0.420943945646286,-0.5190203189849854,-1.1512949466705322,-0.5086764097213745,0.0880316868424415,-0.265298068523407
1749046216.554283,1.08283787586382,-1.3835170792040596,2.097036983198019,-1.1285755440872207,2.934179414413187,-1.933657892913367,-0.1437407444895893,0.043176144870709705,-0.1471284167069527,-0.10125239812217104,0.11199439208488851,-0.15169532724225443,-0.4299506843090057,-0.5391073822975159,-1.203934907913208,-0.5069635510444641,0.0816750675439834,-0.292798638343811
1749046216.554328,1.0825567329720123,-1.3834309191234244,2.0967539748926893,-1.1287715190082521,2.9343965963939467,-1.9339555386146876,-0.1452882940582925,0.04344465017885539,-0.1492412922226125,-0.10193423833793716,0.11348016503814422,-0.1539266824338666,-0.4321726560592651,-0.5360598564147949,-1.1952370405197144,-0.5054863095283508,0.1176197826862335,-0.258685290813446
1749046216.5543685,1.0822739691148537,-1.383344557755107,2.096467881651478,-1.1289680602661798,2.9346152103560503,-1.934255700105119,-0.14684190726376134,0.043647694105976124,-0.15132641821449117,-0.10259107412267672,0.11493360549090405,-0.15611045817605132,-0.4594013392925262,-0.4999592304229736,-1.1793336868286133,-0.5089770555496216,0.1098759472370147,-0.2818588316440582
1749046216.5544071,1.0819885824970183,-1.383258024718224,2.0961778713950303,-1.1291658496636292,2.9348359795942516,-1.934559115738273,-0.14841342676772712,0.04379636924357635,-0.1533672974398221,-0.10327632374682011,0.11636802574456089,-0.15822415502108764,-0.4722548723220825,-0.5368545651435852,-1.200023889541626,-0.5449562668800354,0.1311343908309936,-0.2544706761837005
1749046216.5544453,1.0816994153482054,-1.3831712914774146,2.0958830361117444,-1.1293657617127346,2.93505978250052,-1.9348666371634513,-0.15001320247123734,0.04390484549783049,-0.155349017696919,-0.10403836583197561,0.1177964432739612,-0.16025046050711086,-0.4722548723220825,-0.5368545651435852,-1.200023889541626,-0.5449562668800354,0.1311343908309936,-0.2544706761837005
1749046216.5545068,1.0814052451828313,-1.3830842746610224,2.095582465391759,-1.1295687809169326,2.935287573306809,-1.9351791639692668,-0.15164916441580095,0.04398992811757588,-0.15725954345835855,-0.10491503656538134,0.11922914886136042,-0.16217996680914057,-0.4942698776721954,-0.5399906039237976,-1.1959511041641235,-0.5582441687583923,0.1483139991760254,-0.2548968195915222
1749046216.5545769,1.081104896688732,-1.382996845647731,2.095275338192468,-1.1297758938228464,2.9355202829946867,-1.9354975612611331,-0.15332632535487314,0.04407042762510208,-0.15909104908417876,-0.10592938993606038,0.1206718646726858,-0.1640129185856345,-0.4311690330505371,-0.4956196546554565,-1.157487869262695,-0.5640572905540466,0.153082013130188,-0.2340711951255798
1749046216.5546489,1.0807973654185257,-1.3829088458816967,2.0949610246891335,-1.1299879671285542,2.935758710201357,-1.9358225659685513,-0.15504672293620209,0.044166303801116656,-0.16084108215067391,-0.10708725337509807,0.1221247945616977,-0.16575957990578796,-0.4533010125160217,-0.5210831761360168,-1.1481199264526367,-0.5544082522392273,0.1424100846052169,-0.2479720562696457
1749046216.5547178,1.080481939323662,-1.3828201059842695,2.094639184377947,-1.13020562804448,2.936003416174562,-1.9361546928702107,-0.15680969807458348,0.04429761187630722,-0.16251333912968235,-0.10837690187528962,0.12358272431923607,-0.1674390992138167,-0.4461365938186645,-0.4964581131935119,-1.134100317955017,-0.5840023756027222,0.1740812361240387,-0.2484576106071472
1749046216.554788,1.080158300699398,-1.3827304656025703,2.0943098435920056,-1.130429165350215,2.936254639473693,-1.9364941545472234,-0.15861234848732536,0.04448334269076118,-0.1641178547980972,-0.10977094227514687,0.1250361683411605,-0.169077067367398,-0.4461365938186645,-0.4964581131935119,-1.134100317955017,-0.5840023756027222,0.1740812361240387,-0.2484576106071472
1749046216.5548573,1.0798265895324781,-1.382639790074905,2.0939734351301422,-1.1306584692717774,2.936512245548059,-1.9368408111575028,-0.16045002397214603,0.04474027414931526,-0.16567047055084785,-0.11123026546554331,0.12647340107152277,-0.17070222966694593,-0.4685671329498291,-0.5062682032585144,-1.1450427770614624,-0.5983182787895203,0.151973009109497,-0.234709233045578
1749046216.554927,1.0794874113738397,-1.3825479798124525,2.093630785641923,-1.130893024729523,2.9367757234780085,-1.9371941648335782,-0.16231680230320852,0.045081940540056646,-0.16719155486322473,-0.11270967676867043,0.12788306504168015,-0.17234296458314805,-0.4845911860466003,-0.4726007580757141,-1.1613094806671145,-0.6040904521942139,0.1262368112802505,-0.2680497765541076
1749046216.5549967,1.0791417814520392,-1.3824549697090138,2.093283044932605,-1.131131964159567,2.9370442355038295,-1.9375534065398519,-0.16420593364511496,0.04551779719624101,-0.16870406690133846,-0.11416454301920202,0.12925691561097222,-0.17402413584149531,-0.4994754195213318,-0.4703127443790436,-1.1142349243164062,-0.5793715715408325,0.1448497325181961,-0.2868560254573822
1749046216.555066,1.0787910110902372,-1.3823607190449796,2.0929315648209768,-1.1313741737017795,2.937316714316229,-1.9379175103693667,-0.1661102450919548,0.04605262318808024,-0.17023114995672406,-0.11555753736377443,0.1305921733851648,-0.1757647576519271,-0.4993982315063476,-0.4821023941040039,-1.175930738449097,-0.5266895294189453,0.1290896385908126,-0.2838058471679687
1749046216.5551355,1.0784365565688776,-1.382265195740135,2.0925777479897114,-1.1316184345443234,2.937591992136223,-1.9382853573198726,-0.16802249193139093,0.04668617388230926,-0.17179351873883827,-0.11686441621694797,0.13189296528719302,-0.1775766466074614,-0.4993982315063476,-0.4821023941040039,-1.175930738449097,-0.5266895294189453,0.1290896385908126,-0.2838058471679687
1749046216.555205,1.078079857435544,-1.3821683603669355,2.092222892990445,-1.1318635748516073,2.937868939571392,-1.9386558646794962,-0.1699356674455384,0.04741307858613218,-0.1734069804878587,-0.11807782727439099,0.13317048482336888,-0.17946398461997548,-0.3694211840629577,-0.4874485731124878,-1.1068073511123655,-0.4855726361274719,0.1544057428836822,-0.2328318059444427
1749046216.555273,1.0777221889419653,-1.3820701544382685,2.091868058739423,-1.1321086086507017,2.9381465929836015,-1.939028100127501,-0.1718433286170592,0.048222977836791345,-0.17508048739661242,-0.11920845384099889,0.13444177018545045,-0.18142359021921223,-0.5589221119880676,-0.4536758959293365,-1.2295536994934082,-0.5074914693832397,0.1494698375463485,-0.2733180820941925
1749046216.5553422,1.0773645455215084,-1.381970495377663,2.0915139642650358,-1.1323528437814778,2.93842425413384,-1.9394013674574253,-0.17374001678319262,0.04910090084439581,-0.17681510334215353,-0.1202832808782217,0.13572730326880686,-0.18344571191686487,-0.5589221119880676,-0.4536758959293365,-1.2295536994934082,-0.5074914693832397,0.1494698375463485,-0.2733180820941925
1749046216.55541,1.0770075636525245,-1.3818692787499847,2.09116093129293,-1.1325959482357977,2.9387015520700146,-1.939775258801895,-0.1756218198802137,0.05002788609209493,-0.17860413724867133,-0.12134128812304272,0.13704787373358784,-0.18551525112187495,-0.5518681406974792,-0.4644301533699035,-1.2075629234313965,-0.5510395765304565,0.1460883021354675,-0.2559082210063934
1749046216.5554786,1.0766514850289193,-1.3817663870773012,2.090808869871937,-1.132837971473859,2.938978463661743,-1.9401496747225853,-0.17748703828464155,0.050981842648734704,-0.1804344560988087,-0.12242730371530137,0.13842127062227896,-0.18761339750266867,-0.4795083105564117,-0.4793773293495178,-1.1299455165863037,-0.564693808555603,0.152861550450325,-0.2854008972644806
1749046216.5556557,1.0762961556119048,-1.3816617035660568,2.0904573014249297,-1.1330793237494334,2.939255295334466,-1.940524817810655,-0.17933680753223605,0.051938635738765934,-0.1822887158316605,-0.12358500981250516,0.13985936370246127,-0.18971965047492775,-0.4682576656341553,-0.4924496710300445,-1.1464834213256836,-0.5591181516647339,0.1741344332695007,-0.2570994794368744
1749046216.5568552,1.0759410545691326,-1.3815551284544088,2.0901054111681465,-1.1333207205125884,2.939532632672559,-1.9409011659227913,-0.18117544986893164,0.05287335909028312,-0.18414805422194908,-0.12485016632772004,0.1413660502200781,-0.1918140991621269,-0.4787677526473999,-0.5226156711578369,-1.211003303527832,-0.5994037389755249,0.1862359046936035,-0.2814141511917114
1749046216.5982783,1.07558534921556,-1.3814465957051552,2.0897521229869414,-1.1335631001126965,2.9398112658561564,-1.9412794280528933,-0.1830103242688667,0.05376173127307998,-0.18599476040479584,-0.12624504586539603,0.14293639255220258,-0.19387969094960208,-0.4787677526473999,-0.5226156711578369,-1.211003303527832,-0.5994037389755249,0.1862359046936035,-0.2814141511917114
1749046216.5983243,1.0752279741298898,-1.3813360881114813,2.0893961915113053,-1.1338075232925633,2.9400920991555703,-1.9416604829134347,-0.18485103495028574,0.054581531496909134,-0.18781454953877194,-0.1277748966580452,0.14455707555550673,-0.19590412108885244,-0.4323843121528625,-0.4638359546661377,-1.159597873687744,-0.6157152652740479,0.1661756336688995,-0.2403430342674255
1749046216.5983655,1.0748677309647512,-1.3812236491248004,2.089036305298176,-1.1340550644589804,2.9403760539020545,-1.9420453013497918,-0.186708013296301,0.05531398660923412,-0.18959822797401063,-0.12942698097199257,0.14620810021301928,-0.19788099163723594,-0.4756025075912475,-0.494974821805954,-1.1606230735778809,-0.6152880191802979,0.1660640090703964,-0.2550941109657287
1749046216.5984054,1.0745034009266219,-1.3811093899854114,2.088671192498021,-1.1343067068180515,2.940663975794,-1.9424348580353694,-0.18859066268510663,0.05594503569156491,-0.19134265803994405,-0.13117236172099056,0.14786543888590903,-0.19981002077333418,-0.5348143577575684,-0.5017374753952026,-1.1969252824783323,-0.6281028985977173,0.1558447182178497,-0.2542675733566284
1749046216.598444,1.0741338584413986,-1.3809934913232111,2.0882997192887682,-1.1345632537379367,2.9409565567946054,-1.9428300415198687,-0.1905054040885624,0.056466405488130395,-0.19305101342031902,-0.13297015437495271,0.1495042310602373,-0.20169627884928867,-0.5331460237503052,-0.5358450412750244,-1.1926802396774292,-0.6139888763427734,0.1481810510158538,-0.2431269586086273
1749046216.5984824,1.07375817430084,-1.380876199085046,2.087920972878687,-1.1348252660040352,2.941254278622992,-1.9432315722690778,-0.1924540372750935,0.05687641209485319,-0.19473236588262152,-0.13477350832276086,0.15110201389790803,-0.20354862473466717,-0.5523661375045776,-0.5200567245483398,-1.16988205909729,-0.5838911533355713,0.1292632222175598,-0.2339269965887069
1749046216.5985205,1.0733756985224392,-1.3807578150403699,2.087534323460814,-1.1350930299588333,2.9415573806738076,-1.9436399366474286,-0.19443279976108252,0.05718038458379372,-0.19640065947340804,-0.13653624095179065,0.1526414817155202,-0.2053776738631902,-0.5175257325172424,-0.5401434898376465,-1.166234016418457,-0.5503947138786316,0.1358191668987274,-0.2849787771701813
1749046216.598559,1.072986115585618,-1.380638682209897,2.0871394615767875,-1.1353665564571038,2.94186585194465,-1.9440553424205698,-0.19643235434611325,0.057390613211376396,-0.19807312864981522,-0.13821891875197778,0.1541123674572701,-0.20719371765033032,-0.5445021986961365,-0.5501418113708496,-1.2131989002227783,-0.558733344078064,0.1219986006617546,-0.2803617417812347
1749046216.5985968,1.0725894671569225,-1.3805191655720253,2.0867364087947378,-1.1356456062915727,2.9421794446129192,-1.9444776990848318,-0.19843871317812137,0.05752575695094816,-0.1997682517345578,-0.13979332189619714,0.1555122182822159,-0.20900501086695383,-0.4933739602565765,-0.5605597496032715,-1.2084892988204956,-0.5604084730148315,0.1316952407360077,-0.2758587002754211
1749046216.598635,1.0721861400780643,-1.3803996284673365,2.0863255009868893,-1.1359297350460522,2.9424977058522654,-1.9449066245156637,-0.20043490107316161,0.057609690206251694,-0.20150342058005788,-0.1412446172525901,0.1568460461003484,-0.21081674598649008,-0.5090998411178589,-0.5395452380180359,-1.241318941116333,-0.5319104194641113,0.1347429752349853,-0.2819051742553711
1749046216.598691,1.0717768203109328,-1.3802804054154825,2.0859073452047405,-1.1362183495669342,2.942820024010443,-1.9453414781403402,-0.202403045062217,0.057669828936075127,-0.2032926075363145,-0.1425710884553781,0.15812501971519005,-0.21263086189621935,-0.4620953500270843,-0.5414841175079346,-1.196057915687561,-0.5475537776947021,0.1179451197385788,-0.2793704867362976
1749046216.5987463,1.071362416460517,-1.3801617728000104,2.0854827532517097,-1.1365107691558691,2.9431456852928575,-1.9457814196754735,-0.20432656458038373,0.05773505364412503,-0.2051443628609243,-0.14378179456223733,0.15936449480916623,-0.2144466304188829,-0.4700643718242645,-0.5297374725341797,-1.2404937744140625,-0.5697256922721863,0.1364763975143432,-0.2450224012136459
1749046216.5988083,1.0709439592327061,-1.38004392003033,2.0850526574196673,-1.1368062863483002,2.9434739372957353,-1.9462254907188443,-0.20619219692615431,0.05783342399621679,-0.2070604606041122,-0.14489293691866528,0.16058173978406062,-0.21626178473041724,-0.5134687423706055,-0.519087016582489,-1.2404451370239258,-0.5855318307876587,0.1428824812173843,-0.2776986956596374
1749046216.5988674,1.0705224860219824,-1.37992692494219,2.0846180163948302,-1.1371042236450524,2.9438040554959852,-1.9466727135437927,-0.20799167719532705,0.05798993115191992,-0.2090354348441799,-0.1459239136218753,0.16179371342254847,-0.21807385340969188,-0.464973121881485,-0.5064083933830261,-1.2464423179626465,-0.6028940677642822,0.1297150254249572,-0.2443152070045471
1749046216.598917,1.070098923203595,-1.3798107377781155,2.0841797219293903,-1.1374039830043872,2.9441354076909265,-1.9471221972441344,-0.20972294809560532,0.05822453968890602,-0.2110571061317525,-0.14689397722671124,0.16301519640802098,-0.2198813651670456,-0.4322606921195984,-0.4717302322387695,-1.182262301445007,-0.590180516242981,0.1406978666782379,-0.2426105439662933
1749046216.5989585,1.0696739818549876,-1.3796951776600173,2.0837385187286066,-1.13770508448643,2.944467509860674,-1.9475732370942402,-0.21139077736898232,0.05855072698405527,-0.2131079986811747,-0.1478201122174998,0.16425749222702754,-0.22168466920770524,-0.4322606921195984,-0.4717302322387695,-1.182262301445007,-0.590180516242981,0.1406978666782379,-0.2426105439662933
1749046216.5990217,1.0692480829722482,-1.3795799438349363,2.0832949493560813,-1.1380071904599502,2.944800066530694,-1.9480253912891818,-0.21300664666708058,0.05897464930228667,-0.2151673619847706,-0.14871632611371513,0.16552781641685377,-0.22348622756533612,-0.4446590840816498,-0.5120851993560791,-1.202439308166504,-0.5701187252998352,0.148825317621231,-0.2685254514217376
1749046216.599064,1.0688213237669872,-1.3794646413426277,2.082849331758989,-1.1383101132588913,2.9451329904958383,-1.9484785222159178,-0.21458781945577587,0.0594949773588275,-0.21721343230226295,-0.14959413685755565,0.16682939280084186,-0.22529033929092498,-0.5061811804771423,-0.4532665610313415,-1.2132503986358645,-0.555745005607605,0.1322610080242157,-0.2582626342773437
1749046216.599101,1.0683934887439244,-1.3793488179667233,2.0824017707240357,-1.1386138065780662,2.9454663998449435,-1.9489327960604894,-0.21615562754106524,0.060103371437464546,-0.21922562384432057,-0.1504637387397425,0.1681621619632653,-0.22710233560199905,-0.5061811804771423,-0.4532665610313415,-1.2132503986358645,-0.555745005607605,0.1322610080242157,-0.2582626342773437
1749046216.5991414,1.0679641011365357,-1.3792320073935336,2.0819521983850153,-1.1389183432601078,2.945800593397511,-1.9493886422328817,-0.2177331866838507,0.06078551898225671,-0.22118645512844506,-0.15133519526215933,0.1695238916676761,-0.22892735060267352,-0.4788203239440918,-0.4896740317344665,-1.2097115516662598,-0.5346798896789551,0.1522875130176544,-0.2789139151573181
1749046216.5992663,1.0675325034313141,-1.3791137726247649,2.0815004333973697,-1.1392238844293257,2.946136009208933,-1.949846681466607,-0.2193428743903797,0.06152263882816461,-0.22308310771468584,-0.15221906731259666,0.1709114002082727,-0.230768848878812,-0.5200142860412598,-0.4323153495788574,-1.2112699747085571,-0.5170342326164246,0.1385720372200012,-0.2695298194885254
1749046216.6008391,1.0670979509228127,-1.3789937435698625,2.0810462443295292,-1.139530646752928,2.9464731744223105,-1.9503076373217956,-0.22100392325746274,0.062293350685566844,-0.2249085486657768,-0.15312612704232953,0.17232158851928156,-0.2326271812813767,-0.540743887424469,-0.457169622182846,-1.224581003189087,-0.5406387448310852,0.1340880692005157,-0.2562752366065979
1749046216.6422794,1.06665970128859,-1.3788716435167716,2.080589402493547,-1.1398388744352945,2.9468126561255006,-1.9507722476987455,-0.2227304173776191,0.06307578521332974,-0.22666213620595993,-0.1540661608768002,0.17375202299020026,-0.2344985051936952,-0.49727863073349,-0.4839544296264648,-1.1860272884368896,-0.5505604147911072,0.1220642775297164,-0.2884404063224792
1749046216.6423264,1.0662170868355245,-1.3787473011926163,2.080129713914545,-1.140148819957474,2.9471550205798738,-1.9512411897900992,-0.224529888562044,0.0638497555694233,-0.22834960526238282,-0.1550462153680242,0.1752009145702074,-0.23637439614131314,-0.4805134832859039,-0.4602949321269989,-1.170600175857544,-0.5522472262382507,0.1474354863166809,-0.2829331457614898
1749046216.6423676,1.0657695627988995,-1.3786206481671963,2.0796670277288087,-1.1404607340099135,2.9475008035457013,-1.951715025579082,-0.22640263753532167,0.06459875282428765,-0.22998234256456956,-0.15606887752298879,0.17666650196506795,-0.2382423689800723,-0.5464823246002197,-0.4876456260681152,-1.187457799911499,-0.5756226181983948,0.1487155556678772,-0.2898554503917694
1749046216.6424067,1.065316732671434,-1.3784917046203196,2.079201226505783,-1.140774861843404,2.947850489457269,-1.9521941681113704,-0.2283418432675216,0.06531150588112579,-0.231575939942778,-0.15713123630230594,0.1781460396695667,-0.24008733129568036,-0.4819948077201843,-0.5022128224372864,-1.1709315776824951,-0.5876612663269043,0.1904083341360092,-0.2773421704769134
1749046216.642445,1.0648583578048476,-1.3783605588811383,2.078732210352272,-1.1410914409565363,2.948204493425258,-1.952678863303307,-0.23033443644832713,0.06598287759064468,-0.23314814329527353,-0.15822502187583112,0.17963474598380577,-0.2418937615837435,-0.4819948077201843,-0.5022128224372864,-1.1709315776824951,-0.5876612663269043,0.1904083341360092,-0.2773421704769134
1749046216.642501,1.06439436065153,-1.37822734654861,2.078259888088549,-1.141410694814039,2.9485631394973164,-1.9531691802802558,-0.23236260071580922,0.06661394596000483,-0.23471644659533208,-0.15933809727711912,0.181125112672077,-0.243648221856157,-0.5157076716423035,-0.4947518110275268,-1.1801992654800415,-0.5596588850021362,0.1774140745401382,-0.2363376915454864
1749046216.6425428,1.0639248274396595,-1.3780922331288978,2.0777841834793773,-1.1417328202568648,2.948926632706417,-1.9536650065611147,-0.2344056750283091,0.06721123343179317,-0.23629568044872695,-0.1604570740634661,0.182606892803439,-0.2453417448487361,-0.4694463312625885,-0.4972482323646545,-1.2179032564163208,-0.5432254076004028,0.1725742816925048,-0.2164069414138794
1749046216.6425817,1.063450009330187,-1.377955401242113,2.077305055202559,-1.14205797095936,2.9492950291781215,-1.9541660504129967,-0.23644220337111135,0.06778518319557483,-0.2378959940500894,-0.1615704557569071,0.18406789476138752,-0.24697168819568144,-0.5388321280479431,-0.4668343663215637,-1.2407995462417605,-0.5495847463607788,0.1883847266435623,-0.263756662607193
1749046216.6426198,1.062970316082706,-1.3778170414896203,2.0768225217429865,-1.142386242244912,2.9496682135223993,-1.9546718564376175,-0.23845190682719966,0.06834811088549128,-0.23952160321459035,-0.16267148450180052,0.1854954829441495,-0.24854278009021144,-0.5003892779350281,-0.4875960052013397,-1.2094727754592896,-0.4923450946807861,0.1664023846387863,-0.2474552243947982
1749046216.6426573,1.062486295392404,-1.377677345716211,2.0763366800980254,-1.1427176621323143,2.950045893278871,-1.9551818394859823,-0.240417404137168,0.06891195271538389,-0.24117056166151477,-0.16375985950689065,0.1868784971205657,-0.2500672377592375,-0.451641708612442,-0.4700058698654175,-1.2323076725006104,-0.5028457045555115,0.1574988067150116,-0.2464446872472763
1749046216.6426947,1.0619985933164144,-1.3775365017564076,2.075847709176706,-1.143052191052385,2.9504276169522767,-1.9556953379901554,-0.2423255560555383,0.06948617014262223,-0.24283563462271401,-0.16484175002120374,0.18820920725668477,-0.25156397123752283,-0.4201996326446533,-0.4526833295822143,-1.2059553861618042,-0.4822511672973633,0.1650413274765014,-0.2644306719303131
1749046216.642732,1.0615078950203263,-1.3773946888811888,2.075355852861575,-1.1433897301938136,2.950812817043696,-1.956211683280544,-0.24416835005880227,0.07007615144825008,-0.24450616035564127,-0.16592799491147814,0.18948492405682588,-0.2530569599004734,-0.4684614539146423,-0.4777199923992157,-1.2165858745574951,-0.5303196907043457,0.1284540593624115,-0.2414295971393585
1749046216.6427698,1.0610148499120227,-1.3772520730645952,2.0748613827642113,-1.1437301365905448,2.9512008738931894,-1.9567302773722248,-0.24594327809972227,0.07068237175396248,-0.24617060399716245,-0.16703092489834226,0.19070895693809758,-0.254572921577383,-0.4501390159130096,-0.4570497870445251,-1.1954702138900757,-0.5546925067901611,0.1435876041650772,-0.2284455150365829
1749046216.6428063,1.06051999063285,-1.377108801382978,2.074364546382508,-1.1440732417133985,2.951591190963302,-1.9572506680572817,-0.247653195014209,0.07130044178218231,-0.24781935168154248,-0.16816067664241158,0.19189071900457902,-0.2561384355637814,-0.4831419587135315,-0.4628342092037201,-1.1758548021316528,-0.5849180221557617,0.1190537065267562,-0.2627114951610565
1749046216.6428432,1.060023659638453,-1.3769649955503307,2.0738655114477913,-1.1444188695600317,2.95198326846268,-1.9577726078883275,-0.24930568304986156,0.07192201403183385,-0.24944719051384578,-0.1693220353374539,0.19304490564996232,-0.2577767721053492,-0.4831419587135315,-0.4628342092037201,-1.1758548021316528,-0.5849180221557617,0.1190537065267562,-0.2627114951610565
1749046216.64288,1.0595259572753393,-1.376820745308897,2.073364319001589,-1.1447668509393891,2.952376761869918,-1.9582960853149,-0.25091199058807456,0.07253636004139928,-0.25105492456860173,-0.17051268683638596,0.19418980821039916,-0.2595048098423038,-0.4911280274391174,-0.4981496334075928,-1.1337506771087646,-0.5995948910713196,0.1284929364919662,-0.270973265171051
1749046216.642917,1.0590267199078311,-1.3766761024942098,2.072860854390979,-1.1451170334403054,2.9527715162391934,-1.9588213231487566,-0.25248565320282607,0.07313232437871672,-0.25264972990930673,-0.17172334086653154,0.19534495476762823,-0.26133052654587924,-0.4628300368785858,-0.4813676178455353,-1.135088324546814,-0.5674581527709961,0.1240513175725936,-0.2981410324573517
1749046216.642953,1.0585255289816125,-1.3765310762565708,2.0723548394249454,-1.1454692896670533,2.95316757397671,-1.9593487481720795,-0.2540409336430349,0.07370032213535421,-0.2542441390510066,-0.17293964006046048,0.19652838837367145,-0.2632515481265921,-0.4672626554965973,-0.5118165016174316,-1.1767534017562866,-0.5443863868713379,0.1604222804307937,-0.3051611185073852
1749046216.6429894,1.0580217474839537,-1.3763856300362625,2.0718458453378066,-1.1458235263698864,2.9535651585672116,-1.9598789399780598,-0.2555912388384799,0.07423406877677179,-0.25585388750217725,-0.17414525982618181,0.1977539865265897,-0.2652550913318485,-0.5023232102394104,-0.5165881514549255,-1.2283238172531128,-0.4859619140625,0.1814443469047546,-0.2938081920146942
1749046216.6430256,1.0575145804836608,-1.376239681639388,2.0713333263242606,-1.1461796934794861,2.953964637726262,-1.9604125655347768,-0.25714769441304,0.07473179227194256,-0.2574951390055304,-0.17532529194178192,0.1990292638102541,-0.2673193706359944,-0.5023232102394104,-0.5165881514549255,-1.2283238172531128,-0.4859619140625,0.1814443469047546,-0.2938081920146942
1749046216.6431398,1.057003156842761,-1.3760931079860195,2.070816673289666,-1.1465377885280352,2.954366469533693,-1.960950303678713,-0.2587180632821085,0.07519676371470603,-0.2591817372097261,-0.17646899873277244,0.2003540414747101,-0.26941626640713917,-0.5100964307785034,-0.4997836947441101,-1.250624179840088,-0.5022895336151123,0.170350581407547,-0.2780835330486297
1749046216.6449895,1.056486625485451,-1.3759457547348077,2.070295283313377,-1.1468978524941957,2.954771137506031,-1.9614927659409205,-0.2603061497787597,0.07563708460890978,-0.26092307397939934,-0.1775713208533278,0.20172020298318993,-0.2715148734707407,-0.5248662829399109,-0.4812119901180267,-1.243647217750549,-0.4821791052818298,0.1557909995317459,-0.2816975712776184
1749046216.6862836,1.055964253425892,-1.3757974487885785,2.0697686339723,-1.1472599573014146,2.955179084353191,-1.9620404251926091,-0.2619117280892475,0.07606477113767267,-0.26272295263836765,-0.17863299212410527,0.2031125336439511,-0.2735854817070447,-0.4927966892719269,-0.4916805028915405,-1.2399524450302124,-0.5074100494384766,0.1330545842647552,-0.3143426179885864
1749046216.6863291,1.0554355095396513,-1.375648010611233,2.0692363484421197,-1.1476241891747567,2.9555906556759957,-1.96259356556351,-0.26353092107505743,0.07649426357596305,-0.2645795399204265,-0.17965957172241212,0.20451045255120176,-0.2756035114380724,-0.4935496747493744,-0.4955998063087463,-1.2128431797027588,-0.5466215014457703,0.1345121562480926,-0.2742697596549988
1749046216.686372,1.0549001206025705,-1.3754972641480527,2.0686982396777003,-1.1479906332353376,2.9560060624509084,-1.963152263027687,-0.2651568962096719,0.0769405573646387,-0.26648623307777075,-0.18065998579980797,0.20589034709345114,-0.2775528759521545,-0.5159984230995178,-0.4766142964363098,-1.1954500675201416,-0.5644285678863525,0.13515105843544,-0.2446462661027908
1749046216.6864126,1.0543580927986194,-1.3753450439437618,2.068154328144027,-1.148359363322497,2.956425366201471,-1.9637163981479777,-0.26678075402574153,0.07741720072123527,-0.2684330842370749,-0.18164519008238486,0.2072282116225911,-0.2794282042350665,-0.5142530202865601,-0.4287821352481842,-1.1780229806900024,-0.5589781999588013,0.1596323549747467,-0.2404554784297943
1749046216.6864514,1.053809699986971,-1.375191200596141,2.0676048348137956,-1.148730438053231,2.956848485090722,-1.964285694031247,-0.2683925158329976,0.07793442836751584,-0.27040835252258155,-0.18262732710810092,0.2085023254990443,-0.28123543021785147,-0.4690108895301819,-0.4663300812244415,-1.1855469942092896,-0.5314099192619324,0.1358982026576995,-0.2395980358123779
1749046216.6865065,1.053255447222534,-1.3750356065785587,2.0670501571940902,-1.1491039005152286,2.957275214263168,-1.9648597661760312,-0.26998212734184496,0.07849769452310831,-0.2723997944133707,-0.18361936793021766,0.2096957353133807,-0.28299051499438815,-0.4690108895301819,-0.4663300812244415,-1.1855469942092896,-0.5314099192619324,0.1358982026576995,-0.2395980358123779
1749046216.6865473,1.052696021383947,-1.374878164458549,2.0664908381106746,-1.1494797768347946,2.9577052518845295,-1.9654381697221475,-0.2715403929990815,0.07910682445763706,-0.2743954329042042,-0.1846348928340865,0.21079831777039318,-0.2847164804422556,-0.509406328201294,-0.4476497173309326,-1.1528171300888062,-0.4883178472518921,0.1323791742324829,-0.3150733709335327
1749046216.6865854,1.0521322382035432,-1.3747188181993912,2.065927533323316,-1.1498580702395664,2.958138225027035,-1.966020435380322,-0.2730597786804837,0.07975592186064777,-0.27638373119672743,-0.18568755658413863,0.21180821364286231,-0.2864393495394734,-0.5249471664428711,-0.4505341351032257,-1.1935795545578003,-0.4928649663925171,0.1252515912055969,-0.3152057230472564
1749046216.6866226,1.051564989101008,-1.3745575659887037,2.0653609780656654,-1.150238751043816,2.958573714491958,-1.9666060941887376,-0.2745350663965344,0.08043405572582503,-0.2783532874315628,-0.18678994581236508,0.21273246786071137,-0.28818383613933163,-0.5195137858390808,-0.4777230024337768,-1.2102755308151243,-0.5040916204452515,0.132593885064125,-0.3068089783191681
1749046216.6866603,1.050995187903077,-1.3743944714289007,2.06479195021118,-1.1506217454838896,2.959011280056921,-1.967194695928905,-0.2759638708643428,0.08112662305991995,-0.28029230920169207,-0.18795186482765802,0.2135867954447637,-0.2899696115271668,-0.4637684822082519,-0.4851475954055786,-1.2015368938446045,-0.5543409585952759,0.1529938131570816,-0.287861704826355
1749046216.686699,1.0504237191194477,-1.3742296699051502,2.0642212304766923,-1.1510069259541376,2.95945048599455,-1.9677858241240351,-0.27734701100769943,0.08181717149536151,-0.28218818652944816,-0.18917841775864902,0.21439449985985,-0.29180873991028833,-0.4637684822082519,-0.4851475954055786,-1.2015368938446045,-0.5543409585952759,0.1529938131570816,-0.287861704826355
1749046216.6867363,1.0498513918106736,-1.3740633677981613,2.0636495630231826,-1.1513941044743154,2.959890924688378,-1.9683791073240455,-0.27868869693604403,0.08248939758786804,-0.2840274553572903,-0.19046845109803112,0.21518466433744823,-0.2937045610184736,-0.514029324054718,-0.4789404273033142,-1.2041330337524414,-0.5657495260238647,0.1196589916944503,-0.3197945952415466
1749046216.686789,1.0492789014428143,-1.3738958328393016,2.0630776182570143,-1.1517830326979754,2.960332237391347,-1.9689742274633506,-0.27999648028028906,0.08312902763184755,-0.2857963377166626,-0.19181389785676486,0.21598978780964495,-0.2956520289165075,-0.5294715166091919,-0.4928984642028808,-1.195311427116394,-0.5589250326156616,0.1297774314880371,-0.3309924900531769
1749046216.6868289,1.0487067978296094,-1.373727374546798,2.062505955456895,-1.1521734137784159,2.960774134143403,-1.9695709299097568,-0.2812809234210743,0.08372533478919618,-0.28748187343153436,-0.19320031648011304,0.21684304644395883,-0.29763931049029746,-0.4850150644779205,-0.4799343943595886,-1.1692320108413696,-0.5519759654998779,0.1034309267997741,-0.3232460618019104
1749046216.6868663,1.0481354560407017,-1.3735583154480147,2.061934982191169,-1.1525649298503846,2.961216415128576,-1.9701690402046652,-0.28255495584537915,0.08427212680681012,-0.28907346246656557,-0.19460853238618828,0.21777536319932728,-0.2996502504845658,-0.4985264241695404,-0.5127109885215759,-1.1875094175338743,-0.4895992279052734,0.1281567364931106,-0.2518496811389923
1749046216.686905,1.0475650510654917,-1.3733889567201938,2.0613649124639064,-1.1529572828260055,2.96165899211569,-1.970768487199692,-0.2838329119458875,0.08476812150775385,-0.2905644863660959,-0.19601692503390789,0.21881249450465198,-0.3016671112906883,-0.4985264241695404,-0.5127109885215759,-1.1875094175338743,-0.4895992279052734,0.1281567364931106,-0.2518496811389923
1749046216.6869516,1.0469955416343468,-1.373219544271848,2.060795731354955,-1.1533502397410011,2.9621019046947694,-1.9713693259288316,-0.28512930107455836,0.08521669346537299,-0.2919536290402536,-0.19740372506629644,0.2199723917768105,-0.3036728947798224,-0.5547358393669128,-0.5425754189491272,-1.1541718244552612,-0.5125159621238708,0.1427884399890899,-0.2429003715515136
1749046216.6869905,1.0464266691850144,-1.3730502414608199,2.0602271752330745,-1.1537436716725633,2.962545325380484,-1.9719717513784842,-0.28645742843567845,0.08562502912936816,-0.29324557744880975,-0.19874878721934391,0.22126312672641782,-0.30565268449981675,-0.5084758996963501,-0.4923087656497955,-1.1364152431488037,-0.5275128483772278,0.1792584210634231,-0.2955474853515625
1749046216.6870282,1.0458579750942247,-1.372881112755076,2.059658733520537,-1.1541375777706855,2.9629895501058017,-1.9725760964593597,-0.2878280201205575,0.08600278600746024,-0.29445091335300816,-0.20003463304213798,0.22268164401255036,-0.3075938185503527,-0.5084758996963501,-0.4923087656497955,-1.1364152431488037,-0.5275128483772278,0.1792584210634231,-0.2955474853515625
1749046216.6870656,1.0452888358250534,-1.3727121200139585,2.0590896735081476,-1.1545320907544288,2.9634349742602857,-1.9731828114578682,-0.2892479961315242,0.08636042352336994,-0.29558516394024315,-0.20124693057440965,0.22421351587620753,-0.3094851467514763,-0.5288012027740479,-0.469483345746994,-1.1635637283325195,-0.5471088886260986,0.177716851234436,-0.336033821105957
1749046216.6871808,1.0447185120768587,-1.3725431305927769,2.0585190851597432,-1.1549274654460153,2.963882058325915,-1.9737924272325722,-0.2907195147979073,0.08670744796986839,-0.29666713272530276,-0.2023748015762729,0.2258337444352529,-0.31131591910265716,-0.5728054046630859,-0.4540688395500183,-1.1771011352539062,-0.5739955902099609,0.1792236119508743,-0.3023141920566559
1749046216.6887853,1.0441462049410277,-1.3723739347202137,2.057945939397246,-1.15532405581588,2.9643312898131615,-1.9744055090017005,-0.292239402956883,0.08705085865996394,-0.29771676160590965,-0.20341132691981284,0.22750852123598572,-0.31307488668164735,-0.6629377603530884,-0.4411909580230713,-1.207036375999451,-0.580926239490509,0.1813031435012817,-0.336388885974884
1749046216.7302847,1.0435711124709228,-1.3722042692730994,2.057369153804625,-1.1557222861197063,2.9647831468915746,-1.9750226078915505,-0.29379906605567147,0.08739405961948599,-0.2987528587592218,-0.2043543837838951,0.22919774140424035,-0.31475001921734663,-0.5156357884407043,-0.5018921494483948,-1.226419448852539,-0.5193865299224854,0.1234766095876693,-0.305903673171997
1749046216.730331,1.0429924845220826,-1.3720338460164019,2.056787663928992,-1.1561226179427966,2.9652380641458382,-1.9756442126860745,-0.2953849131264913,0.08773640589945171,-0.2997910482185567,-0.20520760961308568,0.2308580077636199,-0.3163289869268588,-0.5156357884407043,-0.5018921494483948,-1.226419448852539,-0.5193865299224854,0.1234766095876693,-0.305903673171997
1749046216.7303724,1.0424096771289648,-1.3718623831063135,2.056200501034675,-1.1565255115209,2.9656963973308494,-1.9762707001285895,-0.29697925419844906,0.08807342579804348,-0.30084225115082447,-0.20598102007406158,0.2324458615293689,-0.317800323621024,-0.564050555229187,-0.4821301102638244,-1.2161540985107422,-0.5380420684814453,0.1922763139009475,-0.3262135982513428
1749046216.730411,1.0418222053165347,-1.3716896379971526,2.055606873661075,-1.1569313808262025,2.9661583861826606,-1.9769022844919797,-0.2985615824743286,0.08839764738799255,-0.3019119076098425,-0.20669077062883298,0.23392102707206108,-0.3191550078707399,-0.5914736390113831,-0.512252926826477,-1.2155259847640991,-0.5195660591125488,0.1789752840995788,-0.3164748549461365
1749046216.7304502,1.0412297872892886,-1.3715154384175365,2.055006242995759,-1.1573405467921174,2.966624120370789,-1.9775389742418465,-0.3001101474162052,0.08869987572003082,-0.30300001298150697,-0.207357779547842,0.23524951491991075,-0.32038805290744876,-0.5587418079376221,-0.5265559554100037,-1.214601755142212,-0.5593870282173157,0.2026966214179992,-0.2471893876791
1749046216.730488,1.0406323697325124,-1.3713397071769173,2.0543983775618577,-1.1577531971285338,2.967093517826663,-1.9781805483043824,-0.3016037080375119,0.08897071086557685,-0.30410189832408335,-0.20800530860776772,0.2364064353703139,-0.32149961434018814,-0.5277131795883179,-0.5347165465354919,-1.2026851177215576,-0.5778170824050903,0.1591289043426513,-0.243875190615654
1749046216.7305262,1.040030126245582,-1.3711624767107928,2.053783374477459,-1.1581693615840942,2.967566324022759,-1.978826562530989,-0.3030232990097387,0.0892020708023422,-0.30520955163402386,-0.20865595393331002,0.23737831359843484,-0.32249519914667535,-0.5469039678573608,-0.5273697972297668,-1.240057110786438,-0.594001293182373,0.1239852905273437,-0.2810654640197754
1749046216.7305644,1.0394234262376294,-1.3709838900839904,2.053161640744782,-1.158588908929922,2.9680421368270604,-1.979476390327513,-0.3043537849660197,0.08938849723387293,-0.30631318521277046,-0.20932869676738766,0.23816460979348578,-0.3233848357899734,-0.5808870792388916,-0.5340079665184021,-1.267751693725586,-0.6269176006317139,0.1715904623270034,-0.3109402656555176
1749046216.730602,1.0388127769838864,-1.3708041865674894,2.0525338355615084,-1.1590115679432158,2.9685204565997068,-1.980129293935679,-0.30558497372106447,0.08952807100620555,-0.307402723516436,-0.21003663317107812,0.2387781215941627,-0.3241814382183825,-0.5166420936584473,-0.5418130159378052,-1.192532300949097,-0.6047696471214294,0.1248229146003723,-0.3130612075328827
1749046216.7306397,1.0381987463806222,-1.3706236722741254,2.051900782001277,-1.1594369698701852,2.969000755872807,-1.9807845163997315,-0.30671211403264353,0.08962282942112008,-0.30846892097633344,-0.21078576472317648,0.2392440412996285,-0.32489886184092576,-0.4858921468257904,-0.5104854106903076,-1.2106260061264038,-0.5963194370269775,0.1349900662899017,-0.2951158583164215
1749046216.7306814,1.0375818787036517,-1.3704426796601206,2.051263363089161,-1.159864704588598,2.969482557305106,-1.9814413788460588,-0.3077357014280708,0.08967864814586288,-0.30950392156663287,-0.21157490500721776,0.23959763634314513,-0.32555018164515015,-0.5710657238960266,-0.527311384677887,-1.234135627746582,-0.5779872536659241,0.1615281403064727,-0.2899182438850403
1749046216.7307286,1.0369626194706358,-1.3702615229136568,2.0506224220046776,-1.1602943783109338,2.9699655040454136,-1.9820993640604077,-0.30866064967194073,0.08970461702928118,-0.31050123621614356,-0.2123964858008087,0.23988073689568912,-0.3261465664788288,-0.5710657238960266,-0.527311384677887,-1.234135627746582,-0.5779872536659241,0.1615281403064727,-0.2899182438850403
1749046216.730776,1.0363412653415067,-1.3700804576393277,2.0499786859581746,-1.1607256596981994,2.970449406318667,-1.982758168471965,-0.3094950270346502,0.0897119946545919,-0.3114552940949861,-0.21323792412078937,0.24013738056521014,-0.3266969045779127,-0.5436035394668579,-0.534252941608429,-1.2530826330184937,-0.5704314708709717,0.1350767910480499,-0.2942913770675659
1749046216.7308147,1.03571794880075,-1.3698996518678865,2.049332726385654,-1.161158305248449,2.970934253957918,-1.9834177127232946,-0.3102486348434024,0.08971287247883583,-0.3123608337240975,-0.21408323537413934,0.24040906944856455,-0.3272081260952369,-0.5032313466072083,-0.5274463295936584,-1.2053900957107544,-0.5872805714607239,0.1519224196672439,-0.3195787072181701
1749046216.7308547,1.0350926582221922,-1.3697191722999253,2.0486849578815303,-1.1615921615339093,2.971420193950888,-1.9840781122728737,-0.31093167613001405,0.08971872217686828,-0.3132123831149037,-0.21491468102598846,0.24073016373490014,-0.32768597552350887,-0.53490149974823,-0.5001137256622314,-1.1937015056610107,-0.6002321243286133,0.1746207475662231,-0.2891627550125122
1749046216.7309058,1.0344652880099916,-1.369538986918839,2.0480356713066237,-1.1620271466406553,2.971907478988309,-1.9847396163676063,-0.31155366666808926,0.08973903459910265,-0.314003958630984,-0.2157143399810026,0.24112398264668072,-0.3281358330503471,-0.5450196266174316,-0.4864389896392822,-1.1919392347335815,-0.5852799415588379,0.1920634806156158,-0.2315602302551269
1749046216.730945,1.033835712602545,-1.3693589835593782,2.0473850948699646,-1.1624632142635938,2.9723963949942678,-1.9854025237637831,-0.3121226536199639,0.0897802662308682,-0.31472897028660995,-0.2164655348934191,0.24160018474125908,-0.328563142462971,-0.5450196266174316,-0.4864389896392822,-1.1919392347335815,-0.5852799415588379,0.1920634806156158,-0.2315602302551269
1749046216.7309835,1.0332038772551226,-1.3691790025479698,2.046733475872362,-1.162900304406325,2.9728871760317577,-1.9860670825478073,-0.3126447505803672,0.08984526894351937,-0.3153802340410829,-0.2171540177876093,0.2421539047439875,-0.32897313755474045,-0.4857555329799652,-0.5570402145385742,-1.1671608686447144,-0.5681995749473572,0.1959136724472046,-0.2598944008350372
1749046216.7310214,1.0325698929532372,-1.3689988787581913,2.046081170407542,-1.1633382879500818,2.973379917925698,-1.9867333854689972,-0.3131239523930212,0.08993328913938449,-0.3159499927015963,-0.21776876711821838,0.2427668957850587,-0.3293698449234666,-0.4824928641319275,-0.5113405585289001,-1.194250226020813,-0.5719411969184875,0.2093047201633453,-0.3110488355159759
1749046216.7310596,1.03193411499487,-1.368818484991406,2.045428720783084,-1.1637769173828445,2.973874506586231,-1.9874012796281948,-0.3135621565365437,0.09004050734493332,-0.3164299199170353,-0.2183022462250273,0.24341058128589943,-0.3297546617056959,-0.510140061378479,-0.5226949453353882,-1.1608630418777466,-0.5392073392868042,0.1893353164196014,-0.304213672876358
1749046216.731168,1.0312971818478773,-1.3686377668435847,2.044776897430674,-1.1642157984007475,2.974370578651339,-1.9880703129439863,-0.3139593116537655,0.09016098496979601,-0.31681118258481084,-0.21875007870075291,0.24405053518605677,-0.3301250198033861,-0.5374825596809387,-0.5089511275291443,-1.19855535030365,-0.5867853164672852,0.202029675245285,-0.308865487575531
1749046216.7328992,1.0306599966520769,-1.3684567606135365,2.0441266871923824,-1.1646543944503542,2.9748675278026284,-1.9887397353908691,-0.31431364279803137,0.09028781613512459,-0.31708471880266736,-0.21911029713945648,0.24465158857844077,-0.3304736662879678,-0.5236533284187317,-0.5244169235229492,-1.202148675918579,-0.6113904714584351,0.147392451763153,-0.300063282251358
1749046216.778293,1.030023646142982,-1.3682755897346037,2.043479221380263,-1.1650920695074434,2.97536456103835,-1.9894085622137292,-0.3146219403744982,0.09041425601700845,-0.3172419087919014,-0.2193825190111232,0.24518261075800044,-0.3307889206626562,-0.4519740343093872,-0.5527292490005493,-1.1701027154922483,-0.6117953062057495,0.1309949159622192,-0.3130102753639221
1749046216.7783437,1.0293892667475,-1.3680944403112922,2.0428356515174526,-1.165528165424339,2.975860797994436,-1.990075692648132,-0.3148799229678565,0.0905346123489816,-0.3172757472199112,-0.21956746198031343,0.24562010479858778,-0.33105599177512457,-0.5290127396583557,-0.5425882339477539,-1.1751493215560913,-0.60291588306427,0.1571335792541504,-0.3201532959938049
1749046216.7783854,1.0287578813660898,-1.3679135214674525,2.0421969947496095,-1.1659621009564693,2.976355395747277,-1.9907400641939876,-0.3150827003958527,0.09064474374468648,-0.31718247698015256,-0.21966705914684523,0.24595008312722816,-0.3312591419297677,-0.5290127396583557,-0.5425882339477539,-1.1751493215560913,-0.60291588306427,0.1571335792541504,-0.3201532959938049
1749046216.778426,1.028130238693362,-1.3677330199066118,2.0415639800457965,-1.166393472939135,2.9768476746065144,-1.9914008130939151,-0.31522537340297085,0.09074210229514905,-0.31696346586984797,-0.21968512881729294,0.24616813199615611,-0.33138424919790954,-0.4681793451309204,-0.5003636479377747,-1.099148511886597,-0.5373689532279968,0.1501509249210357,-0.2535808086395263
1749046216.7784648,1.0275066863285736,-1.3675530587753553,2.0409369264188078,-1.1668221388829016,2.9773372201630166,-1.9920574103412545,-0.31530377877650295,0.09082536729388489,-0.31662695753688014,-0.21962824721926644,0.24627796421048753,-0.3314212045977372,-0.4681793451309204,-0.5003636479377747,-1.099148511886597,-0.5373689532279968,0.1501509249210357,-0.2535808086395263
1749046216.778504,1.0268870998740867,-1.3673736684614461,2.040315675641762,-1.1672482648200375,2.977823943450349,-1.992709749752386,-0.3153153105508361,0.09089381117961574,-0.3161892566479995,-0.21950632786982832,0.24628898050757728,-0.33136563157672116,-0.445793092250824,-0.4993573427200317,-1.0977298021316528,-0.5487827062606812,0.1737726628780365,-0.2505551278591156
1749046216.778543,1.026270877644894,-1.367194773121066,2.039699589227045,-1.1676723298606138,2.9783080910946444,-1.9933581760150854,-0.31525966857449966,0.09094659642252152,-0.3156749549315933,-0.21933251444345608,0.24621341334379993,-0.3312196252852987,-0.4948049485683441,-0.4971836805343628,-1.1442641019821167,-0.5873528122901917,0.1322234719991684,-0.2883753180503845
1749046216.7785816,1.025656999856716,-1.3670161935624388,2.039087608284591,-1.168095086350952,2.978790206409289,-1.9940034507453799,-0.3151393655087588,0.09098221419757137,-0.31511597533288804,-0.2191222969609935,0.24606358679875326,-0.3309915018567549,-0.4948049485683441,-0.4971836805343628,-1.1442641019821167,-0.5873528122901917,0.1322234719991684,-0.2883753180503845
1749046216.778619,1.0250441434405815,-1.3668376651557606,2.0384783668354376,-1.1685174808133207,2.979271048942083,-1.9946466621760817,-0.3149598686309577,0.09099823710716066,-0.3145494521780168,-0.21889208960166603,0.24584975595096223,-0.3306947964302929,-0.4534270465373993,-0.502252459526062,-1.1549159288406372,-0.6056495308876038,0.1707088500261306,-0.2774908542633056
1749046216.7786565,1.0244308366448405,-1.366658867934914,2.0378703422335778,-1.1689405470136924,2.979751485503881,-1.9952890917885873,-0.314729328696863,0.09099147210377391,-0.3140146888070951,-0.21865767936380526,0.24557890243587224,-0.3303468550078259,-0.4876520037651062,-0.5586931705474854,-1.1496586799621582,-0.6039914488792419,0.1624890714883804,-0.2737457454204559
1749046216.778694,1.0238156310389277,-1.3664794646213072,2.0372620203150773,-1.1693652880633278,2.9802323706472618,-1.9959320592314058,-0.31445792600412337,0.09095848913537052,-0.3135495814548849,-0.21843290923867717,0.24525472968419174,-0.32996733132224915,-0.4775548577308655,-0.534504234790802,-1.1674281358718872,-0.6062962412834167,0.1820582747459411,-0.283842384815216
1749046216.778738,1.0231972658235164,-1.3662991414610208,2.0366520509517803,-1.169792566471685,2.9807144363327307,-1.9965767708966902,-0.3141569294143981,0.09089640165871046,-0.31318696440296273,-0.21822877160091994,0.24487887817347756,-0.3295768034496384,-0.4836762547492981,-0.5978653430938721,-1.188650608062744,-0.5784876346588135,0.1367614865303039,-0.305824875831604
1749046216.7787871,1.0225748025110022,-1.3661176468627758,2.0360393735512448,-1.1702230179269293,2.9811982072804577,-1.9972241945896485,-0.31383760221282886,0.0908037148927539,-0.31295133835106964,-0.21805287557281844,0.24445307266800675,-0.3291956293523477,-0.4447432160377502,-0.5564497709274292,-1.2020738124847412,-0.588632345199585,0.1307194232940673,-0.3186357915401459
1749046216.7788272,1.021947715027109,-1.3659348234612338,2.0354232993015686,-1.1706569981534136,2.9816839519142713,-1.9978749750408933,-0.31351009366808075,0.09068104829293569,-0.3128564033576126,-0.21790911375713806,0.24398161700395063,-0.3288430691750988,-0.4477793276309967,-0.553900957107544,-1.2144358158111572,-0.5685070753097534,0.0947167128324508,-0.2880877256393432
1749046216.7788646,1.0213159280306923,-1.3657506298886715,2.0348035443448746,-1.171094565505049,2.9821716718237745,-1.9985293965664672,-0.3131824474399655,0.09053157805031388,-0.31290372609432254,-0.2177973475824816,0.24347351472803952,-0.32853660029809534,-0.4976788759231567,-0.5455737113952637,-1.178052306175232,-0.5708305835723877,0.0968572348356247,-0.2744197845458984
1749046216.778902,1.0206798031949704,-1.3655651491458094,2.034180214291156,-1.1715354967905331,2.9826611270270766,-1.9991873921544496,-0.3128598604913713,0.09036111425928861,-0.31308273024741956,-0.21771305818587222,0.24294360635896098,-0.3282912677144203,-0.4734576344490051,-0.5410130023956299,-1.2080719470977783,-0.5759455561637878,0.1106983721256256,-0.2314421087503433
1749046216.778941,1.0200400790519613,-1.3653785815370076,2.0335537457994706,-1.171979330472414,2.9831518902971124,-1.999848592915084,-0.31254433137886684,0.09017779511845474,-0.31337202926209884,-0.21764710303060764,0.2424124379729786,-0.3281189130303953,-0.2438918948173523,-0.5840762853622437,-1.0727572441101074,-0.5473310947418213,0.1142656505107879,-0.2304773181676864
1749046216.7789786,1.0193977751196124,-1.3651912223899532,2.03292481596183,-1.1724254290906586,2.983643420917526,-2.0005124074440785,-0.3122348212237121,0.08999142735789632,-0.31374194904269503,-0.21758586918782527,0.2419049606837753,-0.32802724413249484,-0.5228379964828491,-0.5726112723350525,-1.2334492206573486,-0.6021249890327454,0.120680995285511,-0.307500422000885
1749046216.779016,1.018754075701011,-1.3650034281520331,2.0322942351277855,-1.1728730506508522,2.9841351458776457,-2.001178116468839,-0.3119280009960415,0.08981253295431875,-0.31415792450421737,-0.21751213088725826,0.24144842754839843,-0.32801889521253225,-0.4922791719436645,-0.5237897038459778,-1.1649750471115112,-0.5977917313575745,0.1040720641613006,-0.2919208109378814
1749046216.7790534,1.018110211868847,-1.364815577567078,2.0316628422469387,-1.1733214172543303,2.984626535120114,-2.0018449651138885,-0.3116195587837117,0.08965119538656467,-0.3145842963008685,-0.2174067661297852,0.2410699046610521,-0.3280907726522549,-0.4922791719436645,-0.5237897038459778,-1.1649750471115112,-0.5977917313575745,0.1040720641613006,-0.2919208109378814
1749046216.7790906,1.0174673588863392,-1.3646280355946039,2.0310314204242825,-1.1737697706660741,2.985117158979979,-2.0025122365526338,-0.31130587909801544,0.0895158399645302,-0.3149879149854132,-0.2172512060929858,0.24079369527598446,-0.32823399385056024,-0.3918434977531433,-0.5786552429199219,-1.134016990661621,-0.5368033051490784,0.0989594310522079,-0.3043504953384399
1749046216.7791274,1.0168265592058825,-1.3644411257592808,2.0304006421469314,-1.174217410117647,2.9856067217076188,-2.003179298786558,-0.310985735380194,0.08941211520453085,-0.31534096575581294,-0.21703020089585728,0.24063884022601356,-0.3284345955932217,-0.4234308004379272,-0.5286577939987183,-1.1531099081039429,-0.5412232875823975,0.0795433744788169,-0.306496798992157
1749046216.779244,1.0161886719601667,-1.3642551130074776,2.0297710425081323,-1.1746637145491325,2.9860950723227786,-2.003845626804525,-0.3106615660087563,0.08934204863586226,-0.31562262402897,-0.21673433128315264,0.24061682550779476,-0.3286749783913909,-0.4325045049190521,-0.5298718810081482,-1.19337797164917,-0.5141347646713257,0.1207863241434097,-0.2726086378097534
1749046216.7807682,1.0155543449651478,-1.3640701962332726,2.0291430124103447,-1.1751081545948836,2.986582197929133,-2.004510807900352,-0.3103399921435543,0.08930363073124829,-0.31581948948567906,-0.2163617579083142,0.2407297036608057,-0.3289358392681354,-0.3570843636989593,-0.5650072693824768,-1.1638976335525513,-0.5350370407104492,0.1403769850730896,-0.2706163227558136
1749046216.8222785,1.0149240063359375,-1.3638865085155216,2.0285168049211935,-1.1755502976255205,2.987068203483255,-2.005174536189172,-0.3100314354921938,0.0892909362059388,-0.315925072532084,-0.21591893833412312,0.2409689348497209,-0.3291981987028704,-0.3570843636989593,-0.5650072693824768,-1.1638976335525513,-0.5350370407104492,0.1403769850730896,-0.2706163227558136
1749046216.8223248,1.014297874589905,-1.3637041228991211,2.0278925513520942,-1.1759898064040772,2.9875532799305677,-2.0058365990024853,-0.3097489174418032,0.08929481780651517,-0.315938785422242,-0.21542032362665056,0.2413152768582828,-0.3294451109186695,-0.4417673349380493,-0.5513823628425598,-1.1925638914108276,-0.5224753022193909,0.1677256822586059,-0.2452985048294067
1749046216.8223653,1.0136759834029287,-1.3635230611425362,2.0272702831901688,-1.176426432760919,2.988037663906137,-2.0064968586503014,-0.3095063098087464,0.08930411149631215,-0.31586487909573685,-0.21488723208078658,0.24173994142841615,-0.32966277577559483,-0.4854984283447265,-0.5674676299095154,-1.197824478149414,-0.5418746471405029,0.1380588114261627,-0.2498359978199005
1749046216.822404,1.0130582120654394,-1.363343302595213,2.0266499528561313,-1.1768600108606395,2.9885215956988547,-2.007155236326061,-0.30931642779488827,0.08930719746223045,-0.31571161014402255,-0.21434613320608165,0.24220699645680807,-0.3298409822123958,-0.519263505935669,-0.5783653855323792,-1.1263140439987185,-0.5331876277923584,0.1400493830442428,-0.2735827565193176
1749046216.8224416,1.0124443119070765,-1.3631647913255462,2.026031446358689,-1.1772904552188028,2.9890052830825504,-2.0078117044950203,-0.30918937119086526,0.08929369017872923,-0.3154907030976239,-0.21382651772249553,0.24267670686831586,-0.3299730032338919,-0.4990443289279938,-0.5741442441940308,-1.193586349487305,-0.5144457221031189,0.0969161540269851,-0.2991518378257751
1749046216.8224795,1.0118339247528945,-1.3629874415750818,2.025414586222647,-1.1777177649982784,2.98948887522302,-2.008466288465824,-0.3091314136136063,0.08925599470926246,-0.3152169821840881,-0.21335848036753965,0.2431092870351778,-0.330055156641268,-0.4990443289279938,-0.5741442441940308,-1.193586349487305,-0.5144457221031189,0.0969161540269851,-0.2991518378257751
1749046216.8225172,1.0112265961972895,-1.3628111428693608,2.024799128531839,-1.1781420320398879,2.989972446864469,-2.009119072617524,-0.3091445549456174,0.08919047420051143,-0.31490795593696363,-0.21297016031990584,0.24346848147151934,-0.33008623511302143,-0.4789067208766937,-0.5873836874961853,-1.1530838012695312,-0.5408850908279419,0.1225594952702522,-0.2653407752513885
1749046216.8225546,1.0106217878671047,-1.3626357655021117,2.0241847583030843,-1.1785634494284078,2.990455992281422,-2.009770207025886,-0.3092266758817454,0.0890980307041251,-0.3145831672441715,-0.21268525963999665,0.2437245153651759,-0.33006693225184697,-0.4491135478019714,-0.5632757544517517,-1.1803743839263916,-0.5742812156677246,0.1282017827033996,-0.252672791481018
1749046216.8225925,1.0100188899958473,-1.3624611656009407,2.0235710843699275,-1.1789823190802575,2.990939429857486,-2.0104199136137932,-0.30937213017522464,0.08898400023453552,-0.31426323354981917,-0.2125209399013183,0.2438561828748119,-0.3299993000396585,-0.4904447793960571,-0.6060221195220947,-1.1814159154891968,-0.5532791614532471,0.1232399046421051,-0.276557445526123
1749046216.822633,1.0094172347576813,-1.3622871886531784,2.0229576346570406,-1.179399056819198,2.991422617295918,-2.0110684910023395,-0.3095725892507844,0.08885737825584612,-0.31396863781675066,-0.21248641044074518,0.24385204959435802,-0.32988621337971497,-0.4438576698303222,-0.5705194473266602,-1.2374478578567505,-0.5648301243782043,0.1313538253307342,-0.2608453035354614
1749046216.822671,1.0088161140560037,-1.3621136718205114,2.022343856975925,-1.1798141906450095,2.991905373416196,-2.0117163127432645,-0.3098179903367985,0.08872949760106957,-0.31371843812244304,-0.2125824175861624,0.2437108586797502,-0.3297308128899683,-0.4438576698303222,-0.5705194473266602,-1.2374478578567505,-0.5648301243782043,0.1313538253307342,-0.2608453035354614
1749046216.822714,1.0082148077818762,-1.3619404469543908,2.0217291337448193,-1.1802283460698426,2.9923874995384385,-2.0123638108265607,-0.310097497403046,0.08861236849183945,-0.31352910358644875,-0.21280163744389105,0.243441246867824,-0.3295359408309205,-0.5159777998924255,-0.5404430031776428,-1.2206295728683472,-0.5561533570289612,0.0933310836553573,-0.2687632441520691
1749046216.8227596,1.0076126247873252,-1.3617673461014546,2.0211128155950218,-1.180642215108679,2.992868795693403,-2.0130114408992212,-0.31040042483150165,0.08851695683646682,-0.31341364113780645,-0.2131297479687472,0.243060847272351,-0.3293036512149281,-0.500049889087677,-0.5312219858169556,-1.2076544761657717,-0.5346000790596008,0.0932988971471786,-0.2642699480056762
