nimar13/UR3e_dataset_trayectorias/trayectorias_ejecutadas_filtradas/trapezoidal/trayectoria_047_result_filtrado.csv
timestamp,q1,q2,q3,q4,q5,q6,qd1,qd2,qd3,qd4,qd5,qd6,tau1,tau2,tau3,tau4,tau5,tau6
1749047626.6582868,-0.8776334090538933,-0.3449147062391153,-0.2665103491036681,-4.288074149416842,0.4379348669733959,5.366654642355192,-3.277082552400484e-05,-0.0005087773073684513,-0.00022723827125681922,0.0014495978027893317,-0.0001538782054270272,-0.0033141197319062608,-0.1624566912651062,-1.5449215173721311,-0.7116492390632629,0.3835362792015075,-0.5608053803443909,0.0131857171654701
1749047626.6583338,-0.877625258188434,-0.34491515806964357,-0.2665127363713406,-4.288073793088155,0.4379330626938993,5.366651405625184,-4.437861280397743e-05,-0.0004895253471669259,-0.0002275332434732878,0.0013177644595133203,-0.00014842759844378722,-0.0030228455930829596,-0.1748638302087783,-1.5360041856765747,-0.7128328680992126,0.3796745240688324,-0.5521920919418335,0.0039697811007499
1749047626.6583743,-0.8776172907365567,-0.3449156410999481,-0.2665150903891369,-4.288073476612082,0.4379313785868599,5.3666482100306485,-5.4190393479982966e-05,-0.0004706181598550082,-0.00022769186963253734,0.0011860358022116931,-0.00014295708229189203,-0.00273866805122932,-0.1596417278051376,-1.542676329612732,-0.7161912322044373,0.3764977753162384,-0.5629123449325562,0.0324906185269355
1749047626.6584134,-0.8776097748394011,-0.34491612016727174,-0.266517341007911,-4.288073200553873,0.43792991858560737,5.366645096648353,-6.064365012299215e-05,-0.00045206831026034104,-0.0002269916679060891,0.0010568916413237466,-0.00013765568546164535,-0.0024677835414152016,-0.179372102022171,-1.5170109272003174,-0.7193835973739624,0.3885799944400787,-0.5605357885360718,-0.0113524720072746
1749047626.6584508,-0.8776029484027761,-0.3449165606039766,-0.26651942106209003,-4.288072963427789,0.4379287744601252,5.366642111559292,-6.213286836237632e-05,-0.00043386851665776915,-0.00022460803747531232,0.0009328017365937046,-0.0001327425522747257,-0.0022159558304198257,-0.1816615462303161,-1.525951266288757,-0.7419869899749756,0.3701735734939575,-0.5616587996482849,0.0119214802980422
1749047626.6584885,-0.8775970042695054,-0.3449169306922049,-0.2665212691114614,-4.2880727625543225,0.43792802075769566,5.366639303697219,-5.717724441996545e-05,-0.00041599092120203905,-0.00021968507207041166,0.0008161568447372819,-0.00012845348177820446,-0.001988149603595358,-0.183314174413681,-1.5088131427764893,-0.7161874175071716,0.3821399509906769,-0.5576126575469971,-0.0138698816299438
1749047626.6585252,-0.8775920833151766,-0.3449172026583677,-0.266522831648459,-4.288072594260018,0.4379277101855127,5.366636722138268,-4.46197489703563e-05,-0.00039838754661482447,-0.0002114298929368542,0.0007092147896248628,-0.00012502204561923812,-0.0017881724358349167,-0.1965955793857574,-1.518908143043518,-0.7207320332527161,0.3894375264644623,-0.561659574508667,0.0073421224951744
1749047626.658563,-0.8775882732557835,-0.34491735266518425,-0.2665240651858781,-4.288072453798791,0.4379278697945683,5.366634412940514,-2.3843864868238812e-05,-0.0003809918487413173,-0.00019922648351693986,0.0006140531503075354,-0.00012265582412092577,-0.0016183534227146186,-0.1951248198747635,-1.5059442520141602,-0.7385467886924744,0.3871128559112549,-0.5741719007492065,0.0268332660198211
1749047626.6586,-0.8775856104153956,-0.34491736055143557,-0.26652493844160613,-4.2880723354485015,0.4379284984201132,5.3666324156627025,5.011341628389474e-06,-0.0003637213726144892,-0.0001827618254858263,0.0005325161189323593,-0.00012150894679986711,-0.001479287923067376,-0.1951248198747635,-1.5059442520141602,-0.7385467886924744,0.3871128559112549,-0.5741719007492065,0.0268332660198211
1749047626.6586375,-0.8775840826779332,-0.34491720999224845,-0.26652543446150695,-4.2880722329552095,0.4379295658140602,5.3666307597217635,4.0862202856075595e-05,-0.0003464815862016962,-0.0001621539741697404,0.00046614359339783876,-0.00012165283432160332,-0.0013696748287072998,-0.186801329255104,-1.4880365133285522,-0.7323271632194519,0.3700123131275177,-0.5860174894332886,-0.003745898604393
1749047626.6586795,-0.8775836330948893,-0.3449168893385211,-0.2665255522911493,-4.288072140065466,0.43793101375821053,5.36662946076432,8.154559050600226e-05,-0.0003291708841586217,-0.000138068957615691,0.00041607453207105204,-0.0001230477693718557,-0.001286267599522755,-0.2008458375930786,-1.4923285245895386,-0.7414007782936096,0.3698075115680694,-0.5871449708938599,-0.0097715221345424
1749047626.6587298,-0.8775841642149654,-0.3449163929210285,-0.26652530781438455,-4.288072050693031,0.4379327592283557,5.3666285173790165,0.00012376795441845756,-0.00031168670933103546,-0.00011181147486428084,0.0003829223443402622,-0.00012551861251825086,-0.001223955698487306,-0.2251841723918914,-1.4801945686340332,-0.7471186518669128,0.3703094124794006,-0.5845378637313843,0.0041428580880165
1749047626.6587746,-0.8775855431992622,-0.34491572242225643,-0.26652473353306955,-4.28807195850742,0.43793469948688557,5.36662790892786,0.00016316682195487094,-0.0002939328523831564,-8.53737095226822e-05,0.00036662675601842754,-0.00012873851814407809,-0.0011759896805827738,-0.2073412388563156,-1.483131766319275,-0.7540081143379211,0.3590728044509887,-0.584226131439209,-0.0043785944581031
1749047626.6588132,-0.8775876077661429,-0.34491488811537924,-0.26652387731409294,-4.2880718562011735,0.4379367188916719,5.366627595761591,0.00019450873035302256,-0.00027582813111335817,-6.14274784398751e-05,0.0003662938310293592,-0.0001322247396793992,-0.001134359394776956,-0.2265955805778503,-1.4618679285049438,-0.7436746954917908,0.3684467077255249,-0.5742144584655762,-0.0037516430020332
1749047626.658851,-0.8775901732488078,-0.3449139100796818,-0.26652280041484117,-4.288071735004255,0.4379386971232289,5.366627522955338,0.00021203918136989888,-0.0002573166259030936,-4.324763931855986e-05,0.0003800431894462243,-0.0001353503935388736,-0.0010903287366745519,-0.2043457925319671,-1.4602210521697998,-0.7589658498764038,0.3759759366512298,-0.5883967876434326,0.0118723958730697
1749047626.658889,-0.8775930412977248,-0.34491281956818365,-0.2665215752240085,-4.2880715849806466,0.4379405182356468,5.366627627671211,0.00020998797866570535,-0.000238379355144738,-3.4559349876631274e-05,0.000404888167197707,-0.00013737528917201182,-0.001035121457774398,-0.2180707901716232,-1.439584493637085,-0.7571994662284851,0.3585773110389709,-0.5918974280357361,-0.0017177090048789
1749047626.658927,-0.8775960106608462,-0.3449116604125004,-0.26652028299330777,-4.288071396338571,0.43794207951162556,5.366627848855518,0.0001832176026162637,-0.00021904666215832652,-3.9308421815799836e-05,0.00043667967107885577,-0.00013749760405115915,-0.0009607406475837029,-0.2079856097698211,-1.4405598640441897,-0.7444124817848206,0.3607597947120666,-0.5860195159912109,0.0033539831638336
1749047626.6589642,-0.8775988899342191,-0.3449104898955607,-0.26651901154646473,-4.288071161585049,0.43794329897283696,5.366628137003547,0.00012798395836414176,-0.00019940968836280946,-6.136243600760186e-05,0.0004701466398055858,-0.00013492630709134153,-0.0008608896925685255,-0.2325867861509323,-1.4396404027938845,-0.7553523182868958,0.3530323207378387,-0.5817633271217346,0.0019245967268943
1749047626.659001,-0.8776015113822271,-0.34490937817918527,-0.2665178527753616,-4.288070878069612,0.43794412074595457,5.36662846152143,4.2759297366752846e-05,-0.00017962840786400546,-0.0001041600260878384,0.0004990643152894553,-0.00012897187740064327,-0.0007319450934090791,-0.2263883203268051,-1.444756269454956,-0.7605682015419006,0.3661154210567474,-0.5894789099693298,0.0122129395604133
1749047626.6590383,-0.8776037441971261,-0.34490840533035244,-0.26651689970233877,-4.288070550425496,0.43794451797304634,5.366628813730356,-7.095172268340019e-05,-0.00015993327720242065,-0.00017033603924897656,0.000516575258795856,-0.00011915015514798517,-0.0005739124957282144,-0.2162165343761444,-1.4201433658599854,-0.7636659145355225,0.352495014667511,-0.5922548770904541,0.0051056519150733
1749047626.6590753,-0.877605505160628,-0.3449076553787395,-0.26651624293645415,-4.288070192502562,0.43794449317933365,5.366629204655834,-0.0002078876474524556,-0.00014061804202008195,-0.0002613599041195542,0.0005156769106539856,-0.00010529129778129465,-0.00039127880692591655,-0.2128248363733291,-1.43755304813385,-0.7624146342277527,0.3651805222034454,-0.5909605622291565,0.000983752310276
1749047626.6591115,-0.8776067646509881,-0.34490720766815663,-0.2665159665055392,-4.288069828368907,0.4379440760161223,5.366629658139998,-0.0003584923825342403,-0.0001220228358393783,-0.00037723155521105157,0.0004898736614897852,-8.764306857806861e-05,-0.00019365880923549278,-0.2069927752017974,-1.425920844078064,-0.7730545997619629,0.338335782289505,-0.6008666753768921,-0.0013884082436561
1749047626.659216,-0.8776075462388311,-0.344907126769248,-0.2665161433167457,-4.288069491866166,0.4379433184955063,5.36663020098808,-0.0005086605492338955,-0.00010450917709449864,-0.0005162810956941508,0.00043397160750056446,-6.695538550551047e-05,3.871625869458452e-06,-0.2390599399805069,-1.4159384965896606,-0.7703890800476074,0.3512913286685943,-0.6105227470397949,0.0135945752263069
1749047626.6607723,-0.8776079187298474,-0.3449074529290561,-0.26651683073530485,-4.288069224270143,0.4379422883863712,5.366630852303215,-0.0006398540731648746,-8.843091481695334e-05,-0.0006751121802213034,0.0003449717450413464,-4.453157454910732e-05,0.00018085818605061572,-0.2532330751419067,-1.414455771446228,-0.7714844346046448,0.3649461567401886,-0.5993019342422485,0.0170973911881446
1749047626.7022717,-0.8776079805410422,-0.34490819504476866,-0.26651806677776324,-4.288069069899083,0.4379410618981916,5.366631613736852,-0.0007296576801454414,-7.410627809923345e-05,-0.000848712761001605,0.00022299428181804233,-2.2231477801841262e-05,0.000312049662551811,-0.2333206385374069,-1.4047712087631226,-0.7787642478942871,0.3500513732433319,-0.5996136665344238,0.0233916714787483
1749047626.7023168,-0.8776078376945043,-0.3449093274191674,-0.26651986718218035,-4.288069069815796,0.437939716651508,5.3666324614429355,-0.0007528082218346209,-6.17952794354892e-05,-0.0010307310259502782,7.214552245703873e-05,-2.4128039305916907e-06,0.0003685270895683469,-0.2386253327131271,-1.4069589376449585,-0.7759535312652588,0.3562732934951782,-0.5951328277587891,0.0123707205057144
1749047626.702357,-0.8776075781693535,-0.3449107905151469,-0.2665222233239413,-4.28806925388258,0.43793832542296474,5.366633339671422,-0.0006826877711550861,-5.168445102812744e-05,-0.0012138850484505392,-9.877763476137568e-05,1.2199862632975776e-05,0.00031938041337512495,-0.2173590064048767,-1.423617243766785,-0.7775678634643555,0.3504176735877991,-0.6124006509780884,0.0102681592106819
1749047626.7023957,-0.8776072465190715,-0.3449124951671691,-0.26652510075450747,-4.288069631420997,0.43793695085674667,5.366634155584142,-0.0004932148897578247,-4.3878543478199356e-05,-0.0013904528619540157,-0.0002758590364581242,1.8724029346340085e-05,0.00013387169787167408,-0.2065383195877075,-1.411617398262024,-0.7621672749519348,0.3445756733417511,-0.5901895761489868,-0.0047113671898841
1749047626.7024338,-0.8776068232059653,-0.3449143294508257,-0.2665284381544721,-4.288070180887555,0.4379356414160446,5.366634775070371,-0.00016100638247865017,-3.839725100431751e-05,-0.0015527854116992683,-0.00044002140899973997,1.440506275895897e-05,-0.00021604455925418816,-0.201063185930252,-1.3985308408737185,-0.7658109664916992,0.3611350953578949,-0.5978652238845825,-0.0016813948750495
1749047626.702471,-0.8776062125982798,-0.34491616747338477,-0.2665321468288742,-4.288070839459513,0.4379344289804269,5.366635019849499,0.0003323801197734655,-3.5174433682715844e-05,-0.0016937992372317954,-0.0005674662591983635,-3.0308192833862792e-06,-0.0007530417714756048,-0.1588116735219955,-1.3713546991348269,-0.7667703628540039,0.3523734509944916,-0.6019930839538574,0.0049065425992012
1749047626.7025082,-0.8776052418355302,-0.34491787949488806,-0.26653611146152567,-4.288071494006571,0.4379333284876532,5.366634666634501,0.000998365082784523,-3.405754191047303e-05,-0.0018074283605294984,-0.0006306594154922531,-3.497535087358202e-05,-0.00149183748112194,-0.1314563006162643,-1.371652603149414,-0.7764929533004761,0.3811413049697876,-0.6055403351783752,-0.0146949961781501
1749047626.7025454,-0.8776036702999002,-0.3449193428376964,-0.2665401932324413,-4.2880719751988225,0.4379323399859119,5.366633449357206,0.0018397017393883967,-3.4805799089389625e-05,-0.0018890295541066518,-0.0005998797071267528,-8.151753208303818e-05,-0.0024369937193236537,-0.085210882127285,-1.3949156999588013,-0.7836942672729492,0.3785755932331085,-0.5987186431884766,-0.0412939228117466
1749047626.7025824,-0.8776012071851051,-0.3449204528261301,-0.2665442361250672,-4.288072056328681,0.4379314534025431,5.366631065377093,0.002849538277452184,-3.708694869457249e-05,-0.0019357309631845437,-0.00044528833431877005,-0.00014104106908326453,-0.0035813850473454937,-0.0480764955282211,-1.3765360116958618,-0.7808215618133545,0.3726135790348053,-0.5876864194869995,-0.0371182225644588
1749047626.702623,-0.8775975333965433,-0.34492113257585855,-0.26654807640246714,-4.288071457947098,0.43793065603331477,5.366627186219354,0.004011407770806939,-4.047381064071552e-05,-0.0019466932479304244,-0.00013940699665353047,-0.00020988442532568334,-0.004905567832799414,-0.0311331003904342,-1.380643010139465,-0.7869128584861755,0.3819366991519928,-0.5993460416793823,-0.048352662473917
1749047626.7026649,-0.8775923239657694,-0.3449213402190226,-0.2665515543885134,-4.288069858723078,0.43792994214080455,5.366621472758292,0.005300255966555261,-4.444331524742061e-05,-0.0019232297975033004,0.00034017955882675177,-0.0002821114729742348,-0.006378194678850336,-0.03369602560997,-1.3820372819900513,-0.7668197751045227,0.4084582328796386,-0.586872935295105,-0.0360157638788223
1749047626.7027192,-0.8775852679813994,-0.3449210724638575,-0.26655452725025447,-4.288066912063999,0.4379293233003566,5.366613594053849,0.006684458615892299,-4.838186244824093e-05,-0.0018687265530620536,0.0010081469345028192,-0.000349439567178648,-0.00795750909507419,0.0066572576761245,-1.380492091178894,-0.7686033248901367,0.4228993356227875,-0.5759243965148926,-0.0568510591983795
1749047626.702766,-0.8775760841764224,-0.34492036409142274,-0.266556881323354,-4.288062267182457,0.43792883754063716,5.366603248450482,0.008128613230197434,-5.160148591284006e-05,-0.001788323065592086,0.0018690785225761813,-0.0004013649193501264,-0.009593852976709068,0.0505254790186882,-1.3837261199951172,-0.7783011198043823,0.4329231679439544,-0.5629528760910034,-0.0531988367438316
1749047626.7028058,-0.8775645314144291,-0.3449192835749052,-0.26655854239843757,-4.288055592723625,0.4379285552588572,5.366590185076578,0.009596766980804625,-5.3371054574782865e-05,-0.0016883598132457693,0.0029157505741458796,-0.0004255117028961911,-0.011233037098234958,0.0934177562594413,-1.377960205078125,-0.7747259140014648,0.4524895846843719,-0.5412427186965942,-0.0599261373281478
1749047626.702844,-0.8775504142412746,-0.3449179252902737,-0.2665594823642019,-4.28804660084429,0.4379285805624816,5.366574223473564,0.011055690012166788,-5.2965448361919984e-05,-0.0015756450790798187,0.004128338779917676,-0.0004082112768685125,-0.012820356711493671,0.1146304383873939,-1.3934236764907837,-0.7700763940811157,0.461320161819458,-0.5498552322387695,-0.0638680532574653
1749047626.702881,-0.8775335842953075,-0.34491639909325655,-0.26655972096659036,-4.288035069632299,0.4379290478321581,5.366555268779444,0.012477811547317027,-4.9733430347510184e-05,-0.001456629479882653,0.00547475051521677,-0.000335291973711784,-0.014304964764829935,0.0904263481497764,-1.3865718841552734,-0.7589225769042969,0.4568930268287658,-0.5338399410247803,-0.0837082415819168
1749047626.702918,-0.8775139386824228,-0.34491481857159834,-0.26655932225221785,-4.288020861820979,0.43793011433764745,5.366533319891791,0.01384348536685881,-4.3182133004559495e-05,-0.0013365889516521636,0.00691216678488259,-0.00019302979155586884,-0.015644238033490767,0.1160633191466331,-1.3999027013778689,-0.7771923542022705,0.4613930284976959,-0.5056140422821045,-0.1023002862930297
1749047626.702955,-0.877491416542512,-0.34491328975039043,-0.26655838623167016,-4.288003937875954,0.43793195026975995,5.366508468610053,0.015142339283521274,-3.3073021390569756e-05,-0.0012189102661250835,0.008389738855500987,3.0821065627469606e-05,-0.016807701269660053,0.116392083466053,-1.4113322496414185,-0.7470937967300415,0.4775528311729431,-0.5044974088668823,-0.0688376426696777
1749047626.7029915,-0.8774659949251657,-0.3449119020294324,-0.2665570370520074,-4.287984361845919,0.4379347275480717,5.366480889012271,0.01637359450483363,-1.95211813967976e-05,-0.0011045549085333345,0.009852249218128878,0.0003460274108300514,-0.01778004375310378,0.1070425435900688,-1.4244379997253418,-0.7621600031852722,0.4758398532867431,-0.4747381210327148,-0.0655638873577117
1749047626.7030284,-0.8774376845806836,-0.3449107226324116,-0.26655540932085925,-4.287962298960398,0.43793860851892574,5.3664508179312245,0.0175453987221476,-3.087093458591863e-06,-0.0009917542755040164,0.011244430884511662,0.0007590359022444638,-0.018562808150021176,0.1473961472511291,-1.4417613744735718,-0.7316291332244873,0.4826829433441162,-0.4504666328430176,-0.0842495784163475
1749047626.70313,-0.8774065255045271,-0.34490979510944264,-0.26655363419212313,-4.287938004726921,0.43794373558402594,5.366418528700251,0.018673360391482697,1.5151988687469222e-05,-0.0008759650296475026,0.012515552366266025,0.0012724264119526648,-0.019174473627209417,0.168097510933876,-1.4447957277297974,-0.7298938035964966,0.4868395328521728,-0.4081261754035949,-0.1038131564855575
1749047626.704787,-0.8773725814747494,-0.3449091416521461,-0.2665518264944383,-4.287911806064487,0.43795022301277653,5.366384300916347,0.019778561094447755,3.356495604079694e-05,-0.0007500891648944388,0.013623823602481096,0.0018847768580672344,-0.019648876718927104,0.1940463483333587,-1.4625710248947144,-0.7327350378036499,0.4862539768218994,-0.4024112224578857,-0.0853666365146637
1749047626.7463126,-0.8773359325812153,-0.34490876824571814,-0.26655007370238964,-4.287884075747424,0.43795815235571794,5.366348389024074,0.020885342758244697,4.997752462362954e-05,-0.0006049397798403236,0.01454016570777202,0.0025910073332071795,-0.020032160125522367,0.2111972570419311,-1.4904098510742188,-0.7001031637191772,0.4955805540084839,-0.3885177373886108,-0.1038523539900779
1749047626.7463603,-0.8772966648209334,-0.3449086711878805,-0.2665484271335938,-4.287855202101922,0.4379675726119617,5.366310992552687,0.022019127059315954,6.174181677019822e-05,-0.00042991217112601,0.015250922841046658,0.0033831883514681364,-0.02037864553003979,0.1894819140434265,-1.4991769790649414,-0.6989957094192505,0.4871867895126343,-0.3655592799186706,-0.1043164059519767
1749047626.7464013,-0.877254856293348,-0.3449088434593191,-0.26654689555273464,-4.287825556398506,0.4379785055590491,5.3662722309691935,0.023204449954815624,6.58715329925079e-05,-0.00021380225075365783,0.015759187154463214,0.004251693942664935,-0.020746144606274962,0.2261393368244171,-1.491780400276184,-0.6782042980194092,0.4881026148796081,-0.3604311943054199,-0.1309750378131866
1749047626.7464426,-0.8772105604759013,-0.3449092797821652,-0.2665454413644595,-4.287795460658446,0.43799095565986024,5.366232125976973,0.024463314296143932,5.924295507457556e-05,5.429825376210174e-05,0.016084556931172583,0.005186489032752644,-0.02119123970122168,0.2507388591766357,-1.5193941593170166,-0.6570233106613159,0.4846698939800262,-0.3384824395179748,-0.1361711472272873
1749047626.7464828,-0.8771637883626366,-0.3449099796634417,-0.26654397970057353,-4.287765158744927,0.43800492303438393,5.366190593328442,0.025813902833475094,3.885400926797386e-05,0.00038410696010709663,0.016261332894358167,0.006178301547257685,-0.021764999354128015,0.2307794392108917,-1.524646878242493,-0.6444617509841919,0.484234094619751,-0.3142182230949402,-0.1487141847610473
1749047626.7465212,-0.8771144924094723,-0.3449109480636754,-0.2665423808145824,-4.287734793705005,0.43802041735054287,5.366147444878396,0.02726966195702359,2.1246524154509858e-06,0.0007833330888297982,0.01633534462963288,0.0072194602859631625,-0.02250947572425843,0.2366473525762558,-1.508731245994568,-0.616470456123352,0.482636958360672,-0.3166273236274719,-0.1536354124546051
1749047626.7465591,-0.8770625555502609,-0.3449121936048918,-0.26654047605139186,-4.287704394127277,0.43803747023838446,5.36610240006706,0.028838754760538852,-5.278735832560784e-05,0.0012570035610108817,0.016359758182395902,0.008304265508197082,-0.02345519428492632,0.2467465549707412,-1.5347487926483154,-0.6042788028717041,0.4895728230476379,-0.2913157343864441,-0.155456930398941
1749047626.746602,-0.8770077877963185,-0.34491372465538833,-0.2665380671656359,-4.287673871424479,0.4380561440555787,5.366055104761219,0.030523875475835772,-0.00012668977807700322,0.0018069767708826028,0.016390326972939163,0.00942887010044084,-0.02461971744757678,0.2943233847618103,-1.5341787338256836,-0.6247261762619019,0.5107901096343994,-0.2881850600242615,-0.1646149456501007
1749047626.7466412,-0.876949931668234,-0.3449155442237225,-0.266534938175281,-4.287643028448999,0.4380765355752443,5.36600515476185,0.03232240546922222,-0.00021911932540600207,0.002431654879830979,0.0164805978515006,0.010590755137628614,-0.026007258272200545,0.3138346076011657,-1.546168088912964,-0.6100448369979858,0.503409743309021,-0.2757048010826111,-0.169988065958023
1749047626.7466793,-0.8768886765181783,-0.3449176450292655,-0.2665308685968484,-4.287611578185469,0.43809877419973575,5.3659521213564165,0.034226870322048464,-0.00032820934760778353,0.003125878836921432,0.016677567720244653,0.011787959437528774,-0.02760924232593133,0.3085821866989136,-1.5245062112808228,-0.5749036073684692,0.5283052921295166,-0.274431824684143,-0.1885496526956558
1749047626.7467184,-0.8768236806840337,-0.34492000603920386,-0.26652564688173896,-4.287579169953384,0.43812301523527514,5.365895576747099,0.036225633904380765,-0.00045070341504028935,0.0038809911492116685,0.01701821032208033,0.01301825289915369,-0.02940566297834024,0.2988518476486206,-1.5437718629837036,-0.5550562143325806,0.5309017896652222,-0.2519637048244476,-0.1813754737377166
1749047626.7467692,-0.8767545992383267,-0.34492259115149787,-0.266519083017791,-4.287545419760771,0.4381494293740908,5.365835117709175,0.038303754599295525,-0.0005821470389819047,0.0046850797408549485,0.017527171357948776,0.014278428842599366,-0.03136704206757256,0.3331250548362732,-1.5741664171218872,-0.5387508869171143,0.5428191423416138,-0.2416219115257263,-0.199955865740776
1749047626.746809,-0.8766811140109521,-0.34492534988285267,-0.26651101945328287,-4.287509941101015,0.4381781898136655,5.365770386437626,0.040443942479593986,-0.000717271320342288,0.00552344057963983,0.018215780812492668,0.015563845450564903,-0.033456786636808226,0.3562897443771362,-1.5643140077590942,-0.5348463654518127,0.5584965944290161,-0.2342773079872131,-0.1947439014911651
1749047626.746847,-0.8766029618644064,-0.34492821940879687,-0.2665013396791291,-4.287472372555252,0.4382094584941278,5.365701088304653,0.0426275830710319,-0.0008505538875705719,0.006379282017476721,0.01908237647996565,0.016868286619418377,-0.035633721324036735,0.3314701616764068,-1.5670710802078247,-0.5307144522666931,0.5745040774345398,-0.2237623333930969,-0.1776798367500305
1749047626.746884,-0.8765199572083924,-0.34493112746483073,-0.26648997394337703,-4.287432399163907,0.43824337290350346,5.365627006870418,0.04483580775249084,-0.0009769053959204246,0.007234639012526132,0.02011379407083859,0.018184147399604552,-0.03785458442637819,0.3503713011741638,-1.5695712566375732,-0.540023148059845,0.5630063414573669,-0.2211929708719253,-0.1698692291975021
1749047626.746925,-0.8764320057371454,-0.34493399620218695,-0.26647690173514516,-4.287389765745169,0.43828003483712796,5.3655480164877645,0.047050581740006425,-0.0010923916713836694,0.008071406401968304,0.02128777062547205,0.019502884577062035,-0.04007631906731808,0.3553567826747894,-1.5727133750915527,-0.541416585445404,0.5904142260551453,-0.2224576026201248,-0.1897179037332534
1749047626.7469628,-0.8763391082071565,-0.3449367473720848,-0.26646215096997716,-4.287344281973225,0.4383195022960965,5.365464092220275,0.04925575803608272,-0.001194876228604987,0.008872376028494836,0.02257593521097758,0.020815620201869316,-0.04225807098787804,0.3435670435428619,-1.5636909008026123,-0.5126872062683105,0.580628514289856,-0.2308787256479263,-0.2009277939796447
1749047626.7469995,-0.8762413550133077,-0.344939308811958,-0.26644579420610776,-4.287295820550371,0.43836178527191944,5.36537531607965,0.05143802333765904,-0.0012844687109292475,0.009622181806269208,0.023947027920737655,0.022113762418456275,-0.044362893295203515,0.3566270470619201,-1.5787253379821775,-0.5007639527320862,0.5996271967887878,-0.2310491353273391,-0.2022287994623184
1749047626.7470362,-0.876138913568147,-0.34494162153817165,-0.26642794255855706,-4.287244310654789,0.43840684551598075,5.3652818782185605,0.05358765088122883,-0.0013636950736258752,0.01030809647302823,0.02536999742397886,0.023389523671611383,-0.04635920949914637,0.3879814743995666,-1.5836460590362549,-0.5145716667175293,0.5912595391273499,-0.2092306166887283,-0.1920654624700546
1749047626.7470772,-0.8760320107980517,-0.34494364646883785,-0.26640873814779803,-4.2871897288790315,0.43845459969660955,5.365184071750205,0.055698985663410874,-0.0014373556504924214,0.010920654087601529,0.026816676193331435,0.02463626186778442,-0.048222069484112756,0.3759894669055938,-1.581845760345459,-0.4963061511516571,0.6118475198745728,-0.2005598247051239,-0.1837428212165832
1749047626.747287,-0.8759209127539974,-0.3449453700501577,-0.2663883459007155,-4.287132089407964,0.43850492488829995,5.365082280316459,0.057770616843616916,-0.0015120913714275989,0.011454082920375386,0.02826381216226815,0.02584862242352745,-0.049934163338112486,0.3804945945739746,-1.6155242919921875,-0.4785219728946686,0.6211965084075928,-0.2088200151920318,-0.1669003665447235
1749047626.748811,-0.8758059028134558,-0.34494680844552117,-0.26636694530371235,-4.2870714346040675,0.43855766529447077,5.364976958427444,0.05980522430616755,-0.0015957216682861279,0.011906532541076494,0.029694332614017698,0.027022498851772214,-0.05148648772171786,0.398124635219574,-1.6089696884155271,-0.4875501096248626,0.6099249720573425,-0.2073146104812622,-0.1612854897975921
1749047626.7943318,-0.8756872595496012,-0.34494801011689774,-0.2663447223642863,-4.287007826634302,0.43861263934412686,5.364868605704201,0.06180911258293844,-0.0016964421564251199,0.012280076106474939,0.0310978169900495,0.028154851412952663,-0.05287854166672934,0.3928101658821106,-1.62345552444458,-0.5018941164016724,0.6053304076194763,-0.2051514089107513,-0.1670755743980407
1749047626.7943792,-0.8755652352910225,-0.3449490565881928,-0.2663218617729207,-4.28694134028294,0.4386696466703979,5.3647577370564505,0.06379146977616024,-0.001821975368989002,0.01258046968929917,0.032470248689128386,0.029243432071778565,-0.054117978975075295,0.4042279422283172,-1.5960612297058103,-0.5058839917182922,0.6526408791542053,-0.2084559947252273,-0.1641648113727569
1749047626.7944198,-0.875440036641364,-0.3449500610894952,-0.26629853924354024,-4.286872056654768,0.4387284750143268,5.36464485130716,0.06576341233960897,-0.001978758385063623,0.012816662748792609,0.03381319137616588,0.030286464500194434,-0.05521973518872671,0.4157887399196625,-1.6287293434143066,-0.485787570476532,0.6621652841567993,-0.2176620960235595,-0.177869826555252
1749047626.794463,-0.8753118084594906,-0.3449511647700472,-0.266274914196818,-4.2868000571802325,0.43878890760005224,5.364530400826553,0.06773689296512894,-0.0021712357147329344,0.013000083350362956,0.035132581647846634,0.0312823253874738,-0.056204736507871285,0.444766104221344,-1.627976655960083,-0.4838167428970337,0.6574594378471375,-0.1943685710430145,-0.1596770137548446
1749047626.7945025,-0.8751806227525571,-0.3449525303292896,-0.2662511230833935,-4.286725417327629,0.4388507314731695,5.3644147644009115,0.06972355794395561,-0.0024013138192508516,0.013143762163084447,0.0364373374573559,0.03222927639961178,-0.05709836002878476,0.4435169100761413,-1.650941014289856,-0.4897202253341675,0.6608037948608398,-0.1994509100914001,-0.1619172096252441
1749047626.794541,-0.8750464735131407,-0.3449543332237952,-0.266227273549494,-4.286648199702535,0.43891374661227994,5.364298224972052,0.07173364521926504,-0.002668029935734295,0.013261393544786547,0.037737949390997706,0.033125308417446264,-0.05792884107315639,0.444033533334732,-1.6585206985473633,-0.472109317779541,0.6747201681137085,-0.1765738278627395,-0.1733492165803909
1749047626.794587,-0.8749092777510015,-0.34495675092353234,-0.266203439492411,-4.286568446567706,0.43897777500249624,5.364180953246177,0.07377501485666449,-0.0029674879521441487,0.013366444003234562,0.03904516378980094,0.033968169559378196,-0.05872580983988833,0.4660991728305816,-1.6920158863067627,-0.4651521742343902,0.665351152420044,-0.1913637518882751,-0.1859956979751587
1749047626.7946315,-0.8747688819831339,-0.344959950955282,-0.2661796571451195,-4.2864861721181144,0.43904266894424954,5.36406299756925,0.0758524007750144,-0.003293105384922759,0.013471402541820965,0.040368808503064624,0.03475563467997034,-0.05951908470058558,0.49128058552742,-1.7114050388336182,-0.461653858423233,0.6639865636825562,-0.180384486913681,-0.2089346051216125
1749047626.7946775,-0.8746250725309582,-0.344964078731323,-0.2661559226282755,-4.286401355176016,0.4391083185148122,5.363944279895603,0.07796696643808296,-0.003636184633930718,0.013587231284850397,0.04171677617886162,0.03548602551085799,-0.06033776444297036,0.4774926006793976,-1.6807464361190796,-0.4738773107528686,0.662777841091156,-0.177689716219902,-0.2028682976961136
1749047626.7947185,-0.8744775874395908,-0.3449692463850936,-0.26613219153190204,-4.286313933378836,0.43917465855938703,5.36382459731042,0.08011622907829173,-0.003986765286951727,0.013723032545503125,0.043094172770176735,0.03615892105754082,-0.06120956995840773,0.504813015460968,-1.6709856986999512,-0.4652369022369385,0.6796044111251831,-0.1900539845228195,-0.1981289386749267
1749047626.7947605,-0.8743261279376721,-0.344975523924111,-0.2661083808632649,-4.286223800329049,0.4392416753033843,5.363703628687187,0.082294379769475,-0.004334647829503523,0.013885912327024977,0.044502651048002516,0.03677593791062609,-0.06216031229352839,0.498636782169342,-1.6946218013763428,-0.4565127193927765,0.6720426082611084,-0.1868407726287841,-0.1861548721790313
1749047626.7948048,-0.8741703681757681,-0.3449829339553853,-0.2660843733676326,-4.286130807421746,0.43930941178232524,5.363580946616678,0.08449297829643393,-0.004670432766143005,0.014080997036102558,0.04593996483407402,0.03734143398383892,-0.06321332911789354,0.5061222910881042,-1.6891052722930908,-0.4575584232807159,0.6773568391799927,-0.1839108169078827,-0.1940774619579315
1749047626.7948434,-0.8740099633217909,-0.34499145102337103,-0.2660600240741195,-4.286034771950921,0.4393779704019727,5.363456035247472,0.08670195433387279,-0.004986416866131544,0.01431155278590404,0.047399786378671,0.037863000618281,-0.06438874844190651,0.5079373717308044,-1.7029457092285156,-0.4644357562065124,0.674056887626648,-0.1854081153869629,-0.2044638395309448
1749047626.794896,-0.8738445574857251,-0.3450010060641817,-0.2660351689445206,-4.2859354924495,0.43944751065670073,5.363328314677876,0.0889108059430045,-0.0052772289713836715,0.014579163322640774,0.048871820726436706,0.038351645632594154,-0.06570250573938981,0.5199535489082336,-1.705309510231018,-0.4422196745872497,0.6826604604721069,-0.1724238097667694,-0.2254759669303894
1749047626.794942,-0.8736737937801875,-0.34501149554281557,-0.26600963552641366,-4.285832771179651,0.43951824060008615,5.363197172063378,0.09110985971159291,-0.005540149222040715,0.014883936639719321,0.050342227014354035,0.03882161764146877,-0.06716513903627307,0.5286912322044373,-1.7013697624206543,-0.4331167340278625,0.6911155581474304,-0.1794486939907074,-0.2122197598218917
1749047626.7949817,-0.873497328692356,-0.3450227937751065,-0.2659832553491759,-4.28572644259514,0.43959040190471377,5.363061999007297,0.0932914487461555,-0.005775113173512952,0.015224724155025179,0.051794321025015126,0.03928986629536465,-0.0687804863397755,0.5158187747001648,-1.714491605758667,-0.4377323091030121,0.6736311912536621,-0.1844843477010727,-0.2344463020563125
1749047626.79502,-0.873314851906876,-0.3450347662239951,-0.26595587737668547,-4.285616405567422,0.4396642498120906,5.3629222341543,0.09545086968108245,-0.005984441761939815,0.01559934587493879,0.05320949710263081,0.039775169890874124,-0.07054448646174269,0.5158185362815857,-1.697327971458435,-0.4314248263835907,0.6654033660888672,-0.1525281965732574,-0.2460658699274063
1749047626.7950578,-0.873126111044854,-0.34504728151508257,-0.2659273811934073,-4.28550265599993,0.43974003059379924,5.362777408736572,0.09758699265012934,-0.006172356881692736,0.016004819732741267,0.054568292464765286,0.04029699477501648,-0.07244432378574124,0.5388213992118835,-1.7060680389404297,-0.4194574356079101,0.6704074144363403,-0.1501329839229583,-0.2422302365303039
1749047626.7950983,-0.8729309385618497,-0.34506022051346075,-0.2658976879121229,-4.285385314996032,0.43981796018520775,5.362627190709102,0.09970242562446219,-0.006344347763008844,0.016437594057916994,0.05585153960922731,0.04087418100890941,-0.0744581514364905,0.5388213992118835,-1.7060680389404297,-0.4194574356079101,0.6704074144363403,-0.1501329839229583,-0.2422302365303039
1749047626.795136,-0.8727292755135747,-0.34507348177693453,-0.2658667663953817,-4.285264646421864,0.4398982081739722,5.362471420600212,0.10180318552391694,-0.006506455674415933,0.01689378032597818,0.057041598155284215,0.04152357069923693,-0.0765555760120038,0.5436856150627136,-1.7331409454345703,-0.407340407371521,0.6867251396179199,-0.1245180442929267,-0.2283864021301269
1749047626.7951765,-0.872521185302994,-0.34508698367907836,-0.2658346327773697,-4.285141057703165,0.43998089072588414,5.362310131111867,0.1038978943786785,-0.006664546805321405,0.01736937998200072,0.058123679180952556,0.042258702974351976,-0.07869900627456836,0.5143563151359558,-1.7353448867797852,-0.4106362760066986,0.6567974090576172,-0.1254580914974212,-0.2725117802619934
1749047626.7952151,-0.8723068518039214,-0.3451006641028926,-0.26580134267825867,-4.2850150801673665,0.44006607381610713,5.36214354472292,0.1059965754203284,-0.006823640281540676,0.017860492899892187,0.059087233567829814,0.04308868786050175,-0.08084587671427577,0.5211268067359924,-1.7472429275512695,-0.4254530668258667,0.650374710559845,-0.1189685612916946,-0.2569569051265716
1749047626.7953365,-0.8720865607130617,-0.34511447868597234,-0.2657669774328738,-4.284887329848739,0.440153784850726,5.361972048794404,0.10810916094225782,-0.006987347801869474,0.018363485397809458,0.05992728295087275,0.04401734232283349,-0.08295165681233747,0.5452597141265869,-1.7541987895965576,-0.4100378751754761,0.6197136640548706,-0.0995611697435379,-0.262725293636322
1749047626.796876,-0.8718606680137972,-0.345128398381221,-0.2657316272151257,-4.28475845432864,0.4402440280506449,5.361796152997871,0.11024385967919355,-0.007157470411500976,0.01887508925435304,0.06064548821573296,0.04504264083582594,-0.08497344008616017,0.550204873085022,-1.7310508489608765,-0.4058243632316589,0.6173815727233887,-0.102175697684288,-0.2391000092029571
1749047626.838284,-0.8716295620296148,-0.3451424069410936,-0.26569537455030545,-4.284629073817067,0.44033679824147837,5.36161643646465,0.11240558719132847,-0.007333792735983753,0.019392409700774455,0.06125073799139546,0.04615651732950124,-0.08687378576762857,0.4583138823509216,-1.7217658758163452,-0.3907814919948578,0.6035025715827942,-0.093899555504322,-0.215793490409851
1749047626.83833,-0.8713936253234904,-0.3451564989014913,-0.26565828134695485,-4.284499724864681,0.44043208900953545,5.361433491825105,0.11459473166602462,-0.007514109875988759,0.019912840084965466,0.06175911843139725,0.047345054136391715,-0.0886244040148042,0.4598892629146576,-1.7502069473266602,-0.3925094902515411,0.6081050634384155,-0.0991211235523223,-0.2276471853256225
1749047626.838374,-0.8711532013446561,-0.3451706784798297,-0.2656203815061138,-4.284370813645402,0.440529893557215,5.3612478719875325,0.11680657354092833,-0.007694505922467807,0.020433902295290105,0.06219326269982137,0.048589088062624,-0.09020927030021737,0.66806560754776,-1.772126078605652,-0.3955146968364715,0.6364970803260803,-0.0943025201559066,-0.2357585579156875
1749047626.8384144,-0.8709085694416472,-0.34518495930683146,-0.2655816797009874,-4.28424258353442,0.44063019896024536,5.361060044200114,0.11903163739205477,-0.007869872250616616,0.020953045784352954,0.06258120182077147,0.04986523850912049,-0.09162681085959369,0.5836590528488159,-1.7775309085845947,-0.401419460773468,0.619706928730011,-0.0805645361542701,-0.2261722385883331
1749047626.8384528,-0.8706599306073188,-0.34519936423716113,-0.26554215545041077,-4.284115099255923,0.44073297626105923,5.360870354738762,0.12125706386679794,-0.008034613016837097,0.021467446139225674,0.06295487993577199,0.05114731834977549,-0.09289086941860343,0.5411394834518433,-1.7638400793075562,-0.394760251045227,0.6076968908309937,-0.0825209319591522,-0.2111227214336395
1749047626.8384907,-0.8704074048155032,-0.3452139240687559,-0.26550177058175295,-4.283988247601517,0.4408381696300459,5.36067900641555,0.12346876605368057,-0.008183442519331648,0.021973851464661864,0.06334844999000414,0.052408036660920664,-0.09403022825018523,0.4886323809623718,-1.7587237358093262,-0.3711075782775879,0.601947009563446,-0.0637748464941978,-0.2238465547561645
1749047626.8385284,-0.8701510392005084,-0.34522867419912423,-0.2654604779155643,-4.283861752940063,0.44094568760370517,5.3604860500879985,0.1256538274169725,-0.008312147997207314,0.02246852805999196,0.06379639463041045,0.05362085529123509,-0.09508654765957393,0.5358595252037048,-1.7708275318145752,-0.3837765753269195,0.6150544881820679,-0.107299618422985,-0.2156571745872497
1749047626.8385658,-0.8698908249547282,-0.3452436490433318,-0.265418229447981,-4.283735204540295,0.44105539843953157,5.360291390498539,0.1278024851756613,-0.008418189077933222,0.02294734657134857,0.06433149447899768,0.054761827353576355,-0.09611074328347637,0.5237127542495728,-1.7693337202072144,-0.3836525380611419,0.61865234375,-0.1007245257496833,-0.2093335390090942
1749047626.8386054,-0.8696267198543906,-0.3452588750661236,-0.2653749830669523,-4.283608092046228,0.4411671304746417,5.360094805935716,0.12990918244423483,-0.008501037073326185,0.02340602074518449,0.06498270918194514,0.05581123319385687,-0.09715803245703354,0.4509325623512268,-1.778888463973999,-0.4048155546188354,0.6364399194717407,-0.1035756096243858,-0.2240290641784668
1749047626.8386447,-0.8693586728282592,-0.34527436406186246,-0.26533070752128407,-4.283479845244585,0.44128067735991655,5.359895980078731,0.1319724857894295,-0.008562211660194045,0.023840469213027297,0.06577310741994881,0.05675484495066551,-0.09828210297467649,0.5000607967376709,-1.7745378017425537,-0.3839388489723205,0.6295581459999084,-0.1197506040334701,-0.2401012778282165
1749047626.8386877,-0.8690866470324482,-0.34529010853291403,-0.2652853857927908,-4.28334987452111,0.4413958071154489,5.359694542872754,0.13399402289834622,-0.008605032446170108,0.024247232427967034,0.06671803071235709,0.05758469333300369,-0.09952903816042835,0.5704381465911865,-1.7871366739273071,-0.3849424719810486,0.6626123189926147,-0.1318846642971038,-0.2391518652439117
1749047626.8387294,-0.8688106384691741,-0.3453060806144213,-0.2652390172340984,-4.283217609022168,0.4415122732539998,5.359490115865144,0.1359768787281,-0.008634156848158317,0.024623857668956927,0.0678236754068564,0.058299270858803626,-0.10093173395752565,0.5658952593803406,-1.7805458307266235,-0.3959887623786926,0.6549768447875977,-0.1451230943202972,-0.2657025158405304
1749047626.8387794,-0.8685306880795929,-0.345322235116929,-0.2651916188982449,-4.28308253035027,0.441629826170841,5.359282356844242,0.13792400569550473,-0.00865501144399268,0.02496917069865464,0.06908623090373403,0.05890317792824095,-0.10250554362384003,0.5759326219558716,-1.8216184377670288,-0.4178663492202759,0.643524706363678,-0.1253948509693145,-0.2578132450580597
1749047626.838819,-0.8682468862674012,-0.34533851622248757,-0.26514322634818566,-4.282944200410516,0.441748223653794,5.359070999099432,0.13983711846040842,-0.008673228580091365,0.025283380095989086,0.070491644970763,0.0594062983979066,-0.10424577872206763,0.5170964598655701,-1.8143891096115112,-0.3731099665164947,0.6548206210136414,-0.1238477975130081,-0.2676436007022857
1749047626.8388565,-0.8679593699426229,-0.34535486655489606,-0.2650938938622587,-4.2828022826164664,0.44186724023310464,5.358855881670508,0.14171630751708222,-0.008694172420723205,0.025568003129091355,0.07201602910145978,0.05982266327622641,-0.10612750042596258,0.5036221146583557,-1.8210477828979488,-0.4007542431354522,0.6604430079460144,-0.1077781170606613,-0.2770237922668457
1749047626.8388956,-0.8676683132832184,-0.34537123690096483,-0.2650436936205914,-4.2826565561179635,0.44198667575265954,5.358636967946736,0.14356033341960572,-0.008722593692156754,0.025825648715212222,0.0736266851048534,0.06016919116296361,-0.1081077764016625,0.475224494934082,-1.823392868041992,-0.4043252170085907,0.6590613126754761,-0.1338057816028595,-0.2908451557159424
1749047626.8389363,-0.8673739141654071,-0.3453875946902339,-0.2649927135730029,-4.282506923227057,0.4421063638948023,5.358414350837963,0.1453673673127556,-0.008762410414751069,0.026059724758557362,0.07528372442789268,0.06046446134648533,-0.11013026421741995,0.4760063290596008,-1.825971603393555,-0.3888099193572998,0.6564334034919739,-0.1478307396173477,-0.2441688477993011
1749047626.8389742,-0.8670763784211815,-0.34540392952110033,-0.26494105423644565,-4.282353410696552,0.44222618122641966,5.3581882438576365,0.14713587352414986,-0.008816587904580807,0.02627414040640741,0.0769422461208592,0.060727600823482386,-0.1121316328642679,0.4991087913513183,-1.8472139835357664,-0.3819462954998016,0.6645405292510986,-0.1490046381950378,-0.2399162054061889
1749047626.8390117,-0.8667759038954156,-0.34542025479356836,-0.2648888251107202,-4.282196165558978,0.44234605644715635,5.357958959034899,0.1488653618848192,-0.008887088421999713,0.026473053518200923,0.07855501932306494,0.060977298532306726,-0.11404901813235356,0.5014140605926514,-1.8495044708251955,-0.3890137672424316,0.6715413331985474,-0.1666981428861618,-0.2373257726430893
1749047626.8390489,-0.8664726659377894,-0.3454366056786107,-0.26483614123212323,-4.282035445749071,0.4424659783068478,5.357726874340982,0.15055681676626279,-0.00897486879744236,0.026660686533883343,0.08007557374058284,0.061230937656583,-0.11582751352492628,0.5034540295600891,-1.852156400680542,-0.3828930258750915,0.6473840475082397,-0.1389800459146499,-0.2189676016569137
1749047626.8391538,-0.8661668055365419,-0.34545303456118925,-0.2647831196790578,-4.281871605107841,0.44258600003611814,5.357492394730955,0.15221270913174256,-0.009079910432624103,0.026841212360653847,0.08146154303051921,0.06150386519596168,-0.11742667233074927,0.4819651246070862,-1.864734411239624,-0.3609127402305603,0.6487916111946106,-0.1190861389040947,-0.1868164390325546
1749047626.8407755,-0.8658584207627635,-0.34546960533234977,-0.26472987520228625,-4.2817050721241054,0.4427062386917931,5.3572559114782905,0.15383661555855868,-0.009201269364033541,0.02701869875192791,0.08267804508999281,0.061808863262440825,-0.1188251327474907,0.4891487658023834,-1.8774845600128172,-0.3687561154365539,0.6462652087211609,-0.1134286969900131,-0.182879090309143
1749047626.882295,-0.8655475616760754,-0.3454863875966415,-0.2646765141738603,-4.281536322202724,0.4428268692469379,5.3570177641338566,0.1554325825643556,-0.009337142588178601,0.027197090910937107,0.08370083128873702,0.06215589291228619,-0.12002275138973989,0.5101877450942993,-1.8819996118545528,-0.3756062090396881,0.6445934176445007,-0.1226555779576301,-0.1784637868404388
1749047626.8823404,-0.865234228554989,-0.34550345128413223,-0.26462312681521405,-4.281365844305453,0.44294811461588673,5.356778208574376,0.15700443890937524,-0.009484962536507834,0.02738020312803918,0.08451890185651544,0.06255211986542675,-0.12104000576599555,0.5144412517547607,-1.8905681371688845,-0.3662464320659637,0.607042133808136,-0.1170998364686966,-0.1721111088991165
1749047626.882386,-0.8649183733182865,-0.34552086159184514,-0.26456977866105846,-4.281194104073268,0.44307023335566714,5.356537393674848,0.15855524692160697,-0.009641545042156696,0.027571685119271376,0.08513628030720517,0.0630021391545293,-0.1219148435809699,0.4813419282436371,-1.875159859657288,-0.3792230486869812,0.6337884068489075,-0.1340526491403579,-0.208938717842102
1749047626.8824277,-0.8645999041309199,-0.34553867396563015,-0.2645165027578009,-4.2810215064906965,0.4431935065257539,5.356295348271165,0.16008701727844515,-0.009803314412184643,0.027774939085087064,0.08557268169786332,0.063508265369322,-0.12269753579990833,0.5127201676368713,-1.887800931930542,-0.3554815649986267,0.6275443434715271,-0.1393110901117324,-0.2126476019620895
1749047626.882467,-0.864278693113185,-0.3455569291239055,-0.2644632939250603,-4.280848361602483,0.4433182245658469,5.356051979215394,0.1616007343406797,-0.009966607129413177,0.027992992967551443,0.08586289536145429,0.06407078341265023,-0.12344435760012296,0.5263550877571106,-1.9125897884368896,-0.3550566434860229,0.6258572340011597,-0.0941013470292091,-0.212080180644989
1749047626.8825052,-0.8639545866301597,-0.3455756486553674,-0.2644101058556815,-4.280674856858717,0.44344467439718066,5.355807080445033,0.1630966803547554,-0.010128021607771837,0.02822836765240688,0.08605480677980386,0.06468813360265208,-0.12421103411317018,0.5283017754554749,-1.9153800010681152,-0.3633520603179931,0.605440080165863,-0.0934125259518623,-0.2310057431459427
1749047626.882543,-0.8636274171955515,-0.34559483206948616,-0.26435685138566045,-4.280501039386212,0.44357312642123337,5.355560352040418,0.16457500703830222,-0.010284751870910182,0.02848298559576383,0.08620608867119438,0.06535707712494267,-0.12504684403681918,0.5071804523468018,-1.883505582809448,-0.3566376864910126,0.5936622023582458,-0.0797410160303115,-0.2513104081153869
1749047626.8825805,-0.8632970161293123,-0.34561445615367326,-0.26430340611920516,-4.280326810768018,0.4437038208960884,5.355311427184818,0.16603647182393805,-0.010434832779283558,0.028758145899616172,0.08637971691860641,0.06607291299634334,-0.1259901051928871,0.5155398845672607,-1.9119174480438232,-0.3692071437835693,0.6466900110244751,-0.0838499516248703,-0.265562891960144
1749047626.882618,-0.8629632266903939,-0.3456344771714115,-0.2642496155651341,-4.280151935780862,0.44383695356581776,5.355059903970086,0.16748323160181702,-0.010577240784679039,0.0290545522896561,0.08663863471112802,0.06682979143441857,-0.12706551413611736,0.5247229337692261,-1.885626554489136,-0.3631531000137329,0.6450319886207581,-0.0775082185864448,-0.2767461538314819
1749047626.882655,-0.8626259177102015,-0.34565483594334795,-0.26419530572720823,-4.279976065111928,0.44397266136774294,5.354805378508383,0.16891957035245098,-0.010711832833027762,0.02937235262400921,0.08704006777025056,0.06762111434926621,-0.12828350898780772,0.538896918296814,-1.9045559167861936,-0.3479965329170227,0.6642729043960571,-0.0928050354123115,-0.2477018237113952
1749047626.882692,-0.8622849970307079,-0.34567546528986526,-0.26414029656066035,-4.279798770343172,0.4441110100878641,5.354547475939444,0.1703524256009192,-0.010839150027980714,0.02971114996766364,0.0876301103972894,0.06843996450803387,-0.12964150416320064,0.5192941427230835,-1.895840525627136,-0.3589998781681061,0.6544796228408813,-0.1097474694252014,-0.2474490404129028
1749047626.882729,-0.8619404222104293,-0.3456962988618814,-0.26408441698013574,-4.279619587421295,0.44425198648216946,5.354285876274555,0.17179157833577924,-0.01096014300478768,0.030069976236880097,0.08843920815058029,0.06927948654226301,-0.1311265647584038,0.5192941427230835,-1.895840525627136,-0.3589998781681061,0.6544796228408813,-0.1097474694252014,-0.2474490404129028
1749047626.882766,-0.8615922041357394,-0.3457172802012246,-0.26402751944821246,-4.279438062914698,0.4443954974336186,5.3540203323172495,0.17324939737953898,-0.011075885052539267,0.030447258033209204,0.0894790695181814,0.07013316213043633,-0.13271890411486906,0.4830705225467682,-1.8932501077651975,-0.3373477756977081,0.6858150362968445,-0.095926746726036,-0.2288135886192321
1749047626.8828037,-0.8612403996493816,-0.3457383708330217,-0.263969491930432,-4.279253796810789,0.4445413779755102,5.35375067776523,0.17474008278425512,-0.011187331109246041,0.03084081789177898,0.09074138118187884,0.0709949617937635,-0.13439551416465734,0.4744320809841156,-1.9211297035217283,-0.3440054059028625,0.704291820526123,-0.0736607462167739,-0.2049232274293899
1749047626.8828409,-0.8608850933431005,-0.3457595561008584,-0.2639102654267493,-4.279066477269052,0.4446894082146966,5.3534768258590315,0.17627842093385457,-0.011295162813468528,0.03124793019853249,0.09219850483320842,0.07185938933833219,-0.1361332635350998,0.5111957788467407,-1.91675877571106,-0.3450415432453155,0.7052024006843567,-0.0722882002592086,-0.2188205420970916
1749047626.882877,-0.8605263740725348,-0.3457808474772824,-0.26384981626236853,-4.2788759056535906,0.44483933667399417,5.353198761921747,0.17787814653190376,-0.011399736240415325,0.031665412131519424,0.09380611656281124,0.07272144763737505,-0.13791093765080137,0.499009221792221,-1.9017953872680664,-0.3437747359275818,0.6925410628318787,-0.0982865393161773,-0.20585498213768
1749047626.8829136,-0.860164314520521,-0.34580228058248375,-0.26378816340335154,-4.27868201217899,0.4449909054954429,5.352916534795907,0.17955010762196463,-0.011501123675818735,0.03208970954036817,0.09550753322779151,0.0735765563270213,-0.13970996879899822,0.4590765237808227,-1.9089277982711792,-0.3448135256767273,0.67824786901474,-0.0742497891187667,-0.2196542769670486
1749047626.882954,-0.859798960512981,-0.34582390907274546,-0.26372536187799683,-4.278484862516717,0.44514387248940634,5.352630251356699,0.18130053078056807,-0.011599220726474381,0.032516948627016234,0.09723928116459689,0.07442046394899812,-0.1415139709009969,0.3325044512748718,-1.895556926727295,-0.3236359059810638,0.6136760711669922,-0.0721877813339233,-0.2102548480033874
1749047626.882991,-0.8594303321516884,-0.3458457954303804,-0.2636614937579181,-4.278284654424995,0.44529802668367785,5.352340075521279,0.1831297532782315,-0.011693883502551941,0.03294295698336703,0.0989373383060632,0.07524922263856584,-0.14330754307675747,0.6362378001213074,-1.9244256019592283,-0.3275894522666931,0.6884576082229614,-0.0932611972093582,-0.2419465035200119
1749047626.8830278,-0.8590584334037302,-0.3458680001774206,-0.26359665799910065,-4.278081702204191,0.4454531973007744,5.3520462295865165,0.1850317947240063,-0.011785069003622372,0.033363293966279885,0.1005434464451107,0.07605930635080986,-0.14507502002785982,0.6362378001213074,-1.9244256019592283,-0.3275894522666931,0.6884576082229614,-0.0932611972093582,-0.2419465035200119
1749047626.8831336,-0.8586832626981378,-0.34589057123463923,-0.26353095987767905,-4.277876406642692,0.4456092592168633,5.351748992496098,0.18699502587539954,-0.011872964099812578,0.03377335162452513,0.10201091629880392,0.07684792150102641,-0.1467998510380411,0.5080785751342773,-1.932126760482788,-0.3381009697914123,0.6441177129745483,-0.100443884730339,-0.2865471541881561
1749047626.884774,-0.858304816606987,-0.3459135351552529,-0.2634645002625101,-4.2776692100035545,0.44576613868083637,5.3514486886030515,0.18900390654370858,-0.011958089778215183,0.034168579397950524,0.10330936130894129,0.07761348102077173,-0.14846506776406915,0.4774650931358337,-1.9112006425857544,-0.3224275708198547,0.6052789092063904,-0.0973215550184249,-0.2292014956474304
1749047626.9303083,-0.8579230827864431,-0.34593689163429125,-0.263397365071687,-4.277460539615192,0.44592382067121283,5.351145663209396,0.19104138649295352,-0.012041357490601201,0.03454484909847579,0.1044277814792594,0.07835613043060638,-0.150054913016223,0.5651383996009827,-1.927228927612305,-0.3325880467891693,0.6185900568962097,-0.1009387597441673,-0.2338641285896301
1749047626.9303546,-0.857538024623286,-0.34596061196536015,-0.26332961588175297,-4.2772507481406645,0.4460823557498905,5.35084024667913,0.1930913187705744,-0.01212405112372912,0.034898926769489885,0.10537547490670583,0.07907817855935143,-0.15155728320347342,0.5815103054046631,-1.9494589567184448,-0.3443427979946136,0.6197829246520996,-0.0904152989387512,-0.2148281633853912
1749047626.930395,-0.857149564349914,-0.34598464129243756,-0.26326128311195934,-4.277040061108382,0.44624186252041753,5.350532714026026,0.19514028620136076,-0.012207725021445716,0.03522897338737827,0.10618048586284934,0.07978430698421973,-0.1529663394250484,0.4802307784557342,-1.9394363164901731,-0.3362334072589874,0.5956540107727051,-0.1051926016807556,-0.2001784294843673
1749047626.930434,-0.8567575718922529,-0.3460089040065644,-0.26319236300365795,-4.2768285416399765,0.44640252261881325,5.350223249106868,0.19717852037815736,-0.012294037364983912,0.035534969053711084,0.10688567593436842,0.08048147451646526,-0.1542845554152718,0.4480802118778229,-1.933918833732605,-0.3385119438171386,0.6213057041168213,-0.1068185120820999,-0.1868008226156234
1749047626.930472,-0.8563618645999374,-0.34603331159706574,-0.2631228189629487,-4.27661607926077,0.4465645671614791,5.3499119216939315,0.1991999161220361,-0.012384560257455875,0.03581895187242246,0.10754290028804665,0.08117846476414889,-0.1555235951354705,0.6119921803474426,-1.957868218421936,-0.3565284013748169,0.6456253528594971,-0.1052629873156547,-0.2158439606428146
1749047626.9305158,-0.8559622200664333,-0.3460577724275975,-0.26305258724982683,-4.276402405510983,0.44672825538213556,5.349598682672182,0.20120139370282575,-0.0124806146316937,0.036084988422554365,0.10820607992503223,0.08188505786381575,-0.15670369294850373,0.6540160775184631,-1.962228536605835,-0.346212774515152,0.6667120456695557,-0.0892175287008285,-0.2141387462615966
1749047626.930555,-0.8555584012723835,-0.34608220283810504,-0.2629815866731989,-4.276187134642305,0.4468938475550252,5.349283378437691,0.2031819797866343,-0.012583171003338129,0.03633884809650325,0.10892413648748082,0.08261086740305948,-0.15785156149369148,0.550859808921814,-1.949412226676941,-0.338247686624527,0.6748121976852417,-0.0910424292087555,-0.220809668302536
1749047626.9305933,-0.8551501902976262,-0.3461065384980855,-0.262909731559815,-4.2759698234296915,0.44706157542118263,5.348965781349825,0.20514193705152928,-0.012692836295615949,0.03658742190245785,0.10973477604484799,0.08336396823265552,-0.15899718342617894,0.4994755983352661,-1.942971110343933,-0.3369691073894501,0.6680071353912354,-0.0858745276927948,-0.2440255880355835
1749047626.9306316,-0.8547374237927031,-0.3461307444078005,-0.2628369464033956,-4.275750040381672,0.4472316142343208,5.348645629682976,0.207082120703439,-0.012809915854014914,0.036837975571581756,0.11065997122841635,0.0841495220221298,-0.16017007631992097,0.4994755983352661,-1.942971110343933,-0.3369691073894501,0.6680071353912354,-0.0858745276927948,-0.2440255880355835
1749047626.9306695,-0.854320021111408,-0.3461548218976772,-0.2627631795414889,-4.275527432101632,0.44740406100087804,5.348322668470953,0.20900359857686418,-0.012934514227266944,0.03709733844069893,0.11170373075331218,0.08496865107641678,-0.1613957138680827,0.5545952320098877,-1.9514803886413572,-0.3474451899528503,0.6920266151428223,-0.080107994377613,-0.2514714300632477
1749047626.930714,-0.8538979966326988,-0.34617881150874813,-0.262688412942512,-4.275301774601668,0.44757892299419094,5.347996682733827,0.21090751242698572,-0.01306663574751556,0.03737111823314595,0.11285241204096615,0.0858177906204259,-0.1626927315991973,0.5773235559463501,-1.953268885612488,-0.333981454372406,0.6991233825683594,-0.068320944905281,-0.2657273709774017
1749047626.9307635,-0.8534714527461565,-0.34620279136858134,-0.26261266632634317,-4.275073000935097,0.44775611875196775,5.347667517543734,0.21279514646379993,-0.01320626482520316,0.037663024248774116,0.1140774725029738,0.08668866169004584,-0.16407135474601878,0.487802505493164,-1.9503347873687744,-0.3169595003128052,0.6934588551521301,-0.0773010328412056,-0.2479612976312637
1749047626.930803,-0.8530405569619531,-0.34622687128030694,-0.2625359957399788,-4.274841202442796,0.44793549100106883,5.347335084174003,0.21466814733330716,-0.01335342637052406,0.037974385131541645,0.11534021215127743,0.0875688804090061,-0.16553320025636709,0.5183771252632141,-1.9629778861999512,-0.3101544976234436,0.6867061853408813,-0.0804537758231163,-0.2597357034683227
1749047626.9308467,-0.8526055111280733,-0.34625118322725684,-0.2624584881200243,-4.27460660645679,0.4481168284855918,5.346999355499621,0.2165288069135379,-0.013508232596649026,0.03830394619007203,0.1165977792557099,0.08844310137895667,-0.16707229728843123,0.6025242805480957,-1.9721980094909668,-0.3281532526016235,0.664299726486206,-0.0767427682876586,-0.2455450743436813
1749047626.930886,-0.852166520957415,-0.3462758694586711,-0.2623802537200455,-4.274369536604765,0.44829989220069716,5.34666035522462,0.21838030059487712,-0.013670914237432314,0.03864800351546099,0.1178095333589027,0.08929451650239535,-0.16867692548757637,0.5848769545555115,-1.99658477306366,-0.3414807319641113,0.6942603588104248,-0.0956603437662124,-0.2353658974170684
1749047626.930924,-0.8517237718670345,-0.34630106966926866,-0.26230141786927313,-4.274130363023593,0.44848444102838425,5.346318144952928,0.22022676809219358,-0.013841822209442382,0.03900087420614284,0.1189428202184403,0.09010650552527835,-0.17033175259323202,0.4912932515144348,-1.9521634578704836,-0.3394164741039276,0.6600027084350586,-0.1225779876112937,-0.2162295281887054
1749047626.9309616,-0.851277414635745,-0.34632690883568856,-0.26222211288746233,-4.27388944980103,0.44867025223775925,5.345972811799585,0.22207312923584804,-0.014021379382528065,0.039355636695281866,0.11997732017858127,0.090864259557924,-0.1720197911975674,0.5212828516960144,-1.981036901473999,-0.3289145827293396,0.6379680633544922,-0.0876684635877609,-0.2365832477807998
1749047626.9309986,-0.8508275620461339,-0.34635348700319124,-0.26214247040454314,-4.273647106494741,0.4488571338796694,5.345624457848935,0.22392457632887858,-0.014209968441452687,0.03970502972943529,0.12090735744289115,0.09155626461671129,-0.173723870213764,0.5611040592193604,-1.9899762868881223,-0.335455983877182,0.6234086155891418,-0.0744929909706115,-0.2354582697153091
1749047626.9310362,-0.8503742953696668,-0.3463808718919942,-0.26206261392709235,-4.273403549723055,0.44904492852412586,5.345273191669528,0.22578579694111167,-0.014407764357840268,0.040042379129300545,0.12174186707284211,0.0921756042834077,-0.1754275585423838,0.6178946495056152,-1.9963536262512207,-0.3423817753791809,0.6399607062339783,-0.0945855379104614,-0.271910548210144
1749047626.9310763,-0.8499176775172812,-0.3464090948222147,-0.2619826513851016,-4.273158879382158,0.4492335103261062,5.3449191214634695,0.22766010065086206,-0.014614551337881688,0.04036242049072077,0.12250208681337389,0.09272106199607412,-0.1771156910263199,0.535973310470581,-1.9830362796783447,-0.3531808257102966,0.6546667218208313,-0.0927208289504051,-0.2932933568954468
1749047626.9311152,-0.849457768316378,-0.3464381502476684,-0.2619026677293066,-4.272913071983248,0.4494227791497531,5.344562349153477,0.2295486643347159,-0.014829585573750838,0.04066190269173908,0.12321742697280662,0.09319794707564906,-0.1787747574981293,0.551528811454773,-1.9980159997940063,-0.3478014469146728,0.6726447939872742,-0.1099392250180244,-0.2451824694871902
1749047626.9311528,-0.8489946370347564,-0.34646799905306036,-0.26182271831481113,-4.2726659912018645,0.44961265579497345,5.344202964628898,0.2314500565474242,-0.015051562923257275,0.04093989471813917,0.12392028397830877,0.09361848173501915,-0.1803933971422906,0.5894536375999451,-1.9972350597381592,-0.3581590950489044,0.6592487096786499,-0.0766903162002563,-0.2698739171028137
1749047626.9312668,-0.8485283682508318,-0.34649857548481006,-0.26174282432973855,-4.272417413392863,0.44980308129863406,5.343841039494749,0.2333601118200968,-0.015278727731376644,0.04119777049111428,0.12464071981996186,0.09400155547815778,-0.18196310770911597,0.6071125864982605,-2.0109002590179443,-0.3573426604270935,0.7123125195503235,-0.0831401348114013,-0.276762843132019
1749047626.9336264,-0.8480590594484286,-0.34652979708236314,-0.26166297143634354,-4.272167063952288,0.4499940214209459,5.343476620127196,0.23527215448306674,-0.015509124302003114,0.04143889927477601,0.12540190719352456,0.09437171847553014,-0.1834790850323124,0.5095567107200623,-1.96868097782135,-0.3575893044471741,0.6985739469528198,-0.0857528448104858,-0.2355744540691375
1749047626.974271,-0.847586811488045,-0.34656157648395897,-0.2615831120179579,-4.271914659283817,0.45018547536913806,5.343109720641534,0.23717753133326552,-0.015740950372853786,0.04166811155663484,0.1262170616200473,0.09475741053452277,-0.18494093353356655,0.5549716353416443,-1.9634019136428835,-0.340884268283844,0.7110620737075806,-0.0753859728574752,-0.2277993559837341
1749047626.974316,-0.8471117150225594,-0.3465938337089873,-0.26150317036018367,-4.271659948693651,0.4503774860310434,5.342740317193833,0.23906640406632007,-0.01597293201723007,0.04189103505883831,0.12708828696619986,0.0951885505295504,-0.1863529159837813,0.6675264239311218,-1.977568745613098,-0.3540060520172119,0.7171351909637451,-0.0749761760234832,-0.2156222462654113
1749047626.974356,-0.846633836236881,-0.3466265073537029,-0.26142304934699,-4.271402750556085,0.4505701480899851,5.342368345371622,0.24092876530158341,-0.016204621649593846,0.042113399577630654,0.12800740435687488,0.09569371861046008,-0.1877234851144144,0.5517325401306152,-1.969474196434021,-0.3370100259780884,0.6884856224060059,-0.0520671531558036,-0.2298325896263122
1749047626.9743946,-0.8461532044940815,-0.3466595629691551,-0.26134263725726886,-4.2711429776031515,0.450763610796707,5.341993702090958,0.24275563266781794,-0.01643653698333844,0.04234039598249332,0.12895848757954323,0.09629724726874721,-0.18906403614829234,0.484323501586914,-1.9726837873458865,-0.3586826622486114,0.7223265767097473,-0.0481430292129516,-0.2442811280488968
1749047626.9744322,-0.8456698034933162,-0.3466929970044506,-0.26126181389139125,-4.270880647526957,0.4509580735953194,5.3416162526015984,0.2445403133743094,-0.016670098574891382,0.042576153255233964,0.1299215581986716,0.0970165834231176,-0.190387057039936,0.509311318397522,-1.970492959022522,-0.3459314405918121,0.7319725155830383,-0.0495001263916492,-0.2501147389411926
1749047626.97447,-0.8451835667500864,-0.3467268354122765,-0.2611804559354424,-4.270615877395648,0.4511537744259576,5.341235842173591,0.24627955837416324,-0.016907366985692604,0.04282337656780262,0.1308767367195459,0.09786026796500015,-0.19170404037328564,0.6190357208251953,-1.9567168951034544,-0.3382012844085693,0.6830171346664429,-0.0322894304990768,-0.2830078303813934
1749047626.9745076,-0.8446943775228831,-0.34676112716017293,-0.2610984417137919,-4.270348863297466,0.45135097175631606,5.340852311033227,0.2479744070667626,-0.01715061540851754,0.04308317061732325,0.13180810646339206,0.09882679341270646,-0.19302359307834313,0.623424232006073,-1.9707956314086916,-0.3525497913360595,0.7058631181716919,-0.0366958081722259,-0.2609668970108032
1749047626.9745457,-0.8442020727651435,-0.3467959339470662,-0.2610156554129387,-4.270079849303376,0.451549922196055,5.340465510458524,0.24963056423032293,-0.017401797188715526,0.04335505156955027,0.1327066246603924,0.09990446695321227,-0.1943501185736013,0.5000052452087402,-1.955394506454468,-0.3555172383785248,0.7116837501525879,-0.0186036899685859,-0.2749374806880951
1749047626.9745834,-0.8437064503743952,-0.3468313179609559,-0.26093199088657837,-4.2698090914534745,0.45175085619129757,5.340075317914118,0.25125820820518857,-0.01766198154882401,0.043637126840503505,0.13357160997066314,0.10107226682661777,-0.1956832833776798,0.5240505337715149,-1.9525282382965088,-0.3383870720863342,0.6716372966766357,-0.0673822313547134,-0.2626237571239471
1749047626.9746203,-0.8432072788949267,-0.3468673294875762,-0.26084735538537723,-4.269536822746586,0.4519539548970535,5.339681649614236,0.25287119593434976,-0.017930838518159044,0.04392640103450731,0.13441061540448018,0.10230157499968663,-0.19701828811725572,0.547335147857666,-1.9783782958984373,-0.3475871682167053,0.6863583326339722,-0.0342415124177932,-0.2665387094020843
1749047626.9746578,-0.8427043088346166,-0.346903995929549,-0.26076167373069,-4.2692632243174655,0.4521593316721811,5.339284469513111,0.25448573071757874,-0.018206257015467558,0.04421915547144849,0.13523779867998975,0.10355862000677625,-0.19834681254243872,0.5484809279441833,-1.9719955921173096,-0.3412010669708252,0.7086456418037415,-0.0268932580947875,-0.2654905021190643
1749047626.974695,-0.8421972848697367,-0.3469413136321626,-0.26067489329696913,-4.268988406515938,0.4523670213770556,5.33888379409648,0.2561186757979448,-0.01848417292004531,0.044511347333932166,0.136071173825133,0.10480745307164736,-0.19965842779613893,0.5304651260375977,-1.933260202407837,-0.3531304001808166,0.6964558959007263,-0.0236475467681884,-0.2454147487878799
1749047626.9747314,-0.8416859583918183,-0.3469792437133613,-0.2605869896807883,-4.268712401727238,0.4525769795869766,5.338479692527481,0.25778576905433154,-0.01875865953753171,0.04479897926320459,0.1369293298999284,0.10601325473621712,-0.20094225604023777,0.5807033777236938,-1.9500517845153809,-0.3509953916072845,0.7172077298164368,-0.0442355126142501,-0.2604431211948395
1749047626.974778,-0.8411700999839424,-0.34701771254157937,-0.2604979723079005,-4.2684351687120685,0.4527890921141544,5.338072281919509,0.2594999810852487,-0.019022291654184856,0.045078402458905875,0.13782829465746269,0.10714569563674306,-0.20218867897390705,0.5964964032173157,-1.9297078847885127,-0.3688403367996216,0.7347962260246277,-0.0473565384745597,-0.2754802405834198
1749047626.9748168,-0.8406495113878338,-0.347056616640211,-0.26040788867208287,-4.268156606295668,0.45300319328645033,5.337661717923716,0.2612701760856048,-0.019266746307707312,0.045346539189405885,0.1387791680568797,0.10818198913958,-0.20339092311459311,0.5435307025909424,-1.9479427337646484,-0.3365307450294494,0.7569799423217773,-0.041261825710535,-0.27084881067276
1749047626.9748535,-0.8401240363608853,-0.34709583106282704,-0.26031682562344444,-4.26787657280037,0.45321908983550324,5.33724818141503,0.2631001361644143,-0.019483561461757025,0.04560104132156385,0.1397869536074742,0.10910924098532772,-0.20454635625840822,0.5471336841583252,-1.9583606719970703,-0.3368448317050934,0.7366231679916382,-0.0678364187479019,-0.2648572325706482
1749047626.9748907,-0.8395935696664286,-0.34713522001766334,-0.2602249063337607,-4.267594907073004,0.4534365865176343,5.336831862678376,0.2649879577484562,-0.01966494779013519,0.04584042503960942,0.1408507207122986,0.10992574841552995,-0.20565731347602756,0.571087658405304,-1.936556935310364,-0.3520622849464416,0.7347630858421326,-0.0704911351203918,-0.2594050467014313
1749047626.9749277,-0.839058063359092,-0.3471746486398377,-0.26013228229798513,-4.267311447415625,0.4536555098347547,5.3364129449787745,0.26692584459684204,-0.019804542403638107,0.04606421699214788,0.14196491448769072,0.11064101057658735,-0.20673126409420242,0.5831536054611206,-1.9031490087509155,-0.3476740717887878,0.7404121160507202,-0.0772228837013244,-0.2413318753242492
1749047626.974964,-0.8385175295500206,-0.34721399496353855,-0.2600391207772262,-4.26702604590798,0.4538757270652697,5.335991589707302,0.2689003553792103,-0.019898004621037118,0.046273110377222836,0.14312137096238176,0.11127436411409797,-0.20778018022923053,0.6002036929130554,-1.9139189720153809,-0.3586299121379852,0.694891095161438,-0.0703368261456489,-0.2259872406721115
1749047626.9750009,-0.8379720391775756,-0.3472531610584533,-0.2599455890926964,-4.2667385770513855,0.45409715880814316,5.335567925366649,0.2708931493110923,-0.01994337950889724,0.046469089196237996,0.14431145334117196,0.11185234609407584,-0.20881909707231594,0.5758548974990845,-1.922507166862488,-0.3354073762893677,0.7003846764564514,-0.0974096283316612,-0.2442500591278076
1749047626.9751034,-0.8374217171358902,-0.3472920819662589,-0.25985183779548854,-4.266448941012351,0.4543197841518848,5.335142042259823,0.2728822105905856,-0.019941192592435975,0.04665546667218793,0.14552772953347995,0.11240509205031843,-0.2098640446290297,0.6022016406059265,-1.8884177207946775,-0.3517414331436157,0.7093340754508972,-0.067175380885601,-0.2577668726444244
1749047626.9767735,-0.8368667350390757,-0.3473307307704598,-0.25975798486561874,-4.2661570627735275,0.4545436383402324,5.334713993703429,0.274843472549227,-0.019894283701473295,0.0468367977395515,0.146764768033069,0.11296225623139235,-0.21092971915329375,0.6154034733772278,-1.919987678527832,-0.3701907992362976,0.7170993089675903,-0.0800541043281555,-0.2618934512138366
1749047627.0183034,-0.8363073031782654,-0.34736911826338673,-0.25966410293982156,-4.265862889020574,0.4547688034976651,5.334283803147553,0.2767527287536766,-0.019807429246074447,0.04701863957470556,0.14801890054598918,0.11354904527394455,-0.212027375807231,0.5862838625907898,-1.9125416278839111,-0.3652282953262329,0.7238619327545166,-0.0434461385011673,-0.2762099802494049
1749047627.0183485,-0.835743662633266,-0.3474072865455302,-0.25957021128521457,-4.265566384582372,0.4549953937389975,5.333851475354616,0.27858768354853497,-0.019686830148832078,0.047207139575302384,0.14928709926878522,0.11418295927885795,-0.21316340888564725,0.5560140609741211,-1.9145711660385127,-0.3808530569076538,0.7489480972290039,-0.0253227651119232,-0.2654907703399658
1749047627.0183885,-0.8351760776067025,-0.3474452973830148,-0.25947627373530374,-4.265267529914497,0.4552235367127023,5.333417009262524,0.28032993949752183,-0.019539551407586526,0.047408446755760315,0.1505653558308254,0.11487173469759414,-0.21433893592548822,0.5282175540924072,-1.9099950790405276,-0.3600673973560333,0.7490602731704712,-0.0307403206825256,-0.2800394892692566
1749047627.0184278,-0.8346048275750751,-0.3474832176108194,-0.2593822030538869,-4.264966320669298,0.45545335394462994,5.332980410231527,0.28196667693789884,-0.019372988499862038,0.04762798709450344,0.15184707459044852,0.1156127918621668,-0.21555046117468954,0.553396463394165,-1.903059720993042,-0.3520635664463043,0.7466159462928772,-0.0606662929058074,-0.2763149440288543
1749047627.018466,-0.8340301990595039,-0.3475211045230088,-0.2592878713708202,-4.264662769809921,0.4556849421230521,5.332541699537265,0.2834918016490726,-0.019194411702131545,0.04786970259317688,0.15312198105972952,0.11639423119524728,-0.21679143702767686,0.5551997423171997,-1.90038537979126,-0.3527374565601349,0.7716646194458008,-0.0628348588943481,-0.2690184116363525
1749047627.018504,-0.8334524774753849,-0.34755899377017735,-0.2591931255765313,-4.264356911963461,0.45591835701278144,5.332100919107603,0.28490642326214094,-0.019010612072155625,0.04813539250547395,0.1543758992872721,0.11719715247187107,-0.21805434337059196,0.523650586605072,-1.9089481830596924,-0.3415644764900207,0.7590787410736084,-0.0449767038226127,-0.2704460620880127
1749047627.0185418,-0.8328719400728614,-0.34759689128510723,-0.25909780586945497,-4.264048808957829,0.45615360128894855,5.3316581301344455,0.28621863082813714,-0.018827649954674223,0.04842428747483923,0.15559151423022236,0.11799886266493849,-0.21933281012992387,0.521075963973999,-1.936132907867432,-0.3549736440181732,0.7602992057800293,-0.0617452189326286,-0.2365080416202545
1749047627.0185802,-0.8322888509398297,-0.3476347699031026,-0.2590017650757248,-4.2637385550675395,0.45639061724274516,5.331213405674436,0.28744261369147517,-0.01865069090509674,0.04873293927775834,0.15674998024271644,0.11877642993324851,-0.22062332664888484,0.525829017162323,-1.892416715621948,-0.3561797142028808,0.7351223826408386,-0.0640759617090225,-0.2333098500967025
1749047627.0186365,-0.8317034584428131,-0.34767257084672626,-0.2589048860866115,-4.263426280568481,0.45662928505191575,5.330766819138587,0.2885972403861198,-0.018483905663857627,0.04905545088338201,0.15783303252002157,0.11951003183638757,-0.22192619358709076,0.6144757866859436,-1.919891595840454,-0.3267217576503753,0.7098113894462585,-0.0425650179386138,-0.2675798833370209
1749047627.0187085,-0.8311159947770314,-0.34771020981248,-0.2588070949911386,-4.263112152621794,0.4568694271670306,5.330318431636229,0.28970426454594556,-0.018330411242859904,0.0493840261691024,0.15882515321669727,0.12018562197525606,-0.22324554036032512,0.5338010191917419,-1.92279052734375,-0.3282331526279449,0.7305004000663757,-0.0516203939914703,-0.2609354853630066
1749047627.01876,-0.8305266767694304,-0.34774758681201745,-0.2587083682458681,-4.2627963729808,0.4571108191404099,5.329868281017493,0.2907863510116013,-0.01819223861997728,0.04970978051268195,0.1597153692841599,0.12079658528144838,-0.22458840528018487,0.5222554802894592,-1.915799856185913,-0.3491530418395996,0.7258641719818115,-0.0722431242465972,-0.2530020475387573
1749047627.0188122,-0.8299357066868961,-0.3477845983264933,-0.2586087332623984,-4.262479172367437,0.4573532066960791,5.32941637459347,0.2918650927256214,-0.018070325550481093,0.05002370982469751,0.16049840638057408,0.12134423312088793,-0.2259630181336002,0.5077277421951294,-1.937053918838501,-0.3706200718879699,0.7184677124023438,-0.0669906437397003,-0.2590790688991546
1749047627.0188522,-0.8293432715333466,-0.3478211500062625,-0.2585082627906804,-4.262160801482749,0.4575963281173477,5.328962686539567,0.29295916216363044,-0.0179645459354101,0.050317678698510185,0.16117512655277655,0.12183716444790264,-0.22737652834701813,0.5506665110588074,-1.9372692108154297,-0.3486064374446869,0.7072211503982544,-0.0616063028573989,-0.2629197835922241
1749047627.0188897,-0.8287495393797443,-0.34785716818628926,-0.25840706430949983,-4.261841518391009,0.45783994035550357,5.328507160034466,0.29408275728561295,-0.017873795530903732,0.05058528591698264,0.1617523498595098,0.1222896666821771,-0.22883250362680463,0.5654982924461365,-1.933973789215088,-0.3333784341812134,0.7354331016540527,-0.0448834151029586,-0.2570783495903015
1749047627.018927,-0.8281546518210949,-0.34789260878804895,-0.25830526623716177,-4.261521571665178,0.45808384660552026,5.3280497131258,0.2952445263130504,-0.01779615325609681,0.050822500275685696,0.16224224857301692,0.12271943934349724,-0.2303285914498342,0.5357977151870728,-1.9332499504089355,-0.3637541532516479,0.7362108826637268,-0.0572761595249176,-0.2738666236400604
1749047627.018965,-0.8275587125414164,-0.34792746264152147,-0.2582030030030838,-4.261201178813567,0.4583279222671418,5.3275902463680085,0.29644710475484715,-0.01772912602831938,0.05102800455299917,0.16266150050428813,0.1231449824458186,-0.23185476362205779,0.5869611501693726,-1.9536113739013672,-0.3609821796417236,0.7628171443939209,-0.0526368916034698,-0.2543861269950866
1749047627.0190024,-0.8269617729192388,-0.34796175683301733,-0.2581004008472078,-4.260880500532008,0.45857213540366604,5.327128650017321,0.29768726267652396,-0.017669966640307115,0.05120322149138387,0.16303031551098543,0.12358299733795833,-0.23339251642101766,0.5176512598991394,-1.947012186050415,-0.3437641859054565,0.7224586009979248,-0.0766757354140281,-0.2743459939956665
1749047627.0190396,-0.82636381651997,-0.3479955522815562,-0.25799756581656247,-4.260559613003752,0.4588165576685407,5.3266648093353,0.2989565290729765,-0.017616035578062423,0.05135202904603078,0.16337134149038507,0.12404611568499778,-0.23491526556437312,0.504203736782074,-1.9437499046325684,-0.3545870184898376,0.7199382185935974,-0.0445783585309982,-0.2576330006122589
1749047627.0190775,-0.8257647451642338,-0.34802893829701476,-0.25789457498641294,-4.260238482175116,0.45906136265789493,5.3261986080476635,0.30024211619483004,-0.017565163292808748,0.05148021059372568,0.16370836387363305,0.1245412192742885,-0.23638997976476928,0.5263481140136719,-1.9491825103759768,-0.3782730400562286,0.7093496918678284,-0.037868246436119,-0.265336662530899
1749047627.0191152,-0.8251643699082245,-0.348062025277823,-0.2577914715016921,-4.2599169450938,0.4593068105583946,5.32572993144911,0.3015280077256018,-0.017515961163991046,0.05159472145633653,0.16406468931858698,0.12506853606283067,-0.23777988265889868,0.5313208699226379,-1.9540026187896729,-0.3416869342327118,0.713436484336853,-0.0640419423580169,-0.2301326990127563
1749047627.019223,-0.8245624105725693,-0.34809493674021785,-0.25768826362950037,-4.259594703637552,0.45955322012838296,5.325258671303609,0.30279614271909633,-0.017468029604228517,0.051702874080392855,0.1644611763667209,0.1256215866975136,-0.23904787503894498,0.5258934497833252,-1.9605579376220703,-0.3534421324729919,0.7242105007171631,-0.0500630810856819,-0.2361852824687957
1749047627.020785,-0.8239585072773448,-0.34812780143126865,-0.2575849276875789,-4.259271335103046,0.45980093089756835,5.324784734336874,0.30402767547511417,-0.017422023411354463,0.05181154565480984,0.16491402374387965,0.12618792910101373,-0.24016023790289553,0.526367723941803,-1.9671940803527832,-0.3488228023052215,0.7383975386619568,-0.0637832358479499,-0.2451319396495819
1749047627.066315,-0.8233522466102878,-0.3481607456538164,-0.25748141449659284,-4.258946322147588,0.4600502597905095,5.324308055116958,0.30520430788294023,-0.01737955853334121,0.051926494528011416,0.1654325925449035,0.1267505474292252,-0.24109018847698505,0.5688875913619995,-1.9714754819869995,-0.3484396040439605,0.7250475883483887,-0.0769763067364692,-0.2339526712894439
1749047627.0663626,-0.8227432033546994,-0.3481938855825793,-0.25737765881641167,-4.258619101644271,0.4603014571674433,5.323828612990609,0.30630967421288247,-0.01734297702022748,0.05205184228626887,0.16601765179185254,0.12728967572161215,-0.24182094021746806,0.5428682565689087,-1.9731649160385127,-0.3520354330539703,0.7809162139892578,-0.0664173737168312,-0.2616742849349975
1749047627.066404,-0.8221309959639393,-0.34822731950567865,-0.25727359090939955,-4.258289128567659,0.4605546674829393,5.3233464515552305,0.3073307041973805,-0.01731501817326093,0.05218974936842053,0.16666044782320033,0.12778482864039659,-0.24234799599561543,0.4891101419925689,-1.9892898797988887,-0.358474850654602,0.7645811438560486,-0.0753159448504448,-0.253068596124649
1749047627.066461,-0.8215153501589048,-0.3482611204680127,-0.25716914883192205,-4.257955947641432,0.46080989947949735,5.322861697498499,0.308258813500395,-0.01729846140653621,0.052340291845850935,0.16734289370376212,0.12821682651042066,-0.2426804350290604,0.5215805768966675,-1.9832321405410769,-0.3513485491275787,0.7754689455032349,-0.0645631849765777,-0.2312995493412017
1749047627.06651,-0.8208961604554773,-0.3482953303723533,-0.2570642893871129,-4.257619262549313,0.46106701048242327,5.322374573439159,0.30909072088217965,-0.017295803954708953,0.052501533699218034,0.16803897979626045,0.12856964545442562,-0.2428409556584871,0.5215805768966675,-1.9832321405410769,-0.3513485491275787,0.7754689455032349,-0.0645631849765777,-0.2312995493412017
1749047627.0665495,-0.8202735357124563,-0.348329956837193,-0.25695899526868654,-4.257278990718578,0.4613257089951797,5.321885397865954,0.3098287109604227,-0.017309018402848896,0.05266977850900473,0.16871727629760416,0.12883197583533965,-0.24286447496876504,0.5055811405181885,-2.0057806968688965,-0.3592002689838409,0.7665649652481079,-0.0975471287965774,-0.2002601772546768
1749047627.0665874,-0.819647815400622,-0.3483649738419307,-0.25685327641077443,-4.256935292684351,0.461585578296786,5.321394566909655,0.3104802395051025,-0.017339408801525406,0.05283997630071418,0.16934419721253777,0.1289984097772102,-0.2427952233868685,0.5409145355224609,-1.990124225616455,-0.3539674282073974,0.7345847487449646,-0.0726353004574775,-0.2263377904891967
1749047627.0666258,-0.8190195505029544,-0.34840032648489766,-0.25674716518357527,-4.256588570046534,0.46184611999531866,5.320902518799321,0.31105687581853114,-0.01738755616435907,0.05300625494563761,0.16988756440435734,0.12907019429563238,-0.24268251114100123,0.4602374732494354,-1.9942094087600708,-0.3492206633090973,0.7407048344612122,-0.078678660094738,-0.230143666267395
1749047627.0666633,-0.8183894534841789,-0.3484359392754621,-0.25664070705123654,-4.256239433311785,0.4621068115483131,5.320409689496053,0.31157268229713536,-0.017453323473400666,0.053162538465388064,0.17031996793606344,0.1290554890726254,-0.24257562258271562,0.4504392147064209,-1.988848090171814,-0.3218737244606018,0.7083847522735596,-0.0599378496408462,-0.2236437052488327
1749047627.0667017,-0.8177583290079693,-0.3484717266028737,-0.2565339493976902,-4.255888646716726,0.4623671683254812,5.31991647172939,0.31204225216578796,-0.01753588748525237,0.053303203109535825,0.17062147943107098,0.1289690699084179,-0.24251852271206745,0.4619323909282684,-1.9960510730743408,-0.3579349517822265,0.7150840163230896,-0.0642580464482307,-0.2610624134540558
1749047627.066739,-0.8171269982129663,-0.34850760364732825,-0.25642693111643233,-4.255537059472582,0.46262680029093994,5.319423187199142,0.3124787386275809,-0.017633779799925288,0.0534237036271041,0.17078143417499,0.12883143199096642,-0.24254515841297025,0.5225659012794495,-2.0107293128967285,-0.3525457382202148,0.7320857644081116,-0.1090466231107711,-0.2823598384857178
1749047627.066777,-0.8164962268092666,-0.34854349608153573,-0.2563196749348409,-4.255185532621558,0.46288545508019857,5.318930075691121,0.3128922554615457,-0.017744939180964557,0.05352108161653148,0.1707992010615431,0.12866728524628362,-0.242676065103252,0.4954581260681152,-2.000624179840088,-0.3765924572944641,0.7236601114273071,-0.0931419134140014,-0.2724269330501556
1749047627.066815,-0.8158666640508996,-0.3485793473425135,-0.25621218380525945,-4.254834869312357,0.46314304195765177,5.318437299233061,0.31328897097876235,-0.017866786723941076,0.05359426220373411,0.1706840261612118,0.12850351112475022,-0.2429167641361128,0.5128763914108276,-2.00126314163208,-0.3655616343021393,0.7286936044692993,-0.0887235850095748,-0.2723118364810943
1749047627.0668528,-0.815238796882678,-0.34861512292429353,-0.25610444197387094,-4.254485754464056,0.46339963432916886,5.317944956204251,0.31367106007005885,-0.01799633255273457,0.05364407311196797,0.1704541149607699,0.12836675676576584,-0.24325812728096266,0.5137758851051331,-2.0020551681518555,-0.3593456149101257,0.7091633677482605,-0.0788285210728645,-0.2271552979946136
1749047627.0668902,-0.8146129213818424,-0.3486508118932816,-0.25599642046379656,-4.25413870784027,0.4636554518739883,5.317453099504497,0.31403746188164167,-0.01813031436262689,0.053672979336399376,0.1701351146033918,0.1282809347452711,-0.24367858315936,0.5050902962684631,-2.0175657272338867,-0.3578620553016662,0.7010304927825928,-0.0638326406478881,-0.2641769647598266
1749047627.066928,-0.8139891319011827,-0.348686426329591,-0.2558880858318787,-4.253794052879743,0.4639108264065813,5.316961753653235,0.3143851765607567,-0.018265361308872855,0.053684589388529665,0.16975811265929666,0.12826493382405363,-0.2441478114166761,0.4376429319381714,-2.0216236114501958,-0.4046841859817505,0.6710582971572876,-0.0449197739362716,-0.2711360454559326
1749047627.0669668,-0.8133673267845,-0.34872199939361026,-0.2557794103491498,-4.253451902445823,0.4641661574953327,5.316470927201221,0.3147107041368677,-0.018398173127568182,0.05368303005930928,0.16935723518511786,0.12833082386474773,-0.24463141984634745,0.4201651215553283,-2.008397102355957,-0.3457505106925964,0.6997828483581543,-0.059231236577034,-0.2768361568450928
1749047627.067004,-0.8127472280655351,-0.3487575823391859,-0.2556703813870031,-4.253112161822033,0.4644218642093155,5.315980618532196,0.3150112391614661,-0.01852570301768474,0.05367230702503207,0.16896694260709366,0.12848276851393636,-0.2450959880096502,0.4849280714988708,-2.028460741043091,-0.3385889828205108,0.6796618103981018,-0.0448865517973899,-0.2611427009105682
1749047627.0670414,-0.8121284114644217,-0.34879324041989546,-0.25556100797719944,-4.252774548358202,0.4646783385350661,5.315490814728314,0.31528537128035206,-0.01864533334319075,0.05365577582095105,0.16861919095581085,0.12871675233829213,-0.24551376196660096,0.455265998840332,-2.0258748531341557,-0.3357133269309997,0.7081114053726196,-0.0575088784098625,-0.2162167429924011
1749047627.067078,-0.8115103426458798,-0.34882904753387217,-0.2554513233215091,-4.252438625871268,0.464935904819665,5.315001484638577,0.31553322850034565,-0.018755034860198624,0.053635827711930026,0.16834071556364572,0.12902110808099118,-0.24586623996379617,0.4808599650859833,-2.0199716091156006,-0.3764934539794922,0.7181446552276611,-0.0431522354483604,-0.1919974833726883
1749047627.067115,-0.8108924162003217,-0.3488650796519918,-0.25534138319641037,-4.252103850458604,0.4651947885394301,5.314512568671953,0.3157561620266082,-0.01885350139765737,0.053613834560848075,0.168150758899431,0.12937772818887006,-0.24614599086131944,0.5081082582473755,-2.010962009429932,-0.3709300756454468,0.7035515308380127,-0.069905512034893,-0.2001921236515045
1749047627.067152,-0.8102739948497356,-0.3489014074303288,-0.25523126124336487,-4.251769623297682,0.4654550968290576,5.314023968982668,0.31595617140455284,-0.01894025324138784,0.053590318936735666,0.16805956479364048,0.12976377953762433,-0.2463563559767881,0.5147042274475098,-2.009467601776123,-0.3615483045578003,0.7143146395683289,-0.0726211741566658,-0.2063693553209304
1749047627.0672696,-0.8096544474471115,-0.3489380887920392,-0.25512104265793945,-4.251435345553931,0.4657168123625602,5.3135355441468235,0.31613529406341656,-0.01901570692335914,0.05356526166406518,0.16806787610923937,0.13015371140319187,-0.24650915490708544,0.4610471725463867,-2.0250539779663086,-0.371571272611618,0.716995120048523,-0.05660080909729,-0.2342449277639389
1749047627.0687675,-0.8090331850114217,-0.3489751626212414,-0.2550108176888857,-4.251100470632052,0.4659798009415465,5.31304711162466,0.3162951419824998,-0.01908121694186484,0.053538445089927764,0.16816751398287688,0.13052135326743836,-0.24662099451507502,0.4842612743377685,-2.026840925216675,-0.3904818594455719,0.7358859181404114,-0.0737877637147903,-0.2804984450340271
1749047627.1143074,-0.8084096941522728,-0.34901264488135864,-0.2549006758072908,-4.250764549509482,0.46624383125261165,5.312558459257424,0.316436691969988,-0.01913909974749407,0.05350974420345017,0.16834293339761272,0.13084193159539617,-0.24670908487641016,0.5089874267578125,-2.021418571472168,-0.38009113073349,0.7067187428474426,-0.0971985161304473,-0.2890969812870025
1749047627.114354,-0.8077835668385267,-0.34905052818898435,-0.25479070076739124,-4.250427265635398,0.46650860321417426,5.3120693645188926,0.3165603555592208,-0.019192644560882335,0.05347930577011135,0.16857349950559644,0.1310938744884289,-0.24678748918051202,0.6013964414596558,-2.0266573429107666,-0.3726209998130798,0.7457901239395142,-0.0621334612369537,-0.2680651545524597
1749047627.114395,-0.8071545248164103,-0.3490887851296785,-0.254680966427157,-4.250088456759138,0.46677378015073484,5.311579618246462,0.31666627149546245,-0.01924609851807924,0.053447592625548726,0.1688361405476656,0.13126031223605036,-0.24686450601638815,0.5246013402938843,-2.037343740463257,-0.3633086383342743,0.7164900898933411,-0.0596129298210144,-0.2723623514175415
1749047627.1144345,-0.806522436547303,-0.3491273747636282,-0.2545715332557289,-4.249748122024574,0.46703902019548427,5.311089048682607,0.31675467859194145,-0.019304592367553986,0.05341530616064175,0.1691080001702208,0.13133021589748986,-0.24694153492359822,0.4312126040458679,-2.041945457458496,-0.3878576159477234,0.7116360068321228,-0.0755599588155746,-0.2302381247282028
1749047627.1144738,-0.8058873247370455,-0.34916625119436445,-0.2544624457206248,-4.2494064137643655,0.46730400343228823,5.310597541816363,0.3168261834397024,-0.01937395938860986,0.05338322045172745,0.16936872543442097,0.13129912434220692,-0.24701345190587523,0.5073279142379761,-2.006969928741455,-0.3803843855857849,0.700082540512085,-0.0974449887871742,-0.2575885653495788
1749047627.114513,-0.8052493634369788,-0.34920537278855746,-0.25435373089329755,-4.24906361471619,0.4675684526297901,5.310105054855241,0.31688179114276427,-0.019460406834136138,0.053351968367524844,0.16960209935966314,0.1311693826576185,-0.24707029666356745,0.6211986541748047,-2.058821439743042,-0.3461565375328064,0.7190365791320801,-0.0838448777794838,-0.2620406746864319
1749047627.1145525,-0.804608864931307,-0.34924471055797707,-0.25424539849426553,-4.248720102864025,0.4678321465158704,5.309611620772752,0.3169226960216649,-0.01957003091441074,0.053321829011531235,0.16979686574841404,0.13094978754447198,-0.24709993327348825,0.4971312582492828,-2.068067789077759,-0.3693314790725708,0.7106593251228333,-0.1158330887556076,-0.2967882454395294
1749047627.1145947,-0.8039662575890036,-0.34928425442199135,-0.2541374423579186,-4.248376307637677,0.4680949252585602,5.309117343048388,0.31694993633848345,-0.019708213530339618,0.05329257445424251,0.16994676746758086,0.13065456666519107,-0.24709122296744687,0.4415108859539032,-2.0370006561279297,-0.3802230954170227,0.7019354701042175,-0.1168925613164901,-0.2929067015647888
1749047627.114633,-0.8033220562575626,-0.3493240165960144,-0.2540298431456455,-4.24803266247263,0.4683566883492327,5.308622381060789,0.31696404608297774,-0.019878980778599578,0.05326341892736757,0.1700499721809387,0.13030173506669684,-0.24703710507059368,0.5198841094970703,-2.052161931991577,-0.387288898229599,0.6971011757850647,-0.0862069576978683,-0.2336958944797516
1749047627.1146717,-0.8026768269673706,-0.3493640320073395,-0.2539225721012436,-4.24768955934038,0.46861738580559376,5.308126928276302,0.31696482256890296,-0.02008442129838645,0.05323307246128035,0.17010815090172357,0.129911041370641,-0.24693687846676574,0.5561999678611755,-2.0572612285614014,-0.3836093544960022,0.7216367721557617,-0.0986541286110878,-0.2118007540702819
1749047627.1147096,-0.8020311482863027,-0.34940435619190074,-0.2538155955873893,-4.247347310556989,0.46887700467198307,5.307631187080064,0.3169513086282757,-0.020324253059249488,0.05319986387975945,0.17012548957188411,0.12950186841862774,-0.2467970338646367,0.4781036972999573,-2.0378358364105225,-0.3756541311740875,0.7159584164619446,-0.058092325925827,-0.2008768320083618
1749047627.1147473,-0.801385572613347,-0.3494450613972747,-0.25370888000611824,-4.247006122056294,0.4691355537860474,5.30713534509671,0.3169220433312147,-0.02059559953978307,0.05316189217816566,0.1701078535517832,0.12909151601397809,-0.24663028754417837,0.4259804189205169,-2.0138657093048096,-0.3707024455070495,0.6998870372772217,-0.0507931858301162,-0.2254416942596435
1749047627.1147847,-0.8007405913314202,-0.34948623147862945,-0.25360239657098554,-4.246666080650568,0.46939305009680254,5.306639557658696,0.31687555479097596,-0.02089300332154399,0.053117185829101264,0.17006220645346942,0.1286942251679927,-0.24645296030411173,0.4927653670310974,-2.0457770824432373,-0.3863588869571686,0.700039267539978,-0.0752474144101142,-0.2749601006507873
1749047627.114822,-0.8000966074059479,-0.3495279557866728,-0.25349612531111515,-4.246327155821451,0.4696495093208783,5.306143939757585,0.3168109942874592,-0.021208676829996213,0.0530638735234892,0.16999625018896325,0.12832110575092456,-0.24628135520750166,0.6263052821159363,-2.0408685207366943,-0.3964636921882629,0.7078385353088379,-0.0941733568906784,-0.2750498652458191
1749047627.1148589,-0.799453917738132,-0.3495703220811261,-0.2533900576232623,-4.245989214578952,0.46990494280164474,5.305648568676921,0.3167287696954253,-0.021532968419603057,0.05300038059798329,0.16991815561664947,0.12798086073563186,-0.2461281035421354,0.501268744468689,-2.040004253387451,-0.3840652704238891,0.6767270565032959,-0.0716485828161239,-0.3321588933467865
1749047627.1148958,-0.7988127059443458,-0.3496134087681185,-0.25328419670173546,-4.245652046383392,0.4701593614245671,5.305153495939418,0.31663100455003457,-0.021855001773878037,0.052925659915306,0.16983622110362012,0.1276809632232356,-0.24599943634075755,0.3627553582191467,-2.028793811798096,-0.3851109743118286,0.6926868557929993,-0.0920397117733955,-0.2702808082103729
1749047627.1149323,-0.7981730448490023,-0.3496572771088752,-0.2531785554126155,-4.245315394355223,0.47041278630032296,5.3046587647634675,0.3165216308177329,-0.0221634256657312,0.05283944934514121,0.169758330102404,0.12742882609873699,-0.24589401800200417,0.4235473275184631,-2.0085554122924805,-0.3859077095985412,0.6807025074958801,-0.1111229062080383,-0.2497918605804443
1749047627.1149683,-0.7975349070885611,-0.34970196410555543,-0.25307315170809264,-4.244978988781553,0.47066526453293134,5.304164427656182,0.3164059871035165,-0.02244719759548749,0.05274252670713971,0.16969117605840744,0.12723253089273395,-0.24580351264360187,0.5167420506477356,-2.015342950820923,-0.3740532398223877,0.6945567727088928,-0.1025949418544769,-0.2643909156322479
1749047627.1150055,-0.7968981817522357,-0.34974747660500477,-0.25296800235466116,-4.2446425788982625,0.47091688689112654,5.30367055867665,0.3162899657162289,-0.02269632569366278,0.052636913487111955,0.16963936781340547,0.12710082504312598,-0.24571464664318912,0.5547707676887512,-2.013638019561768,-0.374834269285202,0.6945846080780029,-0.0901216119527816,-0.2838755249977112
1749047627.1150422,-0.7962626948474183,-0.3497937870434416,-0.25286311626643604,-4.244305959129056,0.4711678030564791,5.303177256388476,0.3161789338101843,-0.022902503170824814,0.05252596909731254,0.16960466370739247,0.12704231679306283,-0.24561229918280333,0.3960508108139038,-1.9661617279052732,-0.3804899752140045,0.7239677906036377,-0.0854914039373397,-0.2683610320091247
1749047627.1150792,-0.7956282315478753,-0.34984083128019616,-0.2527584888654794,-4.243968986701277,0.4714182299298532,5.302684636130762,0.3160767251847911,-0.023059578362246556,0.05241432460649572,0.1695856292166122,0.12706404049235676,-0.24548307470440525,0.4872201085090637,-1.974078893661499,-0.3742420375347137,0.7045903205871582,-0.0562602281570434,-0.2824628353118896
1749047627.1151164,-0.7949945584934967,-0.3498885090226078,-0.25265409863627825,-4.243631588879088,0.4716684496430526,5.30219281314458,0.31598495055801146,-0.023163811237625526,0.05230762717715078,0.16957792799463478,0.127169759019734,-0.24531878580514485,0.5874711871147156,-1.989529371261597,-0.3919377028942108,0.7159821391105652,-0.0391759574413299,-0.2738626003265381
1749047627.1152277,-0.7943614446312883,-0.3499366872080488,-0.25254990652612536,-4.243293759652755,0.4719187962627986,5.301701880400196,0.31590277007333833,-0.02321388612050672,0.05221209692522037,0.16957526348527058,0.12735845493310619,-0.2451192349659536,0.5264202356338501,-1.9928300380706787,-0.3908414840698242,0.7092734575271606,-0.038535289466381,-0.2300112247467041
1749047627.1167984,-0.7937286792759732,-0.3499852062321368,-0.2524458582402047,-4.242955547219929,0.47216963283496516,5.301211886131612,0.3158271449324743,-0.023210688893629202,0.052133932369807484,0.1695707632221029,0.1276234146737601,-0.24489366252882025,0.375188410282135,-1.9671274423599243,-0.3780519068241119,0.7239699959754944,-0.0476363524794578,-0.1761703789234161
1749047627.162315,-0.7930960865550325,-0.3500338882521221,-0.2523418889924555,-4.242617034811698,0.4724213223338999,5.300722816116086,0.31575345365592566,-0.023156905100288137,0.052078636668298005,0.16955843027662074,0.12795214382398956,-0.2446603372282057,0.3664599955081939,-1.970273733139038,-0.3646266460418701,0.677211344242096,-0.0376951247453689,-0.1932816505432129
1749047627.162361,-0.7924635362794291,-0.3500825463449391,-0.2522379299754142,-4.24227831841579,0.47267419668171323,5.3002345848938806,0.3156762903706351,-0.02305652828788309,0.05205036643886867,0.16953424636898834,0.1283271201572285,-0.2444440982488373,0.5703667998313904,-1.9991042613983157,-0.3641133308410644,0.6940627694129944,-0.0491562187671661,-0.2291459888219833
1749047627.1624012,-0.7918309520650716,-0.35013099330647146,-0.2521339156008763,-4.241939485732207,0.47292852749855185,5.299747038541631,0.31559030573975533,-0.022914368358074935,0.05205141376726682,0.16949661884363504,0.12872717945477627,-0.2442721826175859,0.52978515625,-1.9944854974746704,-0.3531357049942016,0.6788054704666138,-0.1007217466831207,-0.2584832906723022
1749047627.162451,-0.791198317543181,-0.3501790492860509,-0.2520297904050304,-4.241600600895384,0.47318450127223516,5.299259969450563,0.31549103662219147,-0.02273562339285158,0.052081909213520496,0.1694460757695893,0.12912921030439875,-0.24416920107265974,0.3912738561630249,-1.970220804214477,-0.3844467401504516,0.6898972988128662,-0.0532240495085716,-0.2912896573543548
1749047627.162497,-0.7905656806603202,-0.3502265480274645,-0.251925514570688,-4.241261698590248,0.4734422007275568,5.298773141254326,0.31537569131288884,-0.022525545404817455,0.052139786500236596,0.16938434863771754,0.12950983955574943,-0.24415241735363613,0.4057378470897674,-1.957090973854065,-0.3558506965637207,0.716004490852356,-0.0697790831327438,-0.3123007714748382
1749047627.162536,-0.7899331551560209,-0.35027334192047177,-0.251821067403105,-4.240922789044749,0.47370159360879455,5.298286320172264,0.31524381271394714,-0.022289205403612893,0.05222100185183512,0.1693131610237654,0.12984690301571478,-0.24422839826925027,0.5730252861976624,-1.97705352306366,-0.3627176582813263,0.7158207893371582,-0.0574455559253692,-0.3081507682800293
1749047627.1625743,-0.7893009181852623,-0.3503193061050554,-0.2517164486184088,-4.24058387254394,0.4739625298946257,5.297799307935924,0.31509770696691675,-0.022031348634013508,0.05231996717946984,0.16923311215723408,0.13012065484384078,-0.24439167917395102,0.4368980526924133,-1.9527394771575928,-0.3660503625869751,0.7215864658355713,-0.0405268929898738,-0.2638378739356994
1749047627.1626112,-0.7886692037188592,-0.3503643415674671,-0.25161167762325964,-4.240244959573023,0.47422474836445105,5.297311971151383,0.3149425249256902,-0.02175632391558985,0.052430129068445366,0.16914299567686591,0.13031479258609724,-0.2446255316572569,0.3437413871288299,-1.9586820602416992,-0.3801535069942474,0.7211516499519348,-0.0479013957083225,-0.2533254027366638
1749047627.162648,-0.7880382919875427,-0.35040837684664217,-0.2515067909267243,-4.239906091307073,0.4744878930242804,5.296824262310106,0.31478590345087837,-0.02146806994340143,0.05254460258682209,0.16903975556668713,0.13041740698674528,-0.24490446183025355,0.4250169098377228,-1.9646782875061035,-0.3552703261375427,0.7145761251449585,-0.0383766628801822,-0.2416689395904541
1749047627.1627002,-0.787408495243535,-0.350451367916338,-0.2514018376257352,-4.239567355198857,0.4747515389861134,5.296336228707752,0.3146371358352923,-0.021170145068655912,0.05265676968842606,0.16891910362792206,0.13042190106460494,-0.24519784315722362,0.4580233097076416,-1.96460235118866,-0.3472123742103576,0.7140371799468994,-0.0502455234527587,-0.2684146165847778
1749047627.1627526,-0.7867801397679826,-0.3504932960923288,-0.25129687290092906,-4.239228891638873,0.4750152260354428,5.295848007222699,0.31450596245836066,-0.020865791527058673,0.052760783975275394,0.16877665543633433,0.13032780001542665,-0.24547407518652195,0.4637541770935058,-1.9520398378372192,-0.3749470114707947,0.7305591106414795,-0.0665116757154464,-0.2869478464126587
1749047627.1627955,-0.7861535439565335,-0.350534164342917,-0.251191949826048,-4.238890889572645,0.4752784966162209,5.295359804947491,0.3144011917167363,-0.020558025386099348,0.052851958704103245,0.16860932295443962,0.1301412580231906,-0.24570473244267363,0.4204727411270141,-1.9568116664886477,-0.3658426702022552,0.6955127120018005,-0.0933695882558822,-0.2545736730098724
