nimar13/UR3e_dataset_trayectorias/trayectorias_ejecutadas_filtradas/trapezoidal/trayectoria_172_result_filtrado.csv
timestamp,q1,q2,q3,q4,q5,q6,qd1,qd2,qd3,qd4,qd5,qd6,tau1,tau2,tau3,tau4,tau5,tau6
1749051268.1862924,-5.529076742776764,-0.5838417240174852,-0.691378604597706,4.876910359991652,-2.142363941797091,-3.7582808719906984,-0.015026082625860238,-7.18971823269598e-06,-0.0017512757220644827,0.01068516426648362,-0.010270964841150877,-0.009105735061102597,-0.1904079020023346,-1.2331326007843018,-0.6480556726455688,-0.3683977127075195,-0.3183217346668243,-0.1210844367742538
1749051268.186339,-5.5290858947857675,-0.5838361042649369,-0.6913798844858015,4.876922778881353,-2.142368321334059,-3.7582855000809645,-0.012528115149081708,-0.00022356817737460036,-0.0014142515421262836,0.009021014694427381,-0.008480302748635479,-0.007683402316804073,-0.2045831978321075,-1.249818205833435,-0.6278114318847656,-0.3729723691940307,-0.3057696223258972,-0.1046688109636306
1749051268.186383,-5.52909448021338,-0.5838307403511844,-0.6913809685365924,4.8769347246158645,-2.142372429688953,-3.7582899798789944,-0.010066842048626427,-0.0004345782190494214,-0.0010783866640262322,0.007393945786852678,-0.006736211981193883,-0.006305064359580488,-0.1522116959095001,-1.2305335998535156,-0.603274405002594,-0.3843065202236175,-0.2984265983104706,-0.0956972986459732
1749051268.1864228,-5.529101921286522,-0.5838258866293128,-0.6913816406783434,4.876945736459351,-2.1423759562098748,-3.7582941073903604,-0.007680257652239342,-0.0006353140878754737,-0.0007448427422408922,0.005840138402772258,-0.005084855069012246,-0.005009045536637418,-0.1259485036134719,-1.244313359260559,-0.5998317003250122,-0.4059850573539734,-0.2968288958072662,-0.0969585925340652
1749051268.1864614,-5.529107719190282,-0.5838217391407852,-0.6913817163860188,4.876955432299372,-2.1423786371315297,-3.758297699637528,-0.0054043621518969414,-0.0008213375049533126,-0.00041490542123587477,0.0043915387040733035,-0.0035657333388784164,-0.0038270472511253953,-0.1048706173896789,-1.2520768642425537,-0.5818835496902466,-0.4202688336372375,-0.2863389551639557,-0.0763336569070816
1749051268.1864994,-5.5291114831856465,-0.5838184193652398,-0.6913810583584864,4.876963533420064,-2.1423802763355355,-3.7583006057507715,-0.0032720520045839987,-0.0009888750436182839,-9.024993306251986e-05,0.003074153668695218,-0.002209314723057338,-0.002782104829771611,-0.1132004708051681,-1.269014835357666,-0.5723703503608704,-0.4310827851295471,-0.2689844071865082,-0.0762314349412918
1749051268.1865373,-5.529112951303249,-0.583815968701149,-0.6913795883646635,4.87696987565371,-2.1423807579037435,-3.758302714472178,-0.001311929316363242,-0.0011349420669750083,0.00022681635746939753,0.001906889827598461,-0.001035756519279425,-0.0018875185485985053,-0.1129504889249801,-1.2827545404434204,-0.5458616614341736,-0.4397828578948974,-0.2481101304292678,-0.0599333792924881
1749051268.1865754,-5.529112000971536,-0.5838143531357153,-0.6913772937410775,4.876974407452704,-2.1423800498999213,-3.7583039575349533,0.0004528398924584882,-0.0012573903772670448,0.000533177938111185,0.0009010241609205073,-5.4742783375674115e-05,-0.0011468107852695296,-0.1025163978338241,-1.3040934801101685,-0.5524662137031555,-0.4442721903324127,-0.2276954054832458,-0.0532735735177993
1749051268.186613,-5.529108649078586,-0.5838134762599269,-0.6913742273582223,4.876977177390525,-2.1423782000200275,-3.7583043091704096,0.002005443042943601,-0.0013549036015085571,0.0008248521080011706,6.030575089785852e-05,0.0007337168992879256,-0.000554615967700659,-0.1043505817651748,-1.3113288879394531,-0.5320552587509155,-0.475647896528244,-0.2363068759441375,-0.0472666472196579
1749051268.1866505,-5.529103042003077,-0.5838131984277055,-0.69137050071765,4.876978314604133,-2.1423753247219315,-3.7583037829086563,0.003335951050427618,-0.001426979337121068,0.0010970891375698306,-0.0006184017690300145,0.0013377935244660401,-9.829879664648947e-05,-0.0750863701105117,-1.3336611986160278,-0.525408148765564,-0.4676532447338104,-0.2132248878479004,-0.0451863706111907
1749051268.186691,-5.529095436761854,-0.5838133598239655,-0.6913662710056582,4.8769780058548715,-2.142371593942539,-3.758302427227825,0.004441363699800715,-0.0014739303886840032,0.0013446443910740114,-0.001144087590534838,0.0017719599940214446,0.00023996814130352754,-0.0570333003997802,-1.3480312824249268,-0.5553793907165527,-0.4832998216152191,-0.2134378552436828,-0.0303966701030731
1749051268.1867323,-5.529086174866322,-0.5838138048042769,-0.6913617239816854,4.876976472447003,-2.1423672133919442,-3.7583003211405344,0.00532517299385678,-0.0014969112173685148,0.0015621885025041717,-0.0015303418769371962,0.0020550218437341136,0.00048095417513667563,-0.0440173000097274,-1.3239997625350952,-0.5517090559005737,-0.4921732246875763,-0.2132109552621841,-0.0202072113752365
1749051268.186771,-5.529075651064995,-0.5838144041889919,-0.6913570552160629,4.876973949423854,-2.142362406005941,-3.758297569911332,0.005996544729363575,-0.001497940831449175,0.0017447776196312626,-0.001794039621486145,0.0022082906201831972,0.0006462137721665945,-0.056301474571228,-1.3236349821090698,-0.5503573417663574,-0.5103904604911804,-0.2042160034179687,-0.021871417760849
1749051268.186808,-5.529064279754319,-0.583815071958544,-0.6913524523287916,4.8769706684208485,-2.1423573939514537,-3.758294300485402,0.006469271326490509,-0.0014798679075425142,0.0018882925845004586,-0.0019540758026020677,0.002254044946874312,0.0007562406885065751,-0.0404967069625854,-1.3471111059188845,-0.5379040241241455,-0.4934329986572265,-0.2100725471973419,0.0024681240320205
1749051268.1868448,-5.5290524621978445,-0.5838157735459191,-0.6913480804683523,4.876966844507643,-2.1423523827082147,-3.758290656180947,0.006760643306187876,-0.0014462269857795599,0.0019897848481717894,-0.002030219742048615,0.0022143308055375057,0.0008290856548809525,-0.0349805653095245,-1.3598039150238037,-0.5417828559875488,-0.5098375678062439,-0.203633427619934,0.0047400146722793
1749051268.186885,-5.529040557742352,-0.5838165245977635,-0.691344072361592,4.876962666678988,-2.142347548767338,-3.7582867905256423,0.006890347338607499,-0.0014009696493053395,0.002047716185935703,-0.002042115375132571,0.002110079260461666,0.0008795173172802645,-0.0446415245532989,-1.3446474075317385,-0.5237278342247009,-0.521830141544342,-0.2030104994773864,0.0110319405794143
1749051268.186926,-5.529028861892467,-0.5838173811268065,-0.6913405232325882,4.876958291592028,-2.142343032015643,-3.7582828604269296,0.006879458510440961,-0.0013481023534842964,0.002062113446466925,-0.002008430173919364,0.001960484974968242,0.0009187295391319009,-0.0515507459640502,-1.3459076881408691,-0.5230833292007446,-0.5268490314483643,-0.1970296204090118,-0.0002118498086929
1749051268.1869645,-5.529017593219962,-0.5838184236666571,-0.691337490175137,4.876953840446575,-2.1423389330925424,-3.758279019020271,0.006749567154198315,-0.0012912972074432506,0.0020346602631838803,-0.0019461492050839144,0.0017825912089436075,0.0009545213984345428,-0.0437836945056915,-1.369238018989563,-0.5396453142166138,-0.51410311460495,-0.1981637477874755,0.0017665773630142
1749051268.1870012,-5.529006889752801,-0.5838197388388994,-0.6913349952338668,4.876949399112971,-2.1423353153285127,-3.7582754086150163,0.0065220617323678304,-0.001233551809782693,0.001968722618558112,-0.0018700128500731804,0.001591047187589252,0.0009918088849640372,-0.0395484566688537,-1.36016047000885,-0.5326526165008545,-0.5360173583030701,-0.1783253699541092,-0.0007727295160293
1749051268.1870382,-5.528996814201281,-0.5838214016076674,-0.6913330312163842,4.876945021529487,-2.1423322103453195,-3.75827215418242,0.006217571357166076,-0.0011769629294190946,0.0018692769880866377,-0.0017920972092342108,0.0013980193394273021,0.0010332870720189998,-0.0395484566688537,-1.36016047000885,-0.5326526165008545,-0.5360173583030701,-0.1783253699541092,-0.0007727295160293
1749051268.1874564,-5.528987366406645,-0.5838234607372537,-0.6913315689457504,4.876940736046283,-2.1423296258550435,-3.7582693577252257,0.0058555527963171415,-0.0011226541056260182,0.0017427006221017848,-0.0017215330828204791,0.0012132381932750118,0.0010800641696965389,-0.0393774807453155,-1.382327914237976,-0.5379325151443481,-0.5307121276855469,-0.171908289194107,0.0019859820604324
1749051268.1894562,-5.528978500610599,-0.5838259289380645,-0.6913305644652721,4.876936553888754,-2.142327553799422,-3.758267093608991,0.005453990454668759,-0.001070864327798123,0.0015964031473861527,-0.0016643572731630902,0.0010441518120982416,0.0011321342469865754,-0.0543829128146171,-1.3485581874847412,-0.52027428150177,-0.5357282757759094,-0.1891312003135681,0.0004278868436813
1749051268.2343,-5.52897014454228,-0.5838287781896216,-0.6913299649544894,4.87693247847621,-2.1423259770656284,-3.758265404689926,0.00502916881715737,-0.001021169008618063,0.0014383198451789053,-0.0016234932700281588,0.0008961457512005632,0.0011886261029686418,-0.0409927144646644,-1.3393666744232178,-0.5276188850402832,-0.5360203385353088,-0.1844384521245956,0.0146214812994003
1749051268.234347,-5.52896221723567,-0.5838319400152922,-0.6913297128025181,4.876928514228812,-2.1423248736134575,-3.7582642991380095,0.004595479979798973,-0.0009727746939923862,0.0012763296395699715,-0.0015988665360489667,0.0007727869149545582,0.0012478388448798835,-0.0347909405827522,-1.3555703163146973,-0.5178203582763672,-0.5449957251548767,-0.1771492063999176,-0.0009692311286926
1749051268.2343876,-5.528954643214353,-0.5838353100814336,-0.6913297479889421,4.876924673765177,-2.142324217668022,-3.758263748346885,0.004165246022799248,-0.0009248165701404149,0.0011176839029511233,-0.0015876664936701867,0.0006760549616568808,0.0013071325331002485,-0.0355109348893165,-1.346697449684143,-0.5196465253829956,-0.5383707284927368,-0.1889510750770568,0.0173414498567581
1749051268.2344265,-5.528947362145421,-0.5838387562119126,-0.6913300092752219,4.8769209828085955,-2.1423239784175183,-3.7582636869434474,0.0037485621123332213,-0.0008765976595521433,0.0009685268891755351,-0.0015847652023074572,0.0006065356573439666,0.0013627756762633677,-0.0319434180855751,-1.3510297536849976,-0.5254448056221008,-0.5516905188560486,-0.1890195906162262,0.0258481055498123
1749051268.2344642,-5.528940334705698,-0.5838421286645783,-0.691330434780403,4.876917482431079,-2.14232411718147,-3.7582640161048597,0.003353189389470153,-0.0008277341050497309,0.0008335626317874881,-0.0015832880887133446,0.0005635617996747745,0.0014098594148758536,-0.020115740597248,-1.354401469230652,-0.5197646617889404,-0.5339775681495667,-0.1884919703006744,0.008856326341629
1749051268.2345023,-5.528933546290798,-0.5838452714414802,-0.6913309625201624,4.876914228427608,-2.142324584091014,-3.758264610829127,0.0029845349968041796,-0.0007781995301264221,0.0007158913432816901,-0.0015753090871482671,0.0005452980030120231,0.0014423756850919793,-0.0168237835168838,-1.3415800333023071,-0.510441780090332,-0.5352292060852051,-0.1701158881187439,0.0102199167013168
1749051268.23454,-5.528927009777414,-0.5838480335897738,-0.6913315313781584,4.876911287821307,-2.1423253150962713,-3.7582653307403344,0.0026457462354791722,-0.0007282834043654753,0.0006170111181358374,-0.001552621106621014,0.0005487764126208926,0.0014535300141596693,-0.0353611856698989,-1.3402982950210571,-0.5092115998268127,-0.5280358791351318,-0.1837960034608841,0.0190647840499877
1749051268.2345772,-5.528920767334932,-0.5838502798050127,-0.6913320826258741,4.876908732922011,-2.142326230010555,-3.7582660330860924,0.0023379222469321905,-0.0006784902160219004,0.0005369612140724536,-0.001507522958302185,0.0005699015415921803,0.001436324012418474,-0.0508061200380325,-1.3315595388412476,-0.5123785734176636,-0.5303309559822083,-0.201745331287384,0.0036192685365676
1749051268.2346156,-5.528914890416705,-0.5838518999434813,-0.6913325616769704,4.876906633839295,-2.1423272324628435,-3.758266586219643,0.002060419927951071,-0.0006294093201764931,0.00047457104098527693,-0.0014335700422892328,0.0006034531353463554,0.0013844013856140174,-0.0503320544958114,-1.3214513063430786,-0.5132567882537842,-0.5324115753173828,-0.2055054605007171,0.0074258744716644
1749051268.234654,-5.528909477129124,-0.5838528170627085,-0.6913329195718453,4.876905050553087,-2.1423282127279824,-3.7582668819342167,0.0018112117080175654,-0.0005815829320155572,0.0004277735559610727,-0.001326253982012229,0.0006431248210665961,0.0012931071570762569,-0.0444180816411972,-1.3419275283813477,-0.5198812484741211,-0.51588374376297,-0.1929289996623993,0.0048017650842666
1749051268.234692,-5.5289046467547065,-0.5838529934028434,-0.6913331138208169,4.876904025479305,-2.142329054072864,-3.7582668451933277,0.0015872489307366677,-0.0005353949859290221,0.00039394227042793747,-0.0011835960003305703,0.0006816414533925319,0.0011606667375038302,-0.0417077392339706,-1.3232568502426147,-0.5045837163925171,-0.5150668621063232,-0.1830962002277374,0.0193473994731903
1749051268.2347293,-5.528900531626332,-0.5838524336427001,-0.6913331085249054,4.876903577144775,-2.1423296425057994,-3.758266439917015,0.0013847962783077683,-0.0004909980013629617,0.000370216063502175,-0.0010066507899120511,0.0007109977029834539,0.000989355437158449,-0.0714727193117141,-1.3327361345291138,-0.5284967422485352,-0.5273511409759521,-0.19885915517807,0.0132878720760345
1749051268.2347665,-5.528897266683978,-0.5838511850151755,-0.6913328740186115,4.87690369533812,-2.14232987891507,-3.758265669651811,0.0011997222919832916,-0.00044828896658496444,0.00035378360026190657,-0.0007999177117470447,0.0007228533410721397,0.0007865065956259531,-0.0766307115554809,-1.303207278251648,-0.508217453956604,-0.5183839797973633,-0.195519208908081,-0.0105211436748504
1749051268.2348073,-5.528894977153944,-0.58384933428356,-0.6913323866216335,4.876904337999517,-2.142329691781588,-3.7582645724173123,0.0010277483133897883,-0.00040693872473653947,0.00034210782844888477,-0.0005716452124431106,0.0007091065588864137,0.0005652025199395232,-0.0648724734783172,-1.3163520097732544,-0.509915292263031,-0.525452196598053,-0.1953532695770263,0.0113580226898193
1749051268.2348452,-5.528893765049412,-0.5838470018876989,-0.6913316293184237,4.87690543003425,-2.1423290482262383,-3.758263209878196,0.000864667434471098,-0.0003664728751027758,0.0003330797884853451,-0.00033399656707465734,0.0006626461058945026,0.00034450803669457857,-0.0843138396739959,-1.2864528894424438,-0.5209934115409851,-0.51275634765625,-0.2104986310005188,0.0179565101861953
1749051268.234882,-5.528893695586096,-0.5838443336813284,-0.6913305940495443,4.8769068640008335,-2.1423279613931836,-3.758261652009678,0.0007065469696807696,-0.00032639632602346285,0.0003250992183482034,-0.00010302674642580655,0.0005782573862603412,0.00014913917750371857,-0.0683448165655136,-1.2986809015274048,-0.5100938081741333,-0.5258604288101196,-0.2017483562231063,0.0077807754278182
1749051268.2349186,-5.528894784998292,-0.5838414907351164,-0.6913292856744707,4.876908502237132,-2.142326492952153,-3.758259959252023,0.0005499259780333557,-0.0002863487984637152,0.000317086788885073,0.00010159162073845772,0.0004536290030616652,8.505008965727634e-06,-0.0756932348012924,-1.2937284708023071,-0.5146052837371826,-0.5236064791679382,-0.1963633745908737,0.0035785436630249
1749051268.234955,-5.528896991445458,-0.5838386378403745,-0.691327726731097,4.876910179685197,-2.1423247502411895,-3.758258164555526,0.0003920158177219692,-0.0002462751081102824,0.0003084390342765845,0.0002571547971186136,0.00029037736091031094,-4.488472119140431e-05,-0.0699621886014938,-1.2974458932876587,-0.5225268602371216,-0.5313398838043213,-0.2065309137105941,0.0190173089504241
1749051268.2349918,-5.528900210606368,-0.5838359316144965,-0.6913259612812546,4.876911706642358,-2.1423228779056536,-3.75825625763067,0.00023090631384648427,-0.00020659210693122764,0.00029894187428244873,0.00033887262495254793,9.498119197704067e-05,2.2408684138419777e-05,-0.1051118522882461,-1.3028515577316284,-0.5148385763168335,-0.5154021978378296,-0.1935404241085052,0.0192142724990844
1749051268.2350287,-5.528904277104876,-0.5838335093294393,-0.6913240558282834,4.876912870871158,-2.1423210440195164,-3.7582541732233157,6.577111688472671e-05,-0.00016833362686317015,0.0002886614754101465,0.00032118481312274407,-0.00012050098611373712,0.00024212507273258055,-0.0880609899759292,-1.3002642393112185,-0.5203462839126587,-0.5329118371009827,-0.2072178721427917,0.0191259086132049
1749051268.2350657,-5.5289089721081455,-0.5838314796511305,-0.6913220957732112,4.876913438909924,-2.1423194209213685,-3.7582517846004415,-0.00010294631395415426,-0.00013325535166903247,0.00027783127739303376,0.00017941584685286907,-0.0003380655785089895,0.0006414163388486984,-0.1128269433975219,-1.3068994283676147,-0.525810718536377,-0.5376339554786682,-0.1918282210826873,0.0134439170360565
1749051268.2351022,-5.5289140365609,-0.5838299163940357,-0.6913201770830667,4.876913157095699,-2.1423181614986846,-3.758248902975314,-0.00027339530506667934,-0.0001038831882641625,0.0002667510550840371,-0.00010832072759226037,-0.0005338796587116235,0.0012399572238939124,-0.1006504297256469,-1.29352867603302,-0.5222296118736267,-0.5610557794570923,-0.2249653935432434,0.042374163866043
1749051268.2354405,-5.5289191889236395,-0.5838288561604849,-0.6913183943707017,4.87691175359266,-2.14231737245991,-3.758245283349199,-0.00044226151583161635,-8.349180381869163e-05,0.00025570874149531496,-0.0005591169944939113,-0.0006789832239965851,0.002047366330647762,-0.1114580482244491,-1.3089362382888794,-0.5298516154289246,-0.5618893504142761,-0.2068410813808441,0.0380673855543136
1749051268.2373922,-5.528924145907328,-0.5838283003281629,-0.6913168278239595,4.876908943114781,-2.142317087144973,-3.758240636833213,-0.0006048160948717716,-7.600504417156331e-05,0.00024492995892340754,-0.0011833650828817245,-0.0007406412947394168,0.003061265010804419,-0.1297048479318618,-1.3318434953689575,-0.5169565677642822,-0.5787845849990845,-0.2031784802675247,0.0669653117656707
1749051268.2782762,-5.528928644211177,-0.5838282213158513,-0.6913155319349403,4.876904435628115,-2.142317241283419,-3.7582346486479232,-0.0007550761690877673,-8.581708268376832e-05,0.00023455511162791425,-0.001983185890792933,-0.0006843485695037848,0.004266275006742898,-0.107726439833641,-1.3409656286239624,-0.5397108793258667,-0.588904619216919,-0.1911351084709167,0.0553199499845504
1749051268.278324,-5.528932460718951,-0.5838285724565506,-0.6913145286558755,4.876897949288405,-2.142317655450792,-3.7582269999304247,-0.0008860556981420262,-0.00011754196882502313,0.00022464012774286014,-0.0029514284355890335,-0.0004764128621095399,0.0056341800963117675,-0.0702344477176666,-1.3497778177261353,-0.5192229747772217,-0.5995756387710571,-0.1804341226816177,0.0640273243188858
1749051268.2783644,-5.528935428429745,-0.583829300191999,-0.6913138065118914,4.876889226786861,-2.1423180277373852,-3.758217390766244,-0.0009900619369206923,-0.00017570895234283969,0.0002151746479857907,-0.004071433090456135,-8.695670428069693e-05,0.007125360369377477,-0.0994044691324234,-1.3598304986953735,-0.5249239206314087,-0.5899803638458252,-0.1781694293022155,0.0539388358592987
1749051268.2784057,-5.5289374458777525,-0.5838303568453961,-0.6913133256041943,4.876878053444478,-2.142317939460238,-3.758205561787305,-0.0010589874485584713,-0.00026443047910324337,0.00020611052951082306,-0.0053176620920535505,0.0005069118481186909,0.008691468974336756,-0.0868669301271438,-1.3847774267196655,-0.5387102365493774,-0.5969395637512207,-0.1570806056261062,0.1018409803509712
1749051268.2784462,-5.528938478841169,-0.5838317121362264,-0.6913130269321064,4.876864274701607,-2.142316875567121,-3.758191312060622,-0.0010845675360579242,-0.00038707771648839985,0.00019739364494777327,-0.006657186970909864,0.0013180856677636199,0.010279179855559102,-0.0765307992696762,-1.406941533088684,-0.5411746501922607,-0.6138286590576172,-0.137534812092781,0.0624105408787727
1749051268.2784846,-5.528938554416156,-0.583833361842647,-0.6913128436431553,4.876847810119543,-2.14231425942934,-3.758174511509048,-0.0010586061158303155,-0.0005460030270681838,0.00018899269269129703,-0.00805192720139466,0.0023469800552138225,0.011834703113440141,-0.0622640997171402,-1.3965840339660645,-0.5335506200790405,-0.6381407380104065,-0.112185314297676,0.0936070084571838
1749051268.278522,-5.528937748652881,-0.5838353323632488,-0.6913127118211251,4.8768286610468135,-2.1423094990465446,-3.7581551066266172,-0.0009731986043423836,-0.0007423475825828336,0.00018091977829495142,-0.009461480529752216,0.0035799751617829395,0.013308650749963973,-0.0764212608337402,-1.4241362810134888,-0.5315452814102173,-0.657479465007782,-0.0941638797521591,0.0768519788980484
1749051268.2785635,-5.5289361697294295,-0.5838376803001237,-0.6913125789417625,4.8768069099747136,-2.142302039117515,-3.7581331188426774,-0.0008209861435833489,-0.0009759624825913285,0.00017323874220766014,-0.01084635161393212,0.004989114051313182,0.014660754531493963,-0.0544450283050537,-1.426445484161377,-0.5502605438232422,-0.6604122519493103,-0.0743473619222641,0.0852350294589996
1749051268.2786033,-5.528933939097307,-0.5838404867943227,-0.6913124088366152,4.876782711023031,-2.1422914120965517,-3.758108635563182,-0.0005954627293840309,-0.0012454509053326482,0.00016605857198248147,-0.012171337579615183,0.006533272381302147,0.015863908792294795,-0.0602842420339584,-1.4104315042495728,-0.5415204763412476,-0.6646968722343445,-0.0703591555356979,0.0901689454913139
1749051268.278641,-5.528931173120014,-0.5838438473469009,-0.6913121827853688,4.876756272346444,-2.1422772816669813,-3.758081794569727,-0.00029133356892913954,-0.0015483089917902836,0.00015951075462933046,-0.013408768097336116,0.008160838496256857,0.016907048475824037,-0.038290336728096,-1.4087659120559692,-0.5452449917793274,-0.6811768412590027,-0.057990089058876,0.0756791904568672
1749051268.2786784,-5.528927967293973,-0.583847858912253,-0.6913118971780432,4.8767278321371395,-2.142259473476026,-3.7580527630439398,9.510200566118085e-05,-0.001881117029422514,0.00015371110258860943,-0.01454125904113344,0.009813737268696278,0.01779648278899715,-0.0259021967649459,-1.4276942014694214,-0.5463632345199585,-0.6692945957183838,-0.0425964444875717,0.0912255272269249
1749051268.2787197,-5.528924384237762,-0.5838526065662312,-0.6913115589488259,4.876697630395865,-2.1422379897642316,-3.7580217130706712,0.0005655887414396338,-0.0022397299626873354,0.00014870842100632827,-0.015563653546934435,0.01143243756184889,0.01855548356671329,-0.0119954422116279,-1.4544256925582886,-0.55622398853302,-0.659947395324707,-0.0232261568307876,0.1041209697723388
1749051268.278758,-5.528920445656765,-0.5838581518889908,-0.6913111804608502,4.87666587905064,-2.142213006393914,-3.7579887960387155,0.0011196266593511291,-0.0026194448340691105,0.00014442435843532158,-0.016483896122822903,0.012961434349200674,0.01922215162244443,0.0089726448059082,-1.46225106716156,-0.5484840869903564,-0.6669420003890991,-0.019881397485733,0.1155087649822235
1749051268.2787957,-5.528916127965956,-0.5838645247169909,-0.691310775445686,4.876632733365579,-2.1421848526591263,-3.7579541186922425,0.0017542958962838777,-0.0030151630598752276,0.0001405908432616719,-0.017322698616998155,0.014354609180316974,0.01984581192721384,0.0115683227777481,-1.4680917263031006,-0.5668866634368896,-0.6700711846351624,-0.0157233029603958,0.1063049212098121
1749051268.278833,-5.528911361367321,-0.5838717193169579,-0.6913103569111688,4.876598267623911,-2.142153975934888,-3.757917723450503,0.0024642090799972,-0.0034215853700640285,0.00013669343260773508,-0.018111990699501434,0.015579853046976065,0.020482375964244893,-0.0078043565154075,-1.4723418951034546,-0.571120023727417,-0.6851720213890076,-0.036840945482254,0.1361869573593139
1749051268.2788725,-5.528906032501741,-0.5838796951899459,-0.691309936976094,4.876562457586774,-2.14212089451188,-3.7578795749538476,0.0032415762155333675,-0.0038334615467959677,0.00013193011122915728,-0.018892281926887192,0.016622389064834764,0.02118922579395629,0.0150928497314453,-1.4624613523483276,-0.5759737491607666,-0.699273943901062,-0.0353499203920364,0.1395746767520904
1749051268.2789102,-5.528899990764628,-0.5838883817073577,-0.6913095278904096,4.87652517137401,-2.1420861429613964,-3.7578395537780565,0.004076356371493747,-0.004245880203291473,0.0001251947563906005,-0.019709178884750565,0.01748636651905066,0.022020201658360657,0.0338655784726142,-1.484523892402649,-0.587523341178894,-0.6869807243347168,-0.0241015702486038,0.1517697274684906
1749051268.278947,-5.528893057939292,-0.5838976851345391,-0.6913091433127749,4.87648616951822,-2.142050215239726,-3.7577974571835684,0.004956486116444568,-0.004654555468520013,0.00011509217194372106,-0.020609387769854118,0.018194510364333782,0.023021212998550956,0.0604769028723239,-1.4761879444122314,-0.5847102403640747,-0.7028521299362183,-0.0205395072698593,0.1467511653900146
1749051268.2789843,-5.528885040302205,-0.5839074967195403,-0.6913087991446643,4.876445114192531,-2.142013511334776,-3.7577530059558772,0.005868199191908336,-0.00505606570282294,9.998764831676836e-05,-0.021636586356320514,0.01878586924143381,0.0242268623501003,0.0581117421388626,-1.5108293294906616,-0.59814453125,-0.728804349899292,-0.0100956261157989,0.1600277721881866
1749051268.279024,-5.528875742035676,-0.5839177011947545,-0.6913085136215126,4.876401587002418,-2.141976293247674,-3.757705856064782,0.0067964570455540775,-0.0054480155079728075,7.808928164256976e-05,-0.022827563464571224,0.01931195266904486,0.025658307023770158,0.0758888721466064,-1.506933331489563,-0.6048790216445923,-0.7135071754455566,-0.0311309695243835,0.1748620122671127
1749051268.279464,-5.5288649787186674,-0.5839281856514595,-0.6913083067450064,4.876355114245224,-2.141938655308993,-3.757655613980804,0.007725485742645613,-0.005829103404706051,4.7556472087057065e-05,-0.024208989090533643,0.019831732518263263,0.027322418239722958,0.0619296357035636,-1.4863263368606567,-0.6146659851074219,-0.7384487986564636,-0.005414992570877,0.1631298959255218
1749051268.2813845,-5.5288525898613,-0.5839388488786996,-0.6913081993940265,4.876305198101011,-2.1419005123283554,-3.757601854766197,0.008639380290886949,-0.00619907548582099,6.623405309177383e-06,-0.0257950977600782,0.020406084319303602,0.02921215516134194,0.0761066451668739,-1.4714024066925049,-0.620232105255127,-0.752211332321167,-0.0073188990354537,0.1894417256116867
1749051268.3222785,-5.528838449783678,-0.5839496108752864,-0.6913082124993238,4.8762513515778485,-2.141861607019803,-3.757544142287869,0.009522721462260622,-0.006558546702061163,-4.627792472177723e-05,-0.027586463506596503,0.02109226714183069,0.031307966174693364,0.0893988013267517,-1.5263999700546265,-0.6341266632080078,-0.7563700079917908,0.0121771991252899,0.1935407519340515
1749051268.3223245,-5.528822476376354,-0.5839604216205307,-0.6913083665215014,4.876193134067597,-2.141821535693183,-3.757482051043915,0.010361163886763048,-0.00690869381614546,-0.0001124140157452171,-0.029569938180375583,0.021939003539343523,0.033579968810224674,0.1187596321105957,-1.5352345705032349,-0.6247484683990479,-0.7612470984458923,0.0248502641916275,0.178311601281166
1749051268.3223653,-5.528804637275213,-0.5839712677580923,-0.6913086813106988,4.876130183479133,-2.1417797887130265,-3.75741518904628,0.011141981572568843,-0.007250860572048491,-0.00019268599960865873,-0.03171972207160819,0.022982635216665746,0.03599063977137747,0.1082426756620407,-1.5213030576705933,-0.6463284492492676,-0.7649081349372864,0.0543640702962875,0.1993951946496963
1749051268.3224075,-5.528784952868391,-0.5839821759221232,-0.6913091763998758,4.87606224086369,-2.141735800269535,-3.7573432207133144,0.011854573680379019,-0.007586142876694091,-0.00028762462654643447,-0.03399943949297434,0.02424469856583136,0.038497753042886856,0.1231501102447509,-1.5545623302459717,-0.6399431228637695,-0.7534923553466797,0.0598019510507583,0.2021234333515167
1749051268.322447,-5.528763495619315,-0.5839932119839588,-0.69130987178082,4.875989164607718,-2.1416890009452145,-3.757265887852678,0.012490930420971545,-0.007915027031711323,-0.0003974567270866021,-0.036365012403313475,0.02573109019614689,0.04105732258458747,0.1320329010486602,-1.5623795986175537,-0.6577593088150024,-0.7638217806816101,0.0593733340501785,0.2256428897380828
1749051268.3224869,-5.52874038559467,-0.5840044762372743,-0.6913107890659483,4.875910933221674,-2.141638866410167,-3.7571830261401855,0.013046043214909993,-0.008237142465573485,-0.0005222429873822218,-0.03876807502807962,0.027432791639023037,0.043626336182848426,0.1295082718133926,-1.5688613653182983,-0.6608268022537231,-0.7657508850097656,0.0793292969465255,0.2138879299163818
1749051268.3225253,-5.5287157826732445,-0.584016095198634,-0.6913119527222471,4.875827637655491,-2.1415849564093024,-3.7570945746378093,0.013518221649802783,-0.008551170241853888,-0.0006620671708795157,-0.041159654469651245,0.029327925543737372,0.04616511868654402,0.1202074438333511,-1.5691295862197876,-0.6587415933609009,-0.7941074967384338,0.0688211619853973,0.2122929096221923
1749051268.3225658,-5.52868987631942,-0.584028211128163,-0.6913133909647008,4.8757394652799215,-2.1415269401293053,-3.757000576846119,0.01390925767408607,-0.008854923059046872,-0.0008172338947671045,-0.043493846624168366,0.031384761583958726,0.04863923760197836,0.1375600397586822,-1.5773167610168457,-0.6665997505187988,-0.7791160941123962,0.0822278559207916,0.2357813268899917
1749051268.322605,-5.528662873809082,-0.5840409705016298,-0.6913151359978146,4.875646678044769,-2.141464606638493,-3.7569011729759763,0.014224367983852378,-0.009145585636992954,-0.0009884160576611983,-0.04573122862306089,0.03356521120172722,0.05102094154308924,0.13471420109272,-1.6165733337402344,-0.6764354705810547,-0.7680177688598633,0.0923039317131042,0.2385461330413818
1749051268.322642,-5.5286349875853205,-0.5840545125506417,-0.6913172235507746,4.875549587154444,-2.1413978615155944,-3.756796584088024,0.014471863229659383,-0.009420082581013853,-0.0011766967630641473,-0.04784176157953665,0.03582835928669348,0.053290170012196256,0.1276679188013076,-1.6172478199005127,-0.6788921356201172,-0.762735903263092,0.0895018428564071,0.2284191250801086
1749051268.322679,-5.528606422410737,-0.5840689588292458,-0.6913196919010722,4.875448526297446,-2.1413267124528104,-3.7566870895506996,0.014662538405023863,-0.00967552518573815,-0.0013834775841948593,-0.049806959432605324,0.038133666732784226,0.055435173106777015,0.1439075171947479,-1.6256780624389648,-0.6888248920440674,-0.7959550023078918,0.1108835339546203,0.2267325073480606
1749051268.3227196,-5.528577363292949,-0.5840844046447097,-0.6913225806291065,4.875343825232002,-2.1412512474516845,-3.7565730000895665,0.014808838438710255,-0.009909675543068002,-0.0016102636926708831,-0.05162114637300188,0.040443608597008136,0.05745274478363559,0.1619766056537628,-1.6219851970672607,-0.6823776960372925,-0.7799607515335083,0.097461462020874,0.2353161871433258
1749051268.3227568,-5.528547965448729,-0.5841009129750798,-0.6913259292084218,4.875235785327701,-2.1411716092722437,-3.7564546293630996,0.014923905550510859,-0.010121356066268093,-0.0018583684264108626,-0.05329169858114921,0.04272564688182236,0.059348037412249637,0.1667668521404266,-1.6338623762130735,-0.7099624872207642,-0.7720353603363037,0.1047489419579505,0.2358105182647705
1749051268.3227942,-5.528518347448908,-0.5841185111685349,-0.691329775463965,4.8751246584055705,-2.141087969191136,-3.756332267156561,0.015020640577199857,-0.010310730786042126,-0.0021285924890991352,-0.054838250082718566,0.044953538507782345,0.061133916418445754,0.1677606552839279,-1.6335012912750244,-0.7090095281600952,-0.7729189395904541,0.1234543547034263,0.21821129322052
1749051268.3228314,-5.528488588118095,-0.5841371905053627,-0.6913341540658045,4.875010629876959,-2.141000502313522,-3.7562061568609324,0.015110900824168877,-0.010479396895454289,-0.002420923767378431,-0.05629092350708076,0.047108029372955364,0.0628298372620193,0.1700487583875656,-1.620732069015503,-0.7031869888305664,-0.7807536721229553,0.123557224869728,0.2104240357875824
1749051268.322872,-5.528458727073366,-0.5841569086674966,-0.6913390953867048,4.874893806745685,-2.1409093661241116,-3.75607647915076,0.015204920519758238,-0.010630255075265606,-0.0027342807316045594,-0.0576877289600795,0.049176991988284305,0.06446027362864201,0.1487259119749069,-1.651255488395691,-0.6978933811187744,-0.7926427721977234,0.120034784078598,0.2271841317415237
1749051268.32291,-5.528428768351734,-0.5841775949986873,-0.6913446249812932,4.8747742105697105,-2.1408146836451585,-3.755943342993082,0.015310994225343369,-0.010767175372510027,-0.003066301969245868,-0.05907136582973336,0.05115505771681291,0.06605278173010601,0.1676751673221588,-1.6676814556121826,-0.6888395547866821,-0.8188986778259277,0.1246178448200225,0.2364041805267334
1749051268.3229473,-5.528398686422251,-0.5841991578997198,-0.6913507636361044,4.874651775197059,-2.1407165321336503,-3.7558067843999456,0.015435421987075348,-0.010894528629420882,-0.0034131831158398756,-0.060485740958704355,0.05304280962159476,0.06763582983692479,0.1724575459957122,-1.6666321754455566,-0.7029203772544861,-0.8345011472702026,0.1400264203548431,0.2258123159408569
1749051268.3229842,-5.528368433654941,-0.5842214930158804,-0.6913575276350484,4.874526349184039,-2.1406149375591146,-3.7556667726050965,0.015582681229449894,-0.011016686314679445,-0.0037695838636247537,-0.06197253315019146,0.05484564902614063,0.06923653348932178,0.1716978251934051,-1.6535621881484983,-0.7172363996505737,-0.834921658039093,0.166320189833641,0.2141212522983551
1749051268.3230247,-5.5283379479351415,-0.5842444906038293,-0.6913649288161401,4.874397703172087,-2.140509874442394,-3.75552322259339,0.015755763090078,-0.011137588180335795,-0.004128656951124404,-0.06356806521544177,0.05657250047449989,0.07087842209286939,0.1660652309656143,-1.6585171222686768,-0.7134295701980591,-0.8109115958213806,0.1430889368057251,0.2201769948005676
1749051268.3233967,-5.5283071590316455,-0.5842680409814732,-0.6913729741724833,4.874265542838369,-2.140401270359502,-3.7553760122475106,0.015956591734111594,-0.011260446758379535,-0.004482263425057453,-0.06530062954437217,0.05823452928295203,0.0725793630579437,0.1731790453195572,-1.6779907941818235,-0.7231463193893433,-0.8237715363502502,0.1383616030216217,0.2364125847816467
1749051268.3253732,-5.528275992892449,-0.58429203804409,-0.6913816649860708,4.874129528056087,-2.140289014540218,-3.755225001933835,0.016186439743038013,-0.011387621693509247,-0.0048214159588081534,-0.06718832212104724,0.05984399351736605,0.07434981256715574,0.1612752676010131,-1.6648210287094116,-0.6904183626174927,-0.8140108585357666,0.1405525654554367,0.2504558563232422
1749051268.366284,-5.52824437393763,-0.5843163818068956,-0.6913909955865287,4.873989298401175,-2.140172970157593,-3.755070054283093,0.016446263953926506,-0.011520665895157522,-0.005136937161117245,-0.06923742049062635,0.06141326781677851,0.07619161123268547,0.177828311920166,-1.6707004308700562,-0.700275182723999,-0.8508949279785156,0.1263905614614486,0.2660472691059112
1749051268.366334,-5.528212226022663,-0.5843409812267031,-0.6914009517433761,4.873844504136647,-2.140052989733151,-3.754911052321495,0.016736910650546995,-0.011660517953151373,-0.005420257003078966,-0.07144139028876319,0.06295400958010029,0.07809752986426356,0.1855221092700958,-1.6575270891189575,-0.7057896852493286,-0.8641546964645386,0.1539114415645599,0.2245440781116485
1749051268.3663828,-5.5281794727390245,-0.58436575802284,-0.6914115085331042,4.873694840644504,-2.139928932584936,-3.754747914786859,0.017059170121915084,-0.011807791524041985,-0.005664231791061032,-0.07378067031536475,0.06447641835733357,0.08005167714452534,0.1681826710700988,-1.6724669933319092,-0.6852117776870728,-0.8495393395423889,0.1619050502777099,0.2312787473201751
1749051268.3664238,-5.528146037364615,-0.5843906511884053,-0.6914226275045822,4.87354008333928,-2.1398006828110843,-3.7545806080260338,0.01741369246515554,-0.011963098641938511,-0.005863859612141109,-0.07622339822564554,0.06598856998780336,0.08203076049251434,0.197902500629425,-1.6800907850265503,-0.6962396502494812,-0.846630871295929,0.1761060357093811,0.2534698843955993
1749051268.3664625,-5.528111842635375,-0.5844156209996053,-0.6914342533193087,4.87338011941013,-2.13966816621217,-3.754409154069036,0.01780080371145348,-0.012127344756870183,-0.006016788448600829,-0.07872716884840517,0.0674958684446212,0.08400610551933219,0.2075913250446319,-1.6955599784851074,-0.6883903741836548,-0.8413687944412231,0.1957797408103943,0.2456801235675811
1749051268.366501,-5.528076810761075,-0.5844406511840099,-0.6914463107203148,4.8732149722241065,-2.1395313646557796,-3.7542336343790885,0.018220277927945262,-0.012301946769060762,-0.006123551061064269,-0.08124180167102184,0.0690007073203589,0.08594629856475705,0.2009459286928177,-1.673571228981018,-0.6904177665710449,-0.8623484373092651,0.1763468086719513,0.2238119542598724
1749051268.366543,-5.528040864317593,-0.5844657485631948,-0.6914587032703673,4.873044814189587,-2.139390326414145,-3.7540541886284524,0.018671123714362425,-0.012488944383455158,-0.0061875045562195755,-0.08371298793210384,0.07050242792593246,0.08782028545380241,0.2300573736429214,-1.6976872682571411,-0.7021607756614685,-0.8598507642745972,0.1904981136322021,0.2145139873027801
1749051268.366582,-5.528003928394863,-0.58449094041123,-0.6914713152918582,4.8728699647771965,-2.1392451710577243,-3.753871007933565,0.019151435264266683,-0.0126909925187633,-0.00621449424630251,-0.0860866057210298,0.07199760408666979,0.0896007066399709,0.2095907926559448,-1.7172443866729736,-0.7063196897506714,-0.8495046496391296,0.179665669798851,0.2211774885654449
1749051268.3666203,-5.527965933865153,-0.5845162703837878,-0.6914840176907867,4.872690872204752,-2.139096087862932,-3.75368432248258,0.019658343124759857,-0.012911234988242155,-0.006212295539767813,-0.08831341345345445,0.07348061849004264,0.09126718071688042,0.1964242160320282,-1.7067667245864868,-0.6984020471572876,-0.8434313535690308,0.2069933712482452,0.1977042555809021
1749051268.366659,-5.527926821381586,-0.5845417940488394,-0.6914966772152302,4.872508079517133,-2.138943327435577,-3.75349438426169,0.02018807894600251,-0.013153069069524518,-0.006189910890991838,-0.09035374827824819,0.07494445651755301,0.09280919447263067,0.2258428335189819,-1.7035647630691528,-0.7085118293762207,-0.8568809628486633,0.1855493783950805,0.2180807888507843
1749051268.3667135,-5.527886545837354,-0.5845675749931727,-0.691509167747144,4.872322177933646,-2.1387871871764386,-3.7533014462550076,0.020736144543030684,-0.013419821457282361,-0.006156809289378085,-0.0921817835879522,0.07638162766076835,0.09422824056969266,0.2394640743732452,-1.723096489906311,-0.7201405763626099,-0.8486610054969788,0.1949506998062133,0.215162456035614
1749051268.3667786,-5.527845081102758,-0.5845936822809971,-0.6915213818343332,4.8721337520787324,-2.1386279921750053,-3.7531057398332166,0.021297555713924297,-0.01371437012832952,-0.006122191967997868,-0.09378886329305608,0.0777851153461037,0.0955388716140158,0.2208549678325653,-1.7470974922180176,-0.7135493755340576,-0.8190228343009949,0.2070464491844177,0.1958658397197723
1749051268.366845,-5.527802424542825,-0.58462018961286,-0.6915332408647575,4.871943322836459,-2.138466073900955,-3.7529074521182917,0.02186711967982157,-0.01403875893196437,-0.006094350293444819,-0.09518544593763748,0.0791492525665581,0.09676841404987283,0.219444453716278,-1.750521898269653,-0.7049758434295654,-0.7932056784629822,0.1865266859531402,0.2025270760059356
1749051268.3669126,-5.527758600274209,-0.5846471758976963,-0.6915447027523124,4.871751293956823,-2.1383017492946848,-3.752706705138349,0.02243970048454843,-0.014393855202858588,-0.0060801563457389025,-0.09640127193225011,0.08047043269733241,0.09795520766568439,0.2073153257369995,-1.7474913597106934,-0.6956990361213684,-0.8120635747909546,0.2183650583028793,0.2262045741081237
1749051268.366982,-5.527713659915736,-0.5846747263828982,-0.6915557663461464,4.871557908201702,-2.138135302382567,-3.752503538814557,0.02301042999287798,-0.014779094499135248,-0.0060847054093675365,-0.09748352418006397,0.08174759366658431,0.09914540555536831,0.213319644331932,-1.7582918405532837,-0.7173284888267517,-0.8143297433853149,0.1876872330904007,0.2037297189235687
1749051268.367052,-5.527667680071861,-0.5847029333168384,-0.6915664719576899,4.871363217841432,-2.1379669696729278,-3.7522979001771555,0.023574837681185873,-0.015192346680125557,-0.006111119871225191,-0.0984929790323182,0.08298245075623292,0.10038857567796458,0.2058050632476806,-1.747741460800171,-0.7212939262390137,-0.8108370304107666,0.1838708668947219,0.2069770097732544
1749051268.3671212,-5.5276207567142865,-0.5847318954135424,-0.6915768977303851,4.871167072865882,-2.137796929778133,-3.7520896411730185,0.024128900963404445,-0.0156299290684773,-0.006160519910614466,-0.09949840002367079,0.08417948976196012,0.1017325574927625,0.2360491156578064,-1.7685123682022097,-0.7240259647369385,-0.8032534122467041,0.2107414156198501,0.2244379520416259
1749051268.3671925,-5.52757299742407,-0.5847617158458576,-0.6915871521651865,4.87096912857987,-2.1376252972394294,-3.7518785266276446,0.024669050728069956,-0.01608678433347699,-0.006232155857670451,-0.10056966186815473,0.085345760732625,0.10321819302167826,0.2591900825500488,-1.7763159275054932,-0.7157604694366455,-0.8258291482925415,0.2141215950250625,0.2345523536205291
1749051268.367261,-5.5275245127652815,-0.5847924987577369,-0.6915973636706265,4.870768872496244,-2.1374521204815857,-3.751664252567165,0.025192186901270393,-0.0165568282577565,-0.006323677714772212,-0.10177028978107555,0.08649052284773721,0.10487462243010448,0.2294018268585205,-1.7757295370101929,-0.7485076785087585,-0.8472278118133545,0.2007237523794174,0.2579258382320404
1749051268.3673291,-5.527475407917014,-0.5848243443731538,-0.6916076682890511,4.870565668695953,-2.1372773839615804,-3.751446473612746,0.025695750588804245,-0.01703345260533211,-0.006431499277310145,-0.1031502631909815,0.08762477571301984,0.10671579144509602,0.1986245661973953,-1.7846894264221191,-0.7115058898925781,-0.8777327537536621,0.1883504092693328,0.2803103923797607
1749051268.3676858,-5.527425775333044,-0.5848573429593926,-0.6916181968747632,4.870358816086403,-2.137101014413562,-3.751224836785419,0.026177865043200434,-0.017510142749428425,-0.006551208874418919,-0.10474003026360165,0.08876068072907287,0.10873867325423699,0.2151079177856445,-1.779177188873291,-0.7337031960487366,-0.9037795066833496,0.1961616277694702,0.2805948853492737
1749051268.3693771,-5.527375688863717,-0.5848915682542846,-0.6916290631734698,4.87014761531346,-2.1369228904774986,-3.750999018020552,0.026637520625982115,-0.017981145262770372,-0.00667798826978455,-0.10654663406708675,0.08991085252939789,0.11092348437379278,0.239465519785881,-1.7683305740356443,-0.7282078266143799,-0.905893087387085,0.182781234383583,0.2649626433849334
1749051268.4102626,-5.5273251996088035,-0.5849270712924981,-0.6916403544104583,4.869931437739769,-2.1367428545105676,-3.750768757242614,0.027074762731248984,-0.018442105361645176,-0.006807018688875039,-0.10855261707234072,0.09108750344261195,0.11323590355104982,0.2402421087026596,-1.7679730653762815,-0.7296867370605469,-0.9320023655891418,0.1871603429317474,0.2761304676532745
1749051268.4103093,-5.527274333765873,-0.5849638756630458,-0.69165212579789,4.869709789285608,-2.136560725648682,-3.750533888032968,0.027490849194372894,-0.018890593323879587,-0.006933867803564745,-0.11071798628304556,0.09230145217085362,0.11563103053505641,0.2474191635847091,-1.7804261445999146,-0.737299919128418,-0.92426335811615,0.1841294765472412,0.2806134223937988
1749051268.4103515,-5.527223092718448,-0.5850019750686666,-0.6916643995881944,4.869482362279422,-2.136376313939124,-3.750294358485495,0.027888359925795792,-0.01932645374989666,-0.00705485672289707,-0.11298507515206528,0.09356104710832128,0.11805859147111053,0.2532266676425934,-1.7897772789001465,-0.7429651021957397,-0.9037562608718872,0.1609392762184143,0.2647092342376709
1749051268.410392,-5.527171455388765,-0.5850413337436391,-0.6916771681937213,4.869249069749244,-2.136189435694776,-3.7500502405867495,0.028271251378005256,-0.019751937750633417,-0.00716740055847348,-0.11528571228928713,0.09487109725372309,0.12046872967822173,0.2416222691535949,-1.8041596412658687,-0.7370092868804932,-0.9217287302017212,0.1668604016304016,0.2520099580287933
1749051268.4104338,-5.527119382478707,-0.5850818899499801,-0.6916904000930033,4.869010058526937,-2.1359999296531185,-3.7498017264372425,0.0286448480168301,-0.020171607491134468,-0.00727030251324052,-0.1175497626161287,0.09623195535025268,0.12281762448162238,0.2528824508190155,-1.785581350326538,-0.7351785898208618,-0.9076433777809144,0.1883777529001236,0.2508755624294281
1749051268.4104729,-5.527066821765186,-0.585123562499086,-0.6917040471477869,4.86876569969424,-2.1358076723964303,-3.7495491108518193,0.02901575708094912,-0.020592025920447034,-0.007363964830990271,-0.11971389604511094,0.09763895312779683,0.1250721799871624,0.253717839717865,-1.791223406791687,-0.729900598526001,-0.876215398311615,0.2093113958835601,0.251222550868988
1749051268.4105108,-5.527013713136203,-0.5851662600207576,-0.6917180523726364,4.868516556794556,-2.1356125904161143,-3.749292761022885,0.02939168769430598,-0.02102125690549298,-0.007450469778357738,-0.12172939858676586,0.09908240645799331,0.1272131407114916,0.2518129348754883,-1.8158267736434937,-0.731945276260376,-0.8473638296127319,0.202920451760292,0.2239559143781662
1749051268.4105487,-5.526959991666652,-0.5852098923662364,-0.6917323576458762,4.868263333582363,-2.135414665558594,-3.749033074736778,0.02978115398656485,-0.021468204686320595,-0.007533489490334973,-0.1235679778251783,0.1005483449640747,0.12923621434087484,0.2518129348754883,-1.8158267736434937,-0.731945276260376,-0.8473638296127319,0.202920451760292,0.2239559143781662
1749051268.4105864,-5.526905587214173,-0.5852543829646755,-0.6917469110176037,4.868006804360842,-2.135213930749655,-3.748770429618867,0.030193046216950244,-0.021941824736398694,-0.007618004398535181,-0.12522480229026292,0.10201998584210929,0.13115108425301614,0.2883415818214416,-1.81547486782074,-0.7419900298118591,-0.8321250677108765,0.2099203914403915,0.2391776442527771
1749051268.4106238,-5.526850420288169,-0.5852996803029025,-0.6917616731472622,4.867747732582931,-2.13501045467981,-3.7485051283183197,0.030636066207683686,-0.022450246700220396,-0.007709835464043733,-0.12671840240745527,0.10347982060768394,0.13297853120936737,0.3244695365428924,-1.821192502975464,-0.7588446140289307,-0.8644473552703857,0.2453758418560028,0.2161421328783035
1749051268.410661,-5.526794396048782,-0.5853457663220272,-0.6917766221481192,4.867486787782434,-2.1348043178111924,-3.7482373485450218,0.03111804314995741,-0.02299986277357086,-0.00781501740118542,-0.1280874934281697,0.10491205571845891,0.13474619037883998,0.3244695365428924,-1.821192502975464,-0.7588446140289307,-0.8644473552703857,0.2453758418560028,0.2161421328783035
1749051268.4106977,-5.52673739985427,-0.5853926597876036,-0.691791755960942,4.867224474248782,-2.1345955856804486,-3.7479671094905935,0.03164516906414258,-0.02359444842859812,-0.007939059068489289,-0.1293852034903963,0.10630505158785694,0.13648368027678767,0.3016145527362823,-1.8019497394561768,-0.736897349357605,-0.8458852171897888,0.2437807619571685,0.2697161436080932
1749051268.4107342,-5.526679297395978,-0.5854404137504604,-0.6918070915489676,4.866961083385215,-2.1343842861609987,-3.747694263783982,0.032221216712465535,-0.0242343967088982,-0.008086155794897317,-0.13067154603432302,0.10765335329733926,0.1382179148199017,0.2985802888870239,-1.802905321121216,-0.7323855757713318,-0.8841694593429565,0.2272792756557464,0.2602164149284363
1749051268.4107704,-5.526619940284448,-0.5854891077106481,-0.6918226607738963,4.866696675546167,-2.1341703949118616,-3.747418517308834,0.03284682635491097,-0.02491616177175935,-0.008258437157848983,-0.13200521941552634,0.10895892743191037,0.13996934142697057,0.30556121468544,-1.763782978057861,-0.721934974193573,-0.8745206594467163,0.1982364356517791,0.2537774443626404
1749051268.4108074,-5.526559175569432,-0.5855388362637332,-0.6918385036314099,4.866431090268212,-2.133953830296711,-3.7471394723534326,0.03351897156964999,-0.025632017104570744,-0.008455354121988643,-0.1334359276986084,0.11023132352204773,0.1417496578282053,0.2963531017303467,-1.7870298624038696,-0.7220697999000549,-0.8866185545921326,0.1775518357753753,0.2520866990089416
1749051268.4108443,-5.526496856448028,-0.5855896963877342,-0.691854660315288,4.866163979158988,-2.133734457517083,-3.746856685683346,0.03423073323150958,-0.026370231917890626,-0.00867333016168878,-0.13499837674027723,0.11148665239602848,0.14356129375036833,0.3184449374675751,-1.783151388168335,-0.735054075717926,-0.8998900651931763,0.1914446204900741,0.2533983588218689
1749051268.4108806,-5.526432851543057,-0.5856417753450565,-0.6918711640567332,4.865894853445445,-2.133512101164271,-3.7465697317481346,0.034971508243281386,-0.02711574637680815,-0.008905808177034916,-0.13670887278124147,0.11274549129505304,0.14539865236680702,0.2903542816638946,-1.7946040630340576,-0.7418201565742493,-0.8947405815124512,0.1896409690380096,0.2472788542509079
1749051268.410917,-5.5263670511691485,-0.5856951409069114,-0.6918880366430182,4.865623137652332,-2.133286564807843,-3.746278261062731,0.03572773409061225,-0.027851369274538983,-0.009143793962066745,-0.13856502548721802,0.1140300395175262,0.14725082618052146,0.3862473368644714,-1.8317683935165403,-0.7756364345550537,-0.9358251690864564,0.2157759964466095,0.2918903529644012
1749051268.4109538,-5.5262993703609675,-0.5857498353758209,-0.6919052878826544,4.865348221839952,-2.133057655370418,-3.7459820447660332,0.03648411506440231,-0.02855942141631026,-0.00937690949989393,-0.1405484924828491,0.1153609890786113,0.1491052587984294,0.3548496067523956,-1.8091444969177248,-0.7687963247299194,-0.9333292841911316,0.2026503831148147,0.269715279340744
1749051268.4109902,-5.526229749483762,-0.5858058743380448,-0.6919229191813083,4.865069506923854,-2.132825209176098,-3.7456809988991244,0.037225211642207975,-0.029223618283052127,-0.009594834173836927,-0.142630112342793,0.11675459918580224,0.1509516497383555,0.3479958772659302,-1.802155613899231,-0.7445610165596008,-0.8866896629333496,0.2362850755453109,0.2452061176300048
1749051268.4113572,-5.526158153586464,-0.5858632499451849,-0.6919409301906596,4.864786440112495,-2.1325891158760584,-3.7453751858113886,0.03793714123338328,-0.029830873434890926,-0.009788874175342613,-0.14477629182271853,0.11822039823250877,0.15278533246984657,0.3071845471858978,-1.7702209949493408,-0.7464455962181091,-0.8680757880210876,0.2229430079460144,0.2473033964633941
1749051268.4134214,-5.526084571414115,-0.5859219371667641,-0.691959326621736,4.8644985398087615,-2.1323493360813774,-3.7450647942628525,0.03860908160888323,-0.030372671232508038,-0.009953325895935094,-0.14695527481931814,0.1197598386434614,0.15460943238896754,0.3138605058193207,-1.7552127838134766,-0.7326015830039978,-0.8624466061592102,0.244144320487976,0.2257823646068573
1749051268.4542694,-5.526009014585053,-0.5859819006419106,-0.6919781269683676,4.864205411176522,-2.1321059088396113,-3.7447501031327373,0.039234299910060805,-0.030845738996195683,-0.010086332238782173,-0.14914201625687978,0.12136611311848688,0.1564353465637887,0.3198851346969604,-1.7652162313461304,-0.725318431854248,-0.8528603911399841,0.266133576631546,0.2178587615489959
1749051268.4543154,-5.525931517189488,-0.5860430998815308,-0.6919973660290966,4.863906754836262,-2.131858946467219,-3.7444314355054202,0.03981054617147778,-0.03125192320553453,-0.010190058817073173,-0.15132079310611318,0.12302518715914251,0.1582814459061663,0.3226755857467651,-1.7633934020996094,-0.7239607572555542,-0.8693512082099915,0.2584280371665954,0.2446360290050506
1749051268.4543557,-5.525852136005304,-0.5861054914510834,-0.6920170937600704,4.863602371561153,-2.13160861663835,-3.744109110187893,0.04033980678930519,-0.03159737206997021,-0.010270182183740177,-0.15348526851038127,0.12471791476721869,0.16017028920558563,0.3342503011226654,-1.7839488983154297,-0.7441734671592712,-0.8715119361877441,0.2456780970096588,0.2758587002754211
1749051268.454394,-5.525770951342253,-0.5861690280032735,-0.6920373691529897,4.8632921652754915,-2.1313551143595095,-3.7437833968156773,0.040827551537238646,-0.03189126969889608,-0.010334826380775207,-0.1556363085772742,0.12642291475604844,0.16212494149879672,0.3761049807071686,-1.7866166830062866,-0.754509449005127,-0.8844975829124451,0.2385463118553161,0.2860524654388428
1749051268.454432,-5.5256880679829425,-0.5862336551512782,-0.6920582502077083,4.862976145410787,-2.13109862856648,-3.743454479317044,0.041281684402112225,-0.03214441140934484,-0.010393174804566804,-0.1577783001946663,0.12811973348153383,0.1641651209612532,0.354645162820816,-1.7800374031066897,-0.7506436109542847,-0.8900601863861084,0.2042804807424545,0.2779168784618377
1749051268.4544704,-5.525603615097031,-0.5862993077063671,-0.6920797821162208,4.862654428219359,-2.130839308960557,-3.7431224312747404,0.04171141133196081,-0.03236786625902337,-0.010454012215745557,-0.15991496106120007,0.1297917427902415,0.1663038348326721,0.3620935082435608,-1.767804503440857,-0.7499396800994873,-0.9183764457702636,0.2264171838760376,0.2799696922302246
1749051268.4545083,-5.525517743878517,-0.5863659066316216,-0.6921019861497753,4.862327235309716,-2.1305772384587844,-3.7427872059002483,0.04212618533290975,-0.03257189002969067,-0.01052442482429737,-0.16204565625353473,0.1314282496278134,0.16854495539099026,0.3199450671672821,-1.8047864437103271,-0.7542173862457275,-0.9313251972198486,0.2229519933462143,0.2741536796092987
1749051268.4545453,-5.525430622065975,-0.586433357511392,-0.6921248514596455,4.861994886783055,-2.130312415709418,-3.742448642574512,0.04253481926654487,-0.032765171972207054,-0.010608827744432184,-0.1641630590818943,0.13302543254113705,0.1708819357597813,0.3327181339263916,-1.7885903120040894,-0.7478758096694946,-0.9453434348106384,0.2031019032001495,0.2553192675113678
1749051268.4545825,-5.525342425181735,-0.5865015508519071,-0.692148331258847,4.861657786396327,-2.130044750773974,-3.742106490514688,0.04294480692975076,-0.032954431957924246,-0.010708422993453964,-0.1662526502124399,0.13458594385452113,0.17329766796952709,0.3620111346244812,-1.7764862775802612,-0.7284873723983765,-0.8821890354156494,0.2026384770870208,0.2481805384159088
1749051268.4546216,-5.525253325096165,-0.5865703643173281,-0.6921723438811425,4.861316397451798,-2.1297740753349603,-3.741760447671962,0.04336187645320489,-0.0331443268521645,-0.01082112822688428,-0.16829409735954176,0.13611727651500438,0.17576537992462368,0.3393544852733612,-1.782599687576294,-0.7312446236610413,-0.8938483595848083,0.2197240591049194,0.2402638345956802
1749051268.4546585,-5.525163477236247,-0.5866396668810139,-0.6921967782817549,4.860971210289491,-2.1295001666742537,-3.7414102097822917,0.04378979572762691,-0.033337583196768064,-0.01094195634634716,-0.1702641064877015,0.13762923774995162,0.17825044378134003,0.3686495423316955,-1.7480465173721311,-0.7365512251853943,-0.8549402356147766,0.214566558599472,0.2242711186408996
1749051268.454695,-5.5250730081485235,-0.586709324554074,-0.6922215028760265,4.860622704490489,-2.1292227822806216,-3.741055521639874,0.04423042844091016,-0.03353526287916703,-0.01106376974793481,-0.17214001644401283,0.13913104824133823,0.18071299191564977,0.3445029854774475,-1.7804011106491089,-0.7319396138191223,-0.8262962698936462,0.245212122797966,0.260522723197937
1749051268.4547317,-5.52498200510122,-0.5867792069471931,-0.6922463762618509,4.860271310424084,-2.1289416996785797,-3.7406962213519614,0.0446839999480668,-0.03373709253807017,-0.011178285365123984,-0.17390331711194287,0.1406286581556815,0.1831112577366044,0.3572687804698944,-1.815330982208252,-0.732860803604126,-0.823971688747406,0.2474730908870697,0.2881172299385071
1749051268.4547684,-5.524890509178675,-0.5868491937949202,-0.6922712582585462,4.859917375287118,-2.128656754780405,-3.7403322691550174,0.04514949967921188,-0.033941828792406224,-0.011277175392667246,-0.17554241902262244,0.14212282176532665,0.18540552707040614,0.369903951883316,-1.770988941192627,-0.7241078615188599,-0.8205607533454895,0.2126030474901199,0.2754434049129486
1749051268.4548051,-5.524798513066261,-0.5869191807947555,-0.6922960197721899,4.859561138248302,-2.1283678724669617,-3.739963755007142,0.045625138952295655,-0.03414766112661211,-0.011353102261316927,-0.17705431266437366,0.14360831005864294,0.1875624767790544,0.3579652607440948,-1.827744007110596,-0.729178786277771,-0.8358010053634644,0.2532941699028015,0.3123993575572967
1749051268.4548423,-5.524705964306201,-0.5869890844104784,-0.6923205503026796,4.859202717738968,-2.128075084870273,-3.7395908828294306,0.04610879088892731,-0.03435265330975837,-0.011400548255110762,-0.1784450935563137,0.14507441126511467,0.18955950082806955,0.3689837455749511,-1.8087396621704104,-0.7203486561775208,-0.8508893251419067,0.2699704766273498,0.2840829789638519
1749051268.45488,-5.524612773964846,-0.5870588454803576,-0.6923447624600101,4.858842111620146,-2.127778534863397,-3.739213933311403,0.04659834509393767,-0.03455519919175828,-0.01141634216849391,-0.1797295646868186,0.14650663503485925,0.1913884276182944,0.3404219448566437,-1.8007816076278689,-0.7082580924034119,-0.8468655943870544,0.2545149624347687,0.2355177700519561
1749051268.454917,-5.524518829513381,-0.5871284316309738,-0.6923685935490428,4.8584792086616275,-2.1274784640057884,-3.738833211247445,0.04709191586719668,-0.03475444292253592,-0.011399835672964133,-0.1809301969298113,0.1478893352278101,0.19305790305607043,0.3541585803031921,-1.788566827774048,-0.7115504145622253,-0.8559744358062744,0.2503334283828735,0.2263171523809433
1749051268.454953,-5.524424009832461,-0.5871978387132254,-0.6923920048634603,4.858113808325626,-2.127175186056325,-3.7384489868481867,0.04758786647206523,-0.03495060594841388,-0.011352735218191802,-0.18207565431776926,0.1492088081685749,0.1945937575497247,0.3549076616764068,-1.778004169464111,-0.7168493270874023,-0.8098859190940857,0.254349946975708,0.2021733820438385
1749051268.4549897,-5.52432819999336,-0.5872670916662454,-0.692414979537368,4.857745645581464,-2.126869049498594,-3.7380614422861256,0.048084657779640494,-0.03514517752988709,-0.011278648663348495,-0.183198959595478,0.15045632304763554,0.19603695407706434,0.3400571346282959,-1.8103859424591064,-0.7090820670127869,-0.8308297395706177,0.2077523618936538,0.2204262465238571
1749051268.455447,-5.52423130377744,-0.587336245194091,-0.6924375195794781,4.8573744180989245,-2.126560394747027,-3.7376706338793295,0.04858057996825551,-0.035340952293365445,-0.01118245026358188,-0.18433527886556123,0.15163053120939438,0.1974391831424708,0.3467289507389068,-1.7945019006729126,-0.7095587849617004,-0.7968406677246094,0.20210662484169,0.2281172275543213
1749051268.4573925,-5.524133252594495,-0.5874053842861295,-0.6924596422963416,4.856999814138044,-2.126249512864109,-3.7372764767957154,0.04907345947509995,-0.03554192284136827,-0.011069591383081414,-0.18551930434158864,0.15273880391020733,0.19885668318127603,0.356264978647232,-1.8000998497009275,-0.6997105479240417,-0.8321657776832581,0.224046915769577,0.2668986618518829
1749051268.498274,-5.524034010410695,-0.5874746240065075,-0.692481376045225,4.856621540331469,-2.1259366123861154,-3.7368787541972392,0.04956043862274736,-0.035753048929334695,-0.010945482449231488,-0.1867823296615894,0.15379724784215465,0.20034325651394508,0.324577271938324,-1.8255858421325684,-0.7295116782188416,-0.8422677516937256,0.1928311437368393,0.2982479929924011
1749051268.498321,-5.523933575176524,-0.5875441074451864,-0.6925027553168736,4.856239349024028,-2.125621799504988,-3.73647714806703,0.05003790187543611,-0.03597992633595804,-0.010815044906005314,-0.1881493013763734,0.15482938716288658,0.20194361072853567,0.3429147005081177,-1.8169596195220947,-0.7320553064346313,-0.8800874948501587,0.2445073425769806,0.3338345289230346
1749051268.498362,-5.523831977696222,-0.587614000642641,-0.6925238154379173,4.855853064596231,-2.1253050746686974,-3.7360712858176037,0.05050158109352447,-0.03622837219075114,-0.010682482502275919,-0.18963628530721963,0.15586371553237566,0.20368804887917116,0.3464628458023071,-1.812069535255432,-0.6974505186080933,-0.8707951307296753,0.2180988490581512,0.3024085164070129
1749051268.498402,-5.523729278913096,-0.5876844838304022,-0.6925445874902407,4.855462607167718,-2.1249863458926557,-3.735660795379576,0.050946828833977,-0.03650393887662057,-0.010551259659077678,-0.1912487928690116,0.15693047872765328,0.20558920047329451,0.3333810269832611,-1.812410593032837,-0.6956146955490112,-0.8671694397926331,0.2266421616077423,0.2870526313781738
1749051268.4984405,-5.52362556647503,-0.5877557392763905,-0.6925650942143461,4.855068010711935,-2.124665456191248,-3.735245361288826,0.051369014527232006,-0.036811378122002,-0.01042422584169835,-0.19298124721065457,0.15805814158753692,0.2076410422573131,0.2946376800537109,-1.8341197967529297,-0.6955106258392334,-0.8499886989593506,0.2402945905923843,0.2795525789260864
1749051268.498479,-5.523520951298676,-0.5878279369518734,-0.6925853476472826,4.8546694317940275,-2.1243422200861555,-3.7348247747859062,0.051763978208882504,-0.037154101823162464,-0.010303813543054942,-0.1948176230189881,0.15927001506620142,0.20982005100721654,0.3162211179733276,-1.8404688835144043,-0.7054156064987183,-0.8474118709564209,0.2334178388118744,0.2833010256290436
1749051268.498517,-5.523415564548561,-0.5879012198295895,-0.6926053491036008,4.8542671455632265,-2.124016462528379,-3.7343989718820736,0.052128475845139716,-0.03753371058192076,-0.010192262710368789,-0.19673308894299874,0.16058146343477728,0.2120880713522625,0.3193506598472595,-1.8234870433807373,-0.7314578294754028,-0.8571789264678955,0.2362672835588455,0.2623087465763092
1749051268.498556,-5.523309554916867,-0.5879756909351154,-0.6926250919201891,4.853861527311051,-2.1236880530739395,-3.7339680546001413,0.052460567013630215,-0.03794966626077058,-0.01009185639741883,-0.19869638254915775,0.16199799613706217,0.21439639431701263,0.3168040513992309,-1.8398462533950808,-0.7184343338012695,-0.8557990193367004,0.2534956037998199,0.3028032183647156
1749051268.4985936,-5.523203085414682,-0.5880514044292906,-0.6926445670649891,4.853453020259414,-2.123356928957798,-3.7335322920488845,0.052759911903415696,-0.03839916477424862,-0.010005159105559037,-0.20067264384830982,0.16351441559870603,0.2166905700518797,0.3389851450920105,-1.8625808954238887,-0.7357769012451172,-0.8665928244590759,0.2660332918167114,0.2960914373397827
1749051268.4986312,-5.523096328284636,-0.5881283627786477,-0.6926637710597856,4.853042092524105,-2.123023102768421,-3.7330920997193724,0.053027944516008584,-0.0388772249157275,-0.009935224292868841,-0.20262647281366947,0.16511507430166128,0.21891553311620934,0.333446592092514,-1.8474587202072144,-0.7380399703979492,-0.8711729049682617,0.2793315947055816,0.3101678490638733
1749051268.4986684,-5.52298945654308,-0.5882065211281858,-0.6926827147709578,4.852629187947599,-2.1226866534509217,-3.73264799779365,0.05326788203036351,-0.03937696108022482,-0.009885703065517906,-0.20452500782223074,0.16677519131089338,0.22102063643787073,0.3246426582336426,-1.8222850561141968,-0.7184246182441711,-0.8483748435974121,0.2450724840164184,0.2839111685752868
1749051268.4987056,-5.522882631476849,-0.5882857983836804,-0.692701430982635,4.852214676756438,-2.122347702972231,-3.7322005528700646,0.05348454240182625,-0.03988997446653925,-0.009860774097379496,-0.2063408198039236,0.16846307575748912,0.22296416640656075,0.3131483197212219,-1.8293538093566892,-0.7176685929298401,-0.8386619687080383,0.2605631053447723,0.2555243968963623
1749051268.4987428,-5.5227759870682505,-0.5883660927578478,-0.6927199787962993,4.851798813118092,-2.1220063847026442,-3.731750312263271,0.05368398398392168,-0.0404067992003622,-0.009864845310539664,-0.20805438286685174,0.17014301049443245,0.2247169007033934,0.3380375504493713,-1.8435351848602293,-0.7440735697746277,-0.835419774055481,0.2352197468280792,0.2460105121135711
1749051268.4987795,-5.522669614094337,-0.5884472982938742,-0.6927384438282064,4.851381707303343,-2.1216628123755283,-3.731297744044158,0.0538730325515513,-0.04091737284314445,-0.00990204570808682,-0.20965584094857292,0.17177849372542403,0.2262643377527477,0.3380375504493713,-1.8435351848602293,-0.7440735697746277,-0.835419774055481,0.2352197468280792,0.2460105121135711
1749051268.4988165,-5.522563547517468,-0.5885293187225914,-0.6927569344120174,4.850963318574008,-2.121317058483041,-3.730843195788432,0.05405879005776447,-0.04141153580286295,-0.009975601346840515,-0.21114579153029747,0.17333553507525273,0.22760739128820956,0.3389246463775635,-1.821367263793945,-0.7351282835006714,-0.8564868569374084,0.2461131364107132,0.2562524080276489
1749051268.4988534,-5.522457759967647,-0.5886120761309056,-0.6927755749235937,4.8505434698585175,-2.1209691470473073,-3.7303868788760637,0.05424820930081654,-0.04187957459535897,-0.010087236601382136,-0.2125349078029589,0.17478573427359728,0.22876156499711087,0.3441400527954101,-1.8235987424850464,-0.7396529912948608,-0.8527975082397461,0.2352569103240966,0.2650848925113678
1749051268.498891,-5.52235216193989,-0.5886955137660812,-0.692794497579466,4.850121878797152,-2.120619059874527,-3.729928876227001,0.05444777810756113,-0.04231280425051285,-0.010236741557305055,-0.21384242318332267,0.17610890017388806,0.22975483395425797,0.3700999617576599,-1.8288795948028564,-0.770136833190918,-0.8664830327033997,0.2353708148002624,0.2938150763511657
1749051268.4989283,-5.522246607337131,-0.5887795938949437,-0.6928138337991281,4.849698195959414,-2.120266751438513,-3.729469165125931,0.05466330588676247,-0.04270414678482209,-0.010421802142026369,-0.21509373170394952,0.177294979823964,0.23062460474719104,0.3121558725833893,-1.7900080680847168,-0.7578932046890259,-0.870189905166626,0.221532329916954,0.3053677380084991
1749051268.4989655,-5.522140902504471,-0.5888642924756949,-0.6928337059536863,4.849272041742037,-2.1199121670310563,-3.729007645820952,0.054899764148595855,-0.04304862910051031,-0.010638117235415901,-0.21631751828090912,0.1783450796421952,0.23141417460034647,0.331003189086914,-1.8296576738357544,-0.7433393597602844,-0.8771533370018005,0.2177156507968902,0.2827157080173492
1749051268.4990025,-5.522034817724288,-0.5889495926280179,-0.6928542202527217,4.848843036873781,-2.1195552602492103,-3.72854416916426,0.05516111935428616,-0.043343723046297675,-0.010879750261195146,-0.21754286807891435,0.17927141220629805,0.23216907016020652,0.3299010396003723,-1.8043582439422607,-0.737600564956665,-0.8542963862419128,0.244746521115303,0.2949937582015991
1749051268.4994123,-5.5219281010303805,-0.5890354786887344,-0.692875461352333,4.8484108249958995,-2.1191960073025813,-3.7280785598438744,0.05545012322962928,-0.04358948887588758,-0.011139611771389824,-0.21879671052305671,0.18009612218982177,0.2329335642904852,0.3613450825214386,-1.8191479444503784,-0.7503135204315186,-0.8729285001754761,0.2462516278028488,0.2593988478183746
1749051268.501356,-5.521820494272798,-0.5891219320594109,-0.6928974887471189,4.847975088126103,-2.1188344163255746,-3.7276106340364037,0.05576808215955639,-0.043788532646352914,-0.011409964615554893,-0.2201017767552282,0.18084912051619081,0.2337475934434124,0.3555164039134979,-1.800485372543335,-0.7383109331130981,-0.8716139793395996,0.2500961422920227,0.2722192108631134
1749051268.5422766,-5.5217117507371025,-0.5892089292952243,-0.6929203344193408,4.84753555680906,-2.1184705301427953,-3.7271402113413243,0.05611467813198805,-0.043945818146641245,-0.011682877416783413,-0.22147506984255233,0.1815652228215666,0.23464425156832847,0.3541703522205353,-1.796496033668518,-0.7502489686012268,-0.8502358794212341,0.2471550703048706,0.2914429903030395
1749051268.5423234,-5.5216016528768685,-0.5892964422758082,-0.6929440010930981,4.847092016811271,-2.11810442141673,-3.726667121380134,0.05648792399946192,-0.04406838551456798,-0.011950598747486942,-0.2229267417385652,0.1822809740752994,0.23564801358921225,0.3707701861858368,-1.8404209613800049,-0.7474676966667175,-0.8540495038032532,0.2385086119174957,0.2974746823310852
1749051268.5423648,-5.521490028257549,-0.5893844400004676,-0.6929684609154564,4.846644313780497,-2.1177361803348833,-3.7261912061361295,0.056884300168805656,-0.044165035935039614,-0.012205862416457068,-0.2244592817054075,0.1830315247879149,0.2367738175459773,0.3413030207157135,-1.8414123058319087,-0.7506132125854492,-0.8678019046783447,0.2336546182632446,0.2977422475814819
1749051268.542405,-5.5213767617961516,-0.5894728915083424,-0.692993655040244,4.846192356621838,-2.1173658967506337,-3.7257123197697872,0.057299063132533336,-0.04424603843757011,-0.012442156728731326,-0.22606704198565014,0.1838478454577485,0.23802707784385807,0.2942747473716736,-1.829399824142456,-0.7474082708358765,-0.8953498601913452,0.2387332618236541,0.3101067841053009
1749051268.5424435,-5.521261802814528,-0.5895617694418861,-0.6930194949203472,4.845736119643158,-2.1169936400964713,-3.7252303277039784,0.0577266724679868,-0.044322882078997664,-0.01265399413147733,-0.227736297898433,0.18475448018378565,0.23940459729484787,0.3632717430591583,-1.8057926893234253,-0.7428687214851379,-0.9149961471557616,0.2444573193788528,0.3030386567115783
1749051268.5424817,-5.521145166076562,-0.5896510536849711,-0.6930458659437323,4.845275643039468,-2.1166194408289547,-3.724745106233926,0.05816127366904006,-0.04440804009493478,-0.0128371983907801,-0.22944615587865677,0.18576797928428676,0.24089621246243834,0.3469935357570648,-1.8166007995605469,-0.7437763810157776,-0.9484755992889404,0.2516386806964874,0.2854655981063843
1749051268.5425196,-5.5210269265831675,-0.589740734421525,-0.6930726334672441,4.8448110311199635,-2.1162432767933317,-3.724256543308647,0.058597192944216135,-0.04451466604435997,-0.012989189070121166,-0.231170578591791,0.1868961141841014,0.24248689298682757,0.3647991120815277,-1.827077031135559,-0.7442732453346252,-0.9284487962722778,0.2594825327396393,0.2859084606170654
1749051268.5425572,-5.520907208423211,-0.589830814099212,-0.6930996505367187,4.844342447648134,-2.115865067074751,-3.7237645407877684,0.05902941610526379,-0.044656133298410595,-0.013109204689035902,-0.23288154997860727,0.18813794175290555,0.24415896670100326,0.3596661388874054,-1.8484597206115725,-0.7469092607498169,-0.9285010099411012,0.2569502592086792,0.2791076898574829
1749051268.5425942,-5.520786168569091,-0.589921308093131,-0.6931267659953086,4.84387010758311,-2.1154846746684575,-3.723269018222788,0.059454016836317444,-0.04484535830709037,-0.01319838700800578,-0.23455302307371728,0.1894847193576631,0.24589417256971477,0.3737496733665466,-1.8196066617965696,-0.729156494140625,-0.8992173671722412,0.2608638703823089,0.294322669506073
1749051268.5426314,-5.520663977251078,-0.590012244130357,-0.6931538316221548,4.843394264543477,-2.115101917663811,-3.72276991774725,0.059868484443743396,-0.045093900792486756,-0.013259662912874786,-0.23616494622690537,0.19092156738648489,0.24767533361786032,0.3717334270477295,-1.849988579750061,-0.7358386516571045,-0.846802294254303,0.2694824635982513,0.2991272807121277
1749051268.5426686,-5.520540797320444,-0.5901036607583031,-0.6931807075133497,4.842915193786727,-2.114716587042196,-3.7222672090172026,0.06027190124953504,-0.045410898690533615,-0.013297408187329367,-0.23770653227637054,0.19242965891166633,0.2494875590290501,0.3466696143150329,-1.8345006704330444,-0.7364588975906372,-0.868471086025238,0.2561178803443908,0.3073466420173645
1749051268.5427058,-5.520416765506001,-0.590195605400639,-0.6932072659368438,4.842433171382221,-2.1143284682178396,-3.721760892590447,0.06066493766195722,-0.04580195837878095,-0.013316943567064496,-0.2391781072366927,0.19398862628550997,0.2513189913667486,0.3673356771469116,-1.8555036783218384,-0.7520666122436523,-0.9042900204658508,0.2615019083023071,0.3070372641086578
1749051268.5427425,-5.520291978408257,-0.5902881326493912,-0.6932333949296023,4.841948451119253,-2.1139373631635983,-3.721250999870653,0.06104965799647736,-0.04626815803467998,-0.013323968575199253,-0.24059127770269048,0.1955788383536402,0.25316117454391185,0.3579588234424591,-1.8249869346618648,-0.7653722763061523,-0.913109540939331,0.2650184631347656,0.303628921508789
1749051268.5427792,-5.520166485373708,-0.5903813031212607,-0.6932590033410772,4.841461241193535,-2.1135431099780058,-3.7207375879471503,0.06142915550837783,-0.04680531820084308,-0.013324054773118082,-0.2419675920612212,0.19718322851107492,0.2550091144969754,0.35678431391716,-1.8484485149383545,-0.739637017250061,-0.9494636058807372,0.2780958712100982,0.3065842688083648
1749051268.5428152,-5.52004028915652,-0.59047518257941,-0.6932840284402886,4.840971682912191,-2.113145596939298,-3.7202207285675426,0.061807057717631564,-0.04740366265990168,-0.013322289264972573,-0.2433361321386627,0.19878843938238802,0.2568610588514636,0.3730787336826324,-1.8675637245178225,-0.7634694576263428,-0.9173371195793152,0.2589127123355865,0.3045398592948913
1749051268.5428517,-5.5199133538586835,-0.5905698405491799,-0.6933084458239325,4.840479833733983,-2.112744768781784,-3.7197004920282097,0.062186959270774125,-0.048047958980865245,-0.01332309889163427,-0.2447304722068658,0.20038517774044068,0.2587179790533387,0.375473290681839,-1.8473533391952517,-0.7593677043914795,-0.903319537639618,0.2351478189229965,0.2642847895622253
1749051268.5428882,-5.519785618480207,-0.590665347685262,-0.6933322799441243,4.839985656865074,-2.1123406243360168,-3.719176928349547,0.06257184543499572,-0.0487181899895568,-0.013330226354743747,-0.24618527081590152,0.20196781618904147,0.26058273255478887,0.3273769617080688,-1.8477216958999636,-0.7513975501060486,-0.8680975437164307,0.2650213241577148,0.3125310838222503
1749051268.542925,-5.519657013671927,-0.5907617716392197,-0.6933556127775667,4.839489019097916,-2.111933206445662,-3.718650049043841,0.06296356527537737,-0.049390748563067216,-0.013346797548896222,-0.24773261390150686,0.2035334093283661,0.2624589160580321,0.3708276152610779,-1.8135905265808103,-0.7641608119010925,-0.8820184469223022,0.2553896903991699,0.2768520712852478
1749051268.5429614,-5.519527478930329,-0.5908591718015512,-0.6933785881888014,4.838989697468721,-2.1115225865191833,-3.718119812955399,0.06336240836212943,-0.050040078065981056,-0.01337542211645179,-0.24939826225189776,0.20508038914556617,0.264349477035637,0.3442847430706024,-1.842192769050598,-0.7617382407188416,-0.9111597537994384,0.2665619850158691,0.2853873968124389
1749051268.5429978,-5.519396977579752,-0.5909575937554999,-0.6934014102622306,4.83848739387265,-2.1111088467740533,-3.7175861193018087,0.06376683964081246,-0.05064062888914006,-0.013418293025741998,-0.2511981718803179,0.2066072440267044,0.26625521897636145,0.3261999487876892,-1.8168872594833372,-0.7709107995033264,-0.98154217004776,0.2575753629207611,0.2961647510528564
1749051268.5434303,-5.519265507464614,-0.5910570644940818,-0.6934243350157561,4.837981755620667,-2.1106920633459167,-3.71704881024071,0.06417344653353642,-0.05116897302813346,-0.013477273164312397,-0.253135884682418,0.20811145257609617,0.26817340887915053,0.3580718040466308,-1.815427303314209,-0.7669402956962585,-0.9827378988265992,0.2516926825046539,0.2912226617336273
1749051268.5453584,-5.519133106057523,-0.5911575893819213,-0.6934476561039928,4.837472399549861,-2.1102722933694915,-3.716507683941481,0.06457713965174965,-0.051605891254288085,-0.013553964678103388,-0.2552014130057521,0.2095888489752199,0.27009674991212057,0.3937701284885406,-1.8069565296173096,-0.7807427048683167,-0.9932577610015868,0.244186133146286,0.2955401837825775
1749051268.5862746,-5.518999849429825,-0.5912591514389346,-0.6934716859430575,4.836958937631441,-2.1098495689233676,-3.7159625174443405,0.06497162330973134,-0.05193821664563065,-0.013649753591945611,-0.25737196409871854,0.2110334801970022,0.27201298081742487,0.3534260988235473,-1.7923264503479004,-0.7771211862564087,-0.9400675296783448,0.2407587170600891,0.2697108089923858
1749051268.5863209,-5.518865845247028,-0.5913617129545277,-0.6934967338825656,4.836441002579388,-2.109423899893773,-3.7154130969740105,0.06535011422554338,-0.052160211803605645,-0.013765817690602523,-0.25961436718573183,0.21243792099552242,0.27390528536264536,0.3826952278614044,-1.8087915182113647,-0.7979827523231506,-0.9100265502929688,0.248258352279663,0.3235532939434051
1749051268.5863628,-5.518731220742182,-0.5914652190476695,-0.693523082874369,4.835918272500911,-2.108995286040244,-3.7148592520623738,0.06570623519689602,-0.052274297774033036,-0.01390308548730806,-0.2618886224019959,0.2137939630492675,0.27575355580852173,0.340086281299591,-1.772817611694336,-0.7642874121665955,-0.8963238596916199,0.2274931669235229,0.2903141677379608
1749051268.586403,-5.51859610744361,-0.591569602638416,-0.6935509661477501,4.835390494168562,-2.108563736332839,-3.7143008888332223,0.06603496105314616,-0.05229103415151525,-0.01406214152550563,-0.2641518227183221,0.21509358296444941,0.27753639718011025,0.320632666349411,-1.7916282415390017,-0.7876361608505249,-0.9151780605316162,0.2581898868083954,0.2851268053054809
1749051268.5864418,-5.518460625056347,-0.5916747901526854,-0.6935805459115011,4.834857504824544,-2.1081292918888512,-3.7137380173890286,0.06633347496263842,-0.05222835156162774,-0.014243091005558203,-0.26636186874461737,0.21633009805057213,0.2792336262314361,0.3338882625102997,-1.8079276084899905,-0.7746513485908508,-0.9719950556755066,0.2454737722873687,0.2615614533424377
1749051268.5864794,-5.5183248670314855,-0.5917807070661725,-0.6936118965835266,4.834319252162892,-2.1076920479587846,-3.713170768918602,0.0666018159246723,-0.052110138721620534,-0.014445421072442677,-0.2684807353768683,0.21749942137510503,0.28082893558592226,0.3729700446128845,-1.853448510169983,-0.7966898679733276,-0.9759528040885924,0.2532591223716736,0.285721480846405
1749051268.5865166,-5.518188889964943,-0.5918872823556661,-0.6936449948859208,4.833775811253749,-2.1072521701627087,-3.7125993999935463,0.06684324606739445,-0.05196436286948397,-0.014667911040416577,-0.2704772879521051,0.218601319761315,0.28231237398508585,0.327275276184082,-1.813116192817688,-0.7873955965042114,-0.9450213313102722,0.2506577968597412,0.2740162312984466
1749051268.5865543,-5.518052708313511,-0.591994451257002,-0.6936797182268049,4.833227396117564,-2.1068099004614327,-3.712024283929752,0.06706431016468481,-0.05182093413833668,-0.014908630463610469,-0.2723296286162788,0.2196405571221472,0.28368234314136,0.341049313545227,-1.843108892440796,-0.7802941799163818,-0.8745256066322327,0.2474632263183593,0.2977633774280548
1749051268.5865915,-5.517916295197815,-0.5921021562246837,-0.6937158515382821,4.832674362956875,-2.1063655494972213,-3.7114458911425094,0.06727458403955827,-0.0517095099606871,-0.015165021521232315,-0.2740267648476158,0.22062777684936613,0.28494691082315204,0.3114276826381683,-1.8446290493011477,-0.7695838212966919,-0.8954868912696838,0.2702005207538605,0.2854776680469513
1749051268.586629,-5.517779589168199,-0.5922103463066895,-0.693753101697612,4.832117202056571,-2.105919474141166,-3.7108647613748906,0.06748611790089541,-0.05165739299796709,-0.015434014954349632,-0.275569269272846,0.2215799555472448,0.28612434222330824,0.3295933902263641,-1.8785593509674072,-0.7740002870559692,-0.8738905191421509,0.2824046611785888,0.2900956273078918
1749051268.586666,-5.517642505608661,-0.5923189752812353,-0.6937911181031567,4.831556516125272,-2.1054720418728454,-3.7102814702761413,0.06771258483929206,-0.051687627792635964,-0.01571210553700905,-0.27696871754666713,0.22252025796179403,0.28724281500606785,0.3261086642742157,-1.8608522415161133,-0.7541564106941223,-0.9340738654136658,0.2336653470993042,0.2931081056594848
1749051268.5867026,-5.51750495021178,-0.5924279991111366,-0.6938295177774283,4.830992984119864,-2.1050235860742275,-3.7096965914446707,0.06796815054035553,-0.051817363975132785,-0.01599532381006202,-0.2782460050710885,0.2234771426793245,0.2883392995158297,0.3482841849327087,-1.8331564664840696,-0.7692862749099731,-0.9414812326431274,0.2643128931522369,0.2680251598358154
1749051268.5867388,-5.517366831297477,-0.5925373736431497,-0.6938679131839273,4.83042731105211,-2.1045743577345433,-3.7091106536430827,0.068266098231914,-0.052056537522685915,-0.016279078734343762,-0.27942893567260907,0.2244826160137642,0.2894575803768658,0.3698764145374298,-1.850642442703247,-0.7619320154190063,-0.9638000726699828,0.2247521430253982,0.3073055148124695
1749051268.5867753,-5.517228068097031,-0.5926470537969284,-0.6939059406373669,4.829860165903224,-2.1041244795000176,-3.708524092513961,0.06861728415370488,-0.05240692779515898,-0.016557902204625326,-0.28054954653700237,0.2255696235280214,0.29064541026724566,0.3134398162364959,-1.8433562517166135,-0.7556710839271545,-0.9001888632774353,0.2475970387458801,0.3134328424930572
1749051268.5868115,-5.517088593325604,-0.5927569954015892,-0.6939432869813202,4.829292111925209,-2.103673908101796,-3.707937197594486,0.06902856505783729,-0.05286167138824836,-0.016825191254765476,-0.28164146610657453,0.22676871459793133,0.2919508558672357,0.2951475977897644,-1.7219141721725464,-0.7102743983268738,-0.7770962119102478,0.2154206931591034,0.2496023923158645
1749051268.586848,-5.516948349996414,-0.5928671600824749,-0.6939797122993013,4.828723536650488,-2.103222411356693,-3.7073500589400727,0.06950142228491886,-0.05340534887197198,-0.017073099156635865,-0.28273737403721444,0.2281042983012183,0.2934180306854761,0.3067761063575744,-1.80111825466156,-0.7089189887046814,-0.7834864854812622,0.2190353870391845,0.252307653427124
1749051268.5868845,-5.516807284225192,-0.5929775222753243,-0.694015066716494,4.828154592582945,-2.1027695658751524,-3.706762522383596,0.070031083460347,-0.05401479534173075,-0.017292748729031186,-0.28386657725542075,0.22959098825613816,0.29508259235393713,0.4235278964042663,-1.924360275268555,-0.8064318895339966,-0.943281888961792,0.3167060017585754,0.3484958410263061
1749051268.5869212,-5.516665337361877,-0.5930880761687215,-0.6940492997487983,4.8275851620019194,-2.102314780348578,-3.7061741659194074,0.07060645821413802,-0.05466078075971948,-0.017474907849700093,-0.28505290098730085,0.23123066025164674,0.2969675675847002,0.4235278964042663,-1.924360275268555,-0.8064318895339966,-0.943281888961792,0.3167060017585754,0.3484958410263061
1749051268.586959,-5.516522441256796,-0.5931988399977888,-0.6940824613027899,4.827014857316551,-2.101857345363712,-3.705584308239735,0.07121109295673136,-0.055310600575975456,-0.017611161313233863,-0.2863133147160003,0.23301086238273952,0.2990801777528618,0.3792171776294708,-1.8638713359832764,-0.7673684358596802,-0.9277290105819702,0.3329279720783233,0.3750711381435394
1749051268.5869963,-5.516378519092037,-0.5933098560174885,-0.6941146943880344,4.826443060302516,-2.101396503855757,-3.704992052539348,0.0718251033386358,-0.05593138940595658,-0.017695438639391214,-0.2876576708184632,0.23490506847849127,0.3014102841518334,0.3326628804206848,-1.7945274114608765,-0.7301591038703918,-0.8630177974700928,0.3150816559791565,0.3812597692012787
1749051268.587391,-5.516233491682172,-0.5934211861371689,-0.6941462205755587,4.825868992831052,-2.100931529573201,-3.7043963583313717,0.07242775103162971,-0.05649369764246619,-0.017725567435740882,-0.28908955766102434,0.23687494492211691,0.3039308204693284,0.3326742053031921,-1.7613704204559326,-0.7217127680778503,-0.8339784145355225,0.3094356656074524,0.3610099852085113
1749051268.5893722,-5.516087287180443,-0.5935329046074359,-0.6941773198225702,4.82529180470035,-2.1004617986699445,-3.7037961277495173,0.07300013362136105,-0.0569747037080844,-0.01770441436125491,-0.2906078222413717,0.23887438857194948,0.30660019496366336,0.3390856981277466,-1.842970371246338,-0.7500712871551514,-0.8342955112457275,0.2939615845680237,0.3304370641708374
1749051268.6302843,-5.51593985162639,-0.5936450897402326,-0.6942083064332448,4.8247106636367265,-2.0999868428958317,-3.7031902931028524,0.07352744455274692,-0.05736048571860247,-0.01764022748943795,-0.29220814028493214,0.24085472819658146,0.3093662638829,0.3017981648445129,-1.8056074380874636,-0.7303244471549988,-0.8671045303344727,0.2898955345153808,0.315648078918457
1749051268.630331,-5.5157911582238865,-0.5937578164516814,-0.6942395029373085,4.824124836057743,-2.0995063789909105,-3.7025778964695437,0.0740004211888267,-0.05764702548332962,-0.017545993820576113,-0.2938841977487148,0.24277027577123697,0.3121712351610942,0.2829248011112213,-1.7696667909622192,-0.7200320363044739,-0.9021648168563844,0.2838208675384521,0.3030469715595245
1749051268.6303716,-5.515641213783898,-0.593871150720519,-0.6942712137751483,4.82353375144051,-2.0990203146382203,-3.701958156246333,0.07441584599319491,-0.0578399359942875,-0.01743788699815015,-0.2956283947674677,0.24458339366982307,0.3149568133924933,0.3361236155033111,-1.7956304550170898,-0.7294921278953552,-0.9246430397033693,0.2637366056442261,0.3318355083465576
1749051268.6304102,-5.515490061184964,-0.5939851461364716,-0.6943037008297823,4.822937046639017,-2.098528735427551,-3.701330518295456,0.07477620392898535,-0.05795315920042018,-0.017333109938146577,-0.29743221322017044,0.24626836750464765,0.31766900368323137,0.3380925059318542,-1.8720436096191408,-0.783747136592865,-0.8819336891174316,0.2585380673408508,0.3563545644283294
1749051268.630448,-5.515337777321618,-0.594099841867884,-0.6943371628692052,4.822334589129638,-2.0980318795094846,-3.700694690717777,0.07508875908817307,-0.058007008650936095,-0.01724757470513828,-0.29928638459774176,0.24781358649482735,0.32026216198276675,0.39243084192276,-1.8097716569900515,-0.7925888299942017,-0.8126378059387207,0.2109599113464355,0.3329721391201019
1749051268.6304862,-5.515184467023801,-0.5942152609253599,-0.6943717207446644,4.82172648015551,-2.097530106874513,-3.7000506618614732,0.07536435790937174,-0.058025929455984115,-0.017193874390031765,-0.3011808635690544,0.24922179460570207,0.3227020296821031,0.3485854864120483,-1.809129357337952,-0.7444582581520081,-0.8343399167060852,0.2259150743484497,0.3152192533016205
1749051268.6305242,-5.515030254520084,-0.5943314078002458,-0.6944074096817505,4.821113040196846,-2.0970238687772675,-3.6993987014097933,0.07561620175407112,-0.05803625715824785,-0.017179889376383414,-0.3031045656705864,0.25050845938307703,0.32496758442424906,0.3215077817440033,-1.8203485012054443,-0.7522578835487366,-0.8742823600769043,0.2366121858358383,0.3106903433799743
1749051268.630561,-5.514875274553492,-0.5944482653892391,-0.6944441791913345,4.820494780050427,-2.096513680614787,-3.6987393445354484,0.0758587123232142,-0.05806414365681168,-0.01720818510074108,-0.30504496980820067,0.25169858379148546,0.32705160128819055,0.3717743158340454,-1.83160936832428,-0.7620702981948853,-0.9458789229393004,0.2693322598934173,0.3446929156780243
1749051268.6305993,-5.5147196648224375,-0.5945657921097875,-0.6944819001210436,4.819872361055543,-2.096000099449972,-3.698073359383157,0.07610650971031856,-0.05813373783661904,-0.017276179118710936,-0.30698790054128167,0.2528225225119263,0.32895990410599907,0.3196717500686645,-1.8581355810165403,-0.7490071058273315,-0.9135835766792296,0.2753770351409912,0.3516449332237243
1749051268.6306376,-5.51456356025026,-0.5946839206898386,-0.6945203774328741,4.819246547823259,-2.09548370575519,-3.697401698863815,0.07637347359823994,-0.058265672012769124,-0.017376932205018306,-0.30891786277941014,0.2539115100267181,0.33070941451047636,0.3444552421569824,-1.830882787704468,-0.7328113913536072,-0.8762420415878296,0.300570547580719,0.3374053835868835
1749051268.6306753,-5.514407088472023,-0.5948025601602753,-0.6945593667430774,4.818618156400658,-2.0949650877202695,-3.6967254390966127,0.0766718560449977,-0.05847588188501803,-0.01750035446854997,-0.31081909844922145,0.25499362025694616,0.3323252333317398,0.3770752251148224,-1.860220551490784,-0.767848551273346,-0.8697115182876587,0.291473388671875,0.3139230906963348
1749051268.6307125,-5.514250365490354,-0.594921602319063,-0.6945985926746733,4.817988000291796,-2.094444825321071,-3.69604570852078,0.07701143362691644,-0.058774748109279656,-0.01763459694784438,-0.3126771942598502,0.25609074592696024,0.3338370766821566,0.3686094880104065,-1.8378278017044067,-0.748406708240509,-0.8540670871734619,0.3313449025154114,0.3033121228218078
1749051268.6307502,-5.514093490663034,-0.5950409333274269,-0.6946377675716325,4.817356836300469,-2.0939234704436616,-3.695363613002798,0.07739871114421289,-0.05916650656097115,-0.017767410921012156,-0.31448081654215837,0.25721694548329943,0.3352754600260016,0.3244599103927612,-1.813623309135437,-0.7175902128219604,-0.8460164666175842,0.2930428981781006,0.3193570673465729
1749051268.6307878,-5.513936540632851,-0.5951604498399661,-0.6946766097541415,4.816725311801131,-2.0934015195469877,-3.6946801625483956,0.07783621904829692,-0.05964887591044255,-0.01788729940902587,-0.3162231160474007,0.25837822449228537,0.33666810761263727,0.3265457153320312,-1.8027637004852293,-0.7023521065711975,-0.8922849893569946,0.2886452078819275,0.3381902873516083
1749051268.6308253,-5.513779562231193,-0.5952800773393208,-0.6947148608319703,4.816093914804625,-2.0928793773138903,-3.6939962043440286,0.07832199023262687,-0.060212909192481734,-0.01798436095232244,-0.3179025008355813,0.25957356556309596,0.33803711942845716,0.3833860754966736,-1.8490936756134035,-0.7333967089653015,-0.8680224418640137,0.2970862984657287,0.353008896112442
1749051268.6308622,-5.513622564814752,-0.5953997870550396,-0.6947523015192428,4.815462928228774,-2.0923573131406954,-3.693312365284187,0.07884935164040521,-0.06084315132591861,-0.018050826360030678,-0.3195226943437761,0.2607968353472647,0.3393973632378853,0.3658872246742248,-1.8308982849121092,-0.7501438856124878,-0.8889884948730469,0.2769109904766083,0.3546763360500335
1749051268.6308997,-5.513465512973644,-0.595519607906436,-0.6947887652099951,4.814832390343608,-2.091835415949543,-3.692629005880366,0.07940718688444189,-0.061518223874952434,-0.018081380087655075,-0.32109217635080095,0.26203909207839143,0.34075633787310444,0.3639560043811798,-1.809598684310913,-0.7153657674789429,-0.8806808590888977,0.2392326146364212,0.3192863762378692
1749051268.630937,-5.513308320877766,-0.5956396312651383,-0.6948241486094662,4.814202064461209,-2.0913135554078437,-3.691946187339845,0.07998078040294858,-0.06221193923824466,-0.018073394984612513,-0.32262321848096925,0.26329080451341524,0.34211544063451943,0.3591464757919311,-1.8326376676559448,-0.728589653968811,-0.8956205248832703,0.2502271831035614,0.3328309953212738
1749051268.6309743,-5.513150849511085,-0.5957600079604696,-0.6948584189292568,4.813571422276613,-2.090791358424657,-3.691263654560301,0.0805532423355291,-0.06289498073384317,-0.018027175957074475,-0.32413077661870376,0.2645435862596468,0.3434722823217286,0.3934062421321869,-1.8379697799682615,-0.741165280342102,-0.9191972613334656,0.265000969171524,0.3508334457874298
1749051268.6310112,-5.512992907837909,-0.5958809379674405,-0.6948916172982684,4.812939646370685,-2.0902682087257918,-3.6905808389952597,0.08110737909428246,-0.06353709374769531,-0.01794622744422513,-0.3256314726724635,0.2657912349277113,0.34482350658726196,0.3551302552223205,-1.812199592590332,-0.7257160544395447,-0.9065173864364624,0.2735200822353363,0.3448451161384582
1749051268.6313734,-5.512834258805524,-0.5960026536657682,-0.6949238580978653,4.812305657787707,-2.0897432749328404,-3.689896886155411,0.08162776921506024,-0.06410963012381088,-0.01783747114044641,-0.327142776564966,0.2670300862696976,0.34616750007104896,0.3598832488059997,-1.7831484079360962,-0.7300378680229187,-0.8912804126739502,0.2827689051628113,0.2919529676437378
1749051268.633381,-5.512674630925046,-0.5961253979236855,-0.6949553240862216,4.811668173790888,-2.08921556935482,-3.6892107125267417,0.08210275418904009,-0.06458818900443972,-0.01771127814824777,-0.32868234341373814,0.26825886779161656,0.34750642492807526,0.3428198099136352,-1.8352651596069336,-0.7411535382270813,-0.9034151434898376,0.3096534013748169,0.3142372667789459
1749051268.6742904,-5.512513735696477,-0.5962493987403433,-0.6949862574415379,4.811025798314657,-2.08868403568384,-3.688521095173232,0.08252605473553307,-0.06495503087479437,-0.017581165709069462,-0.3302673737041619,0.26947830307493237,0.34884718317037483,0.3594114780426025,-1.720978021621704,-0.6989798545837402,-0.9262551665306092,0.2856590151786804,0.2828519940376282
1749051268.674337,-5.512351290309149,-0.5963748426818768,-0.6950169470188311,4.810377142823237,-2.088147659013162,-3.6878267931605255,0.08289776158548469,-0.0652009383509482,-0.017463050621887504,-0.3319138957192601,0.2706906757941182,0.3502012224494248,0.341117113828659,-1.7732973098754885,-0.7297201752662659,-0.9293444752693176,0.2608442306518554,0.3181291222572326
1749051268.6743777,-5.512187044029537,-0.5965018498225246,-0.6950477121198491,4.809720968111792,-2.0876055863832614,-3.6871266924012573,0.08322452681915378,-0.06532626992479705,-0.017374040925197246,-0.33363596534920803,0.27189946995275593,0.35158342329019976,0.3536351323127746,-1.79494047164917,-0.7494474053382874,-0.9711958169937134,0.3019527196884155,0.3302056789398193
1749051268.6744237,-5.512020805410839,-0.5966304534761947,-0.6950788831948868,4.80905632857696,-2.087057240685631,-3.686419955033255,0.08351889804520682,-0.0653410828233135,-0.017330859794831333,-0.3354448410373109,0.27310913326735714,0.35301053056243425,0.3536351323127746,-1.79494047164917,-0.7494474053382874,-0.9711958169937134,0.3019527196884155,0.3302056789398193
1749051268.674466,-5.511852465744459,-0.5967605886316034,-0.6951107804415911,4.808382692070153,-2.0865024062247364,-3.6857061441966104,0.08379787256562031,-0.06526433918722177,-0.0173480931943039,-0.33734818252832993,0.2743249859778795,0.35449962176746835,0.3886696100234985,-1.7858891487121582,-0.761864960193634,-0.9515627026557922,0.2802611589431762,0.343313992023468
1749051268.6745057,-5.511682012869646,-0.5968920928983076,-0.6951436920909919,4.8077000062266775,-2.085941264173481,-3.6849852918973123,0.08408086685962245,-0.06512230541423585,-0.01743650009182524,-0.3393492892729358,0.27555326670114516,0.3560669573094266,0.4287399053573608,-1.7890071868896484,-0.7631288170814514,-0.9638266563415528,0.2850825190544128,0.3432977795600891
1749051268.6745434,-5.511509530544632,-0.5970247217814891,-0.6951778546299495,4.807008691920755,-2.0853743651236987,-3.6842578881313646,0.08438737055409289,-0.06494629832801743,-0.017601611584891416,-0.34144640029416423,0.2768012174250135,0.35772731569110383,0.3825623989105224,-1.8033101558685305,-0.7558316588401794,-0.9705238938331604,0.2713602781295776,0.3320176899433136
1749051268.674581,-5.5113351828078025,-0.5971581763779099,-0.6952134368670012,4.806309564685054,-2.0848025429751984,-3.683524791786489,0.08473457621867148,-0.06476995796280002,-0.01784279496351521,-0.3436321265609429,0.2780770023720114,0.35949367222225087,0.3397288620471954,-1.7599018812179563,-0.7491077184677124,-0.9478291273117064,0.2524573802947998,0.3046813607215881
1749051268.6746185,-5.511159187812066,-0.5972921381593305,-0.6952505289779315,4.805603704830189,-2.084226790843441,-3.6827870861353307,0.08513526374358354,-0.06462627066939698,-0.01815290284904991,-0.34589313485355583,0.2793892473567889,0.3613769108716173,0.3916884660720825,-1.828610181808472,-0.7699151039123535,-0.9498176574707032,0.245316743850708,0.3177339434623718
1749051268.674656,-5.5109817881997065,-0.597426304374169,-0.6952891371757876,4.80489230631447,-2.083648126836599,-3.6820459125500573,0.08559620018873478,-0.06454463114801702,-0.018518583352327055,-0.3482102154880154,0.28074613796965947,0.3633852288957417,0.3241727352142334,-1.7272597551345823,-0.7124177813529968,-0.8790819048881531,0.2436036318540573,0.2184129953384399
1749051268.674693,-5.510803224245392,-0.597560418777024,-0.6953291845660132,4.8041765322423595,-2.0830674744652273,-3.6813023140972505,0.08611729920376146,-0.06454828645165316,-0.018921286980170163,-0.3505588565916405,0.28215424651584087,0.36552304329995783,0.3959589600563049,-1.8967560529708865,-0.7942323684692383,-0.9939855933189392,0.3050658106803894,0.3423112332820892
1749051268.6747303,-5.510623713314849,-0.5976942944693492,-0.6953705185975256,4.803457396916874,-2.082485573909266,-3.680557111749263,0.08669172872320431,-0.06465249896272189,-0.01933894614056601,-0.35291043176612,0.28361741835121335,0.3677895078692792,0.4433448910713196,-1.866721272468567,-0.7889270186424255,-0.9901553988456726,0.3054741024971008,0.3817102313041687
1749051268.6747706,-5.510443436585071,-0.5978278274412191,-0.6954129249819966,4.80273568554048,-2.0819029311742003,-3.679810825388511,0.08730701350775993,-0.06486366315737581,-0.019748204118194362,-0.35523404509012674,0.28513604652707025,0.3701770597092576,0.4094879627227783,-1.893957257270813,-0.7586982846260071,-0.9638734459877014,0.2997653782367706,0.3650899827480316
1749051268.6748085,-5.5102625323591905,-0.5979610006982975,-0.6954561472155932,4.802011914846779,-2.0813198048136847,-3.679063642256241,0.08794696184547203,-0.06517942755686844,-0.020126938833014432,-0.35749890314430943,0.28670691902668155,0.3726705435812977,0.3586685061454773,-1.8435800075531008,-0.7277036905288696,-0.9367749094963074,0.2884061932563782,0.3412412405014038
1749051268.6748447,-5.510081094665728,-0.598093879790642,-0.695499910205612,4.8012863317411325,-2.080736224912236,-3.678315428289214,0.08859403967563245,-0.065589676808258,-0.02045670847121804,-0.3596768397071485,0.28832362853934856,0.3752473212685139,0.3712088763713836,-1.8516780138015747,-0.7399019598960876,-0.8885701894760132,0.2517081499099731,0.3226837515830993
1749051268.674881,-5.50989917571975,-0.5982266011789046,-0.6955439459699642,4.800558942802097,-2.0801520358211203,-3.6775657731993667,0.08923171946130079,-0.06607810081000082,-0.020724709823489316,-0.3617444830280626,0.2899773901895616,0.37787845853750845,0.3633905351161957,-1.8335864543914795,-0.7460243105888367,-0.936897873878479,0.273277223110199,0.3542335033416748
1749051268.6749225,-5.509716790904382,-0.5983593552168626,-0.695588018798902,4.799829565337729,-2.079566952264669,-3.6768140578007307,0.0898463816793984,-0.06662406271292912,-0.02092492594786097,-0.3636846747088764,0.29165806660476856,0.380530777629143,0.3575159907341003,-1.8753924369812007,-0.7197399735450745,-0.951019525527954,0.2991818189620971,0.357560783624649
1749051268.6749606,-5.509533925167635,-0.5984923657623142,-0.695631946823969,4.799097890323976,-2.0789806182096866,-3.676059531744688,0.09042850382247558,-0.06720455850360227,-0.0210583207965674,-0.3654870649001285,0.29335523243746414,0.38316937620637204,0.3162406682968139,-1.8377264738082888,-0.7199414372444153,-0.9666987657546996,0.2984922230243683,0.3305732011795044
1749051268.6749997,-5.509350540112464,-0.5986258686459509,-0.6956756170836995,4.79836354848786,-2.0783926596832702,-3.6753013915219275,0.09097306622308474,-0.06779617392778069,-0.021132141489736644,-0.3671480991542063,0.2950591604207874,0.385760144883798,0.4033699631690979,-1.8853120803833008,-0.7465208768844604,-0.9277961254119872,0.2851653099060058,0.3062796592712402
1749051268.6750364,-5.509166581384277,-0.5987600913404921,-0.6957189921212257,4.7976261724600215,-2.0778027259677483,-3.6745388517948645,0.09147927741113919,-0.06837701823240565,-0.021158546928046442,-0.36867069759326854,0.29676162460503225,0.38827185268709896,0.3816761970520019,-1.8872274160385127,-0.7652090787887573,-0.8862485289573669,0.2719601988792419,0.3264235258102417
1749051268.675405,-5.508981986056648,-0.5988952360522007,-0.69576210757839,4.796885449749947,-2.077210516988525,-3.6737712064328547,0.09194982765242488,-0.06892860476183423,-0.02115285993694868,-0.3700638100605103,0.298456397847735,0.39067753112563647,0.3822744190692901,-1.8488916158676147,-0.7569189667701721,-0.9321408271789552,0.2651010751724243,0.3575818836688995
