nimar13/UR3e_dataset_trayectorias/data/trayectorias_completas_UR3e_QUINTIC/trayectoria_215.csv
Punto,shoulder_pan_joint,shoulder_lift_joint,elbow_joint,wrist_1_joint,wrist_2_joint,wrist_3_joint,Posicion_X,Posicion_Y,Posicion_Z,Roll,Pitch,Yaw
0,3.886926960563357,3.587795483221522,0.33633603223388914,3.50072875109151,-5.8979368331751445,-5.332348309541954,0.46531586900788213,0.13450086880863976,0.35101680744373703,2.062894290296198,0.3458912954988612,-0.9977517388558452
1,3.886917588919159,3.5877978622912203,0.33633960044360506,3.500719988597564,-5.897935170796861,-5.332331788535938,0.46531606409465465,0.13449560377482844,0.35101791723892733,2.062907588288624,0.34589234214667475,-0.9977629205162729
2,3.8868527436875286,3.58781432379172,0.33636428996239637,3.5006593582601795,-5.897923668300328,-5.332217474714452,0.46531741221350204,0.13445917350399664,0.3510255961098481,2.0629996010281464,0.34589958401999427,-0.9978402900199852
3,3.886679017229235,3.5878584256957167,0.33643043549921964,3.500496923898944,-5.897892852033135,-5.331911217263569,0.4653210089195303,0.13436157412867206,0.3510461673489884,2.063246111106124,0.3459189839687952,-0.9980475721078844
4,3.886345227756357,3.5879431609250676,0.3365575242805502,3.5001848305059946,-5.897833643172935,-5.331322789259573,0.4653278580190866,0.13417405451950226,0.3510856871073879,2.063719740657395,0.3459562510897339,-0.99844584160458
5,3.885802388630889,3.5880809651445977,0.33676420773979604,3.4996772755401886,-5.897737352281511,-5.330365833546334,0.46533882408548743,0.13386910148784895,0.35114994426022383,2.0644899927406968,0.34601683867776406,-0.9990935662258198
6,3.8850036776633416,3.5882837245559025,0.337068313206711,3.498930480221276,-5.8975956738588495,-5.328957808612682,0.46535457054848745,0.1334204258978002,0.3512444591348108,2.0656232920666415,0.3461059405257753,-1.000046651232976
7,3.8839044064113466,3.588562783691153,0.3374868555968086,3.497902660824071,-5.8974006808972055,-5.327019934469786,0.4653754859991327,0.1328029497751608,0.3513744812985285,2.067183025195875,0.3462284858600773,-1.0013584855898996
8,3.882461989478256,3.588928953206901,0.3380360491007753,3.496553999972623,-5.897144819435169,-5.32447713852853,0.4654016011815308,0.13199279460810648,0.3515449865865852,2.069229580323536,0.3463891331743772,-1.0030799892968936
9,3.8806359138117466,3.589392517677884,0.3387313188738842,3.4948466179343898,-5.896820903111739,-5.321258001476891,0.4654324989809331,0.13096727114242276,0.35176067353237184,2.0718203867599843,0.34659226320029574,-1.0052596615951268
10,3.878387708002424,3.5899632433908284,0.33958731272540854,3.4927445439144083,-5.896422107720384,-5.317294703157311,0.4654672195638224,0.12970487107683706,0.3520259593467133,2.075009954211998,0.34684197122888627,-1.0079436297526863
11,3.8756809115824216,3.590650386138256,0.3406179128080353,3.4902136873494665,-5.895941965763114,-5.3125229684440765,0.46550416268108685,0.12818526115543244,0.3523449755767744,2.078849911963008,0.3471420589752271,-1.011175698160827
12,3.8724810443240067,3.5914626990122884,0.3418362473072784,3.4872218092022744,-5.895374361004548,-5.3068820131206955,0.46554098901049806,0.1263892802301779,0.3527215635609256,2.0833890480457176,0.34749602615717634,-1.0149973974858797
13,3.868755575538182,3.592408440198449,0.3432547021308928,3.4837384932556383,-5.8947135230259855,-5.300314489757274,0.4655745222903942,0.1242989399238632,0.3531592697826004,2.088673348495294,0.34790706194008125,-1.019448033638941
14,3.8644738933732863,3.593495380769472,0.34488493259828756,3.479735117406629,-5.893954021779467,-5.292766433587889,0.4656006538832737,0.12189742955975216,0.3536613412142297,2.094746036766569,0.3483780363814914,-1.0245647363417778
15,3.8596072741136003,3.594730812479103,0.34673787512993953,3.475184824960757,-5.89309076214185,-5.2841872083879675,0.46561425130634915,0.11916912603740071,0.35423072073170847,2.101647613394019,0.3489114919941127,-1.0303825070834518
16,3.854128851477946,3.5961215555559067,0.3488237589368069,3.470062495926141,-5.89211897846887,-5.274529452351665,0.46560907217619196,0.11609960932321832,0.3548700426706213,2.109415895968995,0.34950963553111164,-1.0369342662781023
17,3.8480135859182925,3.5976739664970694,0.3511521177097427,3.4643447183076823,-5.891034229149216,-5.263749023969237,0.4655776849361659,0.11267568418913346,0.355581628587581,2.118086059504559,0.35017433008557497,-1.044250899449906
18,3.8412382339183555,3.5993939458622055,0.3537318013089083,3.4580097594012345,-5.889832391158592,-5.25180494790442,0.46551139766786814,0.1088854087730329,0.3563674832835058,2.1276906772544097,0.3509070875854636,-1.0523613022867289
19,3.833781317292203,3.601286946067161,0.35657098745318716,3.4510375370877777,-5.888509654613787,-5.2386593608718055,0.46540019623026024,0.10471813045102768,0.3572292911404084,2.138259762048755,0.3517090617565157,-1.0612924244191644
20,3.8256230924828536,3.6033579791778174,0.35967719340959803,3.4434095911275873,-5.887062517326747,-5.224277457514217,0.46523269292114905,0.10016452940472034,0.3581684128192384,2.14982080820653,0.3525810416184056,-1.0710693117966759
21,3.816745519860885,3.6056116247038985,0.3630572876827086,3.4351090544544074,-5.8854877793586375,-5.208627436280084,0.4649960868133184,0.09521667013768204,0.3591858823633904,2.1623988340800673,0.3535234455737988,-1.081715147547337
22,3.807132233023031,3.608052037392774,0.3667175017040493,3.4261206244696236,-5.8837825375739135,-5.191680445300825,0.46467613687965553,0.08986806104559138,0.36028240475056766,2.176016425285118,0.35453631614569353,-1.093251291222249
23,3.796768508090787,3.6106829550232638,0.37066344152152636,3.4164305343364316,-5.88194418019439,-5.173410528268217,0.464257148985416,0.08411372197565528,0.36145835393465,2.190693778665988,0.35561931541546943,-1.1056973163401087
24,3.7856412330090126,3.6135077061994423,0.3749000994888357,3.406026524274012,-5.879970381353306,-5.153794570311776,0.4637219777883601,0.07795025952486564,0.36271377141892214,2.206448747042308,0.35677172121229983,-1.1190710461616094
25,3.7737388768445337,3.6165292181444446,0.3794318659548763,3.3948978128517004,-5.877859095649398,-5.13281224387613,0.4630520445456637,0.0713759496256025,0.3640483654023195,2.223296884780634,0.3579924241037135,-1.1333885876374699
26,3.7610514590847437,3.6197500244942704,0.3842625409531639,3.38303506828316,-5.87560855270096,-5.1104459545984,0.46222737177681555,0.06439082675352839,0.3654615105411211,2.2412514942305015,0.3592799252372086,-1.1486643634878502
27,3.747570518936209,3.6231722730915874,0.3893953458912443,3.370430379720552,-5.873217251699921,-5.086680787185571,0.46122663567067307,0.05699677886944916,0.3669522483695822,2.2603236730606175,0.3606323350834992,-1.164911142384851
28,3.7332890846232694,3.6267977337795387,0.394832935240107,3.3570772285487096,-5.870683955965904,-5.061504451291874,0.46002723704891596,0.049197646976979384,0.3685192884242323,2.2805223625265416,0.36204737313328217,-1.182140067223767
29,3.7182016426866413,3.630627806195545,0.4005774082235988,3.342970459679307,-5.868007687500302,-5.03490722739616,0.4586053916039167,0.0409993279449994,0.3701610101177737,2.301854396696209,0.36352236860102904,-1.2003606814826948
30,3.70230410728202,3.63466352756511,0.40663032050783715,3.3281062528450334,-5.865187721540342,-5.006881912679274,0.456936240013328,0.03240987901183778,0.3718754654096204,2.3243245526540934,0.3650542621911523,-1.2195809536842672
31,3.685593789478683,3.6389055804956256,0.41299269589062404,3.3124820938937636,-5.862223581113152,-4.977423766901434,0.45499397839359207,0.023439622161216297,0.3736603823208943,2.347935601698307,0.36663960898375936,-1.2398072999875416
32,3.6680693665580932,3.643354300770176,0.41966503799085897,3.2960967460827297,-5.85911503158983,-4.946530458279608,0.4527520093877327,0.014101246342827011,0.3755131693420837,2.372688361537634,0.3682745824989728,-1.2610446049526163
33,3.649730851312498,3.6480096851413424,0.42664734193795306,3.2789502213726944,-5.855862075239517,-4.914202009364891,0.45018311398733113,0.0044099053080320985,0.3774309207814016,2.3985817494871613,0.36995498000022375,-1.2832962405353698
34,3.630579561343537,3.6528713991250084,0.43393910606124225,3.2610437517221196,-5.852464945783456,-4.880440742919875,0.4472596439634229,-0.005616691351127731,0.37941042310105294,2.4256128366516676,0.37167622909794895,-1.3065640833848933
35,3.6106180883608405,3.657938784794163,0.44153934357940083,3.242379760381341,-5.848924102949068,-4.845251227796035,0.44395373452586706,-0.015958196528085545,0.38144816228704587,2.4537769030754153,0.37343339571549994,-1.3308485305317388
36,3.5898502674806343,3.663210868572708,0.4494465942898551,3.22296183318674,-5.845240227024017,-4.808640224811099,0.4402375365461728,-0.026591555986787162,0.3835403322957532,2.4830674938251143,0.37522119347870553,-1.3561485135710623
37,3.568281146524341,3.6686863690292593,0.457658936258197,3.202794689854912,-5.841414213410276,-4.770616632626426,0.43608346736645315,-0.03749095358743344,0.38568284461709784,2.5134764759598776,0.37703399458923836,-1.3824615114610848
38,3.5459169553171836,3.674363704670954,0.46617399750759714,3.1818841552768413,-5.837447167178198,-4.731191433624384,0.4314644788798847,-0.0486277741799403,0.387871338989926,2.5449940963277196,0.3788658422395928,-1.4097835620740495
39,3.5227650749867885,3.6802410017372544,0.4749889677082191,3.1602371308120736,-5.833340397620582,-4.690377639785723,0.4263543412096554,-0.05997058698894899,0.39010119529984333,2.5776090401128746,0.38071046462395386,-1.4381092726538736
40,3.4988340072617854,3.6863161019937523,0.48410060986663217,3.1378615655828836,-5.829095412806748,-4.648190238566954,0.42072793993896623,-0.07148515225761475,0.3923675466834517,2.6113084900417296,0.38256129059439403,-1.4674318293520263
41,3.4741333437704136,3.6925865705259744,0.49350527201522554,3.1147664277684513,-5.824713914136591,-4.604646138777727,0.41456158446044505,-0.083134453802843,0.394665293855609,2.6460781861379954,0.38441146700557055,-1.4977430060305004
42,3.4486737353391215,3.699049703533186,0.5031988989016214,3.0909616758990306,-5.820197790894665,-4.559764116458202,0.40783332462667443,-0.09487875995854692,0.39698912066801295,2.6819024858996983,0.38625387778331977,-1.5290331725381276
43,3.4224668612911717,3.705702536122196,0.5131770436780887,3.066458230150122,-5.815549114804236,-4.51356476075643,0.4005232725028277,-0.10667571514309189,0.3993335108981438,2.7187644247521927,0.38808116474318066,-1.5612913026834592
44,3.3955253987452405,3.7125418501011627,0.5234348795909567,3.041267943636645,-5.810770134581365,-4.466070419805729,0.3926139256569302,-0.11848046398104034,0.40169276625747397,2.756645776612884,0.3898857501738613,-1.5945049821439667
45,3.3678629919140253,3.719564181773397,0.5339672116700278,3.01540357370711,-5.805863270488965,-4.417305146602059,0.38409048808302576,-0.1302458095374775,0.4040610255969188,2.7955271143850227,0.39165986118802404,-1.6286604165668896
46,3.339494221402842,3.7267658297311668,0.5447684884179927,2.9888787532377874,-5.800831108890871,-4.3672946448814,0.374941184548081,-0.1419224067872048,0.4064322852758867,2.8353878701803197,0.39339555582837615,-1.6637424401314462
47,3.31043457350823,3.734142862649504,0.555832813499842,2.961707961926883,-5.795676396805913,-4.316066214997126,0.36515756389559495,-0.1534589919441478,0.40880042064911093,2.8762063950536083,0.39508475090115575,-1.6997345248548181
48,3.2807004095165557,3.741691127080006,0.5671539574322813,2.9339064975887075,-5.79040203646198,-4.263648699797383,0.354734786638333,-0.1648026477236034,0.41115920861283434,2.917960018017929,0.3967192514915701,-1.73661879093496
49,3.250308935002613,3.7494062552446428,0.5787253692731436,2.9054904474478485,-5.785011079850088,-4.210072430502465,0.34367189203980447,-0.1758991040084259,0.41350235113904976,2.9606251040957186,0.39829078209684543,-1.7743760184313022
50,3.219278169128228,3.757283672829561,0.5905401883108036,2.8764766594333424,-5.77950672327845,-4.1553691725821915,0.33197203982870577,-0.186693072748841,0.4158234997135137,3.0041771111519244,0.39979101929235145,-1.8129856605893462
51,3.1876269139408597,3.7653186067788877,0.6025912557535905,2.8468827134728474,-5.773892301926543,-4.099572071633284,0.31964272172117475,-0.19712861525505074,0.4181162805803564,3.0485906452482507,0.40121162582509673,-1.8524258591165152
52,3.155374723672205,3.7735060930885362,0.6148711264192026,2.8167268927868134,-5.768171284399176,-4.042715599256741,0.30669593804953466,-0.20714953935461722,0.42037432068347164,3.093839514255179,0.40254428600685355,-1.8926734617138468
53,3.1225418740367967,3.78184098460001,0.6273720804241197,2.7860281551826533,-5.762347267280558,-3.9848354989352135,0.29314833501861426,-0.216699823196798,0.4225912741826869,3.1398967794601704,0.40378074225674143,-1.9337040421607872
54,3.0891493315306127,3.790317958794207,0.6400861348730176,2.754806104348918,-5.756423969688366,-3.925968731910383,0.27902129843499257,-0.2257240618088091,0.4247608494111971,-3.096450502262321,0.40491283262055494,-1.9754919232380332
55,3.055218722729673,3.7989315255852265,0.6530050555481806,2.723080961149464,-5.750405227827815,-3.866153423060341,0.2643410001814991,-0.2341679318606104,0.4268768361300458,-3.048860002884179,0.40593252907182237,-2.0180102027557525
56,3.020772303588644,3.807676035114171,0.6661203685989161,2.6908735349176283,-5.744294989545723,-3.805428806776958,0.24913839423724424,-0.24197866949194408,0.42893313292581403,-3.0005459221789605,0.4068319763781149,-2.061230782931258
57,2.985832928739444,3.816545685542952,0.6794233722309672,2.6582051947503986,-5.73809730888458,-3.743835172843268,0.23344915966778232,-0.24910555551484503,0.4309237745892353,-2.9515377178087943,0.407603531295767,-2.1051244033313607
58,2.950424020789839,3.8255345308480946,0.692905148395927,2.625097840802586,-5.731816340636619,-3.681413812310838,0.217313588723293,-0.2555004018430478,0.4328429593054273,-2.901865374408354,0.40823980183761216,-2.149660677560066
59,2.914569539622055,3.834636488614544,0.7065565744806515,2.591573875580996,-5.7254563348978795,-3.6182069633771503,0.2007764189746018,-0.2611180326321358,0.4346850754809394,-2.851559368724982,0.4087336863419057,-2.1948081338322303
60,2.8782939516913695,3.843845347829466,0.7203683349966739,2.5576561752385993,-5.7190216316222795,-3.554257757262974,0.18388660927432565,-0.26591675335496284,0.4364447280290187,-2.800650638090433,0.4090784120569123,-2.240534259528735
61,2.841622199324724,3.853154776676056,0.7343309332696171,2.5233680608687057,-5.71251665517568,-3.4896101640897443,0.16669706023783606,-0.2698588008978661,0.4381167639325003,-2.7491705522746632,0.40926757294511085,-2.2868055497790234
62,2.80457967001932,3.8625583303273405,0.748434703128608,2.4887332697991345,-5.705945908889956,-3.424308938756938,0.149264280878114,-0.2729107677541609,0.4396962969036217,-2.6971508887224203,0.4092951664040132,-2.3335875600634277
63,2.7671921657412257,3.8720494587399843,0.7626698205956912,2.4537759268863866,-5.699313969617063,-3.358399566819451,0.13164800398022208,-0.2750439935191015,0.4411787309619488,-2.6446238111203857,0.40915562859765203,-2.3808449627713717
64,2.7294858722239748,3.881621514448092,0.7770263155752415,2.4185205158098166,-5.692625482283107,-3.291928210364974,0.11391075374384575,-0.27623491715844556,0.44255978275546987,-2.5916218511874827,0.4088438680941278,-2.4285416075934068
65,2.691487328267173,3.8912677603570174,0.7914940835433781,2.3829918503658036,-5.685885154442409,-3.2249416538913667,0.09611737013427052,-0.2764653839309637,0.4438355024558236,-2.538177893524807,0.40835529751042987,-2.476640585566387
66,2.6532233950350967,3.9009813775371622,0.8060628972373791,2.347215045761923,-5.679097750831577,-3.157487250184039,0.07833449524107565,-0.27572290139006106,0.44500229306653155,-2.4843251633057504,0.4076858628762187,-2.5251042965331174
67,2.6147212253553,3.9107554730177867,0.820722418345093,2.311215489911118,-5.672268087923571,-3.089612866193322,0.060630027728094865,-0.2740008395636328,0.44605692799295366,-2.4300972165328156,0.40683207044338615,-2.573894519722134
68,2.576008233017214,3.920583087580809,0.8354622091943533,2.2750188147258754,-5.6654010284817735,-3.0213668289118516,0.043072552147271154,-0.27129857120335343,0.44699656673442967,-2.3755279325366288,0.4057910106877782,-2.6229724871010363
69,2.537112062070749,3.9304572035546137,0.8502717444423928,2.2386508674123915,-5.658501476114055,-2.9527978712519345,0.02573075046415987,-0.2676215488901242,0.44781876857253367,-2.320651508346195,0.4045603792734908,-2.67229895910962
70,2.4980605561249,3.9403707526078553,0.8651404227652559,2.202137681764745,-5.651574369826846,-2.8839550779229355,0.008672803587683811,-0.26298131676369996,0.44852150414449243,-2.2655024545188933,0.4031384947779517,-2.721834302338062
71,2.458881727646348,3.9503166235432614,0.8800575785472122,2.165505449459072,-5.6446246785791985,-2.8148878313086474,-0.008034209002042138,-0.25739545569104405,0.44910316480736556,-2.210115591985064,0.40152431300745606,-2.7715385686818865
72,2.4196037272580595,3.96028767009144,0.8950124935701711,2.1287804913477366,-5.637657395836863,-2.745645757344668,-0.024324903286319016,-0.2508874617770511,0.44956256971640096,-2.15452604943654,0.3997174377671066,-2.8213715754801916
73,2.3802548130378955,3.9702767187046817,0.909994408703094,2.0919892287534987,-5.630677534126348,-2.676278671395779,-0.04013617017131225,-0.24348655922867354,0.4498989705598447,-2.0987692607716615,0.39771812798575434,-2.871292986127604
74,2.3408633198172084,3.980276576350766,0.924992535591409,2.055158154763692,-5.623690119588994,-2.6068365241333202,-0.05540773232622585,-0.23522744968404505,0.4501120539121553,-2.042880962101824,0.395527301134724,-2.9212623906438857
75,2.301457628479448,3.990280038306765,0.9399960683464235,2.0183138055243908,-5.616700186535038,-2.537369347412569,-0.0700826706728612,-0.22615000118661913,0.4502019411878088,-1.9868971878266932,0.3931465329181368,-2.971239385688435
76,2.2620661352587605,4.00027989595285,0.9549941952347387,1.9814827315345835,-5.609712771997684,-2.4679272001501094,-0.0841079132888668,-0.2162988809959829,0.4501691861984345,-1.9308542652966962,0.39057805325173883,-3.0211836535199303
77,2.2227172210385975,4.010268944566091,0.9699761103676616,1.944691468940346,-5.602732910287168,-2.3985601142012207,-0.09743468011499387,-0.20572313735850983,0.45001477033660253,-1.874788807602121,0.387824738585477,-3.071055039423625
78,2.1834392206503086,4.02023999111427,0.9849310253906205,1.9079665108290107,-5.595765627544832,-2.3293180402372404,-0.11001887761280235,-0.19447573619108524,0.4497400954299677,-1.8187377040572392,0.384890100661994,-3.1208136271598153
79,2.144260392171757,4.030185862049676,0.9998481811725768,1.8713342785233376,-5.588815936297186,-2.2602507936229532,-0.12182143838591701,-0.18261305934120267,0.4493469743293334,-1.7627381079848408,0.3817782718379312,3.112765495153921
80,2.105208886225908,4.040099411102918,1.0147168594954397,1.8348210928756912,-5.581888830009976,-2.1914080002939533,-0.13280860173476175,-0.17019437166133689,0.448837619313369,-1.706827421449844,0.37849398712692556,3.0633509360115903
81,2.0663127152794427,4.049973527076722,1.0295263947434794,1.7984531455622068,-5.574989277642258,-2.122839042634037,-0.1429521321390608,-0.15728126456295302,0.44821462841084103,-1.6510432766396645,0.37504256315184553,3.0141667763442452
82,2.027599722941356,4.059801141639745,1.0442661855927398,1.762256470376964,-5.56812221820046,-2.0545930053525656,-0.1522294737302923,-0.14393708398801996,0.44748096975818036,-1.5954235136416788,0.3714298742187739,2.965251276867161
83,1.9890975532615598,4.069575237120369,1.0589257067004536,1.7262569145261604,-5.561292555292454,-1.9867186213618497,-0.1606238399027991,-0.13022635084980297,0.4466399641257067,-1.5400061544237968,0.3676623257461458,2.916642124842109
84,1.9508336200294847,4.079288854300514,1.0734945203944546,1.6904801099222786,-5.554505151681622,-1.919264217654523,-0.16812423829257644,-0.11621418195057172,0.44569526575974167,-1.484829372880798,0.36374682529910674,2.8683763773182336
85,1.9128350760726822,4.088935100209439,1.0879622883625912,1.654951444478266,-5.547764823840924,-1.8522776611809157,-0.17472543240266875,-0.10196571918625415,0.44465084169996516,-1.4299314608657652,0.35969075149153634,2.82049040811396
86,1.8751287825554308,4.098507155917547,1.1023187833421415,1.6196960334016959,-5.5410763365069675,-1.7858063047264383,-0.18042784215083785,-0.08754557450544413,0.44351094974159255,-1.3753507901812483,0.35550192102614736,2.7730198585660553
87,1.837741278277337,4.107998284330191,1.1165539008092245,1.5847386904889478,-5.5344443972340756,-1.7198969327889517,-0.1852373865379653,-0.07301729761443064,0.44228011522016714,-1.32112577055742,0.3511885541470095,2.7259995920180256
88,1.8006987489719326,4.117401837981475,1.1306576706682159,1.550103899419377,-5.527873650948352,-1.6545957074561453,-0.1891652724662689,-0.058442872826019045,0.4409631068028772,-1.2672948036938516,0.34675923877868997,2.6794636519697783
89,1.764026996605287,4.126711266828066,1.144620268941159,1.5158157850494833,-5.521368674501752,-1.5899481142829148,-0.19222773445967634,-0.043882250755273806,0.4395649114743342,-1.2138962334863508,0.3422228936224505,2.633445223764877
90,1.7277514086746018,4.135920126042988,1.1584320294571815,1.4818980847070864,-5.514933971226151,-1.5259989081687384,-0.19444573064266374,-0.029392919789240343,0.43809070890660556,-1.1609682926002973,0.33758873047287075,2.5879765996512196
91,1.6918969275068165,4.145022083809437,1.1720834555419057,1.448374119485496,-5.508573965487412,-1.4627920592350505,-0.19584460081019095,-0.015029521420767421,0.4365458454030811,-1.1085490455865228,0.33286621600825556,2.543089147016227
92,1.6564880195572127,4.15401092911458,1.1855652317068657,1.4152667655376838,-5.502292997239451,-1.4003706987026208,-0.19645369276524605,-0.000843512659908556,0.4349358076034594,-1.056676328764741,0.3280650332957133,2.498813279568759
93,1.621548644708012,4.162880579543361,1.1988682353389168,1.3825984253704542,-5.496095316578309,-1.338777064768931,-0.19630596331076983,0.013117122158834253,0.43326619613289635,-1.0053876871228058,0.32319504323725723,2.45517843121714
94,1.5871022255669827,4.171625089072305,1.2119835483896522,1.350390999138619,-5.4899850782962165,-1.278052448485548,-0.1954375603615429,0.026808108748479668,0.43154269937222833,-0.9547203084977286,0.31826624616721744,2.4122130323757047
95,1.5531716167660439,4.180238655863325,1.2249024690648154,1.318665855939166,-5.483966336435666,-1.218237139635506,-0.19388739259438664,0.04018906886787779,0.4297710675183627,-0.9047109553167229,0.3132887437939058,2.3699444884210963
96,1.5197790742598598,4.188715630057522,1.237616523513713,1.2874438051054296,-5.478043038843474,-1.1593703726106748,-0.19169669288992408,0.05322365522673683,0.42795708709449126,-0.8553958941836955,0.30827270166052567,2.3283991600135696
97,1.4869462246244511,4.197050521568995,1.2501174775186303,1.2567450675012686,-5.472219021724856,-1.1014902722891469,-0.18890858154680876,0.06587963635650258,0.4261065560589792,-0.8068108235992539,0.30322831228192265,2.2876023449977625
98,1.454694034355795,4.205238007878644,1.2623973481842423,1.226589246815235,-5.466498004197488,-1.0446337999126039,-0.1855676348823307,0.07812893321736586,0.4242252596497466,-0.7589908001007377,0.2981657590953393,2.247578261600675
99,1.4230427791684268,4.213272941827971,1.2744484156270297,1.1969953008547396,-5.460883582845581,-0.988836698963695,-0.18171946438572611,0.08994760994445969,0.42231894708791934,-0.7119701631036549,0.29309518134527035,2.208350032652102
100,1.3920120132940426,4.2211503594128885,1.2862632346646892,1.1679815128402327,-5.455379226273943,-0.9341334410434232,-0.17741031107739916,0.10131582168284417,0.42039330925067386,-0.6657824587176353,0.2880266400049514,2.16993967056335
101,1.3616205387801008,4.228865487577526,1.2978346465055517,1.1395654626993745,-5.449988269662051,-0.8805571717485066,-0.17268665916416406,0.11221772291588053,0.41845395740874297,-0.6204603627993169,0.2829700848202016,2.132368062813447
102,1.331886374788425,4.236413752008028,1.3091557904379907,1.1117639983611989,-5.444713909318118,-0.8281396565487631,-0.16759487248310687,0.12264134005243708,0.41650640310922576,-0.5760356034919097,0.2779353225455085,2.095654957707656
103,1.3028267268938145,4.2437907849263645,1.3202201155198408,1.0845932070502942,-5.4395591972331605,-0.77691122666449,-0.16218085660995907,0.1325784123049868,0.4145560392693117,-0.5325388834868815,0.2729319864275068,2.059818950190262
104,1.2744579563826295,4.250992432884134,1.3310213922678056,1.0580683865809721,-5.434527035635067,-0.7269007249438291,-0.1564897488863253,0.1420242050651837,0.4126081225315504,-0.4899998022281094,0.267969506977376,2.024877467511878
105,1.2467955495514147,4.258014764556369,1.3415537243468767,1.032204016651436,-5.429620171542665,-0.6781354517401592,-0.15056563800711165,0.15097730007016563,0.41066775691651064,-0.44844677826299834,0.26305708406135114,1.9908467545706268
106,1.2198540870054835,4.264854078535336,1.3518115602597445,1.00701373013796,-5.4248411913197945,-0.6306411107894583,-0.1444513142169139,0.1594393666576243,0.4087398787943019,-0.40790697192898207,0.25820366032745456,1.9577418587656341
107,1.1936472129575342,4.271506911124346,1.361789705036212,0.9825102843890505,-5.420192515229367,-0.5844417550876866,-0.1381880506024672,0.16741491833791555,0.4068292431826154,-0.36840620854796324,0.25341789597674136,1.925576614220587
108,1.1681876045262416,4.277970044131557,1.3714833319226076,0.9587055325196312,-5.415676391987439,-0.5395597327681623,-0.1318154154461633,0.17491105877564034,0.4049404113658558,-0.32996890228550213,0.24870814487876702,1.8943636252537284
109,1.1434869410348685,4.2842405126637795,1.3808879940712018,0.9356103947051975,-5.411294893317283,-0.49601563297893403,-0.12537111513020485,0.18193722108040677,0.40307773981770006,-0.29261798081656837,0.24408243202362537,1.8641142489888594
110,1.119555873309868,4.290315612920278,1.3899996362296145,0.9132348294760089,-5.407049908503449,-0.4538282317601654,-0.11889086665737106,0.18850490406647002,0.4012453703981603,-0.25637481092521003,0.2395484322966792,1.8348385770190687
111,1.096403992979471,4.296192909986578,1.3988146064302367,0.8915878050112394,-5.402943138945834,-0.41301443792150394,-0.11240829848620648,0.19462740886343252,0.3994472217860374,-0.22125912515188845,0.23511345055697008,1.8065454160511516
112,1.0740398017723143,4.3018702456282725,1.407329667679637,0.870677270433168,-5.398976092713756,-0.37358923891946194,-0.10595487806772926,0.20031957895467328,0.3976869820986248,-0.18728894958948977,0.23078440299615155,1.7792422674738269
113,1.0524706808160191,4.307345746084824,1.4155420096479792,0.8505101271013418,-5.395150079100015,-0.3355656467347874,-0.09955986421782165,0.20559754639596525,0.3959681026426797,-0.15448053291715969,0.22656779975152286,1.75293530580653
114,1.031702859935813,4.312617829863369,1.4234492603584326,0.83109219990674,-5.3914662031749625,-0.2989546437498545,-0.09325028226369683,0.2104784866323082,0.3942937927341195,-0.12284827675011582,0.22246972874438142,1.7276293559984113
115,1.0117413869531187,4.317685215532524,1.4310494978765913,0.812428208565962,-5.387925360340575,-0.26376512862601587,-0.08705091976202109,0.21498038399429542,0.39266701551856675,-0.09240466737336414,0.21849584071322609,1.7033278695582759
116,0.9925900969841566,4.322546929516189,1.438341261999881,0.7945217389153876,-5.384528230884515,-0.23000386218099944,-0.08098434049766592,0.21912180962322758,0.39109048472083846,-0.06316020891809,0.2146513354102338,1.6800328995064115
117,0.9742515817385606,4.327202313887356,1.445323565946975,0.7773752142053509,-5.381275274534201,-0.19767541326628102,-0.07507091443183284,0.22292171325272714,0.38956666224866277,-0.035123358030594486,0.21094094892903176,1.65774507414807
118,0.9567271588179724,4.331651034161906,1.4519959080472102,0.7609898663943189,-5.37816672501088,-0.16678210464445709,-0.06932886127219845,0.22639922996874207,0.3880977565743242,-0.008300460075801513,0.20736894213163887,1.6364635696760053
119,0.9400168410146343,4.335893087092422,1.4583582834299957,0.7453657074430464,-5.37520258458369,-0.13732395886661664,-0.06377430538105922,0.22957350278354488,0.3866857218175107,0.01730431309018675,0.2039390901427764,1.6161860816160847
120,0.9241193056100112,4.339928808461987,1.4644111957142352,0.7305015006087752,-5.372382618623729,-0.10929864414973167,-0.058421339815281824,0.23246352159552508,0.3853322574532798,0.041689023751119006,0.20065467288035302,1.5969087951356364
121,0.9090318636733841,4.343758880877993,1.4701556686977262,0.7163947317393715,-5.369706350158127,-0.08270142025401217,-0.05328209739905942,0.23508797886730542,0.3840388085707621,0.06485402734454078,0.19751846659149977,1.5786263542386665
122,0.894750429360446,4.347384341565944,1.4755932580465896,0.7030415805675285,-5.367173054424111,-0.057525084360317,-0.04836682686214938,0.23746514214093073,0.38280656661075124,0.08680202984461179,0.19453273636456597,1.5613318298760988
123,0.8812694892119093,4.350806590163262,1.4807260629846695,0.6904368920049211,-5.364781753423071,-0.03375991694748848,-0.04368397222737636,0.23961274332095467,0.3816364705137677,0.10753814350622068,0.19169922958801705,1.5450166870021955
124,0.8685820714521189,4.354027396513088,1.4855567379829575,0.6785741474363798,-5.362531210474634,-0.011393627669757045,-0.03924025379714091,0.24154788449356573,0.38052920821421143,0.12706994096918836,0.1890191703280932,1.529670750610882
125,0.8566797152876404,4.35704890845809,1.490088504448998,0.6674454360140691,-5.360419924770725,0.00958869876588686,-0.03504074926499507,0.24328695991140356,0.3794852184208913,0.14540750772812233,0.1864932545974541,1.5152821707877007
126,0.8455524402058661,4.359873659634268,1.4943251624163074,0.6570414259516486,-5.358446125929642,0.029204656722329858,-0.03108897366097683,0.24484559365766756,0.3785046926292559,0.16256349298016365,0.1841216464873423,1.5018373868148505
127,0.8351887152736226,4.362504577264758,1.4982711022337851,0.6473513358184557,-5.356607768550118,0.04747457375493713,-0.02738695702452017,0.24623859240745918,0.3775875773160313,0.1785531588699784,0.18190397513566983,1.4893210903681866
128,0.8255754284357666,4.364944989953633,1.5019313162551253,0.6383629058336742,-5.354902526765395,0.06442156473419747,-0.02393531888295334,0.24747991262654684,0.37673357627245196,0.19339442815892952,0.17983933250285752,1.4777161878462977
129,0.8166978558137994,4.367198635479715,1.5053114105282364,0.630062369160493,-5.3533277887972845,0.0800715859683292,-0.02073333879383377,0.24858264148525697,0.3759421530377855,0.20710793035317807,0.17792627192616745,1.4670037618732015
130,0.8085396310044493,4.369269668590371,1.5084176164846477,0.6224344232003034,-5.351880651510244,0.09445348932591635,-0.01777902238279571,0.24955899071514967,0.37521253340019917,0.2197170463341022,0.17616280742159315,1.4571630320174649
131,0.8010827143782957,4.371162668795326,1.5112568026289266,0.6154622008868444,-5.3505579149654405,0.10759907635853239,-0.01506916247285189,0.2504203025957328,0.3745437079370572,0.23124795154336153,0.17454641369989538,1.448171314772329
132,0.7943073623783596,4.372882648160462,1.5138364862280924,0.6091272419803992,-5.349356076974815,0.1195431524233479,-0.01259939505393536,0.25117706722482475,0.3739344345713615,0.24172965778477434,0.1730740268602473,1.4400039828432147
133,0.7881920968187042,4.374435059101626,1.5161648450010277,0.6034094643619401,-5.348271327655161,0.1303235808057721,-0.010364249981057989,0.25183895019669283,0.3733832411250482,0.2511940537155878,0.171742045720782,1.4326344237914854
134,0.7827136741830523,4.375825802178429,1.5182507288078957,0.5982871353273231,-5.3472995439821815,0.1399813368420766,-0.008357196414096872,0.2524148297841544,0.3728884278531439,0.25967594411092026,0.17054633374043082,1.4260339980861492
135,0.7778470549233658,4.37706123388806,1.5201036713395482,0.5937368428814511,-5.3464362843445645,0.1485605620420003,-0.0065706831204074955,0.2529128426922264,0.37244806994522317,0.26721308799708593,0.169482221480234,1.420171996618704
136,0.7735653727584677,4.378148174459083,1.5217339018069422,0.5897334670324437,-5.345676783098046,0.15610861821138133,-0.004996173852082658,0.25334043741956164,0.3720600199820487,0.2738462357624214,0.1685445095452222,1.4150155977404981
137,0.7698399039726449,4.379093915645244,1.5231523566305567,0.5862501510858058,-5.345015945119484,0.16267614157481258,-0.0036241780815342867,0.2537044342281636,0.37172191033565033,0.27961916536783016,0.16772747193958998,1.4105298238868775
138,0.7666400367142296,4.379906228519276,1.5243706911298005,0.5832582729386142,-5.344448340360919,0.16831709689818908,-0.0024442774315030515,0.254011090680292,0.37143115550028094,0.2845787177936263,0.1670248597582612,1.4066774978580334
139,0.7639332402942292,4.380593371266704,1.5254012912124255,0.5807274163736715,-5.343968198403648,0.1730888316114223,-0.001445148167973667,0.25426617165307025,0.3711849543396218,0.2887748318750663,0.16642990512705697,1.4034191988331484
140,0.7616850344849047,4.381164096979648,1.5262572850639498,0.5786253423536913,-5.343569403012292,0.17705212993100616,-0.000614580136433767,0.2544750226853054,0.3709802922322311,0.29226057869470234,0.1659353252915037,1.400713218201611
141,0.7598589588183957,4.381627661450631,1.5269525548370597,0.5769179603154586,-5.343245486688863,0.18027126698263984,6.0507486385487884e-05,0.2546426454471111,0.3708139430925399,0.29509219571731266,0.16553332674065696,1.3985155153035318
142,0.7584165418853055,4.38199383096638,1.527501748341026,0.5755692994640089,-5.342989625226827,0.18281406292389946,0.0005940532814639192,0.25477377405088414,0.3706824712386232,0.2973291208711562,0.16521560923745962,1.3967796731807813
143,0.7573172706333073,4.382272890101629,1.5279202907311238,0.5745414800668054,-5.342794632265183,0.18475193706678983,0.001000843220684773,0.25487295084223016,0.3705822330706568,0.29903402679802377,0.16497336961083128,1.3954568544498391
144,0.7565185596657633,4.382475649512934,1.5282243961980382,0.5737946847478903,-5.342652953842521,0.18615996200044194,0.0012965026129621196,0.25494460022181303,0.3705093785153712,0.3002728555149112,0.16479730514705102,1.3944957574185253
145,0.7559757205402917,4.382613453732464,1.5284310796572838,0.5732871297820838,-5.342556662951098,0.18711691771368333,0.001497490212931829,0.2549930989542294,0.37045985218210037,0.3011148537503999,0.16467761639931092,1.3938425725802062
146,0.755641931067415,4.382698188961816,1.5285581684386151,0.5729750363891348,-5.342497454090897,0.1877053457176805,0.00162109443585312,0.2550228413183574,0.3704293941653439,0.3016326092408439,0.16460400921417834,1.3934409396315233
147,0.7554682046091226,4.382742290865812,1.5286243139754376,0.5728126020279003,-5.342466637823705,0.1880116031685608,0.0016854317261157316,0.2550382973455173,0.3704135404172984,0.30190208829377074,0.16456569575293045,1.3932319051724085
148,0.7554033593774903,4.382758752366311,1.528649003494229,0.572751971690515,-5.342455135327172,0.18812591699004866,0.0017094472356596717,0.25504406227746823,0.3704076226018276,0.302002674949329,0.16455139426392096,1.3931538812609037
149,0.7553939877332927,4.38276113143601,1.5286525717039454,0.5727432091965707,-5.342453472948888,0.18814243799606345,0.0017129180775044203,0.2550448952556984,0.37040676732919986,0.3020172120947031,0.16454932733978944,1.393142605009089
