nimar13/UR3e_dataset_trayectorias/data/trayectorias_completas_UR3e_QUINTIC/trayectoria_265.csv
Punto,shoulder_pan_joint,shoulder_lift_joint,elbow_joint,wrist_1_joint,wrist_2_joint,wrist_3_joint,Posicion_X,Posicion_Y,Posicion_Z,Roll,Pitch,Yaw
0,0.03087709696727355,3.8187379889086355,2.1224344201656695,-2.734111635709866,5.972036570408662,6.208979613043112,0.03825503535032963,0.2203538339104321,0.46826254874933415,3.128122256408262,0.026511022236702892,1.2900190713052968
1,0.030879146297793623,3.8187400222687633,2.1224265209093303,-2.734102794515422,5.9720198699553615,6.208968870286928,0.038256203666177636,0.22035348974280292,0.46826392153194546,3.128113932677708,0.026512939643166675,1.2900044717053816
2,0.030893326233507327,3.818754091700518,2.1223718635732016,-2.734041619625564,5.971904314484017,6.208894537918102,0.038264287252141725,0.2203511078131188,0.46827341990405047,3.128056336995725,0.026526209147088548,1.2899034528555382
3,0.030931315611422244,3.818791785027961,2.1222254314426228,-2.733877726357172,5.971594730536691,6.208695394529327,0.03828594097732056,0.22034472183495893,0.4682988641380882,3.1279020217262246,0.026561779977821037,1.289632815461851
4,0.03100430653378205,3.8188642071335037,2.1219440839486468,-2.7335628298917616,5.970999911166033,6.208312770216259,0.038327533276003405,0.22033243347236176,0.46834774001171575,3.1276054828111386,0.026630208139125842,1.289112832548501
5,0.031123011081649464,3.818981986619173,2.1214865307901674,-2.7330507163118387,5.970032561224781,6.207690511384373,0.03839514046421746,0.2203123965988121,0.46842719435887165,3.1271230969262596,0.02674172848915196,1.2882672067054937
6,0.031297668028489205,3.8191552824678743,2.1208133060560477,-2.732297213637245,5.968609242655272,6.206774945555821,0.03849453813810062,0.2202827971799672,0.4685440279489387,3.1264130474911704,0.02690634633504011,1.2870230288847526
7,0.03153804955375091,3.819393790704656,2.1198867423472465,-2.731260162861511,5.966650319778957,6.205514846176283,0.03863119009097614,0.2202418295881125,0.46870468619791067,3.1254352408755026,0.02713394466100053,1.285310738498455
8,0.031853467956452136,3.819706751057972,2.11867094489895,-2.7298993889882026,5.964079904585901,6.203861397421823,0.038810235114624884,0.22018767010734125,0.46891524818988006,3.124151213749188,0.027434403217574076,1.2830640846025443
9,0.03225278236876127,3.8201029536209496,2.117131765702695,-2.7281766720672733,5.960825802024304,6.201768159005752,0.03903647197990031,0.22011844834205077,0.469181414463643,3.1225240321342596,0.027817725789846103,1.2802200879723136
10,0.032744405469580504,3.820590745512651,2.1152367776285024,-2.726055718231414,5.956819455289996,6.199191030985474,0.03931434282521265,0.2200322171975751,0.46950849399772965,3.1205181823504904,0.028294172038084327,1.2767190038920753
11,0.033336310198128744,3.8211780375393354,2.112955248547,-2.7235021307324017,5.95199589111596,6.196088218569346,0.03964791512072593,0.2199269220607413,0.4699013908077846,3.118099453723722,0.028874390367773083,1.2725042854836106
12,0.03403603646752463,3.821872310855729,2.110258115451555,-2.7204833809774502,5.94629366506183,6.192420196923536,0.040040862323245136,0.21980036977004133,0.4703645905531198,3.1152348126585228,0.029569548338268577,1.2675225473842642
13,0.034850697878369426,3.822680623626283,2.1071179585804,-2.716968779565559,5.93965480680341,6.188149675978876,0.04049644329313191,0.2196501979301527,0.47090214753462045,3.1118922674772316,0.030391457160277843,1.2617235295515785
14,0.03578698843232999,3.8236096176864423,2.1035089755387606,-2.712929447323863,5.932024765422173,6.183241565237714,0.04101748051134187,0.21947384509390844,0.471517672454185,3.1080407233044656,0.031352686861976606,1.2550600609135705
15,0.036851189245721734,3.824665525203906,2.0994069554209847,-2.7083382863439853,5.923352354694779,6.17766293858078,0.0416063371126013,0.21926852230663427,0.4722143212965569,3.103649826236323,0.03246666872218759,1.247488022499058
16,0.03804917526309157,3.8258541753398947,2.0947892529326704,-2.703169951018383,5.91358969838258,6.17138299907403,0.04226489274038458,0.21903118648308523,0.47299478568775377,3.0986897960810262,0.03374778157791049,1.2389663095683892
17,0.03938642197080083,3.8271810009104126,2.089634762512793,-2.6974008190766985,5.90269217552113,6.16437304377551,0.04299451823097961,0.21875851606594596,0.4738612850800672,3.0931312470946266,0.035211418615290944,1.2294567921198918
18,0.040868012110608296,3.828651045047512,2.083923892455836,-2.691008962622111,5.890618365709694,6.156606428542207,0.04379604914757995,0.21844688939682375,0.47481556111139944,3.086944996361333,0.03687403125223012,1.2189242729711924
19,0.042498642393253044,3.830268967860558,2.0776385390339143,-2.6839741191676834,5.877329994400759,6.148058532836909,0.04466975821082205,0.21809236621546918,0.47585887448588254,3.0801018597806236,0.03875314672340581,1.2073364424084683
20,0.044282630212037474,3.832039053097493,2.0707620606189074,-2.6762776626727143,5.862791878189537,6.138706724535054,0.04561532670912625,0.21769067269017187,0.47699200472247566,3.072572436017597,0.04086735599262256,1.1946638281643773
21,0.046223920356410236,3.8339652148060983,2.063279251804585,-2.667902574579087,5.846971870103483,6.128530324731593,0.04663181501996522,0.2172371903711915,0.47821525311743873,3.0643268792417517,0.04323626865297843,1.180879739232945
22,0.04832609172554919,3.8360510039952613,2.055176317528734,-2.6588334148476203,5.829840804891799,6.117510572547842,0.04771763243103193,0.21672694944893794,0.4795284492640041,3.05533466201277,0.04588043154363247,1.1659602017665205
23,0.0505923640419443,3.8382996152962385,2.046440847195289,-2.6490562929944157,5.811372444314945,6.105630589938338,0.048870506517129354,0.21615462668850993,0.48093096146671005,3.0455643302573443,0.048821207925311715,1.1498838850393613
24,0.05302560456498068,3.8407138936239194,2.0370617887964597,-2.6385588391272106,5.791543422434144,6.092875346497693,0.05008745240330584,0.21551454840106124,0.4824217113771051,3.0349832529038476,0.05208061422802034,1.1326320152218081
25,0.05562833480452149,3.84329634083809,2.0270294230348576,-2.627330174981726,5.7703331909009,6.079231624267454,0.051364742325793286,0.21480069879925415,0.483999193160157,3.02355736938445,0.05568111162610706,1.1141882745107792
26,0.058402737234490854,3.8460491224046987,2.0163353374456263,-2.6153608849580166,5.7477239642464975,6.064687982542953,0.05269787598801173,0.2140067340675295,0.48566149747486476,3.01125093885827,0.059645350019497244,1.0945386830331574
27,0.06135066200645688,3.8489740740571188,2.004972400518568,-2.602642987156821,5.723700665171516,6.04923472268017,0.054081552297285,0.213126002456932,0.48740634051653725,2.998026295634709,0.06399586241483428,1.0736714609104743
28,0.06447363366321458,3.8520727084574133,1.9929347358202716,-2.589169904415912,5.69825086983534,6.032863852902582,0.05550964315680147,0.21215157068756343,0.4892310983201984,2.983843615864076,0.06875470821336825,1.051576867981663
29,0.06777285785236879,3.855346221857599,1.9802176961162417,-2.5749364353464443,5.671364753145664,6.015569053108022,0.056975170074174006,0.21107625690821766,0.49113284646310246,2.9686607010960127,0.0739430645265849,1.0282470189647277
30,0.07124922803991719,3.858795500760911,1.9668178374930265,-2.5599387253693076,5.643035034048006,5.997345639675531,0.05847028443002372,0.2098926704213194,0.4931084052280429,2.952432784772546,0.07958076535519934,1.0036756723385876
31,0.07490333222383319,3.8624211285830663,1.9527328934803452,-2.5441742377514736,5.613256920815216,5.978190530272222,0.059986252324269296,0.20859325833095688,0.4951543901971057,2.9351123681161537,0.08568578927702288,0.97785799198399
32,0.07873545964764887,3.866223392313527,1.9379617491732168,-2.5276417246423475,5.58202805633698,5.958102208660126,0.06151344498105149,0.20717035921172838,0.497267268137206,2.9166490921976562,0.09227369718585161,0.9507902816754907
33,0.08274560751403803,3.8702022891767673,1.922504415354088,-2.5103411981101162,5.549348463409336,5.937080689503052,0.06304133574204836,0.20561626382567477,0.4994434179142314,2.8969896532397983,0.09935702259532647,0.9224696938989536
34,0.08693348769839908,3.8743575332935345,1.9063620026149608,-2.4922739011781,5.515220490024182,5.915127483173445,0.06455850470885427,0.20392328283330763,0.5016791960325331,2.876077768459256,0.10694461805636944,0.8928939162067512
35,0.09129853346243791,3.878688562342115,1.889536695479522,-2.473442278861102,5.479648754658782,5.892245560559238,0.0660526521045923,0.2020838213524822,0.5039710062423044,2.853854200016618,0.11504096232334962,0.8620608404318886
36,0.09583990616775091,3.8831945442195974,1.8720317265252697,-2.4538499492017567,5.442640091565275,5.868439317870709,0.06751062140956057,0.2000904601157028,0.5063153724912447,2.8302568449883365,0.12364543403612997,0.8299682225654055
37,0.10055650198940809,3.8878743837031378,1.853851350505642,-2.43350167430688,5.404203496060191,5.843714541447335,0.06891843328229387,0.1979360428628,0.5087090143218768,2.805220899765037,0.13275155886460988,0.7966133439454
38,0.10544695862953567,3.892726729111223,1.8350008184721451,-2.4124033313838202,5.36435006981395,5.818078372564654,0.07026133120307637,0.19561376948252296,0.51114892363593,2.77867910799001,0.14234623830316043,0.7619926875783446
39,0.11050966203089929,3.8977499789649346,1.8154863518964823,-2.390561883776809,5.323092966140382,5.79153927224111,0.07152383966932618,0.19311729428454313,0.5136324415670991,2.750562102147458,0.15240896963395795,0.7261016468576377
40,0.11574275309048698,3.9029422886492138,1.7953151167926804,-2.3679853520033065,5.280447335286226,5.764106986044919,0.07268983562974538,0.19044082864417394,0.5161573340288874,2.7207988502404006,0.16291106804837893,0.6889342875740267
41,0.12114413437309195,3.9083015770741247,1.7744951978392187,-2.344682784790356,5.236430269720646,5.735792508900918,0.07374263366582512,0.18757924711759327,0.518721864341544,2.68931722067238,0.17381490359060825,0.6504831878021231
42,0.12671147682489556,3.9138255333361194,1.7530355725011577,-2.3206642301109315,5.191060749424739,5.706608049897425,0.07466508521545061,0.18452819597783543,0.5213248611982798,2.656044680412225,0.18507316755082687,0.6107393838183823
43,0.13244222648705054,3.9195116233793015,1.730946085152266,-2.295940706220288,5.144359587181044,5.676566997093092,0.07543969188525543,0.18128420297389675,0.5239657801134825,2.6209091436326153,0.1966281852799299,0.569692453409937
44,0.1383336112092635,3.92535709665669,1.708237421197149,-2.270524172692311,5.096349373863046,5.645683882323759,0.07604873261870529,0.17784478697007658,0.5266447564121683,2.58383999000232,0.20841129521583718,0.5273307704275237
45,0.1443826473633782,3.931358992791484,1.684921081193377,-2.2444275014558666,5.047054423724696,5.613974346009316,0.07647440417958665,0.17420856598352227,0.529362647778018,2.5447692732524922,0.2203423172740956,0.4836419657557376
46,0.1505861465569584,3.9375141482383267,1.6610093549736136,-2.217664447831152,4.9965007196899105,5.581455101960553,0.07669897408111324,0.17037536200865305,0.5321210643843264,2.5036331409149706,0.2323291376858395,0.4386136294083789
47,0.1569407223468709,3.943819202944569,1.636515295767743,-2.190249621566043,4.944715858642086,5.548143902186016,0.07670494474603282,0.16634630090174812,0.5349223846945079,2.460373484425618,0.24426744180256907,0.3922342854289348
48,0.16344279695286826,3.9502706070115345,1.6114526943249987,-2.162198457872448,4.891728996713603,5.514059501698867,0.07647522733112831,0.16212390550177688,0.5377697551419807,2.4149398340803474,0.25604063113755743,0.34449466474648927
49,0.17008860797117206,3.9568646273557837,1.5858360530360918,-2.133527188462653,4.837570794575344,5.479221623323735,0.07599332329976176,0.15771218008900723,0.5406670720872813,2.367291504461141,0.2675199656045603,0.2953892900479215
50,0.1768742150880557,3.9635973543703757,1.559680560055338,-2.104252812585674,4.782273362726192,5.443650922503572,0.0752435114890178,0.15311668423556068,0.5436189447054208,2.31739998172028,0.2785649759403198,0.24491837000964564
51,0.18379550679342702,3.970464708586137,1.5330020634227874,-2.0743930680636082,4.725870206782551,5.407368952106514,0.07421103810472428,0.14834459408637055,0.546630637778844,2.265251523509961,0.28902419378359184,0.19308997700649277
52,0.19084820709441205,3.9774624473329205,1.505817045186351,-2.04396640232798,4.668396172767844,5.370398127232729,0.0728823067997067,0.14340474912928092,0.5497079937587098,2.2108499148555576,0.29873624668099347,0.13992245229623035
53,0.19802788222893708,3.984586171400873,1.4781425955239298,-2.0129919434560946,4.6098873924020305,5.33276169002128,0.07124506575961191,0.13830768257322573,0.552857333904598,2.1542192892986254,0.3075313610276463,0.08544694618826067
54,0.20532994737931234,3.9918313317016985,1.4499963868655423,-1.981489471207385,4.550381228391111,5.294483674456973,0.0692885885475996,0.13306563355710288,0.5560853388126452,2.0954068859881327,0.31523330617215745,0.02970995975056814
55,0.21274967338581438,3.9991932359299223,1.4213966480154525,-1.9494793880597636,4.48991621971664,5.255588871177223,0.0670038453542926,0.1276925395618322,0.5593989091841549,2.03448557372784,0.32166179632590175,-0.027224287084204442
56,0.2202821934602694,4.006667055224154,1.3923621382742994,-1.9169826902459712,4.428532026925231,5.216102792278897,0.06438366127132368,0.12220400759615448,0.5628050082579207,1.9715559380145027,0.3266353427396854,-0.08527187281739786
57,0.22792250989963603,4.014247830828355,1.3629121215612234,-1.8840209387899276,4.366269377418069,5.176051636125179,0.061422858262425765,0.11661726297379392,0.5663104879145574,1.9067477043929264,0.32997451702713737,-0.14432781294078761
58,0.2356655007995882,4.021930480753096,1.333066340535995,-1.8506162305430807,4.30317001074042,5.135462252152426,0.05811837764976821,0.11095107479531736,0.569921901042583,1.8402202695351864,0.33150554909179375,-0.20426555851624023
59,0.24350592676809835,4.02970980643683,1.3028449907211432,-1.816791169220756,4.2392766238711355,5.094362105677014,0.05446938016688503,0.10522565759051139,0.5736453033149597,1.7721621381459014,0.33106414309511534,-0.2649375675206372
60,0.25143843763902024,4.03758049940715,1.2722686946240827,-1.7825688364385066,4.174632816512169,5.052779242702206,0.05047732095182258,0.09946254896299492,0.5774860480414196,1.7027891239375097,0.3284993571666539,-0.32617710194436417
61,0.2594575791856719,4.045537147942053,1.241358475859244,-1.7479727627484645,4.109283036378079,5.010742254724999,0.046145997260604345,0.0936844635029907,0.5814485782160733,1.6323412659419176,0.32367736312659556,-0.38780131076456403
62,0.2675577998344186,4.05357424373121,1.210135733270199,-1.7130268986756885,4.043272524485536,4.968280243542984,0.0414815671641223,0.08791512368990027,0.5855362202520857,1.5610785296391076,0.31648488751839654,-0.44961554067693166
63,0.2757334573782555,4.061686188537222,1.1786222150517904,-1.6777555857545157,3.9766472604428476,4.925422786061199,0.03649253804025721,0.0821790689850114,0.5897509841674358,1.4892754908669255,0.3068321396413384,-0.5114186878394203
64,0.28397882569039123,4.069867300856893,1.1468399928722603,-1.6421835275649093,3.909453907739445,4.882199899098989,0.031189724273772552,0.07650144480617024,0.5940933751421422,1.4172153191656276,0.2946550582732075,-0.5730092849723245
65,0.29228810143783035,4.0781118225824855,1.114811435995377,-1.6063357607688096,3.841739759035409,4.8386420041968545,0.025586174213038895,0.070907773568908,0.5985622213949487,1.345183465068864,0.279916754969962,-0.6341919300517804
66,0.30065541079495645,4.08641392566299,1.0825591854025636,-1.5702376261464845,3.7735526814509726,4.794779892423315,0.019697067086813763,0.06542371045943418,0.6031545232172831,1.2734614960749548,0.2626080929993914,-0.6947836223652583
67,0.3090748161571152,4.094767718765389,1.0501061279150268,-1.533914739632878,3.7049410618560312,4.750644689181756,0.013539581236563986,0.060074787060355656,0.6078653277495464,1.2023215106122511,0.24274740893525562,-0.7546195868920783
68,0.3175403228541968,4.103167253935918,1.017475370315885,-1.4973929633539613,3.6359537521596517,4.706267819017297,0.0071327356500950345,0.054886146365613384,0.6126876336896371,1.1320214913191258,0.22037944927885997,-0.8135582357620609
69,0.3260458858642198,4.111606533261332,0.9846902134722941,-1.460698376663081,3.5666400145995825,4.661680970423634,0.0004972073706364828,0.04988227308270912,0.6176123295911402,1.0628018516543651,0.19557364854367684,-0.8714850226477835
70,0.33458541652691326,4.12007951553017,0.9517741264575788,-1.4238572471773105,3.4970494670317622,4.6169160606499045,-0.006344872116861355,0.04508672341397953,0.6226281687492696,0.9948833029922279,0.16842191193683045,-0.9283150725581759
71,0.3431527892573002,4.128580122894018,0.9187507206733594,-1.3868960018137986,3.4272320282198274,4.572005200507537,-0.013370137970710095,0.040521858721771775,0.6277217829016349,0.928466044038779,0.13903608252520427,-0.9839945944378217
72,0.35174184825928023,4.137102247528772,0.8856437239716781,-1.3498411978261213,3.357237863124625,4.526980659177111,-0.020554226639834514,0.03620858760376611,0.6328777361082013,0.8637301682538634,0.1075452705469937,-1.0385011894844822
73,0.3603464142392129,4.145639758295906,0.8524769547771303,-1.3127194938406281,3.2871173281937174,4.48187482901521,-0.02787201991086176,0.03216612092546291,0.6380786192443072,0.800837108998563,0.07409320501672265,-1.0918432429586171
74,0.3689602911194998,4.1541865074037325,0.819274296208991,-1.275557620892795,3.2169209166508983,4.436720190361282,-0.035297894049925754,0.028411744270780998,0.6433051845693245,0.7399318999085633,0.03883574015250646,-1.1440586276329696
75,0.3775772727521686,4.162736337068666,0.7860596702033427,-1.2383823534635745,3.1466992037856936,4.391549276344486,-0.042805969706688526,0.024960612075637427,0.6485365188508677,0.6811460166860915,0.0019386168228991872,-1.1952129553494815
76,0.38619114963245577,4.171283086176492,0.7528570116352025,-1.2012204805157407,3.0765027922428723,4.346394637690557,-0.05037035833495214,0.021825567403614063,0.6537502525607239,0.624600579072165,-0.03642445320104099,-1.245397595887903
77,0.39479571561238835,4.1798205969436255,0.7196902424406555,-1.164098776530248,3.0063822573119645,4.301288807528657,-0.05796540108076888,0.019016990911213706,0.6589228017442833,0.5704097193673683,-0.07607334157329788,-1.2947276475669465
78,0.40338477461436834,4.188342721578381,0.686583245738974,-1.12704397254257,2.9363880922167622,4.256264266198231,-0.0655658963864907,0.01654268204036604,0.6640296383293703,0.518683957816686,-0.11682268172153668,-1.3433399993277289
79,0.41195214734475527,4.1968433289422284,0.6535598399547542,-1.0900827271790585,2.8665706534048283,4.2113534060558635,-0.07314731294563408,0.014407774878811785,0.6690455839096574,0.4695334581036139,-0.15848267502603292,-1.3913915754164061
80,0.4204916780074487,4.2053163112110665,0.620643752940039,-1.0532415976932883,2.796980105837007,4.166588496282133,-0.0806859851037332,0.012614690459184653,0.6739451214357108,0.4230710625446074,-0.20085954174173515,-1.439057804859669
81,0.42899724101747183,4.213755590536481,0.5878585960964484,-1.0165470110024082,2.7276663682769375,4.122001647688471,-0.08815928831721256,0.011163126542206143,0.678702718792004,0.37941502246952435,-0.24375564251930304,-1.486531310136541
82,0.4374627477145535,4.22215512570701,0.5552278384973064,-0.980025234723491,2.6586790585805584,4.0776247775240115,-0.09554579283698987,0.010050085167985928,0.6832931579448405,0.3386913421580243,-0.28696930268040066,-1.5340207623103774
83,0.4458821530767119,4.2305089188094085,0.52277478100977,-0.9437023482098854,2.590067438985617,4.033489574282454,-0.10282539435667302,0.009269937483050932,0.6876918632222294,0.301035642874002,-0.3302943768130202,-1.5817498015112403
84,0.4542494624338381,4.238811021889913,0.4905225304169567,-0.9076042135875604,2.521880361401181,3.9896274625089125,-0.10997942093768019,0.00881452458142487,0.6918752223347368,0.266594425835101,-0.3735195976792807,-1.6299558693538527
85,0.4625587381812773,4.247055543615505,0.45849397354007326,-0.8717564467914607,2.4541662126971464,3.9460695676067785,-0.11699071607723732,0.00867329235786124,0.6958208939625874,0.23552556872162148,-0.4164277629012575,-1.6788887408314217
86,0.470804106493413,4.255236655935176,0.4267117513605432,-0.8361843886018538,2.3869728599937416,3.9028466806445676,-0.12384369830353417,0.008833457681358296,0.6995080961096587,0.20799782987383766,-0.4587948275550665,-1.7288084754668587
87,0.47897976403725007,4.263348600741189,0.3951982331421351,-0.8009130756806808,2.3203475959510538,3.8599892231627835,-0.1305243981512308,0.00928020257700813,0.7029178699449616,0.18418906002080282,-0.5003889928544982,-1.7799824313036898
88,0.4870799846859967,4.271385696530346,0.363975490553089,-0.7659672116079057,2.2543370840585113,3.817527211980768,-0.13702047377859586,0.009996892571259113,0.706033314497923,0.16428273967240373,-0.5409699125655872,-1.8326809053562814
89,0.4950991262326484,4.279342345065249,0.3330652717882505,-0.7313711379178631,2.1889873039244203,3.775490224003561,-0.1433212068265547,0.010965314924066882,0.7088397883225014,0.1484623847978556,-0.5802881809920726,-1.8871708926254271
90,0.5030316371035705,4.287213038035568,0.3024889756911906,-0.6971488051356141,2.1243434965654537,3.733907361028753,-0.14941748038469121,0.012165932151968968,0.7113250750716668,0.13690331895354016,-0.6180853189473237,-1.9437074165270003
91,0.5108720630720806,4.294992363719302,0.2722676258763381,-0.6633237438132888,2.06045010969617,3.692807214553341,-0.15530174111789294,0.01357814604569656,0.7134795108009212,0.12976133692762723,-0.6540945333811018,-2.002521916159318
92,0.5186150539720328,4.302675013644044,0.24242184485110974,-0.6299190355664415,1.9973507430185213,3.652217830580587,-0.16096794772097264,0.01518056730746068,0.7152960717198392,0.127157941114241,-0.6880425828987267,-2.0638073376359016
93,0.5262553704113995,4.310255789248244,0.21297182813803373,-0.5969572841103985,1.9350880935113608,3.6121666744268697,-0.16641150791104714,0.016951285975306707,0.7167704220068192,0.12916218800223986,-0.7196531176511034,-2.12769993821717
94,0.5337878904858544,4.317729608542476,0.18393731839688066,-0.5644605862966054,1.8737039007199519,3.5726805955285443,-0.17162920614489685,0.018868137959858908,0.7179009221686999,0.13576980369555627,-0.7486518503377211,-2.1942584383517922
95,0.5412076164923565,4.3250915127707,0.15533757954679173,-0.532450503148985,1.8132388920454794,3.533785792248794,-0.17661912416894274,0.020908963283740218,0.7186885992401323,0.14688113502795205,-0.7747738192736487,-2.26344206866603
96,0.5485096816427316,4.332336673071525,0.1271913708884045,-0.5009480309002763,1.7537327280345583,3.4955077766844873,-0.18138055638222156,0.02305185197416733,0.7191370808572474,0.16228061281110578,-0.797772788396262,-2.335090172620503
97,0.5556893567772568,4.339460397139478,0.09951692122598299,-0.4699735720283895,1.6952239476687447,3.457871339473037,-0.18591392182790595,0.0252753740003724,0.7192524958893617,0.18162146582961772,-0.8174324740885427,-2.408907090782024
98,0.5627420570782419,4.3464581358862615,0.07233190298954595,-0.43954690629276216,1.637749913654039,3.420900514599253,-0.19022067443694393,0.027558790153333512,0.7190433448583385,0.2044200056838301,-0.8335788192791598,-2.484456636793846
99,0.5696633487836134,4.353325490102023,0.04565340635699533,-0.40968716177069453,1.5813467577103966,3.3846185442021937,-0.1943032129384236,0.029882241318353816,0.7185203438090786,0.23006338476652746,-0.846092041759949,-2.561170059512237
100,0.5764489559004967,4.360058217116615,0.019497913376242515,-0.3804127858937165,1.5260493258612442,3.3490478433820328,-0.1981647916349279,0.03222691417332081,0.7176962456118473,0.2578329516121085,-0.8549168216142755,-2.63836960953922
101,0.583094766918801,4.366652237460864,-0.006118727912665101,-0.3517415164839228,1.4718911237229868,3.314209965006898,-0.201809433026004,0.03457518193916877,0.7165856428772358,0.28694230341460947,-0.8600689395347522,-2.715306805415213
102,0.5895968415247982,4.3731036415278295,-0.03118132935540885,-0.32369035279032676,1.418904261794503,3.2801255645197496,-0.2052418430563544,0.03691071939713549,0.715204756750635,0.3165856318904246,-0.8616370491345764,-2.79121099230978
103,0.5959514173147107,4.379408696234072,-0.0556753885612804,-0.29627552652521816,1.3671194007466783,3.2468143647452123,-0.20846732957345288,0.03921859195413398,0.7135712158316658,0.3459892059956824,-0.8597790314219618,-2.865341034343477
104,0.6021549165082907,4.385563851680915,-0.07958711478104297,-0.26951247290050384,1.316565696711895,3.2142951206964505,-0.2114917244065603,0.04148531906914995,0.711703829344299,0.3744579532797536,-0.8547133388891762,-2.937032100711534
105,0.6082039526624056,4.391565747815709,-0.10290345478481466,-0.24341580166405974,1.267270746573545,3.182585584382007,-0.21432130932867005,0.043698912838192126,0.7096223584768814,0.40141047153599835,-0.846706595438528,-3.005730876266257
106,0.6140953373846189,4.397411221093098,-0.1256121187399306,-0.21799926813608295,1.2192605332555475,3.151702469612673,-0.21696274603640026,0.04584889296380476,0.7073472895310974,0.4263988363670328,-0.8360592223380207,-3.0710155616462598
107,0.6198260870467737,4.403097311136279,-0.14770160608882366,-0.19327574424543847,1.172559371011852,3.1216614168083403,-0.21942301018077245,0.047926279700601856,0.7048996121791186,0.4491130629658594,-0.8230909080644474,-3.1326005210924324
108,0.6253934294985772,4.408621267398274,-0.16916123142688289,-0.169257189566014,1.1271898507159452,3.092476957804847,-0.22170932940344645,0.049923566666546425,0.7023006057434584,0.46937286669183875,-0.8081274039922566,3.0928570845320484
109,0.6307948107811823,4.413980555823185,-0.18998115038034502,-0.14595462235306522,1.0831727851503645,3.0641624806608467,-0.22382912527685614,0.05183467563893477,0.6995716359987456,0.48711082592194643,-0.791489588117798,3.0390327326350604
110,0.6360279018407701,4.4191728655074645,-0.21015238548414805,-0.12337809057956228,1.0405271542962087,3.036730194464655,-0.22578995901043536,0.05365489561482013,0.6967339645627917,0.5023512000095939,-0.7734851841298143,2.9890673960922514
111,0.6410906052421338,4.424196115361176,-0.2296668520598102,-0.10153664297255016,0.9992700506226377,3.0101910941411107,-0.22759948076623823,0.055380808510347566,0.6938085725087669,0.5151879189827132,-0.7544030817188137,2.942848161955733
112,0.6459810618822615,4.429048460769261,-0.24851738409330748,-0.0804383000494906,0.9594166243763977,2.9845549252584305,-0.22926538242253192,0.057010203906551225,0.6908159994028246,0.5257641553451586,-0.7345099257058564,2.9002138083820146
113,0.6506976577039183,4.433728300252802,-0.26669776011293456,-0.06009002515461592,0.9209800288713135,2.9598301488350556,-0.23079535363050646,0.05854198522615964,0.6877761985621816,0.5342548069533309,-0.7140485154777859,2.8609721670885944
114,0.6552390304092317,4.438234282130284,-0.28420272906718624,-0.04049769549526827,0.8839713657778088,2.9360239061465268,-0.23219704102400734,0.05997606965359604,0.684708408946021,0.5408523720924115,-0.6932375415130353,2.8249140967651494
115,0.6596040761732702,4.442565311178865,-0.30102803620262497,-0.02166607317827074,0.8483996304124073,2.91314198353232,-0.233478010462367,0.06131328399610995,0.6816310437423898,0.5457561379417234,-0.6722722367415942,2.7918241456583828
116,0.6637919563576316,4.446720555295632,-0.3171704489417535,-0.0035987762462563744,0.8142716570272528,2.8911887772027107,-0.23464571220952,0.0625552585355218,0.6785615954035393,0.5491642962315181,-0.651325600068722,2.7614882889971355
117,0.667802104224021,4.450699452158871,-0.332627782760881,0.013701750285975756,0.7815920640996135,2.8701672580456394,-0.23570744897642973,0.06370432074534668,0.6755165566132256,0.5512684759965935,-0.6305499332287443,2.7336992508997544
118,0.6716342316478361,4.454501715889332,-0.34739892706800957,0.03023426339510138,0.7503631996213747,2.8500789364335417,-0.2366703467767146,0.06476339055459444,0.6725113564442079,0.5522501742277531,-0.610078507075501,2.708259929603681
119,0.6752883358317523,4.458127343711488,-0.3614838710806918,0.04599875101293582,0.7205850863885868,2.8309238270302313,-0.23754132856579013,0.0657358786346125,0.6695603107828235,0.552278617188806,-0.5900272342224941,2.684985392995428
120,0.6787647060193007,4.4615766226148,-0.3748837297039054,0.06099646099007261,0.692255367290926,2.812700413597742,-0.23832709065095858,0.06662558897539049,0.666676585959251,0.5515096620824614,-0.5704962710662761,2.6637038346150743
121,0.6820639302084549,4.464850136014986,-0.38760076940793464,0.07522993005953804,0.6653692506012518,2.795405613803181,-0.23903408187291786,0.06743662680861254,0.6638721744249868,0.5500854292427814,-0.5515715054071709,2.6442567999305333
122,0.685186901865213,4.46794877041528,-0.39963843410623223,0.08870301280044801,0.6399194552650753,2.779034744025594,-0.23966848556789133,0.06817331273135792,0.6611578812602578,0.548134428172729,-0.5333259086687527,2.626498919649604
123,0.6881348266371793,4.470873722067701,-0.41100137103328827,0.10142091060164526,0.615896156190094,2.76358148416281,-0.24023620432385126,0.06884010369065853,0.6585433202702211,0.5457720021557455,-0.5158207466606068,2.6102973255357567
124,0.6909092290671482,4.473626503634309,-0.4216954566225204,0.11339020062535399,0.5932869295356893,2.7490378424383097,-0.24074284754432476,0.06944152130830349,0.6560369184358317,0.5431009651585642,-0.49910665211802274,2.595530875303522
125,0.6935119593066895,4.47620895084848,-0.43172782238412344,0.1246188647708375,0.5720766980024443,2.735394120208072,-0.2411937218291805,0.0699820878595183,0.6536459275189633,0.5402123424255636,-0.483224567620918,2.582089275570227
126,0.695945199829726,4.4786232291761605,-0.44110688078295057,0.13511631863804308,0.5522476761216426,2.722638876767422,-0.24159382417416397,0.07046627006975784,0.6513764416772992,0.5371861543585075,-0.46820657023783013,2.5698721637132125
127,0.6982114721461207,4.480871840477137,-0.4498423511163967,0.14489344049124853,0.5337793155447912,2.7107588941579217,-0.24194783797997949,0.07089843076158203,0.6492334200182364,0.5340922038953226,-0.45407659029081576,2.5587881889068482
128,0.70031364351526,4.482957629666301,-0.4579452853922481,0.15396260022271457,0.5166482503331089,2.699739141974167,-0.24226013184802478,0.07128278826829333,0.6472207131081391,0.5309908423803791,-0.4408510366403662,2.5487541178560678
129,0.7022549336596325,4.484883791374906,-0.4654280942065685,0.162337688316339,0.5008282422470547,2.6895627421707116,-0.24253476112382064,0.07162338343210672,0.6453410925495471,0.5279336993054378,-0.4285393402836797,2.539693980353557
130,0.7040389214784172,4.4866538766118405,-0.47230457262157666,0.1700341448113103,0.48629012603583543,2.680210933868854,-0.24277547213110556,0.07192405392114033,0.6435962828403616,0.5249643684455919,-0.41714442713144506,2.5315382626142746
131,0.705669551761062,4.488271799424886,-0.47858992604349826,0.1770689882657388,0.4730017547268961,2.671663038163556,-0.24298570901986816,0.07218841552995926,0.6419869948319122,0.5221190477052816,-0.4066631297604629,2.5242231514992204
132,0.7071511419008691,4.489741843561987,-0.4843007961004546,0.1834608447203241,0.4609279449154613,2.6638964229302533,-0.24316862313049734,0.07241985007123025,0.6405129602036993,0.5194271330895271,-0.3970865468430822,2.5176898295675167
133,0.7084883886085794,4.491068669132504,-0.48945528652033055,0.1892299766620078,0.45003042205401034,2.6568864676317294,-0.24332708475396683,0.07262149941951562,0.6391729664684833,0.5169117691172985,-0.3884003578931264,2.5118838189044994
134,0.7096863746259489,4.492257319268493,-0.49407298900864616,0.19439831198761004,0.4402677657418126,2.6506065281249818,-0.24346369714464614,0.07279626523054672,0.6379648921095129,0.5145903590522685,-0.38058509997522133,2.5067543705125312
135,0.7107505754393405,4.493313226785958,-0.49817500912642076,0.19898947296748792,0.43159535501441937,2.6450279014680467,-0.24358081261810813,0.07294681382875323,0.636885741529656,0.5124750387975923,-0.3736164121124829,2.5022538954700795
136,0.7116868659933016,4.494242220846116,-0.5017839921680611,0.2030288052091822,0.42396531363318246,2.6401197907268843,-0.24368055054111673,0.07307558573081263,0.6359316795580939,0.5105731183661223,-0.36746525229809224,2.4983374338888127
137,0.7125015274041465,4.495050533616671,-0.5049241490392165,0.20654340662107495,0.4173264553747602,2.6358492697822244,-0.2437648169949317,0.07318480925205013,0.6350980653123297,0.5088874946215425,-0.36209809126236986,2.4949621578080783
138,0.7132012536735417,4.495744806933064,-0.5076212821346595,0.2095621563760237,0.41162422932062714,2.632181248136411,-0.2438353258661172,0.07327651762439748,0.6343794852503484,0.507417038575684,-0.35747708645862997,2.492086904480868
139,0.713793158402091,4.4963320989597495,-0.5099028112161621,0.21211574387503784,0.40680066514659075,2.6290784357202917,-0.2438936210910876,0.07335256903841605,0.6337697852689068,0.5061569599808718,-0.35356023909586515,2.4896717369726304
140,0.7142847815029092,4.496819890851449,-0.5117977992903575,0.21423669771089582,0.40279431841228774,2.6265013077000074,-0.2439410997517484,0.07341466900665981,0.6332621017086112,0.5050991513099731,-0.3503015364513243,2.4876775295815774
141,0.7146840959152192,4.497216093414427,-0.5133369784866075,0.21595941463182777,0.39954021585068755,2.6244080692839353,-0.2439790356896091,0.07346439443097247,0.6328488911145471,0.5042325124961269,-0.34765108112911736,2.4860655762761694
142,0.7149995143179204,4.497529053767743,-0.514552775934904,0.2173201885051328,0.396969800657633,2.6227546205294776,-0.24400860327475835,0.07350321874167878,0.6325219585729818,0.5035432570199205,-0.3455552083802953,2.484797221120923
143,0.7152398958431817,4.497767562004524,-0.515479339643707,0.21835723928086814,0.39501087778131705,2.621494521149939,-0.24403090093387253,0.0735325374619146,0.6322724844007802,0.503015199095797,-0.3439565920558444,2.48383351051802
144,0.7154145527900224,4.4979408578532265,-0.5161525643778249,0.2191107419554621,0.393587559211813,2.6205789553213896,-0.24404697400817751,0.0735536935351632,0.6320910489057254,0.50263002082244,-0.3427943392188905,2.483134868024284
145,0.7155332573378883,4.498058637338897,-0.5166101175363038,0.21962285553538674,0.3926202092705626,2.6199566964894987,-0.24405783647770568,0.07356800173849377,0.6319676548644952,0.5023675172321921,-0.3420040728907545,2.482660793503408
146,0.715606248260249,4.498131059444439,-0.5168914650302829,0.21993775200079568,0.39202538989989666,2.619574072176432,-0.24406449105241612,0.07357677148752839,0.6318917472825561,0.5022058162058861,-0.34151800184562586,2.4823695894327704
147,0.7156442376381641,4.498168752771881,-0.5170378971608587,0.22010164526918574,0.39171580595257716,2.6193749287876593,-0.24406794709364715,0.0735813273215014,0.6318522299092184,0.5021215692227562,-0.3412649758022834,2.4822181182870184
148,0.7156584175738779,4.498182822203636,-0.5170925544969873,0.22016282015904576,0.39160025048122904,2.619300596418827,-0.2440692357908927,0.07358302633709404,0.6318374778844258,0.5020901079063841,-0.34117052379494067,2.482161596045232
149,0.715660466904398,4.498184855563764,-0.5171004537533279,0.2201716613534872,0.39158355002793055,2.619289853662651,-0.24406942197887563,0.07358327181703225,0.6318353457951207,0.5020855603292879,-0.34115687295177943,2.4821534279840307
