nimar13/UR3e_dataset_trayectorias/data/trayectorias_completas_UR3e_QUINTIC/trayectoria_062.csv
Punto,shoulder_pan_joint,shoulder_lift_joint,elbow_joint,wrist_1_joint,wrist_2_joint,wrist_3_joint,Posicion_X,Posicion_Y,Posicion_Z,Roll,Pitch,Yaw
0,-2.9029059799771115,-1.2553390198438952,1.6536723630947108,5.64928747187187,3.3654906142304784,-2.731514309785323,-0.25476876863816483,-0.10391718562016453,0.22299237775417044,-2.500334852262258,0.04446554613459772,1.594192255949396
1,-2.902914732135751,-1.255339250287203,1.653668495077047,5.649273315261759,3.3654768283419223,-2.7315150716560344,-0.2547727462611263,-0.10391542083711301,0.2229934892187086,-2.5003171545250535,0.04446633078152798,1.5941978057698682
2,-2.9029752909600357,-1.2553408447939243,1.6536417310966773,5.649175361408376,3.3653814396227433,-2.7315203432691795,-0.2548002679409766,-0.10390320847756973,0.22300118184100642,-2.5001946967631032,0.044471746212016945,1.59423620552095
3,-2.9031375337309675,-1.2553451166270027,1.653570027882692,5.6489129338466775,3.365125884296198,-2.731534466415295,-0.2548739951331708,-0.10387047928071527,0.22302180887318734,-2.4998666056034393,0.044486136000840205,1.5943390722954647
4,-2.9034492590117305,-1.2553533243169852,1.653432260853796,5.6484087184361504,3.36463487286031,-2.731561601933648,-0.25501562648744097,-0.10380754947867249,0.22306151328912016,-2.499236164954772,0.04451329884654532,1.5945366752842407
5,-2.903956215319659,-1.2553666724169534,1.6532082114467268,5.647588716983924,3.363836344925459,-2.731605732208113,-0.25524589150281635,-0.1037050793443185,0.22312628832678988,-2.498210710184835,0.04455611121137714,1.594857921149766
6,-2.904702129798208,-1.2553863122574516,1.6528785544446742,5.646382200867878,3.3626614240519714,-2.7316706636630546,-0.2555845378611261,-0.10355402103866064,0.22322205506903975,-2.496701510359585,0.04461603601400767,1.59533032652004
7,-2.905728736888924,-1.2554133427014178,1.6524248453056998,5.644721664659752,3.3610443725877093,-2.7317600292592066,-0.2560503128498087,-0.10334555771022665,0.22335475391211176,-2.4946236442250647,0.044692538190608255,1.5959799755275206
8,-2.907075807003413,-1.2554488108991124,1.6518295074911549,5.642542779748259,3.3589225465056596,-2.7318772909895492,-0.2566609389258342,-0.10307103567797579,0.22353044695488092,-2.491895876792751,0.04478242663863264,1.5968314584714145
9,-2.9087811751953123,-1.2554937130430481,1.6510758197941007,5.6397843479621885,3.356236350241523,-2.732025742375192,-0.2574330831109446,-0.10272189142471812,0.22375542850777527,-2.48844054458763,0.04487914090149464,1.5979077857999406
10,-2.91088076983226,-1.2555489951229197,1.6501479036677267,5.636388255193526,3.352929191531304,-2.7322085109612506,-0.25838231956371155,-0.10228957504617356,0.2240363410651356,-2.484183458732331,0.044971999990240714,1.599230269807744
11,-2.9134086412678633,-1.2556155536805331,1.649030710553771,5.632299425020554,3.3489474362489022,-2.7324285608127283,-0.25952308436227783,-0.10176547174860058,0.22438029420355682,-2.4790538359753445,0.04504543002546711,1.6008183648220176
12,-2.9163969905136713,-1.2556942365647354,1.6477100092109378,5.627465772330965,3.3442403632436974,-2.732688695010394,-0.26086862126665505,-0.10114082297259111,0.22479498395657224,-2.472984268434534,0.0450781869749485,1.602689455300946
13,-2.919876197911142,-1.2557858436863447,1.6461723730433173,5.621838156944976,3.3387601191781426,-2.7329915581466637,-0.26243091702275667,-0.10040664874898166,0.2252888102681566,-2.465910743121221,0.04504259071072719,1.6048585802813367
14,-2.9238748518036144,-1.2558911277730787,1.6444051674288054,5.615370337238428,3.3324616733653523,-2.7333396388214783,-0.26422062463248697,-0.09955367297072026,0.22587099014002723,-2.4577727221257035,0.04490378695320934,1.6073380820879952
15,-2.928419777208277,-1.2560107951244852,1.642396537047522,5.608018923765908,3.3253027726066913,-2.7337352721381833,-0.2662469729552028,-0.09857225339616166,0.2265516640580625,-2.4485132935549996,0.04461905442953761,1.610137167268066
16,-2.9335360644881394,-1.2561455063668718,1.6401353932102298,5.5997433328838495,3.317243896029365,-2.7341806421994113,-0.2685176610357956,-0.0974523183866696,0.22734199321054144,-2.4380794017697314,0.044137175742368424,1.6132613684687547
17,-2.9392470980239995,-1.2562958772082347,1.637611401186755,5.590505740373649,3.3082482099240087,-2.7346777846029564,-0.2710387356841294,-0.09618331262369711,0.22825424489690158,-2.4264221630009293,0.04339789197971707,1.6167118975818102
18,-2.945574584886416,-1.2564624791931887,1.6348149675344046,5.58027103506477,3.298281522582277,-2.735228588937659,-0.27381445107092106,-0.09475415434342435,0.2293018633744584,-2.413497268857889,0.04233146290682103,1.6204848830858813
19,-2.9525385835076765,-1.2566458404578973,1.6317372274263864,5.5690067724578585,3.2873122391344314,-2.7358348012792817,-0.276847109468434,-0.09315320696210067,0.23049952320921135,-2.399265475385955,0.04085835652083334,1.624570488272991
20,-2.96015753235377,-1.2568464464850015,1.6283700319802286,5.5566831283478475,3.2753113163869343,-2.736498026686391,-0.2801368827630602,-0.0913682683293685,0.231863161995826,-2.3836931690474845,0.03888909360798684,1.6289519120563367
21,-2.968448278596353,-1.2570647408585496,1.6247059355861975,5.543272852447072,3.262252217660033,-2.7372197316962357,-0.28368161501324185,-0.08938658122159689,0.23340998910498156,-2.3667529931945945,0.03632427444120007,1.633604280356844
22,-2.977426106784723,-1.2573011260189273,1.6207381832357184,5.528751222008377,3.248110867625352,-2.7380012468206276,-0.2874766071314029,-0.08719486904841042,0.23515846692071649,-2.34842450930628,0.03305481554842216,1.6384934435625522
23,-2.987104767517786,-1.2575559640177862,1.616460697849793,5.513095995448223,3.2328656071434834,-2.7388437690418193,-0.291514385741199,-0.08477940106276312,0.23712826086699215,-2.3286948566709165,0.028962424170278257,1.6435747039702955
24,-2.997496506116028,-1.2578295772729753,1.6118680676074197,5.496287365969806,3.216497148101573,-2.739748364308386,-0.29578445940588394,-0.08212609160135535,0.23934015441536405,-2.307559362726819,0.023920336187892088,1.6487915059306826
25,-3.0086120912934837,-1.2581222493234683,1.6069555332740122,5.478307915186157,3.1989885282509136,-2.7407159700311046,-0.30027306673808096,-0.07922063799507438,0.241815925241334,-2.2850220446112286,0.01779433953978264,1.6540741298101418
26,-3.0204608438297074,-1.2584342255842949,1.601718975529819,5.4591425667432585,3.1803250660445306,-2.74174739757883,-0.3049629223753161,-0.07604870173002949,0.24457817878488147,-2.2610959315689185,0.010444099152239544,1.6593384377315423
27,-3.0330506652417415,-1.2587657141014692,1.5961549022983414,5.438778539943149,3.160494315474774,-2.7428433347743804,-0.30983296841783114,-0.07259613715585297,0.2476501357016101,-2.2358031289247844,0.0017247910466923865,1.6644847229505906
28,-3.0463880664560885,-1.2591168863069206,1.590260436074755,5.417205303367041,3.1394860209109074,-2.7440043483904124,-0.31485814064028156,-0.0688492714739377,0.25105537009610635,-2.209174538639272,-0.008510957307105101,1.6693967140792507
29,-3.06047819648068,-1.2594878777734224,1.5840333012543257,5.394414528498421,3.1172920719366974,-2.7452308866453023,-0.32000916055576034,-0.06479523883891887,0.2548174960387356,-2.1812491502753795,-0.02041083566694454,1.6739407785825113
30,-3.0753248710768455,-1.2598787889695215,1.5774718114608315,5.3704000433461685,3.0939064581880014,-2.7465232816990253,-0.32525236615987557,-0.060422370120375365,0.2589598007088179,-2.152072820401627,-0.03412035719434024,1.6779653556902148
31,-3.090930601431283,-1.2602896860144686,1.57057485687498,5.34515778606766,3.0693252241903597,-2.747881752149036,-0.33054959582560967,-0.055720638154794014,0.2635048236038862,-2.121696468270597,-0.04978014333557635,1.681300626238055
32,-3.1072966228280308,-1.260720601433147,1.5633418915628283,5.31868575859188,3.043546424196583,-2.749306405526146,-0.33585814124785934,-0.05068215613995564,0.2684738826225476,-2.0901736303270613,-0.06752303920629736,1.6837583959136746
33,-3.1244229233204344,-1.2611715349110024,1.5557729208042017,5.290983980242535,3.0165700770243418,-2.750797240790406,-0.3411307864224904,-0.045301724173953895,0.27388654947400803,-2.0575573338318773,-0.08747111783292619,1.6851321298010935
34,-3.1423082724031177,-1.2616424540489735,1.547868488421113,5.262054441361155,2.988398120893758,-2.7523541508269838,-0.34631595024498,-0.03957741583359582,0.2797600787851902,-2.023896267560187,-0.1097326321921236,1.6851970317699267
35,-3.160950249683954,-1.26213329511842,1.5396296641061817,5.231901056930213,2.9590343682649904,-2.7539769249420436,-0.3513579502732989,-0.03351119316875412,0.2861087974466618,-1.9892302410631275,-0.13439896688131625,1.6837100145926602
36,-3.1803452735560347,-1.2626439638160531,1.531058030751053,5.200529620196229,2.9284844606758287,-2.7556652513586264,-0.3561974043593971,-0.027109534645422224,0.29294346312445696,-1.9535849287101206,-0.16154162511032993,1.6804093583438988
37,-3.2004886298696382,-1.2631743360188652,1.522155671774817,5.16794775629288,2.896755823579279,-2.7574187197125304,-0.3607717850592146,-0.02038405652922169,0.3002706034105312,-1.9169658860270828,-0.1912092606768195,1.6750138078961656
38,-3.221374500604203,-1.2637242585390591,1.5129251584524275,5.134164875864112,2.8638576211811557,-2.759236823548188,-0.3650161388451941,-0.013352104137971343,0.30809184971406983,-1.8793517998316658,-0.2234247282607878,1.6672208164796611
39,-3.242995992540294,-1.2642935498789778,1.5033695372431217,5.0991921286872515,2.82980071127767,-2.7611189628145483,-0.36886397806113896,-0.006037285528864525,0.3164032826124831,-1.840686887940203,-0.2581820785276899,1.6567036013825245
40,-3.265345165931575,-1.2648820009860338,1.4934923171188386,5.06304235729611,2.7945976000930197,-2.7630644463609553,-0.3722483482164161,0.0015300832107175838,0.3251948078679725,-1.8008722986623633,-0.295443366739417,1.6431066390539575
41,-3.2884130631767783,-1.265489376007639,1.483297456892639,5.025730050604099,2.758262397116977,-2.765072494433026,-0.3751030666166268,0.009312654525988999,0.3344495845384325,-1.7597562781885177,-0.33513507369620726,1.6260391895868813
42,-3.3121897374916727,-1.2661154130461352,1.4727893525471238,4.987271297527336,2.72081076994248,-2.7671422411685334,-0.37736412055054014,0.017265882795502188,0.34414352842123386,-1.7171227841034786,-0.377143853535801,1.6050664074638141
43,-3.3366642815810352,-1.266759824913721,1.4619728245628536,4.947683740607759,2.6822598991032223,-2.7692727370932833,-0.3789712044693682,0.025338049645100506,0.3542449153071406,-1.6726781443853793,-0.42131122046102426,1.5796975780546976
44,-3.361824856310621,-1.2674222998873845,1.4508531052467672,4.90698652963623,2.64262843291124,-2.7714629516169955,-0.3798693660771129,0.03347051458178682,0.36471410902932383,-1.6260353313708744,-0.46742666122854437,1.54937104856255
45,-3.3876587193791323,-1.268102502463831,1.4394358260606022,4.865200275275652,2.601936442294503,-2.773711775529182,-0.3800107213786843,0.04159822064356217,0.3755034389157684,-1.5766955150044204,-0.5152185088890138,1.5134355677838127
46,-3.414152253990189,-1.2688000741144132,1.4277270049493123,4.822347002684075,2.5602053756345047,-2.776018023495027,-0.3793561889886293,0.04965047879613026,0.38655724985556883,-1.5240269275520173,-0.5643417396989021,1.4711281555734737
47,-3.4412909975242987,-1.2695146340400605,1.4157330336694869,4.778450105137806,2.5174580136038496,-2.778380436551268,-0.3778771849628883,0.05755204647702708,0.3978121456613974,-1.4672419954296378,-0.6143616842026384,1.4215495710895105
48,-3.469059670210826,-1.2702457799262095,1.4034606651177715,4.733534297654519,2.473718424003845,-2.7807976846020734,-0.3755572117257972,0.06522450501369793,0.40919744268133745,-1.4053756877148837,-0.6647325509922626,1.3636404537636446
49,-3.497442203799963,-1.2709930886977319,1.3909170006592853,4.687625570616366,2.4290119166020876,-2.783268368914923,-0.3723932690113701,0.07258792780478812,0.420635845662712,-1.3372719648844018,-0.7147698343388682,1.2961651437817636
50,-3.526421770234699,-1.271756117273866,1.3781094774560407,4.640751143393085,2.383364997970056,-2.785791024616488,-0.3683970118071657,0.07956281651251124,0.43204435173753764,-1.2615923543397225,-0.7636165203037046,1.2177173212102417
51,-3.55598081032279,-1.272534403323145,1.3650458557953633,4.592939417965114,2.336805326320699,-2.788364123188509,-0.36359558071517467,0.08607226661585483,0.4433353811903986,-1.1768722900396582,-0.810205298882944,1.1267731963520238
52,-3.586101062408729,-1.2733274660183267,1.3517342064183095,4.544219932546695,2.2893616663460232,-2.7909860749636772,-0.35803203445467724,0.09204430725132333,0.4544181255637643,-1.0816663206791481,-0.8532239796038178,1.0218334298580385
53,-3.616763591045717,-1.2741348067913243,1.3381828978480872,4.4946233152089885,2.2410638440546844,-2.7936552316215137,-0.3517653227897749,0.09741434421658175,0.4652000949052343,-0.9748350565869137,-0.8911003163700746,0.9017067041579757
54,-3.64794881566763,-1.274955910088134,1.3244005837184731,4.444181237503181,2.1919427016095776,-2.7963698886842483,-0.34486975111198537,0.10212762035756356,0.4755888368879409,-0.8560115231173232,-0.922034943073314,0.7659726429857202
55,-3.679636539260993,-1.2757902441237665,1.310396190102234,4.392926368083598,2.142030052165424,-2.7991282880127004,-0.33743390512081894,0.10614159540033466,0.48549379152228955,-0.7262008214522311,-0.9441201528819719,0.6155779880968626
56,-3.711805977036946,-1.2766372616371755,1.296178902839544,4.34089232633081,2.0913586347063613,-2.801928620302157,-0.3295590250956694,0.10942813872890189,0.49482823665472425,-0.5882914760549758,-0.9555699803261892,0.45334440217484445
57,-3.7444357851032164,-1.2774964006461875,1.2817581548664048,4.288113635974742,2.0399620688835363,-2.8047690275782533,-0.3213568433965862,0.11197542467581498,0.5035112718756718,-0.44708635655798035,-0.9550337059933076,0.28399575993848525
58,-3.7775040891360874,-1.2783670852024314,1.2671436135430645,4.234625678717791,1.987874809852689,-2.807647605692852,-0.3129469250164842,0.11378942144461042,0.5114697822976382,-0.30855497363108786,-0.9418846277767232,0.11340668900928398
59,-3.8109885130523695,-1.2792487261462686,1.252345167982436,4.180464647857926,1.9351321031117452,-2.810562406819924,-0.3044535779057369,0.11489487242829229,0.5186403193570068,-0.17849973224313806,-0.9163423488141138,-0.052735102451447066
60,-3.844866207681369,-1.2801407218617216,1.2373729163785174,4.1256675019118045,1.8817699393384062,-2.8135114419514253,-0.2960024258622162,0.11533568269699397,0.5249708337302194,-0.061317496369479994,-0.8793648762014126,-0.21017140742545515
61,-3.8791138794368583,-1.2810424590314047,1.2222371533348102,4.070271918237879,1.8278250092277362,-2.8164926833931796,-0.28771676036153276,0.11517464367169784,0.5304221959481417,0.04054660606774386,-0.8323820718411339,-0.35662412991019987
62,-3.9137078189890477,-1.2819533133914525,1.2069483571927384,4.014316246659508,1.773334658329753,-2.819504067260756,-0.2797138071143773,0.11449245491000731,0.5349694435465444,0.12640853190188886,-0.777007969965359,-0.4916093531413864
63,-3.9486239299365504,-1.2828726504864505,1.1915171773600692,3.95783946308807,1.718336841887018,-2.8225434959753484,-0.27210105681028446,0.11338603248607049,0.5386026996819382,0.19677878334949175,-0.7148298767297379,-0.6158758361343462
64,-3.9838377574783586,-1.2837998264243642,1.175954421639329,3.900881123146063,1.6628700796722247,-2.825608840759658,-0.2649728161078668,0.11196612720938166,0.5413277170007594,0.2527825120231046,-0.6472973135148036,-0.7308304370593485
65,-4.019324517085808,-1.2847341886314685,1.1602710435562256,3.8434813157902274,1.6069734108257878,-2.8286979441337676,-0.25840713349030936,0.11035431109891702,0.5431660119523708,0.29573750404878635,-0.5756877541242955,-0.8381215932510344
66,-4.055059123174554,-1.2856750766072778,1.144478129688065,3.7856806169346457,1.5506863486934341,-2.8318086224110277,-0.25246324461904385,0.10867942505688241,0.5441545683050615,0.3269065021109149,-0.5011164284142258,-0.9393970853260003
67,-4.0910162177765335,-1.286621822679475,1.1285868869921736,3.7275200430738566,1.4940488356637889,-2.83493866819393,-0.24717966333039912,0.10707361239361401,0.5443451038392855,0.3473779722937539,-0.42456545768948084,-1.0361897777452527
68,-4.127170199211941,-1.287573752758842,1.1126086301343125,3.6690410049059654,1.4371011980059707,-2.8380858528699915,-0.24257301805578824,0.10566808959588936,0.5438029104121969,0.3580244458044917,-0.3469181608547565,-1.1298797679749282
69,-4.163495250761197,-1.288530187094188,1.0965547688171018,3.610285260955753,1.3798841007071738,-2.8412479291076305,-0.23863770040956858,0.10458882555368818,0.5426052940796792,0.3595018577220358,-0.2689919330319751,-1.2216952559271104
70,-4.199965369336916,-1.2894904410272807,1.0804367951084364,3.5512948711977863,1.3224385023102645,-2.8444226333520497,-0.23534635470724868,0.10395231176888814,0.5408396579414257,0.35226839513385444,-0.1915672730087572,-1.3127289565774116
71,-4.236554394155881,-1.290453825747774,1.0642662707699053,3.4921121506795263,1.2648056097513645,-2.847607688321113,-0.23265119639996287,0.10386160776355208,0.53860128504779,0.3366121651923258,-0.11541239165856743,-1.4039569079770993
72,-4.2732360354110055,-1.2914196490481396,1.048054814585213,3.4327796231444387,1.2070268331974452,-2.850800805501226,-0.23048610626990984,0.10440283749115827,0.5359908913190756,0.312683663615005,-0.04130336150766852,-1.4962522598002865
73,-4.309983902943314,-1.292387216078595,1.0318140896885957,3.3733399746551065,1.1491437408839138,-2.8539996876432174,-0.22876940826624603,0.10564229420794011,0.5331120283087902,0.2805328575530197,0.029960419279159,-1.5903894830357677
74,-4.346771534913901,-1.2933558301020338,1.0155557908932429,3.313836007216339,1.091198013952205,-2.8572020312582147,-0.22740720453439164,0.10762428384347784,0.530068422249992,0.24015270823253598,0.0975462513223329,-1.6870357650517838
75,-4.38357242647591,-1.2943247932489554,0.9992916320197145,3.2543105923982787,1.0332314012873693,-2.8604055291135273,-0.22629711370085667,0.11036980192092694,0.5269613387798,0.19153159048144563,0.1605852223246515,-1.7867272457400187
76,-4.420360058446498,-1.2952934072723943,0.9830333332243615,3.1948066249595093,0.9752856743556597,-2.863607872728525,-0.22533223958112594,0.11387609856308038,0.5238870618527847,0.13471623227239418,0.21817870504063433,-1.8898291865786316
77,-4.457107925978805,-1.2962609743028495,0.9667926083277443,3.135366976470179,0.9174025820421279,-2.866806754870516,-0.22440518836524823,0.11811714252754016,0.5209345706447451,0.06988407701416081,0.26941705931689114,-1.996482046414888
78,-4.4937895672339305,-1.297226797603215,0.9505811521430519,3.0760344489350913,0.859623805488209,-2.8699998720506295,-0.2234119535216359,0.12304495121229005,0.5181834899351719,-0.0025809684711667075,0.31341296013043446,-2.106540345522334
79,-4.5303785920528945,-1.2981901823237085,0.9344106278045209,3.016851728416831,0.8019909129293099,-2.8731849270196927,-0.22225549895362193,0.12859171185691382,0.5157023779536535,-0.08202208136775874,0.3493499827592094,-2.2195177395258603
80,-4.566848710628614,-1.2991504362568012,0.9182926540958554,2.9578613386588635,0.7445453145323992,-2.8763596312641115,-0.22084889146597753,0.1346725822545493,0.5135474015652925,-0.16747113191757584,0.3765435079408556,-2.3345576909906214
81,-4.60317376217787,-1.3001068705921472,0.9022387927786447,2.8991055947086513,0.687328217233603,-2.879521707501751,-0.21911786185595655,0.14118902934548155,0.5117614326690006,-0.25765845611101335,0.3945061230894165,-2.450450353036347
82,-4.639327743613277,-1.3010588006715142,0.8862605359207836,2.840626556540761,0.6303805795757849,-2.882668892177812,-0.21700270795059984,0.14803254273149707,0.5103735825956652,-0.35108317871946126,0.40300522843392855,-2.565708473833564
83,-4.675284838215257,-1.3020055467437115,0.8703692932248921,2.7824659826799714,0.5737430665461396,-2.8857989379607143,-0.21445949035388756,0.15508854845432785,0.5093991739668676,-0.4461392173231963,0.4020991594114579,-2.6786978059063316
84,-4.711019444304002,-1.3029464347195208,0.8545763793567319,2.7246652838243897,0.5174560044137864,-2.8889096162379744,-0.21146051008126499,0.16224034666578327,0.5088401327452959,-0.5412717177057372,0.39214178812090933,-2.7877970758647597
85,-4.746506203911453,-1.303880796926625,0.8388930012736285,2.6672654764685544,0.46155933556734885,-2.8919987196120847,-0.20799409422344595,0.16937290474593908,0.5086857678533407,-0.6351262134624172,0.3737536756157878,-2.891550084256923
86,-4.78172003145326,-1.3048079728645385,0.8233302455528885,2.610307136526549,0.4060925733525571,-2.8950640643963936,-0.20406374909273642,0.17637635403748214,0.5089138924330419,-0.7266560386740927,0.3477669531095949,-2.9887757312020433
87,-4.816636142400763,-1.3057273099595368,0.8078990657202187,2.553830352955109,0.35109475690982217,-2.8981034931109866,-0.19968676812943076,0.18314906217276627,0.5094922301084706,-0.8151703806433266,0.31515701963578213,-3.0786186289621464
88,-4.851230081952952,-1.3066381643195846,0.7926102695781471,2.4978746813767385,0.29660440601183824,-2.901114876978563,-0.19489240283206533,0.18960018210137145,0.5103800418689907,-0.9003257330533823,0.2769747622929652,3.122641947444095
89,-4.885477753708441,-1.3075399014892675,0.7774745065344401,2.4424790977028126,0.242659475901168,-2.904096118420317,-0.18971971832341772,0.19565161127819367,0.5115299046217067,-0.9820774355451914,0.23428931414129894,3.0488959058833784
90,-4.919355448337442,-1.3084318972047206,0.7625022549305213,2.387681951756692,0.1892973121278283,-2.9070451535518185,-0.18421526064495694,0.20123932788235113,0.5128895710898206,-1.060611840222645,0.18814604842982663,2.9833776588173553
91,-4.952839872253724,-1.3093135381485577,0.747703809369893,2.3335209208968255,0.13655460538688535,-2.9099599546788903,-0.1784306608007534,0.20631410334113018,0.5144038424190239,-1.136275917663521,0.13953994509550494,2.9259895205048294
92,-4.985908176286594,-1.3101842227048017,0.7330892680465524,2.280032963639874,0.08446734635603681,-2.912838532793489,-0.17242029173886725,0.21084162000445686,0.5160163893064476,-1.2095144392645256,0.08940171815763644,2.8765421533517954
93,-5.018537984352864,-1.3110433617138135,0.7186685200734132,2.227254273283808,0.03307078053321311,-2.9156789400695855,-0.16623908003249863,0.21480204807446635,0.5176714642747732,-1.2808187627474428,0.038593072341237177,2.8347956654174062
94,-5.050707422128816,-1.3118903792272225,0.7044512328107231,2.17522023153102,-0.017600636925849678,-2.918479272359042,-0.15994055543094313,0.21818915578169568,0.51931545637772,-1.3506871736310646,-0.012092436973329488,2.80048620372507
95,-5.082395145722181,-1.312724713262855,0.6904468391944844,2.1239653621114374,-0.06751328637000409,-2.9212376716874937,-0.1535752002477327,0.2210090407066666,0.5208982495886096,-1.4195947115167156,-0.06192584177380469,2.7733397107780444
96,-5.113580370344094,-1.313545816559665,0.6766645250648706,2.0735232844056295,-0.11663442881510866,-2.9239523287502287,-0.1471891383014448,0.22327857791322223,0.5223743568195514,-1.48796986123827,-0.11023865805389145,2.7530753019446492
97,-5.144242898981082,-1.3143531573326623,0.6631132164946483,2.0239266670679212,-0.16493225110644927,-2.926621485408065,-0.14082318127812118,0.2250236824372906,0.5237038123889262,-1.5561758079607733,-0.1564197355443511,2.739400829106414
98,-5.174363151067022,-1.3151462200278443,0.6498015671175943,1.9752071816495036,-0.21237591108112364,-2.929243437183233,-0.13451223020078118,0.2262774802554534,0.5248528162880515,-1.6244947070692057,-0.1999140095615356,2.7320030907366704
99,-5.203922191155112,-1.3159245060771232,0.6367379454569169,1.9273954562215323,-0.25893558273048356,-2.9318165357552544,-0.12828501216694818,0.22707847399682501,0.5257941333512842,-1.6931143411358673,-0.2402236517505492,2.730535083635359
100,-5.232901757589847,-1.3166875346532572,0.6239304222536721,1.8805210289982512,-0.30458250136251275,-2.934339191456819,-0.12216411834708385,0.22746877838371765,0.5265072590499176,-1.7621174627432343,-0.2769117073319184,2.7346027401244317
101,-5.261284291178985,-1.3174348434247798,0.6113867577951861,1.8346123019600982,-0.3492890087642704,-2.9368098757696686,-0.1161662988151403,0.2274924867925407,0.526978370847018,-1.8314749126250447,-0.30960790088646073,2.743753692517457
102,-5.289052963865513,-1.3181659893109285,0.5991143892434709,1.7896964944768112,-0.3930285983642756,-2.939227123820474,-0.11030296320425936,0.22719421550892896,0.527200089704386,-1.9010440989579447,-0.3380158834264371,2.757470594343778
103,-5.316191707399621,-1.318880549236576,0.5871204179636453,1.7457995969305422,-0.4357759603949316,-2.941589536876715,-0.10458083328517459,0.2266178572214352,0.5271710803564736,-1.970574457521447,-0.3619208167082021,2.775171205907492
104,-5.342685242010678,-1.3195781208871582,0.5754115968523548,1.7029463243389653,-0.47750702705492953,-2.94389578484256,-0.09900269398213604,0.22580556093030102,0.5268955213789733,-2.03972096543521,-0.3811959231077928,2.796216664990444
105,-5.368519105079189,-1.3202583234636047,0.5639943176661903,1.6611600699783886,-0.5181990176716647,-2.9461446087547465,-0.09356819254877245,0.22479694244120116,0.5263824769769342,-2.108065672902218,-0.395806565252905,2.819928098714112
106,-5.393679679808774,-1.3209207984372682,0.5528745983501047,1.6204628590068584,-0.5578304838636483,-2.9483348232784587,-0.08827464100857187,0.22362851847439066,0.5256452019538262,-2.175145770401218,-0.40581063001107864,2.8456101865695627
107,-5.418154223898137,-1.321565210304854,0.542058070365834,1.5808753020872803,-0.5963813547029049,-2.9504653192032086,-0.0831177838689866,0.22233334845792663,0.5247004096980726,-2.240485327947512,-0.4113544795302069,2.8725788433620885
108,-5.44193089821303,-1.32219124734335,0.5315499660203185,1.542416549010519,-0.6338329818774011,-2.9525350659387164,-0.07809250090463588,0.2209408614171447,0.5235675304637105,-2.303626983220716,-0.4126644097525507,2.900189295834145
109,-5.464998795458235,-1.3227986223649555,0.5213551057941195,1.5051042423185086,-0.6701681848534449,-2.954543114010787,-0.07319342288689672,0.21947684098920817,0.5222679839652087,-2.3641598264414556,-0.41003426279289307,2.9278607788345408
110,-5.487347968849515,-1.3233870734720115,0.5114778856698365,1.4689544709273656,-0.705371296038094,-2.9564885975571937,-0.06841544601006398,0.21796353931961585,0.5208244865890418,-2.421740548745949,-0.40381039602141156,2.9550948868906923
111,-5.508969460785606,-1.3239563648119301,0.5019222644605306,1.4339817237505041,-0.7394282059415831,-2.958370736823554,-0.06375413802489893,0.2164198901798963,0.5192604095684136,-2.4761063048151684,-0.39437549153450846,2.9814859982695454
112,-5.52985533152017,-1.3245062873321238,0.4926917511381408,1.4001988433217392,-0.772326408339703,-2.960188840659212,-0.059206035444369906,0.21486179276370812,0.5175992004716005,-2.5270792471958607,-0.38213266328063833,3.006723696016716
113,-5.549998687833774,-1.325036659534936,0.4837893921619043,1.367616979418389,-0.8040550454362538,-2.9619423090131156,-0.054768836446955224,0.21330243992410833,0.5158638764885506,-2.5745639133490013,-0.3674910459073299,3.0305883366228317
114,-5.569393711705855,-1.3255473282325692,0.4752177588067763,1.336245542684403,-0.8346049530254174,-2.963630635429699,-0.050441498182767094,0.21175266775798693,0.5140765944013791,-2.6185393595039286,-0.3508536429433361,3.052941633353745
115,-5.588035688986691,-1.3260381693020156,0.4669789344918456,1.3060921582534606,-0.8639687056541838,-2.9652534095447587,-0.046224250085431975,0.2102213070950795,0.512258298894947,-2.6590481190509268,-0.33260778925931883,3.0737143084075136
116,-5.605921038069375,-1.3265090884399866,0.45907450210875633,1.2771626193720813,-0.8921406617847678,-2.9668103195813362,-0.04211853657580907,0.20871552131607704,0.5104284480729714,-2.6961838462251815,-0.3131182286423878,3.0928926542779487
117,-5.623047338561779,-1.3269600219178423,0.45150553135012905,1.2494608410227377,-0.9191170089570067,-2.968301154845596,-0.038126903331059184,0.2072411187618228,0.5086048127313982,-2.730079071360858,-0.29272256198247565,3.1105054129170187
118,-5.6394133599585246,-1.3273909373365207,0.44427256603797827,1.2229888135469578,-0.9448958089507862,-2.969725808222706,-0.03425284123665283,0.2058028316107076,0.5068033441151141,-2.7608940051777604,-0.2717286872472326,3.126611894523134
119,-5.655019090312962,-1.3278018343814677,0.4373756114521272,1.1977465562684495,-0.9694770429484265,-2.9710842786727167,-0.03050060140918546,0.2044045563543997,0.5050381035345757,-2.788806894142476,-0.2504138084921338,3.1412918237268492
120,-5.669865764909128,-1.3281927455775668,0.43081412165863275,1.1737320711161932,-0.9928626566971221,-2.9723766737264397,-0.026874993447437562,0.20304955380319933,0.5033212463156593,-2.814006097029465,-0.229024608792755,-3.1285482374659717
121,-5.68395589493372,-1.3285637370440686,0.42458698683820306,1.1509412962475745,-1.0150566056713348,-2.9736032119813296,-0.02338117750314329,0.2017406088562734,0.5016630520557858,-2.836683832066184,-0.2077782340798504,-3.1164401110461895
122,-5.697293296148066,-1.32891490924952,0.41869252061461615,1.1293680596714708,-1.0360649002351954,-2.9747642255973616,-0.020024459010836094,0.2004801520705055,0.5000719930100984,-2.857031418522495,-0.18686380064992017,-3.105470666552627
123,-5.7098831175601,-1.3292463977666944,0.4131284473831398,1.1090040328713604,-1.055895650804957,-2.975860162792912,-0.016810093105897653,0.1992703463756999,0.4985548325766876,-2.8752357816777216,-0.16644420509587804,-3.0955440292371907
124,-5.721731870096323,-1.329558374027521,0.40789188963894607,1.0898386844284582,-1.074559113011337,-2.976891590340638,-0.013743103995435605,0.19811314315563888,0.4971167462317354,-2.8914769815953965,-0.1466580741531209,-3.086569196289415
125,-5.732847455273779,-1.329851046078014,0.4029793553055392,1.07185923364481,-1.0920677328620023,-2.977859196063356,-0.010828122906859899,0.1970103123999485,0.49576145782805014,-2.9059265444850313,-0.12762174043738797,-3.0784614567999253
126,-5.7432391938720215,-1.330124659333203,0.3983867250631654,1.0550506041663947,-1.1084361919039072,-2.9787637913299227,-0.008069246779226203,0.195963451794364,0.4944913848616675,-2.91874640664504,-0.10943116790137006,-3.07114313150296
127,-5.752917854605083,-1.330379497332062,0.39410923967724143,1.039395377606244,-1.1236814523857754,-2.979606313551115,-0.005469918615980344,0.194973979521867,0.49330778708422407,-2.930088316037857,-0.09216377911655549,-3.0645438072112148
128,-5.761895682793453,-1.3306158824924397,0.3901414873267619,1.0248737471675469,-1.137822802420458,-2.9803878286755063,-0.0030328293995041215,0.1940431152574692,0.49221091365329045,-2.940093570206908,-0.0758801568331073,-3.058600207940257
129,-5.770186429036036,-1.330834176865988,0.38647739093273015,1.0114634712667687,-1.150881901147356,-2.9811095336853515,-0.0007598406772501287,0.19317185341268397,0.4912001448350062,-2.948892998864591,-0.060625606408953925,-3.0532558153349525
130,-5.77780537788213,-1.331034782893092,0.383110195486573,0.9991398271567578,-1.162882823894857,-2.9817727590924603,0.001348073646147148,0.19236093217263192,0.49027412507614654,-2.9566071240594596,-0.046431575188651146,-3.0484603260541503
131,-5.784769376503389,-1.3312181441578006,0.3800324553785548,0.9878755645498485,-1.173852107342702,-2.982378971434083,0.0032908681575277397,0.1916108013116,0.48943088502535237,-2.963346450315379,-0.03331693104851308,-3.0441690132298955
132,-5.791096863365807,-1.3313847461427546,0.37723602172620385,0.9776408592409727,-1.1838187946844307,-2.9829297757687856,0.005069451484752435,0.19092159120569543,0.4886679507906295,-2.9692118519632413,-0.021289106120706443,-3.0403420425384984
133,-5.796807896901668,-1.3315351169841174,0.3747120297027289,0.9684032667307667,-1.1928144807897896,-2.9834269181723307,0.006685698682254812,0.1902930849100645,0.4879824393622193,-2.974295035705235,-0.010345113924361476,-3.036943780185796
134,-5.801924184181528,-1.331669828226504,0.3724508858654372,0.9601276758487112,-1.2008733573671169,-2.9838722882335587,0.008142452554562266,0.18972469465157543,0.4873711397005553,-2.9786790639618754,-0.0004724493114729803,-3.0339421195957246
135,-5.80646910958619,-1.3317894955779106,0.37044225548415355,0.9527762623761911,-1.2080322581257779,-2.984267921550264,0.00944351590763039,0.18921544361837414,0.4868305794855841,-2.9824389294197844,0.008350118845762672,-3.0313078452515625
136,-5.810467763478664,-1.3318947796646445,0.3686750498696423,0.9463084426696433,-1.2143307039385647,-2.984616002225078,0.010593636553806247,0.18876395351246905,0.4863570779460624,-2.9856421740185755,0.016151852195154946,-3.0290140455271586
137,-5.813946970876132,-1.3319863867862538,0.3671374137020218,0.9406808272836544,-1.219810948004123,-2.9849188653613474,0.011598486704281149,0.18836843797364994,0.48594678553718024,-2.9883495468994514,0.022969434802029245,-3.027035581117742
138,-5.81693532012194,-1.3320650696704561,0.3658167123591878,0.93584717459406,-1.2245180210093274,-2.9851789995590132,0.012464638183266086,0.18802670168261898,0.4855957115149855,-2.990615696011419,0.028846442875921547,-3.0253486115851445
139,-5.819463191557544,-1.3321316282280695,0.36469951924523314,0.9317583444210884,-1.2284997762917298,-2.985399049410491,0.013199534707190666,0.18773614470609262,0.48529974067022064,-2.992489887479295,0.03383288328507595,-3.023930179389796
140,-5.82156278619449,-1.3321869103079411,0.3637716031188596,0.9283622516524277,-1.231806935001945,-2.98558181799655,0.013811462302535611,0.18749377145332813,0.4850546406365875,-2.994016745753754,0.03798479243975285,-3.022757848465991
141,-5.8232681543863904,-1.332231812451877,0.36301791542180517,0.9256038198663603,-1.2344931312660794,-2.9857302693821928,0.014309518795872753,0.18729620346748171,0.48485606128362174,-2.995237006195601,0.04136388788908314,-3.021809392813593
142,-5.824615224500876,-1.3322672806495717,0.36242257760725916,0.923424934954868,-1.2366149573481335,-2.985847531112536,0.014703583204509013,0.18713969517160084,0.4846995277470129,-2.9961882702462415,0.04403726589422664,-3.0210625296571756
143,-5.8256418315915965,-1.3322943110935377,0.3619688684682858,0.9217643987467454,-1.2382320088123917,-2.9859368967086874,0.015004285787629013,0.18702015162255675,0.48458042864450496,-2.9969057518064393,0.046077139322034485,-3.020494691396655
144,-5.826387746070141,-1.332313950934036,0.3616392114662337,0.9205578826306962,-1.239406929685881,-2.9860018281636296,0.015222979485154858,0.1869331472914954,0.48449400097898165,-2.997423001948381,0.04756061145236464,-3.020082830775482
145,-5.826894702378072,-1.3323272990340038,0.3614151620591637,0.9197378811784658,-1.240205457620731,-2.986045958438094,0.015371713471860109,0.18687394488083814,0.48443531314831706,-2.997772597651091,0.048569482700810795,-3.019803254351311
146,-5.827206427658836,-1.3323355067239866,0.361277395030269,0.9192336657679423,-1.240696469056621,-2.986073093956447,0.015463209582836486,0.18683751319958505,0.4843992473713697,-2.997986778880972,0.0491900888067431,-3.0196314803840396
147,-5.827368670429765,-1.332339778557065,0.36120569181628337,0.9189712382062476,-1.2409520243831675,-2.9860872171025625,0.015510842417927308,0.18681854314452018,0.48438048270973183,-2.9980980170246676,0.04951317068737236,-3.0195421185640305
148,-5.827429229254052,-1.3323413730637865,0.36117892783591343,0.9188732843528555,-1.2410474131023426,-2.9860924887157076,0.015528624000959928,0.18681146086808265,0.4843734797258798,-2.998139496397383,0.049633777859090046,-3.0195087704772985
149,-5.827437981412689,-1.332341603507094,0.3611750598182508,0.91885912774275,-1.241061198990904,-2.986093250586419,0.015531193948833177,0.18681043724679286,0.4843724676824111,-2.9981454892684947,0.049651209005136275,-3.0195039512243906
