nimar13/UR3e_dataset_trayectorias/data/trayectorias_completas_UR3e_QUINTIC/trayectoria_484.csv
Punto,shoulder_pan_joint,shoulder_lift_joint,elbow_joint,wrist_1_joint,wrist_2_joint,wrist_3_joint,Posicion_X,Posicion_Y,Posicion_Z,Roll,Pitch,Yaw
0,2.8370334639779085,-1.3845372361391715,0.9136362692180596,-2.8260137938990257,-1.586852680044468,-0.22433194200103748,-0.33789195894201873,-0.030198258191804668,0.5960028720810432,2.91472646760643,-0.15386332166917766,2.8202161579056106
1,2.8370365163047517,-1.384537068009497,0.9136328494444569,-2.82600263328865,-1.5868442524908448,-0.22434492368688166,-0.33789259309792974,-0.030199867883099803,0.59600286629106,2.9147120488636475,-0.1538553923680413,2.8202276938209763
2,2.837057636274414,-1.3845359046695904,0.9136091869998838,-2.825925409660685,-1.5867859397065325,-0.22443474788504014,-0.3378969804843643,-0.030211006046478115,0.596002825999162,2.9146122849794445,-0.15380052678419406,2.820307513699305
3,2.837114218654282,-1.3845327879728542,0.9135457930912355,-2.8257185203174653,-1.5866297142873744,-0.22467539533779632,-0.3379087301438112,-0.030240848159780453,0.5960027160794164,2.9143450404193243,-0.15365353365286827,2.820521353494186
4,2.8372229332561676,-1.3845267997050286,0.9134239911529516,-2.825321013308483,-1.586329550450369,-0.22513776351817438,-0.33793128671920775,-0.030298193208881323,0.5960024968204274,2.9138317016481032,-0.1533710957018563,2.820932193755793
5,2.8373997349356936,-1.3845170610333997,0.9132259056438783,-2.824674550868363,-1.585841396425102,-0.22588970915779114,-0.337967917913382,-0.030391475118433937,0.5960021176059149,2.912997233097895,-0.1529117339845511,2.821600281123796
6,2.837659873591684,-1.3845027319560093,0.9129344508441297,-2.8237233728548286,-1.5851231468451792,-0.2269960907747079,-0.33802169753243017,-0.030528775993404138,0.59600150874468,2.9117702640161043,-0.15223576967565958,2.8225831452840593
7,2.8380179041655484,-1.3844830107508639,0.9125333196519494,-2.822414260186676,-1.5841346151396594,-0.2285188112012822,-0.3380954848724048,-0.03071784078876664,0.5960005718442054,2.9100832004566284,-0.15130528432833223,2.8239356127280875
8,2.838487696640672,-1.3844571334251439,0.9120069723805715,-2.820696498281742,-1.5828375059244852,-0.23051686011201983,-0.33819190113803593,-0.03096609302661048,0.5959991691212867,2.9078723570152434,-0.15008407976298954,2.825709818793204
9,2.8390824460417994,-1.3844243731644121,0.9113406255550826,-2.8185218404948733,-1.5811953873939164,-0.23304635655142655,-0.3383133035138559,-0.03128065118026765,0.5959971120434998,2.9050781032368596,-0.1485376389328142,2.8279552196054754
10,2.839814682434425,-1.3843840397818243,0.9105202407092825,-2.8158444715558995,-1.5791736637119624,-0.23616059146186005,-0.33846175744353374,-0.03166834534518416,0.5959941496955613,2.901645019942558,-0.14663308927403845,2.830718605683001
11,2.8406962809241785,-1.3843354791673366,0.9095325131825468,-2.812620971007601,-1.5767395474038142,-0.23991007021138167,-0.33863900761386145,-0.032135733816972725,0.5959899572635626,2.8975220610426424,-0.14433917018861048,2.834044119073005
12,2.841738471656213,-1.384278072736916,0.908364860916687,-2.808810276643681,-1.5738620317472765,-0.24434255512160832,-0.3388464480867379,-0.03268911919915933,0.5959841250267732,2.8926627167221577,-0.1416262064134232,2.8379732759833685
13,2.8429518498145914,-1.3842112368817487,0.9070054132528131,-2.8043736479467345,-1.5705118631642006,-0.24950310799556447,-0.33908509197669545,-0.033334563667004206,0.5959761482404683,2.8870251742109256,-0.1384660890968623,2.8425449969206493
14,2.844346385621674,-1.3841344224174499,0.9054429997281944,-2.7992746295262183,-1.5666615136119164,-0.2554341326455337,-0.33935554103370597,-0.034077903019855256,0.5959654182835982,2.880572472684088,-0.13483226642573456,2.8477956463566896
15,2.845931434337507,-1.3840471140332722,0.9036671388731211,-2.7934790145564214,-1.5622851529746649,-0.2621754174209108,-0.3396579554617375,-0.03492475916300886,0.5959512154316602,2.8732726491835563,-0.1306997456212093,2.853759083910496
16,2.847715746259207,-1.3839488297413156,0.9016680270077658,-2.7869548082144364,-1.5573586214550306,-0.26976417773605355,-0.3399920242830793,-0.03588055067125362,0.5959327035975865,2.865098872807332,-0.12604510805125163,2.860466728947844
17,2.8497074767203503,-1.3838391203257356,0.8994365270390448,-2.779672191118129,-1.5518594019653733,-0.27823509859813456,-0.34035693654688853,-0.03695050110036411,0.59590892736168,2.8560295647827307,-0.12084653909104671,2.8679476403660367
18,2.8519141960903607,-1.3837175687919534,0.8969641572574797,-2.7716034827641063,-1.5457665925192614,-0.287620377134993,-0.3407513536775146,-0.03813964472999178,0.5958788115854101,2.846048502420762,-0.11508387420583524,2.876228613143817
19,2.854342899773894,-1.3835837898158643,0.8942430801340591,-2.7627231049656906,-1.5390608786229034,-0.2979497651229869,-0.34117338326354296,-0.03945282944194244,0.5958411638732057,2.8351449053401088,-0.10873866253786135,2.8853342929960544
20,2.8570000182102286,-1.3834374291930471,0.8912660911170992,-2.7530075452908873,-1.5317245056665802,-0.30925061151484423,-0.3416205546014614,-0.04089471646201434,0.5957946801110904,2.823313502746822,-0.10179424905750302,2.89528731017948
21,2.8598914268726503,-1.3832781632879734,0.8880266074291064,-2.7424353205003538,-1.5237412513160784,-0.3215479049675156,-0.3420897963275117,-0.04246977672173691,0.5957379532711562,2.8105545809542676,-0.09423587609614172,2.906108433150118
22,2.8630224562678395,-1.3831056984832162,0.8845186568636377,-2.730986939985374,-1.5150963979041219,-0.3348643163700255,-0.34257741649650636,-0.0441822836288859,0.5956694856263408,2.7968740107190944,-0.08605080482345667,2.9178167423764796
23,2.866397901935261,-1.38291977062866,0.880736866582163,-2.718644869205824,-1.5057767048218038,-0.34922024137132435,-0.3430790854958333,-0.04603630207296601,0.5955877044708394,2.7822832543426563,-0.07722845697352956,2.930429824166811
24,2.8700220344465475,-1.382720144490709,0.8766764519109258,-2.705393493128145,-1.49577038091002,-0.3646338429081404,-0.34358982221496615,-0.048035673534354624,0.595490981387785,2.7667993528300436,-0.06776057687138368,2.9439639838757388
25,2.873898609404891,-1.3825066132014965,0.872333205137805,-2.6912190796633126,-1.4850670568509006,-0.38112109373283176,-0.3441039839238297,-0.050183997213910946,0.5953776550476494,2.750444893694629,-0.05764141357204892,2.9584344773175797
26,2.878030877444426,-1.3822789977080943,0.8677034843091768,-2.6761097431048073,-1.4736577575592422,-0.3986958189412375,-0.3446152603454172,-0.05248460715389616,0.5952460574583939,2.733247960225747,-0.04686792270495789,2.9738557586317507
27,2.88242159422962,-1.382037146221722,0.8627842020267751,-2.660055407566584,-1.461534874573941,-0.41736973850053066,-0.34511667243707034,-0.0549405453813184,0.595094543522018,2.715242063178887,-0.03543998742199042,2.990241742220441
28,2.8870730304546584,-1.381780933666955,0.857572814244554,-2.643047770421043,-1.448692138449424,-0.4371525097770691,-0.34560057641865455,-0.05755453117138065,0.5949215236822226,2.6964660558772615,-0.02336065767985296,3.0076060757083507
29,2.8919869818428334,-1.3815102611309358,0.8520673090655486,-2.625080265737001,-1.4351245911470831,-0.45805177006424785,-0.3460586736022379,-0.06032892660160647,0.5947254993750413,2.676964033603931,-0.010636406945546304,3.0259624201545616
30,2.8971647791459296,-1.3812250553125802,0.8462661955387367,-2.606148027717658,-1.420828558426705,-0.48007317911035086,-0.346482026584583,-0.06326569864609549,0.5945051009192279,2.6567852178864615,0.002722594708019374,3.045324732969591
31,2.902607298143613,-1.3809252679717892,0.8401684924559001,-2.586247854138571,-1.405801622237906,-0.5032204616464027,-0.3468610823584608,-0.06636637814377466,0.5942591274068825,2.6359838258015267,0.016702192260599862,3.0657075481444034
32,2.908314969642818,-1.3806108753786566,0.8337737171484862,-2.5653781697856246,-1.3900425931115628,-0.5274954499140206,-0.3471857028794385,-0.06963201606358857,0.5939865880783991,2.6146189237249873,0.03128394341846051,3.087126247465983
33,2.914287789477132,-1.3802818777626786,0.8270818742844694,-2.543538989892996,-1.373551482551245,-0.5528981261932664,-0.3474452035892451,-0.07306313758220465,0.5936867445907045,2.592754263994269,0.0464448037080329,3.1095973153547702
34,2.9205253285061867,-1.3799382987619628,0.8200934446652127,-2.5207318835811314,-1.3563294754246478,-0.5794266653304982,-0.3476284003434009,-0.07665969458448475,0.5933591535155177,2.57045810170721,0.062156800592484386,3.1331385687880653
35,2.927026742615042,-1.3795801848724378,0.8128093740223287,-2.4969599372947124,-1.338378902355025,-0.607077477266222,-0.34772366511793695,-0.08042101729184845,0.5930037083367392,2.5478029873321075,0.0783866985032649,-3.125415954736012
36,2.933790782713576,-1.3792076048970612,0.8052310618145413,-2.472227718240629,-1.3197032121126195,-0.6358452495629441,-0.34771899077672086,-0.08434576581651028,0.592620680155117,2.5248655289322337,0.09509565710089704,-3.0996746194962568
37,2.9408158047358697,-1.3788206493950304,0.7973603500245475,-2.4465412378259455,-1.3003069440060975,-0.6657229899330228,-0.3476020650664832,-0.08843188252787197,0.5922107562560688,2.5017261156118544,0.11223888568516407,-3.0727999448978482
38,2.948099779639595,-1.37841943013099,0.7891995119558783,-2.419907915095875,-1.2801957002739799,-0.6967020687665195,-0.3473603538711181,-0.09267654619822284,0.5917750756552466,2.4784685912859765,0.12976529752174834,-3.0447673613013557
39,2.9556403034054037,-1.3780040795242423,0.7807512410297608,-2.392336540171748,-1.2593761184760743,-0.7287722616590517,-0.34698119360079516,-0.09707612896527493,0.5913152607083514,2.455179865108143,0.14761716900355734,-3.0155505931533706
40,2.9634346070363122,-1.377574750097956,0.7720186395819784,-2.363837237688983,-1.237855843884909,-0.7619217919396444,-0.3464518924162312,-0.1016261572056175,0.5908334438590943,2.431949441946814,0.16572981008662965,-2.985121845702819
41,2.97147956655709,-1.3771316139283751,0.7630052076597337,-2.3344214302350546,-1.2156435018771627,-0.7961373731985811,-0.34575983979624725,-0.1063212774526184,0.5903322886042277,2.4088688533282765,0.18403125439763304,-2.95345212408189
42,2.979771713013648,-1.376674862094028,0.7537148318185092,-2.3041018017874664,-1.1927486703250998,-0.8314042518152576,-0.3448926237504041,-0.11115522851125169,0.5898150037791935,2.386030966490265,0.20244197985871726,-2.920511708391882
43,2.988307242472423,-1.376204704124937,0.7441517739189291,-2.272892261151721,-1.1691818519880004,-0.8677062494860316,-0.34383815476184904,-0.11612082091768176,0.5892853503138398,2.363529146949422,0.22087467365210844,-2.8862708099688685
44,2.997082026019767,-1.3757213674518276,0.7343206599236197,-2.2408079053992873,-1.144954446903593,-0.9050258057520766,-0.3425847953231159,-0.12120992486029629,0.5887476396762111,2.341456248742517,0.23923405885176297,-2.850700434588367
45,3.0060916197613343,-1.375225096855337,0.7242264686940729,-2.207864983305575,-1.1200787247794892,-0.9433440205272314,-0.3411214937048278,-0.12641346761886382,0.5882067233144382,2.319903406875023,0.2574168040251974,-2.813773477400595
46,3.015331274821468,-1.3747161539152237,0.7138745207875055,-2.1740808587879017,-1.0945677973846124,-0.9826406966258548,-0.3394379203801194,-0.13172144148781323,0.5876679725225529,2.298958609282891,0.2753115414123507,-2.7754660710996646
47,3.024795947342588,-1.3741948164595765,0.7032704672537218,-2.1394739743434634,-1.068435590940633,-1.0228943822906753,-0.33752460532272266,-0.1371229230272249,0.5871372482953173,2.2787050317130007,0.29279902365826116,-2.7357592023009074
48,3.0344803084845777,-1.3736613780140237,0.6924202784319748,-2.104063814487306,-1.0416968185133988,-1.0640824137206433,-0.33537307421104734,-0.14260610433088633,0.5866208608988072,2.259219129371349,0.30975245309710914,-2.6946406003179826
49,3.0443787544241707,-1.3731161472509417,0.6813302327478279,-2.067870869190295,-1.0143669524043692,-1.1061809575987842,-0.3329759814114253,-0.14815833681552576,0.586125519065705,2.2405684949567495,0.32603802065748566,-2.652106886514191
50,3.0544854163543405,-1.3725594474386658,0.6700069055100157,-2.030916597317084,-0.9864621965420459,-1.1491650536200484,-0.33032723748821136,-0.15376618782111545,0.5856582689245099,2.2228095145296822,0.34151569278431526,-2.608165950409079
51,3.064794170483683,-1.371991615890697,0.6584571577073065,-1.9932233900640892,-0.9579994588734061,-1.1930086570191645,-0.3274221289034668,-0.15941551007204544,0.5852264229866281,2.2059848807521685,0.3560402833717144,-2.5628394905540315
52,3.075298648035811,-1.371413003414913,0.6466881248053624,-1.9548145343974541,-0.9289963237553349,-1.2376846810984907,-0.32425742753089637,-0.16509152378736708,0.5848374797405517,2.1901210566324534,0.36946284247879063,-2.516165624583202
53,3.0859922452487325,-1.3708239737627765,0.6347072055436019,-1.915714176491024,-0.8994710243460569,-1.2831650397558667,-0.32083148762301905,-0.17077891095062303,0.5844990346330443,2.175225819920014,0.3816323834875058,-2.468201435886244
54,3.096868133374246,-1.3702249030785445,0.6225220507320607,-1.8759472851643133,-0.869442414996569,-1.3294206900124659,-0.31714432794158665,-0.17646192096262717,0.5842186834480423,2.161286054921971,0.3923979545345327,-2.4190252878255585
55,3.107919268677323,-1.3696161793484773,0.6101405520482535,-1.8355396153204784,-0.8389299436420736,-1.3764216745406463,-0.3131976968919837,-0.1821244866113122,0.5840039193187574,2.148265989139209,0.40161103822663835,-2.3687387059337115
56,3.119138402435496,-1.3689982018500482,0.5975708308340351,-1.7945176713842859,-0.8079536241934091,-1.4241371641918033,-0.3089951186940398,-0.18775034900971418,0.5838620248209563,2.1361060896546635,0.4091282364272752,-2.3174676111592363
57,3.1305180909382484,-1.368371380601152,0.5848212268924623,-1.7529086707400836,-0.7765340089284839,-1.4725355005242204,-0.30454191887382537,-0.19332318988493863,0.5837999607890388,2.12472283101333,0.4148141660432653,-2.26536269060402
58,3.142050705486397,-1.367736135809314,0.5719002872846551,-1.7107405071697703,-0.744692160883708,-1.5215842383309235,-0.29984522767108013,-0.19882676935648463,0.5838242536649038,2.1140095158449452,0.4185444603075377,-2.21259872287076
59,3.1537284423914844,-1.3670928973209002,0.558816755126658,-1.6680417142907666,-0.7124496262454251,-1.5712501881675294,-0.29491396032030576,-0.20424506713037208,0.5839408833264774,2.1038382682671357,0.4202087422569132,-2.159372736533249
60,3.1655433329751617,-1.3664421040703256,0.5455795583863015,-1.6248414289939843,-0.6798284067413459,-1.6214994588801006,-0.2897587735736642,-0.20956242486442822,0.5841551734424703,2.094063229925882,0.41971341777603843,-2.1059009705895133
61,3.1774872535685788,-1.3657842035292629,0.5321977986800639,-1.581169354881797,-0.6468509320319786,-1.6722975001329947,-0.28439199828198874,-0.21476368733737777,0.5844716864574375,2.0845248775980494,0.4169841292865828,-2.0524147168324873
62,3.1895519355117705,-1.3651196511558532,0.5186807400699325,-1.537055725706011,-0.6135400321020638,-1.723609144936719,-0.2788275483260546,-0.21983433998637147,0.5848941253225425,2.075055264018952,0.41196772110749197,-1.9991552414450287
63,3.2017289751530438,-1.3644489098439132,0.5050377978602647,-1.4925312688058343,-0.5799189096520052,-1.7753986521757792,-0.27308080668184453,-0.22476064036916826,0.5854252440496034,2.0654838784302463,0.40463359451775094,-1.9463680883637378
64,3.2140098438483653,-1.3637724493721464,0.4912785273946503,-1.4476271685458473,-0.5460111124893017,-1.8276297491365339,-0.2671684898977073,-0.22952974116146607,0.5860667690775099,2.0556437488006645,0.3949743724688385,-1.8942971415197496
65,3.2263858979607485,-1.3630907458533499,0.477412612852772,-1.4023750297539739,-0.5118405059199809,-1.8802656740350447,-0.2611084927441775,-0.23412980241795686,0.5868193333007594,2.0453773778163895,0.38300584571928076,-1.843178852883691
66,3.2388483888596404,-1.362404281183626,0.46344985604726757,-1.3568068411594498,-0.47743124514003,-1.9332692185449303,-0.25491971525456397,-0.2385500910065908,0.5876824244210531,2.03454212538567,0.36876622693196376,-1.7932370224899528
67,3.251388472920309,-1.3617135424915896,0.4494001652205907,-1.3109549388307933,-0.4428077476268295,-1.9866027703252143,-0.24862187479221595,-0.24278106536603636,0.5886543490475913,2.0230147174988966,0.35231478949689643,-1.7446784493363592
68,3.263997221523232,-1.3610190215875777,0.4352735438418732,-1.2648519696137792,-0.4079946655305855,-2.0402283555481815,-0.24223530614534733,-0.24681444403102748,0.5897322136943349,2.0106946620388477,0.3337300070873365,-1.697689671028746
69,3.276665631053481,-1.3603212144128594,0.42108007940378583,-1.2185308545694014,-0.3730168580657607,-2.0941076814272273,-0.2357807529504195,-0.250643256711768,0.590911923509025,1.9975064684848893,0.3131073340998415,-1.6524348933131672
70,3.2893846329001124,-1.3596206204888437,0.4068299322193998,-1.1720247524118503,-0.33789936390250785,-2.1482021787447083,-0.22927915397004733,-0.2542618770925129,0.5921881992263823,1.9834006816132832,0.2905567749282268,-1.6090550969813533
71,3.302145103455552,-1.3589177423662895,0.3925333242190484,-1.1253670229464796,-0.3026673735581018,-2.2024730443798006,-0.2227514278930726,-0.25766603692001666,0.5935546124749549,1.968353833869472,0.2662003829514724,-1.567668214423402
72,3.314937874114982,-1.3582130850745149,0.3782005277471885,-1.0785911905077763,-0.26734620178837254,-2.256881283836342,-0.21621826037729547,-0.2608528213727544,0.5950036391927856,1.952367487630134,0.24016981161187811,-1.5283702007618687
73,3.3277537412757314,-1.3575071555706055,0.36384185435926186,-1.0317309073973322,-0.23196125997913497,-2.311387753770692,-0.20969989701656272,-0.2638206461239236,0.5965267305311425,1.9354665741821402,0.21260401439582652,-1.4912367879118096
74,3.3405834763366595,-1.3568004621886245,0.34946764361855687,-0.9848199173218151,-0.19653802853762548,-2.365953204519579,-0.20321594578369506,-0.2665692169222455,0.5981144002580622,1.9176972435224107,0.18364716224095293,-1.4563257014482702
75,3.3534178356975444,-1.3560935140888213,0.3350882518930691,-0.9378920188309345,-0.16110202928393114,-2.4205383226279515,-0.19678519228228236,-0.26909947290180497,0.5997563273243185,1.8991244241641616,0.15344681947067038,-1.4236791336652665
76,3.366247570758472,-1.3553868207068402,0.3207140411523637,-0.8909810287554163,-0.12567879784242098,-2.4751037733768397,-0.19042543083978203,-0.27141351518358775,0.6014414719331764,1.879829262581655,0.12215239528698914,-1.393326294096825
77,3.3790634379192213,-1.354680891202931,0.30635536776443706,-0.8441207456449729,-0.09029385603318385,-2.5296102433111893,-0.18415331410046806,-0.27351452263628334,0.6031582031707524,1.859906575007923,0.089913868477763,-1.3652858937543166
78,3.391856208578652,-1.3539762339111563,0.29202257129257725,-0.7973449132062691,-0.05497268426345392,-2.584018482767731,-0.1779842233407639,-0.27540665691320126,0.6048944360136695,1.83946240593466,0.05688076868495787,-1.3395684554923772
79,3.404616679134091,-1.353273355788602,0.277725963292226,-0.7506871837408982,-0.019740693919048313,-2.6382893484028225,-0.17193216124457425,-0.277094959068719,0.6066377753414659,1.8186117519855165,0.023201388010091625,-1.3161783761240942
80,3.417335680980723,-1.3525727618645864,0.26347581610783977,-0.7041810815833474,0.015376800244204736,-2.6923838457203044,-0.16600966835700787,-0.2785852401767061,0.6083756644477691,1.7974764792449405,-0.010977808835458609,-1.295115693799007
81,3.430004090510972,-1.351874954689868,0.24928235166975266,-0.6578599665389695,0.05035460770902933,-2.7462631715993506,-0.16022776389697369,-0.27988396842246077,0.6100955354698219,1.776183437617863,-0.04551261009991861,-1.276377535815585
82,3.442612839113895,-1.3511804337858562,0.2351557302910351,-0.611756997321955,0.08516768980527312,-2.7998887568223174,-0.1545959110683609,-0.28099815511896253,0.6117849591419899,1.7548627573795637,-0.08026135282377153,-1.259959237580131
83,3.4551529231745635,-1.3504896950938197,0.22110603946435825,-0.5659050949932989,0.11979118731847316,-2.8532223086026014,-0.14912200648158336,-0.28193524201020914,0.613431791324981,1.7336463001835827,-0.11508512235683761,-1.24585513361025
84,3.467615414073455,-1.349803230424096,0.20714328265885396,-0.5203369063987755,0.15420044809842448,-2.906225853112486,-0.14381239279690008,-0.2827029920739598,0.6150243138665884,1.7126662286174628,-0.1498478870900905,-1.234059027412063
85,3.479991468185838,-1.3491215269052994,0.1932773681169755,-0.4750847676069023,0.1883710546677455,-2.9588617780109976,-0.13867189324160994,-0.28330938583017634,0.6165513675078678,1.6920536541127411,-0.18441659773003133,-1.2245643499571524
86,3.4922723368811592,-1.3484450664335326,0.17951809765136095,-0.43018066734691507,0.22227885183044926,-3.011092874971752,-0.13370386624658345,-0.2837625249085002,0.6180024747555852,1.6719373219474647,-0.2186612782202575,-1.2173640175619729
87,3.504449376522433,-1.3477743251215926,0.1658751554416934,-0.3856562104467387,0.2558999742805075,-3.062882382210812,-0.1289102781030957,-0.28407054433813383,0.6193679508907063,1.65244229376234,-0.2524551333126738,-1.2124500003742333
88,3.516514058465625,-1.3471097727481829,0.15235809683156187,-0.34154258127095183,0.28921087421042246,-3.1141940270145367,-0.12429179126563704,-0.28424153470732183,0.6206390015660868,1.6336885922168094,-0.2856746958232109,-1.20981261344874
89,3.5284579790590422,-1.3464518722071201,0.1389763371253242,-0.2978705071587644,0.322188348919791,-3.164992068267431,-0.1198478657247531,-0.2842834750085531,0.6218078057557824,1.6157897791248284,-0.3182000346777276,-1.2094395444983712
90,3.5402728696427195,-1.3458010789565455,0.12573914038496758,-0.2546702218619816,0.3548095684238688,-3.215241338980002,-0.11557687074786589,-0.28420417665081577,0.6228675831447086,1.5988514477761604,-0.34991504277520386,-1.2113146366653833
91,3.5519506065478064,-1.3451578404681317,0.1126556082269704,-0.21197142898297816,0.38705210306215254,-3.264907288816607,-0.11147620423477722,-0.28401123879254603,0.6238126453815875,1.5829696223799588,-0.3807078212054301,-1.215416451750037
92,3.5634832210959555,-1.3445225956762938,0.09973466861916336,-0.16980326541266555,0.41889395110692784,-3.3139560266233103,-0.10754241695504656,-0.28371201483827985,0.6246384309513845,1.5682290728192292,-0.4104711731433787,-1.2217166497051692
93,3.5748629095987074,-1.3438957744273976,0.0869850646775906,-0.1281942647684633,0.4503135663718536,-3.3623543629557275,-0.10377133902152814,-0.2833135896571348,0.6253415237472069,1.5547015711185337,-0.4391032164685349,-1.2301782339638063
94,3.586082043356881,-1.3432777969289684,0.07441534346337231,-0.08717232083226989,0.48128988582051746,-3.4100698526068838,-0.1001582061009836,-0.2828227668295363,0.6259196557281919,1.5424441367446802,-0.4665081185145659,-1.2407537289313662
95,3.597133178659958,-1.3426690731989013,0.062033844779565306,-0.04676465098843563,0.5118023571750141,-3.4570708371350642,-0.09669778306049061,-0.28224606501562416,0.6263716943322726,1.5314973400350433,-0.4925969491200473,-1.2533833747171463
96,3.6080090667854714,-1.3420700025146692,0.04984868996802372,-0.006997759661726111,0.541830966524502,-3.5033264873916647,-0.09338448298783969,-0.2815897223686019,0.6266976155651635,1.5218837548930375,-0.5172886392642966,-1.2679934430955409
97,3.618702663998393,-1.3414809728625328,0.03786777070626324,0.032102598244705405,0.5713562659337799,-3.5488068460490405,-0.09021247979523764,-0.2808597077909719,0.6268984639046985,1.5136066708180045,-0.5405110222236131,-1.284494795149139
98,3.6292071415505203,-1.3409023603867487,0.02609873780431904,0.07051145391134028,0.6003594010518516,-3.5934828701283665,-0.08717581290811412,-0.28006173775171994,0.6269763003395736,1.506649187069418,-0.5622019228895403,-1.3027818117246215
99,3.639515895679863,-1.34033452883878,0.014548990001609474,0.10820466116433547,0.6288221387204913,-3.6373264735274837,-0.08426848284462744,-0.2792012973468362,0.6269341400013678,1.5009738146736387,-0.5823102495447297,-1.3227318290452923
100,3.6496225576100327,-1.339777829026504,0.0032256627637976543,0.1451589330375458,0.6567268945828151,-3.6803105695487486,-0.08148453679698056,-0.27828366429158413,0.6267758809477834,1.4965227016871483,-0.6007970322471244,-1.3442052001394185
101,3.6595210035496257,-1.3392325982634223,-0.007864382920349189,0.1813518783345578,0.6840567606918444,-3.7224091134268873,-0.07881814362420293,-0.277313934576855,0.6265062257136448,1.4932185713231416,-0.6176363445428361,-1.367046075801698
102,3.6692053646916154,-1.3386991598178692,-0.01871457174209612,0.2167620381907156,0.7107955331190785,-3.7635971448568575,-0.07626365794989248,-0.27629704859904075,0.6261305972658827,1.4909664208759406,-0.6328160420827293,-1.3910839562085047
103,3.678670037212735,-1.338177822362222,-0.02931862527588014,0.25136892263515254,0.7369277395630582,-3.803850830521678,-0.07381567332111166,-0.2752378166777197,0.6256550509819466,1.4896559741646105,-0.6463382541948958,-1.4161360083417236
104,3.687909692272869,-1.3376688794221088,-0.03967057318244738,0.28515304715282674,0.7624386669579348,-3.8431475066202987,-0.07146906462100205,-0.27414094300217584,0.6250861842210983,1.4891648167275673,-0.6582195733418665,-1.4420100802711207
105,3.6969192860144364,-1.3371726088256182,-0.04976476441199473,0.3180959692465395,0.7873143890820382,-3.8814657213954544,-0.06921902013397205,-0.27301104719040015,0.6244310449787724,1.4893620790077993,-0.668490902595969,-1.4685082788464836
106,3.7056940695617806,-1.3366892721525088,-0.059595878407303515,0.35018032499897256,0.8115417941664453,-3.9187852776614984,-0.06706106383605451,-0.2718526827967502,0.6236970410099927,1.4901124773685863,-0.6771969417255025,-1.4954309215294843
107,3.7142295990205554,-1.3362191141834179,-0.06915893630688319,0.3813898656347172,0.8351086125035458,-3.955087275332272,-0.06499106862308773,-0.27067035226124475,0.6228918506834331,1.4912804846310068,-0.6843953161765968,-1.5225806345907067
108,3.7225217454771133,-1.3357623623490709,-0.07844931214810813,0.41170949408230495,0.8580034440556095,-3.990354153948948,-0.06300526129576851,-0.269468517949305,0.6220233366878182,1.4927343872531957,-0.6901553774722322,-1.549766355019498
109,3.7305667049978917,-1.3353192261794897,-0.0874627440703527,0.44112530153623464,0.8802157860633557,-4.024569735207885,-0.06110022019442177,-0.26825160908104856,0.6210994635618459,1.4943499977809995,-0.6945567254389028,-1.5768070047353102
110,3.7383610086288,-1.3348898967532035,-0.09619534551813513,0.46962460401899975,0.9017360606545199,-4.057719265488479,-0.05927286641945645,-0.2670240244900597,0.6201282198621584,1.496013826867188,-0.6976875196493756,-1.6035346411160263
111,3.7459015323946088,-1.334474546146456,-0.10464361644425291,0.49719597894312617,0.922555642452427,-4.089789458381012,-0.05752044958861705,-0.2657901312797666,0.619117545625494,1.4976255730994013,-0.6996426577663526,-1.6297969415825362
112,3.753185507298334,-1.3340733268824156,-0.11280445451292265,0.5238293016731972,0.9426668861845446,-4.1207685372145075,-0.05584052907240475,-0.2645542595587703,0.6180752656248871,1.4990998526498667,-0.7005219013848527,-1.6554589435492573
113,3.760210529320627,-1.3336863713803846,-0.12067516630291542,0.5495157820878807,0.9620631542910669,-4.1506462775845865,-0.05423095161801257,-0.2633206935330888,0.6170090287691321,1.5003671552294733,-0.7004280258981952,-1.6804040253315373
114,3.7669745694191614,-1.3333137914050082,-0.1282534785107029,0.574248001141966,0.9807388445334724,-4.179414049881309,-0.0526898262234395,-0.2620936593124273,0.6159262538526371,1.5013740699783555,-0.6994650611519104,-1.7045341705750894
115,3.773475983528017,-1.332955677515483,-0.13553754915358718,0.5980199474283823,0.9986894176030965,-4.207064861817031,-0.0512154970609081,-0.26087730984903784,0.6148340817317057,1.502082869136187,-0.6977366760527606,-1.7277696028215228
116,3.7797135225570715,-1.3326120985147674,-0.14252597877284356,0.620827053740248,1.015911424729692,-4.233593400954262,-0.04980651517589411,-0.2596757074718641,0.6137393338850624,1.5024705659168591,-0.6953447448780802,-1.7500479052575804
117,3.7856863423913856,-1.3322831008987892,-0.14921782163686104,0.6426662336328746,1.0324025352900115,-4.258996077233509,-0.048461609608484994,-0.25849280450631995,0.6126484772124177,1.5025275760197554,-0.6923881176167375,-1.7713227535715204
118,3.79139401389059,-1.3319687083056566,-0.1556125969442751,0.6635359179858216,1.0481615644163538,-4.283271065501128,-0.04717965850049255,-0.25733242248249244,0.6115675948359008,1.5022561117692244,-0.6889616026925744,-1.791562389286308
119,3.7968365328882743,-1.3316689209648658,-0.16171030002711106,0.683436091564908,1.063188500605153,-4.30641834803718,-0.045959660667611896,-0.2561982304332834,0.6105023625956382,1.5016684272976153,-0.6851551587947498,-1.8107479502711032
120,3.80201433019137,-1.3313837151465102,-0.16751141355392363,0.7023683295842509,1.0774845333255325,-4.328439757083283,-0.04480070803330666,-0.2550937227707786,0.6094580308725006,1.5007850161368095,-0.681053283692753,-1.8288717580138787
121,3.806928281579545,-1.3311130426104907,-0.1730169187329279,0.7203358342682953,1.091052080627872,-4.349339017370463,-0.0437019592420068,-0.2540221972057506,0.6084394113277309,1.499632842431309,-0.6767345818675027,-1.8459356410443035
122,3.8115797178045834,-1.330856830055724,-0.1782283065151501,0.7373434714138356,1.1038948167523885,-4.369121788647,-0.04266261469522421,-0.2529867331435185,0.6074508681199355,1.498243666440443,-0.6722714892773773,-1.8619493533371523
123,3.8159704345897767,-1.3306149785693515,-0.18314758879755144,0.7533978069520604,1.1160176997376918,-4.387795708206292,-0.0416818931864501,-0.2519901709512232,0.6064963131438003,1.4966525059593498,-0.667730132169344,-1.8769291275050568
124,3.820102702629313,-1.3303873630759495,-0.18777730962617933,0.7685071435105653,1.12742699902935,-4.405370433414694,-0.040759010250033464,-0.2510350924485872,0.6055792048306708,1.4948962588865202,-0.6631702970499599,-1.8908963862352057
125,3.823979277587656,-1.330173831786737,-0.1921205563993008,0.7826815569753993,1.138130323088469,-4.421857684239388,-0.03989315828607524,-0.2501238029280096,0.6047025500573077,1.4930124988893652,-0.6586454902702054,-1.9038766222271095
126,3.827603410098943,-1.329974205648786,-0.19618097107053722,0.7959329330530753,1.1481366470002536,-4.4372712857762036,-0.03908348847782326,-0.24925831496173428,0.6038689087243665,1.4910384459915678,-0.6542030677329109,-1.9158984468702993
127,3.8309788557663644,-1.3297882777942298,-0.19996276135201196,0.8082750038326245,1.1574563400825737,-4.451627210777501,-0.0383290944800602,-0.24844033420501813,0.6030804005887396,1.489010106652208,-0.6498844176612477,-1.926992800786412
128,3.8341098851615527,-1.3296158129894726,-0.20347071191748023,0.8197233843476024,1.1661011934945293,-4.464943622180011,-0.03762899782614608,-0.24767124735570362,0.6023387139623766,1.4869615730942993,-0.6457251819150016,-1.9371923147141668
129,3.8370012938239757,-1.3294565470843989,-0.2067101956054741,0.8302956091381364,1.1740844478450312,-4.47724091563268,-0.036982134977226015,-0.24695211238310505,0.601645115922936,1.4849244687820708,-0.6417555038274507,-1.9465308065490425
130,3.8396584122603095,-1.3293101864615817,-0.20968718462243385,0.8400111688129424,1.1814208208013566,-4.488541762024538,-0.036387345919055694,-0.24628365109330536,0.6010004637171437,1.482927525569042,-0.6380002928433512,-1.9550428991854119
131,3.842087115943843,-1.3291764074854926,-0.2124082617458548,0.8488915466113589,1.188126534697713,-4.498871150012537,-0.0358433641991307,-0.2456662440541672,0.6004052170745557,1.4809962777225907,-0.6344794983009492,-1.9627637437233907
132,3.844293835313853,-1.3290548559517104,-0.21488063152741932,0.8569602549653808,1.1942193441438247,-4.508256428549394,-0.03534880828873929,-0.24509992786193782,0.5998594511862055,1.4791528584243898,-0.6312083864876359,-1.9697288332416107
133,3.8462855657749957,-1.3289451465361304,-0.21711213149614006,0.8642428720616881,1.199718563633484,-4.516727349411476,-0.034902174150239954,-0.24458439469234794,0.5993628701380651,1.4774158851731947,-0.6281978166041895,-1.9759738934187652
134,3.8480698776966964,-1.3288468622441736,-0.219111243361496,0.8707670784036714,1.204645095153117,-4.524316109726617,-0.034501828888766684,-0.24411899404265525,0.5989148206222826,1.4758004215680314,-0.6254545125063342,-1.981534837598462
135,3.849654926412529,-1.3287595538599961,-0.22088710421656865,0.8765626933734714,1.2090214557903682,-4.531057394501997,-0.034146005368838744,-0.2437027365370785,0.5985143057786515,1.4743180040740507,-0.6229813280730765,-1.986447775277907
136,3.8510494622196125,-1.3286827393956973,-0.2224495177411877,0.8816617117939867,1.2128718053426508,-4.536988419151966,-0.033832797679471796,-0.24333429963647243,0.5981599990439689,1.4729767234680256,-0.6207775048015086,-1.9907490643543158
137,3.8522628403779904,-1.32861590354053,-0.22380896540506134,0.8860983404909337,1.2162219739257265,-4.542148972025921,-0.0335601573357985,-0.2430120350636986,0.5978502579069775,1.4717813516583012,-0.6188389207703703,-1.9944753987141994
138,3.8533050311100254,-1.3285584971101094,-0.22497661767092125,0.889909034854854,1.219099489582266,-4.546581456936143,-0.03332589011041668,-0.24273397772886013,0.5975831374809868,1.4707335054370696,-0.6171583304720403,-1.9976639238575618
139,3.854186629599776,-1.3285099364956219,-0.22596434519765862,0.8931325354031503,1.221533605890415,-4.550330935685666,-0.03312765339340874,-0.24249785591318634,0.5973564038145129,1.4698318394325287,-0.6157255952041175,-2.0003523741918974
140,3.854918865992402,-1.3284696031130339,-0.22678473004345656,0.8958099043421224,1.2235553295723711,-4.553445170596098,-0.03296295398587372,-0.24230110244671213,0.5971675468621408,1.4690722610809213,-0.6145279037554249,-2.0025792264030957
141,3.855513615393531,-1.3284368428523021,-0.22745107686894517,0.897984562128991,1.225197448102939,-4.555974667035503,-0.03282914623777043,-0.24214086659281,0.597013793033173,1.4684481608386204,-0.6135499830322918,-2.004383863917049
142,3.8559834078686537,-1.328410965526582,-0.22797742414032307,0.8997023240339264,1.226494557318113,-4.557972715946241,-0.032723430446734786,-0.24201402633194846,0.5968921172245729,1.4679506511149318,-0.6127742980629399,-2.005806747918306
143,3.856341438442518,-1.3283912443214367,-0.22837855533250384,0.9010114367020816,1.2274830890236352,-4.559495436372817,-0.03264285144025931,-0.24191720071751613,0.5967992542274273,1.4675688075409337,-0.6121812405037844,-2.0068895907059328
144,3.856601577098509,-1.3283769152440466,-0.22867001013225308,0.9019626147156128,1.2282013386035555,-4.5606018179897285,-0.03258429726925148,-0.241846761957985,0.5967317093731593,1.4672899062165121,-0.6117493043635661,-2.007675527360866
145,3.856778378778035,-1.3283671765724177,-0.22886809564132748,0.9026090771557396,1.228689492628822,-4.561353763629349,-0.03254449794642892,-0.24179884686180744,0.5966857682574764,1.4670996505129723,-0.6114552471725211,-2.0082092817917006
146,3.8568870933799193,-1.328361188304592,-0.2289898975796102,0.903006584164717,1.2289896564658307,-4.561816131809728,-0.03252002416832613,-0.24176936726392528,0.5966575053474805,1.4669823808681164,-0.6112742342687143,-2.0085373232360006
147,3.856943675759787,-1.3283580716078558,-0.22905329148825893,0.9032134735079396,1.2291458818849887,-4.562056779262484,-0.03250728596481111,-0.24175401903520058,0.5966427912412814,1.4669212608079478,-0.6111799632679916,-2.0087080092391587
148,3.856964795729451,-1.3283569082679492,-0.22907695393283134,0.9032906971359007,1.2292041946693002,-4.5621466034606435,-0.0325025312247986,-0.2417482892580043,0.5966372983111573,1.4668984321741332,-0.6111447651478428,-2.008771711025807
149,3.8569678480562932,-1.3283567401382745,-0.22908037370643342,0.9033018577462752,1.2292126222229245,-4.5621595851464845,-0.032501844051070386,-0.241747461131957,0.5966365044219589,1.4668951322344237,-0.6111396777299289,-2.008780917030595
