nimar13/UR3e_dataset_trayectorias/data/trayectorias_completas_UR3e_QUINTIC/trayectoria_479.csv
Punto,shoulder_pan_joint,shoulder_lift_joint,elbow_joint,wrist_1_joint,wrist_2_joint,wrist_3_joint,Posicion_X,Posicion_Y,Posicion_Z,Roll,Pitch,Yaw
0,5.171368227899244,-1.8803006559720739,0.32269269909798537,-1.1892201501218036,2.4106067463912524,6.27623750246818,0.014271203311027752,0.11279515116511217,0.7095740958286919,2.8345627734202825,-0.2588617967858921,2.9029343248836983
1,5.171344574891595,-1.8803020269333226,0.32269314466278276,-1.1892053242875877,2.4105880282687497,6.276213345043029,0.01427478015982465,0.11279556661042242,0.7095748215543595,2.834532308084714,-0.25887619957897906,2.902894984258223
2,5.171180912600615,-1.8803115130275283,0.32269622765994777,-1.189102739870861,2.410458511935892,6.276046192535276,0.014299531264628153,0.1127984376384053,0.7095798431862875,2.8343215193276463,-0.2589758645360719,2.9026227771777715
3,5.170742445970863,-1.880336927163741,0.32270448729855095,-1.1888279065955976,2.410111525530987,6.275598375287392,0.014365857370362684,0.11280609869475115,0.709593297616077,2.833756883336351,-0.2592429425060956,2.9018935309747684
4,5.169899997752804,-1.8803857566351607,0.3227203569619436,-1.1882998554571567,2.409444842917835,6.274737961251529,0.014493356648796005,0.11282069271722212,0.7096191523843585,2.8326723746661657,-0.25975636337021524,2.900492483373436
5,5.168529931015827,-1.88046516761039,0.3227461656674227,-1.18744109015302,2.4083606223653775,6.273338676850075,0.014700885749741405,0.11284407371990646,0.7096612111336432,2.830909645261472,-0.26059209410790807,2.8982142235874537
6,5.166514071661269,-1.8805820096246877,0.3227841395258961,-1.1861775385135334,2.4067653452273476,6.271279827836207,0.01500663460204921,0.11287767880074852,0.709723119693465,2.828318288480512,-0.2618234579917975,2.8948626528628014
7,5.163739630935437,-1.8807428200712215,0.32283640320154755,-1.1844385039326446,2.404569754621915,6.268446220154451,0.0154282109218097,0.11292237377815696,0.7098083722597656,2.8247561746310397,-0.2635215006824844,2.8902509586406846
8,5.160099127942628,-1.8809538286923213,0.3229049813715019,-1.1821566167986441,2.4016887941113385,6.264728080801236,0.015982729938052713,0.11297827579881872,0.7099203169752865,2.8200898463352355,-0.2657553885692627,2.884201595803561
9,5.155490312158153,-1.8812209620707325,0.32299180018549,-1.1792677859249037,2.398041546381609,6.26002097868545,0.016686904341506034,0.11304455543805429,0.710062160056392,2.8141949638526946,-0.2685928242315935,2.876546267620293
10,5.149816085941358,-1.8815498481208688,0.3230986887255141,-1.1757111499806165,2.3935511719221036,6.254225745488999,0.017557128918856194,0.11311922009406528,0.7102369674537641,2.80695679226596,-0.27210046346161043,2.8671258980237426
11,5.14298442704865,-1.8819458205800652,0.3232273804655126,-1.1714290289215366,2.3881448477052296,6.247248396527359,0.0186095537643647,0.11319887991351359,0.7104476628873623,2.798270724159775,-0.27634431795647973,2.855790585715186
12,5.13490831114651,-1.8824139234998318,0.32337951473102533,-1.1663668754207177,2.381753705866076,6.2390000516101365,0.019860139369074475,0.11327849713069114,0.7106970209657529,2.7880428331115192,-0.28139012761309146,2.842399529260751
13,5.125505634324524,-1.882958915737106,0.32355663815885866,-1.1604732262992543,2.3743127723820585,6.229396855901618,0.0213246862816016,0.1133511196061146,0.7109876539912994,2.7761904549913354,-0.2873036863752317,2.826820910782077
14,5.114699135608401,-1.8835852754455062,0.32376020615675055,-1.1536996539570197,2.3657609057525715,6.218359900781336,0.02301883142449049,0.1134075995598537,0.7113219909701144,2.7626427958133424,-0.2941511058206904,2.8089317239971465
15,5.102416319472995,-1.884297204566585,0.3239915843630357,-1.146000717803406,2.356040735678634,6.205815144704616,0.02495800255596332,0.11343629905407297,0.7117022472934779,2.7473415667886445,-0.30199900114463113,2.7886175301836627
16,5.088589378355327,-1.8850986333210813,0.3242520501063105,-1.137333915688064,2.3450986017425395,6.191693334063137,0.02715732182145455,0.1134227847274101,0.7121303835404242,2.730241649454942,-0.31091458489203566,2.765772123055365
17,5.07315511516761,-1.885993224700175,0.32454279386509816,-1.1276596353316422,2.332884492087502,6.175929924045487,0.02963144889224534,0.11334951565390028,0.7126080518750058,2.7113117964952913,-0.3209656546928759,2.7402970804873754
18,5.0560548658102675,-1.8869843789567389,0.3248649207275141,-1.1169411057565268,2.319351982097307,6.1584649994977205,0.03239435390956549,0.1131955300148844,0.7131365285830247,2.690535377366864,-0.33222046231045727,2.712101177401493
19,5.037234421684954,-1.888075238096592,0.32521945185093065,-1.105144348717581,2.3044581730759592,6.139243195783912,0.03545901043368757,0.11293613854389738,0.7137166314195929,2.6679111824627975,-0.3447474524457748,2.6810996297851752
20,5.016643952207586,-1.8892686903697529,0.32560732592164227,-1.0922381301328843,2.28816363092733,6.1182136196467125,0.03883699895388287,0.11254263542310255,0.7143486206297236,2.6434543056282758,-0.3586148608258351,2.647213134558869
21,4.99423792732135,-1.8905673747616931,0.32602940061453073,-1.0781939115144723,2.270432324834806,6.0953297700679085,0.042538012383923025,0.11198204044043741,0.7150320827691699,2.6171971329417643,-0.37389016196483343,2.6103666635111358
22,4.969975040009738,-1.8919736854845892,0.32648645405273014,-1.0629858013990765,2.2512315659409388,6.070549459128975,0.046569256505381185,0.11121688968990451,0.7157657968023636,2.5891904763681954,-0.39063935737705424,2.57048796132397
23,4.943818128809563,-1.8934897764685774,0.32697918626729205,-1.0465905067788632,2.2305319460270914,6.043834732871633,0.05093474069642972,0.11020509580040073,0.7165475823990227,2.5595049049620826,-0.40892609460328605,2.527505687133911
24,4.915734100323978,-1.8951175658530048,0.32750822065685065,-1.0289872845321735,2.208307276193087,6.015151792158407,0.05563445766956049,0.10889990244500658,0.717374130900431,2.5282323447228956,-0.42881060573720786,2.481347125151498
25,4.885693851735506,-1.8968587404776844,0.3280741054472876,-1.0101578928542627,2.1845345255368596,5.984470913533176,0.06066345549959571,0.10724996148483666,0.7182408200884288,2.4954880422480676,-0.4503484506020519,2.43193537124111
26,4.853672193319056,-1.8987147603741468,0.32867731515139736,-0.9900865426880399,2.159193759834099,5.951766370081739,0.06601081108688787,0.10519956424271878,0.7191415146698487,2.4614130186515317,-0.47358904352485637,2.379185877193185
27,4.819647770954948,-1.9006868632568938,0.32931825202855225,-0.9687598491548072,2.1322680802179015,5.917016352292359,0.07165852145179016,0.10268906071374889,0.720068355287218,2.4261771810141677,-0.49857393269786604,2.3230022002122883
28,4.783602988641931,-1.902776069014652,0.3299972475443675,-0.9461667829849993,2.1037435618584173,5.8802028889163305,0.07758033789923957,0.09965550156439329,0.7210115398783846,2.389983311799808,-0.5253347859152582,2.263270758627601
29,4.7455239310102115,-1.904983184201625,0.33071456383036624,-0.9222986219489242,2.0736091926424987,5.841311767828529,0.08374057802228971,0.09603353705235389,0.7219591023214077,2.3530722259379035,-0.5538910139573507,2.199854331845575
30,4.705400285834471,-1.907308806528747,0.33147039514364485,-0.8971489022875007,2.0418568118533504,5.800332456887968,0.09009296148657331,0.09175660397987119,0.7228966944964595,2.315729475226565,-0.584246930138924,2.132583958080881
31,4.663225266546886,-1.909753329354936,0.3322648693265378,-0.8707133701429992,2.0084810488501743,5.757258024798359,0.09657952713992851,0.08675842593026872,0.7238073791436136,2.278294095409309,-0.6163882973664672,2.0612487719535557
32,4.618995534750157,-1.9123169461783467,0.333098049266283,-0.8429899329897814,1.973479261747822,5.712085061968662,0.10312970061368013,0.08097484282599676,0.7246714421535786,2.2411700368928957,-0.6502780464760299,1.9855831811371645
33,4.572711122730526,-1.9149996551276236,0.33396993435468664,-0.8139786110650391,1.936851476096439,5.664813601373646,0.10965959240476883,0.07434597287733732,0.7254662341456825,2.2048410951620836,-0.6858508531414487,1.9052506071253361
34,4.524375355970795,-1.917801263453154,0.33488046194778837,-0.7836814887995338,1.8986003235611166,5.61544703941444,0.1160716154209027,0.0668186930229084,0.7261660523001418,2.1698903474666,-0.7230061234758238,1.8198228238454515
35,4.473994775663357,-1.920721392018322,0.3358295088255265,-0.7521026662483374,1.8587309806015386,5.563992056779099,0.12225451691449774,0.058349403002655315,0.726742074345687,2.1370252600867796,-0.7615987452668488,1.7287537676157425
36,4.42157906122321,-1.9237594797907598,0.3368168926514029,-0.7192482105215698,1.8172511071516295,5.510458539303148,0.12808392126400578,0.048907013589804184,0.7271623572752071,2.1071096277494297,-0.8014266953575475,1.6313466907490428
37,4.367140952800984,-1.9269147883336029,0.33784237343214846,-0.6851261072151398,1.774170785299203,5.454859498830148,0.13342347575964772,0.03847607199128465,0.7273919136807532,2.0812030402591857,-0.8422142424340716,1.5267139926333142
38,4.310696173795959,-1.9301864062967415,0.33890565497738756,-0.6497462118414847,1.7295024579656115,5.397210994072244,0.13812668004206483,0.027059908235248353,0.7273928784710849,2.0606069673950276,-0.883589065861626,1.4137306605576854
39,4.252263353369091,-1.9335732539080746,0.34000638635930386,-0.6131202012603091,1.6832608675853935,5.337532051470731,0.1420394599523698,0.01468365724423009,0.727124778067249,2.0469124038160333,-0.925051233880599,1.2909863961689052
40,4.191863948956031,-1.9370740874647627,0.3411441633723049,-0.5752615251093244,1.6354629947859207,5.2758445860566,0.145003517478904,0.0013969845002550288,0.726544912878736,2.042034610886422,-0.9659319973059406,1.1567509029440273
41,4.129522168780149,-1.9406875038244813,0.3423185299926874,-0.5361853572349894,1.5861279970670497,5.212173322311099,0.1468604499938772,-0.012723678545820703,0.7256088618723201,2.048201337971921,-1.005341662217989,1.0089859598571589
42,4.065264894365555,-1.9444119448966732,0.34352897983830244,-0.4959085471232483,1.535277147480767,5.14654571502629,0.14745658458606406,-0.027573596846735385,0.7242711153062682,2.0678269620865217,-1.0421103977279635,0.8454718466131097
43,3.999121603050121,-1.9482457021338024,0.3447749576282202,-0.45444957133027186,1.482933773310839,5.078991870165605,0.14664841847094032,-0.04301910187805334,0.7224858381913313,2.1031589455423316,-1.074737197190181,0.6641617228677792
44,3.9311242904985026,-1.9521869210226075,0.34605586064239546,-0.4118284849131948,1.4291231947524607,5.009544465724398,0.14430849671188806,-0.05889806765542663,0.7202077627696098,2.155560889719915,-1.1013837605295262,0.46389968460011605
45,3.8613073932151636,-1.956233605575353,0.34737104018133247,-0.3680668728608586,1.3738726635919032,4.938238672590504,0.14033149743468928,-0.07502166221263219,0.7173932033289034,2.224407737419984,-1.119976880415817,0.24552694702195324
46,3.7897077110573942,-1.9603836228210847,0.3487198030257501,-0.3231878015245474,1.317211301886162,4.865112075404802,0.13464023702491565,-0.09117749709699169,0.7140011810974528,2.305961113510328,-1.1284843930609365,0.013008167920601837
47,3.7163643297483357,-1.9646347072968815,0.350101412896247,-0.2772157700487301,1.2591700406426063,4.790204593421756,0.12719125897619846,-0.10713423164969359,0.7099946409479218,2.393136602923126,-1.1253496808027124,-0.22633388134573834
48,3.6413185433900024,-1.9689844655391084,0.35151509191296654,-0.2301766618017983,1.1997815584986264,4.713558401369984,0.11797963612742338,-0.12264760554544014,0.705341735388495,2.4769847060581034,-1.1099081962201094,-0.46329702785320587
49,3.5646137769763016,-1.9734303805746705,0.352960022055262,-0.1820976958068068,1.1390802204012829,4.63521785031281,0.10704260302934739,-0.13746777547176883,0.7000171450916365,2.5493828570766808,-1.0825299529348622,-0.6894891652569369
50,3.486295508906057,-1.977969816412265,0.3544353466213617,-0.1330073781722132,1.0771020162869536,4.555229388508818,0.09446164855989574,-0.15134772519656167,0.6940033993098579,2.6051777218572254,-1.0444005153035203,-0.8994676806574228
51,3.4064111934960324,-1.9826000225336353,0.35594017168803405,-0.08293545352261678,1.0138844997609844,4.473641482272413,0.08036274280656282,-0.16405240986314765,0.6872921542887949,2.6426117479808755,-0.9971145990072454,-1.0911627989622317
52,3.3250101834939505,-1.9873181383848237,0.35747356757025256,-0.03191285642949859,0.9494667267773356,4.390504536834371,0.06491444877303428,-0.1753681941190616,0.6798853835661355,2.6624358520773757,-0.942318839099169,-1.264986721447351
53,3.2421436525915173,-1.9921211978674243,0.3590345702808611,0.020028337158040088,0.8838891943182301,4.3058708172024005,0.048323778077047186,-0.18511205970396022,0.671796431196701,2.6667200069984456,-0.881509937677028,-1.4226403245708819
54,3.157864517937443,-1.9970061338298364,0.36062218299023896,0.07285495848253642,0.8171937790738035,4.219794369021696,0.030829786728374865,-0.19314000177056495,0.6630508778049824,2.657965587193602,-0.815968134681218,-1.566221304657885
55,3.0722273626504637,-2.0019697825585174,0.3622353774859658,0.12653279454742838,0.7494236761217512,4.132330939435495,0.012695065115178206,-0.19935401412818918,0.6536871702288166,2.638618293515904,-0.7467668157823081,-1.6977326581784724
56,2.985288358332364,-2.007008888269236,0.3638730956324868,0.18102663668631402,0.6806233376069768,4.043537897945633,-0.005804555044478358,-0.20370708951589625,0.6437569686057115,2.6108664224815072,-0.6748119614587658,-1.8188763988174583
57,2.897105187581001,-2.0121201075983257,0.36553425083077806,0.236300329132211,0.6108384114212406,3.9534741572731025,-0.024391588165149324,-0.20620573658575167,0.6333251701996769,2.576594513997238,-0.6008869324662532,-1.9310027880472536
58,2.807736966503323,-2.0173000140939368,0.36721772947801107,0.2923168175868196,0.5401156798828088,3.862200094218604,-0.042799140196484606,-0.2069096410386506,0.6224695770925063,2.5374061943461528,-0.525692865146692,-2.035129300878869
59,2.717244167228392,-2.022545102707291,0.3689223924272184,0.3490381977897823,0.4685029984161002,3.7697774705231093,-0.06078306146502649,-0.20592826996916438,0.6112801849631797,2.4946702379498573,-0.44988226402997233,-2.131983994580661
60,2.6256885404204087,-2.027851794283934,0.37064707644695855,0.4064257640879425,0.3960492342313371,3.676269353728411,-0.07813319102457765,-0.20341442642874544,0.5998580823092216,2.4495684688308987,-0.37408623954110926,-2.222052887132848
61,2.533133037791729,-2.033216440054986,0.372390595680981,0.4644400580046075,0.3228042050041897,3.5817400380376805,-0.09468287171685588,-0.1995549910699286,0.5883139632430069,2.4031366728665167,-0.29893658319799155,-2.3056239696935594
62,2.4396417346158934,-2.038635326128401,0.37415174310789134,0.523040916808807,0.24881861755542856,3.486254965176028,-0.11031597830418527,-0.1945593209920517,0.5767662719120081,2.3562952807332738,-0.22508373929606643,-2.382826669344642
63,2.3452797522406437,-2.044104677980213,0.37592929200081643,0.5821875220845547,0.17414400653057172,3.389880645251055,-0.12497083377302394,-0.18864599149125838,0.5653390120192637,2.3098686470144223,-0.15321125950138806,-2.453668354689024
64,2.2501131806009456,-2.0496206649457926,0.3777219973870694,0.6418384483001089,0.09883267307953192,3.292684577613408,-0.13864058594695425,-0.18202874263803556,0.5541592701467452,2.264592216764896,-0.08404671094965298,-2.518070649909476
65,2.154209000732012,-2.055179404711101,0.3795285975078149,0.7019517113772304,0.022937623536264162,3.194735171717341,-0.15136986557524235,-0.1749026094746668,0.5433545158461753,2.2211067884027895,-0.018368309460145813,-2.5759086828689197
66,2.057635007282325,-2.0607769678039407,0.38134781527773404,0.7624848172604481,-0.05348749190158131,3.0961016679812667,-0.16324782931287943,-0.1674312562240205,0.5330497539859841,2.179939121368799,0.04299419285017588,-2.6270561193915176
67,1.960459731026655,-2.0664093820852103,0.3831783597446894,0.8233948104863145,-0.130388440493018,2.996854058648317,-0.174397982684925,-0.15973649153428274,0.5233646148930301,2.1414688632604397,0.09916652377113043,-2.6714377332119588
68,1.862752361379091,-2.072072637240156,0.38501892754939043,0.8846383227526675,-0.20771046827406536,2.897063008646893,-0.18496545256659586,-0.1518908116096235,0.5144104747511753,2.1058837151023577,0.1492473818154427,-2.709088945323604
69,1.7645826689060509,-2.077762689269627,0.3868682043850583,0.946171621487895,-0.28539836137810903,2.796799776451225,-0.19510260907449278,-0.14391360795446445,0.5062877019931367,2.0731282468840764,0.1923387365605248,-2.740217955268218
70,1.666020927839312,-2.0834754649813267,0.38872486645709103,1.0079506584201874,-0.3633965073562484,2.696136134941933,-0.20495409898959283,-0.13577140183710215,0.49908312469405214,2.0428565182957112,0.22758992376746565,-2.765261089657956
71,1.56713783858903,-2.0892068664810663,0.3905875819427288,1.0699311181468043,-0.44164895649764935,2.595144292266572,-0.21464242846042633,-0.12738215135047332,0.4928678090923021,2.0144031652466374,0.2542537356481494,-2.784917290793367
72,1.4680044502567622,-2.0949527756640176,0.39245501245071857,1.1320684667033345,-0.5200994831498948,2.4938968127001995,-0.2242552112645384,-0.11862334735205972,0.4876952303925062,1.9867890590480672,0.27174872596318944,-2.800146073458388
73,1.3686920831484861,-2.100709058705968,0.3943258144809797,1.194318000132954,-0.5986916470393369,2.3924665375059186,-0.23383507933758366,-0.10934330232998334,0.48359990424030463,1.9587729238949023,0.27971795376155983,-2.812117890262638
74,1.2692722512876298,-2.1064715705545702,0.39619864088426876,1.2566348930556877,-0.6773688545914474,2.290926505795452,-0.24337304360196485,-0.09937477130104284,0.48059653120801427,1.928948471885604,0.27807237221586867,-2.8221175964412
75,1.1698165849280837,-2.1122361594205987,0.3980721423218446,1.3189742472376684,-0.756074420251172,2.189349875389685,-0.2528058136466644,-0.08854985201423356,0.47867968799719995,1.8958712374211244,0.2670088427679637,-2.8314170361924957
76,1.0703967530672251,-2.117998671269201,0.3999449687251337,1.3812911401604029,-0.8347516278032829,2.087809843679217,-0.2620172603517972,-0.07671501177197596,0.47782407870703997,1.8581877480072198,0.24699850178627394,-2.8411443007155115
77,0.9710843859589513,-2.123754954311151,0.4018157707553949,1.443540673590022,-0.9133437916927236,1.9863795684849377,-0.270843866734795,-0.06374508963052766,0.4779853384020389,1.8147385451723066,0.21874882812517535,-2.8521783478225426
78,0.8719509976266826,-2.1295008634941026,0.40368320126338464,1.5056780221465522,-0.9917943183449687,1.8851320889185637,-0.27908369120617804,-0.049555224808069176,0.47910136035647155,1.7646165531884448,0.1831489522475713,-2.865087746679368
79,0.7730679083764009,-2.1352322649938418,0.40554591674902235,1.5676584818731696,-1.07004676748637,1.7841402462432034,-0.2865080940969662,-0.034109853788073886,0.481094098764072,1.707177606546217,0.14121011325054303,-2.8801171103036127
80,0.6745061673096622,-2.1409450407055415,0.40740257882105513,1.629437518805461,-1.1480449134645094,1.6834766047339107,-0.292875277475936,-0.017428179899464002,0.48387178131915726,1.6420129239026162,0.0940115494233039,-2.8972119883009433
81,0.5763364748366211,-2.1466350927350124,0.409251855656723,1.6909708175406886,-1.2257328065685535,1.5832133725382445,-0.29794457670991525,0.0004141764725553339,0.48733145171415154,1.5688995106119246,0.042658164525213864,-2.916067084603381
82,0.478629105189059,-2.1522983478899587,0.411092423461424,1.7522143298070425,-1.3030548343496005,1.4834223225368177,-0.30149042718019203,0.019287321537513676,0.49136175140137744,1.4877441138654146,-0.01174789677034081,-2.936183439560428
83,0.3814538289333882,-2.157930762171228,0.4129229679283794,1.8131243230329082,-1.3799557829410363,1.38417471320387,-0.30331500827743535,0.03901270002289384,0.4958458433700839,1.398532369731493,-0.06812278179134039,-2.9569247730946455
84,0.2848798354837019,-2.1635283252640676,0.41474218569829846,1.8736574289161254,-1.4563808983788817,1.2855412094677972,-0.3032587271697403,0.05937159409460478,0.5006643784008814,1.301290171633534,-0.1254063446713566,-2.9775685290854232
85,0.18897565561476792,-2.169087065029376,0.416548785819044,1.9337706919932471,-1.5322759479221513,1.1875918035717294,-0.3012079272332382,0.08011573793334809,0.50569840625267,1.1960607775448917,-0.18256088179867486,-2.9973515157080404
86,0.09380908397506893,-2.1746030519949557,0.41834149120529696,1.9934216182088016,-1.6075872813731893,1.0903957359340835,-0.2970994657963007,0.10097916554409217,0.510832140260319,1.0828991582975478,-0.23856670072747402,-3.015512829563555
87,-0.0005528984001781367,-2.1800724038467676,0.4201190400982221,2.0525682234845477,-1.6822618923980475,0.9940214160091081,-0.2909220762690425,0.12169038185760986,0.5159554934214737,0.9618841458861517,-0.29241792762293545,-3.0313380248925603
88,-0.09404420157601656,-2.1854912899201824,0.42188018752513246,2.11116908228875,-1.7562474798468095,0.8985363431474562,-0.2827146850500719,0.1419839991536123,0.5209663166078469,0.8331482699088216,-0.34312187438963543,-3.04420835088808
89,-0.18659970420469296,-2.1908559356912347,0.4236237067591549,2.1691833762054125,-1.8294925090739556,0.804007027456727,-0.2725620716783684,0.16161110068100448,0.5257722843074057,0.6969238648696129,-0.3897052047156737,-3.0536572285839605
90,-0.27815533101267853,-2.1961626272678774,0.425348390778895,2.226570942503575,-1.9019462732587185,0.7104989106620261,-0.26058842503929214,0.1803477637971059,0.5302923894729898,0.5536012842582264,-0.431229816005,-3.059432708227459
91,-0.36864813028760945,-2.2014077158812317,0.42705305372810237,2.283292322706538,-1.9735589547254264,0.6180762869665335,-0.24694944941920013,0.19800137540668497,0.5344580257817404,0.4037905339799251,-0.4668203743974127,-3.0615594018932875
92,-0.45801635136528773,-2.2065876223768432,0.42873653237533543,2.3393088111611453,-2.044281686263859,0.5268022239120356,-0.2318237094068772,0.21441458154888732,0.5382136520872711,0.2483720996999225,-0.49570336491874206,-3.060387219758506
93,-0.5461995221166491,-2.2116988417059327,0.4303976875736266,2.394582503607043,-2.1140666124495935,0.4367384832395045,-0.21540387631677946,0.2294669107602498,0.5415170493325896,0.08851863109092628,-0.5172542211679174,-3.056609632811124
94,-0.633138526434748,-2.216737947416651,0.43203540572014765,2.4490763457459273,-2.1828669509643683,0.34794544174964415,-0.19788846069272445,0.24307428085063285,0.5443391940539731,-0.07432973525578064,-0.5310451998526158,-3.05123493845614
95,-0.7187756817217288,-2.221701596145332,0.4336486002158745,2.5027541818108197,-2.250637053916421,0.2604820121634406,-0.1794744990868188,0.25518672919049207,0.546663784345957,-0.23854423442434852,-0.5368837277546412,-3.0455031451901817
96,-0.803054816375802,-2.2265865321077443,0.43523621292525233,2.5555808031353173,-2.3173324691608475,0.174405563982738,-0.1603515241746524,0.2657847910739879,0.5484864634275627,-0.40243173649897906,-0.5348309330387437,-3.0407575125568975
97,-0.885921347278237,-2.231389591590345,0.4367972156358609,2.6075219967228556,-2.382910001619952,0.0897718443507678,-0.14069700092848542,0.27487498802397176,0.5498137925581015,-0.5643786821728971,-0.5251940081083878,-3.038296620485776
98,-0.9673223572803185,-2.2361077074415334,0.4383306115180794,2.658544593815972,-2.447327774603603,0.006634898912727394,-0.12067327207623217,0.28248488153610257,0.550662028957155,-0.722980942276427,-0.508492846273991,-3.0392407816973646
99,-1.0472066726903408,-2.2407379135629037,0.43983543658475177,2.7086165184655706,-2.5105452911295734,-0.07495300732367749,-0.10042593475676556,0.2886581048448058,0.5510557656858287,-0.8771316637766728,-0.4854081071081919,-3.044440751924603
100,-1.1255249407605872,-2.245277349400498,0.44131076115085144,2.757706836100166,-2.5725234952439022,-0.15494146912767182,-0.08008347502174848,0.2934497153197081,0.5510264893615844,-1.026055191933949,-0.45672156057127083,-3.054440636537804
101,-1.2022297071742862,-2.24972326443606,0.4427556912931469,2.8057858020951536,-2.633224833341245,-0.2332820201848449,-0.05975792181156383,0.2969221235925912,0.5506111084167639,-1.169292328213882,-0.4232591908544656,-3.069489705767717
102,-1.2772754935326205,-2.2540730226782872,0.4441693703098665,2.852824910342088,-2.692613315485226,-0.30992821223661604,-0.03954624791508449,0.2991417628167327,0.5498504997469643,-1.3066528663753887,-0.3858442388910384,-3.089587139651107
103,-1.350618874841679,-2.258324107154084,0.4455509801803633,2.8987969418179036,-2.750654576728781,-0.3848356942196638,-0.01953223988880367,0.30017657174268886,0.5487881154431,-1.4381535119356097,-0.3452632139635037,-3.1145415582061435
104,-1.4222185569994474,-2.2624741243998154,0.446899743024781,2.9436760131542137,-2.807315938434521,-0.4579622914053658,0.0002114226021834309,0.30009428585330794,0.5474686842846925,-1.5639555247516137,-0.30224455799301114,3.139154348571238
105,-1.4920354542827887,-2.2665208089525613,0.44821492256371803,2.987437625206552,-2.8625664695950777,-0.5292680845392583,0.01962110100655644,0.2989614666796765,0.5459370352028411,-1.6843106036054418,-0.2574477398655656,3.1055308018137247
106,-1.5600327668344018,-2.270462027841366,0.44949582557789325,3.030058711623628,-2.916377048153456,-0.5987154889804653,0.03864032055557652,0.29684315333410705,0.5442370623780409,-1.7995183965330301,-0.2114599369940873,3.0682125471819752
107,-1.6261760581498397,-2.2742957850784955,0.450741803367811,3.0715176874166055,-2.9687204223233836,-0.6662693338411483,0.05721820295000805,0.29380299281038186,0.5424108443505757,-1.90989563636093,-0.1647976517134182,3.0276489791298915
108,-1.6904333325644307,-2.278020226150687,0.451952253213426,3.111794497528347,-3.0195712719096663,-0.7318969411259584,0.07530827770886837,0.28990369549002776,0.5404979227615151,-2.0157551971177514,-0.11791115851861497,2.9842806934606187
109,-1.7527751127403137,-2.281633642510406,0.4531266198338086,3.1508706654026817,-3.0689062696285365,-0.7955682048714605,0.09286769274081957,0.28520766701192973,0.5385347403180557,-2.117392830487591,-0.0711902874976815,2.938528388154087
110,-1.8131745171533735,-2.285134476067094,0.45426439684680964,3.1887293415536675,-3.1167041424280084,-0.8572556702855909,0.10985680459891142,0.2797776838536533,0.5365542324309674,-2.2150794485343765,-0.024970574278256812,2.8907872781274273
111,-1.8716073375802385,-2.2885213236784274,0.4553651282287259,3.2253553521348435,-3.1629457328082315,-0.9169346128871068,0.12623909855668708,0.27367750394727874,0.5345855627848175,-2.309057196327543,0.020460797292613755,2.8414252468843895
112,-1.9280521165852686,-2.2917929416415657,0.456428409773965,3.260735247508501,-3.207614060141821,-0.9745831176450084,0.14198136866401656,0.26697233180108854,0.5326539898976759,-2.3995379914085317,0.064859560120441,2.790783377466922
113,-1.982490225007493,-2.294948250184409,0.45745389055471053,3.294857350814927,-3.250694381994246,-1.0301821581180075,0.15705407785296444,0.2597290867060218,0.5307808494818793,-2.4867035958187054,0.10801956053390833,2.7391778797403683
114,-2.03490593944764,-2.297986337956847,0.458441274380587,3.3277118065416964,-3.292174255444154,-1.0837156755939583,0.17143181675988817,0.25201645005838924,0.5289836360677264,-2.5707065968451395,0.1497686038386971,2.686902727916229
115,-2.085286519755077,-2.3009064665220142,0.45939032125832513,3.359290629092894,-3.3320435984037333,-1.1351706582292946,0.18509378552132974,0.24390469171819706,0.527276166804686,-2.651671903666055,0.18996490554246614,2.634232541491976
116,-2.1336222865148056,-2.3037080748475454,0.46030084885142686,3.3895877513583965,-3.3702947509390544,-1.1845372201885054,0.19802423347706213,0.23546529445253178,0.5256688104972846,-2.729698530471289,0.22849407418764642,2.581425397712059
117,-2.1799066985344417,-2.306390783796822,0.4611727339398305,3.418599073283139,-3.4069225365904394,-1.2318086807835176,0.2102128055577406,0.22677040935309242,0.5241687656417112,-2.8048615469662646,0.2652665389390663,2.5287253704109807
118,-2.2241364303311624,-2.3089544006202325,0.4620059138795757,3.4463225104363584,-3.4419243236927892,-1.2769816436132144,0.22165475939448873,0.21789218368848476,0.522780372378068,-2.877214147571263,0.3002153330119136,2.476364663375063
119,-2.2663114496187564,-2.311398923446422,0.46280038806246865,3.4727580425808604,-3.4753000866959667,-1.3200560757028255,0.2323510323862461,0.20890200640261636,0.5215054447393915,-2.946789831556788,0.3332941482574871,2.4245652578615
120,-2.3064350947944954,-2.3137245457735434,0.46355621937574726,3.497907762242284,-3.5070524674851145,-1.361035386643386,0.2423081519566594,0.19986971613577634,0.5203436112483381,-3.0136047057238966,0.3644755842008986,2.3735400322011277
121,-2.344514152426213,-2.315931660960517,0.464273535661746,3.5217759232783576,-3.537186836701032,-1.399926507731191,0.2515379942367429,0.19086281311764136,0.5192926536843907,-3.077659925018686,0.39374952514019645,2.323493342221849
122,-2.380558934739226,-2.3180208667182747,0.4649525311775613,3.5443689894481656,-3.5657113550605137,-1.436739971107218,0.2600574059650365,0.18194571050244632,0.5183488356324214,-3.138944279362013,0.42112159077938766,2.2746210779474603
123,-2.414583357103335,-2.3199929696010217,0.4655934680547162,3.5656956829813984,-3.592637034676711,-1.4714899888965887,0.26788771133644435,0.1731790535847716,0.5175072141568853,3.085748386256511,0.44661161875587707,2.227110236153881
124,-2.4466050155197845,-2.3218489894974845,0.4661966777588259,3.585767033147625,-3.617977800379472,-1.504194532348035,0.27505412991797573,0.1646191276468586,0.5167619295707571,3.030075098606152,0.47025215086027233,2.181138070006851
125,-2.476645264108261,-2.3235901641221637,0.46676256254926285,3.604596424825532,-3.641750551035704,-1.5348754109732612,0.2815851338185365,0.15631736760046866,0.5161064697455329,2.9772526786876172,0.49208690819555084,2.1368708953443103
126,-2.5047292925938436,-2.3252179535065913,0.4672915969388215,3.6221996470722244,-3.663975220869707,-1.5635583516864875,0.2875117723937389,0.14831997559656337,0.5155339067135868,2.927313572571128,0.5121692533526392,2.0944626469526986
127,-2.53088620379401,-2.3267340444905797,0.46778432915338347,3.6385949416924337,-3.6846748407835532,-1.5902730779438254,0.2928669912845746,0.14066764672567283,0.5150371044342377,2.8802882652349537,0.5305606492048986,2.054053286193245
128,-2.5551490911056263,-2.3281403552134754,0.46824138259158277,3.6538030518078317,-3.7038755996774206,-1.6150533888827576,0.2976849699412398,0.13339539801811615,0.5146088975281194,2.8362025058424476,0.5473291334787816,2.0157671627492104
129,-2.577555115991869,-2.329439039605416,0.46866345728447134,3.6678472704262486,-3.721606905769942,-1.6379372384615687,0.3020004983594404,0.12653249224967805,0.5142422415369311,2.795074721185059,0.5625478352912536,1.9797114279467456
130,-2.5981455854692213,-2.330632491878577,0.46905133135518295,3.6807534890109412,-3.737901447918575,-1.6589668145987675,0.3058484099007703,0.1201024455397323,0.5139303358500167,2.756913678750711,0.5762935640019784,1.945974585677163
131,-2.616966029594548,-2.3317233510184296,0.4694058624785995,3.692550246049885,-3.752795256939918,-1.6781886183125723,0.30926308306840605,0.11412310629680814,0.513666720872431,2.721716447880094,0.5886455019083898,1.9146252507392236
132,-2.6340662789518907,-2.332714505274994,0.46972798934101534,3.7032687756250064,-3.7663277669301136,-1.6956535428603505,0.3122780211892228,0.10860679257350177,0.5134453513109146,2.6894666913119507,0.5996840306780241,1.8857111652259853
133,-2.649500542139598,-2.3336090966540874,0.47001873309980313,3.712943055981425,-3.778541876585149,-1.7114169528779852,0.31492551527735024,0.10356047516263706,0.5132606476456849,2.660133302053437,0.6094897173616287,1.8592585033845723
134,-2.663327483257275,-2.334410525408584,0.47027919884307784,3.7216098580967634,-3.789484010521246,-1.7255387635194674,0.31723639202971304,0.09898599461500522,0.5131075279581532,2.6336693838009,0.6181424799321531,1.8352714760442148
135,-2.6756102993926687,-2.335122454529663,0.470510577049363,3.729308794250379,-3.7992041805951837,-1.7380835195961835,0.3192398459923477,0.09488030160269958,0.5129814223180004,2.610011558578417,0.6257209452032702,1.8137322287256947
136,-2.6864167981087963,-2.335748814238063,0.4707141450472549,3.736082366592611,-3.807756047224668,-1.7491204747164675,0.32096335245986507,0.09123571152310432,0.5128782719160119,2.5890795738294536,0.6323020043576146,1.7946010138818995
137,-2.6958194749307784,-2.336293806475337,0.4708912684750882,3.7419760157140756,-3.8151969807086843,-1.7587236704249927,0.32243265562396084,0.0880401657888901,0.5127945150782606,2.570776173310541,0.6379605637521154,1.7778166077768862
138,-2.703895590832917,-2.336761909395104,0.47104340274060097,3.747038169214898,-3.8215881225478396,-1.7669720153422075,0.32367182484614127,0.08527749375370032,0.5127270622265069,2.5549871916965707,0.6427694816455418,1.7632969361776174
139,-2.7107272497256307,-2.3371578818543,0.4711720944805994,3.751320290273976,-3.8269944467647097,-1.773949364303843,0.3247033706584703,0.082927670584356,0.5126732617705658,2.541581831337873,0.6467996753546215,1.7509398698169145
140,-2.716401475942421,-2.337486767904436,0.47127898302062343,3.7548769262182615,-3.8314848212242127,-1.7797445975003088,0.3255484111529308,0.08096706753451698,0.5126308588394215,2.5304130803989753,0.6501203782967969,1.7406241497581305
141,-2.7210102917268966,-2.3377539012828477,0.47136580183461163,3.757765757092005,-3.835132068953948,-1.7844516996160786,0.32622687876212303,0.07936869195449243,0.5125979486853668,2.521318233866723,0.6527995225067311,1.7322104035459862
142,-2.7246507947196976,-2.3379649099039472,0.4714343800045661,3.760047644226006,-3.838013029464526,-1.7881698389692966,0.3267577570205725,0.07810241496171501,0.5125729265332754,2.5141194818973633,0.6549042195117705,1.725542214600813
143,-2.7274252354455397,-2.3381257203504817,0.47148664368021753,3.7617866788068923,-3.840208620069956,-1.7910034466510476,0.327159336688459,0.07713518499105249,0.5125544355972842,2.508624533066338,0.656501310840539,1.7204472090732406
144,-2.7294410948000856,-2.338242562364778,0.47152461753869074,3.7630502304463853,-3.8418038972079858,-1.79306229566492,0.3274494805821582,0.07643122545660014,0.5125413149502499,2.504627242849882,0.657657958793764,1.7167381258688654
145,-2.7308111615370683,-2.3383219733400082,0.4715504262441699,3.7639089957505174,-3.842888117760438,-1.7944615800663835,0.32764588655419746,0.075952214513346,0.5125325489068192,2.5019082198515887,0.6584422482723425,1.7142138365016746
146,-2.731653609755128,-2.3383708028114283,0.47156629590756255,3.7644370468889585,-3.843554800373596,-1.7953219941022391,0.3277663382634741,0.07565744444790864,0.5125272195680519,2.5002353837873894,0.6589237712574016,1.7126602817318433
147,-2.732092076384869,-2.3383962169476398,0.47157455554616595,3.7647118801642225,-3.8439017867785,-1.7957698113501204,0.3278289336369037,0.07550395759903938,0.5125244641733554,2.4993644500825027,0.6591741667767841,1.7118512915943807
148,-2.732255738675857,-2.338405703041847,0.4715776385433308,3.7648144645809474,-3.8440313031113575,-1.7959369638578808,0.3278522812017191,0.07544665496576353,0.5125234389142532,2.499039316197831,0.6592675906590572,1.7115492545153848
149,-2.7322793916835026,-2.338407074003095,0.4715780841081281,3.764829290415163,-3.8440500212338558,-1.795961121283013,0.3278556547115174,0.07543837286087011,0.5125232908853035,2.4989923245994805,0.6592810908339524,1.7115055998509607
