nimar13/UR3e_dataset_trayectorias/data/trayectorias_completas_UR3e_QUINTIC/trayectoria_342.csv
Punto,shoulder_pan_joint,shoulder_lift_joint,elbow_joint,wrist_1_joint,wrist_2_joint,wrist_3_joint,Posicion_X,Posicion_Y,Posicion_Z,Roll,Pitch,Yaw
0,2.116803203018865,-2.752074977660105,-0.2824613934771004,-0.5208935030964001,-6.223141816453892,4.215545903384687,0.057247125302211,-0.5227781183360491,0.3542625192631979,0.6604701722566193,0.020191993052863275,-2.5425032382356627
1,2.1167985690435893,-2.7520722321983566,-0.2824628377046459,-0.5208940594301686,-6.223110053069038,4.215540877593306,0.05724605748175318,-0.5227802879339914,0.3542622683471766,0.6604664296150913,0.020204717252315204,-2.54247876737003
2,2.116766505171577,-2.752053235520802,-0.28247283075044816,-0.5208979088712403,-6.222890272633001,4.215506102627535,0.05723867048657101,-0.5227952986267026,0.35426053232047394,0.6604405432778604,0.020292758208059827,-2.542309445159916
3,2.11668060305073,-2.752002341639664,-0.28249960305754224,-0.5209082218849652,-6.2223014602285245,4.215412937232197,0.05721889360858645,-0.5228355015387764,0.35425588252348167,0.6603712785701444,0.02052861424393534,-2.54185580719234
4,2.1165155549405092,-2.751904556639472,-0.2825510420516968,-0.520928036802329,-6.221170145033105,4.215233933823588,0.057180950756535856,-0.5229126957844157,0.35424695348391533,0.6602385532240524,0.020981719230156425,-2.540984177107372
5,2.1162471385310884,-2.751745529682958,-0.2826346968726863,-0.5209602616424962,-6.219330296262517,4.214942822025042,0.057119400332178924,-0.5230380965553032,0.35423244600619413,0.6600237042268214,0.021718438439045,-2.539566560170419
6,2.1158522017625034,-2.751511544016959,-0.282757783105564,-0.5210076759353528,-6.21662321911433,4.214514492202498,0.05702918793631763,-0.5232222912261825,0.3542111316852431,0.659709838082197,0.022802048342434354,-2.537480526979069
7,2.115308647643803,-2.751189507978312,-0.28292718751193446,-0.5210729325440495,-6.212897450711431,4.213924979000068,0.056905709301861084,-0.5234751852587818,0.3541818589496521,0.6592822488387746,0.024292699919066296,-2.5346090862210193
8,2.1145954190722005,-2.7507669459997595,-0.28314947276122615,-0.5211585594875445,-6.208008656045544,4.213151444875599,0.05674488090148974,-0.5238059393889861,0.3541435608935213,0.6587288890859685,0.02624736357453889,-2.5308405442052595
9,2.113692483652223,-2.7502319896158425,-0.28343088216196416,-0.5212669617631464,-6.2018195239207525,4.212172163636243,0.05654321571264677,-0.5242228992937681,0.35409526531063595,0.6580408799218072,0.028719752301945213,-2.526068347707122
10,2.1125808185148647,-2.749573368468803,-0.2837773443930429,-0.5214004231690572,-6.1941996628970175,4.210966503974017,0.05629790164555913,-0.5247335186664944,0.354036107488099,0.6572130466657339,0.031760218319310404,-2.520190905591756
11,2.1112423951367356,-2.7487804013144834,-0.28419447823499855,-0.5215611081269156,-6.185025497233701,4.2095149130013745,0.0560068801519487,-0.5253442763932737,0.3539653464401597,0.6562444678284844,0.035415617183558915,-2.5131113837925714
12,2.109660164159214,-2.747842987028224,-0.2846875973012819,-0.5217510635043393,-6.174180162833083,4.20779889978677,0.055668922533144344,-0.5260605883289878,0.35388238535890637,0.655139025558504,0.039729132357327085,-2.5047374675961143
13,2.1078180402075968,-2.7467515956107635,-0.2852617147695309,-0.5219722204374686,-6.161553403183886,4.205801018890224,0.05528370145600539,-0.5268867140277815,0.35378679712015526,0.6539059464521411,0.044740052436124327,-2.494981084892206
14,2.10570088671025,-2.7454972591941385,-0.2859215481128432,-0.5222263961535087,-6.147041465304794,4.203504853898886,0.054851855163155286,-0.5278256586959822,0.35367835570466466,0.6525603222256151,0.050483492757279105,-2.4837580841545366
15,2.1032945007177593,-2.744071563047582,-0.2866715238310491,-0.5225152957932736,-6.130546995687971,4.20089500096261,0.05437504183090022,-0.5288790706108437,0.35355707437182876,0.6511236002708858,0.05699005292413807,-2.4709878614889336
16,2.1005855977220826,-2.742466636583422,-0.28751578218198387,-0.5228405142337279,-6.111978936242586,4.197957052329507,0.053855981485531494,-0.530047134290033,0.3534232513511041,0.6496240345095048,0.06428540189469106,-2.4565929321932076
17,2.0975617964757,-2.740675144362982,-0.28845818191276057,-0.5232035379105306,-6.091252420238329,4.194677579881521,0.05329848283980329,-0.5313284598065304,0.3532775236918963,0.6480970871518605,0.07238978270144392,-2.4404984439884245
18,2.094211603810763,-2.7386902771024806,-0.2895023049910426,-0.5236057466405778,-6.068288668248937,4.191044118669993,0.05270745236167735,-0.5327199688223793,0.35312092973242043,0.6465857718712884,0.08131742958458928,-2.422631631489117
19,2.090524399458249,-2.736505742678929,-0.29065146133631653,-0.5240484154445456,-6.043014884095706,4.1870451504512225,0.05208888284461721,-0.5342167781615098,0.3529549804096239,0.6451409283888642,0.09107589133203968,-2.402921214672648
20,2.0864904208671082,-2.7341157571360326,-0.2919086935511644,-0.5245327163694331,-6.015364150791024,4.182670087222039,0.051449818723006205,-0.5358120820541068,0.35278173933390167,0.643821417374143,0.10166525593713605,-2.381296748192009
21,2.0821007480234184,-2.7315150356900864,-0.29327678165253673,-0.5250597203111055,-5.9852753264818785,4.177909254755365,0.05079829538038641,-0.5374970345582023,0.3526039111933754,0.6426942226986676,0.1130772733380879,-2.3576879334722163
22,2.077347288269532,-2.7286987837358794,-0.2947582478030249,-0.5256303988368365,-5.952692940393386,4.17275387613578,0.05014324974722377,-0.5392606340919421,0.3524249376335968,0.641834445192674,0.12529437505553073,-2.3320239117728767
23,2.0722227611232302,-2.725662687852589,-0.29635536104213395,-0.5262456260078522,-5.917567088772311,4.167196055295091,0.04949439959608075,-0.5410896124837045,0.35224909928230935,0.6413251678799082,0.13828859210644606,-2.304232563930873
24,2.066720683096872,-2.7224029068096836,-0.2980701420175551,-0.5269061802018731,-5.879853330830585,4.161228760547894,0.0488620891343269,-0.5429683314559056,0.35208162206012694,0.6412571669161511,0.15202037581803332,-2.2742398514563185
25,2.060835352516546,-2.71891606257282,-0.2999043677164385,-0.5276127459356578,-5.839512584688824,4.154845808127145,0.048257098787934445,-0.5448786899884649,0.3519287853446733,0.6417284348721686,0.1664373303476887,-2.241969244148302
26,2.0545618343412198,-2.715199231309744,-0.3018595761966659,-0.5283659156875453,-5.796511023319858,4.148041845719718,0.047690417484808637,-0.5468000465432001,0.3517980289490766,0.6428434734009016,0.18147287118302752,-2.2073412914504
27,2.0478959449818928,-2.7112499343961884,-0.3039370713181232,-0.5291661917199988,-5.750819970492243,4.140812336001981,0.04717297630222403,-0.5487091606518734,0.35169805525124304,0.6447123007087562,0.1970448310986828,-2.17027340824104
28,2.040834237120747,-2.7070661294217726,-0.3061379274739729,-0.5300139879021475,-5.702415796713787,4.1331535401753525,0.04671534305803196,-0.5505801588562905,0.3516389221879562,0.6474491059268709,0.21305404452967044,-2.1306799602190503
29,2.0333739845302947,-2.7026462011959023,-0.30846299432192725,-0.5309096315323307,-5.651279815175068,4.125062501501874,0.04632737831399855,-0.5523845304141694,0.35163212223228735,0.6511704682845105,0.22938295369398032,-2.0884727485850654
30,2.025513166892535,-2.6979889527536685,-0.3109129015155204,-0.53185336516064,-5.597398177692953,4.116537028839771,0.046017854331646464,-0.5540911585223419,0.35169064193378646,0.6559930455410883,0.24589429566052592,-2.043562006680964
31,2.0172504546180994,-2.693093596361746,-0.31348806343538144,-0.5328453484114627,-5.540761770654124,4.107575680179022,0.0457940397796404,-0.5556663930301329,0.3518289961527479,0.66203062615754,0.26242994936989383,-1.9958580299228004
32,2.0085851936654047,-2.687959744524294,-0.3161886839205067,-0.5338856598060244,-5.481366110958596,4.098177746176925,0.04566125443226647,-0.557074170689921,0.352063230801009,0.6693904373387234,0.2788100454655928,-1.9452735606527165
33,1.9995173903598058,-2.682587400988855,-0.31901476099953247,-0.5349742985849323,-5.419211241963232,4.088343233693661,0.04562239970609348,-0.5582761888879039,0.3524108877538459,0.6781686121904063,0.29483246907748295,-1.8917270357152365
34,1.9900476962127431,-2.6769769517522524,-0.321966091622008,-0.5361111865307179,-5.354301629425275,4.07807284932786,0.0456774726303648,-0.5592321384854368,0.3528909256637336,0.688444751281469,0.31027291467164086,-1.8351467693037884
35,1.9801773927408959,-2.6711291560664927,-0.32504227638966754,-0.5372961697903798,-5.286646057445859,4.067367982952169,0.0458230726970611,-0.5599000008513932,0.3535235907299921,0.7002755753844165,0.32488567933720125,-1.775476078597255
36,1.969908376285332,-2.6650451374446615,-0.3282427242877035,-0.5385290206979273,-5.216257524413532,4.056230691248816,0.04605191293622537,-0.5602364133535594,0.35433023209862363,0.7136877650342217,0.33840540087169174,-1.7126792571555383
37,1.9592431428306596,-2.6587263746668253,-0.33156665741603886,-0.5398094395969226,-5.143153138947779,4.044663681245176,0.04635234844439364,-0.560197106482078,0.3553330575183148,0.7286702232844104,0.3505499518336746,-1.646748156678691
38,1.9481847728241772,-2.6521746927859295,-0.3350131157205998,-0.5411370566630246,-5.067354015842543,4.032670293849338,0.04670793737830935,-0.5597374143872392,0.35655482618691065,0.7451661773336237,0.36102468045610464,-1.5777089550735672
39,1.9367369159950254,-2.645392254133698,-0.33858096172458835,-0.5425114337265307,-4.988885172009741,4.020254487385671,0.04709705101965322,-0.5588128589232602,0.3580184774003441,0.7630657362304331,0.3695281335092393,-1.5056284843308443
40,1.9249037761733365,-2.638381549326532,-0.3422688852597552,-0.5439320660949208,-4.907775422422788,4.007420821130388,0.047492550815939706,-0.5573798053056185,0.3597466956597454,0.7821997120012445,0.3757592966998069,-1.430619299336349
41,1.9126900961093876,-2.63114538827141,-0.3460754081976721,-0.5453983843754,-4.824057276060119,3.994174438847114,0.04786155119779511,-0.5553961852310582,0.3617614152794208,0.8023356389055263,0.3794262432585274,-1.3528425400246529
42,1.9001011422927485,-2.623686891171787,-0.3499988891810047,-0.5469097562974411,-4.737766831848704,3.98052105232245,0.048165287350528024,-0.552822280809746,0.36408327022356357,0.823176928132661,0.3802559003289231,-1.2725076364573655
43,1.8871426897714354,-2.6160094795334925,-0.354037528354785,-0.548465488535328,-4.648943674607576,3.9664669249015394,0.04835910686816799,-0.5496215599665556,0.36673099781364144,0.8443659175824593,0.37800444924230814,-1.1898680853263617
44,1.8738210069710601,-2.608116867170631,-0.35818937209768437,-0.5500648285306986,-4.557630770991343,3.952018855023636,0.04839260324007437,-0.5457615511475251,0.3697208079968237,0.8654911942092607,0.3724677069094636,-1.1052129116738372
45,1.8601428405139817,-2.600013051211481,-0.3624523177532855,-0.5517069663150878,-4.463874365433722,3.937184159757668,0.048209907329354644,-0.5412147422984812,0.3730657329295498,0.8860990110643234,0.3634907353130786,-1.0188539905557092
46,1.846115400038457,-2.591702303104394,-0.36682411836135587,-0.5533910363324699,-4.367723876091044,3.9219706583378016,0.047750150338163766,-0.5359594862614664,0.3767749745677699,0.905707989316733,0.3509759325284232,-0.9311100440694845
47,1.831746343017791,-2.5831891596236938,-0.3713023873891198,-0.5551161192618026,-4.269231790785781,3.9063866556990128,0.04694810818845948,-0.5299808920705045,0.3808532706069847,0.9238257327550017,0.33488898926320776,-0.8422887051149927
48,1.8170437595794895,-2.574478413875576,-0.3758846034625312,-0.5568812438395689,-4.168453562950074,3.8904409260126473,0.04573503278756518,-0.5232716792424776,0.3853003013091351,0.9399656395303564,0.3152623358734567,-0.7526684009419612
49,1.8020161573244076,-2.565575106304007,-0.38056811509754657,-0.558685388682321,-4.065447507569241,3.8741426962219903,0.04403967034995048,-0.5158329701804439,0.39011016131411197,0.9536621745147874,0.29219601124735617,-0.6624818575370066
50,1.7866724461459027,-2.5564845156966225,-0.3853501454313972,-0.560527484109222,-3.960274697125304,3.8575016295778304,0.04178946091297328,-0.5076749943682322,0.3952709212912947,0.9644831769760518,0.26585619283491807,-0.5719027512385982
51,1.7710219230489843,-2.5472121501906293,-0.3902277969538618,-0.5624064139645905,-3.852998857540514,3.8405278091740263,0.038911906568675284,-0.498817677267391,0.4007643040883018,0.9720383395047764,0.2364718731321823,-0.4810365223235767
52,1.7550742569694653,-2.5377637382787004,-0.39519805623853976,-0.564321017440442,-3.743686264120864,3.8232317214830727,0.035336088940181656,-0.48929108685332195,0.4065654987560082,0.9759836624102582,0.20433030827679027,-0.3899157627218484
53,1.738839473593112,-2.528145219814879,-0.40025779867412303,-0.5662700908990331,-3.63240563749961,3.8056242398916655,0.030994309310281756,-0.4791357116547206,0.4126431333874338,0.976022314290675,0.1697718845789969,-0.2985000483789808
54,1.7223279401747966,-2.5183627370204733,-0.40540379319566916,-0.5682523896954034,-3.5192280395807978,3.7877166082362685,0.02582381785097299,-0.46840254607496645,0.41895942407164644,0.9719028065887,0.13318496180321504,-0.20667971566637655
55,1.7055503503576461,-2.5084226254899593,-0.41063270701587395,-0.5702666299999193,-3.404226769482777,3.769520424338679,0.019768591924543985,-0.45715296173231845,0.42547051246131184,0.963415672935024,0.0950010879007882,-0.11428292451913014
56,1.6885177089921954,-2.4983314051968777,-0.41594111035634407,-0.5723114906208164,-3.2874772594817254,3.751047623541593,0.012781117762320087,-0.4454583475773921,0.4321269985803559,0.9503899444370835,0.05569077291096935,-0.02108539058055605
57,1.6712413169555367,-2.4880957714997347,-0.42132548117886937,-0.5743856148267428,-3.1690569709551726,3.7323104622441727,0.0048241253083889,-0.4333995066085314,0.4388746687226828,0.9326906728015396,0.015759788480642013,0.07317765533164805
58,1.6537327559704702,-2.477722586147899,-0.42678220991669613,-0.5764876121693018,-3.049045290325511,3.713321501437611,-0.004127777045425364,-0.42106580303759894,0.4456554108490718,0.9102186201141456,-0.024254257127646162,0.16879748876983788
59,1.6360038734246558,-2.4672188682875045,-0.43230760420579917,-0.5786160603055951,-2.927523425003526,3.694093590240698,-0.014086622436963018,-0.40855406063864086,0.4524083020744797,0.8829130333706684,-0.06378551938152148,0.26607589477657645
60,1.6180667671897646,-2.4565917854673462,-0.4378978936161548,-0.5807695068207654,-2.804574299331909,3.674639849435386,-0.025049814210116265,-0.39596722056616085,0.45907084500054146,0.8507581481553128,-0.10224431948776556,0.3653070512448802
61,1.5999337704406273,-2.445848644644782,-0.4435492343830133,-0.5829464710505401,-2.6802824505287863,3.6549736550023564,-0.036999114571990094,-0.3834127749344033,0.4655803221717551,0.8137936826947101,-0.1390231090841043,0.4667572709112329
62,1.581617436474388,-2.434996883191629,-0.44925771413817184,-0.5851454459037732,-2.5547339246312317,3.635108621656585,-0.04989993966821617,-0.37100100063451136,0.4718752312177555,0.7721290366105602,-0.17350482346497317,0.5706429071571925
63,1.5631305235296535,-2.4240440599000666,-0.4550193566412465,-0.587364899684989,-2.4280161724387934,3.6150585863829097,-0.06370100057749645,-0.3588430259255325,0.47789675767976986,0.7259601553964349,-0.2050743976708456,0.6771073387448409
64,1.544485979605644,-2.4129978459885324,-0.4608301265109457,-0.5896032779169247,-2.3002179454570113,3.5948375919715927,-0.07833432085031336,-0.347048769933928,0.4835902384661603,0.6755870776452015,-0.2331339927391163,0.7861988109658554
65,1.5256969272813452,-2.401866016107623,-0.4666859339563422,-0.5918590051630738,-2.171429191840936,3.5744598705538895,-0.0937156506565209,-0.33572480198781396,0.4889065666426633,0.6214291778296266,-0.25712202348449303,0.8978518777758341
66,1.5067766485346576,-2.390656439345993,-0.4725826395081463,-0.5941304868502286,-2.0417409523386523,3.553939827137614,-0.10974528571448063,-0.32497217335316275,0.4938034880609051,0.5640343375623289,-0.2765353813913811,1.0118759610646555
67,1.4877385695615488,-2.379377070236254,-0.478516058749978,-0.5964161110910235,-1.9112452562348006,3.533292023142704,-0.1263092863861006,-0.31488427810771613,0.4982467422890207,0.5040781354820028,-0.29095337761833306,1.1279546939107905
68,1.4685962455952044,-2.368035939760875,-0.48448196704963975,-0.5987142505064774,-1.7800350172940993,3.512531159936787,-0.14328107913749044,-0.30554480230242875,0.5022110044435961,0.4423500429417692,-0.30006107631640183,1.2456588324654265
69,1.4493633457251773,-2.356641146358079,-0.49047610429038924,-0.6010232640485373,-1.6482039297048505,3.4916720623707467,-0.16052340952456723,-0.29702582099625646,0.505680590726332,0.37972569892006064,-0.3036691263972152,1.364473450222142
70,1.4300536377165396,-2.3452008469277454,-0.4964941796022122,-0.6033414988226211,-1.5158463640224875,3.470729662314288,-0.1778906035211103,-0.2893861010592938,0.5086498985168978,0.31712727429366383,-0.3017272125661693,1.4838372035325427
71,1.4106809728290344,-2.3337232478373067,-0.5025318760930946,-0.60566729191016,-1.3830572631130664,3.449718982191504,-0.19523108290264124,-0.2826696637616181,0.5111235614302397,0.2554768648446753,-0.2943289765455031,1.6031885339904623
72,1.3912592706362257,-2.32221659592765,-0.5085848555802955,-0.6079989721911424,-1.2499320380968122,3.428655118516441,-0.21239007102828034,-0.27690465513892704,0.5131163103832301,0.19564970127876272,-0.2817075941919381,1.7220118236195587
73,1.3718025038446475,-2.310689169519014,-0.5146487633216199,-0.6103348621666562,-1.1165664642916173,3.407553225428665,-0.22921241814899257,-0.2721025640924331,0.5146525429322312,0.13843397986761083,-0.26422276716952675,1.839876496118205
74,1.3523246831129594,-2.2991492694168896,-0.520719232746691,-0.6126732797814315,-0.9830565771565807,3.3864284982288275,-0.24554547064481638,-0.26825781838245755,0.5157656143979185,0.08450229183614412,-0.24234122518920037,1.9564638704021708
75,1.3328398418710938,-2.2876052099179187,-0.526791890188223,-0.6150125402463846,-0.8494985682355196,3.36529615691423,-0.2612419065743209,-0.2653477774503617,0.5164968750343889,0.034396706823362,-0.21661356820758382,2.071579480662774
76,1.3133620211394057,-2.2760653098157944,-0.5328623596132942,-0.6173509578611601,-0.7159886811004812,3.344171429714392,-0.2761624607012064,-0.26333312877067094,0.5168944871969116,-0.011473380409086097,-0.18765029227918686,2.1851515109359565
77,1.293905254347828,-2.264537883407158,-0.5389262673546187,-0.6196868478366737,-0.5826231072952872,3.323069536626616,-0.2901784657117898,-0.26215868167589595,0.5170120646426495,-0.052823631866889716,-0.15609927951691885,2.2972180904749426
78,1.274483552155019,-2.253031231497501,-0.5449792468418194,-0.6220185281176561,-0.449497882279033,3.302005672951553,-0.30317414249309727,-0.2617545398311313,0.5169071823708589,-0.08948127208340523,-0.12262617478837806,2.4079071167949317
79,1.2551108872675139,-2.241553632407063,-0.5510169433327019,-0.6243443212051951,-0.3167087813696119,3.280994992828769,-0.31504858082794474,-0.2620376212973326,0.5166398094899364,-0.12136945725076678,-0.08789820118615121,2.517412167936014
80,1.2358011792588763,-2.230113332976729,-0.5570350186445248,-0.6266625559792788,-0.184351215687248,3.2600525927723103,-0.32571736230369114,-0.26291348392915875,0.5162707193272376,-0.14849242924886852,-0.052571271705161265,2.6259673472727356
81,1.2165682793888488,-2.218718539573933,-0.5630291558852744,-0.6289715695213388,-0.052520128098001884,3.23919349520627,-0.3351137891685409,-0.2642784041802381,0.5158599303431455,-0.17092330823622234,-0.017279811809325727,2.733823001851798
82,1.1974259554225044,-2.2073774090985543,-0.5689950641849362,-0.6312697089367927,0.07869011084270117,3.218432632000353,-0.3431896957917992,-0.26602164964172853,0.5154652284717827,-0.18879534885974697,0.017371491389932558,2.8412234703955623
83,1.1783878764493956,-2.1960980399888155,-0.5749284834267677,-0.6335553331775875,0.20918580694655198,3.1977848280054433,-0.3499158327528727,-0.26802788013451556,0.5151408165051372,-0.20229663690830352,0.05081480203035543,2.9483874922155775
84,1.1594675977027085,-2.1848884632271854,-0.5808251889785718,-0.6358268148647424,0.33887404644883556,3.177264784589167,-0.3552818268579316,-0.2701796091195216,0.5149361293858571,-0.21166757001038033,0.08252576626406027,3.055491658603965
85,1.1406785453784094,-2.173756633346276,-0.5866809964239684,-0.6380825421108915,0.467662800064911,3.1568870631714643,-0.35929573304857204,-0.2723596566752359,0.5148948461769726,-0.2172000339889227,0.11203009556459224,-3.120528056837302
86,1.1220340014544004,-2.1627104194347417,-0.5924917662936675,-0.6403209203428273,0.5954610270466931,3.1366660687601473,-0.361983205758213,-0.2744535272869949,0.5150541204871311,-0.21923693853735002,0.13891026676187998,-3.013244430623254
87,1.1035470885096657,-2.151757596143179,-0.5982534087967423,-0.6425403741240431,0.7221787792391323,3.116616033486472,-0.36338632739298166,-0.2763516500524382,0.515444041723714,-0.218170712634969,0.16281221731551923,-2.905855909204863
88,1.0852307545434263,-2.1409058346900265,-0.6039618885519007,-0.6447393489772761,0.8477273051366874,3.096751000140701,-0.3635621399519723,-0.27795142537960765,0.5160873301937277,-0.21443949792154496,0.18345164959635463,-2.798445727894223
89,1.0670977577942893,-2.130162693867462,-0.6096132293187594,-0.6469163132070508,0.972019153939808,3.0770848057076714,-0.362580932138244,-0.27915903049668755,0.5169992602110813,-0.20852012914709858,0.20061935487000468,-2.691162605716996
90,1.049160651559398,-2.119535611047304,-0.6152035187291149,-0.6490697597222211,1.0949682796114253,3.057631064902359,-0.36052433852582944,-0.27989094569527695,0.5181877973803459,-0.2009175349134394,0.21418486741321408,-2.584211345232969
91,1.031431769013584,-2.109031893186909,-0.6207289130182181,-0.6511982078585145,1.2164901449334078,3.0384031537054454,-0.3574833094154986,-0.2800751737381932,0.5196539294190752,-0.19215085633273327,0.22409779253173587,-2.4778393529347538
92,1.0139232080285177,-2.0986587078350736,-0.6261856417560447,-0.6533002052010735,1.3365018255630696,3.019414192898884,-0.3535560100002467,-0.279652135805218,0.521392164475344,-0.18273724017426196,0.23038632624733826,-2.3723203392050283
93,0.996646815991858,-2.0884230741379306,-0.6315700125785702,-0.6553743294069998,1.4549221140896247,3.000677031601464,-0.34884570551899574,-0.27857523825974734,0.5233911670251815,-0.17317476638460588,0.23315277330965029,-2.2679368723085576
94,0.9796141746264075,-2.078331853844849,-0.6368784159190402,-0.657419190027897,1.5716716240906727,2.982204230804378,-0.3434586854202664,-0.2768111149596962,0.5256344991365359,-0.1639261921524003,0.23256621697450833,-2.1649636139809085
95,0.9628365848092575,-2.068391742314335,-0.642107329739245,-0.6594334303324128,1.6866728941886935,2.964008046906789,-0.337502274455922,-0.27433955942111177,0.5281014341183807,-0.15540508321931018,0.22885282472132323,-2.063652899110081
96,0.9463250513909418,-2.0586092595199297,-0.6472533242607912,-0.6614157291287832,1.7998504921075034,2.946100415251392,-0.3310829723837493,-0.27115316955253943,0.5307678102184356,-0.14796549953869015,0.22228451997077456,-1.9642238773153127
97,0.9300902680145888,-2.048990741056108,-0.6523130666963743,-0.6633648025873742,1.9111311187287585,2.9284929336599848,-0.3243047569012243,-0.26725673466906974,0.5336068939142699,-0.14189582594875302,0.21316686783411637,-1.8668558264918584
98,0.9141426019350696,-2.0395423291441794,-0.6572833259810522,-0.6652794060632257,2.0204437121484107,2.911196845969031,-0.31726757688893054,-0.2626663999066551,0.536590225241044,-0.1374167400138536,0.20182700578618767,-1.7716856262203837
99,0.8984920788381512,-2.030269963638186,-0.6621609775035171,-0.6671583359185943,2.1277195517332013,2.8942230255652266,-0.31006605532676373,-0.2574086469127266,0.539688421269766,-0.1346828187457962,0.18860232322926604,-1.6788088709260227
100,0.8831483676596461,-2.021179373030802,-0.6669430078373677,-0.6690004313454954,2.232892362177137,2.8775819589210663,-0.3027884136509843,-0.2515191317909373,0.5428719180382582,-0.13378697835249187,0.1738304016404862,-1.5882837825935763
101,0.8681207654045648,-2.0122760654592327,-0.6716265194723829,-0.6708045761882473,2.3358984175579662,2.8612837291304096,-0.29551562210262783,-0.24504142180027427,0.5461116356945971,-0.13476682861902128,0.157840516702974,-1.5001369622501461
102,0.8534181819662627,-2.0035653197111145,-0.6762087355457944,-0.6725697007660137,2.436676645393672,2.8453379994440446,-0.28832077399306866,-0.23802567138691527,0.5493795561095113,-0.13761207067754877,0.1409468132168695,-1.4143700627011395
103,0.8390491249455974,-1.9950521762304145,-0.6806870045735584,-0.6742947836953465,2.535168730698941,2.8297539968052554,-0.2812686759494618,-0.2305272759439543,0.5526492065486934,-0.14227221574764742,0.12344311495908038,-1.3309666140247491
104,0.8250216844700722,-1.9867414281233273,-0.6850588051816286,-0.6759788537127287,2.631319220041614,2.8145404953853896,-0.27441564122166784,-0.22260553846610628,0.5558960470021139,-0.14866409454593643,0.10559923225982207,-1.2498984296528441
105,0.8113435180129942,-1.9786376121641776,-0.6893217508372299,-0.6776209914971176,2.725075625599234,2.799705800119421,-0.2678094691053793,-0.21432238022998026,0.5590977623183284,-0.15667881734092148,0.0876585761400094,-1.1711312192172276
106,0.7980218352126189,-1.9707449998013162,-0.6934735945801291,-0.6792203314924884,2.816388529215467,2.7852577302415185,-0.26148959049073817,-0.20574112202773215,0.5622344633008206,-0.1661880056541454,0.06983686968861294,-1.0946292069709342
107,0.7850633826913063,-1.963067588163022,-0.6975122337539096,-0.6807760637303754,2.9052116864565933,2.7712036028206075,-0.2554873574678716,-0.19692535754924365,0.5652888033425336,-0.1770492368786723,0.052321753511368516,-1.0203586893873422
108,0.7724744288746677,-1.9556090910633985,-0.7014357147372419,-0.6822874356524163,2.9915021306680094,2.7575502162959435,-0.24982645376185356,-0.18793793546557908,0.5682460189911436,-0.18911072237259097,0.03527310214058434,-0.9482905613477368
109,0.7602607488107185,-1.948372930008277,-0.705242237675159,-0.6837537539328955,3.0752202770306747,2.7443038340126686,-0.24452340245228354,-0.17884006181043288,0.5710939040685906,-0.20221528404127834,0.018823894194295653,-0.8784019020966916
110,0.7484276089890303,-1.9413622252011113,-0.7089301612103258,-0.6851743863012857,3.156330026617627,2.7314701677573856,-0.23958814785816793,-0.169690529552931,0.573822727655764,-0.21620371272540304,0.0030815053721217063,-0.8106767471472331
111,0.7369797521598773,-1.9345797865488794,-0.7124980072143147,-0.6865487633647919,3.234798870450436,2.7190543612937192,-0.23502468952398098,-0.16054507793781195,0.5764251064568204,-0.23091759257934433,-0.011870683045770462,-0.7451061878053774
112,0.7259213821533945,-1.928028104667984,-0.7159444655188753,-0.6878763804308938,3.310597993555665,2.7070609738978817,-0.2308317478064631,-0.15145588033679214,0.5788958418494217,-0.24620166650527442,-0.025971448021841315,-0.6816879420472868
113,0.7152561486987226,-1.9217093418901476,-0.7192683986472106,-0.6891567993298893,3.383702379021421,2.6954939638942417,-0.22700344251118393,-0.1424711560733842,0.5812317313853016,-0.2619058042902044,-0.0391797334487502,-0.6204255337415515
114,0.7049871322431593,-1.9156253232683167,-0.7224688465452467,-0.6903896502374367,3.4540909120537426,2.6843566721908876,-0.22352996824376972,-0.1336348989870218,0.5834313637094956,-0.2778866212938357,-0.051472564640380074,-0.5613272049457455
115,0.6951168287713119,-1.909777527582557,-0.7255450313129063,-0.6915746334970987,3.5217464840331596,2.673651805815197,-0.22039825251133766,-0.12498671339736862,0.5854949048928118,-0.2940087837251352,-0.06284292077619337,-0.5044046704809401
116,0.6856471346242496,-1.9041670783459543,-0.7284963619353817,-0.6927115214428841,3.5866560965711196,2.6633814214493974,-0.21759258503470932,-0.1165617465991399,0.5874238830910258,-0.3101460278654229,-0.07329761055169128,-0.44967180677279317
117,0.6765793313186506,-1.8987947348105154,-0.7313224390144075,-0.6938001602217921,3.648810965566482,2.653546908966131,-0.2150952091241195,-0.10839070602522718,0.5892209773179202,-0.3261819152821153,-0.0828551904718096,-0.397143349182385
118,0.6679140703659567,-1.8936608829730637,-0.734023059499533,-0.6948404716163538,3.7082066252620036,2.6441489749640357,-0.21288686825802688,-0.10049994871093994,0.5908898149997899,-0.3420103437644971,-0.09154395987491543,-0.3468336546174877
119,0.6596513580915213,-1.8887655265811412,-0.7365982214193938,-0.6958324548671766,3.7648430323008357,2.635187626303286,-0.21094730312902094,-0.092911630614392,0.5924347819083572,-0.35753583369299907,-0.09940006150354583,-0.2987555698225929
120,0.6517905404537612,-1.8841082781389074,-0.7390481286129871,-0.6967761884954858,3.818724669782948,2.6266621536411847,-0.20925569634039232,-0.08564390363170396,0.5938608470787087,-0.37267361098503715,-0.10646571106540595,-0.2529194309565239
121,0.644330287863309,-1.879688349913037,-0.7413731954609415,-0.6976718321256691,3.869860651321665,2.6185711149677053,-0.2077910636235647,-0.07871114872308471,0.5951734044308429,-0.3873495098274652,-0.11278757374683936,-0.20933220729280883
122,0.6372685800021634,-1.8755045449386214,-0.7435740516167912,-0.6985196283078179,3.918264825100116,2.6109123191410766,-0.20653259188499173,-0.07212423437084048,0.5963781320408768,-0.40149972041945614,-0.11841530016166686,-0.16799679137406964
123,0.6306026906428366,-1.8715552480250661,-0.7456515467382483,-0.6993199043402714,3.9639558779277335,2.6036828094233386,-0.2054599255772084,-0.06589079056028085,0.5974808693565877,-0.41507040840839926,-0.12340022891690823,-0.12891142980530904
124,0.62432917246751,-1.86783841676199,-0.7476067552184759,-0.7000730740921588,4.006957439296703,2.596878847015914,-0.2045534038280019,-0.06001548955259871,0.5984875121212381,-0.4280172333020512,-0.12779425804616837,-0.09206928301894106
125,0.6184438418871845,-1.8643515725251265,-0.7494409809173594,-0.7007796398259436,4.047298185438456,2.5904958945951635,-0.2037942514672077,-0.05450032585492772,0.5994039243541828,-0.44030479276581425,-0.13164888317498494,-0.057458098593150736
126,0.612941763860827,-1.8610917914822207,-0.7511557618927807,-0.7014401940199645,4.085011943380182,2.5845285998479675,-0.20316472758142348,-0.049344888944427547,0.6002358664275996,-0.4519060183963031,-0.13501439657055653,-0.025059980769784038
127,0.6078172367145249,-1.8580556955989307,-0.7527528751318895,-0.7020554211909801,4.12013779500126,2.5789707790072782,-0.20264823552610775,-0.044546623435495376,0.6009889380644092,-0.4628015464391294,-0.13793923826669685,0.005148761640803863
128,0.6030637769606391,-1.8552394436447237,-0.754234341282378,-0.7026260997167113,4.152720181089742,2.5738154003876934,-0.20222939845783688,-0.0401010724645983,0.6016685349503185,-0.4729790841883305,-0.14046948826351047,0.03319770611799201
129,0.5986741041169485,-1.852638722198778,-0.7556024293837504,-0.7031531036583836,4.1828090053988936,2.5690545679210186,-0.2018941044439872,-0.03600210108543554,0.602279817589457,-0.48243278968772946,-0.14264848735022562,0.05912236175735976
130,0.5946401255258089,-1.850248736655881,-0.7568596615985984,-0.7036374045832711,4.210459738703579,2.5646795046918354,-0.20162952508996324,-0.03224209740397879,0.6028276910251107,-0.49116267906356803,-0.14451657331985046,0.08296418284538198
131,0.590952921173294,-1.8480642022323301,-0.7580088179438721,-0.7040800733872389,4.2357335228568,2.5606805364730674,-0.20142411142173147,-0.028812150029578504,0.603316794081881,-0.49917407253869184,-0.14611091913986082,0.10477056230848059
132,0.5876027285083578,-1.8460793349718299,-0.759052941022154,-0.7044822821172861,4.258697274846198,2.5570470752615364,-0.20126757049874658,-0.025702201170729265,0.6037514968515969,-0.5064770870586796,-0.14746545990295415,0.12459481447285023
133,0.5845789272619757,-1.8442878427513891,-0.7599953407529303,-0.7048453057940889,4.279423790850445,2.5537676028135525,-0.20115082593225725,-0.02290117536137145,0.6041359052320053,-0.5130861806064784,-0.14861089599079488,0.14249615448728797
134,0.5818700242662995,-1.8426829162872287,-0.7608395991038659,-0.7051705242345432,4.2979918502958325,2.550829654180448,-0.20106596516696001,-0.020397084367859936,0.6044738714256203,-0.5190197507625861,-0.14957476073015222,0.1585396798737222
135,0.5794636382738081,-1.841257220140672,-0.7615895748220718,-0.7054594238743082,4.3144863199126595,2.5482198012441746,-0.20100617606783053,-0.01817710930185902,0.604769009408404,-0.5242997879169876,-0.15038154180296476,0.17279635802838378
136,0.5773464847764622,-1.8400028837240474,-0.7622494081653839,-0.7057135995903483,4.328998257791739,2.5459236362528346,-0.20096567505387225,-0.016227661355294784,0.6050247144779267,-0.5289515817672003,-0.15105284670183797,0.1853430221230662
137,0.575504360824844,-1.8389114923065875,-0.7628235256336324,-0.7059347565234777,4.341625017440944,2.5439257553562884,-0.20093962874870958,-0.014534422885817314,0.6052441860832763,-0.5330034783332533,-0.15160760352696837,0.19626237674539151
138,0.5739221298473234,-1.8379740780203284,-0.7633166446999158,-0.7061247119009011,4.352470351841554,2.542209742141684,-0.2009240708840372,-0.013082370820732096,0.6054304532206185,-0.5364866836648694,-0.15206228934285357,0.20564301375391153
139,0.5725837064691941,-1.8371811108660097,-0.7637337785418715,-0.7062853968587597,4.361644517504872,2.5407581511690425,-0.20091581600280406,-0.011855784519432692,0.6055864017462507,-0.5394351096795124,-0.15243117911156248,0.21357943818332578
140,0.5714720413318364,-1.8365224897189707,-0.7640802407729508,-0.7064188582646704,4.369264378528601,2.5395524915068157,-0.20091237136902096,-0.010838240344675863,0.6057148030117373,-0.541885257122053,-0.1527266088661564,0.22017210358626677
141,0.5705691059118594,-1.8359875333350533,-0.7643616501736883,-0.7065272605402724,4.3754535106533945,2.5385732102674585,-0.20091184840230358,-0.010012595246119138,0.6058183432624964,-0.5438761304464174,-0.15295924726835075,0.225527455915271
142,0.5698558773402578,-1.8355649713565008,-0.7645839354229803,-0.7066128874837674,4.380342305319277,2.537799676142992,-0.20091287491752993,-0.009360961660656125,0.6058996532622051,-0.5454491794568845,-0.1531383700043138,0.22975798490149213
143,0.5693123232215569,-1.835242935317852,-0.76475333982935,-0.7066781440924641,4.384068073722184,2.5372101629405615,-0.20091450946128225,-0.008864675987793879,0.6059613376112051,-0.5466482627834754,-0.1532721316166615,0.23298228185366807
144,0.5689173864529713,-1.835008949651853,-0.7648764260622274,-0.7067255583853207,4.386775150870357,2.536781833118018,-0.20091615909334265,-0.008504262810242014,0.6060060032190688,-0.5475196286740809,-0.15336782936122417,0.23532510285812513
145,0.5686489700435511,-1.8348499226953399,-0.7649600808832173,-0.7067577832254879,4.388614999640942,2.536490721319472,-0.20091750205829106,-0.008259396905909993,0.6060362863711979,-0.5481119091379368,-0.15343215353117068,0.23691743649110916
146,0.5684839219333311,-1.8347521376951494,-0.7650115198773724,-0.7067775981428517,4.389746314836368,2.5363117179108636,-0.20091841692312587,-0.008108864945485059,0.6060548777986463,-0.5484761241393838,-0.1534714184294875,0.23789657533858477
147,0.568398019812483,-1.8347012438140111,-0.7650382921844657,-0.7067879111565766,4.390335127240831,2.5362185525155256,-0.20091891991480682,-0.008030528598653002,0.6060645451212927,-0.5486656932837777,-0.15349176781564952,0.2384061908418228
148,0.5683659559404717,-1.8346822471364552,-0.7650482852302686,-0.7067917605976484,4.390554907676889,2.5361837775497547,-0.20091911236947507,-0.008001290593879575,0.6060681519889718,-0.5487364532171778,-0.15349934822574304,0.23859641123004394
149,0.5683613219651966,-1.8346795016747084,-0.7650497294578138,-0.706792316931417,4.390586671061718,2.5361787517583734,-0.20091914039529382,-0.007997065105945212,0.6060686731949996,-0.5487466797294362,-0.1535004430873618,0.2386239025466843
