nimar13/UR3e_dataset_trayectorias/data/trayectorias_completas_UR3e_QUINTIC/trayectoria_272.csv
Punto,shoulder_pan_joint,shoulder_lift_joint,elbow_joint,wrist_1_joint,wrist_2_joint,wrist_3_joint,Posicion_X,Posicion_Y,Posicion_Z,Roll,Pitch,Yaw
0,-0.4107649455086771,4.891927918858898,-0.5477659946126248,-2.0138147062694394,4.573875274399935,-3.907644061732713,0.018303655201380022,0.12115308648724743,0.7256877437619416,-0.6203839066402618,-0.7994938336962215,-0.6157734502877686
1,-0.41078039623399903,4.891925833784962,-0.54777009560639,-2.01380770108544,4.573870693498504,-3.9076440559621917,0.01830382634455026,0.12115308362519514,0.7256873202564419,-0.6203794197614522,-0.7994923594420635,-0.6157952613790169
2,-0.4108873044606861,4.891911406529771,-0.5477984716186457,-2.0137592301053777,4.573838996860429,-3.9076440160342156,0.018305010689900023,0.12115306446155066,0.7256843896175902,-0.6203483743513469,-0.7994821580997179,-0.6159461783660719
3,-0.4111737216284248,4.8918727545597775,-0.5478744936172687,-2.0136293718030087,4.573754078593746,-3.9076439090634225,0.018308184991479376,0.12115301862951873,0.72567653577898,-0.6202652064448373,-0.7994548231536734,-0.6163504945747557
4,-0.41172402948815756,4.891798490565585,-0.5480205585465644,-2.013379868447434,4.573590920812529,-3.907643703535001,0.018314289387438995,0.12115295308373183,0.7256614360632966,-0.6201054348539479,-0.7994022843628186,-0.6171273092279184
5,-0.4126189907184795,4.891677715631273,-0.5482581027620747,-2.0129741031541974,4.573325578629908,-3.907643369285789,0.01832423230548961,0.1211529097088428,0.725636852169324,-0.6198456646064108,-0.7993167882406642,-0.6183905842951589
6,-0.41393579954203497,4.891500012403716,-0.5486076154653857,-2.0123770769363865,4.572935165151091,-3.907642877485365,0.018338896844417668,0.12115298816932563,0.7256006188757489,-0.6194635958571358,-0.7991908741609366,-0.6202491969345313
7,-0.4157481323419138,4.891255438261908,-0.5490886521389362,-2.01155538575573,4.572397836466381,-3.907642200617149,0.01835914861353116,0.12115337298127188,0.7255506308837996,-0.6189380373222464,-0.7990173469317978,-0.6228069882894994
8,-0.41812619827804803,4.890934518486284,-0.5497198479808246,-2.0104771975736964,4.571692776644201,-3.9076413124594955,0.01838584512437212,0.12115436382403424,0.7254848281951641,-0.6182489233692733,-0.7987892466460325,-0.6261628093360692
9,-0.421136789903608,4.890528239428042,-0.5505189313396178,-2.009112229402593,4.570800182724107,-3.9076401880667886,0.018419846941442015,0.12115640814048731,0.7254011803970599,-0.617377333978057,-0.7984998165808146,-0.6304105644093994
10,-0.4248433337813991,4.890028041678464,-0.5515027371491582,-2.007431724356665,4.569701249709815,-3.9076388037505407,0.018462030903846693,0.12116013509928399,0.7252976702027012,-0.616305516863151,-0.7981424698879334,-0.635639252977628
11,-0.4293059411002583,4.88942581323824,-0.5526872203633723,-2.0054084287031926,4.568378155562218,-3.907637137060486,0.018513305821614007,0.12116639001017179,0.7251722765724792,-0.6150169111185094,-0.797710755782604,-0.6419330101747517
12,-0.4345814582914504,4.88871388268679,-0.5540874693910778,-2.0030165689135924,4.566814046192409,-3.9076351667656763,0.018574631123990003,0.12117626829323838,0.7250229577189916,-0.6134961718077385,-0.7971983259054243,-0.6493711465551674
13,-0.44072351764506457,4.887885012351582,-0.5557177195307924,-2.0002318287145124,4.564993020454694,-3.907632872835579,0.018647038988120368,0.12119114810390189,0.724847634277406,-0.6117291949771334,-0.796598901497065,-0.6580281874910043
14,-0.4477825879264108,4.886932391477458,-0.5575913664055412,-1.9970313261389345,4.562900115139622,-3.9076302364211704,0.01873166050192285,0.1212127207066799,0.7246441729016143,-0.6097031426133386,-0.795906241988425,-0.6679739126003337
15,-0.45580602499241646,4.885849629395957,-0.5597209793976642,-1.9933935905772706,4.560521289966998,-3.9076272398360334,0.018829756411935166,0.12124301767181492,0.7244103705260923,-0.6074064671022894,-0.7951141155699468,-0.679273395570217
16,-0.4648381224080227,4.884630748694633,-0.562118315083625,-1.9892985398284622,4.557843412578905,-3.907623866537452,0.0189427529735507,0.12128443393975162,0.724143939513357,-0.6048289347711292,-0.7942162722622921,-0.6919870447232518
17,-0.4749201620625809,4.88327017838638,-0.564794330668818,-1.984727457151079,4.554854243532728,-3.9076201011075082,0.019072283355732557,0.12133974576008891,0.7238424938873813,-0.6019616481102016,-0.7932064199664837,-0.7061706446698067
18,-0.4860904647862491,4.881762747078753,-0.5677591974223767,-1.9796629683144176,4.551542421294167,-3.9076159292341774,0.019220234954042147,0.12141212246555157,0.7235035368342441,-0.5987970662787448,-0.7920782039248639,-0.7218753993895312
19,-0.4983844409663888,4.880103676143289,-0.5710223141119815,-1.9740890186496005,4.5478974472302625,-3.9076113376924235,0.019388802834033478,0.12150513099033902,0.7231244496327013,-0.5953290234965277,-0.7908251899746874,-0.7391479770943098
20,-0.5118346411639606,4.8782885728848315,-0.5745923204386671,-1.967990850100674,4.543909670602416,-3.907606314325297,0.019580549361623865,0.12162273198941143,0.722702482159175,-0.5915527449158344,-0.7894408519239325,-0.7580305572389628
21,-0.5264708067299217,4.876313423710853,-0.5784771104716313,-1.9613549782757076,4.539570273559406,-3.9076008480250266,0.019798469878353264,0.12176926636539759,0.7222347450938926,-0.5874648595555791,-0.7879185633239995,-0.7785608800641811
22,-0.5423199204216218,4.874174587300771,-0.5826838460830421,-1.9541691694978924,4.534871256130411,-3.907594928714121,0.020046064048473332,0.12194943096829111,0.7217182039375635,-0.5830634098640746,-0.786251593856474,-0.8007722990762727
23,-0.5594062570191995,4.871868787775278,-0.5872189703828459,-1.9464224178566394,4.5298054212180325,-3.9075885473264598,0.020327412243250367,0.12216824220626468,0.7211496749309204,-0.5783478574612434,-0.7844331104911768,-0.8246938368881569
24,-0.577751433941979,4.869393107865657,-0.5920882211535752,-1.9381049222586795,4.5243663595913075,-3.9075816957883904,0.020647256038195953,0.12243098630085998,0.7205258229528031,-0.573319084597398,-0.782456183510692,-0.8503502448632544
25,-0.5973744618648664,4.86674498208311,-0.5972966442851568,-1.9292080634791602,4.518548434878737,-3.907574366999826,0.02101108158474109,0.12274315494409387,0.7198431614560121,-0.5679793908567237,-0.7803137974325199,-0.8777620670158341
26,-0.6182917953347464,4.863922189888071,-0.6028486072097197,-1.9197243812127462,4.5123467685613,-3.907566554815338,0.02142520428369106,0.12311036517669678,0.7190980544840136,-0.5623324846316811,-0.7779988667946633,-0.9069457086257076
27,-0.6405173833868787,4.8609228488595395,-0.6087478123364021,-1.909647551124717,4.5057572249654765,-3.9075582540252567,0.021896852839716496,0.12353826241376976,0.7182867207955986,-0.5563834689024317,-0.7755042567040401,-0.9379135100192306
28,-0.6640627201612939,4.8577454078643925,-0.6149973104861606,-1.898972361902066,4.498776396256269,-3.9075494603367606,0.022434250421460064,0.12403240570449331,0.7174052401088066,-0.550138820874969,-0.7728228079805586,-0.9706738259505077
29,-0.6889368955191908,4.854388640226711,-0.6215995143265771,-1.8876946923045983,4.49140158743022,-3.907540170354978,0.02304669029964377,0.12459813453331355,0.7164495614597477,-0.5436063650652249,-0.7699473666635163,-1.0052311109842413
30,-0.7151466456593326,4.8508516368971035,-0.6285562118066673,-1.8758114882160313,4.483630801308431,-3.9075303815640807,0.023744602996379097,0.12524041675753503,0.7154155136564051,-0.5367952394650449,-0.766870817582298,-1.0415860112338757
31,-0.7426964037344432,4.847133799622022,-0.6358685795916881,-1.8633207396950908,4.475462723529589,-3.907520092308379,0.02453961166497906,0.12596367763517946,0.7142988177920245,-0.5297158544908035,-0.7635861216309818,-1.079735462744336
32,-0.7715883504676035,4.843234834113094,-0.6435371964979456,-1.8502214580266125,4.46689670754298,-3.907509301773419,0.025444572144694862,0.12677161033019643,0.7130951017672925,-0.522379844496525,-0.7600863563276432,-1.1196727967278641
33,-0.8018224647686483,4.839154743216433,-0.6515620569276033,-1.8365136527726387,4.457932759601512,-3.907498009967077,0.02647359391403196,0.12766696879013656,0.711799916755215,-0.5148000117303071,-0.7563647591850344,-1.1613878517646452
34,-0.8333965743505629,4.8348938200819696,-0.6599425843034895,-1.8221983088235167,4.448571523754735,-3.9074862177006566,0.027642038015854173,0.12865134447175064,0.7104087555273871,-0.5069902627241646,-0.7524147733710203,-1.2048670929685283
35,-0.8663064063458785,4.830452641332768,-0.6686776445039055,-1.8072773634489996,4.438814266841861,-3.907473926569984,0.02896648796411378,0.12972492903710933,0.7089170725452629,-0.49896553723111603,-0.7482300950960178,-1.2500937379942798
36,-0.9005456379230701,4.825832060234352,-0.6777655592974339,-1.7917536833493435,4.428662863484786,-3.907461138936504,0.030464689682710343,0.13088626584735716,0.7073203057051708,-0.49074172995637955,-0.7438047221317415,-1.2970478896295519
37,-0.9361059469029522,4.821033199864023,-0.6872041197777451,-1.7756310417064056,4.418119781081106,-3.907447857908376,0.032155456688046896,0.1321319938299275,0.7056138996111404,-0.4823356054685005,-0.739133002841851,-1.3457066745754656
38,-0.9729770623750746,4.816057446280187,-0.6969905997984067,-1.7589140952347446,4.407188064797142,-3.907434087321568,0.034058537023390706,0.13345658807063474,0.703793330235329,-0.4737647068168542,-0.7342096850915114,-1.396044387878833
39,-1.0111468153141208,4.810906441691671,-0.7071217694076904,-1.741608361232718,4.395871322560956,-3.907419831720957,0.03619443889807035,0.13485210226304983,0.7018541308119218,-0.46504725851966733,-0.7290299644000537,-1.4480326423410754
40,-1.0506011891963023,4.80558207762705,-0.7175939082833808,-1.7237201946335816,4.384173710055374,-3.9074050963414186,0.038584212587675734,0.13630791890862384,0.6997919187970549,-0.4562020647168703,-0.7235895307091216,-1.5016405220984916
41,-1.091324370615756,4.800086488103965,-0.7284028191675819,-1.7052567650565877,4.372099915711005,-3.9073898870889283,0.04124918691851441,0.13781051387317123,0.6976024237146211,-0.4472484033998004,-0.7178846131581708,-1.5568347394507729
42,-1.1332987999009418,4.794422042798447,-0.7395438413015264,-1.6862260338580835,4.3596551456992625,-3.9073742105216542,0.044210659591410406,0.1393432425366455,0.6952815156959578,-0.43820591773067324,-0.7119120222895281,-1.613579793913703
43,-1.1765052217310372,4.788591340214242,-0.7510118638603828,-1.666636731182611,4.346845108925383,-3.9073580738310545,0.04748954169134891,0.1408861552895547,0.6928252345104992,-0.4290945055447985,-0.7056691891459105,-1.6718381323921305
44,-1.2209227357523347,4.782597200852126,-0.7628013393880637,-1.6464983330140042,4.333676002021444,-3.9073414848229713,0.051105957968690406,0.14241585049570893,0.6902298188746919,-0.41993420818442584,-0.6991542007734255,-1.731570309313709
45,-1.2665288471946374,4.776442660379233,-0.7749062972320327,-1.6258210382264895,4.320154494339393,-3.907324451898729,0.05507880584562951,0.14390537322234961,0.6874917358179469,-0.4107450998424905,-0.6923658317014438,-1.7927351455350964
46,-1.313299517487657,4.770130962798376,-0.7873203569781139,-1.6046157456357821,4.306287712944056,-3.9073069840362282,0.059425277571551145,0.14532416800180545,0.6846077098773307,-0.40154717859599515,-0.6853035710358027,-1.8552898848315722
47,-1.3612092148774095,4.763665553617365,-0.8000367418852983,-1.582894031050187,4.292083227606168,-3.9072890907710427,0.06416035148859003,0.14663809360381297,0.6815747518872558,-0.3923602602820652,-0.6779676448720836,-1.9191903468088525
48,-1.4102309650426113,4.757050073018335,-0.8130482923205525,-1.560668124321696,4.277549035795385,-3.907270782177515,0.06929625993220316,0.1478095072396839,0.6783901871267001,-0.38320387631565583,-0.6703590338091422,-1.9843910751312472
49,-1.4603364017110758,4.7502883490270635,-0.8263474791936267,-1.5379508863970877,4.262693547673309,-3.907252068849851,0.07484194283242296,0.1487974247707243,0.6750516825847079,-0.37409717646836155,-0.6624794854180984,-2.0508454800414917
50,-1.5114958172761108,4.743384390682294,-0.8399264173918617,-1.5147557863690242,4.247525571086508,-3.9072329618832176,0.08080249754548834,0.1495577623443023,0.67155727310519,-0.3650588375257582,-0.6543315215964792,-2.118505974251662
51,-1.563678213412913,4.736342381205061,-0.8537768792149975,-1.4910968785271534,4.232054296559534,-3.907213472854838,0.0871786367743893,0.15004366343250441,0.667905386174437,-0.3561069786196678,-0.6459184408096168,-2.1873241014079414
52,-1.616851351694967,4.729166671168006,-0.8678903078099809,-1.4669887794092031,4.216289282287946,-3.907193613805087,0.0939661675699662,0.15020591351258514,0.6640948651194466,-0.34725908389618143,-0.6372443152899501,-2.257250656470365
53,-1.670981804210439,4.7218617716647024,-0.8822578306057739,-1.4424466448520832,4.200240439131325,-3.907173397218587,0.10115550528091209,0.14999344262985723,0.6601249904921517,-0.33853193303465945,-0.6283139833282231,-2.3282357974974466
54,-1.7260350041785761,4.714432347478981,-0.8968702727481609,-1.417486147042983,4.183918015606301,-3.9071528360053045,0.10873123688335401,0.14935391385963753,0.655995499424018,-0.3299415399822088,-0.6191330368475578,-2.4002291484799056
55,-1.7819752965661009,4.706883210254247,-0.9117181705345567,-1.39212345157047,4.16733258287957,-3.907131943481645,0.11667174831577727,0.14823439328538637,0.6517066027472204,-0.3215031001169046,-0.6097078045010755,-2.473179893022976
56,-1.8387659887036083,4.699219311662803,-0.9267917848488151,-1.3663751944755882,4.150495019760912,-3.907110733351549,0.1249489302283105,0.1465820945973375,0.6472589996927227,-0.3132309459058762,-0.6000453305755532,-2.5470368588284305
57,-1.896369400901961,4.691445736575176,-0.9420811145960353,-1.3402584593029578,4.133416497696215,-3.9070892196875895,0.13352797589291865,0.14434518886262793,0.6426538899920053,-0.3051385109851863,-0.590153350017266,-2.621748593071561
58,-1.9547469170686895,4.683567696229429,-0.9575759101373713,-1.3137907541518736,4.116108465760493,-3.907067416912065,0.1423672838925025,0.1414736675058892,0.6378929832278074,-0.2972383024605926,-0.580040259921603,-2.697263428901602
59,-2.0138590353243844,4.675590521400495,-0.9732656867248394,-1.2869899887274028,4.098582635650905,-3.9070453397780973,0.1514184766074502,0.13792024415632556,0.6329785052999742,-0.2895418811146813,-0.5697150878454743,-2.7735295434135354
60,-2.0736654186190946,4.6675196555694916,-0.9891397379361253,-1.2598744513914841,4.0808509666797805,-3.9070230033507274,0.16062654346036526,0.13364127885465155,0.6279132018951373,-0.28205984910820164,-0.5591874573114335,-2.8504950075431443
61,-2.1341249453487245,4.6593606480930445,-1.0051871491093929,-1.2324627862140272,4.062925650767633,-3.9070004229880095,0.16993011539431477,0.12859770626142955,0.622700338873298,-0.2748018446831882,-0.5484675508753827,-2.9281078284241655
62,-2.1951957599714307,4.65111914737261,-1.0213968107780915,-1.2047739700240094,4.044819097436184,-3.9069776143221095,0.17926187419647474,0.1227559480537904,0.6173436995102505,-0.2677765433131083,-0.5375660711264822,-3.006315984815807
63,-2.256835323624014,4.642800894023797,-1.0377574321057648,-1.176827289460579,4.026543918801384,-3.906954593240399,0.1885490971049975,0.11608878871833886,0.6118475785618319,-0.2609916647005587,-0.5264941999792989,-3.0850674562611187
64,-2.3190004647383224,4.63441171404569,-1.0542575543208565,-1.1486423180241476,4.008112914566428,-3.9069313758665505,0.19771433373635056,0.10857619351017693,0.6062167731440025,-0.2544539849955648,-0.5152635566051601,3.1188750605076385
65,-2.3816474296576438,4.625957511990168,-1.0708855641515211,-1.1202388931274925,3.989539057014782,-3.9069079785416365,0.2066762088416534,0.1002060475016418,0.600456570451364,-0.24816935359582779,-0.503886154333096,3.0391929041236136
66,-2.4447319332531032,4.617444264131232,-1.08762970726043,-1.0916370931468562,3.9708354760031987,-3.9068844178052218,0.21535034085306543,0.0909747954206366,0.5945727323656336,-0.24214271389314831,-0.4923743568314192,2.959123277072895
67,-2.5082092095400608,4.608878011634321,-1.1044781016795793,-1.0628572144730417,3.9520154439547386,-3.9068607103764603,0.22365036273172462,0.08088796338717123,0.5885714770344324,-0.2363781273457207,-0.48074083385988464,2.878718005809395
68,-2.572034062294502,4.600264853725636,-1.121418751245098,-1.033919748562515,3.9330923608517905,-3.9068368731351923,0.23148902839643817,0.06996054568440821,0.5824594575291357,-0.23087880028229024,-0.46899851686014526,2.7980288394949575
69,-2.6361609156694437,4.591610940861465,-1.1384395590320568,-1.0048453589885005,3.9140797392290936,-3.906812923103039,0.23877938511459967,0.05821724231007604,0.5762437377181969,-0.22564711287924827,-0.45716055462955335,2.717107443617895
70,-2.700543864811324,4.582922467897504,-1.1555283407892745,-0.9756548584920823,3.8949911891667535,-3.906788877424498,0.24543598978383963,0.045692536184933824,0.5699317655188174,-0.22068464979371383,-0.4452402693009337,2.6360053950340294
71,-2.7651367264763995,4.574205667258173,-1.172672838374127,-0.9463691860333017,3.875840403283266,-3.906764753348041,0.2513761451229172,0.032430602464663165,0.5635313437148547,-0.2159922319825884,-0.4332511128291075,2.5547741778337016
72,-2.8298930896471446,4.565466802105947,-1.189860733187354,-0.9170093838422546,3.8566411417285362,-3.9067405682072076,0.2565211305050768,0.018485046308370605,0.5570505985520592,-0.2115699492877791,-0.4212066241641562,2.4734651794808356
73,-2.8947663661486445,4.556712159510672,-1.207079659607869,-0.8875965744701921,3.837407217176897,-3.906716339401702,0.2607974015677135,0.003918469583278756,0.5504979463427732,-0.20741719341965897,-0.40912038727198075,2.3921296867150263
74,-2.959709841264993,4.54794804361889,-1.2243172184275641,-0.8581519378406202,3.818152479820134,-3.906692084378489,0.26413773285638814,-0.01119812879769628,0.5438820583308943,-0.2035326910229745,-0.39700599014470384,2.310818880753406
75,-3.024676724355691,4.53918076882316,-1.2415609902861204,-0.8286966883003941,3.7988908023604986,-3.9066678206128898,0.2664822786208329,-0.026786110036209565,0.5372118240839083,-0.19991453656068942,-0.384876984927146,2.2295838313747733
76,-3.0896201994720403,4.530416652931377,-1.2587985491058156,-0.7992520516708213,3.779636065003735,-3.9066435655896767,0.2677795284607523,-0.042760097245413964,0.5304963136918965,-0.19656022480054286,-0.37274684927095214,2.148475489513314
77,-3.15449347597354,4.521662010336103,-1.27601747552633,-0.7698392422987592,3.760402140452096,-3.906619336784171,0.2679871367784099,-0.05902900534268801,0.5237447390635328,-0.19346668273580372,-0.3606289490148563,2.0675446780324376
78,-3.2192498391442848,4.512923145183877,-1.2932053703395574,-0.7404794401077122,3.741202878897366,-3.9065951516433377,0.26707260786662573,-0.07549717925120793,0.516966414615961,-0.19063030081491805,-0.3485365022781825,1.986842080390484
79,-3.2838427008093602,4.504206344544546,-1.3103498679244097,-0.711193767648931,3.722052093013879,-3.906571027566881,0.26501382185548583,-0.09206561791729709,0.5101707176591117,-0.18804696339434163,-0.3364825450446116,1.9064182269489067
80,-3.3482256499512406,4.495517871580584,-1.3274386496816273,-0.6820032671525134,3.7029635429515384,-3.90654698188834,0.2617993905505541,-0.10863325957119938,0.5033670487753547,-0.18571207836420828,-0.32447989830457824,1.8263234787098754
81,-3.4123525033261823,4.486863958716413,-1.3444594574685862,-0.6529288775784987,3.6839509213288415,-3.9065230318561865,0.257428836296605,-0.1250983022704465,0.4965647924924634,-0.18362060592765705,-0.31254113681710455,1.7466080083040336
82,-3.4761773560806235,4.478250800807729,-1.3614001070341049,-0.6239914116679721,3.6650278382258934,-3.9064991946149186,0.251912591261366,-0.14135953310594093,0.48977327854171343,-0.1817670865414186,-0.30067855954524786,1.6673217780803622
83,-3.53965463236758,4.469684548310817,-1.3782485014532542,-0.5952115329941581,3.6462078061774337,-3.906475487186157,0.24527181881684595,-0.15731763953326505,0.48300174398367074,-0.18014566804771426,-0.2889041618135372,1.5885145151789986
84,-3.6027391359630387,4.4611713004518805,-1.394992644562163,-0.5666097330135216,3.6275042251658505,-3.9064519264497424,0.23753806286619894,-0.1728764771009217,0.47625929647198484,-0.1787501320457777,-0.27722960923046325,1.5102356834943969
85,-3.6653861008823614,4.452717098396359,-1.4116206543928276,-0.5382063081168666,3.608930367614204,-3.906428529124828,0.22875273489335354,-0.1879442693430146,0.469554878910505,-0.17757391956544105,-0.2656662134142094,1.4325344524608183
86,-3.7275512419966703,4.444327918418253,-1.4281207766079196,-0.5100213366804354,3.590499363379249,-3.90640531175098,0.21896645208401755,-0.2024347177227834,0.46289723574145375,-0.17661015611555558,-0.2542249095551206,1.355459662614852
87,-3.789190805649253,4.43600966506944,-1.4444813979355924,-0.4820746561170044,3.5722241847444485,-3.9063822906692693,0.20823824297938182,-0.21626800217181977,0.4562948810825666,-0.17585167618668096,-0.24291623584370253,1.2790597879107664
88,-3.8502616202719597,4.427768164349005,-1.4606910596042912,-0.4543858399269869,3.554117631413,-3.9063594820033694,0.19663463969658806,-0.22937165586789424,0.44975606890923747,-0.1752910472908438,-0.2317503147881937,1.2033828947842644
89,-3.910721147001591,4.419609156872558,-1.4767384707775588,-0.4269741747495297,3.536192315500852,-3.9063369016406515,0.1842286777232886,-0.24168130132071833,0.4432887654541744,-0.1749205936214677,-0.2207368364406508,1.1284765979787275
90,-3.970527530296301,4.411538291041555,-1.4926125219888449,-0.3998586374136113,3.518460646529727,-3.906314565213281,0.17109882563124115,-0.2531412384714493,0.4369006239721632,-0.17473241941415676,-0.20988504354509296,1.0543880131655108
91,-4.029639648551995,4.403561116212621,-1.508302298576313,-0.3730578719891393,3.500934816420139,-3.906292488079314,0.15732786774326385,-0.2637048792381498,0.4305989619916019,-0.1747184320842231,-0.1992037186153411,0.9811637064064763
92,-4.088017164718725,4.395683075866874,-1.5237970941176486,-0.34659016683805577,3.483626784484417,-3.9062706853037894,0.14300176283936142,-0.27333502663851006,0.42439074114785524,-0.17487036520990787,-0.18870117294377653,0.9088496405227982
93,-4.145620576917077,4.387909500779246,-1.5390864238648692,-0.3204734316654252,3.4665482624197193,-3.9062491716398298,0.12820850143295315,-0.2820040001828267,0.4182825496665199,-0.17517980142170775,-0.17838523753522997,0.8374911184491294
94,-4.2024112690545845,4.380245602187802,-1.5541600381791274,-0.2947251745705435,3.449710699301061,-3.906227961509734,0.11303698303730142,-0.2896936125554068,0.4122805875377271,-0.17563819524807234,-0.16826325595266647,0.7671327236666472
95,-4.258351561442108,4.372696464963068,-1.569007935965523,-0.26936247909803024,3.4331252665743306,-3.9062070689860744,0.09757593324152611,-0.2963950056061743,0.40639065439597355,-0.1762368959567572,-0.15834207905309633,0.6978182578223058
96,-4.313404761410246,4.365267040777347,-1.5836203781079101,-0.2444019812889302,3.416802843049307,-3.9061865077727917,0.08191287840317323,-0.30210835628767674,0.40061814009393854,-0.17696717041911625,-0.14862806158348674,0.629590675654554
97,-4.367535213925716,4.357962141274044,-1.5979879009037032,-0.21985984673181003,3.400753999892686,-3.9061662911862918,0.06613319342683036,-0.30684246534491166,0.3949680179336694,-0.17782022601244007,-0.13912706059715996,0.562492017358203
98,-4.420708352207772,4.350786431236989,-1.6121013294986866,-0.19575174761386016,3.3849889856210975,-3.906146432136541,0.05031923552672814,-0.31061424326396336,0.3894448404945615,-0.17878723356284854,-0.12984443564154177,0.496563338532429
99,-4.472890748344574,4.343744421759754,-1.6259517913218227,-0.17209283977198897,3.3695177110941232,-3.9061269431081613,0.034549574157526054,-0.3134481091958595,0.38405273797506506,-0.17985935031901046,-0.12078505065810155,0.4318446378666079
100,-4.524050163909608,4.336840463414986,-1.6395307295200576,-0.14889773974392595,3.3543497345073225,-3.906107836141528,0.018898324530512267,-0.315375319297137,0.378795418944157,-0.18102774293497995,-0.11195327752512749,0.3683747827280597
101,-4.574155600578072,4.330078739423715,-1.6528299163931313,-0.1261805018193174,3.3394942463852466,-3.906089122813864,0.003434589395748481,-0.3164332411866985,0.37367617337949466,-0.18228361042908817,-0.10335300116361157,0.3061914328242526
102,-4.6231773507432745,4.323463258824684,-1.665841466828386,-0.10395459509082738,3.3249600545744635,-3.9060708142203358,-0.011777988860861809,-0.3166645910415017,0.3686978778520099,-0.1836182070754075,-0.09498762611625654,0.24533096211923738
103,-4.671087048133026,4.316997849643673,-1.6785578517355701,-0.08223288050523148,3.3107555692365755,-3.9060529209551507,-0.026681566218079572,-0.3161166492845833,0.36386300270157085,-0.18502286517481667,-0.08686008449945434,0.18582837918984757
104,-4.717857718426046,4.310686152062815,-1.6909719114816515,-0.061027587914523895,3.2968887878412385,-3.9060354530926498,-0.04122432776813792,-0.31484046990928927,0.359173621035302,-0.18648901764433726,-0.07897284521830496,0.12771724621174746
105,-4.763463829868349,4.304531611589923,-1.7030768693256204,-0.04035029312700922,3.283367280159186,-3.9060184201684076,-0.05536061583862629,-0.3128900972907991,0.3546314193693311,-0.18800822035657197,-0.07132792432536866,0.07102959676840764
106,-4.807881343889647,4.298537472227807,-1.7148663448533006,-0.020211894958402032,3.2701981732552485,-3.9060018311603244,-0.06905096179373346,-0.3103218029205835,0.35023770972600415,-0.18957217415523583,-0.06392689639514287,0.015795852677518693
107,-4.851087765719741,4.292706769643602,-1.7263343674121574,-0.0006225922829301567,3.2573881364813686,-3.905985694469724,-0.08226202919379243,-0.30719335292253674,0.34599344299211826,-0.19117274646873522,-0.05677090677827296,-0.03795525997065344
108,-4.893062195004927,4.287042324338085,-1.737475389546102,0.018408138915574135,3.244943366469625,-3.9059700179024506,-0.09496647705105479,-0.30356331553094373,0.34189922333928724,-0.19280199244089044,-0.04986068459242668,-0.09019679537006038
109,-4.93378537642438,4.281546734815,-1.7482843004303028,0.03687156849256956,3.232869572125257,-3.9059548086499603,-0.10714275267030128,-0.29949041598646875,0.33795532350520924,-0.19445217549655405,-0.04319655630069977,-0.140903672960991
110,-4.973239750306561,4.276222370750378,-1.7587564393059927,0.05475973509170595,3.221171959619674,-3.905940073270422,-0.1187748240195046,-0.2950329445884052,0.3341617007342048,-0.19611578725994716,-0.03677845972346452,-0.19005276261233853
111,-5.01140950324561,4.271071366161862,-1.7688876089152774,0.07206546909373257,3.2098552173834882,-3.9059258176698104,-0.1298518617597838,-0.2902482219747728,0.33051801317687723,-0.1977855667448025,-0.030605958325875014,-0.237622969844638
112,-5.048280618717733,4.266095612578026,-1.7786740889359387,0.08878241556539201,3.1989235010995243,-3.905912047083003,-0.14036788100256056,-0.285192124124951,0.32702363655197497,-0.19945451873796827,-0.024678255620796785,-0.28359532092188383
113,-5.083840927697614,4.261296752207697,-1.7881126494162503,0.1049050572083301,3.1883804186958438,-3.9058987660548747,-0.15032135258623752,-0.27991866812347693,0.3236776808783762,-0.20111593130170427,-0.018994209525864243,-0.3279530476484815
114,-5.118080159274804,4.256676171109281,-1.7972005642097777,0.12042873730798709,3.1782290153387693,-3.905885978421395,-0.1597147932084775,-0.2744796584122672,0.320479007091485,-0.20276339232447596,-0.013552346513723487,-0.3706816717171314
115,-5.150989991270121,4.252234992360079,-1.805935624410194,0.13534968268250358,3.1684717584258952,-3.9058736872907223,-0.1685543431478211,-0.2689243921083004,0.317426243366006,-0.2043908050553809,-0.008350875396244553,-0.4117690884638871
116,-5.182564100852038,4.247974069225616,-1.8143161517860802,0.1496650266316255,3.1591105225791187,-3.905861895024302,-0.17684933959409707,-0.2632994209846744,0.3145178009760063,-0.20599240256339668,-0.00338770058671788,-0.45120564989765766
117,-5.212798215153083,4.243893978328955,-1.822341012215738,0.1633728318855998,3.15014657463765,-3.9058506032179596,-0.1846118928136706,-0.25764836690852266,0.3117518895331505,-0.20756276106906732,0.0013395653113819808,-0.48898424688328074
118,-5.241690161886242,4.239995012820025,-1.830009629121995,0.17647211355407766,3.141580558651041,-3.9058398126829994,-0.19185647153342195,-0.252011786897886,0.3091265314549595,-0.20909681210323883,0.005833589734429031,-0.5251003903693486
119,-5.269239919961353,4.236277175544945,-1.8373219969070156,0.18896286207501678,3.1334124808721984,-3.9058295234272977,-0.1985995030639213,-0.24642708349500025,0.3066395755266878,-0.21058985345446907,0.010097309345534464,-0.5595522915645688
120,-5.295449670101495,4.232740172215338,-1.844278694387106,0.2008460661635847,3.12564169475041,-3.9058197346364008,-0.20485899282149794,-0.2409284558455406,0.3042887094328725,-0.21203755887401043,0.014133920307650287,-0.5923409409790392
121,-5.3203238454593915,4.229383404577656,-1.8508808982275227,0.21212373576105392,3.1182668859243607,-3.9058104446546182,-0.21065416707099457,-0.23554688670933543,0.30207147114764943,-0.21343598651449097,0.01794686976239889,-0.6234701862596315
122,-5.343869182233808,4.226205963582508,-1.8571303963772812,0.2227989249837048,3.111286057215152,-3.905801650966122,-0.21600514191224954,-0.23031016059293308,0.299985259086433,-0.2147815860856186,0.02153984862309509,-0.6529468087612493
123,-5.3660947702859385,4.2232066225539775,-1.8630296015039634,0.23287575507173575,3.1046965136193294,-3.9057933501760402,-0.22093262078633794,-0.22524290827195775,0.29802734093544964,-0.21607120471726773,0.024916785778310014,-0.6807805988082994
124,-5.387012103755816,4.220383830358939,-1.8685815644285266,0.24235943733814835,3.098494847301892,-3.905785537991553,-0.22545762209117043,-0.22036667314441902,0.29619486108979404,-0.21730209152721433,0.028081843789285105,-0.7069844296130571
125,-5.406635131678703,4.217735704576391,-1.8737899875601083,0.25125629611766787,3.092676922589321,-3.9057782092029885,-0.22960123787568992,-0.21569999510807925,0.29448484664510016,-0.21847190089767604,0.031039416150488212,-0.7315743298295047
126,-5.424980308601484,4.215260024666771,-1.878659238330837,0.2595737917156269,3.087237860962597,-3.905771357664919,-0.23338442403021809,-0.211258507968894,0.2928942119024278,-0.21957869447125167,0.03379412616790677,-0.7545695547330399
127,-5.442066645199061,4.212954225141278,-1.8831943626306402,0.2673205433568815,3.0821720260502175,-3.9057649762772577,-0.236827821907249,-0.20705504674747097,0.2914197613606507,-0.2206209418836762,0.03635082749422053,-0.7759926560277769
128,-5.457915758890762,4.210815388731196,-1.8874010982420508,0.2745063521346949,3.0774730086212236,-3.905759056966352,-0.23995161088996675,-0.20309976164149912,0.29005819118527043,-0.22159752025714946,0.03871460634398701,-0.7958695502941652
129,-5.472551924456721,4.208840239557216,-1.8912858882750154,0.28114222395966193,3.0731336115782115,-3.905753590666082,-0.2427753910708367,-0.19940023581034283,0.288806089157264,-0.22250771248486792,0.040890785395486226,-0.8142295861003545
130,-5.486002124654294,4.20702513629876,-1.8948558946017018,0.28724039250858757,3.0691458349503664,-3.9057485672989554,-0.24531809490450962,-0.19596160456098496,0.28765993312016724,-0.22335120434401382,0.04288492936899733,-0.8311056098111029
131,-5.498296100834431,4.205366065363296,-1.8981190112913056,0.29281434217340596,3.0655008608864613,-3.9057439757572014,-0.24759792645158354,-0.19278667392107143,0.2866160879581147,-0.2241280804818382,0.044702852254134395,-0.8465340301380914
132,-5.5094664035581,4.203858634055669,-1.9010838780448645,0.2978788310100664,3.0621890386479,-3.9057398038838707,-0.24963232662581314,-0.18987603697503486,0.2856708011519441,-0.2248388193269314,0.046350626141488285,-0.8605548814853348
133,-5.519548443212661,4.202498063747415,-1.9037598936300586,0.30244991368744945,3.0591998696017213,-3.905736038453927,-0.2514379626900549,-0.1872281867047505,0.28482019697467875,-0.22548428698610234,0.047834591596449066,-0.8732118861529529
134,-5.528580540628269,4.201279183046092,-1.9061572293160187,0.30654496443625856,3.056521992213629,-3.9057326651553455,-0.2530307401088217,-0.18483962440941,0.28406026940173595,-0.2260657301961511,0.04916136949555504,-0.8845525154719887
135,-5.536603977694271,4.2001964209645894,-1.9082868423081412,0.3101826999979238,3.0541431670410053,-3.905729668570208,-0.2544258347512778,-0.18270496307434578,0.2833868738249695,-0.22658476840967073,0.050337874228407596,-0.894628049952219
136,-5.543663047975617,4.199243800090466,-1.9101604891828894,0.31338320257350016,3.0520502617259324,-3.9057270321558,-0.25563774334195893,-0.18081702531027843,0.2827957176732178,-0.2270433851049144,0.051371328150917384,-0.9034936385339991
137,-5.549805107329232,4.198414929755257,-1.9117907393226043,0.3161679427725801,3.0502292359882177,-3.9057247382257025,-0.2566803499723184,-0.17916693568903597,0.2822823500552104,-0.22744391842162406,0.05226927715865222,-0.9112083570441611
138,-5.555080624520424,4.197702999203807,-1.913190988350309,0.31855980256217986,3.048665126618408,-3.905722767930893,-0.25756700641006997,-0.17774420745622838,0.28184215055363127,-0.2277890512380413,0.0530396072323248,-0.9178352659650744
139,-5.559543231839284,4.197100770763584,-1.9143754715645243,0.32058309821565123,3.0473420324708114,-3.905721101240838,-0.2583106238717144,-0.17653682370387436,0.281470317311678,-0.2280818008188532,0.05369056179100671,-0.9234414676346762
140,-5.5632497757170745,4.196600573014007,-1.9153592773740649,0.3222636032615833,3.04624309945652,-3.9057197169245903,-0.25892377385404886,-0.1755313131356428,0.28116185456568754,-0.22832550817987202,0.05423075967259853,-0.9280981630041819
141,-5.566260367342635,4.196194293955765,-1.9161583607328574,0.3236285714326872,3.045350505536425,-3.9057185925318834,-0.2594187955510165,-0.1747128205543926,0.2809115597892191,-0.22852382733264162,0.05466921354534473,-0.931880708088972
142,-5.568638433278767,4.195873374180141,-1.9167895565747473,0.3247067596147204,3.0446454457142442,-3.9057177043742297,-0.25980790731169956,-0.17406517214743972,0.28071401062551904,-0.2286807145913078,0.05501534853880542,-0.9348686702567839
143,-5.570450766078652,4.195628800038332,-1.9172705932482965,0.3255284507953764,3.044108117029534,-3.905717027506014,-0.26010331952296806,-0.17357093554184527,0.2805635517964582,-0.228800418144421,0.055279020867605125,-0.9371458845062091
144,-5.5717675749022035,4.195451096810776,-1.9176201059516074,0.3261254770131887,3.043717703550718,-3.90571653570559,-0.2603173462255694,-0.1732114744538471,0.2804542821869717,-0.22888746811642066,0.055470536206450524,-0.9388005098969942
145,-5.572662536132526,4.195330321876463,-1.9178576501671174,0.3265312423064226,3.0434523613680975,-3.9057162014563778,-0.26046251269494386,-0.172966997568306,0.2803800423148061,-0.22894666736692135,0.05560066756016353,-0.9399250863027843
146,-5.573212843992256,4.19525605788227,-1.9180037150964142,0.3267807456619982,3.0432892035868795,-3.9057159959279564,-0.2605516561365225,-0.17281660106247965,0.28033440240611646,-0.22898308330065706,0.055680672357742954,-0.9406165916653989
147,-5.573499261159994,4.195217405912277,-1.9180797370950364,0.3269106039643659,3.0432042853201975,-3.9057158889571633,-0.2605980165584722,-0.17273830394138148,0.2803106513083251,-0.2290020409867228,0.055722308484499716,-0.9409764999393843
148,-5.573606169386684,4.195202978657086,-1.9181081131072923,0.3269590749444262,3.0431725886821206,-3.9057158490291872,-0.26061531478971334,-0.17270907508955513,0.2803017864829399,-0.22900911791282824,0.055737848950860966,-0.9411108399248184
149,-5.573621620112005,4.1952008935831495,-1.9181122141010565,0.3269660801284262,3.04316800778069,-3.905715843258666,-0.2606178145038737,-0.17270485067765162,0.2803005053329656,-0.22901014072787043,0.05574009488017285,-0.9411302551965867
