nimar13/UR3e_dataset_trayectorias/trayectorias_ejecutadas/quintic_func/trayectoria_086_result.csv
timestamp,q1,q2,q3,q4,q5,q6,qd1,qd2,qd3,qd4,qd5,qd6,tau1,tau2,tau3,tau4,tau5,tau6
1749041543.2662766,2.68276309967041,-1.1254163843444367,-2.301240921020508,4.0509349542805175,-2.629072968159811,-4.913426701222555,-0.0009017580887302756,0.0005746079841628671,-0.0018719719955697656,0.001447488320991397,-0.0020918366499245167,-0.0037769749760627747,0.14026637375354767,0.6253902912139893,0.9754015207290649,0.5465099811553955,0.10820764303207397,-0.08992744982242584
1749041543.2663257,2.682770013809204,-1.1254474383643647,-2.3012678623199463,4.050915880794189,-2.6290748755084437,-4.913470331822531,-0.0020673281978815794,0.0007250621565617621,-0.0014327076496556401,0.0002557863772381097,-0.0013550554867833853,-0.0017880775267258286,0.14022192358970642,0.6216001510620117,0.9869951009750366,0.5414519309997559,0.10919970273971558,-0.09548582136631012
1749041543.2663662,2.682746171951294,-1.125452772980072,-2.3012750148773193,4.050911112422607,-2.6290574709521692,-4.913426701222555,-0.0023064708802849054,0.0006964317290112376,-0.001164503744803369,4.520014044828713e-05,-0.0010171668836846948,-0.0009532992844469845,0.12872245907783508,0.6070782542228699,1.0228443145751953,0.5270383358001709,0.13491737842559814,-0.07586129009723663
1749041543.2664046,2.682765245437622,-1.1254137617400666,-2.3012750148773193,4.050895376796387,-2.629072968159811,-4.913438860570089,-0.0022231275215744972,0.0007117129280231893,-0.0006713816546835005,-0.00204328796826303,-0.0006056681741029024,0.000247467978624627,0.11769562214612961,0.6148938536643982,1.028849482536316,0.5257995128631592,0.14686037600040436,-0.06510157883167267
1749041543.2664495,2.6826963424682617,-1.125421093111374,-2.301240921020508,4.050899191493652,-2.629007641469137,-4.913454715405599,-0.002472847932949662,0.0006386247696354985,-0.00028991897124797106,-0.0029180156998336315,0.00020429262076504529,0.0004337296122685075,0.1113152951002121,0.6002340912818909,1.0325826406478882,0.5159434080123901,0.1561562865972519,-0.05530788004398346
1749041543.2665012,2.682711601257324,-1.1254438620856781,-2.3012373447418213,4.050914927119873,-2.629038397465841,-4.913368884717123,-0.0028298816177994013,0.0006564085488207638,-0.00012622051872313023,-0.0028488601092249155,0.0014212402747943997,0.0005300412303768098,0.09300220012664795,0.6508100628852844,1.0493580102920532,0.5220428705215454,0.16345089673995972,-0.02263997495174408
1749041543.2665412,2.6826963424682617,-1.1253972512534638,-2.3012444972991943,4.050899191493652,-2.6290646235095423,-4.9134302775012415,-0.0034738436806946993,0.0006796358502469957,-8.241298928624019e-06,-0.002239744644612074,0.00301148509606719,0.0006463617901317775,0.08895274251699448,0.589617133140564,1.0665642023086548,0.5069228410720825,0.15697605907917023,-0.028498485684394836
1749041543.2665792,2.682727098464966,-1.1254127782634278,-2.3012166023254395,4.050907297725342,-2.6290422121631067,-4.913446251546041,-0.0039651477709412575,0.0007173573831096292,-5.380979359870253e-07,-0.0018131842371076345,0.0034911655820906162,0.0010918357875198126,0.09893118590116501,0.6260389685630798,1.0659680366516113,0.48157596588134766,0.1802438199520111,-0.016771867871284485
1749041543.2666166,2.682687520980835,-1.1253972512534638,-2.3012282848358154,4.050914927119873,-2.629040781651632,-4.913426701222555,-0.0038782735355198383,0.0008654153789393604,0.0006653456948697567,-0.0016444765496999025,0.0032196342945098877,0.0017187191406264901,0.10053558647632599,0.628615140914917,1.0858036279678345,0.48495233058929443,0.1731054037809372,-0.013197124004364014
1749041543.266654,2.6827340126037598,-1.1254246991923829,-2.3012166023254395,4.050914927119873,-2.6290252844439905,-4.913402859364645,-0.003140510292723775,0.001517343451268971,0.0023158229887485504,-0.0014491499168798327,0.0027654599398374557,0.0022783284075558186,0.09527215361595154,0.610733687877655,1.0706359148025513,0.4737989902496338,0.17658685147762299,-0.0034365952014923096
1749041543.2666905,2.682699680328369,-1.1254127782634278,-2.3012166023254395,4.050914927119873,-2.6290183703051966,-4.913395587597982,-0.002297125058248639,0.0020197483245283365,0.002086495980620384,-0.0012239665957167745,0.0023143382277339697,0.0025106468237936497,0.07952526956796646,0.61140376329422,1.0723671913146973,0.468953013420105,0.18968293070793152,-0.017588406801223755
1749041543.2667284,2.6826910972595215,-1.1253936451724549,-2.301201105117798,4.050886793727539,-2.6290181318866175,-4.913433972989218,-0.002131963847205043,0.0023150905035436153,0.0016371087403967977,-0.0012803677236661315,0.0018568547675386071,0.0025818233843892813,0.054572947323322296,0.593548059463501,1.0790760517120361,0.4524202346801758,0.18803521990776062,-0.010758429765701294
1749041543.2667682,2.682694673538208,-1.1254044634154816,-2.3012237548828125,4.050882979030273,-2.629033629094259,-4.913394633923666,-0.0019260867265984416,0.0019206287106499076,0.001203077845275402,-0.0018130275420844555,0.0016373292310163379,0.002589329844340682,0.07075495272874832,0.6030008792877197,1.088343620300293,0.4511255621910095,0.20590266585350037,-0.013727575540542603
1749041543.2668097,2.6827032566070557,-1.1254080694964905,-2.301208257675171,4.050890608424805,-2.6289945284472864,-4.91339093843569,-0.0018902276642620564,0.0016179713420569897,0.0010994287440553308,-0.002248248318210244,0.001508899498730898,0.002869608346372843,0.06126090884208679,0.6170408725738525,1.098488450050354,0.4542882442474365,0.21440157294273376,-0.0010243058204650879
1749041543.2668483,2.6826791763305664,-1.1253961485675354,-2.301208257675171,4.050903006190918,-2.629040781651632,-4.913355533276693,-0.0020904128905385733,0.0013664783909916878,0.0011347663821652532,-0.002480492927134037,0.0013801699969917536,0.003217026824131608,0.05093499645590782,0.6250770092010498,1.1049927473068237,0.464705228805542,0.22028683125972748,-0.0006094276905059814
1749041543.2668867,2.6826603412628174,-1.1253489416888733,-2.3012046813964844,4.050862951869629,-2.629040781651632,-4.91335112253298,-0.0019604864064604044,0.0009762811241671443,0.0011478568194434047,-0.0026802567299455404,0.00132532580755651,0.003618950955569744,0.05213940888643265,0.6161251068115234,1.1168067455291748,0.4589420557022095,0.20799311995506287,-0.004600226879119873
1749041543.2669241,2.6826863288879395,-1.1253698033145447,-2.301239252090454,4.050859137172363,-2.6290064493762415,-4.91339093843569,-0.0016716786194592714,0.0010640504769980907,0.0012685524998232722,-0.002611322794109583,0.0013095112517476082,0.003350108163431287,0.0799589604139328,0.6362964510917664,1.1081856489181519,0.45865297317504883,0.22198894619941711,0.00837235152721405
1749041543.2669613,2.6827051639556885,-1.1253417295268555,-2.3012518882751465,4.050882502193115,-2.629009787236349,-4.913359228764669,-0.0016912581631913781,0.0010912219295278192,0.0012149775866419077,-0.0024362406693398952,0.0013940661447122693,0.003098040819168091,0.06795013695955276,0.6380903720855713,1.0991648435592651,0.4492601156234741,0.21572089195251465,0.0016755163669586182
1749041543.2669985,2.6826603412628174,-1.1253999036601563,-2.301220178604126,4.050848169917725,-2.629002873097555,-4.913307730351583,-0.0013517633778974414,0.0016384113114327192,0.0010718125849962234,-0.0023029479198157787,0.001348108402453363,0.0032273964025080204,0.07182662189006805,0.6098114252090454,1.1213606595993042,0.46042752265930176,0.20776617527008057,0.012416347861289978
1749041543.2670355,2.6826791763305664,-1.1253770154765625,-2.301232099533081,4.050875349635742,-2.6289909521686,-4.913386170064108,-0.0012698688078671694,0.0015332329785451293,0.0010104284156113863,-0.0021916155237704515,0.001275633811019361,0.003257857169955969,0.06465707719326019,0.6280603408813477,1.1317352056503296,0.45578551292419434,0.1945715695619583,0.0016405880451202393
1749041543.2671404,2.6826603412628174,-1.1253925424865265,-2.301220178604126,4.050851507777832,-2.6290133635150355,-4.913323227559225,-0.0010806085774675012,0.001475060824304819,0.0008517022943124175,-0.00206902832724154,0.0011507855961099267,0.0032911875750869513,0.052156224846839905,0.626249372959137,1.1271473169326782,0.4548630714416504,0.20539245009422302,0.008098393678665161
1749041543.2690668,2.6826860904693604,-1.1253889364055176,-2.3012356758117676,4.050855322475098,-2.629002873097555,-4.913342539464132,-0.000857316015753895,0.0013543698005378246,0.0008501831907778978,-0.002003558911383152,0.0010893942089751363,0.002724994905292988,0.041892532259225845,0.6296190023422241,1.1367236375808716,0.45576733350753784,0.2224457859992981,0.010966286063194275
1749041543.3102818,2.682648181915283,-1.1253770154765625,-2.301220178604126,4.050827189082764,-2.6290133635150355,-4.913342539464132,-0.0006900090374983847,0.0013837545411661267,0.0007419043104164302,-0.0018287529237568378,0.0010698428377509117,0.002398914657533169,0.05289771035313606,0.6434414982795715,1.128883719444275,0.4560765027999878,0.21971194446086884,0.018471598625183105
1749041543.3103278,2.6826672554016113,-1.1253650945476075,-2.3012237548828125,4.050842924708984,-2.628997866307394,-4.913358394299642,-0.0007133390754461288,0.001248903339728713,0.0007530713337473571,-0.0016220351681113243,0.001046452671289444,0.002011748729273677,0.08819995075464249,0.6403142213821411,1.1235944032669067,0.4496234655380249,0.20685559511184692,0.011079490184783936
1749041543.3103688,2.682682752609253,-1.1253853303245087,-2.301208257675171,4.050851507777832,-2.629016939793722,-4.913323227559225,-0.0006332230987027287,0.0013664138969033957,0.000678627344314009,-0.0014653315301984549,0.0010093820746988058,0.0017457096837460995,0.08054476976394653,0.6182080507278442,1.1425381898880005,0.447928786277771,0.21322903037071228,0.007802978157997131
1749041543.310411,2.6826515197753906,-1.1253614884665986,-2.3011927604675293,4.050858660335205,-2.6289859453784388,-4.91335112253298,-0.0005667596706189215,0.002178177936002612,0.0006941789761185646,-0.0013068114640191197,0.000917504308745265,0.001428021932952106,0.07685453444719315,0.6306386590003967,1.1338399648666382,0.4499533176422119,0.2116316258907318,0.01636439561843872
1749041543.3104508,2.682701587677002,-1.1253843766501923,-2.301220178604126,4.050816221828125,-2.6290133635150355,-4.913334194813864,-0.0005129050696268678,0.003007355844601989,0.0006393617368303239,-0.0010978542268276215,0.0008543073199689388,0.001426846720278263,0.06593362241983414,0.5981427431106567,1.139491081237793,0.45834630727767944,0.21106979250907898,0.003803074359893799
1749041543.310489,2.6826672554016113,-1.1253961485675354,-2.3011891841888428,4.050827189082764,-2.629016939793722,-4.913334194813864,-0.0004683999577537179,0.003030153689906001,0.000534262100700289,-0.0008712192648090422,0.0007497761398553848,0.001546806306578219,0.091150663793087,0.605087161064148,1.1255608797073364,0.44701290130615234,0.1972058117389679,-0.0095309317111969
1749041543.31053,2.682694673538208,-1.1253688496402283,-2.3012356758117676,4.050870104427002,-2.6290014425860804,-4.913346115742819,-0.00043100418406538665,0.0031138646882027388,0.0005575158284045756,-0.0007263731677085161,0.0006601512432098389,0.0015882976585999131,0.0606439933180809,0.6046352386474609,1.1329128742218018,0.44834089279174805,0.19800019264221191,0.0074003636837005615
1749041543.310571,2.6826980113983154,-1.1253298085979004,-2.301246404647827,4.050820036525391,-2.628997866307394,-4.913342539464132,-0.0003991390694864094,0.0027905816677957773,0.0005891280015930533,-0.0006240757647901773,0.0005882901605218649,0.0014843984972685575,0.07868892699480057,0.6073988676071167,1.133574366569519,0.44766300916671753,0.19745418429374695,-0.006721854209899902
1749041543.3106093,2.682682752609253,-1.1253371697715302,-2.3012046813964844,4.050839110011719,-2.6289859453784388,-4.913330618535177,-0.00037166266702115536,0.0024164076894521713,0.0006163175567053258,-0.0005474243080243468,0.0005303287180140615,0.0013603409752249718,0.07682786136865616,0.6048031449317932,1.1254340410232544,0.4522631764411926,0.19210104644298553,0.003027617931365967
1749041543.3106472,2.682648181915283,-1.125340775852539,-2.3011927604675293,4.050823374385498,-2.6289859453784388,-4.913330618535177,-0.00034772491198964417,0.002162209479138255,0.0007397237932309508,-0.0004877219907939434,0.0004827545490115881,0.0011791426222771406,0.10174287855625153,0.6182392239570618,1.1322523355484009,0.46169358491897583,0.20164769887924194,-0.004265725612640381
1749041543.310685,2.6827101707458496,-1.1252780121615906,-2.3011927604675293,4.050839110011719,-2.6289942900287073,-4.91333789030184,-0.0003266853163950145,0.0019305230816826224,0.0008775583119131625,-0.0004398268065415323,0.0004430307017173618,0.000986596685834229,0.1020091325044632,0.6313679814338684,1.121744990348816,0.4467560648918152,0.20665311813354492,-0.007412254810333252
1749041543.3107262,2.6826326847076416,-1.125347988014557,-2.3011844158172607,4.050835295314453,-2.6289859453784388,-4.9133151213275355,-0.0003080481255892664,0.0019279586849734187,0.0007926347316242754,-0.00040052252006717026,0.00040936056757345796,0.0007865308434702456,0.08529344201087952,0.6254729628562927,1.1304322481155396,0.4543500542640686,0.19337446987628937,0.007713302969932556
1749041543.3107643,2.682689666748047,-1.1253097218326111,-2.3012118339538574,4.050842924708984,-2.6289735476123255,-4.913346115742819,-0.0002914218057412654,0.0018112326506525278,0.0007775371195748448,-0.00036770309088751674,0.0003804578154813498,0.0006642149528488517,0.09586811810731888,0.6347993612289429,1.1200194358825684,0.46427851915359497,0.19391082227230072,0.008396461606025696
1749041543.310802,2.682663679122925,-1.12531332791362,-2.301196336746216,4.050831957454346,-2.6289859453784388,-4.913334194813864,-0.00027649826370179653,0.002087016124278307,0.0007147612632252276,-0.00033986405469477177,0.00035537549410946667,0.0005773373995907605,0.1006837859749794,0.604916512966156,1.1128066778182983,0.45238417387008667,0.19881777465343475,-0.006055384874343872
1749041543.3108394,2.6826980113983154,-1.125344381933548,-2.301180839538574,4.050839110011719,-2.629024092351095,-4.9133270422564905,-0.00022362882737070322,0.002311959397047758,0.0006434963434003294,-0.0003159466723445803,0.00033339945366606116,0.0005111473146826029,0.09915430098772049,0.6050905585289001,1.1196701526641846,0.4615458846092224,0.1851818859577179,0.009414911270141602
1749041543.3108797,2.6826515197753906,-1.1253014367869874,-2.301208257675171,4.050823374385498,-2.6289859453784388,-4.913318697606222,-0.00020905310520902276,0.0022904190700501204,0.0006449545617215335,-0.00029518886003643274,0.0003139875188935548,0.0005324013764038682,0.10570672154426575,0.6127327084541321,1.1355570554733276,0.4634419083595276,0.18982148170471191,0.00012704730033874512
1749041543.3109176,2.6826171875,-1.1253087681582947,-2.3011844158172607,4.050855322475098,-2.628979031239645,-4.9133151213275355,-0.0001997324579861015,0.002495430875569582,0.0006090736133046448,-0.00027699238853529096,0.00029671424999833107,0.0004961678059771657,0.10515359044075012,0.6150886416435242,1.1171742677688599,0.4597979784011841,0.18641090393066406,0.000543743371963501
1749041543.3109548,2.6826672554016113,-1.1252733331969758,-2.301196336746216,4.050823374385498,-2.6289859453784388,-4.91333789030184,-0.00019124330719932914,0.0022035520523786545,0.0005627691862173378,-0.0002609054499771446,0.0002812445454765111,0.0004563991096802056,0.10862791538238525,0.6038234829902649,1.112963318824768,0.45473915338516235,0.1709652692079544,-0.0005532503128051758
1749041543.3109915,2.682694673538208,-1.1253087681582947,-2.3011927604675293,4.050820036525391,-2.628997866307394,-4.913330618535177,-0.0001834467548178509,0.002230902435258031,0.0005220225430093706,-0.00027459641569294035,0.00026730974786914885,0.0004211124323774129,0.08345253765583038,0.6300671100616455,1.1176358461380005,0.4503325819969177,0.16086158156394958,-0.011524796485900879
1749041543.3110323,2.682701587677002,-1.1253123444369812,-2.301196336746216,4.050858660335205,-2.629028860722677,-4.913330618535177,-0.0001762608007993549,0.0020817150361835957,0.0004340852901805192,-0.0002767591504380107,0.0002400922676315531,0.0003906597848981619,0.09515994042158127,0.6270759701728821,1.1193631887435913,0.4583742022514343,0.154476597905159,-0.017499923706054688
1749041543.3111417,2.6826446056365967,-1.1252770882895966,-2.301208257675171,4.050842924708984,-2.6289945284472864,-4.913349811230795,-0.00016961709479801357,0.0019735784735530615,0.0003994313010480255,-0.00026599044213071465,0.00020759779727086425,0.00036427119630388916,0.10569311678409576,0.6056763529777527,1.1004714965820312,0.4580777883529663,0.14572927355766296,-0.04696345329284668
1749041543.3130305,2.682701587677002,-1.1252962213805695,-2.301196336746216,4.050827189082764,-2.6290321985827845,-4.9133222738849085,-0.00016345588664989918,0.0018407652387395501,0.00037516572047024965,-0.00025398365687578917,0.00018143959459848702,0.00034121284261345863,0.08555081486701965,0.628376841545105,1.101285457611084,0.4774177670478821,0.1365315467119217,-0.02053132653236389
1749041543.3542912,2.682648181915283,-1.125303493147232,-2.301208257675171,4.050839110011719,-2.6289895216571253,-4.913311425839559,-0.0001577263610670343,0.0019722236320376396,0.00035399486660026014,-0.00024265292449854314,0.00015338038792833686,0.000320911145536229,0.10179664939641953,0.6131297945976257,1.1067917346954346,0.47661513090133667,0.13039575517177582,-0.04650571942329407
1749041543.354338,2.682670831680298,-1.1253205400756379,-2.3011927604675293,4.050823374385498,-2.6289826075183313,-4.913318697606222,-0.00015238508058246225,0.002009666757658124,0.00033519291901029646,-0.00023222449817694724,0.00011451425234554335,0.00030288950074464083,0.07705248892307281,0.6165704727172852,1.0965300798416138,0.4708399176597595,0.12163474410772324,-0.024546921253204346
1749041543.3543792,2.6826603412628174,-1.1252926152995606,-2.3012118339538574,4.050823374385498,-2.629009787236349,-4.9133151213275355,-0.00014739394828211516,0.0020134870428591967,0.00031825678888708353,-0.00022264837753027678,-2.727882019826211e-05,0.0002867814910132438,0.08530507981777191,0.6191056966781616,1.1256853342056274,0.47982698678970337,0.10096249729394913,-0.022963732481002808
1749041543.3544188,2.682670831680298,-1.125233457689621,-2.301196336746216,4.050842924708984,-2.629047695790426,-4.9133151213275355,-0.0001622196432435885,0.001833464833907783,0.0003240475198253989,-0.0002138276759069413,-9.860581485554576e-05,0.00027230888372287154,0.043716736137866974,0.6160283088684082,1.1157305240631104,0.5011508464813232,0.10710782557725906,-0.02005147933959961
1749041543.354457,2.6826910972595215,-1.1252615314773102,-2.301196336746216,4.050855322475098,-2.6289859453784388,-4.913318697606222,-0.00018481304869055748,0.0015940518351271749,0.0003288897278252989,-0.00020567704632412642,-0.00015839975094422698,0.0002592263917904347,0.011369220912456512,0.631872832775116,1.1385576725006104,0.4798409342765808,0.09612507373094559,-0.012804299592971802
1749041543.3544953,2.682648181915283,-1.1253035825541993,-2.301203489303589,4.050823374385498,-2.6290252844439905,-4.913325969372885,-0.00021410801855381578,0.0016229081666097045,0.0003157484461553395,-0.00017436142661608756,-0.0009214897872880101,0.00024733992177061737,0.025162599980831146,0.6466972827911377,1.1400426626205444,0.4986007809638977,0.06695053726434708,0.010659754276275635
1749041543.3545334,2.68267560005188,-1.1252770584872742,-2.3011927604675293,4.050842924708984,-2.629028860722677,-4.913307730351583,-0.00023220169532578439,0.0019102822989225388,0.00024324364494532347,-0.00016089687414932996,-0.0014236117713153362,0.0002648110967129469,0.013448022305965424,0.6145817041397095,1.1670384407043457,0.4845980405807495,0.059901025146245956,0.026439368724822998
1749041543.3545709,2.6826395988464355,-1.1252526205829163,-2.3011999130249023,4.050823374385498,-2.6290252844439905,-4.91330320039858,-0.004988487809896469,0.0017439003568142653,0.0002976534888148308,-0.00015410325431730598,-0.0023384105879813433,0.0002874474448617548,0.021184206008911133,0.6178119778633118,1.1630430221557617,0.48621517419815063,0.030526991933584213,0.046429574489593506
1749041543.354608,2.6826395988464355,-1.125272498731949,-2.3011999130249023,4.050827189082764,-2.6290252844439905,-4.913318697606222,-0.005809406284242868,0.0018472092924639583,0.0016844312194734812,-0.00013848021626472473,-0.002959229750558734,0.001795947551727295,0.04010319709777832,0.6091514825820923,1.1787291765213013,0.5099083185195923,0.0395938903093338,0.07287374138832092
1749041543.3546453,2.6826395988464355,-1.1252526503852387,-2.301180839538574,4.050839110011719,-2.6290646235095423,-4.91328734556307,-0.004466029815375805,0.0016273475484922528,0.0034129980485886335,-0.00011862111568916589,-0.0033394836355000734,0.005151933524757624,0.004899144172668457,0.6358230113983154,1.174516201019287,0.5099222660064697,0.031135879456996918,0.06895259022712708
1749041543.3546827,2.6826276779174805,-1.1252490443042298,-2.301180839538574,4.050839110011719,-2.629072968159811,-4.913294617329733,-0.003911868669092655,0.0015467602061107755,0.003855035174638033,-0.00011221210297662765,-0.003949260339140892,0.008140048012137413,-0.031744495034217834,0.6315271854400635,1.1902955770492554,0.514319658279419,0.018867986276745796,0.06741257011890411
1749041543.3547204,2.682612180709839,-1.1252879959395905,-2.3011999130249023,4.050823374385498,-2.6290422121631067,-4.913251344357626,-0.005739687010645866,0.0017702566692605615,0.0037218332290649414,-9.897068957798183e-05,-0.004581650719046593,0.009360934607684612,-0.017292357981204987,0.630557656288147,1.2096525430679321,0.5318392515182495,0.008914468809962273,0.07982364296913147
1749041543.3547618,2.6826155185699463,-1.1252761644176026,-2.3011653423309326,4.050827189082764,-2.6290610472308558,-4.9132623116122645,-0.006559984292834997,0.002517710905522108,0.0041223736479878426,-8.19578708615154e-05,-0.005106890574097633,0.011611315421760082,-0.011977382004261017,0.6220848560333252,1.2251503467559814,0.5402364730834961,-0.012956656515598297,0.07199333608150482
1749041543.3548002,2.6826260089874268,-1.1252253216556092,-2.3011724948883057,4.050823374385498,-2.62907845178713,-4.9132153431521814,-0.008096028119325638,0.0031320087146013975,0.005449284333735704,1.9952769434894435e-05,-0.00593825988471508,0.013461326248943806,-0.024638988077640533,0.616263210773468,1.2269392013549805,0.5385245680809021,-0.001035831868648529,0.09396007657051086
1749041543.3548381,2.6825952529907227,-1.1252397459796448,-2.3011443614959717,4.050858660335205,-2.6291235128985804,-4.913163487111227,-0.007933022454380989,0.002919901395216584,0.006620117928832769,7.253697549458593e-05,-0.006794931832700968,0.015438750386238098,-0.02791500836610794,0.6348744630813599,1.2240815162658691,0.5516737699508667,-0.017069010064005852,0.09064297378063202
1749041543.3548765,2.6825642585754395,-1.125228927736618,-2.3011326789855957,4.050855322475098,-2.629136625920431,-4.913154904042379,-0.008265925571322441,0.0028192491736263037,0.007284475956112146,0.00011152138176839799,-0.00838463008403778,0.01711692474782467,-0.046155937016010284,0.6229703426361084,1.2248272895812988,0.5430626273155212,-0.021772608160972595,0.09958046674728394
1749041543.3549137,2.682605743408203,-1.1252242189696808,-2.3011279106140137,4.050820036525391,-2.62915546098818,-4.913115326558248,-0.008942907676100731,0.002373430645093322,0.008087626658380032,0.0004886315437033772,-0.010281200520694256,0.019515573978424072,-0.022245824337005615,0.6332288980484009,1.2213420867919922,0.5735249519348145,-0.03564794361591339,0.06994739174842834
1749041543.354951,2.6825506687164307,-1.125236139898636,-2.301105260848999,4.050858660335205,-2.629129473363058,-4.913071934376852,-0.009431774728000164,0.002190460916608572,0.007960256189107895,0.0012187018292024732,-0.011741284281015396,0.019900625571608543,-0.05010628700256348,0.6455297470092773,1.2386161088943481,0.5738425254821777,-0.04043908417224884,0.07123377919197083
1749041543.3549888,2.6825127601623535,-1.125205085878708,-2.301100492477417,4.050855322475098,-2.6291728655444544,-4.913093988095419,-0.01066241879016161,0.001988164847716689,0.008440221659839153,0.0018756389617919922,-0.012857246212661266,0.01923285238444805,-0.0621030330657959,0.6535362005233765,1.2542567253112793,0.5825785398483276,-0.03960190340876579,0.07298055291175842
1749041543.355026,2.6825008392333984,-1.1251979035190125,-2.3010611534118652,4.050831957454346,-2.629235808049337,-4.913057629262106,-0.01080460473895073,0.0019958673510700464,0.010324452072381973,0.0021085140760987997,-0.01486796885728836,0.019206233322620392,-0.07515394687652588,0.6310545206069946,1.2593140602111816,0.5724577307701111,-0.0536874458193779,0.07736164331436157
1749041543.3551297,2.682464838027954,-1.1251787108233948,-2.301036834716797,4.050870104427002,-2.6292014757739466,-4.91300613084902,-0.011118386872112751,0.002773171290755272,0.011261881329119205,0.002284512622281909,-0.016514796763658524,0.018182555213570595,-0.09721843898296356,0.6494670510292053,1.264585256576538,0.5893261432647705,-0.032846204936504364,0.07907851040363312
1749041543.357079,2.6824753284454346,-1.1252205830863495,-2.301036834716797,4.050875349635742,-2.6292296091662806,-4.912989083920614,-0.012257172726094723,0.0036480948328971863,0.011878164485096931,0.0024135825224220753,-0.016756225377321243,0.01667245477437973,-0.11206714808940887,0.624849796295166,1.2653632164001465,0.5933144688606262,-0.015474632382392883,0.10591647028923035
1749041543.3982842,2.682466745376587,-1.125246987943985,-2.3010129928588867,4.050879164333008,-2.6292813459979456,-4.912950698529379,-0.013144933618605137,0.004160655662417412,0.0133130494505167,0.0024975845590233803,-0.017020776867866516,0.017294196411967278,-0.11383508145809174,0.6307889819145203,1.2733545303344727,0.620989203453064,-0.029703982174396515,0.10267843306064606
1749041543.3983347,2.682415246963501,-1.125215933924057,-2.3009891510009766,4.050890608424805,-2.6293748060809534,-4.912937466298239,-0.01490042358636856,0.004691224079579115,0.013649786822497845,0.0031261963304132223,-0.017449676990509033,0.017909135669469833,-0.08956651389598846,0.6500081419944763,1.2875059843063354,0.6223801374435425,-0.021474868059158325,0.12071718275547028
1749041543.3983765,2.6823928356170654,-1.1251931649497529,-2.300945520401001,4.0508715349384765,-2.629425827656881,-4.9129255453692835,-0.01388443075120449,0.00470168050378561,0.014732712879776955,0.0039642020128667355,-0.016943378373980522,0.018014531582593918,-0.11722637712955475,0.6428239345550537,1.2828278541564941,0.6087503433227539,-0.016615353524684906,0.12347477674484253
1749041543.3984153,2.6823482513427734,-1.1251531404307862,-2.300940990447998,4.050903006190918,-2.6294425169574183,-4.912858311329977,-0.014271815307438374,0.004881987348198891,0.014320269227027893,0.004144258797168732,-0.015704156830906868,0.018504276871681213,-0.11203618347644806,0.634346067905426,1.2861782312393188,0.6417267322540283,-0.015180550515651703,0.13317684829235077
1749041543.398454,2.682339668273926,-1.1251531404307862,-2.300917148590088,4.050914927119873,-2.629463497792379,-4.912790838872091,-0.01356985978782177,0.004773588851094246,0.014788755215704441,0.0044897980988025665,-0.016188738867640495,0.020696328952908516,-0.13676899671554565,0.6429957151412964,1.279776692390442,0.6553225517272949,-0.009483642876148224,0.13151973485946655
1749041543.3984926,2.682253837585449,-1.1251495641520997,-2.3008782863616943,4.050895376796387,-2.629495684300558,-4.912782375012533,-0.013784695416688919,0.004699459299445152,0.014034832827746868,0.004797203931957483,-0.017174851149320602,0.021614478901028633,-0.10995551943778992,0.6507483720779419,1.2878962755203247,0.6471096277236938,-0.004587523639202118,0.12838953733444214
1749041543.3985314,2.6823108196258545,-1.1251641076854249,-2.300853729248047,4.050926848048828,-2.6295278708087366,-4.91274601617922,-0.013800430111587048,0.004695397336035967,0.01456066407263279,0.005509235896170139,-0.016818804666399956,0.023460274562239647,-0.13272938132286072,0.6423541903495789,1.3084934949874878,0.6608283519744873,0.0048629119992256165,0.14940525591373444
1749041543.398571,2.6822712421417236,-1.1251211625388642,-2.3008337020874023,4.0509349542805175,-2.629578415547506,-4.912666980420248,-0.014769310131669044,0.005188277456909418,0.014301424846053123,0.006916772108525038,-0.015867115929722786,0.024627797305583954,-0.13666248321533203,0.6481702923774719,1.316341519355774,0.6756927967071533,0.007026456296443939,0.15158843994140625
1749041543.3986092,2.6822903156280518,-1.125143901710846,-2.3008062839508057,4.05097405492749,-2.6295998732196253,-4.912657324467794,-0.015435148030519485,0.006296427920460701,0.01556635182350874,0.008205227553844452,-0.015701035037636757,0.027261726558208466,-0.13473500311374664,0.6469913125038147,1.3134474754333496,0.669951319694519,-0.032987289130687714,0.16739729046821594
1749041543.398647,2.6821887493133545,-1.1251283448985596,-2.300758123397827,4.050970717067383,-2.6295962969409388,-4.912574235592977,-0.016275661066174507,0.006343261804431677,0.01616043597459793,0.00995275191962719,-0.016054708510637283,0.029405834153294563,-0.13377274572849274,0.6235584020614624,1.3186944723129272,0.6556549668312073,-0.01465914398431778,0.14134348928928375
1749041543.3986838,2.682161331176758,-1.1251164835742493,-2.3007497787475586,4.050994558925293,-2.6296635309802454,-4.912561241780416,-0.016036298125982285,0.0056679872795939445,0.016989044845104218,0.01150844618678093,-0.01552093867212534,0.031078729778528214,-0.13712066411972046,0.6354993581771851,1.3155728578567505,0.668121874332428,-0.03181486576795578,0.16866940259933472
1749041543.398721,2.682159662246704,-1.125085399751999,-2.3007140159606934,4.051034136409424,-2.629721705113546,-4.912469689046041,-0.01698262058198452,0.005661763250827789,0.017373206093907356,0.013394778594374657,-0.015875473618507385,0.03197680786252022,-0.15082374215126038,0.6549032926559448,1.3169885873794556,0.6593950986862183,-0.025341801345348358,0.15363377332687378
1749041543.3987584,2.6821048259735107,-1.1251008969596406,-2.300689458847046,4.051057978267334,-2.629707638417379,-4.912425223981039,-0.016743924468755722,0.005874712485820055,0.017362356185913086,0.014741874299943447,-0.017286837100982666,0.03414815291762352,-0.14719082415103912,0.633783757686615,1.3120158910751343,0.6457739472389221,-0.004080533981323242,0.1716940701007843
1749041543.3987958,2.682084560394287,-1.125056729917862,-2.3006503582000732,4.051074190730713,-2.6297248045550745,-4.912325565014974,-0.017729502171278,0.006578722968697548,0.018331462517380714,0.016138287261128426,-0.01790567673742771,0.03514380753040314,-0.1455317586660385,0.639855146408081,1.3216402530670166,0.6395448446273804,-0.014726176857948303,0.1922399252653122
1749041543.398833,2.682020902633667,-1.1250642103007813,-2.3006181716918945,4.051137133235596,-2.629822317753927,-4.912277285252706,-0.01880917139351368,0.0068997167982161045,0.0180188175290823,0.016288110986351967,-0.017749257385730743,0.03948083147406578,-0.15618422627449036,0.6137145757675171,1.3313406705856323,0.642959713935852,-0.03496648371219635,0.17195789515972137
1749041543.398874,2.6820194721221924,-1.1250678163817902,-2.300581932067871,4.051153822536133,-2.6298721472369593,-4.912181321774618,-0.01924164406955242,0.005987484473735094,0.01883360929787159,0.016981203109025955,-0.01823989674448967,0.04200451076030731,-0.15412537753582,0.648593008518219,1.338209629058838,0.6223279237747192,-0.03102671168744564,0.1708720624446869
1749041543.3989143,2.681969404220581,-1.1250522893718262,-2.3005306720733643,4.051201506251953,-2.6298938433276575,-4.912070576344625,-0.02018064633011818,0.005783957429230213,0.020235098898410797,0.017210282385349274,-0.018888425081968307,0.04324426129460335,-0.15144912898540497,0.6471431851387024,1.3462525606155396,0.6017149090766907,-0.028706032782793045,0.19219842553138733
1749041543.3989599,2.681885242462158,-1.1250248116305848,-2.30049467086792,4.051221533412598,-2.629930082951681,-4.912012879048483,-0.020748332142829895,0.0067321970127522945,0.02065402641892433,0.01640411466360092,-0.019830765202641487,0.04329719766974449,-0.15207016468048096,0.6492111086845398,1.348262906074524,0.6138173341751099,-0.02746841311454773,0.19628000259399414
1749041543.398998,2.681880474090576,-1.1250128907016297,-2.3004508018493652,4.051245375270508,-2.6299904028521937,-4.911909643803732,-0.021038588136434555,0.006880815606564283,0.020978841930627823,0.015155991539359093,-0.02171064168214798,0.04456537216901779,-0.15550607442855835,0.6502854824066162,1.3604182004928589,0.6154106259346008,-0.04686611145734787,0.1944027692079544
1749041543.3990364,2.681817054748535,-1.125004605656006,-2.3004262447357178,4.051300211543701,-2.6300604979144495,-4.911808554326193,-0.02194100245833397,0.0072835818864405155,0.022017039358615875,0.014570995233952999,-0.022583767771720886,0.04560234397649765,-0.183485746383667,0.6364940404891968,1.3538544178009033,0.6084285378456116,-0.03791337460279465,0.2040145993232727
1749041543.3992374,2.68179988861084,-1.1249729257873078,-2.3003478050231934,4.051308794612549,-2.6300464312182825,-4.911705199872152,-0.022798556834459305,0.007482932414859533,0.02281651459634304,0.013171990402042866,-0.0233524888753891,0.049087777733802795,-0.16312940418720245,0.6255002021789551,1.3779351711273193,0.6091338992118835,-0.04638659209012985,0.2067270576953888
1749041543.4010658,2.681748628616333,-1.1249611538699646,-2.300311326980591,4.051325007075928,-2.6301267782794397,-4.911573712025778,-0.023688670247793198,0.008197331801056862,0.02360372804105282,0.012616758234798908,-0.024564635008573532,0.051713977009058,-0.1555032581090927,0.638405978679657,1.37800133228302,0.6033883690834045,-0.0456719845533371,0.2058049738407135
1749041543.4424648,2.681715965270996,-1.1249802571586152,-2.3002829551696777,4.0513598161884765,-2.63023549715151,-4.911508862172262,-0.024898579344153404,0.007924281992018223,0.024451185017824173,0.011481831781566143,-0.024820521473884583,0.052572909742593765,-0.1968432366847992,0.6354249715805054,1.3725528717041016,0.6216408610343933,-0.062181275337934494,0.19354890286922455
1749041543.4425356,2.6816751956939697,-1.1249098938754578,-2.3002119064331055,4.0513645845600585,-2.6302295366870325,-4.9113927523242396,-0.025479717180132866,0.007864132523536682,0.025203729048371315,0.011780933476984501,-0.026527924463152885,0.05318992957472801,-0.19530385732650757,0.6391101479530334,1.383012294769287,0.6271951198577881,-0.05665690824389458,0.20825715363025665
1749041543.442601,2.6816234588623047,-1.1248853367618104,-2.300168037414551,4.051400824184082,-2.6303122679339808,-4.911308471356527,-0.02630387432873249,0.007926328107714653,0.02550239861011505,0.01245578471571207,-0.027507096529006958,0.054057490080595016,-0.1997682750225067,0.6481733322143555,1.3987940549850464,0.6414570808410645,-0.05856538563966751,0.20076791942119598
1749041543.4426646,2.6816234588623047,-1.1248853367618104,-2.300168037414551,4.051400824184082,-2.6303122679339808,-4.911308471356527,-0.02630387432873249,0.007926328107714653,0.02550239861011505,0.01245578471571207,-0.027507096529006958,0.054057490080595016,-0.1997682750225067,0.6481733322143555,1.3987940549850464,0.6414570808410645,-0.05856538563966751,0.20076791942119598
1749041543.4427273,2.681525468826294,-1.1248963636210938,-2.300112009048462,4.05144373952832,-2.6303535143481653,-4.911141101513998,-0.027239589020609856,0.008650130592286587,0.026545200496912003,0.01306378748267889,-0.02945743128657341,0.05506191775202751,-0.19061003625392914,0.6386003494262695,1.3925693035125732,0.6167702078819275,-0.06151241064071655,0.23343373835086823
1749041543.4427893,2.6814401149749756,-1.1248615843108674,-2.300035238265991,4.051488085384033,-2.630484406148092,-4.910919849072592,-0.028593476861715317,0.008196646347641945,0.027929117903113365,0.013036733493208885,-0.031401753425598145,0.05859728157520294,-0.20896080136299133,0.62759929895401,1.417182445526123,0.6274436712265015,-0.056397657841444016,0.2341732382774353
1749041543.442852,2.6813971996307373,-1.1248689156821747,-2.299971342086792,4.051511927241943,-2.6305328051196497,-4.9108081499682825,-0.02937379851937294,0.008847656659781933,0.028804440051317215,0.013101608492434025,-0.03154042363166809,0.059803083539009094,-0.23908469080924988,0.6494101285934448,1.4179638624191284,0.6323848962783813,-0.05931053310632706,0.24452024698257446
1749041543.442913,2.6813559532165527,-1.124828891163208,-2.299896478652954,4.051523848170898,-2.6306124369250696,-4.910679880772726,-0.030283324420452118,0.009151218459010124,0.029811274260282516,0.01275118999183178,-0.03319269046187401,0.06127426028251648,-0.2383636236190796,0.6360496282577515,1.429953694343567,0.6429892778396606,-0.047915853559970856,0.24503593146800995
1749041543.442975,2.681260108947754,-1.124832646255829,-2.299832820892334,4.051555796260498,-2.630707089100973,-4.910575095807211,-0.03137366473674774,0.009067252278327942,0.031027980148792267,0.013139769434928894,-0.03449451923370361,0.06320784986019135,-0.21569578349590302,0.6431686878204346,1.425883412361145,0.6346251368522644,-0.05673765391111374,0.2614284157752991
1749041543.443036,2.68118953704834,-1.1248036485961457,-2.299787998199463,4.051617785091064,-2.630756441746847,-4.910411302243368,-0.0321093387901783,0.009378388524055481,0.031692683696746826,0.013660146854817867,-0.035795047879219055,0.0670822486281395,-0.20943203568458557,0.6149963140487671,1.4061267375946045,0.6413508057594299,-0.050274163484573364,0.22535893321037292
1749041543.4430978,2.681119203567505,-1.1247964066318055,-2.299701690673828,4.051599665279053,-2.6308215300189417,-4.910306994115011,-0.031441304832696915,0.008551597595214844,0.030886899679899216,0.014466916210949421,-0.036830827593803406,0.0678148865699768,-0.22515782713890076,0.6114585995674133,1.4406330585479736,0.6495440602302551,-0.03054596483707428,0.22870025038719177
1749041543.4431598,2.6810781955718994,-1.1247725647738953,-2.2996535301208496,4.051643057460449,-2.6309195200549524,-4.910111967717306,-0.032424502074718475,0.008294126018881798,0.03215285390615463,0.015032131224870682,-0.035972096025943756,0.06883557140827179,-0.2688271403312683,0.6693442463874817,1.4562562704086304,0.6332615613937378,-0.05087211728096008,0.23382684588432312
1749041543.4432218,2.681025266647339,-1.1247917276671906,-2.2995731830596924,4.051659269923828,-2.631033722554342,-4.909990731869833,-0.03406161814928055,0.00901800487190485,0.03494015708565712,0.01604599878191948,-0.036409467458724976,0.06938359141349792,-0.24709075689315796,0.6614222526550293,1.4541635513305664,0.636989951133728,-0.050214365124702454,0.24962083995342255
1749041543.443284,2.680941343307495,-1.1247249108603974,-2.2995128631591797,4.051746054286621,-2.631077829991476,-4.909877721463339,-0.03588052839040756,0.010586130432784557,0.03692549467086792,0.017299918457865715,-0.03823206201195717,0.07209757715463638,-0.2389552742242813,0.6323497295379639,1.445175051689148,0.6391814947128296,-0.0632101446390152,0.25288182497024536
1749041543.4433446,2.680870771408081,-1.124733255510666,-2.2994253635406494,4.0517470079609375,-2.631139341984884,-4.909748975430624,-0.036764539778232574,0.010167007334530354,0.03789610415697098,0.018144039437174797,-0.04097295179963112,0.07736961543560028,-0.24384009838104248,0.6394604444503784,1.4364736080169678,0.6059274673461914,-0.05968374013900757,0.22770072519779205
1749041543.4434059,2.680809259414673,-1.1247322720340271,-2.2993581295013428,4.051774664516113,-2.6312575976001185,-4.909557882939474,-0.0376947782933712,0.010948728770017624,0.03874054178595543,0.018072782084345818,-0.042296890169382095,0.07927227765321732,-0.2509291172027588,0.6407850980758667,1.4423096179962158,0.613913893699646,-0.058519333600997925,0.21023957431316376
1749041543.4434662,2.6807494163513184,-1.124665693645813,-2.299274206161499,4.051834269160889,-2.631322685872213,-4.909406248723165,-0.03853338211774826,0.011531389318406582,0.04032834619283676,0.01820206269621849,-0.042941413819789886,0.07895832508802414,-0.25945359468460083,0.6441638469696045,1.4384291172027588,0.6221652626991272,-0.046130403876304626,0.24421775341033936
1749041543.4435275,2.6806652545928955,-1.1246839624694367,-2.2991676330566406,4.051858111018799,-2.631387774144308,-4.909245196972982,-0.039015721529722214,0.010505195707082748,0.04151726886630058,0.018783535808324814,-0.044093720614910126,0.08160300552845001,-0.2854617238044739,0.6523323059082031,1.4196186065673828,0.6373355388641357,-0.05387972295284271,0.23739266395568848
1749041543.4435894,2.6805813312530518,-1.1246284407428284,-2.299102783203125,4.051886244411133,-2.6315024534808558,-4.9090662638293665,-0.04029305279254913,0.010466441512107849,0.042050257325172424,0.019340381026268005,-0.04382441192865372,0.08376440405845642,-0.26254454255104065,0.6202055811882019,1.4266527891159058,0.6368892192840576,-0.036168843507766724,0.22582854330539703
1749041543.4436522,2.6804819107055664,-1.124641017322876,-2.2990193367004395,4.051964445705078,-2.631601158772604,-4.908904973660604,-0.04078059643507004,0.010204188525676727,0.044690221548080444,0.0199274905025959,-0.04475093632936478,0.08672524243593216,-0.2850175201892853,0.6433581113815308,1.4292798042297363,0.625887930393219,-0.04707273840904236,0.22947071492671967
1749041543.4438255,2.680421829223633,-1.1246042412570496,-2.2989234924316406,4.05199305593457,-2.6316662470446985,-4.90872556367983,-0.04209220036864281,0.010508991777896881,0.04508087411522865,0.020537925884127617,-0.047043975442647934,0.08950898796319962,-0.2897181808948517,0.6574828028678894,1.4207195043563843,0.6388934850692749,-0.048325151205062866,0.22528943419456482
1749041543.4450414,2.6803534030914307,-1.1245876413634797,-2.2988240718841553,4.051994009608887,-2.631812397633688,-4.908517901097433,-0.04282021149992943,0.011504711583256721,0.044433604925870895,0.02030608244240284,-0.04823199287056923,0.08799829334020615,-0.2858741283416748,0.6342179775238037,1.4455796480178833,0.6099262833595276,-0.05360952764749527,0.2261527180671692
1749041543.486292,2.680269479751587,-1.124533788566925,-2.298743724822998,4.0520850855061035,-2.6318839232074183,-4.908379737530844,-0.04392412304878235,0.011778446845710278,0.0466037318110466,0.02093386836349964,-0.04803316667675972,0.08917657285928726,-0.2932225465774536,0.6227336525917053,1.420517921447754,0.6379872560501099,-0.05380234494805336,0.2380087971687317
1749041543.486352,2.68015456199646,-1.1245446664145966,-2.2986176013946533,4.052109404201172,-2.631960932408468,-4.908212010060446,-0.04485204815864563,0.011917638592422009,0.049058698117733,0.021107017993927002,-0.04884720221161842,0.09026265144348145,-0.29412296414375305,0.6415680646896362,1.4199767112731934,0.6221919655799866,-0.07087013125419617,0.23980559408664703
1749041543.4864113,2.6800739765167236,-1.124527559881546,-2.2985334396362305,4.052144690150879,-2.632068697606222,-4.908019606267111,-0.04505222663283348,0.012329857796430588,0.05094316601753235,0.021886376664042473,-0.05064449831843376,0.0925048291683197,-0.31644517183303833,0.6358447074890137,1.388602375984192,0.6490092873573303,-0.06716299802064896,0.25004255771636963
1749041543.4864779,2.680009126663208,-1.1245192450336,-2.2984249591827393,4.052180929774902,-2.63218337694277,-4.907827321683065,-0.045515306293964386,0.011731292121112347,0.04845968633890152,0.022980820387601852,-0.05118343234062195,0.09470696747303009,-0.30818235874176025,0.6205580234527588,1.416525959968567,0.6358596682548523,-0.07322154939174652,0.24873855710029602
1749041543.4865239,2.679875135421753,-1.124440924530365,-2.29833984375,4.05225579320874,-2.632205073033468,-4.907631580029623,-0.04738117381930351,0.012412598356604576,0.050153233110904694,0.02370288036763668,-0.05084146186709404,0.0960439145565033,-0.32979416847229004,0.6207783222198486,1.4334754943847656,0.6326251029968262,-0.06764674931764603,0.24233867228031158
1749041543.486564,2.6798136234283447,-1.1244290334037323,-2.2982099056243896,4.052291555995605,-2.632373873387472,-4.9074395338641565,-0.05021823197603226,0.0114924106746912,0.052388567477464676,0.024336880072951317,-0.051744330674409866,0.09632760286331177,-0.32195815443992615,0.6161144375801086,1.3991403579711914,0.6405530571937561,-0.07943229377269745,0.2556914985179901
1749041543.486603,2.679702043533325,-1.1244053405574341,-2.2981176376342773,4.052332087154053,-2.632479492818014,-4.907243196164266,-0.04922817274928093,0.011162010952830315,0.0531870499253273,0.02508143149316311,-0.05537848919630051,0.09959613531827927,-0.3381791114807129,0.6389417052268982,1.3969924449920654,0.6298962831497192,-0.07328474521636963,0.2399965226650238
1749041543.486656,2.6795644760131836,-1.1244162184051056,-2.2980101108551025,4.05241505681958,-2.6325717608081263,-4.907039348279135,-0.050198253244161606,0.011156885884702206,0.0535091869533062,0.02503223903477192,-0.05811947211623192,0.10127974301576614,-0.35944709181785583,0.6212141513824463,1.4080924987792969,0.6327186822891235,-0.08141720294952393,0.2532333433628082
1749041543.4867146,2.6795032024383545,-1.1243644219687958,-2.297886848449707,4.052443190211914,-2.632667605076925,-4.906847182904379,-0.05189342424273491,0.011018405668437481,0.0542026162147522,0.026289496570825577,-0.0601356141269207,0.10351813584566116,-0.34092622995376587,0.6256665587425232,1.4039465188980103,0.6287443041801453,-0.05121515691280365,0.24635633826255798
1749041543.4867775,2.679410696029663,-1.1243717831424256,-2.2977633476257324,4.052522345180176,-2.6327901522265833,-4.9066272417651575,-0.05560304597020149,0.011312074027955532,0.05516575649380684,0.02668667584657669,-0.06031836196780205,0.10528620332479477,-0.29832980036735535,0.6128246188163757,1.3825294971466064,0.624345600605011,-0.05748474597930908,0.26806870102882385
1749041543.4868443,2.6793100833892822,-1.1243089896491547,-2.297628164291382,4.052554293269775,-2.6329427401172083,-4.906415645276205,-0.05395866557955742,0.010944581590592861,0.05663198232650757,0.027694523334503174,-0.0611308217048645,0.10679832100868225,-0.34065818786621094,0.619074285030365,1.3924413919448853,0.6015715599060059,-0.06031671166419983,0.25778812170028687
1749041543.4868999,2.6792259216308594,-1.1242923897555848,-2.29756760597229,4.052586718196533,-2.6330350081073206,-4.90617555776705,-0.05453883484005928,0.010645026341080666,0.06032293289899826,0.027501078322529793,-0.06251974403858185,0.11050940304994583,-0.353685200214386,0.6089797616004944,1.351373553276062,0.6295074820518494,-0.07136248052120209,0.24219147861003876
1749041543.4869413,2.6790475845336914,-1.1242804688266297,-2.297431707382202,4.052677317256592,-2.6331825892077845,-4.905950609837667,-0.056208498775959015,0.010683548636734486,0.056994665414094925,0.02639329805970192,-0.06327943503856659,0.1121894121170044,-0.3623124659061432,0.6342763900756836,1.3783936500549316,0.6325482726097107,-0.06712706387042999,0.23552730679512024
1749041543.4869802,2.678936243057251,-1.124284104709961,-2.297312021255493,4.05270974218335,-2.633328978215353,-4.90575355688204,-0.05653020739555359,0.010966622270643711,0.05930394306778908,0.02679208293557167,-0.0626063272356987,0.11133944988250732,-0.3107612133026123,0.5965222120285034,1.3637770414352417,0.6359419822692871,-0.06946595013141632,0.24814653396606445
1749041543.4870183,2.6788454055786133,-1.1242287021926423,-2.297208070755005,4.05278126775708,-2.633461300526754,-4.905486170445577,-0.05776161700487137,0.01091502234339714,0.06252153217792511,0.02715064026415348,-0.06298694014549255,0.11224417388439178,-0.3610987663269043,0.6354585886001587,1.3364449739456177,0.6373971700668335,-0.06327617913484573,0.2455182671546936
1749041543.487056,2.678734302520752,-1.1242204171470185,-2.297100782394409,4.052813692683838,-2.633561913167135,-4.905243579541342,-0.05653608962893486,0.01070094108581543,0.06127426400780678,0.027331555262207985,-0.06484281271696091,0.11636529862880707,-0.370883971452713,0.6029464602470398,1.3335318565368652,0.6515096426010132,-0.0835905373096466,0.24109014868736267
1749041543.4870946,2.678588390350342,-1.124181018476822,-2.2969648838043213,4.052880449885986,-2.6337130705462855,-4.90499467054476,-0.0599210299551487,0.01074981689453125,0.06008775159716606,0.027514368295669556,-0.06665746867656708,0.116146981716156,-0.3436858654022217,0.6201998591423035,1.3804497718811035,0.6511152982711792,-0.05661766976118088,0.23653478920459747
1749041543.4871323,2.67849063873291,-1.1241678458503266,-2.2968339920043945,4.05294053136792,-2.6338396708117884,-4.904797736798422,-0.05883711576461792,0.010404648259282112,0.061591215431690216,0.027942940592765808,-0.06564490497112274,0.11551829427480698,-0.36711663007736206,0.6381290555000305,1.364224910736084,0.6627339720726013,-0.0728994607925415,0.260073184967041
1749041543.4871695,2.6783673763275146,-1.1241826576045533,-2.2967171669006348,4.053003473872803,-2.633951727543966,-4.904545728360311,-0.05976560711860657,0.011163314804434776,0.06225079670548439,0.028885921463370323,-0.06479354202747345,0.11783334612846375,-0.39755553007125854,0.626655638217926,1.3648407459259033,0.6476873159408569,-0.0764358788728714,0.2758582532405853
1749041543.487207,2.6782355308532715,-1.1241323512843628,-2.2965784072875977,4.053059740657471,-2.6341078917132776,-4.90433651605715,-0.06171503663063049,0.012268917635083199,0.062104299664497375,0.029359737411141396,-0.06676892191171646,0.12038163095712662,-0.3622269928455353,0.6076948046684265,1.372175693511963,0.6635640263557434,-0.07886528968811035,0.24411585927009583
1749041543.4873257,2.6781463623046875,-1.1241277021220704,-2.2964510917663574,4.053119345302246,-2.6342552343951624,-4.904089156781332,-0.06408104300498962,0.012061274610459805,0.062454767525196075,0.03039446845650673,-0.06750649958848953,0.12274818867444992,-0.34828346967697144,0.6309853792190552,1.3831491470336914,0.6753976345062256,-0.0734616369009018,0.26051613688468933
1749041543.489029,2.678010940551758,-1.1240300697139283,-2.2963151931762695,4.053194685573242,-2.6343987623797815,-4.903824988995687,-0.06286457926034927,0.012068191543221474,0.06321895122528076,0.03127121180295944,-0.06961248070001602,0.12627172470092773,-0.38798442482948303,0.6203696727752686,1.3902685642242432,0.6503919363021851,-0.08457153290510178,0.25877711176872253
1749041543.5302835,2.6778481006622314,-1.1240601998618622,-2.2961955070495605,4.053239031428955,-2.6345303694354456,-4.90356415907015,-0.0652606338262558,0.012758002616465092,0.06428293138742447,0.03219915181398392,-0.07243344187736511,0.12831802666187286,-0.3865845203399658,0.640636682510376,1.3756966590881348,0.6433496475219727,-0.058317847549915314,0.24154315888881683
1749041543.5303292,2.677716016769409,-1.1240437787822266,-2.2960522174835205,4.053313894862793,-2.6346736590014856,-4.903299872075216,-0.06631932407617569,0.01234131958335638,0.06526406854391098,0.03249283507466316,-0.07132034748792648,0.130401611328125,-0.3797335922718048,0.6595395803451538,1.3813538551330566,0.65128093957901,-0.06508667767047882,0.254790723323822
1749041543.53037,2.6776185035705566,-1.1240437489799042,-2.295916795730591,4.053366346950195,-2.6348534266101282,-4.903063360844747,-0.06744688749313354,0.013287514448165894,0.06632677465677261,0.033084332942962646,-0.07072381675243378,0.13085518777370453,-0.36870789527893066,0.6342947483062744,1.3894877433776855,0.6519780158996582,-0.07173572480678558,0.2530214190483093
1749041543.53041,2.6774368286132812,-1.12400438011203,-2.2958037853240967,4.053410692805908,-2.6349576155291956,-4.902779761944906,-0.0678534060716629,0.013188199140131474,0.06686574220657349,0.033177752047777176,-0.07207994163036346,0.13739196956157684,-0.3960607945919037,0.63930743932724,1.381912350654602,0.6618755459785461,-0.09513896703720093,0.21476413309574127
1749041543.5304484,2.6773509979248047,-1.1239681404880066,-2.295660972595215,4.0535170274921875,-2.635131899510519,-4.902480427418844,-0.06838084757328033,0.013380540534853935,0.06790430843830109,0.03336420655250549,-0.07460668683052063,0.13590723276138306,-0.40659254789352417,0.6375611424446106,1.380251169204712,0.6653527617454529,-0.07635678350925446,0.22222647070884705
1749041543.5304863,2.677177906036377,-1.1239437025836487,-2.295525074005127,4.053573294276855,-2.6352725664721888,-4.902242843304769,-0.07018810510635376,0.013681262731552124,0.06835060566663742,0.03384679928421974,-0.07642766833305359,0.13707664608955383,-0.3753403425216675,0.6134454011917114,1.4008005857467651,0.6621822714805603,-0.0713820531964302,0.23095127940177917
1749041543.530524,2.6770546436309814,-1.123891906147339,-2.2953970432281494,4.053629084224365,-2.635416571293966,-4.901938859616415,-0.0719253346323967,0.013746521435678005,0.06902748346328735,0.033991508185863495,-0.0779750719666481,0.14243221282958984,-0.3434608578681946,0.6466418504714966,1.3972816467285156,0.6732762455940247,-0.07189065963029861,0.20279362797737122
1749041543.5305614,2.6768832206726074,-1.1239029330066224,-2.2952535152435303,4.053716822261475,-2.635580364857809,-4.90161914030184,-0.0733441635966301,0.014478638768196106,0.06916749477386475,0.0350569412112236,-0.07853303849697113,0.13918881118297577,-0.3524007201194763,0.6582285165786743,1.4055967330932617,0.6617685556411743,-0.08698753267526627,0.2256535291671753
1749041543.530599,2.676778793334961,-1.1238443714431305,-2.2951183319091797,4.053779764766357,-2.6357343832599085,-4.901354853306906,-0.07393768429756165,0.01377050019800663,0.07011490315198898,0.035703886300325394,-0.07895928621292114,0.14140477776527405,-0.37627920508384705,0.6343986392021179,1.4194996356964111,0.6824716925621033,-0.08780156821012497,0.22006146609783173
1749041543.5306368,2.676588296890259,-1.1238277715495606,-2.294966697692871,4.0538598734089355,-2.635915819798605,-4.901038948689596,-0.07532458752393723,0.014663353562355042,0.07067599147558212,0.03638926520943642,-0.07958835363388062,0.14259469509124756,-0.3375770151615143,0.6413079500198364,1.439048409461975,0.6483449935913086,-0.09504276514053345,0.24169227480888367
1749041543.5306742,2.6764564514160156,-1.1237723690322419,-2.294818878173828,4.05390898763623,-2.63607365289797,-4.900829021130697,-0.07608448714017868,0.01427510380744934,0.07367905229330063,0.03747261315584183,-0.0804082602262497,0.14309310913085938,-0.345984548330307,0.6397495865821838,1.3989019393920898,0.6436924934387207,-0.0750976949930191,0.2363186478614807
1749041543.5307114,2.6762783527374268,-1.1238298577121277,-2.2946598529815674,4.053996248836182,-2.6362136046039026,-4.9004743734942835,-0.07563499361276627,0.014942693524062634,0.07128017395734787,0.03763827309012413,-0.08151952922344208,0.1442829668521881,-0.38034170866012573,0.6248166561126709,1.4342083930969238,0.6602892279624939,-0.09599711000919342,0.250396192073822
1749041543.5307486,2.676137685775757,-1.1237240594676514,-2.294543981552124,4.054094000453613,-2.636380974446432,-4.900213543568746,-0.07693525403738022,0.015227622352540493,0.07183726131916046,0.037924621254205704,-0.08303703367710114,0.1457669883966446,-0.3804357647895813,0.6457719802856445,1.4548426866531372,0.6684285998344421,-0.07198218256235123,0.26004770398139954
1749041543.5307858,2.67600417137146,-1.1237190526774903,-2.2943882942199707,4.0541979509541015,-2.636545483266012,-4.899953071271078,-0.07617161422967911,0.015765368938446045,0.07519163936376572,0.03855537250638008,-0.08294341713190079,0.14829769730567932,-0.3812626898288727,0.6483392715454102,1.4376780986785889,0.6449211239814758,-0.09437543153762817,0.27326786518096924
1749041543.5308225,2.675856590270996,-1.1236796540072937,-2.2942450046539307,4.054250403041504,-2.6367133299456995,-4.899616662655966,-0.07678709179162979,0.015989724546670914,0.07322089374065399,0.038556456565856934,-0.08378550410270691,0.15040059387683868,-0.38501936197280884,0.6412960290908813,1.47513747215271,0.6581541299819946,-0.1103084534406662,0.2863403260707855
1749041543.5308592,2.67570424079895,-1.1236168903163453,-2.2941014766693115,4.054313822383545,-2.6368685404406946,-4.899288837109701,-0.08107489347457886,0.01641031727194786,0.07579375803470612,0.03941477835178375,-0.08483850955963135,0.152973473072052,-0.3923608362674713,0.6298055648803711,1.462391972541809,0.6542433500289917,-0.11197035759687424,0.2789120376110077
1749041543.5308957,2.6755483150482178,-1.1236351293376465,-2.2939229011535645,4.054413004512451,-2.6370673815356653,-4.898984615002767,-0.0785507932305336,0.017133546993136406,0.07774949073791504,0.04034190624952316,-0.0864943116903305,0.16028764843940735,-0.3884637653827667,0.6442962288856506,1.4617416858673096,0.661361038684845,-0.10363958775997162,0.26338398456573486
1749041543.530934,2.6753761768341064,-1.1235563617995759,-2.2937779426574707,4.054480715388916,-2.637247149144308,-4.898703638707296,-0.07994067668914795,0.01685737445950508,0.07933220267295837,0.041513584554195404,-0.08816230297088623,0.1593126356601715,-0.3912492096424103,0.6246901750564575,1.4371960163116455,0.6452813744544983,-0.09148481488227844,0.2377524971961975
1749041543.530971,2.6752045154571533,-1.1235480469516297,-2.2936151027679443,4.05458037435498,-2.6374109427081507,-4.898344699536459,-0.08493667095899582,0.017417049035429955,0.08063903450965881,0.04163108021020889,-0.09003276377916336,0.1609935164451599,-0.31859490275382996,0.6291320323944092,1.4632145166397095,0.6409777402877808,-0.10050545632839203,0.2577735185623169
1749041543.5310085,2.675031900405884,-1.1235154432109375,-2.293494939804077,4.054648085231445,-2.6376383940326136,-4.8980082909213465,-0.08158428221940994,0.01747768558561802,0.08162859082221985,0.04316355288028717,-0.09277558326721191,0.16560602188110352,-0.3875732719898224,0.6282711029052734,1.4689710140228271,0.6317174434661865,-0.09160397946834564,0.2273702323436737
1749041543.5311227,2.6749069690704346,-1.1234600406936188,-2.293292284011841,4.054727717036865,-2.637818161641256,-4.897678915654318,-0.08307566493749619,0.01752309687435627,0.08353212475776672,0.04236758500337601,-0.09232432395219803,0.1645049899816513,-0.3905409574508667,0.6451443433761597,1.4352880716323853,0.6450323462486267,-0.06423765420913696,0.24332287907600403
1749041543.5330307,2.6747045516967773,-1.1234355729869385,-2.2931439876556396,4.054799719447754,-2.638007704411642,-4.897354904805319,-0.08432205021381378,0.01732618361711502,0.08195905387401581,0.04087701812386513,-0.09207022935152054,0.1660725474357605,-0.3954179286956787,0.6817960143089294,1.4726214408874512,0.6309336423873901,-0.10444723069667816,0.25092431902885437
1749041543.5742855,2.674532890319824,-1.1234274071506043,-2.292975902557373,4.054921312923096,-2.638165299092428,-4.896994177495138,-0.08412583917379379,0.018095366656780243,0.08546493947505951,0.04137671738862991,-0.09528081119060516,0.16672451794147491,-0.43021032214164734,0.6477383375167847,1.4757133722305298,0.6647729873657227,-0.07571938633918762,0.25530219078063965
1749041543.5743341,2.6743767261505127,-1.1233605605414887,-2.2927963733673096,4.054998560542725,-2.6383262316333216,-4.896658960972921,-0.0889577865600586,0.01966901309788227,0.08477525413036346,0.04349065572023392,-0.0950051099061966,0.16808566451072693,-0.3631937503814697,0.6458255648612976,1.458081841468811,0.6285430192947388,-0.07538668811321259,0.24241918325424194
1749041543.5743756,2.6741883754730225,-1.123359040623047,-2.2926290035247803,4.055081530208252,-2.638524834309713,-4.8963192144977015,-0.0874711200594902,0.02051752433180809,0.08656475692987442,0.04457298293709755,-0.09392022341489792,0.16824151575565338,-0.3964659571647644,0.6615657806396484,1.4530816078186035,0.6273791790008545,-0.08972959965467453,0.2515275776386261
1749041543.5744162,2.673994541168213,-1.123330519800522,-2.292445421218872,4.0551649767109375,-2.6387274901019495,-4.896060887967245,-0.09051729738712311,0.019689176231622696,0.08791714161634445,0.0436369888484478,-0.09601785987615585,0.17409345507621765,-0.3577826917171478,0.6442925930023193,1.4581302404403687,0.6403412222862244,-0.10680750012397766,0.25653499364852905
1749041543.5744555,2.6738169193267822,-1.123290793304779,-2.2922472953796387,4.055248900050781,-2.6388848463641565,-4.895673696194784,-0.08817970752716064,0.019598957151174545,0.08942321687936783,0.043627090752124786,-0.09770756214857101,0.17328685522079468,-0.37987881898880005,0.6765308976173401,1.4487926959991455,0.6572961211204529,-0.11130230873823166,0.2703411877155304
1749041543.5744941,2.6736485958099365,-1.1232161086848755,-2.292086362838745,4.0553600031086425,-2.639092032109396,-4.895274464284078,-0.08956577628850937,0.020027630031108856,0.09195663779973984,0.04554621875286102,-0.10111413896083832,0.17724518477916718,-0.3463280200958252,0.6619114875793457,1.4287269115447998,0.6318435668945312,-0.07966669648885727,0.2669816315174103
1749041543.5745323,2.6734580993652344,-1.1231486064246674,-2.2919106483459473,4.055467291469238,-2.6393278280841272,-4.894952122365133,-0.08996200561523438,0.01970309019088745,0.092582568526268,0.04541158676147461,-0.09883234649896622,0.1790499985218048,-0.3632459044456482,0.6626526117324829,1.4243625402450562,0.6319399476051331,-0.09487735480070114,0.24441638588905334
1749041543.5745704,2.673335552215576,-1.1231477123549958,-2.291715621948242,4.055516405696533,-2.6395111719714563,-4.894556824360983,-0.090105801820755,0.020010586827993393,0.09313936531543732,0.04361986368894577,-0.09978259354829788,0.17981402575969696,-0.4107971489429474,0.6534805297851562,1.442212462425232,0.6198457479476929,-0.1190151795744896,0.26848286390304565
1749041543.5746083,2.673117160797119,-1.1230802995017548,-2.291536331176758,4.055603666896484,-2.639725987111227,-4.894236032162802,-0.09209483861923218,0.021356413140892982,0.09444741159677505,0.04290185496211052,-0.1025204136967659,0.1812884658575058,-0.38551968336105347,0.6475666761398315,1.4316433668136597,0.6406154632568359,-0.09637980163097382,0.2634531259536743
1749041543.5746458,2.672945737838745,-1.1230512720397492,-2.291337490081787,4.055702372188232,-2.639914337788717,-4.893887941037313,-0.09372489154338837,0.0216861292719841,0.09648111462593079,0.04188798367977142,-0.10260341316461563,0.1831967532634735,-0.40172308683395386,0.6528980731964111,1.413774013519287,0.6708258986473083,-0.11047811806201935,0.2701859474182129
1749041543.5746827,2.6727588176727295,-1.123015658264496,-2.2911341190338135,4.055790110225342,-2.6401060263263147,-4.8935081402408045,-0.09403889626264572,0.020270936191082,0.09644875675439835,0.04111180454492569,-0.10325548052787781,0.18588264286518097,-0.37783083319664,0.6500130891799927,1.4198651313781738,0.6611093878746033,-0.0964108482003212,0.2805996537208557
1749041543.5747194,2.6725618839263916,-1.122982994919159,-2.2909650802612305,4.055866404170654,-2.640371386204855,-4.893139187489645,-0.09521406143903732,0.021022366359829903,0.09587318450212479,0.04366361349821091,-0.10293299704790115,0.18764352798461914,-0.3978424668312073,0.6456457376480103,1.416285753250122,0.6807107925415039,-0.10499832034111023,0.26544052362442017
1749041543.5747561,2.672405958175659,-1.1229317051223298,-2.290738582611084,4.055972262019775,-2.6405490080462855,-4.892746869717733,-0.09623678028583527,0.022019393742084503,0.09951729327440262,0.045501600950956345,-0.10408072918653488,0.18819506466388702,-0.4098731279373169,0.6695284843444824,1.4228912591934204,0.6611564755439758,-0.08806595206260681,0.27442604303359985
1749041543.5747929,2.672193765640259,-1.122891680603363,-2.290539503097534,4.056041880244873,-2.6408148447619837,-4.892374340687887,-0.09707732498645782,0.022225815802812576,0.09749053418636322,0.04635211080312729,-0.10802608728408813,0.18880152702331543,-0.3947604298591614,0.6315673589706421,1.4196134805679321,0.6620111465454102,-0.0781935304403305,0.2609749734401703
1749041543.5748298,2.6719982624053955,-1.1228478413871308,-2.2903237342834473,4.056129141444824,-2.6409834066974085,-4.8919705788241785,-0.09743902832269669,0.0220367219299078,0.10368061065673828,0.047000426799058914,-0.10443846136331558,0.1959531456232071,-0.3898022770881653,0.6465392708778381,1.375074863433838,0.6699187755584717,-0.08170850574970245,0.25111502408981323
1749041543.5748668,2.6718027591705322,-1.1228027504733582,-2.290125608444214,4.056208773250244,-2.6411872545825403,-4.891570750867025,-0.09826342761516571,0.021688362583518028,0.10147514194250107,0.04693439230322838,-0.10455448925495148,0.19347238540649414,-0.3840162754058838,0.635825514793396,1.3781144618988037,0.6645515561103821,-0.09761286526918411,0.25631946325302124
1749041543.574903,2.6715989112854004,-1.1227598053267975,-2.2898974418640137,4.056332274074219,-2.6414032618152063,-4.891204301510946,-0.10208868235349655,0.020954137668013573,0.10169157385826111,0.045960355550050735,-0.10669951885938644,0.19673161208629608,-0.3743661344051361,0.6697679758071899,1.3826947212219238,0.6508741974830627,-0.10277878493070602,0.2529613673686981
1749041543.5749404,2.6714258193969727,-1.1226839584163208,-2.2896978855133057,4.056450529689453,-2.641630236302511,-4.890773121510641,-0.09999679028987885,0.0222520362585783,0.10201743245124817,0.045876674354076385,-0.11250244826078415,0.19642986357212067,-0.40371137857437134,0.6744590997695923,1.3760757446289062,0.687471866607666,-0.07594455778598785,0.25962626934051514
1749041543.5749774,2.6712446212768555,-1.1226867002299805,-2.289494276046753,4.056511088008545,-2.6418307463275355,-4.890365664158956,-0.10346546024084091,0.022560682147741318,0.10186099261045456,0.04703080281615257,-0.11025691032409668,0.1964869201183319,-0.3718809187412262,0.6742432713508606,1.386649250984192,0.6778250336647034,-0.08448673784732819,0.2600921392440796
1749041543.5750146,2.6710026264190674,-1.122623936539032,-2.2893097400665283,4.056626005763672,-2.6420920530902308,-4.889976445828573,-0.10084328055381775,0.02280260995030403,0.10087056457996368,0.04785929620265961,-0.11167939752340317,0.19892388582229614,-0.4242488443851471,0.66656094789505,1.4031658172607422,0.6945328712463379,-0.11531349271535873,0.26477813720703125
1749041543.575116,2.6707448959350586,-1.1226104658893128,-2.2890877723693848,4.056733770961426,-2.6422749201404017,-4.889572803174154,-0.10193270444869995,0.023030413314700127,0.10365185886621475,0.04938005656003952,-0.11436943709850311,0.19771896302700043,-0.412115216255188,0.6819742321968079,1.3981208801269531,0.6560848355293274,-0.07605443149805069,0.27691084146499634
1749041543.5774207,2.670610189437866,-1.1225739282420655,-2.288843870162964,4.0567871767231445,-2.6425440947162073,-4.889159385357992,-0.10357318818569183,0.023806719109416008,0.10237208753824234,0.05051281303167343,-0.11646419763565063,0.20329783856868744,-0.3965531587600708,0.6677069067955017,1.4041188955307007,0.6865909695625305,-0.0710943192243576,0.24221359193325043
1749041543.61827,2.6703944206237793,-1.1224681299975892,-2.2886412143707275,4.056913538570068,-2.642740551625387,-4.8887755314456385,-0.10286002606153488,0.023823242634534836,0.10527374595403671,0.051760587841272354,-0.11561053991317749,0.20005322992801666,-0.3964090943336487,0.6589512825012207,1.3749066591262817,0.6736648678779602,-0.07672244310379028,0.2917790710926056
1749041543.6183171,2.6701245307922363,-1.1224078697017212,-2.2884528636932373,4.057025118465088,-2.64299184480776,-4.888363186513082,-0.1064668595790863,0.023573990911245346,0.10310325771570206,0.05188390612602234,-0.11473085731267929,0.20467659831047058,-0.37565189599990845,0.6836035251617432,1.4196295738220215,0.6740889549255371,-0.08962321281433105,0.286648690700531
1749041543.6183586,2.6699280738830566,-1.122363345032074,-2.2882533073425293,4.057151480312012,-2.643203083668844,-4.887951199208395,-0.10484117269515991,0.02384939230978489,0.10458029061555862,0.05272245407104492,-0.1147778183221817,0.2036541849374771,-0.4050312638282776,0.6738373041152954,1.414844274520874,0.679449200630188,-0.10499419271945953,0.3027995526790619
1749041543.6184006,2.669727325439453,-1.1223426920226593,-2.2880373001098633,4.057239695186279,-2.6434300581561487,-4.88749081293215,-0.10850588232278824,0.024544477462768555,0.10394378006458282,0.05253094062209129,-0.11660607904195786,0.20750980079174042,-0.3577575981616974,0.6652359366416931,1.4162696599960327,0.6807121634483337,-0.09671434760093689,0.2902557849884033
1749041543.6184394,2.6695199012756348,-1.1223023694804688,-2.287846088409424,4.057350798244141,-2.6436386744128626,-4.887082640324728,-0.1065286323428154,0.024378236383199692,0.10330352932214737,0.05296427756547928,-0.11723648756742477,0.21061693131923676,-0.4251336455345154,0.661669909954071,1.459235429763794,0.6760799884796143,-0.12141136080026627,0.28133293986320496
1749041543.6184776,2.6692919731140137,-1.1222120982459565,-2.287612199783325,4.057473822230957,-2.6439245382892054,-4.886662069951193,-0.10824998468160629,0.02509426139295101,0.10302405059337616,0.055421970784664154,-0.11896962672472,0.21248677372932434,-0.40519559383392334,0.6609373688697815,1.4744089841842651,0.6679068207740784,-0.11468572169542313,0.27991700172424316
1749041543.6185153,2.6691226959228516,-1.1221909683993836,-2.2874348163604736,4.0575854021259765,-2.6441105047809046,-4.886226002370016,-0.10930328816175461,0.025699598714709282,0.10371451824903488,0.05679736286401749,-0.11988305300474167,0.21462956070899963,-0.4195592999458313,0.6690413951873779,1.4952882528305054,0.6575360298156738,-0.09452800452709198,0.285666823387146
1749041543.618553,2.6688807010650635,-1.1221312445453187,-2.2872085571289062,4.0576769548603515,-2.6444032827960413,-4.885781232510702,-0.11049062013626099,0.025935040786862373,0.10607273876667023,0.05528763681650162,-0.12209118157625198,0.21686874330043793,-0.3992782235145569,0.6344729661941528,1.4768770933151245,0.6684982776641846,-0.07436667382717133,0.2794956564903259
1749041543.6185904,2.6686789989471436,-1.1220993262580414,-2.2869772911071777,4.057792349452637,-2.644627396260397,-4.885387484227316,-0.11074606329202652,0.02540750615298748,0.10743258893489838,0.05430708825588226,-0.12159191071987152,0.21704860031604767,-0.37621453404426575,0.6654262542724609,1.459282398223877,0.6849650740623474,-0.09204843640327454,0.272676944732666
1749041543.6186273,2.6686789989471436,-1.1220993262580414,-2.2869772911071777,4.057792349452637,-2.644627396260397,-4.885387484227316,-0.11074606329202652,0.02540750615298748,0.10743258893489838,0.05430708825588226,-0.12159191071987152,0.21704860031604767,-0.37621453404426575,0.6654262542724609,1.459282398223877,0.6849650740623474,-0.09204843640327454,0.272676944732666
1749041543.6186652,2.66823148727417,-1.12199820697818,-2.2865498065948486,4.058007403010986,-2.6451576391803187,-4.884456340466635,-0.11087096482515335,0.025844670832157135,0.11244099587202072,0.05913274735212326,-0.12711411714553833,0.2196899652481079,-0.41481515765190125,0.6460968255996704,1.4469435214996338,0.6540229320526123,-0.06529736518859863,0.3015391230583191
1749041543.6187027,2.668015480041504,-1.1219698053649445,-2.286353826522827,4.058127089137695,-2.6454179922686976,-4.8839914242373865,-0.11212822794914246,0.026138197630643845,0.11171873658895493,0.06003542244434357,-0.12587985396385193,0.22482675313949585,-0.42374539375305176,0.6512970924377441,1.47532320022583,0.6344708800315857,-0.09921124577522278,0.29847919940948486
1749041543.61874,2.6677756309509277,-1.1219020646861573,-2.286104202270508,4.058265848750732,-2.6456297079669397,-4.8835747877704065,-0.11387428641319275,0.024153724312782288,0.11171605437994003,0.06176162138581276,-0.12734559178352356,0.22512716054916382,-0.42230379581451416,0.6796013116836548,1.4656364917755127,0.6284178495407104,-0.09642314165830612,0.2969290018081665
1749041543.6187775,2.667520523071289,-1.1218543213656922,-2.285860061645508,4.0583507257648925,-2.645909134541647,-4.883059326802389,-0.11747433245182037,0.026326026767492294,0.11184877157211304,0.061335913836956024,-0.13319920003414154,0.22778138518333435,-0.45470476150512695,0.668647825717926,1.5334124565124512,0.6351041793823242,-0.045934855937957764,0.3089601695537567
1749041543.6188147,2.667304515838623,-1.1217859548381348,-2.2856404781341553,4.058489008540771,-2.646137062703268,-4.882621947919027,-0.11715977638959885,0.028025925159454346,0.11588045954704285,0.060519248247146606,-0.12878040969371796,0.2293463796377182,-0.40202757716178894,0.6238328218460083,1.491089940071106,0.6231732368469238,-0.05051266402006149,0.2807569205760956
1749041543.6188512,2.667088508605957,-1.1217185121825715,-2.285421371459961,4.058581038112305,-2.646414820347921,-4.882157389317648,-0.12036893516778946,0.02653217315673828,0.11642496287822723,0.05671059340238571,-0.12933260202407837,0.23477385938167572,-0.3607553243637085,0.6385432481765747,1.4703601598739624,0.652244508266449,-0.06968658417463303,0.21962742507457733
1749041543.618888,2.6668362617492676,-1.1216823917678376,-2.2851736545562744,4.058715983028076,-2.6466477552997034,-4.881689254437582,-0.11635230481624603,0.026448693126440048,0.11608846485614777,0.057576026767492294,-0.1304674744606018,0.23054341971874237,-0.40642160177230835,0.6495997905731201,1.4839457273483276,0.6536727547645569,-0.05118544399738312,0.27903425693511963
1749041543.6189363,2.6665499210357666,-1.1216029685786744,-2.2849462032318115,4.058839483852051,-2.6469348112689417,-4.8812435309039515,-0.11864130198955536,0.0268603153526783,0.12030132859945297,0.05967066064476967,-0.12992626428604126,0.23275069892406464,-0.3674268126487732,0.6815328001976013,1.4822136163711548,0.6473618745803833,-0.06599363684654236,0.2702593505382538
1749041543.6189814,2.6663687229156494,-1.1215710502913971,-2.2846758365631104,4.058970137233398,-2.647200886403219,-4.880771223698751,-0.11856374889612198,0.02696222811937332,0.12105116248130798,0.06115978583693504,-0.12979452311992645,0.23128606379032135,-0.40042534470558167,0.6441584229469299,1.4563497304916382,0.6323689222335815,-0.08180738985538483,0.3063335716724396
1749041543.6190193,2.6661133766174316,-1.1215191048434754,-2.284423828125,4.059074087733887,-2.6474364439593714,-4.880337659512655,-0.11871126294136047,0.026110390201210976,0.12493472546339035,0.060557395219802856,-0.12870077788829803,0.23449991643428802,-0.4159771800041199,0.6522201299667358,1.4073597192764282,0.6316584348678589,-0.08476045727729797,0.3031296730041504
1749041543.6191225,2.6658389568328857,-1.121462659244873,-2.284176826477051,4.059220953578613,-2.647712294255392,-4.879822317753927,-0.1187538281083107,0.026279490441083908,0.12225738167762756,0.05955003201961517,-0.13292159140110016,0.2378826141357422,-0.38012269139289856,0.6595274806022644,1.4464778900146484,0.6571940183639526,-0.08755810558795929,0.31957271695137024
1749041543.6210446,2.665648937225342,-1.1213990908912201,-2.283902883529663,4.059301062221191,-2.6479318777667444,-4.879350606595175,-0.12023363262414932,0.027612166479229927,0.12344851344823837,0.05897177383303642,-0.1308564692735672,0.24173645675182343,-0.4405895471572876,0.674271821975708,1.454270601272583,0.6508884429931641,-0.09411518275737762,0.29821228981018066
1749041543.6622849,2.665400743484497,-1.1213268500617524,-2.283658266067505,4.059416933650635,-2.6482420603381556,-4.878857676182882,-0.11989586055278778,0.029093671590089798,0.12530562281608582,0.058492813259363174,-0.1315709799528122,0.24415624141693115,-0.4056086540222168,0.6246852278709412,1.4253865480422974,0.6758784055709839,-0.10146699100732803,0.28278523683547974
1749041543.662333,2.6651570796966553,-1.1212668281844635,-2.28342604637146,4.059528036708496,-2.648494545613424,-4.87839121023287,-0.1225702241063118,0.027886388823390007,0.1270245611667633,0.0596194788813591,-0.13743729889392853,0.24473817646503448,-0.38098517060279846,0.6447910070419312,1.40420663356781,0.6559661626815796,-0.09564471989870071,0.28203094005584717
1749041543.6623747,2.664937734603882,-1.1212224227241059,-2.2831404209136963,4.059647722835205,-2.64880878130068,-4.877899829541342,-0.12388655543327332,0.02822023630142212,0.1285635381937027,0.060166556388139725,-0.13814398646354675,0.24477070569992065,-0.3879328668117523,0.6576350331306458,1.3947678804397583,0.6628770232200623,-0.08715713024139404,0.29638317227363586
1749041543.6624131,2.6646740436553955,-1.121158556347229,-2.2828919887542725,4.059782190913818,-2.6490681807147425,-4.877426211033956,-0.12512695789337158,0.02965616248548031,0.12989620864391327,0.061123818159103394,-0.13861380517482758,0.24252977967262268,-0.3875587582588196,0.6248729825019836,1.3807804584503174,0.6720428466796875,-0.08800758421421051,0.3020280599594116
1749041543.6624522,2.6644301414489746,-1.1211218398860474,-2.2826168537139893,4.059914274806641,-2.649309221898214,-4.876945439969198,-0.1254323571920395,0.02799387276172638,0.12914147973060608,0.06178492307662964,-0.1408030390739441,0.24740196764469147,-0.4118121862411499,0.6605144143104553,1.3957107067108154,0.6654824018478394,-0.08175428211688995,0.3361383378505707
1749041543.6624918,2.6641626358032227,-1.1210618180087586,-2.282346487045288,4.060029669398926,-2.6496415773974817,-4.876406494771139,-0.126440167427063,0.02806110493838787,0.1291579008102417,0.06222817301750183,-0.1418159008026123,0.24951893091201782,-0.3987962305545807,0.6541950106620789,1.379324197769165,0.6506373882293701,-0.08560844510793686,0.33624571561813354
1749041543.662532,2.6639039516448975,-1.1210256081870575,-2.282094717025757,4.06016127645459,-2.6499033609973353,-4.8758984247790735,-0.1269422322511673,0.027889160439372063,0.1294505000114441,0.061048682779073715,-0.14239273965358734,0.2538786828517914,-0.4080052673816681,0.6598808765411377,1.409630298614502,0.6666427850723267,-0.07669096440076828,0.3069044351577759
1749041543.6625702,2.6636970043182373,-1.1209499698928376,-2.281827449798584,4.060284300441406,-2.650182549153463,-4.875424806271688,-0.12829607725143433,0.028531353920698166,0.12851834297180176,0.06208355724811554,-0.14424194395542145,0.260223388671875,-0.3639131784439087,0.6517105102539062,1.421698808670044,0.67240309715271,-0.04566299542784691,0.29668331146240234
1749041543.6626077,2.6634366512298584,-1.1209016901305695,-2.2815325260162354,4.060408278102539,-2.6504696051227015,-4.874919954930441,-0.1305762231349945,0.029277615249156952,0.12892358005046844,0.06296341121196747,-0.14390338957309723,0.25829383730888367,-0.39148077368736267,0.6588603854179382,1.421934723854065,0.6702991127967834,-0.057679783552885056,0.2695847153663635
1749041543.662648,2.663100004196167,-1.120830313568451,-2.2812857627868652,4.060562296504639,-2.6507535616504114,-4.874412004147665,-0.12672822177410126,0.029282404109835625,0.1304229199886322,0.06399597972631454,-0.14361919462680817,0.2613382637500763,-0.41602033376693726,0.6406980156898499,1.4079539775848389,0.6661481261253357,-0.06649518013000488,0.27617210149765015
1749041543.6626856,2.6628873348236084,-1.1207313400558014,-2.281040906906128,4.060690565700195,-2.6510334650622767,-4.873858992253439,-0.12802256643772125,0.029032321646809578,0.13057304918766022,0.06486755609512329,-0.1445099264383316,0.26127707958221436,-0.3832504153251648,0.6638510227203369,1.413115382194519,0.6510741114616394,-0.08571493625640869,0.2782822251319885
1749041543.6627226,2.6626343727111816,-1.1207096737674256,-2.2807586193084717,4.060809774989746,-2.651313368474142,-4.873338286076681,-0.1297488510608673,0.02870405837893486,0.12902657687664032,0.06503235548734665,-0.1429644525051117,0.26475197076797485,-0.4293648600578308,0.6398552060127258,1.4227575063705444,0.6643208861351013,-0.06933103501796722,0.3113422393798828
1749041543.6627598,2.6623547077178955,-1.1206811231425782,-2.280514717102051,4.06096522390332,-2.651614252720968,-4.872801129017965,-0.13165108859539032,0.028728803619742393,0.1281173676252365,0.06508289277553558,-0.14361467957496643,0.2691207826137543,-0.4242701530456543,0.6628550887107849,1.454007625579834,0.6698312759399414,-0.12196902930736542,0.27964070439338684
1749041543.6627963,2.662130355834961,-1.1206055146506806,-2.2802441120147705,4.061064882869385,-2.651891533528463,-4.872256938611166,-0.13344258069992065,0.029012488201260567,0.13065196573734283,0.06630038470029831,-0.1475248634815216,0.27301284670829773,-0.39674118161201477,0.6506584286689758,1.4654101133346558,0.6537390351295471,-0.08818742632865906,0.24215225875377655
1749041543.662844,2.661811590194702,-1.1205604833415528,-2.2799875736236572,4.061181231135986,-2.652179543172018,-4.871708337460653,-0.13578170537948608,0.02900126948952675,0.1310986578464508,0.06703898310661316,-0.14739322662353516,0.27327343821525574,-0.39673012495040894,0.674828290939331,1.4414620399475098,0.6553304195404053,-0.11140194535255432,0.2225123941898346
1749041543.662886,2.6615548133850098,-1.120497242813446,-2.279736042022705,4.061347647304199,-2.652490202580587,-4.871203843747274,-0.13287511467933655,0.028198720887303352,0.13205035030841827,0.06954015791416168,-0.15204279124736786,0.2688838839530945,-0.4145825207233429,0.6642363667488098,1.4641070365905762,0.6288031339645386,-0.09035935252904892,0.26030123233795166
1749041543.6629224,2.661318063735962,-1.1204770666411896,-2.279466152191162,4.061502619380615,-2.652785841618673,-4.8706164995776575,-0.13631989061832428,0.02832675166428089,0.13379007577896118,0.07036934047937393,-0.15382200479507446,0.26526501774787903,-0.3788609206676483,0.6701698303222656,1.4619662761688232,0.6309524178504944,-0.06781764328479767,0.2707424461841583
1749041543.6629596,2.6610231399536133,-1.1203894776156922,-2.279202461242676,4.0616370874592285,-2.653127972279684,-4.870094839726583,-0.13639920949935913,0.028747808188199997,0.13457810878753662,0.06767760217189789,-0.15471869707107544,0.26639509201049805,-0.42042896151542664,0.683582067489624,1.4531224966049194,0.6205983757972717,-0.06139266490936279,0.3159734606742859
1749041543.6629963,2.6607558727264404,-1.1202750366977234,-2.2789268493652344,4.061722441310547,-2.6534393469439905,-4.8695226351367396,-0.13698410987854004,0.029103366658091545,0.13393211364746094,0.06710049510002136,-0.15584422647953033,0.2660611867904663,-0.4236057698726654,0.6814465522766113,1.4680172204971313,0.6477481126785278,-0.0408957302570343,0.31880563497543335
1749041543.6630328,2.6604952812194824,-1.1202769738486786,-2.278679847717285,4.061900301570557,-2.6537497679339808,-4.869044367467062,-0.1367342174053192,0.028855998069047928,0.13416776061058044,0.06791284680366516,-0.15626733005046844,0.27254819869995117,-0.4270821809768677,0.7099829912185669,1.495270013809204,0.6473538875579834,-0.040680110454559326,0.289173424243927
1749041543.6631508,2.660184621810913,-1.1201667052558442,-2.27842378616333,4.062012358302734,-2.6540775934802454,-4.8684813419925135,-0.13769589364528656,0.029819611459970474,0.13771620392799377,0.06812138110399246,-0.15760090947151184,0.27722305059432983,-0.4469353258609772,0.7333547472953796,1.4973100423812866,0.6654618978500366,-0.04343339800834656,0.2862059772014618
1749041543.665001,2.6598849296569824,-1.1201449495605011,-2.278156280517578,4.062159700984619,-2.6544042269336146,-4.867948238049642,-0.13955843448638916,0.03120301477611065,0.13834814727306366,0.07149185240268707,-0.15412726998329163,0.27828508615493774,-0.4304944574832916,0.6959514021873474,1.4679795503616333,0.6326087713241577,-0.04887446016073227,0.26951220631599426
1749041543.7102962,2.6596195697784424,-1.120073066358902,-2.2778656482696533,4.062271757716797,-2.654701534901754,-4.867383305226461,-0.1412375569343567,0.031224973499774933,0.14199742674827576,0.07205375283956528,-0.15465384721755981,0.28064560890197754,-0.3698030710220337,0.6824320554733276,1.4423331022262573,0.6299230456352234,-0.06344110518693924,0.28050893545150757
1749041543.7103417,2.65936279296875,-1.1200134319118042,-2.2775940895080566,4.062410040492676,-2.655050818120138,-4.866811815892355,-0.14427907764911652,0.031136153265833855,0.14287249743938446,0.06943359225988388,-0.1511903703212738,0.2802703082561493,-0.3924592435359955,0.6850051283836365,1.4498603343963623,0.6695029735565186,-0.049996133893728256,0.2970200777053833
1749041543.710382,2.6590523719787598,-1.1199497145465394,-2.2773029804229736,4.062556906337402,-2.6553552786456507,-4.866254512463705,-0.14028017222881317,0.03110979124903679,0.14313149452209473,0.06763122230768204,-0.1505497694015503,0.2839988172054291,-0.4182755947113037,0.675822377204895,1.4410614967346191,0.6699333786964417,-0.07482583075761795,0.2889372408390045
1749041543.7104213,2.658783435821533,-1.11987720549617,-2.277008056640625,4.062697096461914,-2.6556456724749964,-4.865677539502279,-0.1423122137784958,0.031826164573431015,0.14580844342708588,0.06869446486234665,-0.15578016638755798,0.2872815728187561,-0.3738776743412018,0.6949853897094727,1.4335132837295532,0.6827845573425293,-0.04486247897148132,0.27596843242645264
1749041543.7104597,2.658783435821533,-1.11987720549617,-2.277008056640625,4.062697096461914,-2.6556456724749964,-4.865677539502279,-0.1423122137784958,0.031826164573431015,0.14580844342708588,0.06869446486234665,-0.15578016638755798,0.2872815728187561,-0.3738776743412018,0.6949853897094727,1.4335132837295532,0.6827845573425293,-0.04486247897148132,0.27596843242645264
1749041543.710498,2.6581969261169434,-1.1197576385787507,-2.276437759399414,4.062959833736084,-2.6562650839435022,-4.864524070416586,-0.14396777749061584,0.032563500106334686,0.1500844806432724,0.06996981799602509,-0.15656200051307678,0.2896374762058258,-0.42350611090660095,0.6694383025169373,1.417731523513794,0.6914054155349731,-0.07573427259922028,0.24985766410827637
1749041543.7105365,2.657881736755371,-1.1197166603854676,-2.2761390209198,4.063095255489014,-2.656576935444967,-4.863889400159017,-0.14479166269302368,0.032661303877830505,0.1519506871700287,0.07180578261613846,-0.15955089032649994,0.28804606199264526,-0.4225170910358429,0.7102738618850708,1.4206578731536865,0.7129159569740295,-0.06911544501781464,0.2621464729309082
1749041543.7105742,2.657597303390503,-1.1196440321258088,-2.275827407836914,4.063246412868164,-2.6568830649005335,-4.863406483327047,-0.1462787538766861,0.033755138516426086,0.1514623910188675,0.07307543605566025,-0.15979284048080444,0.28955307602882385,-0.4121880531311035,0.6936250925064087,1.3802326917648315,0.6813234090805054,-0.05351365730166435,0.28982844948768616
1749041543.7106118,2.657327175140381,-1.1195455354503174,-2.2755279541015625,4.063385649318359,-2.6572111288653772,-4.862818543110983,-0.14485493302345276,0.03353523835539818,0.15213768184185028,0.07350419461727142,-0.15970826148986816,0.290945827960968,-0.49201980233192444,0.7140350341796875,1.4440441131591797,0.7070519328117371,-0.07941031455993652,0.3454987406730652
1749041543.7106495,2.656985282897949,-1.1194934111884614,-2.2751970291137695,4.063572092647217,-2.657534424458639,-4.862223211918966,-0.14940214157104492,0.03501510992646217,0.15400023758411407,0.07476760447025299,-0.16014176607131958,0.29716363549232483,-0.3471801280975342,0.6759901642799377,1.3731659650802612,0.6939536929130554,-0.061443738639354706,0.30698859691619873
1749041543.7106864,2.656688928604126,-1.1194171768477936,-2.2748985290527344,4.063716097468994,-2.6578965822802942,-4.861606780682699,-0.149937242269516,0.03425800800323486,0.15201455354690552,0.0763302817940712,-0.16071155667304993,0.2999107539653778,-0.39916107058525085,0.6777382493019104,1.3931350708007812,0.6862064599990845,-0.07730182260274887,0.2774069309234619
1749041543.7107239,2.656428575515747,-1.1193249982646485,-2.274606704711914,4.063843412990234,-2.6581741015063685,-4.860982481633322,-0.14878468215465546,0.03367890417575836,0.1509385108947754,0.07557982951402664,-0.1623307466506958,0.30020231008529663,-0.3966538608074188,0.6751335263252258,1.3925728797912598,0.6761875152587891,-0.07891426235437393,0.25444042682647705
1749041543.7107606,2.6560890674591064,-1.1193350714496155,-2.274291753768921,4.064014120692871,-2.6585314909564417,-4.8603931109057825,-0.14963071048259735,0.03350767120718956,0.15119971334934235,0.07485798746347427,-0.16382725536823273,0.30125734210014343,-0.3855445384979248,0.6658281683921814,1.4047834873199463,0.6814142465591431,-0.08427765965461731,0.2722226083278656
1749041543.7107983,2.655794858932495,-1.119173215036728,-2.273996353149414,4.064157171840332,-2.658820931111471,-4.859765473996298,-0.15129581093788147,0.034302204847335815,0.1521712988615036,0.0741613432765007,-0.16374565660953522,0.29936107993125916,-0.3881272077560425,0.6984771490097046,1.425430417060852,0.6829253435134888,-0.0755186676979065,0.28462958335876465
1749041543.7108355,2.6554431915283203,-1.1191138190082093,-2.2736926078796387,4.064305468196533,-2.6591973940478724,-4.859156672154562,-0.15111993253231049,0.036506932228803635,0.151450976729393,0.0768381804227829,-0.16462169587612152,0.30248284339904785,-0.39063653349876404,0.6545180082321167,1.4050463438034058,0.6899192333221436,-0.09922841191291809,0.2829306125640869
1749041543.7108717,2.655177593231201,-1.119041607981064,-2.273397207260132,4.0644799905964355,-2.6595049540149134,-4.8585360685931605,-0.15270757675170898,0.03698955103754997,0.15000006556510925,0.08081050962209702,-0.17185917496681213,0.30604076385498047,-0.4035756289958954,0.629287838935852,1.4385546445846558,0.6561011672019958,-0.055388569831848145,0.2626626193523407
1749041543.7109103,2.654858350753784,-1.119003878240921,-2.273106575012207,4.064647360438965,-2.6598334948169153,-4.857918922101156,-0.14986169338226318,0.034919556230306625,0.15180999040603638,0.07991167902946472,-0.1707594096660614,0.3076930344104767,-0.4550222158432007,0.6547336578369141,1.4657306671142578,0.656372606754303,-0.08401861786842346,0.2393147349357605
1749041543.7109582,2.654531240463257,-1.118861274128296,-2.2727885246276855,4.064798994655273,-2.660192314778463,-4.85735267797579,-0.14952552318572998,0.03625858947634697,0.15480946004390717,0.07734467089176178,-0.17308633029460907,0.30911123752593994,-0.394597589969635,0.6431840062141418,1.444566249847412,0.6720464825630188,-0.0825602188706398,0.23039071261882782
1749041543.7110052,2.654226303100586,-1.1188557905009766,-2.272484302520752,4.0649730402180175,-2.660574738179342,-4.85665470758547,-0.1547114998102188,0.03751903772354126,0.15647940337657928,0.0780254602432251,-0.17428883910179138,0.30491670966148376,-0.40172260999679565,0.6252808570861816,1.4225589036941528,0.6677700877189636,-0.052905499935150146,0.29707401990890503
1749041543.7110472,2.6539297103881836,-1.1187687081149598,-2.2721853256225586,4.0650974947163085,-2.660964314137594,-4.856095854436056,-0.1544952094554901,0.03617023676633835,0.1570519357919693,0.07706117630004883,-0.17464692890644073,0.3034580945968628,-0.3527834415435791,0.6418785452842712,1.4092227220535278,0.6770688891410828,-0.05099083483219147,0.29229670763015747
1749041543.7110848,2.6535606384277344,-1.1186728936484833,-2.2718591690063477,4.065261049861572,-2.661328379307882,-4.855471793805258,-0.1546807438135147,0.03706590086221695,0.15802691876888275,0.07934954762458801,-0.17333096265792847,0.30567678809165955,-0.3917361795902252,0.6367456316947937,1.427260160446167,0.6409070491790771,-0.03403516858816147,0.31327325105667114
1749041543.7111223,2.6532435417175293,-1.118600772028305,-2.271559953689575,4.065424128169678,-2.661672655736105,-4.854827706013815,-0.15799927711486816,0.036040741950273514,0.15626436471939087,0.07847432047128677,-0.17109031975269318,0.30755308270454407,-0.3963901996612549,0.6420623064041138,1.4582886695861816,0.667177140712738,-0.057706139981746674,0.3196806311607361
1749041543.7112417,2.6529898643493652,-1.1185630720904847,-2.271268129348755,4.065559549922607,-2.662043873463766,-4.854178611432211,-0.15484726428985596,0.03482110798358917,0.15847992897033691,0.07509438693523407,-0.1739773452281952,0.31281325221061707,-0.42976751923561096,0.6573378443717957,1.446237564086914,0.7023258209228516,-0.02441255748271942,0.31394827365875244
1749041543.7130444,2.652688980102539,-1.118472473030426,-2.2709529399871826,4.065706415767334,-2.662431065236227,-4.853574339543478,-0.15457183122634888,0.03442040830850601,0.16121156513690948,0.07539653033018112,-0.17027069628238678,0.3122173249721527,-0.41784149408340454,0.6802551746368408,1.4440491199493408,0.6940078139305115,-0.03642420470714569,0.30549904704093933
1749041543.7542775,2.652338743209839,-1.1184005302241822,-2.270673990249634,4.065861864680908,-2.6627472082721155,-4.852961007748739,-0.1554718017578125,0.03595936670899391,0.1618705540895462,0.07679098099470139,-0.1726318895816803,0.3130567669868469,-0.45449477434158325,0.6622281670570374,1.4491053819656372,0.7158771753311157,-0.05363483726978302,0.31114423274993896
1749041543.7543223,2.652038097381592,-1.1183589857867737,-2.2703473567962646,4.066071196193359,-2.663070265446798,-4.852298084889547,-0.1559654027223587,0.03616312891244888,0.16256071627140045,0.07594949752092361,-0.17172439396381378,0.3159509003162384,-0.4699251055717468,0.6417483687400818,1.4460409879684448,0.7209190130233765,-0.057975441217422485,0.3443520963191986
1749041543.7543628,2.651726007461548,-1.1182833176902314,-2.2700014114379883,4.066199465388916,-2.663391415272848,-4.851614181195394,-0.15974180400371552,0.03583141416311264,0.16133713722229004,0.07698623836040497,-0.17340922355651855,0.3203369975090027,-0.41105759143829346,0.659572184085846,1.4589602947235107,0.7129984498023987,-0.06964990496635437,0.30802837014198303
1749041543.7544017,2.651402235031128,-1.1182358127883454,-2.269709825515747,4.066346808070801,-2.6637683550464075,-4.850960914288656,-0.16082099080085754,0.03579758480191231,0.1626451313495636,0.07795869559049606,-0.1754908561706543,0.32238128781318665,-0.4145781695842743,0.6788405776023865,1.4569743871688843,0.7226938009262085,-0.049605511128902435,0.28011879324913025
1749041543.7544408,2.651097297668457,-1.1181746882251282,-2.2693753242492676,4.0664707857319335,-2.6641278902636927,-4.850354139004843,-0.16356371343135834,0.035513736307621,0.16503463685512543,0.07779631018638611,-0.17676275968551636,0.3263252079486847,-0.4366467595100403,0.6776255369186401,1.4644081592559814,0.7289333939552307,-0.060739368200302124,0.24256199598312378
1749041543.754479,2.6507351398468018,-1.1180600982955475,-2.269036054611206,4.066653414363525,-2.6644795576678675,-4.849693361912863,-0.1617681235074997,0.03606778755784035,0.1663905680179596,0.07722599059343338,-0.1780661791563034,0.32776156067848206,-0.42741313576698303,0.690233051776886,1.4521459341049194,0.7425147294998169,-0.05638550966978073,0.2761506736278534
1749041543.754516,2.6504456996917725,-1.118015543823578,-2.2686896324157715,4.066809340114258,-2.664823118840353,-4.848987046872274,-0.16236813366413116,0.03613894060254097,0.1658146232366562,0.07833485305309296,-0.17819863557815552,0.3255472481250763,-0.4363376796245575,0.7066881060600281,1.4556390047073364,0.7647101879119873,-0.05575404316186905,0.2974582016468048
1749041543.7545536,2.6500892639160156,-1.1179286402514954,-2.2683422565460205,4.066963835353516,-2.6652215162860315,-4.8483654896365564,-0.16387002170085907,0.034734491258859634,0.16738003492355347,0.08029193431138992,-0.17732186615467072,0.32629555463790894,-0.4372766613960266,0.6851308345794678,1.480212926864624,0.7527949213981628,-0.07101456820964813,0.31794992089271545
1749041543.754599,2.64976167678833,-1.117871717815735,-2.2680113315582275,4.067162676448486,-2.6655336062060755,-4.847717348729269,-0.16283753514289856,0.03546491265296936,0.16574232280254364,0.08213725686073303,-0.18107309937477112,0.32721078395843506,-0.45332297682762146,0.7139334082603455,1.494323968887329,0.7279499769210815,-0.08331511914730072,0.3008221685886383
1749041543.7546384,2.6494619846343994,-1.1177685421756287,-2.267629623413086,4.067295237178467,-2.6658945719348353,-4.847083155308859,-0.16412308812141418,0.03690989315509796,0.1687595248222351,0.08352285623550415,-0.1779787391424179,0.32880669832229614,-0.4463548958301544,0.7051963806152344,1.4696073532104492,0.7391352653503418,-0.11691519618034363,0.3112526535987854
1749041543.7546756,2.6491053104400635,-1.1176683765700837,-2.2673027515411377,4.067465468043945,-2.6662126223193567,-4.84643799463381,-0.16711968183517456,0.036992475390434265,0.16874714195728302,0.08611968904733658,-0.18239620327949524,0.3324097990989685,-0.44989579916000366,0.7047882080078125,1.468362808227539,0.7084761261940002,-0.12228907644748688,0.32856255769729614
1749041543.7547147,2.648777961730957,-1.1176001590541382,-2.2669553756713867,4.0676914888569335,-2.6665943304644983,-4.845747415219442,-0.1670817881822586,0.03643721714615822,0.1709979921579361,0.08789718151092529,-0.18370205163955688,0.333079069852829,-0.4455120265483856,0.7076330184936523,1.4879873991012573,0.7218950390815735,-0.10581167042255402,0.3654358386993408
1749041543.7547584,2.6484453678131104,-1.1175353688052674,-2.2665932178497314,4.067839785213135,-2.66698128381838,-4.845079008732931,-0.16903260350227356,0.03811156749725342,0.17146871984004974,0.0886136144399643,-0.18629390001296997,0.3379345238208771,-0.4282374680042267,0.7201248407363892,1.4776700735092163,0.7116332054138184,-0.1024908721446991,0.3424779772758484
1749041543.7548218,2.648059129714966,-1.1174663764289399,-2.2662651538848877,4.068006678218506,-2.6673641840564173,-4.844430390988485,-0.17044483125209808,0.04026895388960838,0.17226919531822205,0.0900358334183693,-0.1893000602722168,0.3421843945980072,-0.41650620102882385,0.6564016342163086,1.4678670167922974,0.6942923069000244,-0.1095644161105156,0.32878994941711426
1749041543.754886,2.6477267742156982,-1.1173899930766602,-2.265887498855591,4.06819407522168,-2.6677821318255823,-4.843715016041891,-0.16894547641277313,0.038165133446455,0.17603667080402374,0.09454615414142609,-0.19077549874782562,0.3473210334777832,-0.4382862150669098,0.6660981774330139,1.449320673942566,0.68351149559021,-0.09985776245594025,0.2713770866394043
1749041543.754954,2.6474008560180664,-1.1172831517509003,-2.265547513961792,4.068370028133057,-2.6681395212756556,-4.84305173555483,-0.1708134412765503,0.03787703067064285,0.17872250080108643,0.09092829376459122,-0.19050708413124084,0.346542090177536,-0.4340110421180725,0.6835417151451111,1.4613503217697144,0.6695126295089722,-0.1150410920381546,0.3099338114261627
1749041543.7550216,2.6470389366149902,-1.117186800842621,-2.265169858932495,4.06856028615918,-2.6685171763049524,-4.842343632374899,-0.16984358429908752,0.03986220434308052,0.1767270714044571,0.08812110126018524,-0.1889255940914154,0.3462635576725006,-0.46939799189567566,0.6689741611480713,1.4390554428100586,0.6870059370994568,-0.12573394179344177,0.3191394805908203
1749041543.755092,2.646679162979126,-1.1170992714217682,-2.26485013961792,4.0687195497700195,-2.668896738682882,-4.841628734265463,-0.16951781511306763,0.039518702775239944,0.17656569182872772,0.08792201429605484,-0.19335338473320007,0.34731900691986084,-0.4298036992549896,0.6765273213386536,1.4513630867004395,0.6992408037185669,-0.09659624099731445,0.3293457627296448
1749041543.7551584,2.6463654041290283,-1.116995559339859,-2.264472484588623,4.068910761470459,-2.669264856969015,-4.840943280850546,-0.17109692096710205,0.04174511879682541,0.1771996021270752,0.08993607014417648,-0.1909147948026657,0.3490951955318451,-0.4176757037639618,0.6442047953605652,1.4683665037155151,0.6894559860229492,-0.130449116230011,0.3109615445137024
1749041543.7552269,2.6460070610046387,-1.1169279676726838,-2.264141321182251,4.069093866939209,-2.669636313115255,-4.840227429066793,-0.17477020621299744,0.04024885967373848,0.18010994791984558,0.0908549576997757,-0.19709113240242004,0.3517068028450012,-0.42935746908187866,0.6184617280960083,1.450655460357666,0.6597185730934143,-0.13157598674297333,0.3099004030227661
1749041543.755945,2.645662307739258,-1.1168631476214905,-2.2637553215026855,4.069253607387207,-2.6699801127063196,-4.839551035557882,-0.1758919209241867,0.038675349205732346,0.18307891488075256,0.08731190860271454,-0.19628995656967163,0.3536686599254608,-0.4540163576602936,0.649945080280304,1.446858525276184,0.6876327395439148,-0.15382114052772522,0.3042197823524475
