nimar13/UR3e_dataset_trayectorias/trayectorias_ejecutadas/quintic_func/trayectoria_108_result.csv
timestamp,q1,q2,q3,q4,q5,q6,qd1,qd2,qd3,qd4,qd5,qd6,tau1,tau2,tau3,tau4,tau5,tau6
1749042145.1422813,0.8079790472984314,-0.5673058790019532,-1.0025551319122314,2.219791813487671,0.44773221015930176,-2.777314011250631,0.00047235062811523676,0.0003352669009473175,-0.005442158784717321,0.0032811276614665985,-0.00045396137284114957,-0.008134869858622551,0.1894913911819458,-0.8374408483505249,-0.06656402349472046,0.2194468379020691,-0.3630926012992859,-0.11685740947723389
1749042145.1423275,0.8079981803894043,-0.5673023027232666,-1.0025599002838135,2.2198232847401123,0.4476819336414337,-2.777306858693258,0.0004274887905921787,-0.00022912811255082488,-0.0028319291304796934,0.0006705594132654369,-0.0003507173096295446,-0.005200183484703302,0.16551634669303894,-0.828675389289856,-0.059487756341695786,0.20063841342926025,-0.35545769333839417,-0.10715162754058838
1749042145.1423671,0.8079708218574524,-0.5672939580729981,-1.0025599002838135,2.219826861018799,0.4477095603942871,-2.7772825399981897,0.00032037211349233985,-0.000380918150767684,-0.0014311233535408974,0.0001184948705486022,0.00011533544602571055,-0.0032685198821127415,0.13153280317783356,-0.8210884928703308,-0.053171899169683456,0.2155970335006714,-0.3519305884838104,-0.1109502911567688
1749042145.1424067,0.8079982399940491,-0.5673250716975708,-1.0025599002838135,2.219798966045044,0.44773221015930176,-2.7773259321795862,0.000287436181679368,-0.00046603629016317427,-0.0009875585092231631,-0.0014253430999815464,0.0002579028659965843,-0.0020463529508560896,0.17310982942581177,-0.8532484769821167,-0.02633555978536606,0.18546956777572632,-0.3399933874607086,-0.09225225448608398
1749042145.1424448,0.8079982399940491,-0.5673250716975708,-1.0025599002838135,2.219798966045044,0.44773221015930176,-2.7773259321795862,0.000287436181679368,-0.00046603629016317427,-0.0009875585092231631,-0.0014253430999815464,0.0002579028659965843,-0.0020463529508560896,0.17310982942581177,-0.8532484769821167,-0.02633555978536606,0.18546956777572632,-0.3399933874607086,-0.09225225448608398
1749042145.1424828,0.8079790472984314,-0.567356066112854,-1.0025479793548584,2.2197834688374023,0.4476819336414337,-2.7773104349719446,0.0002478035166859627,-0.0014654328115284443,0.00022381122107617557,-0.0018632342107594013,0.00031214611954055727,-0.0007668769103474915,0.13563407957553864,-0.8735368251800537,0.0028526820242404938,0.16579335927963257,-0.32932618260383606,-0.06673049926757812
1749042145.1425295,0.807986319065094,-0.5673142236522217,-1.002551555633545,2.219810886973999,0.4477202892303467,-2.7772789637195032,0.00017576415848452598,-0.0017905422719195485,0.0007043076911941171,-0.0014747106470167637,0.00034762077848427,-0.0002993587404489517,0.13371403515338898,-0.8945125341415405,0.004432540386915207,0.16474740207195282,-0.32496216893196106,-0.053319692611694336
1749042145.1425736,0.8080183863639832,-0.5673452180675049,-1.0025205612182617,2.2198142248341064,0.44772860407829285,-2.777318779622213,0.00016337793204002082,-0.0017772790743038058,0.00280129280872643,-0.0013152152532711625,0.0003388460318092257,-8.612568490207195e-05,0.13870562613010406,-0.909165620803833,-0.014524828642606735,0.13977937400341034,-0.3122556507587433,-0.04558449983596802
1749042145.1426127,0.8079982399940491,-0.5673416417888184,-1.0025241374969482,2.2197953897663574,0.4477044939994812,-2.777278725300924,-2.6978768801200204e-05,-0.0017755485605448484,0.003569526830688119,-0.001185456058010459,0.0006010843790136278,-1.5219312444969546e-05,0.1281011551618576,-0.9088107943534851,-0.0036121271550655365,0.13724108040332794,-0.3197133541107178,-0.04593321681022644
1749042145.1426501,0.8079982399940491,-0.5673416417888184,-1.0025241374969482,2.2197953897663574,0.4477044939994812,-2.777278725300924,-2.6978768801200204e-05,-0.0017755485605448484,0.003569526830688119,-0.001185456058010459,0.0006010843790136278,-1.5219312444969546e-05,0.1281011551618576,-0.9088107943534851,-0.0036121271550655365,0.13724108040332794,-0.3197133541107178,-0.04593321681022644
1749042145.1426876,0.8079790472984314,-0.5673535627177735,-1.0025396347045898,2.2197679716297607,0.447689026594162,-2.777294937764303,-9.961317118722945e-05,-0.0021180815529078245,0.0025067199021577835,-0.003864056197926402,0.0006192939472384751,0.003023294499143958,0.12651289999485016,-0.9322788715362549,0.014811601489782333,0.12830445170402527,-0.2944037616252899,-0.03947263956069946
1749042145.1427248,0.8079390525817871,-0.5673416417888184,-1.0024888515472412,2.219752474422119,0.4476890563964844,-2.7772284189807337,-0.00013680623669642955,-0.0021239742636680603,0.0022044333163648844,-0.004516763146966696,0.000667411950416863,0.004293314181268215,0.12913557887077332,-0.9373176693916321,0.030020123347640038,0.15044040977954865,-0.3048667311668396,-0.036968737840652466
1749042145.142762,0.8079509735107422,-0.5673261445811768,-1.0025205612182617,2.2197632032581787,0.4477214813232422,-2.7772467772113245,-0.0001344874472124502,-0.0020298429299145937,0.002762210788205266,-0.004188909661024809,0.000753086234908551,0.004094914998859167,0.14175252616405487,-0.9310391545295715,0.0341021828353405,0.14260829985141754,-0.3004378080368042,-0.04956844449043274
1749042145.1427991,0.8079707622528076,-0.5673814576915284,-1.0025314092636108,2.219735785121582,0.447706013917923,-2.777262274418966,-0.0001281517033930868,-0.001819826546125114,0.0036832469049841166,-0.0036497449036687613,0.000864822999574244,0.0034701996482908726,0.11356684565544128,-0.9630632400512695,0.024180278182029724,0.14501388370990753,-0.3063143491744995,-0.02549031376838684
1749042145.1428359,0.8079707622528076,-0.5673814576915284,-1.0025314092636108,2.219735785121582,0.447706013917923,-2.777262274418966,-0.0001281517033930868,-0.001819826546125114,0.0036832469049841166,-0.0036497449036687613,0.000864822999574244,0.0034701996482908726,0.11356684565544128,-0.9630632400512695,0.024180278182029724,0.14501388370990753,-0.3063143491744995,-0.02549031376838684
1749042145.142873,0.8079862594604492,-0.5673452180675049,-1.0024998188018799,2.219770594234131,0.4477131962776184,-2.777250115071432,-0.0001436567836208269,-0.001306937076151371,0.004287572577595711,-0.0030162553302943707,0.0008908772724680603,0.0029510019812732935,0.13479284942150116,-0.9816359281539917,0.019535642117261887,0.13686679303646088,-0.2943827509880066,-0.013670891523361206
1749042145.1429095,0.8079900741577148,-0.5673452180675049,-1.0024843215942383,2.2197512823292236,0.4477095603942871,-2.777219835911886,-0.00014944979920983315,-0.001222763443365693,0.0034218772780150175,-0.00311036454513669,0.0009199882042594254,0.0028726160526275635,0.1384955495595932,-0.9649809002876282,0.029126401990652084,0.11428618431091309,-0.30555635690689087,-0.009825974702835083
1749042145.142946,0.8079900741577148,-0.5673452180675049,-1.0024843215942383,2.2197512823292236,0.4477095603942871,-2.777219835911886,-0.00014944979920983315,-0.001222763443365693,0.0034218772780150175,-0.00311036454513669,0.0009199882042594254,0.0028726160526275635,0.1384955495595932,-0.9649809002876282,0.029126401990652084,0.11428618431091309,-0.30555635690689087,-0.009825974702835083
1749042145.142983,0.8080018758773804,-0.56735713899646,-1.0024759769439697,2.2197300630756835,0.4476747512817383,-2.777219835911886,-0.00013809195661451668,-0.0010096419136971235,0.0023329504765570164,-0.0022993350867182016,0.000766637793276459,0.0028801376465708017,0.1309274137020111,-0.9810301065444946,0.03608928248286247,0.12927529215812683,-0.2943834662437439,-0.015443980693817139
1749042145.1430192,0.807986319065094,-0.5673342508128663,-1.0024796724319458,2.219726486796997,0.44769376516342163,-2.7772043387042444,-0.00013299353304319084,-0.0008857364300638437,0.002358479890972376,-0.0018572929548099637,0.0006584186339750886,0.003086445853114128,0.12828946113586426,-0.9665985703468323,0.028873495757579803,0.13360127806663513,-0.30939018726348877,-0.004487872123718262
1749042145.143131,0.808017373085022,-0.5673452180675049,-1.002467155456543,2.2197229105183105,0.44772621989250183,-2.777201000844137,-0.000128255327581428,-0.0008020803797990084,0.0023748709354549646,-0.0015438359696418047,0.0005745449452660978,0.0032085049897432327,0.11313971877098083,-0.9735378623008728,0.02911052294075489,0.12867280840873718,-0.30329781770706177,-0.02570769190788269
1749042145.1450865,0.8079671263694763,-0.5673535627177735,-1.002474308013916,2.219755097026489,0.4477596580982208,-2.777226988469259,-0.00012384011643007398,-0.0005859913653694093,0.002867040690034628,-0.0012951726093888283,0.0005092500359751284,0.002907206304371357,0.14131003618240356,-0.9804093241691589,0.014499448239803314,0.12243671715259552,-0.3063635230064392,-0.027374565601348877
1749042145.1862953,0.8080055713653564,-0.5673535627177735,-1.0024598836898804,2.2197109895893554,0.4477214813232422,-2.777238909398214,-0.00011972423817496747,-0.0005174468969926238,0.002672683447599411,-0.001082566799595952,0.00045726270764134824,0.002552047837525606,0.1453654021024704,-0.9782676100730896,0.012993451207876205,0.1295630931854248,-0.31015545129776,-0.022981345653533936
1749042145.1863415,0.8079745173454285,-0.5673416417888184,-1.0024598836898804,2.219735785121582,0.4477214813232422,-2.7772234121905726,-0.00011587063636397943,-0.0005558542325161397,0.0021633447613567114,-0.0009241811349056661,0.0004149320302531123,0.0021739876829087734,0.13506416976451874,-0.970441460609436,0.029271740466356277,0.10938240587711334,-0.3124570846557617,-0.018900275230407715
1749042145.1863818,0.8079781532287598,-0.5673769277385254,-1.002467155456543,2.219726486796997,0.4477131962776184,-2.7772305647479456,-0.00011225533671677113,-0.0005861026584170759,0.0016393449623137712,-0.000885703251697123,0.00037979910848662257,0.0018761302344501019,0.12969337403774261,-0.9577805399894714,0.03282809630036354,0.12493398785591125,-0.3070896863937378,-0.010676205158233643
1749042145.1864204,0.807942807674408,-0.5673380655101319,-1.0024443864822388,2.219719095821045,0.4477143883705139,-2.777246061955587,-0.00010886295058298856,-0.0005385262193158269,0.001470825751312077,-0.0008093913784250617,0.000350166141288355,0.001681807334534824,0.1464841365814209,-0.9599140286445618,0.024539344012737274,0.12019628286361694,-0.3018866777420044,-0.0170305073261261
1749042145.1864593,0.8080018162727356,-0.56735713899646,-1.0024516582489014,2.219726486796997,0.44773218035697937,-2.777226988469259,-0.00010566757555352524,-0.0005662614712491632,0.0012298084329813719,-0.0006686956621706486,0.0003248323337174952,0.0013875245349481702,0.14219164848327637,-0.9680137038230896,0.024928610771894455,0.12959909439086914,-0.3208514451980591,-0.015491873025894165
1749042145.1864982,0.807986319065094,-0.56735713899646,-1.0024480819702148,2.2197035986134033,0.4477214813232422,-2.777180020009176,-0.00010265238233841956,-0.0005256021395325661,0.0010504063684493303,-0.0005096606910228729,0.0003029243089258671,0.001232694718055427,0.14300543069839478,-0.9622294306755066,0.02439660206437111,0.11506715416908264,-0.32520192861557007,-0.006086766719818115
1749042145.1865358,0.8079745173454285,-0.5674043458751221,-1.002467155456543,2.219714565868042,0.44770246744155884,-2.7771762053119105,-9.980831237044185e-05,-0.000489839178044349,0.000724131241440773,-0.00044411816634237766,0.0002837897336576134,0.0011595913674682379,0.14672809839248657,-0.9707431197166443,0.020306801423430443,0.13870343565940857,-0.32665228843688965,-0.010969191789627075
1749042145.1865733,0.8079781532287598,-0.5673588079265137,-1.0024397373199463,2.219707413310669,0.4477214813232422,-2.7772114912616175,-9.711582970339805e-05,-0.0004586362047120929,0.0006033028475940228,-0.00040163748781196773,0.00026693163090385497,0.001061699353158474,0.1690119206905365,-0.9449060559272766,0.03562641888856888,0.12366238236427307,-0.32277733087539673,-0.004858255386352539
1749042145.1866107,0.8079781532287598,-0.5673697751811524,-1.0024516582489014,2.219695492381714,0.44771793484687805,-2.7772186438189905,-9.456311090616509e-05,-0.00043116643792018294,0.0005304460064508021,-0.00036819279193878174,0.00025196681963279843,0.0009875515243038535,0.1662856787443161,-0.9507302641868591,0.03957684710621834,0.1308048665523529,-0.30853956937789917,-0.010561943054199219
1749042145.1866477,0.8079671263694763,-0.5673535627177735,-1.0024516582489014,2.2197109895893554,0.4477488696575165,-2.777180020009176,-9.214418969349936e-05,-0.0004067995469085872,0.00047428603284060955,-0.0003402016591280699,0.0002385927946306765,0.0008640160667710006,0.17899413406848907,-0.9417440295219421,0.024443602189421654,0.13449285924434662,-0.3091387152671814,-0.017338722944259644
1749042145.1866841,0.8079982399940491,-0.5673623842052002,-1.0024796724319458,2.2197229105183105,0.4477131962776184,-2.777203146611349,-8.984464511740953e-05,-0.0003850446082651615,0.0004917987389490008,-0.0003162292705383152,0.00022656813962385058,0.0007329771760851145,0.17558297514915466,-0.9328435063362122,0.02559794671833515,0.12616121768951416,-0.3252447247505188,-0.024713784456253052
1749042145.1867208,0.8079635500907898,-0.5673187536052247,-1.0024635791778564,2.219707413310669,0.44769376516342163,-2.777215067540304,-8.765560778556392e-05,-0.00036549661308526993,0.0004684642481151968,-0.0002954275696538389,0.00021569847012870014,0.0007314560352824628,0.15175306797027588,-0.931950032711029,0.028394797816872597,0.13992983102798462,-0.32047760486602783,-0.019411206245422363
1749042145.1867573,0.8079473972320557,-0.5673623842052002,-1.0024480819702148,2.219707413310669,0.44769376516342163,-2.7771833578692835,-8.557328692404553e-05,-0.00034783693263307214,0.0004321835294831544,-0.0002772008301690221,0.00020582509750965983,0.0006593386642634869,0.1459008902311325,-0.9267124533653259,0.03215759992599487,0.13723710179328918,-0.327938973903656,-0.02970913052558899
1749042145.186794,0.8080018162727356,-0.5673498672297974,-1.0024361610412598,2.2197109895893554,0.4477250277996063,-2.7771995703326624,-7.16313807060942e-05,-0.0003318074159324169,0.0004578148073051125,-0.00026109549799002707,0.00019681674893945456,0.0006229027640074492,0.16212333738803864,-0.9211247563362122,0.036658260971307755,0.13821208477020264,-0.3173670172691345,-0.023173213005065918
1749042145.186831,0.807986319065094,-0.5673733514598389,-1.002455234527588,2.2197109895893554,0.44769740104675293,-2.777203146611349,-6.382737774401903e-05,-0.0003171885618939996,0.0004341060994192958,-0.0002467615413479507,0.0001885640958789736,0.000609350623562932,0.16067419946193695,-0.9011997580528259,0.016357779502868652,0.14654825627803802,-0.32503581047058105,-0.026316285133361816
1749042145.1868687,0.8079546093940735,-0.5673380655101319,-1.0024361610412598,2.2196990686604003,0.4477095901966095,-2.777167860661642,-6.159325130283833e-05,-0.0003038024588022381,0.00040656825876794755,-0.0002339207276236266,0.00018097598513122648,0.0005630945088341832,0.17269156873226166,-0.8957985639572144,0.02814745157957077,0.13722863793373108,-0.3353561758995056,-0.037845611572265625
1749042145.1869056,0.8079546093940735,-0.5673380655101319,-1.0024361610412598,2.2196990686604003,0.4477095901966095,-2.777167860661642,-6.159325130283833e-05,-0.0003038024588022381,0.00040656825876794755,-0.0002339207276236266,0.00018097598513122648,0.0005630945088341832,0.17269156873226166,-0.8957985639572144,0.02814745157957077,0.13722863793373108,-0.3353561758995056,-0.037845611572265625
1749042145.1869419,0.8079826831817627,-0.5673461717418213,-1.0024361610412598,2.219714565868042,0.44771793484687805,-2.7771645228015345,-5.955485175945796e-05,-0.00029150350019335747,0.0003819570119958371,-0.00022235140204429626,0.00017397549527231604,0.0005181453307159245,0.20178481936454773,-0.8995623588562012,0.025478214025497437,0.16204416751861572,-0.32567715644836426,-0.025451242923736572
1749042145.1869788,0.8079790472984314,-0.5673069518855591,-1.0024361610412598,2.2197395998188476,0.4477250277996063,-2.777222458516256,-5.764624438597821e-05,-0.0002801608934532851,0.00040461940807290375,-0.00021187389211263508,0.00016749677888583392,0.00047892340808175504,0.16881780326366425,-0.8780376315116882,0.0324067622423172,0.1251610666513443,-0.3070056438446045,-0.022903800010681152
1749042145.1870158,0.8079599142074585,-0.5673380655101319,-1.0024361610412598,2.2197109895893554,0.4477214813232422,-2.7771995703326624,-5.585851613432169e-05,-0.0002362990053370595,0.000388831045711413,-0.00020233971008565277,0.00016148333088494837,0.0004450661945156753,0.15063968300819397,-0.8383945822715759,0.023598257452249527,0.152217298746109,-0.31753385066986084,-0.018890053033828735
1749042145.1871183,0.8079671859741211,-0.5673623842052002,-1.002455234527588,2.2196921545216064,0.44775599241256714,-2.7771716753589075,-5.41772460564971e-05,-7.057328912196681e-05,0.00036929253838025033,-0.00019362749299034476,0.00015588714450132102,0.00046380056301131845,0.16581186652183533,-0.7914860844612122,0.03434264659881592,0.1299891471862793,-0.31757497787475586,-0.015405654907226562
1749042145.1890707,0.8080018162727356,-0.5673342508128663,-1.0024397373199463,2.2196921545216064,0.4477059841156006,-2.7771995703326624,-7.662588905077428e-05,-1.541890526368661e-08,0.00029275912675075233,-0.00017827645933721215,0.00014578294940292835,0.00041997875086963177,0.1699613332748413,-0.7759186029434204,0.023039786145091057,0.15343144536018372,-0.3229004740715027,0.00011229515075683594
1749042145.230296,0.807986319065094,-0.5673032563975831,-1.002455234527588,2.2197300630756835,0.4477059841156006,-2.777187172566549,-7.453525176970288e-05,0.0014168588677421212,0.0002725879312492907,-0.00015963295300025493,0.00014120693958830088,0.0003522761107888073,0.1755291074514389,-0.751228392124176,0.032340697944164276,0.17711299657821655,-0.323625385761261,-0.007372468709945679
1749042145.2303421,0.8079708218574524,-0.5673380655101319,-1.0024516582489014,2.2197109895893554,0.44774049520492554,-2.777156178151266,-7.253194780787453e-05,0.0020013407338410616,0.0002568627241998911,-0.0001361125468974933,0.00013690939522348344,0.00040865581831894815,0.16211527585983276,-0.7846043109893799,0.02531689777970314,0.16668516397476196,-0.3266138434410095,0.0037238001823425293
1749042145.2303832,0.8079671263694763,-0.5673225683024903,-1.0024516582489014,2.2197229105183105,0.44773221015930176,-2.7771835962878626,-7.063560042297468e-05,0.0014669133815914392,0.00028820656007155776,-0.00010993639443768188,0.0001328659272985533,0.0008031799807213247,0.1697239726781845,-0.7771784067153931,0.01080181822180748,0.1859665811061859,-0.3205593228340149,0.00433233380317688
1749042145.2304223,0.8079707622528076,-0.5673106473735352,-1.0024361610412598,2.2197395998188476,0.44771674275398254,-2.7771716753589075,-6.883480818942189e-05,0.0011529071489349008,0.0002764103119261563,-3.339268732815981e-05,0.0001290543586947024,0.001626724610105157,0.16461791098117828,-0.779554545879364,0.014016741886734962,0.17879396677017212,-0.3177000880241394,0.024921610951423645
1749042145.2304606,0.8079900145530701,-0.5673452180675049,-1.0024361610412598,2.2197229105183105,0.4477250277996063,-2.7771359125720423,-6.712246249662712e-05,0.0009497539140284061,0.00026313087437301874,0.00010901507630478591,0.00012545561185106635,0.003961874637752771,0.17618001997470856,-0.7661755681037903,0.025283239781856537,0.20424091815948486,-0.3234187364578247,0.014040753245353699
1749042145.2304986,0.8079546093940735,-0.5673487943461915,-1.0024443864822388,2.2197035986134033,0.4476747512817383,-2.7771430651294153,-6.549532554345205e-05,0.000807529897429049,0.00025090438430197537,0.00017624429892748594,0.00012205216626171023,0.005469141062349081,0.1742132306098938,-0.7570621371269226,0.03764414042234421,0.1945316195487976,-0.323253870010376,0.01737174391746521
1749042145.2305362,0.8079390525817871,-0.5673177999309083,-1.0024397373199463,2.219755097026489,0.447706013917923,-2.7771204153644007,-6.394412775989622e-05,0.0007024021469987929,0.00023977023374754936,0.0013774451799690723,0.0001188285750686191,0.006531006656587124,0.1651601493358612,-0.7759295105934143,0.01895097643136978,0.20787295699119568,-0.329471230506897,0.0237094908952713
1749042145.2305734,0.8079826831817627,-0.5673261445811768,-1.0024397373199463,2.219719095821045,0.44774413108825684,-2.7771275679217737,-6.24638341832906e-05,0.0006215058965608478,0.0002295744197908789,0.0014689321396872401,0.00011577077384572476,0.0071740769781172276,0.14089618623256683,-0.7536376714706421,0.011955423280596733,0.1964474469423294,-0.3368483781814575,0.034324854612350464
1749042145.2306104,0.8079235553741455,-0.5673416417888184,-1.0024516582489014,2.219714565868042,0.4477369487285614,-2.777112070714132,-6.105225475039333e-05,0.0006202410440891981,0.0002202034229412675,0.0012502636527642608,0.00011286653898423538,0.007573520764708519,0.1551308035850525,-0.7393969297409058,0.03475173935294151,0.23608450591564178,-0.3579440116882324,0.06331157684326172
1749042145.230647,0.8079620003700256,-0.5673696559718628,-1.0024516582489014,2.2197395998188476,0.4477214813232422,-2.7770994345294397,-5.970236816210672e-05,0.0005890696193091571,0.00022884229838382453,0.0011340297060087323,0.00011010438174707815,0.008946405723690987,0.15586967766284943,-0.7574520707130432,0.040192872285842896,0.2283192127943039,-0.3511697053909302,0.06786611676216125
1749042145.2306836,0.807986319065094,-0.5673416417888184,-1.0024361610412598,2.219719095821045,0.44775599241256714,-2.777072254811422,-5.841000529471785e-05,0.0005389252328313887,0.0002363600069656968,0.000998262083157897,0.00010747429041657597,0.01098793838173151,0.14733199775218964,-0.7591131925582886,0.03401608392596245,0.24353857338428497,-0.3601612448692322,0.07672542333602905
1749042145.2307205,0.8079909682273865,-0.567348913555481,-1.002455234527588,2.2197229105183105,0.4477286636829376,-2.7770639101611536,-5.717397652915679e-05,0.0004964450490660965,0.0002530086203478277,0.001081543741747737,8.777193579589948e-05,0.014369115233421326,0.14428019523620605,-0.7454658150672913,0.046769872307777405,0.25884079933166504,-0.3765321373939514,0.0690351128578186
1749042145.2307577,0.8079790472984314,-0.5673177999309083,-1.0024516582489014,2.2196919161030273,0.4477250576019287,-2.777062718068258,-5.598838470177725e-05,0.0004601798427756876,0.00025266315788030624,0.00245476677082479,8.273039566120133e-05,0.016925152391195297,0.13960759341716766,-0.7820056676864624,0.047285377979278564,0.26362478733062744,-0.4004085063934326,0.07153673470020294
1749042145.2307947,0.8079790472984314,-0.5673177999309083,-1.0024516582489014,2.2196919161030273,0.4477250576019287,-2.777062718068258,-5.598838470177725e-05,0.0004601798427756876,0.00025266315788030624,0.00245476677082479,8.273039566120133e-05,0.016925152391195297,0.13960759341716766,-0.7820056676864624,0.047285377979278564,0.26362478733062744,-0.4004085063934326,0.07153673470020294
1749042145.2308314,0.8079707622528076,-0.5673368734172364,-1.0024433135986328,2.2197751241871337,0.44774049520492554,-2.7769954840289515,-5.37588020961266e-05,0.0004015097511000931,0.00043171714060008526,0.005618819035589695,-1.4078730600886047e-05,0.02072826400399208,0.11098337173461914,-0.7850490808486938,0.05532409995794296,0.28055423498153687,-0.4167724847793579,0.0575435608625412
1749042145.2308686,0.8079635500907898,-0.5673380655101319,-1.0024516582489014,2.2197834688374023,0.44774046540260315,-2.776900831853048,-5.270941255730577e-05,0.00037745170993730426,0.001824779435992241,0.006531061604619026,-6.612070137634873e-05,0.021815607324242592,0.1272452026605606,-0.8012549877166748,0.047526925802230835,0.26128089427948,-0.41989874839782715,0.060108497738838196
1749042145.2309048,0.8079826831817627,-0.567295030956604,-1.0024278163909912,2.219787045116089,0.44769376516342163,-2.7768996397601526,-5.169949145056307e-05,0.00013655039947479963,0.0025226592551916838,0.006834541447460651,-0.0007475290913134813,0.020255565643310547,0.11101711541414261,-0.8133053779602051,0.055563122034072876,0.2905217409133911,-0.43768659234046936,0.052917808294296265
1749042145.2309413,0.8079826831817627,-0.5673524898341675,-1.0024433135986328,2.219810886973999,0.4477059841156006,-2.7768264452563685,-5.0728704081848264e-05,0.00010535523324506357,0.0025491914711892605,0.0072792875580489635,-0.001671111793257296,0.01970084384083748,0.12873707711696625,-0.8161228895187378,0.05186149477958679,0.28481099009513855,-0.4645979106426239,0.06491446495056152
1749042145.2309773,0.8079826831817627,-0.5672877591899415,-1.0024313926696777,2.2197882372089843,0.447706013917923,-2.7768054644214075,-4.979326331522316e-05,9.931493696058169e-05,0.0024430355988442898,0.007764375302940607,-0.0019604996778070927,0.019613148644566536,0.10232365131378174,-0.8455528616905212,0.061533719301223755,0.3134653568267822,-0.4673486053943634,0.07335156202316284
1749042145.231027,0.8079546093940735,-0.5673644107631226,-1.0024158954620361,2.2198352056690673,0.4477393925189972,-2.7767887751208704,-4.889100819127634e-05,4.857964813709259e-05,0.002495278837159276,0.010144493542611599,-0.0021504226606339216,0.019463689997792244,0.10336794704198837,-0.8639891743659973,0.06975771486759186,0.2943723201751709,-0.48309406638145447,0.07822386920452118
1749042145.2311316,0.8079707622528076,-0.5673697751811524,-1.0024278163909912,2.2198471265980224,0.44768548011779785,-2.7767565886126917,-6.35256728855893e-05,4.473558146855794e-05,0.002463221549987793,0.011606563813984394,-0.0028180426452308893,0.020378371700644493,0.09775976836681366,-0.885618269443512,0.07705330848693848,0.323799192905426,-0.47809866070747375,0.07637979090213776
1749042145.2330534,0.8079707622528076,-0.5673697751811524,-1.0024278163909912,2.2198471265980224,0.44768548011779785,-2.7767565886126917,-6.35256728855893e-05,4.473558146855794e-05,0.002463221549987793,0.011606563813984394,-0.0028180426452308893,0.020378371700644493,0.09775976836681366,-0.885618269443512,0.07705330848693848,0.323799192905426,-0.47809866070747375,0.07637979090213776
1749042145.2742753,0.8079826831817627,-0.5673261445811768,-1.0023843050003052,2.219891234035156,0.4476926624774933,-2.7766619364367884,-5.8881199947791174e-05,4.205473658203118e-08,0.004440562333911657,0.013986604288220406,-0.006850359495729208,0.020985135808587074,0.0851610004901886,-0.901652991771698,0.08866479992866516,0.3164018392562866,-0.5006530284881592,0.10083546489477158
1749042145.274321,0.8079509735107422,-0.5673732322505494,-1.0024195909500122,2.219931049937866,0.4476720690727234,-2.776601854954855,-8.087280730251223e-05,4.103115069931107e-10,0.004942219238728285,0.014734179712831974,-0.0088990842923522,0.0229831263422966,0.09650708734989166,-0.9150975346565247,0.07004857063293457,0.309526264667511,-0.4974822402000427,0.11450101435184479
1749042145.274362,0.8079473972320557,-0.5673535627177735,-1.002357006072998,2.21995131551709,0.44762563705444336,-2.7765970865832728,-0.00010730535723268986,4.003247820044686e-12,0.004775106441229582,0.015998415648937225,-0.009289152920246124,0.024142462760210037,0.06071087718009949,-0.9312776923179626,0.06209953874349594,0.3156479001045227,-0.5203205943107605,0.1311047375202179
1749042145.2744021,0.8079745173454285,-0.5673261445811768,-1.0023605823516846,2.219982309932373,0.4475753605365753,-2.776557747517721,-0.0009408885962329805,3.9058115601378965e-14,0.004459092393517494,0.016657309606671333,-0.010124966502189636,0.02647504210472107,0.0636814758181572,-0.9282291531562805,0.07397071272134781,0.29716992378234863,-0.5102612376213074,0.14938978850841522
1749042145.2744477,0.8079745173454285,-0.5673261445811768,-1.0023486614227295,2.2200495439716796,0.4475860893726349,-2.776501719151632,-0.0014325798256322742,3.8107464372533217e-16,0.0048329150304198265,0.016509350389242172,-0.012272217310965061,0.0290983933955431,0.07907481491565704,-0.9596396088600159,0.0959838330745697,0.3081350326538086,-0.5139155983924866,0.13677924871444702
1749042145.2744997,0.8079745173454285,-0.5673497480205079,-1.002364158630371,2.2200626569935302,0.44752737879753113,-2.7764416376696985,-0.0017391475848853588,-0.0009468150092288852,0.005383065901696682,0.01640469953417778,-0.013635543175041676,0.031590044498443604,0.08094078302383423,-0.9306010603904724,0.07480518519878387,0.28313907980918884,-0.5162283182144165,0.14162494242191315
1749042145.274541,0.8080055713653564,-0.56735713899646,-1.002352237701416,2.22010247289624,0.4475104510784149,-2.7763693968402308,-0.001637578709051013,-0.0008274131687358022,0.005773614626377821,0.016123956069350243,-0.014840273186564445,0.03254615515470505,0.08100181818008423,-0.9725942015647888,0.08172276616096497,0.29717323184013367,-0.5138433575630188,0.14717064797878265
1749042145.274581,0.8079391121864319,-0.5673644107631226,-1.0023438930511475,2.2201036649891357,0.44751399755477905,-2.7762749830829065,-0.0014712575357407331,-0.0008374361786991358,0.006013739854097366,0.01582932658493519,-0.015162340365350246,0.03512664511799812,0.0652279183268547,-0.9853318333625793,0.07210351526737213,0.28400570154190063,-0.51253342628479,0.16240541636943817
1749042145.2746196,0.8079308867454529,-0.5673644107631226,-1.002347469329834,2.220167322749756,0.4474818706512451,-2.776238028203146,-0.0013584450352936983,-0.0008077770471572876,0.0059236264787614346,0.015520025044679642,-0.017032165080308914,0.03701287508010864,0.05829640477895737,-1.011017084121704,0.0778924822807312,0.2921205759048462,-0.5083573460578918,0.1624542772769928
1749042145.2746575,0.8079546093940735,-0.5673696559718628,-1.002335548400879,2.2202071386524658,0.447449266910553,-2.7761130968676966,-0.001065863762050867,-0.0008417586795985699,0.005712429992854595,0.015344733372330666,-0.018713362514972687,0.039741430431604385,0.03737916797399521,-0.9909255504608154,0.09227180480957031,0.28143078088760376,-0.4952452480792999,0.16319963335990906
1749042145.2746952,0.8079272508621216,-0.5673380655101319,-1.0023200511932373,2.22026173650708,0.44740962982177734,-2.7760444323169153,-0.0011797243496403098,-0.0009583532228134573,0.006401316728442907,0.014513581991195679,-0.01843523420393467,0.04273214936256409,0.023163702338933945,-1.033254623413086,0.08802451193332672,0.2931976914405823,-0.4872100353240967,0.16289857029914856
1749042145.2747326,0.8079620003700256,-0.567380504017212,-1.0022921562194824,2.2202862936207275,0.44733762741088867,-2.775998655949728,-0.0019401084864512086,-0.0011011010501533747,0.007202641572803259,0.013774418272078037,-0.018179098144173622,0.04602683335542679,0.017948124557733536,-1.0500621795654297,0.08644016087055206,0.2916176915168762,-0.47506752610206604,0.17197205126285553
1749042145.27477,0.8079464435577393,-0.5673116010478516,-1.0022611618041992,2.220306559199951,0.447310209274292,-2.7758610884295862,-0.0021138438023626804,-0.002514471532776952,0.007234855554997921,0.014307111501693726,-0.01702823117375374,0.04626721516251564,0.03418184444308281,-1.01780366897583,0.08065594732761383,0.31407371163368225,-0.46524977684020996,0.18850325047969818
1749042145.274807,0.8079345226287842,-0.5673814576915284,-1.002302885055542,2.2203029829212646,0.4472932517528534,-2.7757609526263636,-0.0028329105116426945,-0.002939107595011592,0.00701504060998559,0.014942960813641548,-0.014537514187395573,0.047518663108348846,0.04511382803320885,-1.022423505783081,0.11506940424442291,0.29389896988868713,-0.4776540696620941,0.1971644163131714
1749042145.2748446,0.8079656362533569,-0.5673814576915284,-1.002244472503662,2.220369501704834,0.44724297523498535,-2.7756617704974573,-0.002883305074647069,-0.0029177602846175432,0.007555840071290731,0.0152223976328969,-0.012985301204025745,0.05020871013402939,0.03429804742336273,-1.0321815013885498,0.08846797049045563,0.28880608081817627,-0.4937421381473541,0.20285427570343018
1749042145.2748847,0.8079189658164978,-0.5673778814128418,-1.0022671222686768,2.2203749853321533,0.44724535942077637,-2.775569264088766,-0.0024407715536653996,-0.002806002739816904,0.007694910746067762,0.015471059828996658,-0.012924842536449432,0.05396357923746109,0.00967470183968544,-1.047717809677124,0.11532855033874512,0.2761000394821167,-0.4876387417316437,0.1903040111064911
1749042145.2749305,0.8078693747520447,-0.5673659604838868,-1.0022398233413696,2.2203988271900634,0.44716766476631165,-2.7754574457751673,-0.002468275837600231,-0.00314088212326169,0.00770564517006278,0.016438666731119156,-0.012793779373168945,0.056924641132354736,0.013307586312294006,-1.0522615909576416,0.10102331638336182,0.31378379464149475,-0.4893004894256592,0.19300413131713867
1749042145.2749805,0.8079189658164978,-0.5673707288554688,-1.0022361278533936,2.220419092769287,0.4471712112426758,-2.7753573099719446,-0.0026542716659605503,-0.00496003869920969,0.00783469807356596,0.016920970752835274,-0.012239620089530945,0.05904150381684303,0.018604345619678497,-1.0395700931549072,0.1128867119550705,0.28430432081222534,-0.48929494619369507,0.1921779364347458
1749042145.2750235,0.8079296946525574,-0.5673826497844239,-1.0022118091583252,2.220470829600952,0.4471384584903717,-2.7752187887774866,-0.0034132522996515036,-0.005311093758791685,0.008219930343329906,0.017440319061279297,-0.011794487945735455,0.06016860157251358,0.018538545817136765,-1.0539473295211792,0.10384023189544678,0.31884947419166565,-0.4991706311702728,0.18953871726989746
1749042145.275061,0.8078765869140625,-0.5674136441997071,-1.002180814743042,2.220529003734253,0.4471302032470703,-2.7750681082354944,-0.004344816319644451,-0.006105923559516668,0.00876748189330101,0.018367379903793335,-0.010649632662534714,0.06174971163272858,0.01472584530711174,-1.0584931373596191,0.12095731496810913,0.3176358640193939,-0.5016252398490906,0.19747048616409302
1749042145.2752628,0.8078800439834595,-0.5674291414073487,-1.0021724700927734,2.2205511766621093,0.4471111297607422,-2.774924341832296,-0.004256011452525854,-0.006130477413535118,0.008553429506719112,0.02006521075963974,-0.010676931589841843,0.06339959800243378,-0.002943221479654312,-1.0540045499801636,0.11096730828285217,0.3182402551174164,-0.5290891528129578,0.20641735196113586
1749042145.2770522,0.8078800439834595,-0.5674136441997071,-1.0021599531173706,2.220578594798706,0.4470823109149933,-2.7748220602618616,-0.003984325565397739,-0.006646350026130676,0.008755436167120934,0.02109319344162941,-0.011998234316706657,0.06422073394060135,0.024135641753673553,-1.0457245111465454,0.12345652282238007,0.30256402492523193,-0.5246118903160095,0.21420225501060486
1749042145.3182836,0.807848334312439,-0.5674302142909546,-1.002148151397705,2.220646305675171,0.4470355808734894,-2.7746527830706995,-0.0043630218133330345,-0.007068010047078133,0.009045838378369808,0.022149140015244484,-0.012794705107808113,0.06567485630512238,-0.020040128380060196,-1.0758825540542603,0.1242394745349884,0.30836719274520874,-0.524456799030304,0.2365032285451889
1749042145.3183308,0.8078474998474121,-0.5674655002406617,-1.0021201372146606,2.2206665712543945,0.44707369804382324,-2.7745633761035364,-0.004466400947421789,-0.007344401907175779,0.009760336019098759,0.022674262523651123,-0.013596880249679089,0.06739217787981033,-0.012827221304178238,-1.0762614011764526,0.12048137933015823,0.3020584285259247,-0.5376875400543213,0.23201784491539001
1749042145.3183713,0.8078436851501465,-0.5674494069865723,-1.0021119117736816,2.220719023341797,0.44702577590942383,-2.7743824164019983,-0.004470149986445904,-0.007422083523124456,0.00967484526336193,0.023125341162085533,-0.015141692943871021,0.06906233727931976,-0.003012973815202713,-1.0765925645828247,0.11942970752716064,0.30922412872314453,-0.5373059511184692,0.23411275446414948
1749042145.3184104,0.8078391551971436,-0.567454532986023,-1.0021071434020996,2.2207552629658203,0.44701266288757324,-2.7742536703692835,-0.004655561409890652,-0.0073323664255440235,0.01023330818861723,0.024417998269200325,-0.016175301745533943,0.07237212359905243,-0.006643339991569519,-1.096398949623108,0.1258832812309265,0.30348074436187744,-0.5319026112556458,0.24348080158233643
1749042145.3184485,0.8078717589378357,-0.5674820703319092,-1.0020606517791748,2.220834417934082,0.4469587504863739,-2.774090592061178,-0.004747934639453888,-0.007511465810239315,0.010820524767041206,0.02516857534646988,-0.016806168481707573,0.0773700550198555,-0.006107907742261887,-1.0913177728652954,0.1302989423274994,0.32416656613349915,-0.5408993363380432,0.23086223006248474
1749042145.3184874,0.8078702688217163,-0.5675249856761475,-1.0020523071289062,2.2208890157886962,0.4469025135040283,-2.7739394346820276,-0.0053582508116960526,-0.007799146696925163,0.01053683552891016,0.02612118609249592,-0.016899490728974342,0.07764558494091034,-0.0011511743068695068,-1.1069443225860596,0.13121628761291504,0.324374258518219,-0.5357979536056519,0.22975312173366547
1749042145.3185248,0.8078272342681885,-0.5674784940532227,-1.0020124912261963,2.220949335689209,0.44684749841690063,-2.7738023439990442,-0.005222528241574764,-0.008173886686563492,0.010832777246832848,0.027194643393158913,-0.01840149611234665,0.07803050428628922,-0.014076679944992065,-1.089585304260254,0.14468197524547577,0.3275550901889801,-0.5468271970748901,0.24988959729671478
1749042145.3185623,0.8078427910804749,-0.5675406020930787,-1.0020041465759277,2.220989628429077,0.44685816764831543,-2.7736316362964075,-0.005537433084100485,-0.007898399606347084,0.011505382135510445,0.028289619833230972,-0.020097102969884872,0.08252055943012238,-0.010228006169199944,-1.1294898986816406,0.12637855112552643,0.30453258752822876,-0.5284205675125122,0.23598125576972961
1749042145.3185995,0.8078235983848572,-0.5675531190684815,-1.0019886493682861,2.2210468488880615,0.4467751979827881,-2.7734599749194544,-0.005645771976560354,-0.008918856270611286,0.01175934448838234,0.029044948518276215,-0.020129255950450897,0.0861973688006401,-0.02705853246152401,-1.1262167692184448,0.12327089160680771,0.324815571308136,-0.5337617993354797,0.2120542973279953
1749042145.318637,0.8078391551971436,-0.5675494235805054,-1.001952886581421,2.2211105066486816,0.446781188249588,-2.77328068414797,-0.00557278236374259,-0.009511117823421955,0.012019218876957893,0.030228978022933006,-0.02086280845105648,0.09059631824493408,-0.052211739122867584,-1.1090803146362305,0.12524542212486267,0.30216556787490845,-0.5251250267028809,0.21864651143550873
1749042145.318674,0.8078391551971436,-0.5675494235805054,-1.001952886581421,2.2211105066486816,0.446781188249588,-2.77328068414797,-0.00557278236374259,-0.009511117823421955,0.012019218876957893,0.030228978022933006,-0.02086280845105648,0.09059631824493408,-0.052211739122867584,-1.1090803146362305,0.12524542212486267,0.30216556787490845,-0.5251250267028809,0.21864651143550873
1749042145.318711,0.8077608346939087,-0.5676093858531495,-1.0019166469573975,2.2212301927753906,0.4466710686683655,-2.7729535738574427,-0.006307749077677727,-0.010189363732933998,0.011702687479555607,0.031803540885448456,-0.020709320902824402,0.09080179780721664,-0.07102513313293457,-1.127143383026123,0.1534472107887268,0.3036419749259949,-0.5351239442825317,0.21733458340168
1749042145.3187478,0.8078033924102783,-0.5676248830607911,-1.001939296722412,2.2212866979786376,0.4466421604156494,-2.772738281880514,-0.006658053025603294,-0.009361527860164642,0.011342383921146393,0.03181038051843643,-0.02132113091647625,0.09494287520647049,-0.04489484429359436,-1.1409108638763428,0.1339658796787262,0.3121108412742615,-0.5471864938735962,0.2411392331123352
1749042145.3187847,0.8078033924102783,-0.5676248830607911,-1.001939296722412,2.2212866979786376,0.4466421604156494,-2.772738281880514,-0.006658053025603294,-0.009361527860164642,0.011342383921146393,0.03181038051843643,-0.02132113091647625,0.09494287520647049,-0.04489484429359436,-1.1409108638763428,0.1339658796787262,0.3121108412742615,-0.5471864938735962,0.2411392331123352
1749042145.3188221,0.8077671527862549,-0.5676613611033936,-1.0018880367279053,2.221421642894409,0.4465150237083435,-2.772355381642477,-0.0060024322010576725,-0.009538781829178333,0.010879321955144405,0.032881662249565125,-0.021621501073241234,0.09624279290437698,-0.09675570577383041,-1.137686014175415,0.16527047753334045,0.3130323588848114,-0.5586429238319397,0.2548413872718811
1749042145.318862,0.8077863454818726,-0.5676658910563965,-1.0018513202667236,2.2215253549763183,0.44644787907600403,-2.77216083208193,-0.0057708038948476315,-0.010288184508681297,0.010664193890988827,0.033620961010456085,-0.024124084040522575,0.0980183407664299,-0.06353636085987091,-1.1078159809112549,0.15008977055549622,0.2969217002391815,-0.540088951587677,0.23723158240318298
1749042145.3188994,0.8077396750450134,-0.5676897329143067,-1.001823902130127,2.221573515529297,0.4463927745819092,-2.772034470235006,-0.006263278424739838,-0.009640657342970371,0.010502633638679981,0.03461796045303345,-0.024224411696195602,0.09900058805942535,-0.05774477496743202,-1.1276825666427612,0.16054826974868774,0.3193713426589966,-0.5605544447898865,0.2605067491531372
1749042145.3189483,0.8077625036239624,-0.5677369397929688,-1.0018119812011719,2.2216293054768066,0.4463675022125244,-2.771808687840597,-0.006812077946960926,-0.009664076380431652,0.010829014703631401,0.033049147576093674,-0.025242038071155548,0.09947863966226578,-0.06573585420846939,-1.158474326133728,0.15877747535705566,0.28960129618644714,-0.5360246896743774,0.23984351754188538
1749042145.318999,0.8077204823493958,-0.5677570861629029,-1.0018036365509033,2.221716805095337,0.44631603360176086,-2.771586004887716,-0.007336996495723724,-0.009699221700429916,0.010677733458578587,0.03304238244891167,-0.024239830672740936,0.10010363161563873,-0.08952836692333221,-1.1275732517242432,0.16831405460834503,0.3129741847515106,-0.5539519190788269,0.22518861293792725
1749042145.3190389,0.8076967000961304,-0.5677098792842408,-1.0017726421356201,2.2217818933674316,0.4462990462779999,-2.7713895479785364,-0.006426012609153986,-0.009489743039011955,0.010938510298728943,0.03313778340816498,-0.024464910849928856,0.10148995369672775,-0.09064974635839462,-1.1562378406524658,0.16458603739738464,0.2888997793197632,-0.549592137336731,0.21951842308044434
1749042145.3191483,0.8077002763748169,-0.567789153461792,-1.0017554759979248,2.2218455511280517,0.44622373580932617,-2.7712133566485804,-0.006249098107218742,-0.009196626953780651,0.010565632954239845,0.03368396684527397,-0.02504131570458412,0.10033208876848221,-0.09206042438745499,-1.1651611328125,0.16527703404426575,0.2818051278591156,-0.5377449989318848,0.24171896278858185
1749042145.321017,0.8076794743537903,-0.5677581590465088,-1.0017399787902832,2.2219371038624267,0.446151465177536,-2.770982805882589,-0.006528467405587435,-0.009059952571988106,0.010599830187857151,0.03351637348532677,-0.025324968621134758,0.10044556856155396,-0.09281157702207565,-1.1491529941558838,0.1721806824207306,0.2988387644290924,-0.5482350587844849,0.23663724958896637
1749042145.362272,0.8077222108840942,-0.567780928020813,-1.0017316341400146,2.2219621378132324,0.4460999667644501,-2.7708144823657435,-0.0064742062240839005,-0.008654233999550343,0.010627119801938534,0.03364625945687294,-0.025780221447348595,0.10028931498527527,-0.05330575257539749,-1.1590945720672607,0.17839662730693817,0.2931281328201294,-0.531428873538971,0.22248005867004395
1749042145.3623176,0.8077066540718079,-0.5678094190410157,-1.001704216003418,2.22205297529187,0.4460783004760742,-2.770547930394308,-0.006048017181456089,-0.008986145257949829,0.010651576332747936,0.033888060599565506,-0.02509780041873455,0.09913752228021622,-0.058465249836444855,-1.1666063070297241,0.17255806922912598,0.29137349128723145,-0.5287596583366394,0.21274897456169128
1749042145.3623586,0.807671308517456,-0.567833737736084,-1.0016958713531494,2.2221595483967285,0.4459958076477051,-2.770365301762716,-0.005381629802286625,-0.008378188125789165,0.011084156110882759,0.03300120681524277,-0.025774285197257996,0.09858039766550064,-0.0808635801076889,-1.1476463079452515,0.1811816245317459,0.3037576675415039,-0.5251412391662598,0.23383301496505737
1749042145.3623977,0.8076136708259583,-0.5678420823863526,-1.0016560554504395,2.22219364225354,0.44599825143814087,-2.7701926867114466,-0.00489685358479619,-0.008020698092877865,0.011547494679689407,0.032780587673187256,-0.024407604709267616,0.09873500466346741,-0.09031295776367188,-1.1559762954711914,0.18319852650165558,0.28967219591140747,-0.5457446575164795,0.2085566222667694
1749042145.3624387,0.8076282739639282,-0.5678146642497559,-1.0016405582427979,2.2222494322010498,0.44589996337890625,-2.7700169722186487,-0.005547821056097746,-0.00828604493290186,0.010912134312093258,0.032577868551015854,-0.024439716711640358,0.09863285720348358,-0.09698908030986786,-1.1762499809265137,0.18407875299453735,0.3081965446472168,-0.5516980290412903,0.2615005373954773
1749042145.362477,0.8076282739639282,-0.5678146642497559,-1.0016405582427979,2.2222494322010498,0.44589996337890625,-2.7700169722186487,-0.005547821056097746,-0.00828604493290186,0.010912134312093258,0.032577868551015854,-0.024439716711640358,0.09863285720348358,-0.09698908030986786,-1.1762499809265137,0.18407875299453735,0.3081965446472168,-0.5516980290412903,0.2615005373954773
1749042145.3625154,0.8076236248016357,-0.5678695005229493,-1.0016155242919922,2.2223893839069824,0.4458194375038147,-2.769606653844015,-0.006439829710870981,-0.008243598975241184,0.01130867749452591,0.03261592611670494,-0.02474994957447052,0.09802326560020447,-0.09221601486206055,-1.1699503660202026,0.17422717809677124,0.3050999045372009,-0.5514158606529236,0.2340816855430603
1749042145.3625531,0.8075997829437256,-0.5678933423808594,-1.001575231552124,2.222438259715698,0.4458024501800537,-2.769406859074728,-0.0054571060463786125,-0.008311246521770954,0.011362182907760143,0.03324804827570915,-0.025296131148934364,0.09841977804899216,-0.10306329280138016,-1.2052648067474365,0.2133306860923767,0.2987944185733795,-0.5551711320877075,0.24370068311691284
1749042145.362595,0.807615339756012,-0.5679176610759278,-1.001563310623169,2.222524328822754,0.4457738995552063,-2.769172016774313,-0.005381776485592127,-0.00915598962455988,0.012004604563117027,0.03431360423564911,-0.025408810004591942,0.09899182617664337,-0.08454892039299011,-1.1869539022445679,0.17920076847076416,0.29741519689559937,-0.5539003014564514,0.24230702221393585
1749042145.3626359,0.8076190948486328,-0.5679295820048829,-1.0015358924865723,2.2225772577473144,0.44566696882247925,-2.7689688841449183,-0.005791566334664822,-0.008530392311513424,0.011774306185543537,0.03369423747062683,-0.02640492655336857,0.10310760140419006,-0.09266474843025208,-1.1949474811553955,0.1973874270915985,0.30789345502853394,-0.5566996932029724,0.20244255661964417
1749042145.3626728,0.8075525164604187,-0.5679224294475098,-1.0015156269073486,2.222649498576782,0.44562774896621704,-2.768792692814962,-0.006707257591187954,-0.007905490696430206,0.012259704992175102,0.034093327820301056,-0.025845248252153397,0.10092051327228546,-0.11412107944488525,-1.2005536556243896,0.193445086479187,0.29288941621780396,-0.5484476089477539,0.2179301232099533
1749042145.3627098,0.807610809803009,-0.5679726165584107,-1.0014877319335938,2.222705526942871,0.44556400179862976,-2.768585507069723,-0.006854630541056395,-0.007967934012413025,0.012023905292153358,0.0338471494615078,-0.026564674451947212,0.10041536390781403,-0.10866858065128326,-1.2217613458633423,0.18282786011695862,0.3033490478992462,-0.5432875752449036,0.23563702404499054
1749042145.362746,0.807610809803009,-0.5679726165584107,-1.0014877319335938,2.222705526942871,0.44556400179862976,-2.768585507069723,-0.006854630541056395,-0.007967934012413025,0.012023905292153358,0.0338471494615078,-0.026564674451947212,0.10041536390781403,-0.10866858065128326,-1.2217613458633423,0.18282786011695862,0.3033490478992462,-0.5432875752449036,0.23563702404499054
1749042145.3627827,0.8075636029243469,-0.5680052799037476,-1.0014591217041016,2.222841663951538,0.44545966386795044,-2.7682252565967005,-0.0062161399982869625,-0.009274004958570004,0.012724937871098518,0.03542115539312363,-0.026867585256695747,0.10273764282464981,-0.08998584747314453,-1.2006239891052246,0.19378578662872314,0.31866398453712463,-0.5568884015083313,0.23877501487731934
1749042145.3628185,0.8075313568115234,-0.5680135053447266,-1.0014317035675049,2.222925587291382,0.4453890919685364,-2.767996136342184,-0.0070243957452476025,-0.009120340459048748,0.012298254296183586,0.03607877343893051,-0.02609448879957199,0.10433193296194077,-0.12166226655244827,-1.2126742601394653,0.20716270804405212,0.31756144762039185,-0.574406623840332,0.23674705624580383
1749042145.3628547,0.8075313568115234,-0.5680135053447266,-1.0014317035675049,2.222925587291382,0.4453890919685364,-2.767996136342184,-0.0070243957452476025,-0.009120340459048748,0.012298254296183586,0.03607877343893051,-0.02609448879957199,0.10433193296194077,-0.12166226655244827,-1.2126742601394653,0.20716270804405212,0.31756144762039185,-0.574406623840332,0.23674705624580383
1749042145.362891,0.8075433373451233,-0.5680063527873536,-1.0013453960418701,2.2230533796497802,0.4452809989452362,-2.7675920168506067,-0.0078086550347507,-0.00990227423608303,0.012313042767345905,0.03795493021607399,-0.02746458537876606,0.10715056955814362,-0.1337985098361969,-1.21988046169281,0.20559662580490112,0.29581940174102783,-0.5412007570266724,0.25058531761169434
1749042145.3629286,0.8074997067451477,-0.568073109989502,-1.0013525485992432,2.223144455546997,0.44522804021835327,-2.7673850695239466,-0.006741703953593969,-0.009749889373779297,0.012993061915040016,0.03710527718067169,-0.0282345712184906,0.11173636466264725,-0.11917801201343536,-1.2385129928588867,0.19697974622249603,0.3206421732902527,-0.52854984998703,0.21289560198783875
1749042145.3629656,0.8074841499328613,-0.5680928987315674,-1.0013161897659302,2.223212881679199,0.44519928097724915,-2.767170015965597,-0.006680078338831663,-0.011284653097391129,0.013041536323726177,0.03722410276532173,-0.029520941898226738,0.10940181463956833,-0.1317538619041443,-1.2180593013763428,0.1997639238834381,0.3208257853984833,-0.5356016755104065,0.23260869085788727
1749042145.3630075,0.8075158596038818,-0.5681165021708985,-1.0012924671173096,2.223285599345825,0.44510456919670105,-2.766966168080465,-0.007400094997137785,-0.010638650506734848,0.013418471440672874,0.03726764768362045,-0.030259588733315468,0.10934200137853622,-0.10359850525856018,-1.2189862728118896,0.20190145075321198,0.33694344758987427,-0.5401409864425659,0.26159146428108215
1749042145.3631172,0.8074594140052795,-0.5680938524058838,-1.0012716054916382,2.2233540254780273,0.4450864791870117,-2.7667210737811487,-0.008046275936067104,-0.010685822926461697,0.013627342879772186,0.03853367641568184,-0.03015933185815811,0.10961250960826874,-0.12760667502880096,-1.216280221939087,0.21173718571662903,0.3145338296890259,-0.5409948825836182,0.28335338830947876
1749042145.3650396,0.8074521422386169,-0.5681565564921875,-1.0012788772583008,2.22341696798291,0.444993257522583,-2.7665041128741663,-0.008127555251121521,-0.0119447847828269,0.013375774025917053,0.0400153286755085,-0.030209314078092575,0.11590444296598434,-0.12976418435573578,-1.209192156791687,0.22015386819839478,0.31556224822998047,-0.5224155783653259,0.22868172824382782
1749042145.4062884,0.8074402213096619,-0.568169431095459,-1.0012359619140625,2.2235283094593505,0.4449402987957001,-2.7662647406207483,-0.007835731841623783,-0.009890418499708176,0.014072886668145657,0.04088488966226578,-0.02993357740342617,0.11401426047086716,-0.14617684483528137,-1.2394047975540161,0.2116519957780838,0.30913999676704407,-0.5362100005149841,0.23830489814281464
1749042145.4063382,0.8074548840522766,-0.56820102155719,-1.0012116432189941,2.223600311870239,0.4449028968811035,-2.766033713017599,-0.008434203453361988,-0.012288959696888924,0.014107342809438705,0.040103018283843994,-0.031083540990948677,0.11462347209453583,-0.12617841362953186,-1.2201474905014038,0.21468457579612732,0.30891478061676025,-0.5407800674438477,0.2663441300392151
1749042145.4063797,0.807420015335083,-0.5682330888560791,-1.0011794567108154,2.2236968713947753,0.44479984045028687,-2.7658069769488733,-0.008292511105537415,-0.01164063811302185,0.014358097687363625,0.04126257821917534,-0.03141814097762108,0.11553606390953064,-0.10850295424461365,-1.2186859846115112,0.21435993909835815,0.30477002263069153,-0.5259061455726624,0.27919629216194153
1749042145.4064183,0.8073956966400146,-0.5682414335063477,-1.001139521598816,2.223768635387085,0.4447724521160126,-2.765562121068136,-0.007767223287373781,-0.011090937070548534,0.014016483910381794,0.04171382635831833,-0.03246045112609863,0.11719199270009995,-0.13689324259757996,-1.2181897163391113,0.2196028232574463,0.31178659200668335,-0.5018912553787231,0.2656480669975281
1749042145.4064562,0.8073691129684448,-0.5682450097850342,-1.0011277198791504,2.2238680559345703,0.44470763206481934,-2.76530367532839,-0.007661773357540369,-0.011617613025009632,0.014610311947762966,0.04230266809463501,-0.030843574553728104,0.11932222545146942,-0.1513652503490448,-1.211568832397461,0.20929598808288574,0.30586838722229004,-0.5165486931800842,0.2479868084192276
1749042145.4064941,0.8073645830154419,-0.5683086675456543,-1.0010764598846436,2.22396366178479,0.44461292028427124,-2.765006128941671,-0.008567369543015957,-0.012451546266674995,0.014765727333724499,0.04250430688261986,-0.030840778723359108,0.12060914933681488,-0.14930187165737152,-1.223017930984497,0.22087234258651733,0.2969413697719574,-0.5084913372993469,0.2650356888771057
1749042145.406532,0.8073910474777222,-0.5682823222926636,-1.0010453462600708,2.2240239816853027,0.44455286860466003,-2.764801088963644,-0.008514180779457092,-0.011801298707723618,0.015167496167123318,0.04320669546723366,-0.030060062184929848,0.12169022113084793,-0.1666739583015442,-1.2538564205169678,0.21403774619102478,0.29793334007263184,-0.5262677073478699,0.2500930726528168
1749042145.4065695,0.8073719143867493,-0.5683408540538331,-1.0010125637054443,2.224105044002197,0.4445049464702606,-2.764580790196554,-0.00805220939218998,-0.011980397626757622,0.015211234800517559,0.041644517332315445,-0.030923200771212578,0.12196122854948044,-0.16027110815048218,-1.2244434356689453,0.21794047951698303,0.31136554479599,-0.5194638967514038,0.2394588589668274
1749042145.406607,0.8073288202285767,-0.5683372777751465,-1.0009961128234863,2.224188728923462,0.44449877738952637,-2.7643070856677454,-0.008112943731248379,-0.011533957906067371,0.014897100627422333,0.04121144115924835,-0.030749453231692314,0.12272198498249054,-0.16282227635383606,-1.231406569480896,0.22298485040664673,0.31994161009788513,-0.5036081075668335,0.24226915836334229
1749042145.406644,0.8073288202285767,-0.5683372777751465,-1.0009961128234863,2.224188728923462,0.44449877738952637,-2.7643070856677454,-0.008112943731248379,-0.011533957906067371,0.014897100627422333,0.04121144115924835,-0.030749453231692314,0.12272198498249054,-0.16282227635383606,-1.231406569480896,0.22298485040664673,0.31994161009788513,-0.5036081075668335,0.24226915836334229
1749042145.4066815,0.8072962164878845,-0.5683973592570801,-1.000959873199463,2.224372072810791,0.4443168640136719,-2.763855520878927,-0.008230213075876236,-0.01110993791371584,0.014768027700483799,0.04424832761287689,-0.031870681792497635,0.12335935980081558,-0.14173981547355652,-1.2318307161331177,0.21979910135269165,0.3128702938556671,-0.5049118995666504,0.24930687248706818
1749042145.4067185,0.8072807192802429,-0.5684247773936768,-1.000927209854126,2.224461002940796,0.44421717524528503,-2.763592545186178,-0.008386688306927681,-0.011376076377928257,0.01505090482532978,0.04458727315068245,-0.031600091606378555,0.12307669967412949,-0.13956624269485474,-1.2357985973358154,0.23626694083213806,0.2914502024650574,-0.5059959292411804,0.25960657000541687
1749042145.4067552,0.8072448968887329,-0.5684765142253418,-1.0008878707885742,2.224564476604126,0.4441690444946289,-2.763387982045309,-0.008750494569540024,-0.011949584819376469,0.015350447967648506,0.04445265606045723,-0.03144277259707451,0.12435054033994675,-0.15545786917209625,-1.247727394104004,0.23609711229801178,0.298453688621521,-0.5336378812789917,0.2706124186515808
1749042145.4067922,0.8072330355644226,-0.5684574407390137,-1.0008832216262817,2.2246600824543457,0.44409021735191345,-2.7630818525897425,-0.008785058744251728,-0.01181323267519474,0.01621081307530403,0.04403572157025337,-0.03097514994442463,0.1242804229259491,-0.15069282054901123,-1.2279911041259766,0.21373231709003448,0.3219742774963379,-0.5190865397453308,0.2844794988632202
1749042145.4068286,0.8072240948677063,-0.5685004752925416,-1.0008087158203125,2.2247559267231445,0.4440422058105469,-2.7628310362445276,-0.008642111904919147,-0.012298494577407837,0.015978412702679634,0.04407861828804016,-0.03100627101957798,0.1295427829027176,-0.1538904905319214,-1.227886438369751,0.2128826528787613,0.30238664150238037,-0.5272570848464966,0.26654037833213806
1749042145.4068651,0.8072200417518616,-0.568505124454834,-1.0007801055908203,2.224809094066284,0.44402408599853516,-2.7625866572009485,-0.009238606318831444,-0.01159471832215786,0.016498154029250145,0.04462917894124985,-0.03107074275612831,0.12714660167694092,-0.15480771660804749,-1.2307569980621338,0.23682990670204163,0.30108654499053955,-0.5363393425941467,0.28340330719947815
1749042145.4069057,0.8071770071983337,-0.5685289663127442,-1.0007909536361694,2.224916859264038,0.4439517855644226,-2.762296263371603,-0.008221023716032505,-0.01157376915216446,0.01584838330745697,0.044528402388095856,-0.03256596252322197,0.12803517282009125,-0.15949746966362,-1.2396385669708252,0.24292820692062378,0.30401816964149475,-0.530484676361084,0.2809796631336212
1749042145.4069436,0.8071459531784058,-0.5685413640788575,-1.0007164478302002,2.224989338512085,0.44386816024780273,-2.762040678654806,-0.00816346239298582,-0.011531318537890911,0.016476336866617203,0.04451928287744522,-0.0319993831217289,0.13278430700302124,-0.158422589302063,-1.2510699033737183,0.22299671173095703,0.3122110366821289,-0.5288824439048767,0.2741601765155792
1749042145.4069836,0.8071495890617371,-0.5685962003520508,-1.0006961822509766,2.2251123624989013,0.4438008964061737,-2.7617693583117884,-0.008841520175337791,-0.011899233795702457,0.0166305098682642,0.04530666396021843,-0.03141429275274277,0.1339021772146225,-0.1737629771232605,-1.2686262130737305,0.23604360222816467,0.29918190836906433,-0.5118255019187927,0.26027023792266846
1749042145.4070358,0.8071370124816895,-0.5686237376979371,-1.000678539276123,2.225149555797241,0.4437255859375,-2.7615249792682093,-0.009048412553966045,-0.012407948262989521,0.01659337803721428,0.045880816876888275,-0.03079184889793396,0.1340760588645935,-0.1609773486852646,-1.2578750848770142,0.2277337908744812,0.2970847189426422,-0.535394549369812,0.2561328113079071
1749042145.4071429,0.8071215152740479,-0.5685973924449463,-1.0006046295166016,2.2252840238758544,0.44371938705444336,-2.7612155119525355,-0.008962979540228844,-0.011718528345227242,0.017152421176433563,0.04681576043367386,-0.03132156282663345,0.1357753574848175,-0.16858512163162231,-1.2462669610977173,0.22374364733695984,0.3071271777153015,-0.542709469795227,0.27873367071151733
1749042145.4093995,0.8071205615997314,-0.5686565202525635,-1.000596284866333,2.2253643709370117,0.443651020526886,-2.7609215418445032,-0.00879843533039093,-0.012346397154033184,0.017464596778154373,0.046823084354400635,-0.0317324660718441,0.138630211353302,-0.16464248299598694,-1.2785027027130127,0.2413594126701355,0.30956214666366577,-0.5404183864593506,0.26157939434051514
1749042145.450285,0.8070811629295349,-0.5686610502055665,-1.0005600452423096,2.2254606920429687,0.4435384273529053,-2.7606645266162317,-0.00897324550896883,-0.012093394063413143,0.017248500138521194,0.04730251431465149,-0.032153286039829254,0.1384166181087494,-0.172392800450325,-1.260432481765747,0.22485099732875824,0.3044215440750122,-0.5606868863105774,0.24983224272727966
1749042145.4503412,0.8070884346961975,-0.5687166017344971,-1.0005087852478027,2.225564880962036,0.4434616267681122,-2.760392967854635,-0.008771979250013828,-0.012456156313419342,0.016360929235816002,0.04834466800093651,-0.03284173831343651,0.1438463181257248,-0.14207720756530762,-1.2632473707199097,0.23324719071388245,0.3099857568740845,-0.5685999393463135,0.2300589382648468
1749042145.450383,0.8071039915084839,-0.5687127870372315,-1.000507116317749,2.2256523805805664,0.44341379404067993,-2.7601335684405726,-0.008345103822648525,-0.012445618398487568,0.017115162685513496,0.047824155539274216,-0.03257860988378525,0.139973446726799,-0.1584804654121399,-1.2792738676071167,0.2272149920463562,0.31365376710891724,-0.5710768699645996,0.24324743449687958
1749042145.4504225,0.8070647120475769,-0.5687371057322999,-1.0004212856292725,2.225763722057007,0.4433571994304657,-2.759838644658224,-0.009640248492360115,-0.012718304991722107,0.01770901493728161,0.04978485405445099,-0.03357985243201256,0.13957872986793518,-0.17171499133110046,-1.2906012535095215,0.22429034113883972,0.3064424991607666,-0.5667505860328674,0.26084190607070923
1749042145.450461,0.8070210814476013,-0.5687765640071412,-1.0004236698150635,2.225860281581543,0.443285197019577,-2.7595840136157435,-0.008714362047612667,-0.013556621968746185,0.017691880464553833,0.050726838409900665,-0.03387680649757385,0.14377932250499725,-0.16842709481716156,-1.277906894683838,0.2318122386932373,0.30532020330429077,-0.5867526531219482,0.2480067014694214
1749042145.4504995,0.8069781064987183,-0.5687740606120606,-1.000360369682312,2.225971146220825,0.44324803352355957,-2.7592607180224817,-0.008514058776199818,-0.01260214950889349,0.018144290894269943,0.050355780869722366,-0.03414937108755112,0.14245674014091492,-0.1660061478614807,-1.27783203125,0.22570738196372986,0.30227386951446533,-0.5836111307144165,0.2923259437084198
1749042145.4505374,0.8069889545440674,-0.5688212674907227,-1.00034761428833,2.226029081935547,0.44314149022102356,-2.759007755910055,-0.00903038214892149,-0.013018383644521236,0.017667418345808983,0.04882005229592323,-0.035130832344293594,0.1459534466266632,-0.17325320839881897,-1.292752742767334,0.23878535628318787,0.3029603064060211,-0.6050517559051514,0.2755078375339508
1749042145.450575,0.8069745302200317,-0.5688257974437256,-1.0003113746643066,2.2261437612720947,0.4430694282054901,-2.7587173620807093,-0.008879795670509338,-0.012942296452820301,0.01767103560268879,0.04946574196219444,-0.035322342067956924,0.14916153252124786,-0.17751003801822662,-1.3007460832595825,0.2438540905714035,0.33311015367507935,-0.5953130722045898,0.28397655487060547
1749042145.4506128,0.8069335222244263,-0.5688843292048951,-1.0002756118774414,2.2262396055408935,0.44300925731658936,-2.7583630720721644,-0.009307208471000195,-0.013968202285468578,0.018431784585118294,0.053027283400297165,-0.036967597901821136,0.15409716963768005,-0.1737898886203766,-1.3052220344543457,0.2430332601070404,0.30782145261764526,-0.6247341632843018,0.2571793794631958
1749042145.4506493,0.8069335222244263,-0.5688843292048951,-1.0002756118774414,2.2262396055408935,0.44300925731658936,-2.7583630720721644,-0.009307208471000195,-0.013968202285468578,0.018431784585118294,0.053027283400297165,-0.036967597901821136,0.15409716963768005,-0.1737898886203766,-1.3052220344543457,0.2430332601070404,0.30782145261764526,-0.6247341632843018,0.2571793794631958
1749042145.450686,0.8069491386413574,-0.5688889783671875,-1.0002362728118896,2.226339502925537,0.44294095039367676,-2.758052174245016,-0.008654746226966381,-0.013577083125710487,0.018601318821310997,0.05270257219672203,-0.03718748316168785,0.1571691781282425,-0.17147159576416016,-1.2731133699417114,0.23346546292304993,0.31190258264541626,-0.6094874143600464,0.2415252923965454
1749042145.4507225,0.806897759437561,-0.5689718288234253,-1.0001869201660156,2.226560516948364,0.4427817165851593,-2.757444683705465,-0.009698665700852871,-0.014221085235476494,0.01905784197151661,0.055335551500320435,-0.03936911001801491,0.16002628207206726,-0.19476261734962463,-1.2887248992919922,0.22685615718364716,0.3200751841068268,-0.6065313816070557,0.221507728099823
1749042145.450759,0.806889533996582,-0.5690165323070069,-1.0001122951507568,2.2266596990772705,0.4426819980144501,-2.7571025530444544,-0.009652477689087391,-0.014590105041861534,0.01885596290230751,0.056684937328100204,-0.03999238833785057,0.1589837372303009,-0.16717413067817688,-1.3170329332351685,0.2455074042081833,0.3092331886291504,-0.5984765291213989,0.24683663249015808
1749042145.4507987,0.8068811893463135,-0.5690320295146485,-1.0000922679901123,2.226804419154785,0.44266751408576965,-2.756810728703634,-0.010144461877644062,-0.01460398081690073,0.019179627299308777,0.056775037199258804,-0.040260300040245056,0.15904240310192108,-0.1922643780708313,-1.3011022806167603,0.24412016570568085,0.31621578335762024,-0.6151025295257568,0.25627925992012024
1749042145.4508362,0.8068138360977173,-0.5690557521632691,-1.0000396966934204,2.226900263423584,0.44252607226371765,-2.756468121205465,-0.009700115770101547,-0.01462179608643055,0.019718362018465996,0.054935161024332047,-0.04066016897559166,0.15681368112564087,-0.18079602718353271,-1.2906259298324585,0.23114685714244843,0.307935893535614,-0.6102073192596436,0.24832747876644135
1749042145.4508731,0.8068366646766663,-0.569056825046875,-0.9999958872795105,2.227008028621338,0.44244223833084106,-2.7561801115619105,-0.009311997331678867,-0.014731447212398052,0.0194730032235384,0.05443233996629715,-0.042564764618873596,0.1560199111700058,-0.19879700243473053,-1.2773772478103638,0.2319474071264267,0.3194552958011627,-0.5965139865875244,0.2557678818702698
1749042145.4509096,0.8067899942398071,-0.5690811437419434,-0.9999523758888245,2.2271155554005126,0.44235798716545105,-2.755864922200338,-0.009771779179573059,-0.014693357981741428,0.01917337253689766,0.05560671165585518,-0.04340379685163498,0.15666314959526062,-0.17692162096500397,-1.3030296564102173,0.23024915158748627,0.316877543926239,-0.5983787775039673,0.2575145661830902
1749042145.4509456,0.8067848682403564,-0.5691324037364502,-0.9999430179595947,2.22723571836438,0.4422779977321625,-2.7555235067950647,-0.009814216755330563,-0.014481288380920887,0.019571170210838318,0.05636075511574745,-0.04346229508519173,0.1548888087272644,-0.1737603098154068,-1.306223750114441,0.22559002041816711,0.3149884045124054,-0.6062906384468079,0.27038463950157166
1749042145.4509854,0.8067344427108765,-0.5691444438746949,-0.9999001026153564,2.2273596960255126,0.44222134351730347,-2.7551961580859583,-0.009181557223200798,-0.01545731257647276,0.01913314498960972,0.05765180662274361,-0.04385100305080414,0.1591498851776123,-0.20390130579471588,-1.2912369966506958,0.23592129349708557,0.3287249505519867,-0.6040349006652832,0.29716137051582336
1749042145.4510348,0.8067455291748047,-0.569164590244629,-0.9998518228530884,2.2274674612232666,0.44208741188049316,-2.7548888365374964,-0.010204142890870571,-0.01593645289540291,0.019402652978897095,0.05852414295077324,-0.04473419860005379,0.16208072006702423,-0.21565496921539307,-1.317440152168274,0.23821015655994415,0.3184179365634918,-0.6055246591567993,0.29551371932029724
1749042145.451145,0.806780219078064,-0.5692008298686524,-0.9998161196708679,2.227578802699707,0.44199466705322266,-2.7545607725726526,-0.009878082200884819,-0.016715627163648605,0.02023816853761673,0.05823128670454025,-0.04464505985379219,0.16722363233566284,-0.20062264800071716,-1.310675859451294,0.23211298882961273,0.3165213167667389,-0.6019144654273987,0.2819572687149048
1749042145.4530704,0.8066977858543396,-0.5692768853953858,-0.9997517466545105,2.22768680631604,0.441910982131958,-2.7541757265674036,-0.010012851096689701,-0.01666601002216339,0.019840098917484283,0.058288585394620895,-0.04465171694755554,0.17300274968147278,-0.1878640204668045,-1.3173539638519287,0.22843913733959198,0.3376305103302002,-0.6089422702789307,0.2402370721101761
1749042145.494278,0.8067061305046082,-0.5692768853953858,-0.9997389316558838,2.2277917104908447,0.4418460726737976,-2.753824774418966,-0.010574454441666603,-0.016735903918743134,0.019703714177012444,0.058757245540618896,-0.0464622862637043,0.17517854273319244,-0.19593866169452667,-1.3013651371002197,0.2311069667339325,0.336207777261734,-0.5999201536178589,0.232471764087677
1749042145.4943228,0.8066459894180298,-0.5693163436702271,-0.9997031688690186,2.2279233175465087,0.4417417347431183,-2.7535110155688685,-0.01041845977306366,-0.01703130081295967,0.020877810195088387,0.060074061155319214,-0.046960532665252686,0.17580291628837585,-0.22071760892868042,-1.2870159149169922,0.22717265784740448,0.32394474744796753,-0.5898646712303162,0.22285033762454987
1749042145.4943626,0.8066532611846924,-0.5693484109691163,-0.9996514320373535,2.2280470567890625,0.44163480401039124,-2.7531138102160853,-0.010478395968675613,-0.01651189662516117,0.021493645384907722,0.0600668303668499,-0.0470874160528183,0.1759946644306183,-0.21152545511722565,-1.3149750232696533,0.23472630977630615,0.3360586166381836,-0.6089237928390503,0.19446417689323425
1749042145.4944015,0.8066221475601196,-0.5693810743144532,-0.9996037483215332,2.228151722545288,0.4415857195854187,-2.7527905146228235,-0.0106665613129735,-0.016260845586657524,0.02092381939291954,0.06031814590096474,-0.04819820821285248,0.17226001620292664,-0.1932338923215866,-1.3098161220550537,0.21339227259159088,0.34014302492141724,-0.5950464010238647,0.23453128337860107
1749042145.4944398,0.8066294193267822,-0.5694204133800049,-0.9995675086975098,2.228283329600952,0.4414586126804352,-2.752451244984762,-0.010937055572867393,-0.015617824159562588,0.020392078906297684,0.061126019805669785,-0.049948494881391525,0.17449727654457092,-0.2170627862215042,-1.328330397605896,0.22410492599010468,0.3380938172340393,-0.5835565328598022,0.25797009468078613
1749042145.4944775,0.806578516960144,-0.5694249433330079,-0.9995198249816895,2.228414698238037,0.44129329919815063,-2.752096716557638,-0.01049871277064085,-0.016140971332788467,0.020271582528948784,0.06304525583982468,-0.04934288561344147,0.17266424000263214,-0.20172670483589172,-1.3130265474319458,0.23829196393489838,0.30930477380752563,-0.5819417238235474,0.27121660113334656
1749042145.4945183,0.806578516960144,-0.5694249433330079,-0.9995198249816895,2.228414698238037,0.44129329919815063,-2.752096716557638,-0.01049871277064085,-0.016140971332788467,0.020271582528948784,0.06304525583982468,-0.04934288561344147,0.17266424000263214,-0.20172670483589172,-1.3130265474319458,0.23829196393489838,0.30930477380752563,-0.5819417238235474,0.27121660113334656
1749042145.4945552,0.8065931797027588,-0.5694934886744996,-0.9994473457336426,2.228663607234619,0.44114360213279724,-2.7513232866870325,-0.010891612619161606,-0.016663724556565285,0.02013133279979229,0.06209181621670723,-0.048321329057216644,0.17834590375423431,-0.19988669455051422,-1.32133150100708,0.24363167583942413,0.32725200057029724,-0.5767002701759338,0.2535398006439209
1749042145.494593,0.8065346479415894,-0.5695370000651856,-0.9994109272956848,2.228771134013794,0.44104239344596863,-2.750967804585592,-0.011845755390822887,-0.016757825389504433,0.021347587928175926,0.06331826001405716,-0.04946330934762955,0.1816777139902115,-0.21879881620407104,-1.3211091756820679,0.24729907512664795,0.33841949701309204,-0.5711437463760376,0.240689218044281
1749042145.4946303,0.8065335750579834,-0.5695919555476685,-0.9993598461151123,2.2289230066486816,0.44092029333114624,-2.750584904347555,-0.010606610216200352,-0.016760094091296196,0.021302133798599243,0.0653306096792221,-0.05110761523246765,0.18417158722877502,-0.20965369045734406,-1.3191497325897217,0.2321590632200241,0.33141210675239563,-0.5270823240280151,0.20994248986244202
1749042145.4946678,0.8065169453620911,-0.5696320098689576,-0.999280571937561,2.229073925609253,0.44080862402915955,-2.7502105871783655,-0.010697593912482262,-0.017374539747834206,0.02084716409444809,0.0651858001947403,-0.051381099969148636,0.18498282134532928,-0.21815209090709686,-1.3233720064163208,0.24380137026309967,0.32045304775238037,-0.550753653049469,0.21009458601474762
1749042145.494705,0.8064967393875122,-0.5696602624705811,-0.9992830753326416,2.229186697597168,0.4407618045806885,-2.7498119513141077,-0.010659465566277504,-0.017314497381448746,0.02106235921382904,0.0650399774312973,-0.05017201229929924,0.184317484498024,-0.2045329213142395,-1.3223400115966797,0.2371959537267685,0.3229336738586426,-0.5304741263389587,0.21381685137748718
1749042145.4947462,0.806430995464325,-0.5696997207454224,-0.999231219291687,2.2292989927479248,0.44064661860466003,-2.7494636217700403,-0.010627544485032558,-0.017980128526687622,0.02200164645910263,0.06567175686359406,-0.0492638498544693,0.18210458755493164,-0.21494266390800476,-1.3243361711502075,0.24563661217689514,0.3266543745994568,-0.5194819569587708,0.2096576690673828
1749042145.4947848,0.8064537644386292,-0.5697624248317261,-0.9991991519927979,2.229435368175171,0.44051259756088257,-2.7490883509265345,-0.010124163702130318,-0.018626362085342407,0.02223321795463562,0.06633836030960083,-0.04852709919214249,0.1843027025461197,-0.216566801071167,-1.3235231637954712,0.2351146936416626,0.318634569644928,-0.5288974642753601,0.2175872027873993
1749042145.4948225,0.8064537644386292,-0.5697624248317261,-0.9991991519927979,2.229435368175171,0.44051259756088257,-2.7490883509265345,-0.010124163702130318,-0.018626362085342407,0.02223321795463562,0.06633836030960083,-0.04852709919214249,0.1843027025461197,-0.216566801071167,-1.3235231637954712,0.2351146936416626,0.318634569644928,-0.5288974642753601,0.2175872027873993
1749042145.494859,0.8064056038856506,-0.5697918695262452,-0.9990803003311157,2.229714556331299,0.440410315990448,-2.748331133519308,-0.009708416648209095,-0.018237624317407608,0.02126804180443287,0.06521318852901459,-0.04808526858687401,0.18141646683216095,-0.22109824419021606,-1.3179877996444702,0.26153162121772766,0.34140294790267944,-0.5285328030586243,0.26913297176361084
1749042145.4948957,0.8064056038856506,-0.5698281091502686,-0.9990600347518921,2.229827328319214,0.44024038314819336,-2.747991148625509,-0.010543465614318848,-0.01740293577313423,0.021238062530755997,0.06610482186079025,-0.047925371676683426,0.18458563089370728,-0.223277747631073,-1.3375873565673828,0.2600930333137512,0.3488374948501587,-0.5328143239021301,0.2624039351940155
1749042145.4949322,0.8063625693321228,-0.5698607724956055,-0.9990308284759521,2.2299632269093017,0.4402068257331848,-2.747601095830099,-0.010630529373884201,-0.018241936340928078,0.021768108010292053,0.06888590008020401,-0.04793199151754379,0.1874786615371704,-0.24656307697296143,-1.319102168083191,0.2575799524784088,0.336158812046051,-0.5550844073295593,0.2789439857006073
1749042145.4949796,0.8063189387321472,-0.5699235957911988,-0.9989796280860901,2.2300912576862792,0.4400603771209717,-2.7471564451800745,-0.010300719179213047,-0.01815984398126602,0.022446556016802788,0.07061323523521423,-0.048526886850595474,0.19101858139038086,-0.21309244632720947,-1.3446847200393677,0.262530118227005,0.32510679960250854,-0.550421953201294,0.25753915309906006
1749042145.4950192,0.8063299655914307,-0.56997104108844,-0.9989279508590698,2.230254812831543,0.4399991035461426,-2.746779505406515,-0.01072100643068552,-0.01859922893345356,0.0224765595048666,0.06886555999517441,-0.04763108491897583,0.1951514333486557,-0.2027762532234192,-1.3375557661056519,0.2556944787502289,0.31301647424697876,-0.5530441999435425,0.24601700901985168
1749042145.4951243,0.8062989115715027,-0.5699986976436158,-0.9988796710968018,2.230386419887207,0.43988773226737976,-2.7463651339160364,-0.010475397109985352,-0.018979018554091454,0.022548720240592957,0.06783430278301239,-0.04698461666703224,0.19385337829589844,-0.234763503074646,-1.338999629020691,0.25874030590057373,0.35466334223747253,-0.5682773590087891,0.24164991080760956
1749042145.497041,0.8062859177589417,-0.570012168293335,-0.9988351464271545,2.2305185037800292,0.4397963881492615,-2.7459893862353724,-0.011043032631278038,-0.019525326788425446,0.02319887839257717,0.0690324604511261,-0.047322146594524384,0.19664765894412994,-0.23204737901687622,-1.334204912185669,0.2662128210067749,0.32906776666641235,-0.5844709277153015,0.20951800048351288
1749042145.5382812,0.8062859177589417,-0.570012168293335,-0.9988351464271545,2.2305185037800292,0.4397963881492615,-2.7459893862353724,-0.011043032631278038,-0.019525326788425446,0.02319887839257717,0.0690324604511261,-0.047322146594524384,0.19664765894412994,-0.23204737901687622,-1.334204912185669,0.2662128210067749,0.32906776666641235,-0.5844709277153015,0.20951800048351288
1749042145.538327,0.8062267899513245,-0.5700996679118653,-0.998735785484314,2.2308148580738525,0.4396345615386963,-2.7451799551593226,-0.01032556127756834,-0.01936965249478817,0.023395279422402382,0.07192445546388626,-0.048065733164548874,0.1962699443101883,-0.24170728027820587,-1.3345606327056885,0.26241791248321533,0.33289143443107605,-0.5814453959465027,0.24311219155788422
1749042145.53837,0.8062267899513245,-0.5700996679118653,-0.998735785484314,2.2308148580738525,0.4396345615386963,-2.7451799551593226,-0.01032556127756834,-0.01936965249478817,0.023395279422402382,0.07192445546388626,-0.048065733164548874,0.1962699443101883,-0.24170728027820587,-1.3345606327056885,0.26241791248321533,0.33289143443107605,-0.5814453959465027,0.24311219155788422
1749042145.5384097,0.8062294721603394,-0.5701871675303956,-0.9986245036125183,2.2311064439960937,0.4394006133079529,-2.7444523016559046,-0.010934916324913502,-0.019213814288377762,0.024479931220412254,0.07101156562566757,-0.04868892580270767,0.1983984410762787,-0.23329442739486694,-1.3495714664459229,0.2510138750076294,0.32100391387939453,-0.6236539483070374,0.2953146696090698
1749042145.538448,0.8061673045158386,-0.5702120822719117,-0.9985916018486023,2.231257362956665,0.43930479884147644,-2.74399978319277,-0.01053707767277956,-0.01964089833199978,0.024676358327269554,0.06905318051576614,-0.04835197329521179,0.20469292998313904,-0.23024368286132812,-1.3479920625686646,0.24556231498718262,0.34096646308898926,-0.6179910898208618,0.27629154920578003
1749042145.5384865,0.8061625957489014,-0.5702203077128907,-0.9985660910606384,2.2313856321522216,0.43918097019195557,-2.7436092535602015,-0.011061402969062328,-0.020900962874293327,0.024586128070950508,0.06910786032676697,-0.05109367147088051,0.20929688215255737,-0.2430751621723175,-1.3399168252944946,0.2503867745399475,0.3558584451675415,-0.6192471385002136,0.2580946087837219
1749042145.5385244,0.8060842156410217,-0.5702795547297974,-0.9984644651412964,2.2315146166035156,0.4390851855278015,-2.7431848684894007,-0.010927447117865086,-0.02052917145192623,0.02475069835782051,0.07072107493877411,-0.052767280489206314,0.21097460389137268,-0.2564318776130676,-1.3440271615982056,0.26101362705230713,0.36029690504074097,-0.5773603320121765,0.25018998980522156
1749042145.5385616,0.8061108589172363,-0.570311502819397,-0.998439371585846,2.2316462236591796,0.4390072822570801,-2.74276572862734,-0.01107141375541687,-0.01996285282075405,0.025126036256551743,0.07192385941743851,-0.053027451038360596,0.21284309029579163,-0.25084418058395386,-1.3419514894485474,0.24011164903640747,0.35014113783836365,-0.6034071445465088,0.22457167506217957
1749042145.5385983,0.8060750961303711,-0.5703597825816651,-0.9983722567558289,2.231802149409912,0.4388849139213562,-2.742331568394796,-0.011761520057916641,-0.021024495363235474,0.025867389515042305,0.07170121371746063,-0.05303186923265457,0.21221423149108887,-0.22517381608486176,-1.3221603631973267,0.2403038740158081,0.3374137878417969,-0.6068938374519348,0.22438788414001465
1749042145.538635,0.8060595393180847,-0.5704317849925538,-0.9983624815940857,2.2319461542316894,0.4387649595737457,-2.741838280354635,-0.01094958558678627,-0.02148766629397869,0.025437407195568085,0.07097068428993225,-0.053774673491716385,0.20754529535770416,-0.2618868350982666,-1.3466920852661133,0.23475328087806702,0.3674212694168091,-0.6235338449478149,0.2687900960445404
1749042145.5386717,0.8060232400894165,-0.570502833729126,-0.9982710480690002,2.2321056562611084,0.4386882781982422,-2.741540257130758,-0.01180501189082861,-0.022093649953603745,0.024582112208008766,0.07306703925132751,-0.056772902607917786,0.2102201282978058,-0.2423371970653534,-1.3463664054870605,0.2505266070365906,0.3650437891483307,-0.6094256639480591,0.31651434302330017
1749042145.538708,0.8060460686683655,-0.5704689782908936,-0.9982276558876038,2.232233925456665,0.43857303261756897,-2.7410953680621546,-0.011938175186514854,-0.021418888121843338,0.02491561695933342,0.07314350455999374,-0.058682866394519806,0.21159164607524872,-0.23767724633216858,-1.3320331573486328,0.2600809633731842,0.37351107597351074,-0.6093573570251465,0.2960065007209778
1749042145.538744,0.806018590927124,-0.5705326360515137,-0.9982025623321533,2.2323738771625976,0.4384376108646393,-2.740659538899557,-0.011759581975638866,-0.021794309839606285,0.026267442852258682,0.07287082821130753,-0.058618176728487015,0.2153092324733734,-0.2517261505126953,-1.325880765914917,0.2356114387512207,0.37684154510498047,-0.5968197584152222,0.31346821784973145
1749042145.5387802,0.8059828281402588,-0.5705995124629517,-0.9981043934822083,2.232583923930786,0.4383489787578583,-2.7402365843402308,-0.013047573156654835,-0.0213700570166111,0.0269086342304945,0.07659388333559036,-0.06013787165284157,0.21994854509830475,-0.2544252276420593,-1.3500897884368896,0.23714298009872437,0.38589945435523987,-0.5953406095504761,0.2960308790206909
1749042145.5388212,0.8059828281402588,-0.5705995124629517,-0.9981043934822083,2.232583923930786,0.4383489787578583,-2.7402365843402308,-0.013047573156654835,-0.0213700570166111,0.0269086342304945,0.07659388333559036,-0.06013787165284157,0.21994854509830475,-0.2544252276420593,-1.3500897884368896,0.23714298009872437,0.38589945435523987,-0.5953406095504761,0.2960308790206909
1749042145.5388582,0.805899977684021,-0.5706715148738404,-0.9980003237724304,2.232858343715332,0.43808507919311523,-2.7393391768084925,-0.013085472397506237,-0.02284420095384121,0.026456737890839577,0.07627034187316895,-0.06356598436832428,0.22706811130046844,-0.24811512231826782,-1.2797342538833618,0.25522059202194214,0.3764410614967346,-0.5836986303329468,0.3027404546737671
1749042145.5388947,0.805899977684021,-0.5706715148738404,-0.9980003237724304,2.232858343715332,0.43808507919311523,-2.7393391768084925,-0.013085472397506237,-0.02284420095384121,0.026456737890839577,0.07627034187316895,-0.06356598436832428,0.22706811130046844,-0.24811512231826782,-1.2797342538833618,0.25522059202194214,0.3764410614967346,-0.5836986303329468,0.3027404546737671
1749042145.5389347,0.8059135675430298,-0.5707554382136841,-0.9979075193405151,2.2331690031239013,0.4378212094306946,-2.7384894529925745,-0.012936754152178764,-0.023427465930581093,0.027335425838828087,0.07858607918024063,-0.06535101681947708,0.230937197804451,-0.25049155950546265,-1.3110413551330566,0.2384054958820343,0.37772810459136963,-0.5442957878112793,0.3078007400035858
1749042145.5389829,0.8058552742004395,-0.57084675252948,-0.9978474378585815,2.233325405711792,0.4377169609069824,-2.73805815378298,-0.013123352080583572,-0.023592736572027206,0.026486748829483986,0.07966240495443344,-0.06524278223514557,0.2319604903459549,-0.25147390365600586,-1.3174971342086792,0.24344927072525024,0.3974645435810089,-0.537608802318573,0.3321216404438019
1749042145.5390227,0.8058357834815979,-0.5708668392947693,-0.9977836608886719,2.233496590251587,0.437541663646698,-2.7375455538379114,-0.013684891164302826,-0.02297523058950901,0.026049567386507988,0.08473421633243561,-0.06264802813529968,0.23732666671276093,-0.2534591853618622,-1.3033864498138428,0.24299290776252747,0.36899465322494507,-0.527544379234314,0.3296527862548828
1749042145.5391326,0.8057999014854431,-0.5709077280810853,-0.9977206587791443,2.2336603838154296,0.4374494254589081,-2.7370389143573206,-0.013726696372032166,-0.02274160087108612,0.027264462783932686,0.08467215299606323,-0.06199217215180397,0.2426684945821762,-0.2695665955543518,-1.3131473064422607,0.251944899559021,0.35549721121788025,-0.5519302487373352,0.31263577938079834
1749042145.541024,0.8058072924613953,-0.570987657909729,-0.9976633787155151,2.2338170248218994,0.437328040599823,-2.7366018931018274,-0.014040588401257992,-0.022912384942173958,0.028255315497517586,0.08396538347005844,-0.06293801218271255,0.24702133238315582,-0.2546815574169159,-1.3182635307312012,0.23974494636058807,0.36626529693603516,-0.5553373694419861,0.29213351011276245
1749042145.5822754,0.8057745695114136,-0.5710116189769288,-0.9976230263710022,2.233991785640381,0.43715059757232666,-2.7360766569720667,-0.013895362615585327,-0.023431388661265373,0.027841906994581223,0.08431940525770187,-0.06324274837970734,0.248969167470932,-0.24590539932250977,-1.2945324182510376,0.2388489991426468,0.36228328943252563,-0.5359933376312256,0.27910104393959045
1749042145.5823207,0.8057351112365723,-0.5710709255984803,-0.9975713491439819,2.2341534334370117,0.43705376982688904,-2.7356014887439173,-0.014216873794794083,-0.022814897820353508,0.027634544298052788,0.08572663366794586,-0.06237887218594551,0.25252360105514526,-0.24819739162921906,-1.3167450428009033,0.24255461990833282,0.3590552508831024,-0.5525583028793335,0.2663068473339081
1749042145.582361,0.8056915402412415,-0.571087972526886,-0.997495710849762,2.234339876765869,0.43694567680358887,-2.7351024786578577,-0.015118063427507877,-0.023010872304439545,0.027750477194786072,0.08620264381170273,-0.061631184071302414,0.24800816178321838,-0.2612306475639343,-1.3014580011367798,0.2369982898235321,0.35645154118537903,-0.5358164310455322,0.2883533835411072
1749042145.5824006,0.8056870102882385,-0.5711429280093689,-0.997463583946228,2.23450414716687,0.4368102550506592,-2.734577242528097,-0.013810443691909313,-0.02316083014011383,0.02804076299071312,0.08652424812316895,-0.059820789843797684,0.25094524025917053,-0.24026530981063843,-1.2980324029922485,0.2506239116191864,0.37009626626968384,-0.5384194850921631,0.26255685091018677
1749042145.5824435,0.8056870102882385,-0.5711429280093689,-0.997463583946228,2.23450414716687,0.4368102550506592,-2.734577242528097,-0.013810443691909313,-0.02316083014011383,0.02804076299071312,0.08652424812316895,-0.059820789843797684,0.25094524025917053,-0.24026530981063843,-1.2980324029922485,0.2506239116191864,0.37009626626968384,-0.5384194850921631,0.26255685091018677
1749042145.582483,0.8056393265724182,-0.5712507528117676,-0.9973083734512329,2.2348522382923584,0.4365307688713074,-2.733537022267477,-0.014266111887991428,-0.02407810464501381,0.028344200924038887,0.08636458218097687,-0.05949605628848076,0.2515387535095215,-0.2706063985824585,-1.3110355138778687,0.2417488396167755,0.374963641166687,-0.5613046884536743,0.2862444519996643
1749042145.5825205,0.8055647015571594,-0.571302668457367,-0.9972607493400574,2.235020084972046,0.4364576041698456,-2.7330496946917933,-0.014783748425543308,-0.024367015808820724,0.028176166117191315,0.08608982712030411,-0.058892928063869476,0.2527110278606415,-0.24173039197921753,-1.306052803993225,0.24197149276733398,0.36277300119400024,-0.5649720430374146,0.2916303277015686
1749042145.5825577,0.8055445551872253,-0.5713589948466797,-0.9972386956214905,2.2351998525806884,0.4363183379173279,-2.7325907389270228,-0.013943697325885296,-0.023697666823863983,0.028552858158946037,0.08672194927930832,-0.05832237750291824,0.251253217458725,-0.24907594919204712,-1.2944250106811523,0.25302278995513916,0.36026403307914734,-0.5775901079177856,0.28163203597068787
1749042145.5825949,0.805500864982605,-0.5713791412166138,-0.9971405267715454,2.2353831964680175,0.43620195984840393,-2.7320480982409876,-0.014722291380167007,-0.022811785340309143,0.028740156441926956,0.08650659769773483,-0.058943115174770355,0.25348663330078125,-0.26654911041259766,-1.2983168363571167,0.2554331123828888,0.3967101275920868,-0.6041634678840637,0.2876729369163513
1749042145.5826323,0.805484414100647,-0.5714231890491028,-0.9971035718917847,2.2355479437061767,0.43607521057128906,-2.7315495649920862,-0.014669807627797127,-0.023016249760985374,0.02925940789282322,0.08796858787536621,-0.05901399627327919,0.2550656795501709,-0.27482444047927856,-1.3011378049850464,0.2602365016937256,0.38124340772628784,-0.5956358909606934,0.2979692220687866
1749042145.5826685,0.8054378032684326,-0.5714630645564576,-0.9970547556877136,2.2357091146656494,0.43593448400497437,-2.731011931096212,-0.015146360732614994,-0.02360195480287075,0.029535602778196335,0.0873405933380127,-0.05912162363529205,0.2560032308101654,-0.26647576689720154,-1.3107490539550781,0.2539798617362976,0.3911646902561188,-0.599003791809082,0.3010566234588623
1749042145.5827057,0.805452287197113,-0.5714952510646363,-0.9969763159751892,2.235896273250244,0.43587714433670044,-2.730513397847311,-0.01581442914903164,-0.02415299601852894,0.029587699100375175,0.0880049467086792,-0.06017348915338516,0.25890877842903137,-0.2606552243232727,-1.3006813526153564,0.2526426315307617,0.3862617611885071,-0.6093423962593079,0.3074035048484802
1749042145.582742,0.805452287197113,-0.5714952510646363,-0.9969763159751892,2.235896273250244,0.43587714433670044,-2.730513397847311,-0.01581442914903164,-0.02415299601852894,0.029587699100375175,0.0880049467086792,-0.06017348915338516,0.25890877842903137,-0.2606552243232727,-1.3006813526153564,0.2526426315307617,0.3862617611885071,-0.6093423962593079,0.3074035048484802
1749042145.5827787,0.8053958415985107,-0.5716159504703064,-0.9968785047531128,2.236274405116699,0.435578316450119,-2.7295029799090784,-0.015745103359222412,-0.023888863623142242,0.029922546818852425,0.0889621376991272,-0.06269924342632294,0.26283711194992065,-0.2705540955066681,-1.320151925086975,0.26649367809295654,0.39122486114501953,-0.6376528739929199,0.2841344475746155
1749042145.5828152,0.805356502532959,-0.5716360372355958,-0.9968309998512268,2.236466570491455,0.4354825019836426,-2.7289884726153772,-0.015433299355208874,-0.024087049067020416,0.030276544392108917,0.09042255580425262,-0.06481557339429855,0.26340746879577637,-0.2608499825000763,-1.3032879829406738,0.2634667158126831,0.3989752233028412,-0.612650990486145,0.2918301224708557
1749042145.5828516,0.805328369140625,-0.5716992777637024,-0.9967359304428101,2.236624165172241,0.4353267252445221,-2.728492561970846,-0.01602289266884327,-0.023811155930161476,0.030542759224772453,0.09090378135442734,-0.06603293120861053,0.26546385884284973,-0.2374064177274704,-1.3216099739074707,0.25742751359939575,0.3861938714981079,-0.6214476823806763,0.2813616394996643
1749042145.582888,0.8053155541419983,-0.5717666906169434,-0.9966793060302734,2.236804648036621,0.4351996183395386,-2.7279322783099573,-0.015001391060650349,-0.02423214167356491,0.030819440260529518,0.09117335826158524,-0.06489544361829758,0.26863864064216614,-0.2580389380455017,-1.3129421472549438,0.25920987129211426,0.3934517502784729,-0.613459587097168,0.30718618631362915
1749042145.5829241,0.8052605986595154,-0.5717994135669251,-0.9966073036193848,2.237006826991699,0.43507611751556396,-2.727367941533224,-0.015517533756792545,-0.02478405460715294,0.030837269499897957,0.09329325705766678,-0.06730924546718597,0.26769885420799255,-0.24881525337696075,-1.3201873302459717,0.23752126097679138,0.4017355442047119,-0.625670313835144,0.30259567499160767
1749042145.5829644,0.8052253127098083,-0.5718085330775757,-0.9965513944625854,2.237208052272461,0.43495500087738037,-2.7268670240985315,-0.015032768249511719,-0.02434421330690384,0.03114793822169304,0.09776101261377335,-0.06969089061021805,0.2694336175918579,-0.24219873547554016,-1.3107209205627441,0.2277257740497589,0.3709794282913208,-0.5959559082984924,0.3130912482738495
1749042145.583006,0.8051730990409851,-0.5718598526767273,-0.9964680671691895,2.23739139615979,0.43480384349823,-2.7263477484332483,-0.016320690512657166,-0.024613460525870323,0.03157521039247513,0.09591802209615707,-0.0707940086722374,0.2733244001865387,-0.24691180884838104,-1.3012099266052246,0.23996961116790771,0.36117735505104065,-0.602764368057251,0.2789193391799927
1749042145.5831168,0.8051730990409851,-0.5718598526767273,-0.9964680671691895,2.23739139615979,0.43480384349823,-2.7263477484332483,-0.016320690512657166,-0.024613460525870323,0.03157521039247513,0.09591802209615707,-0.0707940086722374,0.2733244001865387,-0.24691180884838104,-1.3012099266052246,0.23996961116790771,0.36117735505104065,-0.602764368057251,0.2789193391799927
1749042145.585069,0.8051486015319824,-0.5719836515239258,-0.9963556528091431,2.237740679378174,0.43449339270591736,-2.725189749394552,-0.015554132871329784,-0.023409059271216393,0.03177979961037636,0.09422695636749268,-0.07322508841753006,0.27440592646598816,-0.24382223188877106,-1.3337695598602295,0.24790386855602264,0.3513296842575073,-0.5931133031845093,0.25284796953201294
1749042145.6262953,0.8050895929336548,-0.5720423024943848,-0.9962956309318542,2.2379702764698486,0.4343685209751129,-2.724637810383932,-0.015523314476013184,-0.02379618026316166,0.03129826486110687,0.09772059321403503,-0.07144574820995331,0.2760273516178131,-0.25904178619384766,-1.3381884098052979,0.248127281665802,0.3685147166252136,-0.5934622883796692,0.23426076769828796
1749042145.6263409,0.8050968647003174,-0.572083131676056,-0.9962508082389832,2.238147183055542,0.4341970980167389,-2.7240830103503626,-0.015521468594670296,-0.02461131475865841,0.031008735299110413,0.09711642563343048,-0.07253246754407883,0.27202850580215454,-0.27561259269714355,-1.3314684629440308,0.23539134860038757,0.3286692500114441,-0.5903767347335815,0.26010018587112427
1749042145.6263814,0.8050487041473389,-0.5721152585795899,-0.9961825013160706,2.2383455473133544,0.4340721368789673,-2.723576609288351,-0.01572141982614994,-0.025104522705078125,0.03142024204134941,0.092255599796772,-0.07359602302312851,0.2727150022983551,-0.25251781940460205,-1.3170702457427979,0.24059627950191498,0.3677089214324951,-0.5987982749938965,0.279666930437088
1749042145.6264205,0.8049902319908142,-0.5721321862987061,-0.9960998892784119,2.238488121623657,0.4339163303375244,-2.72300631204714,-0.015661537647247314,-0.024121923372149467,0.031909216195344925,0.09365338832139969,-0.07424764335155487,0.27248337864875793,-0.2540344297885895,-1.3525816202163696,0.22795000672340393,0.37452077865600586,-0.572776198387146,0.28163790702819824
1749042145.6264591,0.8049854636192322,-0.5722417396358033,-0.9960432052612305,2.238698645229004,0.43376028537750244,-2.7224372068988245,-0.015357045456767082,-0.02459043078124523,0.032167572528123856,0.09382732957601547,-0.0728670135140419,0.2723577916622162,-0.25262096524238586,-1.337900161743164,0.234483540058136,0.3883717656135559,-0.5677692890167236,0.2867552936077118
1749042145.626498,0.8049964308738708,-0.5722789329341431,-0.9959872961044312,2.2388903337666015,0.4335818886756897,-2.7219062487231653,-0.014745943248271942,-0.02368159405887127,0.03248238191008568,0.09389371424913406,-0.07359827309846878,0.27260538935661316,-0.2573521137237549,-1.3665391206741333,0.22985413670539856,0.37965619564056396,-0.5771750807762146,0.27485597133636475
1749042145.6265357,0.804878830909729,-0.5723074239543458,-0.995911717414856,2.239097996348999,0.4334952235221863,-2.7213438192950647,-0.014836111105978489,-0.02450237236917019,0.03183379024267197,0.0956227257847786,-0.07273443043231964,0.2745656669139862,-0.2685370147228241,-1.3504836559295654,0.23783932626247406,0.3852592408657074,-0.5615075826644897,0.25189539790153503
1749042145.626573,0.8049015402793884,-0.572378472690918,-0.9958547353744507,2.2392706114002685,0.4333324432373047,-2.720804754887716,-0.014613191597163677,-0.025682711973786354,0.03207315132021904,0.09444162994623184,-0.07154253870248795,0.27588677406311035,-0.2668544054031372,-1.355610728263855,0.23658664524555206,0.3880930542945862,-0.5696018934249878,0.2711789608001709
1749042145.6266105,0.8049015402793884,-0.572378472690918,-0.9958547353744507,2.2392706114002685,0.4333324432373047,-2.720804754887716,-0.014613191597163677,-0.025682711973786354,0.03207315132021904,0.09444162994623184,-0.07154253870248795,0.27588677406311035,-0.2668544054031372,-1.355610728263855,0.23658664524555206,0.3880930542945862,-0.5696018934249878,0.2711789608001709
1749042145.6266477,0.8048415184020996,-0.5724742573550721,-0.9957196116447449,2.2396551805683593,0.43305152654647827,-2.7196601072894495,-0.014262671582400799,-0.025532910600304604,0.032488852739334106,0.09852355718612671,-0.06978663057088852,0.27586063742637634,-0.2963429093360901,-1.3612501621246338,0.23492997884750366,0.3608705401420593,-0.5745030045509338,0.2670803368091583
1749042145.626685,0.804785966873169,-0.5725464385798951,-0.9956439733505249,2.2398664194294433,0.43290895223617554,-2.7190633455859583,-0.014801627025008202,-0.026034528389573097,0.03226642310619354,0.09568994492292404,-0.07029145210981369,0.27630680799484253,-0.2793654799461365,-1.3513619899749756,0.22864043712615967,0.39088112115859985,-0.5726268887519836,0.2719477415084839
1749042145.6267219,0.8048285841941833,-0.5726012748530884,-0.9955558180809021,2.2400235372730712,0.4327720105648041,-2.7185357252704065,-0.01477023120969534,-0.026857823133468628,0.03174682706594467,0.09649329632520676,-0.07043788582086563,0.28013670444488525,-0.3178793787956238,-1.3302513360977173,0.24267837405204773,0.3963264226913452,-0.5654280185699463,0.25214001536369324
1749042145.6267629,0.8047420382499695,-0.5726111692241211,-0.9954839944839478,2.2402347761341552,0.4326283931732178,-2.717973057423727,-0.015777096152305603,-0.02664789743721485,0.031323838979005814,0.09939321875572205,-0.07037697732448578,0.2780245840549469,-0.2799702286720276,-1.3179311752319336,0.2562412917613983,0.4017094075679779,-0.5897631049156189,0.2643836438655853
1749042145.6267998,0.8047373294830322,-0.5726669591716309,-0.9954589605331421,2.240438147182129,0.43255123496055603,-2.7174344698535364,-0.014977078884840012,-0.025897856801748276,0.03317504748702049,0.10220986604690552,-0.07053276896476746,0.27905815839767456,-0.2836613059043884,-1.3466072082519531,0.23721976578235626,0.3668557405471802,-0.5858941674232483,0.2620159387588501
1749042145.626836,0.8047062754631042,-0.5727036756328125,-0.9954070448875427,2.240614338512085,0.4323955178260803,-2.716903273259298,-0.015882262960076332,-0.025665540248155594,0.03340062126517296,0.10231418162584305,-0.07027161121368408,0.28035059571266174,-0.3048003315925598,-1.357618808746338,0.22226715087890625,0.3802117109298706,-0.6071772575378418,0.2781526446342468
1749042145.6268725,0.8046544790267944,-0.5727861088565369,-0.9953267574310303,2.2408310610004882,0.43222862482070923,-2.716287438069479,-0.015820737928152084,-0.026096150279045105,0.032284364104270935,0.10169246047735214,-0.07045849412679672,0.28310784697532654,-0.28224706649780273,-1.371980905532837,0.23260878026485443,0.368864506483078,-0.607799768447876,0.2897823452949524
1749042145.6269088,0.8046544790267944,-0.5727861088565369,-0.9953267574310303,2.2408310610004882,0.43222862482070923,-2.716287438069479,-0.015820737928152084,-0.026096150279045105,0.032284364104270935,0.10169246047735214,-0.07045849412679672,0.28310784697532654,-0.28224706649780273,-1.371980905532837,0.23260878026485443,0.368864506483078,-0.607799768447876,0.2897823452949524
1749042145.626955,0.8045861124992371,-0.5729063910296937,-0.9952220916748047,2.24125783025708,0.4318823516368866,-2.7151339689837855,-0.016313355416059494,-0.02770407125353813,0.03300703689455986,0.10229004174470901,-0.07288419455289841,0.28577250242233276,-0.2896970212459564,-1.3241976499557495,0.26026615500450134,0.36548253893852234,-0.6020801067352295,0.26712697744369507
1749042145.6269946,0.8045814037322998,-0.5729503196528931,-0.9951151609420776,2.2414583402821044,0.4317695200443268,-2.714515272771017,-0.016313455998897552,-0.027312587946653366,0.03367836773395538,0.10245317220687866,-0.07387609779834747,0.2905687689781189,-0.29570862650871277,-1.3329421281814575,0.2300329953432083,0.370389461517334,-0.6027563214302063,0.2520429193973541
