nimar13/UR3e_dataset_trayectorias/trayectorias_ejecutadas/quintic_func/trayectoria_240_result.csv
timestamp,q1,q2,q3,q4,q5,q6,qd1,qd2,qd3,qd4,qd5,qd6,tau1,tau2,tau3,tau4,tau5,tau6
1749045771.9062667,5.779585361480713,0.1572679716297607,-2.3010647296905518,5.352396416455068,0.185289666056633,-4.436281148587362,-0.00480299349874258,-0.0009281920501962304,0.002326207235455513,-0.003706940682604909,7.229347102111205e-05,0.002341736573725939,0.05898439139127731,-0.7286100387573242,0.49097996950149536,0.06190106272697449,-0.10207270085811615,-0.006421387195587158
1749045771.9063108,5.779585361480713,0.1572679716297607,-2.3010647296905518,5.352396416455068,0.185289666056633,-4.436281148587362,-0.00480299349874258,-0.0009281920501962304,0.002326207235455513,-0.003706940682604909,7.229347102111205e-05,0.002341736573725939,0.05898439139127731,-0.7286100387573242,0.49097996950149536,0.06190106272697449,-0.10207270085811615,-0.006421387195587158
1749045771.9063506,5.779518127441406,0.15723340093579097,-2.3010404109954834,5.352372872620382,0.18535569310188293,-4.43622607389559,-0.004827330354601145,-0.0008181118755601346,0.0024352006148546934,-0.0028628220316022635,6.729958113282919e-05,0.0034203112591058016,0.022340960800647736,-0.7554673552513123,0.49840229749679565,0.054691143333911896,-0.10111278295516968,-0.006060481071472168
1749045771.906404,5.7795233726501465,0.15724162637676997,-2.3010213375091553,5.35239194610671,0.18531708419322968,-4.436248366032736,-0.005225793924182653,-0.0007432440761476755,0.002173874294385314,-0.002615606412291527,6.488968210760504e-05,0.0032382432837039232,0.03185770660638809,-0.735123872756958,0.5007837414741516,0.055219121277332306,-0.11149206757545471,-0.020412057638168335
1749045771.9064457,5.7795233726501465,0.15724162637676997,-2.3010213375091553,5.35239194610671,0.18531708419322968,-4.436248366032736,-0.005225793924182653,-0.0007432440761476755,0.002173874294385314,-0.002615606412291527,6.488968210760504e-05,0.0032382432837039232,0.03185770660638809,-0.735123872756958,0.5007837414741516,0.055219121277332306,-0.11149206757545471,-0.020412057638168335
1749045771.9064875,5.779544353485107,0.15727154790844722,-2.3010284900665283,5.352395522385397,0.18533526360988617,-4.43622607389559,-0.005399741232395172,-0.0004744454054161906,0.0016428492963314056,-0.002218568464741111,6.0522044805111364e-05,0.0022773623932152987,0.06387713551521301,-0.7405503988265991,0.5056352615356445,0.06273315101861954,-0.09194633364677429,-0.011355429887771606
1749045771.9065259,5.779537677764893,0.15724889814343257,-2.30104398727417,5.352376448899069,0.1853051483631134,-4.436241451893942,-0.004865093622356653,-0.00042906487942673266,0.001345447963103652,-0.0020358238834887743,5.8556703152135015e-05,0.0018358798697590828,0.04315502196550369,-0.7352628707885742,0.5052993297576904,0.06140853837132454,-0.10068279504776001,-0.002109706401824951
1749045771.9065626,5.779463291168213,0.15727631628002925,-2.3010284900665283,5.35239194610671,0.1853087842464447,-4.436241451893942,-0.004266734700649977,-0.00039169678348116577,0.0012564064236357808,-0.0019070592243224382,5.6711847719270736e-05,0.0015136112924665213,0.04115065932273865,-0.7393174171447754,0.49494412541389465,0.07974077016115189,-0.09832300245761871,0.007681101560592651
1749045771.9065993,5.779444217681885,0.15729181348767085,-2.3010284900665283,5.352376448899069,0.1853293478488922,-4.436256829892294,-0.0038654841482639313,-0.00036033018841408193,0.0010137900244444609,-0.0017821121728047729,5.49744327145163e-05,0.0014450113521888852,0.05275920778512955,-0.7424651384353638,0.5051871538162231,0.04944401979446411,-0.09582972526550293,-0.009724050760269165
1749045771.9066362,5.779444217681885,0.15729181348767085,-2.3010284900665283,5.352376448899069,0.1853293478488922,-4.436256829892294,-0.0038654841482639313,-0.00036033018841408193,0.0010137900244444609,-0.0017821121728047729,5.49744327145163e-05,0.0014450113521888852,0.05275920778512955,-0.7424651384353638,0.5051871538162231,0.04944401979446411,-0.09582972526550293,-0.009724050760269165
1749045771.9066727,5.779470443725586,0.15726439535107417,-2.3010094165802,5.352376448899069,0.18533654510974884,-4.4362176100360315,-0.002705059479922056,-0.00036633526906371117,0.0007833635318093002,-0.0020163627341389656,5.181318920222111e-05,0.0014485853025689721,0.048588789999485016,-0.7309319972991943,0.516840398311615,0.060535043478012085,-0.10773743689060211,-0.01611223816871643
1749045771.9067094,5.779482364654541,0.1572524744221191,-2.301024913787842,5.352367865830221,0.18534846603870392,-4.4362176100360315,-0.0019113547168672085,-0.0003485679626464844,0.0006907536298967898,-0.0020926683209836483,5.035905633121729e-05,0.0014000757364556193,0.04323659464716911,-0.7137836813926697,0.50253826379776,0.0660538598895073,-0.09870415925979614,-0.011794984340667725
1749045771.9067464,5.779477596282959,0.15727989255871577,-2.30104398727417,5.352348673134603,0.18535570800304413,-4.4362176100360315,-0.0017830454744398594,-0.00032748395460657775,0.0007004297222010791,-0.001819318626075983,4.899139457847923e-05,0.0013644025893881917,0.02906043827533722,-0.7323200702667236,0.4974348843097687,0.05586039274930954,-0.10303767025470734,-0.025660306215286255
1749045771.9067829,5.779473781585693,0.1572524744221191,-2.3010284900665283,5.352367865830221,0.18527401983737946,-4.43622607389559,-0.0014445462729781866,-0.00030875380616635084,0.000640908838249743,-0.0016039378242567182,4.7693567466922104e-05,0.0012681953376159072,0.0602155402302742,-0.7170724868774414,0.5007887482643127,0.07900113612413406,-0.108771413564682,0.008300691843032837
1749045771.90682,5.779473781585693,0.1572524744221191,-2.3010284900665283,5.352367865830221,0.18527401983737946,-4.43622607389559,-0.0014445462729781866,-0.00030875380616635084,0.000640908838249743,-0.0016039378242567182,4.7693567466922104e-05,0.0012681953376159072,0.0602155402302742,-0.7170724868774414,0.5007887482643127,0.07900113612413406,-0.108771413564682,0.008300691843032837
1749045771.9068592,5.779465198516846,0.15724055349316401,-2.3010475635528564,5.352367865830221,0.18534016609191895,-4.43618351617922,-0.0010509018320590258,-0.00027706954278983176,0.0005331321735866368,-0.0011931663611903787,4.5292461436474696e-05,0.0010059518972411752,0.029400669038295746,-0.7437465786933899,0.4924758970737457,0.08722755312919617,-0.1088356077671051,0.0033213794231414795
1749045771.906896,5.779444217681885,0.1572834688374023,-2.301024913787842,5.3523714421089075,0.18532805144786835,-4.436232988034384,-0.0008313694852404296,-0.0002635439159348607,0.0004914655000902712,-0.0010117513593286276,4.4181022531120107e-05,0.0008941118139773607,0.05560288578271866,-0.7091063857078552,0.5019927620887756,0.055516213178634644,-0.11164569854736328,0.002710491418838501
1749045771.9069326,5.779403209686279,0.15726439535107417,-2.30104398727417,5.352367865830221,0.1853904128074646,-4.436229530964987,-0.0007013578433543444,-0.00025128209381364286,0.0004559044318739325,-0.0008723833016119897,4.31193875556346e-05,0.0007873321883380413,0.05239345133304596,-0.7064504623413086,0.5014777779579163,0.08145085722208023,-0.11732032895088196,-0.0055761635303497314
1749045771.9069688,5.779504776000977,0.15725605070080562,-2.3010058403015137,5.352371501713552,0.1853243112564087,-4.436227862034933,-0.0006067004287615418,-0.00024010804190766066,0.00042512157233431935,-0.0008263286435976624,4.2112835217267275e-05,0.0007558257202617824,0.06925410777330399,-0.7104449272155762,0.4904297888278961,0.06477293372154236,-0.10606557130813599,-0.020677119493484497
1749045771.9070046,5.779504776000977,0.15725605070080562,-2.3010058403015137,5.352371501713552,0.1853243112564087,-4.436227862034933,-0.0006067004287615418,-0.00024010804190766066,0.00042512157233431935,-0.0008263286435976624,4.2112835217267275e-05,0.0007558257202617824,0.06925410777330399,-0.7104449272155762,0.4904297888278961,0.06477293372154236,-0.10606557130813599,-0.020677119493484497
1749045771.9071386,5.77946138381958,0.15727989255871577,-2.3010094165802,5.352359521179952,0.18537850677967072,-4.4361987749682825,-0.000477783934911713,-0.00018375279614701867,0.0003745440917555243,-0.0007018940523266792,4.022791108582169e-05,0.0006530613172799349,0.07389308512210846,-0.706203818321228,0.4880114495754242,0.06828784197568893,-0.11437684297561646,-0.010750949382781982
1749045771.9084706,5.779473781585693,0.15724889814343257,-2.301036834716797,5.352359521179952,0.18532800674438477,-4.436198894177572,-0.0004319087602198124,-0.0001765396009432152,0.0003535196010489017,-0.0006403548759408295,3.935048880521208e-05,0.0005995237152092159,0.06440775841474533,-0.6794787645339966,0.49066194891929626,0.0784512460231781,-0.12121883034706116,-0.02255198359489441
1749045771.954294,5.7794671058654785,0.1572679716297607,-2.3010129928588867,5.352329599648275,0.18530157208442688,-4.436232988034384,-0.000394070812035352,-0.00016987367416732013,0.00033471116330474615,-0.0005880922544747591,3.8508915167767555e-05,0.0005534958909265697,0.08512307703495026,-0.6880067586898804,0.4966537058353424,0.0862235575914383,-0.13395288586616516,-0.01674315333366394
1749045771.9543393,5.779443264007568,0.15727154790844722,-2.30104398727417,5.352352368622579,0.18532800674438477,-4.436212484036581,-0.0003623328229878098,-0.00016369539662264287,0.0003178343176841736,-0.0005436003557406366,3.770014882320538e-05,0.0005139350541867316,0.09728036820888519,-0.6804800033569336,0.4906154274940491,0.07322375476360321,-0.13042566180229187,-0.016549736261367798
1749045771.9543917,5.779477596282959,0.1572679716297607,-2.3010165691375732,5.352367865830221,0.18533292412757874,-4.436195437108175,-0.0002751400170382112,-0.00015794950013514608,0.00030256673926487565,-0.000505381787661463,3.692832979140803e-05,0.0004796391585841775,0.07818732410669327,-0.6965800523757935,0.4784626066684723,0.0727883130311966,-0.14118090271949768,-0.012805968523025513
1749045771.9544427,5.779477596282959,0.15726439535107417,-2.301032066345215,5.352352368622579,0.1853640228509903,-4.43622607389559,-0.0002497203240636736,-0.0001525924017187208,0.00028868476510979235,-0.00047218319377861917,3.6186105717206374e-05,0.00044963849359191954,0.08466699719429016,-0.664332926273346,0.49437329173088074,0.09241023659706116,-0.1200956404209137,-0.031228095293045044
1749045771.9544885,5.779477596282959,0.1572989660450439,-2.3010129928588867,5.352340447693624,0.18534384667873383,-4.436210695897238,-0.00023346082889474928,-0.0001475886529078707,0.0002760434872470796,-0.0004430701374076307,3.547091182554141e-05,0.0004231755738146603,0.11422324925661087,-0.706113338470459,0.49015113711357117,0.09115800261497498,-0.12336117029190063,-0.030412882566452026
1749045771.9545271,5.779477596282959,0.1572989660450439,-2.3010129928588867,5.352340447693624,0.18534384667873383,-4.436210695897238,-0.00023346082889474928,-0.0001475886529078707,0.0002760434872470796,-0.0004430701374076307,3.547091182554141e-05,0.0004231755738146603,0.11422324925661087,-0.706113338470459,0.49015113711357117,0.09115800261497498,-0.12336117029190063,-0.030412882566452026
1749045771.9545648,5.7794270515441895,0.15727631628002925,-2.3010284900665283,5.352359580784597,0.18531610071659088,-4.436214152966635,0.0003095052670687437,-0.00013850245159119368,0.00025378810823895037,-0.00039446839946322143,3.412769001442939e-05,0.0003786181041505188,0.1379658281803131,-0.724311351776123,0.4886155426502228,0.07033497095108032,-0.10245922207832336,-0.020903021097183228
1749045771.9546022,5.7794270515441895,0.15727631628002925,-2.3010284900665283,5.352359580784597,0.18531610071659088,-4.436214152966635,0.0003095052670687437,-0.00013850245159119368,0.00025378810823895037,-0.00039446839946322143,3.412769001442939e-05,0.0003786181041505188,0.1379658281803131,-0.724311351776123,0.4886155426502228,0.07033497095108032,-0.10245922207832336,-0.020903021097183228
1749045771.9546402,5.779463291168213,0.15727154790844722,-2.3010475635528564,5.352352368622579,0.18535572290420532,-4.436232988034384,0.0029761039186269045,-0.00015630392590537667,0.00023487162252422422,-0.00035547715378925204,3.2880459912121296e-05,0.0003425577888265252,0.09446538984775543,-0.7534178495407104,0.5120992660522461,0.08477950096130371,-0.0884733647108078,-0.0399300754070282
1749045771.954677,5.779509544372559,0.15726439535107417,-2.3010094165802,5.352344023972311,0.18534016609191895,-4.436171595250265,0.0019555280450731516,-0.00015215111488942057,0.00022642080148216337,-0.0003387404140084982,3.2290874514728785e-05,0.0003269893059041351,0.09688427299261093,-0.7510315179824829,0.5289609432220459,0.075075663626194,-0.09470146894454956,-0.02937254309654236
1749045771.9547136,5.779506206512451,0.15723340093579097,-2.30104398727417,5.352363097458639,0.18532070517539978,-4.4361833969699305,0.0014339523622766137,-0.00014798485790379345,0.00023387442342936993,-0.0003235036856494844,3.1720101105747744e-05,0.0003127748204860836,0.09249687939882278,-0.7683266401290894,0.5209710597991943,0.08665654808282852,-0.08166556060314178,-0.04138016700744629
1749045771.9547503,5.779506206512451,0.15723340093579097,-2.30104398727417,5.352363097458639,0.18532070517539978,-4.4361833969699305,0.0014339523622766137,-0.00014798485790379345,0.00023387442342936993,-0.0003235036856494844,3.1720101105747744e-05,0.0003127748204860836,0.09249687939882278,-0.7683266401290894,0.5209710597991943,0.08665654808282852,-0.08166556060314178,-0.04138016700744629
1749045771.9547868,5.779494285583496,0.15724532186474605,-2.3010284900665283,5.352367865830221,0.18534845113754272,-4.436229530964987,0.0011323490180075169,-0.00016728333139326423,0.0002403801481705159,-0.0003095883585046977,3.117207234026864e-05,0.0002997451520059258,0.09634711593389511,-0.7652371525764465,0.5405664443969727,0.05629684031009674,-0.10473987460136414,-0.0349559485912323
1749045771.9548235,5.7794976234436035,0.15727512418713374,-2.301024913787842,5.352359521179952,0.18532800674438477,-4.436164681111471,0.0005749795236624777,-0.00016684828733559698,0.0002534595550969243,-0.0002682337071746588,3.0127261197776534e-05,0.0002766939578577876,0.07854896783828735,-0.7569129467010498,0.5634421110153198,0.04718395322561264,-0.09852565824985504,-0.03413712978363037
1749045771.9548602,5.7794928550720215,0.15727512418713374,-2.3010404109954834,5.352328467160024,0.1853293627500534,-4.4362245241748255,0.0003600095515139401,-0.0002186093624914065,0.0021088009234517813,-0.0019696021918207407,2.963247061416041e-05,0.0002664494968485087,0.04772792384028435,-0.8004602193832397,0.5506482124328613,0.03213129937648773,-0.09818986058235168,-0.018209725618362427
1749045771.9548967,5.7794928550720215,0.15727512418713374,-2.3010404109954834,5.352328467160024,0.1853293627500534,-4.4362245241748255,0.0003600095515139401,-0.0002186093624914065,0.0021088009234517813,-0.0019696021918207407,2.963247061416041e-05,0.0002664494968485087,0.04772792384028435,-0.8004602193832397,0.5506482124328613,0.03213129937648773,-0.09818986058235168,-0.018209725618362427
1749045771.9549334,5.779456615447998,0.15721790372814937,-2.301024913787842,5.35230444648818,0.1853867620229721,-4.4362210671054285,-0.002135458169505,-0.002839498920366168,0.0025336523540318012,-0.005503116175532341,2.86868707917165e-05,0.0002480798284523189,-0.03437258303165436,-0.7566865682601929,0.5509471297264099,0.03833477944135666,-0.11267510056495667,-0.00267675518989563
1749045771.9549701,5.779456615447998,0.15721790372814937,-2.301024913787842,5.35230444648818,0.1853867620229721,-4.4362210671054285,-0.002135458169505,-0.002839498920366168,0.0025336523540318012,-0.005503116175532341,2.86868707917165e-05,0.0002480798284523189,-0.03437258303165436,-0.7566865682601929,0.5509471297264099,0.03833477944135666,-0.11267510056495667,-0.00267675518989563
1749045771.9550064,5.779513359069824,0.15724412977185054,-2.3010129928588867,5.352292525559225,0.18531706929206848,-4.4362245241748255,-0.0034261387772858143,-0.001886474434286356,0.0015327084111049771,-0.007137490902096033,2.7801821488537826e-05,0.00017498896340839565,-0.04053056240081787,-0.8136980533599854,0.5699451565742493,0.026819802820682526,-0.09918880462646484,-0.00664365291595459
1749045771.9550433,5.779415130615234,0.15724770605053706,-2.301024913787842,5.35228060463027,0.1853160858154297,-4.436232988034384,-0.004144348669797182,-0.0014044212875887752,0.0015558416489511728,-0.00821400061249733,2.737782779149711e-05,0.00019838925800286233,-0.0332951694726944,-0.8285194635391235,0.5871425271034241,0.022206120193004608,-0.11863139271736145,0.0045494139194488525
1749045771.9550798,5.779454708099365,0.15724055349316401,-2.3010284900665283,5.3522565243537805,0.185374915599823,-4.436243240033285,-0.005069751758128405,-0.0014804813545197248,0.001850805478170514,-0.009316730313003063,2.696851697692182e-05,0.0009395326487720013,-0.08527728915214539,-0.8158502578735352,0.5859636664390564,0.012462109327316284,-0.11502480506896973,0.014128640294075012
1749045771.955116,5.779485702514648,0.1572250562855224,-2.3010010719299316,5.352244543820181,0.1853015124797821,-4.436227862034933,-0.006927984766662121,-0.0022958735935389996,0.0035557530354708433,-0.010449402034282684,2.657056575117167e-05,0.0021874515805393457,-0.08206690847873688,-0.8186911344528198,0.5719811320304871,0.0005879104137420654,-0.11903753876686096,0.014811336994171143
1749045771.9552224,5.779465198516846,0.15721313535656734,-2.3010201454162598,5.352236497193136,0.18532073497772217,-4.436178390179769,-0.008704794570803642,-0.003646393772214651,0.005156665574759245,-0.011287844739854336,2.6182937290286645e-05,0.0034055844880640507,-0.08541356027126312,-0.8053452968597412,0.5923988819122314,-0.01088416576385498,-0.12643307447433472,0.01565895974636078
1749045771.9564552,5.779403209686279,0.15720121442761226,-2.300992727279663,5.352181064873495,0.18530158698558807,-4.436169926320211,-0.010447798296809196,-0.0035564403515309095,0.004701131023466587,-0.012435249984264374,2.5808421924011782e-05,0.0038637868128716946,-0.11940166354179382,-0.8111104965209961,0.5937297940254211,-0.0038982629776000977,-0.1341114342212677,0.012956246733665466
1749045771.9982827,5.779383182525635,0.15724770605053706,-2.300992727279663,5.3521883366401575,0.18532435595989227,-4.436181847249166,-0.012265554629266262,-0.0031465310603380203,0.004517725668847561,-0.013801440596580505,2.5443752747378312e-05,0.0035378935281187296,-0.1077713668346405,-0.8660645484924316,0.5875353217124939,-0.024359330534934998,-0.12931737303733826,0.02413192391395569
1749045771.9983287,5.779383182525635,0.15724770605053706,-2.300992727279663,5.3521883366401575,0.18532435595989227,-4.436181847249166,-0.012265554629266262,-0.0031465310603380203,0.004517725668847561,-0.013801440596580505,2.5443752747378312e-05,0.0035378935281187296,-0.1077713668346405,-0.8660645484924316,0.5875353217124939,-0.024359330534934998,-0.12931737303733826,0.02413192391395569
1749045771.998376,5.779328346252441,0.1571696239658813,-2.300964593887329,5.35210936048583,0.1853051781654358,-4.436173502598898,-0.01686963438987732,-0.004990085493773222,0.005228150170296431,-0.017408499494194984,2.4744065740378574e-05,0.004112577065825462,-0.14864785969257355,-0.8606376647949219,0.6074961423873901,-0.007615223526954651,-0.13732147216796875,0.020818352699279785
1749045771.9984264,5.7793192863464355,0.15716855108227534,-2.3009564876556396,5.352073597698965,0.18534746766090393,-4.436145607625143,-0.018756885081529617,-0.006287866737693548,0.005795124918222427,-0.017403727397322655,2.44086349994177e-05,0.005358441267162561,-0.123671755194664,-0.8416975140571594,0.604242742061615,-0.0007118731737136841,-0.16127118468284607,0.045813143253326416
1749045771.9984663,5.779240131378174,0.1571792799183349,-2.3009445667266846,5.352033960610189,0.1853197067975998,-4.436130229626791,-0.020525285974144936,-0.0058201029896736145,0.006409516558051109,-0.017477624118328094,1.4197236851032358e-05,0.006415561772882938,-0.11443373560905457,-0.8535540103912354,0.6032937169075012,-0.012400150299072266,-0.17975172400474548,0.029635846614837646
1749045771.998506,5.779274940490723,0.15715305387463374,-2.3009445667266846,5.352005171566763,0.1853087991476059,-4.436118308697836,-0.02038293331861496,-0.005741938482969999,0.007071230560541153,-0.016572928056120872,1.2263087228348013e-05,0.0071309469640254974,-0.13520604372024536,-0.8729218244552612,0.6106933951377869,-0.011910825967788696,-0.18295502662658691,0.04671935737133026
1749045771.9985447,5.779274940490723,0.15715305387463374,-2.3009445667266846,5.352005171566763,0.1853087991476059,-4.436118308697836,-0.02038293331861496,-0.005741938482969999,0.007071230560541153,-0.016572928056120872,1.2263087228348013e-05,0.0071309469640254974,-0.13520604372024536,-0.8729218244552612,0.6106933951377869,-0.011910825967788696,-0.18295502662658691,0.04671935737133026
1749045771.9985816,5.779148101806641,0.15712921201672359,-2.300917148590088,5.351969468384542,0.18535570800304413,-4.436113301907675,-0.021921273320913315,-0.008257672190666199,0.007268952671438456,-0.015988025814294815,3.1977760954760015e-06,0.008982730098068714,-0.11761952936649323,-0.8828408122062683,0.6428581476211548,-0.041220828890800476,-0.20382723212242126,0.06829264760017395
1749045771.998619,5.779139041900635,0.1571172910877685,-2.300905227661133,5.351964461594381,0.18535208702087402,-4.4360825459109705,-0.02268393710255623,-0.008613076992332935,0.007967459969222546,-0.016638416796922684,5.650805405821302e-07,0.009947565384209156,-0.10825414955615997,-0.875624418258667,0.6399933695793152,-0.019888997077941895,-0.20624509453773499,0.06138056516647339
1749045771.9986565,5.7790985107421875,0.15711621820416255,-2.300881862640381,5.35192899683074,0.18534384667873383,-4.43604284921755,-0.02330189011991024,-0.008007894270122051,0.009296598844230175,-0.017107238993048668,9.985565441184008e-08,0.010388661175966263,-0.12365002930164337,-0.9002298712730408,0.642102062702179,-0.0547148734331131,-0.23076942563056946,0.06700406968593597
1749045771.9986951,5.7790350914001465,0.15709702550854487,-2.300900936126709,5.351877438813009,0.18534384667873383,-4.4360122124301355,-0.02337689884006977,-0.00810923334211111,0.009371290914714336,-0.018444089218974113,1.7645541916522234e-08,0.011340980418026447,-0.15928715467453003,-0.9172212481498718,0.6479272246360779,-0.06136756390333176,-0.24829807877540588,0.058333784341812134
1749045771.9987364,5.778980255126953,0.15706913053479,-2.3008575439453125,5.351834225445547,0.1853352040052414,-4.435998622571127,-0.023832986131310463,-0.008938424289226532,0.009483442641794682,-0.019832460209727287,-0.001621902920305729,0.011949860490858555,-0.13383890688419342,-0.9311372637748718,0.6528686285018921,-0.06336271017789841,-0.2435450255870819,0.06683728098869324
1749045771.9987748,5.778949737548828,0.1570536333271484,-2.300830125808716,5.351817357331075,0.18530873954296112,-4.435952011738912,-0.02469172514975071,-0.009281139820814133,0.01080661453306675,-0.02126167342066765,-0.003163516754284501,0.012529218569397926,-0.12588483095169067,-0.9499722123146057,0.6622186899185181,-0.06682056933641434,-0.23141512274742126,0.07511714100837708
1749045771.998812,5.7789306640625,0.15703694402661128,-2.3008134365081787,5.351777899056234,0.1852932870388031,-4.435943428670065,-0.024968689307570457,-0.009990766644477844,0.011242551729083061,-0.02335619181394577,-0.00421257596462965,0.013249216601252556,-0.16427761316299438,-0.9258283376693726,0.6564041376113892,-0.0726507306098938,-0.23792091012001038,0.10108566284179688
1749045771.9988487,5.7789306640625,0.15703694402661128,-2.3008134365081787,5.351777899056234,0.1852932870388031,-4.435943428670065,-0.024968689307570457,-0.009990766644477844,0.011242551729083061,-0.02335619181394577,-0.00421257596462965,0.013249216601252556,-0.16427761316299438,-0.9258283376693726,0.6564041376113892,-0.0726507306098938,-0.23792091012001038,0.10108566284179688
1749045771.9988859,5.778791904449463,0.15699343263592525,-2.3007736206054688,5.351654755860128,0.18533070385456085,-4.435960833226339,-0.0268113911151886,-0.011005932465195656,0.012991963885724545,-0.025915762409567833,-0.005621533375233412,0.013484090566635132,-0.17335033416748047,-0.9461469650268555,0.6443086862564087,-0.084759421646595,-0.24930472671985626,0.07772254943847656
1749045771.9989228,5.778745174407959,0.15697328626599116,-2.3007497787475586,5.351591217308798,0.1852453351020813,-4.435911242161886,-0.027823273092508316,-0.011860515922307968,0.013461889699101448,-0.02752229943871498,-0.006428870838135481,0.01328381709754467,-0.188386470079422,-0.9425349235534668,0.638316810131073,-0.07584299147129059,-0.2579116225242615,0.10015162825584412
1749045771.9989703,5.778668403625488,0.15692262231793208,-2.300710439682007,5.351536023407736,0.18524406850337982,-4.435893837605612,-0.028978504240512848,-0.012231151573359966,0.013707919046282768,-0.028806133195757866,-0.007335115224123001,0.013604369945824146,-0.19899454712867737,-0.963098406791687,0.6553205847740173,-0.08893449604511261,-0.2523998022079468,0.07507437467575073
1749045771.9990096,5.778611660003662,0.15692607938732905,-2.3006858825683594,5.351514804154196,0.18524770438671112,-4.4358665386783045,-0.0301763154566288,-0.012417448684573174,0.013358375988900661,-0.030073000118136406,-0.008263722062110901,0.013103561475872993,-0.2015390247106552,-0.9605254530906677,0.6505330204963684,-0.10771990567445755,-0.2638247609138489,0.09152993559837341
1749045771.9990463,5.778611660003662,0.15692607938732905,-2.3006858825683594,5.351514804154196,0.18524770438671112,-4.4358665386783045,-0.0301763154566288,-0.012417448684573174,0.013358375988900661,-0.030073000118136406,-0.008263722062110901,0.013103561475872993,-0.2015390247106552,-0.9605254530906677,0.6505330204963684,-0.10771990567445755,-0.2638247609138489,0.09152993559837341
1749045771.9991562,5.778497219085693,0.1569250065037231,-2.3006539344787598,5.351364302426138,0.18519744277000427,-4.435753409062521,-0.03259967267513275,-0.011816391721367836,0.012814118526875973,-0.034073587507009506,-0.008516564033925533,0.012700160034000874,-0.22227752208709717,-0.9861425161361694,0.6564939022064209,-0.10034914314746857,-0.25201696157455444,0.10200459510087967
1749045772.0004792,5.77844762802124,0.15687672674145503,-2.3006181716918945,5.35129206159667,0.18518424034118652,-4.435774151478903,-0.03426159545779228,-0.012040071189403534,0.012684229761362076,-0.03606355935335159,-0.009113715030252934,0.01337913703173399,-0.20409899950027466,-0.989538311958313,0.672455370426178,-0.12396836280822754,-0.24548684060573578,0.09309328347444534
1749045772.0423312,5.77844762802124,0.15687672674145503,-2.3006181716918945,5.35129206159667,0.18518424034118652,-4.435774151478903,-0.03426159545779228,-0.012040071189403534,0.012684229761362076,-0.03606355935335159,-0.009113715030252934,0.01337913703173399,-0.20409899950027466,-0.989538311958313,0.672455370426178,-0.12396836280822754,-0.24548684060573578,0.09309328347444534
1749045772.0423775,5.778284549713135,0.15681414186444087,-2.300581932067871,5.3511215327079675,0.18516039848327637,-4.435714069996969,-0.03716319799423218,-0.0117994025349617,0.013244195841252804,-0.042196933180093765,-0.011223461478948593,0.013013563118875027,-0.24695803225040436,-1.0150046348571777,0.6823989152908325,-0.12706418335437775,-0.24269485473632812,0.10597264766693115
1749045772.0424275,5.778233051300049,0.1568094927021484,-2.300562858581543,5.351034390717306,0.18512800335884094,-4.435717527066366,-0.039109814912080765,-0.01195407472550869,0.013686243444681168,-0.04459100589156151,-0.011412281543016434,0.01344539038836956,-0.23175576329231262,-1.0244262218475342,0.6852366924285889,-0.10195929557085037,-0.24842819571495056,0.1087862104177475
1749045772.0424693,5.778083801269531,0.15678922712292476,-2.300546169281006,5.350942003517904,0.18508107960224152,-4.435717527066366,-0.041084419935941696,-0.011969604529440403,0.013801909983158112,-0.04637190327048302,-0.011261058039963245,0.01450661662966013,-0.25472772121429443,-1.0306856632232666,0.6783933639526367,-0.10924576222896576,-0.25634682178497314,0.1408778727054596
1749045772.0425074,5.778018951416016,0.15678445875134273,-2.3005378246307373,5.350843059807577,0.1850847601890564,-4.435644213353292,-0.040969718247652054,-0.012750180438160896,0.013407084159553051,-0.04739348590373993,-0.011116959154605865,0.015790684148669243,-0.284955233335495,-0.9988862872123718,0.6823821663856506,-0.128342866897583,-0.2561151087284088,0.11214816570281982
1749045772.0425472,5.778018951416016,0.15678445875134273,-2.3005378246307373,5.350843059807577,0.1850847601890564,-4.435644213353292,-0.040969718247652054,-0.012750180438160896,0.013407084159553051,-0.04739348590373993,-0.011116959154605865,0.015790684148669243,-0.284955233335495,-0.9988862872123718,0.6823821663856506,-0.128342866897583,-0.2561151087284088,0.11214816570281982
1749045772.0425894,5.777885437011719,0.15667907773937984,-2.300478219985962,5.350654351502218,0.18500907719135284,-4.43561822572817,-0.047426484525203705,-0.013368143700063229,0.01405689399689436,-0.04884389042854309,-0.011489158496260643,0.016447294503450394,-0.2642011046409607,-1.0484282970428467,0.7089771628379822,-0.1581377536058426,-0.2510671615600586,0.1380905658006668
1749045772.0426276,5.77778959274292,0.15665165960278316,-2.3004698753356934,5.35053430774764,0.1850212812423706,-4.435551706944601,-0.046491727232933044,-0.013491585850715637,0.014799820259213448,-0.05169444903731346,-0.011260646395385265,0.01869680918753147,-0.2689707279205322,-1.0402473211288452,0.711090624332428,-0.12082355469465256,-0.24399305880069733,0.1386912316083908
1749045772.042665,5.777763843536377,0.15668146192517085,-2.3004071712493896,5.350438761502065,0.18500447273254395,-4.435527269040243,-0.04846698045730591,-0.013727156445384026,0.015141293406486511,-0.05299488082528114,-0.011425450444221497,0.019855551421642303,-0.30093103647232056,-1.0883241891860962,0.7139743566513062,-0.10208248347043991,-0.24592947959899902,0.15116840600967407
1749045772.0427022,5.777633190155029,0.15658025323834224,-2.3004026412963867,5.350328194886007,0.18495753407478333,-4.435510460530416,-0.05027592182159424,-0.0147483479231596,0.015781328082084656,-0.054781194776296616,-0.011074414476752281,0.02030019648373127,-0.28844621777534485,-1.053892731666565,0.7140647768974304,-0.10335666686296463,-0.2572513520717621,0.1386459767818451
1749045772.0427427,5.777633190155029,0.15658025323834224,-2.3004026412963867,5.350328194886007,0.18495753407478333,-4.435510460530416,-0.05027592182159424,-0.0147483479231596,0.015781328082084656,-0.054781194776296616,-0.011074414476752281,0.02030019648373127,-0.28844621777534485,-1.053892731666565,0.7140647768974304,-0.10335666686296463,-0.2572513520717621,0.1386459767818451
1749045772.0427806,5.777390480041504,0.15653543054547114,-2.3003621101379395,5.35005812624053,0.18493270874023438,-4.4353854099856775,-0.0532691590487957,-0.015348345972597599,0.017309393733739853,-0.06002688780426979,-0.01203954592347145,0.022975701838731766,-0.30314552783966064,-1.0526423454284668,0.7306016683578491,-0.10138489305973053,-0.2576574683189392,0.16682414710521698
1749045772.0428176,5.777374744415283,0.15656594812359614,-2.3003342151641846,5.3499998328979395,0.18487393856048584,-4.4353634754764,-0.05428246781229973,-0.01610030047595501,0.017486725002527237,-0.05889049544930458,-0.012038500048220158,0.024094076827168465,-0.36286771297454834,-1.072272777557373,0.7359617948532104,-0.10639386624097824,-0.2358441948890686,0.16930267214775085
1749045772.0428543,5.777374744415283,0.15656594812359614,-2.3003342151641846,5.3499998328979395,0.18487393856048584,-4.4353634754764,-0.05428246781229973,-0.01610030047595501,0.017486725002527237,-0.05889049544930458,-0.012038500048220158,0.024094076827168465,-0.36286771297454834,-1.072272777557373,0.7359617948532104,-0.10639386624097824,-0.2358441948890686,0.16930267214775085
1749045772.0428941,5.777093887329102,0.1564747530170898,-2.300250291824341,5.349744486599722,0.18485338985919952,-4.4352949301349085,-0.06138870492577553,-0.017671853303909302,0.018772710114717484,-0.05992242693901062,-0.010914577171206474,0.025379355996847153,-0.3173615336418152,-1.09298837184906,0.7232061624526978,-0.144919291138649,-0.24483005702495575,0.17304576933383942
1749045772.0429318,5.776922702789307,0.1564313608356933,-2.3001954555511475,5.34960566738204,0.18484878540039062,-4.435231391583578,-0.060928940773010254,-0.017662126570940018,0.01918599009513855,-0.06315809488296509,-0.010425333864986897,0.02713678404688835,-0.326133131980896,-1.0828337669372559,0.750615656375885,-0.13631002604961395,-0.23233549296855927,0.15910497307777405
1749045772.042968,5.77684211730957,0.15638010084118648,-2.3001906871795654,5.349471676140585,0.18480557203292847,-4.435195628796713,-0.06257103383541107,-0.018638471141457558,0.019771870225667953,-0.06651280075311661,-0.01069628819823265,0.02708011493086815,-0.3516700863838196,-1.0693209171295166,0.7297512292861938,-0.13392263650894165,-0.24271857738494873,0.16295483708381653
1749045772.0430045,5.776663303375244,0.1563592392155151,-2.3001084327697754,5.34935890415267,0.1847694367170334,-4.435113374386923,-0.06457535922527313,-0.01908823847770691,0.020548267289996147,-0.06762994825839996,-0.010657492093741894,0.027854381129145622,-0.33794769644737244,-1.0938235521316528,0.7469607591629028,-0.14161555469036102,-0.24121564626693726,0.17671935260295868
1749045772.0430417,5.776663303375244,0.1563592392155151,-2.3001084327697754,5.34935890415267,0.1847694367170334,-4.435113374386923,-0.06457535922527313,-0.01908823847770691,0.020548267289996147,-0.06762994825839996,-0.010657492093741894,0.027854381129145622,-0.33794769644737244,-1.0938235521316528,0.7469607591629028,-0.14161555469036102,-0.24121564626693726,0.17671935260295868
1749045772.0430815,5.776446342468262,0.15631048261608882,-2.300051689147949,5.349054920464315,0.18477217853069305,-4.435075346623556,-0.06912659108638763,-0.020422616973519325,0.021610122174024582,-0.07083877921104431,-0.009295342490077019,0.029946988448500633,-0.3414376378059387,-1.0994231700897217,0.741619884967804,-0.13501526415348053,-0.24709635972976685,0.17905409634113312
1749045772.04319,5.776345252990723,0.1562247711369018,-2.299984931945801,5.348926889687338,0.18470141291618347,-4.435000602399008,-0.06686391681432724,-0.02158319391310215,0.02217467501759529,-0.07232587039470673,-0.009255355224013329,0.030684253200888634,-0.37109115719795227,-1.0782642364501953,0.7381995320320129,-0.1336868554353714,-0.2330649495124817,0.18773870170116425
1749045772.0445046,5.776144981384277,0.15617279588665767,-2.2999751567840576,5.348771559983053,0.18473613262176514,-4.4349438587771814,-0.06837759166955948,-0.021534744650125504,0.023050589486956596,-0.07315337657928467,-0.008864735253155231,0.03310323506593704,-0.4047987461090088,-1.075360894203186,0.7475982904434204,-0.1407812386751175,-0.24397385120391846,0.16453462839126587
1749045772.0862844,5.7760210037231445,0.15615241109814448,-2.2999048233032227,5.348594474583425,0.18468914926052094,-4.43487531343569,-0.07370172441005707,-0.021623337641358376,0.023732373490929604,-0.07722516357898712,-0.009005296044051647,0.03397564962506294,-0.3677527904510498,-1.0779635906219482,0.7469795942306519,-0.13218608498573303,-0.2525111436843872,0.1756533980369568
1749045772.086328,5.7760210037231445,0.15615241109814448,-2.2999048233032227,5.348594474583425,0.18468914926052094,-4.43487531343569,-0.07370172441005707,-0.021623337641358376,0.023732373490929604,-0.07722516357898712,-0.009005296044051647,0.03397564962506294,-0.3677527904510498,-1.0779635906219482,0.7469795942306519,-0.13218608498573303,-0.2525111436843872,0.1756533980369568
1749045772.0863676,5.775740146636963,0.15607587873425288,-2.2998087406158447,5.348288762360372,0.18467272818088531,-4.434741799031393,-0.07437212765216827,-0.023101115599274635,0.024179160594940186,-0.07658538967370987,-0.010138869285583496,0.03459778055548668,-0.3715284466743469,-1.1122844219207764,0.7468405365943909,-0.12631827592849731,-0.24047137796878815,0.18650725483894348
1749045772.086405,5.77565336227417,0.15604011594738765,-2.2997803688049316,5.348161089211263,0.18461747467517853,-4.434669677411215,-0.07697184383869171,-0.023323914036154747,0.02483438327908516,-0.07693170011043549,-0.009361466392874718,0.034234657883644104,-0.3832210898399353,-1.1295174360275269,0.7420761585235596,-0.15799520909786224,-0.24866162240505219,0.17839714884757996
1749045772.0864503,5.77565336227417,0.15604011594738765,-2.2997803688049316,5.348161089211263,0.18461747467517853,-4.434669677411215,-0.07697184383869171,-0.023323914036154747,0.02483438327908516,-0.07693170011043549,-0.009361466392874718,0.034234657883644104,-0.3832210898399353,-1.1295174360275269,0.7420761585235596,-0.15799520909786224,-0.24866162240505219,0.17839714884757996
1749045772.0864902,5.775280475616455,0.15589778005566401,-2.299669027328491,5.347818839340963,0.18461255729198456,-4.434482995663778,-0.08063913136720657,-0.02401607856154442,0.02621837705373764,-0.08188752084970474,-0.010386724025011063,0.03598831966519356,-0.38738906383514404,-1.116265892982483,0.7496030330657959,-0.15170510113239288,-0.27108657360076904,0.173152357339859
1749045772.0865312,5.7751288414001465,0.15585367261853023,-2.2996249198913574,5.347683298378744,0.1845778226852417,-4.434449259434835,-0.08157511055469513,-0.025302892550826073,0.02625618316233158,-0.0855233445763588,-0.010919568128883839,0.03605475276708603,-0.4081551432609558,-1.0910406112670898,0.7604088187217712,-0.12280093878507614,-0.2563658058643341,0.16249960660934448
1749045772.0865693,5.774977684020996,0.15577439844097896,-2.2995731830596924,5.347481775074758,0.18455733358860016,-4.43437379995455,-0.08283720910549164,-0.026167472824454308,0.026203494518995285,-0.08594083040952682,-0.011420766822993755,0.0371161624789238,-0.41695189476013184,-1.1024621725082397,0.7725529670715332,-0.13099460303783417,-0.2691628038883209,0.17852899432182312
1749045772.0866065,5.774794101715088,0.1557268339344482,-2.2995564937591553,5.347310650139608,0.18454177677631378,-4.434289876614706,-0.08487235009670258,-0.025652002543210983,0.026287531480193138,-0.08462883532047272,-0.01160504575818777,0.03673174977302551,-0.4005565345287323,-1.101763129234314,0.7886873483657837,-0.13998748362064362,-0.25472021102905273,0.16704708337783813
1749045772.086646,5.774794101715088,0.1557268339344482,-2.2995564937591553,5.347310650139608,0.18454177677631378,-4.434289876614706,-0.08487235009670258,-0.025652002543210983,0.026287531480193138,-0.08462883532047272,-0.01160504575818777,0.03673174977302551,-0.4005565345287323,-1.101763129234314,0.7886873483657837,-0.13998748362064362,-0.25472021102905273,0.16704708337783813
1749045772.0866833,5.774508476257324,0.1556500631519775,-2.299417734146118,5.346948194294729,0.18447832763195038,-4.434142295514242,-0.08876518905162811,-0.026779023930430412,0.026967814192175865,-0.08995561301708221,-0.013506363146007061,0.037236545234918594,-0.3964453637599945,-1.1035776138305664,0.8045111894607544,-0.13891027867794037,-0.2772337794303894,0.18168587982654572
1749045772.0867202,5.774254322052002,0.15559355794873042,-2.2993545532226562,5.346802937775411,0.1844652146100998,-4.43408972421755,-0.09140365570783615,-0.02792363613843918,0.02754499576985836,-0.09069346636533737,-0.015151147730648518,0.03704993426799774,-0.40281686186790466,-1.1194144487380981,0.8106957077980042,-0.1299242079257965,-0.2622299790382385,0.16898316144943237
1749045772.0867567,5.774082660675049,0.1555458742329101,-2.299325466156006,5.3465959308441064,0.1844063252210617,-4.434017721806661,-0.09226088225841522,-0.029066095128655434,0.028269873932003975,-0.09176933765411377,-0.015752527862787247,0.03702966868877411,-0.40045487880706787,-1.100697636604309,0.8076080083847046,-0.1321844756603241,-0.2633923888206482,0.16948439180850983
1749045772.0867937,5.773929119110107,0.15547434865917964,-2.299238681793213,5.346440481930532,0.18438620865345,-4.433964554463522,-0.09701717644929886,-0.028544308617711067,0.028868183493614197,-0.09327566623687744,-0.01510531734675169,0.037023503333330154,-0.4237099885940552,-1.1132434606552124,0.8233640789985657,-0.13312803208827972,-0.2597755491733551,0.16544535756111145
1749045772.08683,5.773731708526611,0.15541784345593257,-2.2992022037506104,5.346255409508505,0.18434278666973114,-4.433877174054281,-0.09391286969184875,-0.029648639261722565,0.029831549152731895,-0.09360919892787933,-0.015025700442492962,0.03721649572253227,-0.4241306781768799,-1.1232590675354004,0.8128108382225037,-0.13778311014175415,-0.2711690366268158,0.16856013238430023
1749045772.0868664,5.773545742034912,0.15533141672100825,-2.299126386642456,5.346075880318441,0.1843491494655609,-4.433767382298605,-0.09612312912940979,-0.03141927346587181,0.03025834448635578,-0.09590667486190796,-0.01579222083091736,0.03861912712454796,-0.4610159397125244,-1.1125991344451904,0.8114909529685974,-0.1619717925786972,-0.26094940304756165,0.1610059142112732
1749045772.0869033,5.773287773132324,0.1552712160297851,-2.2990825176239014,5.345869231015005,0.18427817523479462,-4.433721129094259,-0.09737158566713333,-0.031091233715415,0.03175286948680878,-0.09758167713880539,-0.0164214875549078,0.03934687003493309,-0.41658589243888855,-1.1083860397338867,0.8130109310150146,-0.1573433130979538,-0.2693620026111603,0.1700652688741684
1749045772.0869396,5.773287773132324,0.1552712160297851,-2.2990825176239014,5.345869231015005,0.18427817523479462,-4.433721129094259,-0.09737158566713333,-0.031091233715415,0.03175286948680878,-0.09758167713880539,-0.0164214875549078,0.03934687003493309,-0.41658589243888855,-1.1083860397338867,0.8130109310150146,-0.1573433130979538,-0.2693620026111603,0.1700652688741684
1749045772.0869758,5.7729387283325195,0.15517251073803706,-2.2989509105682373,5.345474171429434,0.18422560393810272,-4.433505241070883,-0.10364164412021637,-0.03168351948261261,0.033163025975227356,-0.1016571894288063,-0.017475144937634468,0.04034469649195671,-0.419747918844223,-1.1059458255767822,0.8204171657562256,-0.15647169947624207,-0.27123382687568665,0.1718527376651764
1749045772.087012,5.772703647613525,0.15510456144299312,-2.2988476753234863,5.345243680268087,0.1841585785150528,-4.433474961911337,-0.10387857258319855,-0.03345523402094841,0.03421775996685028,-0.10400018841028214,-0.018932387232780457,0.04144302383065224,-0.43321290612220764,-1.0973289012908936,0.803077220916748,-0.16530627012252808,-0.25898218154907227,0.16390876471996307
1749045772.0871232,5.7725067138671875,0.15504328786816401,-2.2987911701202393,5.34504001119689,0.1841932088136673,-4.43339449564089,-0.10539571195840836,-0.03340371325612068,0.03493298217654228,-0.10571440309286118,-0.01815098151564598,0.04130951687693596,-0.44671639800071716,-1.0945194959640503,0.8134575486183167,-0.16763238608837128,-0.25078752636909485,0.15857261419296265
1749045772.0884726,5.772340774536133,0.15499965726818843,-2.2987234592437744,5.344812559872427,0.184087872505188,-4.433284703885214,-0.10823420435190201,-0.03400297835469246,0.03553472086787224,-0.10743287205696106,-0.01872401498258114,0.04151495546102524,-0.4386094808578491,-1.109799861907959,0.7993981242179871,-0.16230228543281555,-0.25451570749282837,0.18641088902950287
1749045772.134303,5.7720866203308105,0.1549355226704101,-2.298632860183716,5.344593930035391,0.18409396708011627,-4.433226648961202,-0.10732664912939072,-0.034865740686655045,0.03675483912229538,-0.10890153050422668,-0.01921057514846325,0.04279770702123642,-0.45616358518600464,-1.09627103805542,0.8101273775100708,-0.1533593237400055,-0.25092339515686035,0.17549040913581848
1749045772.1343505,5.771905899047852,0.15486054002728267,-2.2985451221466064,5.34438173749999,0.18402327597141266,-4.433139268551962,-0.11260282248258591,-0.03577897325158119,0.036957357078790665,-0.10948824882507324,-0.017803272232413292,0.044642187654972076,-0.4464215338230133,-1.092228651046753,0.8005990386009216,-0.18085399270057678,-0.25169631838798523,0.17190894484519958
1749045772.1343906,5.771674633026123,0.1547955709644775,-2.2984611988067627,5.34413896778182,0.18400274217128754,-4.43301755586733,-0.1120290532708168,-0.036004386842250824,0.0382939912378788,-0.11172045022249222,-0.01723596081137657,0.045041948556900024,-0.43746164441108704,-1.1134135723114014,0.7855746150016785,-0.19169966876506805,-0.2634192407131195,0.16925504803657532
1749045772.1344297,5.771674633026123,0.1547955709644775,-2.2984611988067627,5.34413896778182,0.18400274217128754,-4.43301755586733,-0.1120290532708168,-0.036004386842250824,0.0382939912378788,-0.11172045022249222,-0.01723596081137657,0.045041948556900024,-0.43746164441108704,-1.1134135723114014,0.7855746150016785,-0.19169966876506805,-0.2634192407131195,0.16925504803657532
1749045772.1344779,5.771202564239502,0.154644175166748,-2.298309564590454,5.343684065132894,0.18395018577575684,-4.432875458394186,-0.11623266339302063,-0.03664182499051094,0.038681283593177795,-0.11231672018766403,-0.018031995743513107,0.04441522806882858,-0.41934001445770264,-1.1148943901062012,0.8128405809402466,-0.18714410066604614,-0.2735351026058197,0.19588671624660492
1749045772.1345305,5.770944595336914,0.15453295289959712,-2.2982444763183594,5.343450653343954,0.18388281762599945,-4.432781163846151,-0.11667066812515259,-0.0371355339884758,0.03824314847588539,-0.11379777640104294,-0.018449775874614716,0.045029573142528534,-0.47098278999328613,-1.0991029739379883,0.811363160610199,-0.20623520016670227,-0.2807120382785797,0.20151299238204956
1749045772.1345706,5.770688533782959,0.1544930177875976,-2.2981693744659424,5.343226718693533,0.18387818336486816,-4.432700697575704,-0.11772918701171875,-0.03696494176983833,0.04005211964249611,-0.11743632704019547,-0.020520102232694626,0.04646911099553108,-0.4535793364048004,-1.1052826642990112,0.784766435623169,-0.19930191338062286,-0.27589353919029236,0.19021527469158173
1749045772.1346087,5.770456314086914,0.15445200979199214,-2.2980539798736572,5.342945682793417,0.18383745849132538,-4.432618800793783,-0.12048346549272537,-0.03737691044807434,0.04088201746344566,-0.11967290937900543,-0.0204123854637146,0.04831204563379288,-0.4582834839820862,-1.1332323551177979,0.7914905548095703,-0.19533489644527435,-0.24930313229560852,0.18951761722564697
1749045772.1346455,5.770456314086914,0.15445200979199214,-2.2980539798736572,5.342945682793417,0.18383745849132538,-4.432618800793783,-0.12048346549272537,-0.03737691044807434,0.04088201746344566,-0.11967290937900543,-0.0204123854637146,0.04831204563379288,-0.4582834839820862,-1.1332323551177979,0.7914905548095703,-0.19533489644527435,-0.24930313229560852,0.18951761722564697
1749045772.1346824,5.769969463348389,0.15427319585766597,-2.297914743423462,5.342504906445303,0.183746337890625,-4.432423655186788,-0.12330746650695801,-0.038081321865320206,0.04200153425335884,-0.12213582545518875,-0.02073036879301071,0.048937857151031494,-0.4558878540992737,-1.1247388124465942,0.7599025368690491,-0.20355761051177979,-0.27493759989738464,0.17768670618534088
1749045772.1347187,5.7697601318359375,0.15416721879925532,-2.297806978225708,5.342242169171133,0.1836443692445755,-4.432305399571554,-0.12813885509967804,-0.03783195838332176,0.040802352130413055,-0.12566134333610535,-0.0200323686003685,0.05146690458059311,-0.42968329787254333,-1.152296781539917,0.7962314486503601,-0.20616210997104645,-0.2637491524219513,0.18587857484817505
1749045772.134756,5.769485950469971,0.15413395940747066,-2.297750473022461,5.3419750211532495,0.1836370825767517,-4.43219775358309,-0.12628504633903503,-0.038474541157484055,0.042912229895591736,-0.12850631773471832,-0.020112425088882446,0.05196808651089668,-0.4773159623146057,-1.148375391960144,0.784669816493988,-0.2131841629743576,-0.26939690113067627,0.19421908259391785
1749045772.1347926,5.769232749938965,0.1540190416523437,-2.2976510524749756,5.3417115090186975,0.18361948430538177,-4.432105485592977,-0.12943150103092194,-0.03926510736346245,0.044015295803546906,-0.13101935386657715,-0.020452633500099182,0.05231117457151413,-0.44170960783958435,-1.1728957891464233,0.782471239566803,-0.2287960946559906,-0.28730857372283936,0.18818072974681854
1749045772.1348286,5.768958568572998,0.15396611272778316,-2.29758620262146,5.341441023140707,0.18359166383743286,-4.432028357182638,-0.13258016109466553,-0.04022417962551117,0.04403559863567352,-0.13691408932209015,-0.01975174993276596,0.052597928792238235,-0.4467346966266632,-1.141710638999939,0.7788706421852112,-0.20791687071323395,-0.2954794764518738,0.19806133210659027
1749045772.1348646,5.768736362457275,0.15387861310925288,-2.2974750995635986,5.341169285565176,0.18354740738868713,-4.431889239941732,-0.13433144986629486,-0.04203791171312332,0.04468652606010437,-0.1374330073595047,-0.021287471055984497,0.052850425243377686,-0.4363611042499542,-1.1531074047088623,0.7891303300857544,-0.1839238405227661,-0.2885991930961609,0.19636841118335724
1749045772.1349018,5.7684221267700195,0.15377966939892573,-2.297372341156006,5.340894210129537,0.18351496756076813,-4.431766096745626,-0.1350642442703247,-0.0413052961230278,0.04489610716700554,-0.13918493688106537,-0.022410906851291656,0.05434580147266388,-0.4575079381465912,-1.1475472450256348,0.7692103981971741,-0.19060558080673218,-0.27438852190971375,0.21408262848854065
1749045772.1349378,5.7684221267700195,0.15377966939892573,-2.297372341156006,5.340894210129537,0.18351496756076813,-4.431766096745626,-0.1350642442703247,-0.0413052961230278,0.04489610716700554,-0.13918493688106537,-0.022410906851291656,0.05434580147266388,-0.4575079381465912,-1.1475472450256348,0.7692103981971741,-0.19060558080673218,-0.27438852190971375,0.21408262848854065
1749045772.1349735,5.767816543579102,0.15366189062084956,-2.297208070755005,5.340304064541616,0.1833759844303131,-4.431550804768698,-0.13666081428527832,-0.042322542518377304,0.04503218084573746,-0.14271219074726105,-0.024361157789826393,0.05716601386666298,-0.46788257360458374,-1.1490671634674072,0.783531129360199,-0.1805468052625656,-0.2760182023048401,0.182736337184906
1749045772.1350095,5.767555236816406,0.1535516220280151,-2.297100782394409,5.340016710549154,0.1833171546459198,-4.431438867245809,-0.14244981110095978,-0.04340936616063118,0.046207450330257416,-0.1424523890018463,-0.024420058354735374,0.057734668254852295,-0.42637187242507935,-1.167117714881897,0.8060646057128906,-0.19290241599082947,-0.28869470953941345,0.20342615246772766
1749045772.135045,5.767555236816406,0.1535516220280151,-2.297100782394409,5.340016710549154,0.1833171546459198,-4.431438867245809,-0.14244981110095978,-0.04340936616063118,0.046207450330257416,-0.1424523890018463,-0.024420058354735374,0.057734668254852295,-0.42637187242507935,-1.167117714881897,0.8060646057128906,-0.19290241599082947,-0.28869470953941345,0.20342615246772766
1749045772.1350813,5.76697301864624,0.15339676916088862,-2.296905517578125,5.339442479401388,0.18329453468322754,-4.431171719227926,-0.14417651295661926,-0.04476259648799896,0.04689503833651543,-0.14399462938308716,-0.024360904470086098,0.05856621265411377,-0.42326825857162476,-1.1859081983566284,0.7746315598487854,-0.19245263934135437,-0.2554594576358795,0.19781732559204102
1749045772.135117,5.766695499420166,0.1532645660587768,-2.296797513961792,5.3391743181045435,0.1831926703453064,-4.431070868168966,-0.1464187353849411,-0.04463077336549759,0.04728585109114647,-0.14463327825069427,-0.024666257202625275,0.05883651599287987,-0.44061747193336487,-1.2069083452224731,0.7954443693161011,-0.2414480447769165,-0.30228403210639954,0.18788650631904602
1749045772.1352205,5.7663893699646,0.15323130666699214,-2.2967333793640137,5.338918077736654,0.18317237496376038,-4.430981938038961,-0.14849787950515747,-0.04815620929002762,0.04934278503060341,-0.14809705317020416,-0.025186285376548767,0.05948730930685997,-0.4051019549369812,-1.1403982639312744,0.7889078855514526,-0.23148855566978455,-0.2799419164657593,0.18832197785377502
1749045772.1365361,5.766150951385498,0.15309373914685054,-2.296609401702881,5.338580357819357,0.1831352561712265,-4.430821243916647,-0.1485641449689865,-0.04707540199160576,0.051596611738204956,-0.15019355714321136,-0.026353448629379272,0.0599483959376812,-0.4475836753845215,-1.1649754047393799,0.7701202034950256,-0.25922805070877075,-0.281910240650177,0.176662415266037
1749045772.17829,5.765796661376953,0.15304486333813472,-2.296494483947754,5.3382776258285425,0.18309102952480316,-4.430692497883932,-0.14891022443771362,-0.04577741399407387,0.05180070921778679,-0.15434817969799042,-0.028290264308452606,0.0607500821352005,-0.43718844652175903,-1.1951795816421509,0.7427356839179993,-0.22355371713638306,-0.26927387714385986,0.17433297634124756
1749045772.1783361,5.765796661376953,0.15304486333813472,-2.296494483947754,5.3382776258285425,0.18309102952480316,-4.430692497883932,-0.14891022443771362,-0.04577741399407387,0.05180070921778679,-0.15434817969799042,-0.028290264308452606,0.0607500821352005,-0.43718844652175903,-1.1951795816421509,0.7427356839179993,-0.22355371713638306,-0.26927387714385986,0.17433297634124756
1749045772.1783779,5.765462875366211,0.15289477884259028,-2.2963907718658447,5.337989079743185,0.18298430740833282,-4.430591646824972,-0.1497291475534439,-0.0485963448882103,0.05048704519867897,-0.15872310101985931,-0.02828189730644226,0.06144654378294945,-0.4128619134426117,-1.1780928373336792,0.7752254605293274,-0.20580559968948364,-0.25908392667770386,0.18682265281677246
1749045772.1784284,5.765188694000244,0.1527910667606811,-2.2962794303894043,5.337646889477529,0.1829483062028885,-4.43045956293215,-0.15418267250061035,-0.04987167939543724,0.05199861153960228,-0.16096647083759308,-0.02802935242652893,0.06147577241063118,-0.4254053235054016,-1.1766953468322754,0.7566019892692566,-0.2205570787191391,-0.25877299904823303,0.17254458367824554
1749045772.178476,5.7645463943481445,0.15263037263836665,-2.296055793762207,5.33698986747817,0.18282830715179443,-4.430223766957418,-0.15707921981811523,-0.04917252063751221,0.05343152582645416,-0.16423936188220978,-0.02780992165207863,0.06173370033502579,-0.44755834341049194,-1.1982316970825195,0.7444335222244263,-0.21182486414909363,-0.24697820842266083,0.17602863907814026
1749045772.1785192,5.7645463943481445,0.15263037263836665,-2.296055793762207,5.33698986747817,0.18282830715179443,-4.430223766957418,-0.15707921981811523,-0.04917252063751221,0.05343152582645416,-0.16423936188220978,-0.02780992165207863,0.06173370033502579,-0.44755834341049194,-1.1982316970825195,0.7444335222244263,-0.21182486414909363,-0.24697820842266083,0.17602863907814026
1749045772.178558,5.763885021209717,0.1524464327045898,-2.2958474159240723,5.336342918663778,0.1827278435230255,-4.4299718777285975,-0.15949487686157227,-0.05314956232905388,0.05405277758836746,-0.16719619929790497,-0.027863990515470505,0.06177330017089844,-0.4377378523349762,-1.1518222093582153,0.7415326237678528,-0.23407942056655884,-0.2682972252368927,0.18799273669719696
1749045772.178596,5.76358699798584,0.1523076730915527,-2.2957241535186768,5.336051392346182,0.1826532781124115,-4.429845515881674,-0.16060662269592285,-0.054450418800115585,0.05427665635943413,-0.16561926901340485,-0.027117688208818436,0.06245296820998192,-0.4684830605983734,-1.139704942703247,0.7455835938453674,-0.2549923062324524,-0.274535208940506,0.1728251427412033
1749045772.178633,5.76324462890625,0.15221111356701655,-2.2956125736236572,5.335716354637899,0.18259340524673462,-4.429690901433126,-0.16443422436714172,-0.05437422916293144,0.05471104755997658,-0.1667308658361435,-0.028029829263687134,0.0637139156460762,-0.42343074083328247,-1.1457282304763794,0.7260736227035522,-0.2765720784664154,-0.2737533450126648,0.20675873756408691
1749045772.1786702,5.762893199920654,0.15208499013867183,-2.2955048084259033,5.335358369141378,0.18253713846206665,-4.429593507443563,-0.16330479085445404,-0.05470655485987663,0.05429920181632042,-0.17022603750228882,-0.027242960408329964,0.06467468291521072,-0.4834381341934204,-1.1523704528808594,0.7572612166404724,-0.2648254632949829,-0.27600258588790894,0.209453746676445
1749045772.1787076,5.76254940032959,0.15195350229229732,-2.2953970432281494,5.335053431778707,0.18247705698013306,-4.429484311734335,-0.1631947159767151,-0.05546877160668373,0.0546894371509552,-0.17451123893260956,-0.02951856143772602,0.06630656868219376,-0.46102139353752136,-1.1286864280700684,0.7553441524505615,-0.26328045129776,-0.25814664363861084,0.1932000070810318
1749045772.1787488,5.762228488922119,0.1518682676502685,-2.295297145843506,5.334671604424276,0.18241366744041443,-4.42933422723879,-0.16772732138633728,-0.0545714907348156,0.05452151224017143,-0.17943625152111053,-0.028778648003935814,0.06644860655069351,-0.47470855712890625,-1.1272292137145996,0.7621657252311707,-0.25988566875457764,-0.2731243968009949,0.22188711166381836
1749045772.1787868,5.7618889808654785,0.15181057035412593,-2.295154094696045,5.3343281028564355,0.18235740065574646,-4.429194513951437,-0.17048442363739014,-0.057157982140779495,0.05460278317332268,-0.1866963803768158,-0.031262315809726715,0.06678066402673721,-0.4301877021789551,-1.0974252223968506,0.7596860527992249,-0.2208118438720703,-0.24608354270458221,0.21340510249137878
1749045772.1788247,5.761538505554199,0.15163354455914302,-2.295077323913574,5.333961772709646,0.18229003250598907,-4.4290844837771814,-0.1727505624294281,-0.05416872352361679,0.05484962463378906,-0.18627455830574036,-0.03076563961803913,0.06810608506202698,-0.4587022662162781,-1.1625524759292603,0.7687304615974426,-0.21153271198272705,-0.24380940198898315,0.19807207584381104
1749045772.1788614,5.761202812194824,0.15154127656903071,-2.2949702739715576,5.333567011147299,0.18224580585956573,-4.428937617932455,-0.17321375012397766,-0.05389763414859772,0.055219486355781555,-0.19334453344345093,-0.03090871125459671,0.07089129835367203,-0.4295099377632141,-1.1712366342544556,0.7740196585655212,-0.16741754114627838,-0.26030564308166504,0.20505289733409882
1749045772.1788976,5.761202812194824,0.15154127656903071,-2.2949702739715576,5.333567011147299,0.18224580585956573,-4.428937617932455,-0.17321375012397766,-0.05389763414859772,0.055219486355781555,-0.19334453344345093,-0.03090871125459671,0.07089129835367203,-0.4295099377632141,-1.1712366342544556,0.7740196585655212,-0.16741754114627838,-0.26030564308166504,0.20505289733409882
1749045772.1789343,5.760804653167725,0.1514379221149902,-2.294846773147583,5.333183634072103,0.18216575682163239,-4.428790036831991,-0.17518214881420135,-0.05577753484249115,0.05576563999056816,-0.18906532227993011,-0.02981795370578766,0.07122480124235153,-0.46150046586990356,-1.1775790452957153,0.7578912973403931,-0.18231838941574097,-0.2580294609069824,0.19837765395641327
1749045772.1789708,5.760173320770264,0.1511489587971191,-2.2946343421936035,5.332350718766012,0.1820184290409088,-4.42849570909609,-0.17704731225967407,-0.055314309895038605,0.056216172873973846,-0.18481142818927765,-0.030023405328392982,0.07105456292629242,-0.46962109208106995,-1.1928105354309082,0.7918907403945923,-0.2082768678665161,-0.2582201659679413,0.23760849237442017
1749045772.1790075,5.760173320770264,0.1511489587971191,-2.2946343421936035,5.332350718766012,0.1820184290409088,-4.42849570909609,-0.17704731225967407,-0.055314309895038605,0.056216172873973846,-0.18481142818927765,-0.030023405328392982,0.07105456292629242,-0.46962109208106995,-1.1928105354309082,0.7918907403945923,-0.2082768678665161,-0.2582201659679413,0.23760849237442017
1749045772.1790438,5.7594313621521,0.15099470197644038,-2.294384717941284,5.3315955875213525,0.18196573853492737,-4.42825419107546,-0.18142488598823547,-0.05705971270799637,0.05672750994563103,-0.18501099944114685,-0.03046291507780552,0.07567242532968521,-0.4493630826473236,-1.1778571605682373,0.8045417666435242,-0.21504229307174683,-0.2583320736885071,0.23218974471092224
1749045772.1791565,5.759056568145752,0.15084342538800044,-2.2943272590637207,5.331239807396688,0.18192146718502045,-4.428048674260275,-0.186610609292984,-0.058219268918037415,0.059080351144075394,-0.1870812177658081,-0.029806014150381088,0.07860825210809708,-0.4789750277996063,-1.159519076347351,0.8152247667312622,-0.19251850247383118,-0.282064825296402,0.19187867641448975
1749045772.1804976,5.759056568145752,0.15084342538800044,-2.2943272590637207,5.331239807396688,0.18192146718502045,-4.428048674260275,-0.186610609292984,-0.058219268918037415,0.059080351144075394,-0.1870812177658081,-0.029806014150381088,0.07860825210809708,-0.4789750277996063,-1.159519076347351,0.8152247667312622,-0.19251850247383118,-0.282064825296402,0.19187867641448975
1749045772.222274,5.7583441734313965,0.15062837182965083,-2.294095993041992,5.330442774086752,0.18175861239433289,-4.427724901829855,-0.18799592554569244,-0.060793839395046234,0.05650263652205467,-0.1930464208126068,-0.030165180563926697,0.07777529209852219,-0.45813825726509094,-1.1346962451934814,0.853186845779419,-0.18246851861476898,-0.2631628215312958,0.2124215066432953
1749045772.2223196,5.7583441734313965,0.15062837182965083,-2.294095993041992,5.330442774086752,0.18175861239433289,-4.427724901829855,-0.18799592554569244,-0.060793839395046234,0.05650263652205467,-0.1930464208126068,-0.030165180563926697,0.07777529209852219,-0.45813825726509094,-1.1346962451934814,0.853186845779419,-0.18246851861476898,-0.2631628215312958,0.2124215066432953
1749045772.22236,5.757510662078857,0.15035824357952876,-2.293846607208252,5.329652952938833,0.18165776133537292,-4.427420441304342,-0.1875409483909607,-0.061538733541965485,0.06131096929311752,-0.19367346167564392,-0.033170074224472046,0.07949510216712952,-0.4943152070045471,-1.1327996253967285,0.8221118450164795,-0.1719076931476593,-0.26345765590667725,0.18638765811920166
1749045772.2224135,5.757510662078857,0.15035824357952876,-2.293846607208252,5.329652952938833,0.18165776133537292,-4.427420441304342,-0.1875409483909607,-0.061538733541965485,0.06131096929311752,-0.19367346167564392,-0.033170074224472046,0.07949510216712952,-0.4943152070045471,-1.1327996253967285,0.8221118450164795,-0.1719076931476593,-0.26345765590667725,0.18638765811920166
1749045772.222462,5.756790637969971,0.15016882001843257,-2.293610095977783,5.328843521862783,0.18151406943798065,-4.427096668873922,-0.19347403943538666,-0.06266465783119202,0.06068526208400726,-0.19243235886096954,-0.03337373211979866,0.0798548012971878,-0.5021598935127258,-1.1318451166152954,0.8629932403564453,-0.19387146830558777,-0.27895769476890564,0.18879899382591248
1749045772.2225022,5.756790637969971,0.15016882001843257,-2.293610095977783,5.328843521862783,0.18151406943798065,-4.427096668873922,-0.19347403943538666,-0.06266465783119202,0.06068526208400726,-0.19243235886096954,-0.03337373211979866,0.0798548012971878,-0.5021598935127258,-1.1318451166152954,0.8629932403564453,-0.19387146830558777,-0.27895769476890564,0.18879899382591248
1749045772.2225404,5.756356239318848,0.1500062185474853,-2.2934911251068115,5.328443932324209,0.18145056068897247,-4.426949803029196,-0.1975821703672409,-0.06295602023601532,0.0625576302409172,-0.1935359090566635,-0.03386423736810684,0.08096256107091904,-0.4959763288497925,-1.1375056505203247,0.8464855551719666,-0.2109423577785492,-0.2574314475059509,0.18819689750671387
1749045772.2225811,5.755594730377197,0.1497388321110229,-2.293220043182373,5.32766621091918,0.18129566311836243,-4.426629606877462,-0.1967685967683792,-0.06376682221889496,0.06562113761901855,-0.19882167875766754,-0.03355148062109947,0.08066367357969284,-0.5129728317260742,-1.1175085306167603,0.8411667346954346,-0.23869802057743073,-0.27229058742523193,0.18977391719818115
1749045772.222619,5.755148410797119,0.149592323894165,-2.2930922508239746,5.327212321549215,0.18124304711818695,-4.42647356191744,-0.19961489737033844,-0.0652235820889473,0.06596624106168747,-0.20628491044044495,-0.034635595977306366,0.08135972917079926,-0.48288553953170776,-1.1295597553253174,0.8304722309112549,-0.20680467784404755,-0.27330145239830017,0.18602749705314636
1749045772.2226562,5.754796504974365,0.14947573720898433,-2.2929604053497314,5.3267937181289575,0.18116773664951324,-4.426297251378195,-0.2006222903728485,-0.06594742834568024,0.06631650030612946,-0.20664985477924347,-0.03488098084926605,0.08003278076648712,-0.5370690226554871,-1.0916401147842407,0.8458166122436523,-0.1920548677444458,-0.2705594003200531,0.18426626920700073
1749045772.222693,5.754378318786621,0.14934830247845454,-2.2928199768066406,5.326362657337942,0.18107661604881287,-4.4261537233935755,-0.2059674710035324,-0.06585486978292465,0.069412961602211,-0.21348895132541656,-0.03642399609088898,0.0814046561717987,-0.49951598048210144,-1.1029179096221924,0.8252440094947815,-0.15139277279376984,-0.269443154335022,0.2025403380393982
1749045772.2227294,5.754378318786621,0.14934830247845454,-2.2928199768066406,5.326362657337942,0.18107661604881287,-4.4261537233935755,-0.2059674710035324,-0.06585486978292465,0.069412961602211,-0.21348895132541656,-0.03642399609088898,0.0814046561717987,-0.49951598048210144,-1.1029179096221924,0.8252440094947815,-0.15139277279376984,-0.269443154335022,0.2025403380393982
1749045772.2227664,5.75355863571167,0.14913563310589595,-2.2925329208374023,5.325540292053976,0.180939719080925,-4.4258111158954065,-0.21144768595695496,-0.0647088810801506,0.06806129217147827,-0.20889146625995636,-0.03451843932271004,0.08087695389986038,-0.4855892062187195,-1.1496593952178955,0.8363126516342163,-0.20294293761253357,-0.2701040804386139,0.19589735567569733
1749045772.2228024,5.75355863571167,0.14913563310589595,-2.2925329208374023,5.325540292053976,0.180939719080925,-4.4258111158954065,-0.21144768595695496,-0.0647088810801506,0.06806129217147827,-0.20889146625995636,-0.03451843932271004,0.08087695389986038,-0.4855892062187195,-1.1496593952178955,0.8363126516342163,-0.20294293761253357,-0.2701040804386139,0.19589735567569733
1749045772.2228386,5.7527265548706055,0.1488451200672607,-2.2922303676605225,5.324705886631765,0.1808309406042099,-4.4255409876452845,-0.21288707852363586,-0.06468703597784042,0.07016691565513611,-0.21163538098335266,-0.036321334540843964,0.08120787888765335,-0.486925333738327,-1.1468822956085205,0.8026995062828064,-0.20756331086158752,-0.2683556079864502,0.23343224823474884
1749045772.2228746,5.752242565155029,0.14871363222088618,-2.2921335697174072,5.324334907322683,0.18072538077831268,-4.425338808690206,-0.21288229525089264,-0.06600446999073029,0.06993644684553146,-0.21668469905853271,-0.035792768001556396,0.08420266211032867,-0.5148957967758179,-1.1479994058609009,0.854691207408905,-0.20452235639095306,-0.2626325786113739,0.21484676003456116
1749045772.2229118,5.751887321472168,0.14858536302532954,-2.291951894760132,5.323904263764181,0.18068359792232513,-4.425167385731832,-0.2166767716407776,-0.06884346902370453,0.07089149951934814,-0.22072811424732208,-0.03517546132206917,0.08806683868169785,-0.5018759369850159,-1.120479941368103,0.840628445148468,-0.192408949136734,-0.27270668745040894,0.2118457704782486
1749045772.2229483,5.7514166831970215,0.1484812933155517,-2.2918148040771484,5.323371457844534,0.18059968948364258,-4.4250457922564905,-0.2195742130279541,-0.0661444440484047,0.07184222340583801,-0.22864747047424316,-0.03472766652703285,0.08714315295219421,-0.5426310896873474,-1.1583491563796997,0.8308143019676208,-0.17162925004959106,-0.30055415630340576,0.20717814564704895
1749045772.2229848,5.750970363616943,0.14831165849652095,-2.2916595935821533,5.322927701264181,0.18049296736717224,-4.424847189580099,-0.22337819635868073,-0.06706740707159042,0.07302296161651611,-0.22743789851665497,-0.03702811151742935,0.08773065358400345,-0.48438242077827454,-1.163817286491394,0.8131945729255676,-0.1546262800693512,-0.2797325849533081,0.2148863971233368
1749045772.223021,5.750970363616943,0.14831165849652095,-2.2916595935821533,5.322927701264181,0.18049296736717224,-4.424847189580099,-0.22337819635868073,-0.06706740707159042,0.07302296161651611,-0.22743789851665497,-0.03702811151742935,0.08773065358400345,-0.48438242077827454,-1.163817286491394,0.8131945729255676,-0.1546262800693512,-0.2797325849533081,0.2148863971233368
1749045772.2231386,5.750098705291748,0.1480676370808105,-2.2913801670074463,5.322045552521505,0.180371955037117,-4.424444977437155,-0.22362568974494934,-0.06842785328626633,0.07508847862482071,-0.22704043984413147,-0.03848704695701599,0.09139087051153183,-0.4822435677051544,-1.1673660278320312,0.800439715385437,-0.14174792170524597,-0.26439613103866577,0.21575011312961578
1749045772.2244976,5.749647617340088,0.14793114244427485,-2.2912561893463135,5.321543800621786,0.18028073012828827,-4.424272123967306,-0.22467876970767975,-0.06847202777862549,0.07528991252183914,-0.22575604915618896,-0.03733555227518082,0.09360182285308838,-0.5020595192909241,-1.1629784107208252,0.8032465577125549,-0.18139374256134033,-0.24548444151878357,0.20754559338092804
1749045772.2703207,5.749215126037598,0.14777283250775142,-2.291088342666626,5.321077275067129,0.18016180396080017,-4.424092356358663,-0.22630354762077332,-0.06753447651863098,0.07579661160707474,-0.2256678193807602,-0.03521359711885452,0.09430700540542603,-0.48768168687820435,-1.2065441608428955,0.7878343462944031,-0.20252610743045807,-0.28246229887008667,0.19814881682395935
1749045772.270366,5.748778343200684,0.1476561266132812,-2.2909069061279297,5.320621299534597,0.1801055520772934,-4.423881832753317,-0.22910116612911224,-0.07132305204868317,0.07605215907096863,-0.22890767455101013,-0.033786285668611526,0.0939122885465622,-0.495821088552475,-1.1676480770111084,0.7827089428901672,-0.17662975192070007,-0.2883221507072449,0.19477327167987823
1749045772.2704177,5.748778343200684,0.1476561266132812,-2.2909069061279297,5.320621299534597,0.1801055520772934,-4.423881832753317,-0.22910116612911224,-0.07132305204868317,0.07605215907096863,-0.22890767455101013,-0.033786285668611526,0.0939122885465622,-0.495821088552475,-1.1676480770111084,0.7827089428901672,-0.17662975192070007,-0.2883221507072449,0.19477327167987823
1749045772.2704709,5.747801780700684,0.14737693845715327,-2.2906107902526855,5.319762873440542,0.1799773871898651,-4.423507038746969,-0.2334021031856537,-0.07151684165000916,0.0764375850558281,-0.23449347913265228,-0.038288041949272156,0.09505237638950348,-0.4837696850299835,-1.1972497701644897,0.8051478862762451,-0.17981913685798645,-0.297074556350708,0.18098118901252747
1749045772.2705112,5.7473835945129395,0.1472661930271606,-2.2904672622680664,5.319229948311605,0.17990949749946594,-4.423333827649252,-0.23324498534202576,-0.07543207705020905,0.07646551728248596,-0.23849625885486603,-0.038712937384843826,0.09490916132926941,-0.49496030807495117,-1.1246613264083862,0.7835374474525452,-0.16310882568359375,-0.28903117775917053,0.16288971900939941
1749045772.2705495,5.746882438659668,0.1470600801655273,-2.2903189659118652,5.318766701012411,0.17981365323066711,-4.423131291066305,-0.23440149426460266,-0.07322116941213608,0.07635460048913956,-0.23716787993907928,-0.03901028260588646,0.09396864473819733,-0.5292842984199524,-1.1883989572525024,0.7985104918479919,-0.18684151768684387,-0.2823496460914612,0.17951716482639313
1749045772.270589,5.746435642242432,0.1469237047382812,-2.2901599407196045,5.318312394409933,0.1797618567943573,-4.422967378293173,-0.23632889986038208,-0.0755825787782669,0.0794050320982933,-0.23734921216964722,-0.03932172805070877,0.09458479285240173,-0.4999532103538513,-1.1513341665267944,0.7885198593139648,-0.2016943097114563,-0.28319764137268066,0.1977321207523346
1749045772.270629,5.745932102203369,0.14679495870556636,-2.289991855621338,5.31786464431838,0.1797356903553009,-4.4227792660342615,-0.23971565067768097,-0.07508418709039688,0.07644500583410263,-0.23820406198501587,-0.03972993046045303,0.09465808421373367,-0.5143828392028809,-1.2075587511062622,0.8027281165122986,-0.2307356297969818,-0.2880343496799469,0.20814555883407593
1749045772.270666,5.745455741882324,0.14660875379528804,-2.289821147918701,5.317382323532858,0.1796015352010727,-4.422556344662802,-0.24219386279582977,-0.0762987956404686,0.07901278883218765,-0.2420632541179657,-0.04087197780609131,0.09519379585981369,-0.5086446404457092,-1.1843758821487427,0.8064202070236206,-0.22364038228988647,-0.2812528610229492,0.2061655968427658
1749045772.2707021,5.7449727058410645,0.14644496023144526,-2.2896568775177,5.316860067635336,0.17952951788902283,-4.422403041516439,-0.24156810343265533,-0.07551473379135132,0.08331410586833954,-0.24873648583889008,-0.039921678602695465,0.09449441730976105,-0.4815978705883026,-1.1915702819824219,0.7522923350334167,-0.22712358832359314,-0.3014529049396515,0.22115954756736755
1749045772.2707422,5.7449727058410645,0.14644496023144526,-2.2896568775177,5.316860067635336,0.17952951788902283,-4.422403041516439,-0.24156810343265533,-0.07551473379135132,0.08331410586833954,-0.24873648583889008,-0.039921678602695465,0.09449441730976105,-0.4815978705883026,-1.1915702819824219,0.7522923350334167,-0.22712358832359314,-0.3014529049396515,0.22115954756736755
1749045772.2707798,5.7444963455200195,0.14634375154461665,-2.2894890308380127,5.316344964295187,0.17943361401557922,-4.422199670468466,-0.24365445971488953,-0.0768544152379036,0.08175157010555267,-0.2504384517669678,-0.040258243680000305,0.09769033640623093,-0.5401001572608948,-1.1970242261886597,0.7685461044311523,-0.21795573830604553,-0.2818690538406372,0.22213402390480042
1749045772.2708168,5.743494510650635,0.1460137802311401,-2.289166212081909,5.315328287869253,0.17925389111042023,-4.421847049389974,-0.24950753152370453,-0.07750995457172394,0.08250205963850021,-0.252631276845932,-0.04123019054532051,0.09332960844039917,-0.4835751950740814,-1.1528804302215576,0.7529405355453491,-0.17855258285999298,-0.2856893539428711,0.2570217251777649
1749045772.2708533,5.7430291175842285,0.14589850484814448,-2.28899884223938,5.314872014313497,0.17914722859859467,-4.421670858060018,-0.2507863938808441,-0.07768817245960236,0.08172706514596939,-0.2507985830307007,-0.04264641925692558,0.0945909172296524,-0.42525091767311096,-1.1912906169891357,0.7369416952133179,-0.20086082816123962,-0.2849845588207245,0.26446443796157837
1749045772.2708938,5.742490291595459,0.1457184988209228,-2.288834571838379,5.31436579206542,0.17907047271728516,-4.421404902135031,-0.25144460797309875,-0.07809019833803177,0.08157595247030258,-0.25181087851524353,-0.04420693963766098,0.09810850024223328,-0.4428839385509491,-1.2037618160247803,0.7721083760261536,-0.23113879561424255,-0.2592450678348541,0.24404126405715942
1749045772.2709315,5.742490291595459,0.1457184988209228,-2.288834571838379,5.31436579206542,0.17907047271728516,-4.421404902135031,-0.25144460797309875,-0.07809019833803177,0.08157595247030258,-0.25181087851524353,-0.04420693963766098,0.09810850024223328,-0.4428839385509491,-1.2037618160247803,0.7721083760261536,-0.23113879561424255,-0.2592450678348541,0.24404126405715942
1749045772.270969,5.7415008544921875,0.14539866029705806,-2.2884957790374756,5.3133415458496,0.17888350784778595,-4.421063009892599,-0.25045084953308105,-0.07732529938220978,0.0832306295633316,-0.26164430379867554,-0.04380808770656586,0.0993233397603035,-0.5450255870819092,-1.2121806144714355,0.7691920399665833,-0.22366616129875183,-0.27222585678100586,0.23308908939361572
1749045772.2710083,5.740997314453125,0.14520887910809321,-2.2883129119873047,5.31277488449172,0.1788032054901123,-4.420845452939169,-0.25462907552719116,-0.07793150097131729,0.08141521364450455,-0.26081302762031555,-0.04314294829964638,0.10123524814844131,-0.5059895515441895,-1.2178677320480347,0.7710833549499512,-0.22171445190906525,-0.2703278660774231,0.2511138916015625
1749045772.2710462,5.740997314453125,0.14520887910809321,-2.2883129119873047,5.31277488449172,0.1788032054901123,-4.420845452939169,-0.25462907552719116,-0.07793150097131729,0.08141521364450455,-0.26081302762031555,-0.04314294829964638,0.10123524814844131,-0.5059895515441895,-1.2178677320480347,0.7710833549499512,-0.22171445190906525,-0.2703278660774231,0.2511138916015625
1749045772.2710826,5.739977836608887,0.1449248033710937,-2.28796648979187,5.311730074673452,0.1786702573299408,-4.420382801686422,-0.2568403482437134,-0.07848680764436722,0.08294741809368134,-0.2614227533340454,-0.044803619384765625,0.10299212485551834,-0.4903212785720825,-1.217380404472351,0.7563463449478149,-0.22446711361408234,-0.25840044021606445,0.22735083103179932
1749045772.271119,5.7394585609436035,0.1447489696690063,-2.287813901901245,5.3112456677253626,0.17855171859264374,-4.420201961194174,-0.25775009393692017,-0.08373936265707016,0.08213556557893753,-0.2615243196487427,-0.044936057180166245,0.10370253771543503,-0.5257198810577393,-1.1570491790771484,0.791067898273468,-0.24697276949882507,-0.2548556327819824,0.24927151203155518
1749045772.2711554,5.738949775695801,0.14458601057019038,-2.287649631500244,5.3106886623199365,0.17845575511455536,-4.420022193585531,-0.262018620967865,-0.08153443038463593,0.08327371627092361,-0.26375454664230347,-0.042478933930397034,0.10291852802038193,-0.4876660406589508,-1.2313505411148071,0.7872937917709351,-0.25786206126213074,-0.26373034715652466,0.24905841052532196
1749045772.27127,5.738457202911377,0.14443759500469966,-2.2875096797943115,5.310145485192098,0.17838379740715027,-4.419771615658895,-0.26199814677238464,-0.08543449640274048,0.08367065340280533,-0.26705610752105713,-0.042557280510663986,0.10394011437892914,-0.4866751730442047,-1.2012265920639038,0.7882723212242126,-0.2539461851119995,-0.2834327816963196,0.23948299884796143
1749045772.272531,5.738457202911377,0.14443759500469966,-2.2875096797943115,5.310145485192098,0.17838379740715027,-4.419771615658895,-0.26199814677238464,-0.08543449640274048,0.08367065340280533,-0.26705610752105713,-0.042557280510663986,0.10394011437892914,-0.4866751730442047,-1.2012265920639038,0.7882723212242126,-0.2539461851119995,-0.2834327816963196,0.23948299884796143
1749045772.3142767,5.737379550933838,0.1440996366688232,-2.28716778755188,5.30902128198699,0.17819572985172272,-4.419382039700643,-0.2691860795021057,-0.08560968190431595,0.08361617475748062,-0.2707683742046356,-0.045736610889434814,0.10453862696886063,-0.459731787443161,-1.182034969329834,0.8060425519943237,-0.2592351734638214,-0.2780468463897705,0.2437686026096344
1749045772.3143222,5.736809730529785,0.14393536626782222,-2.2869999408721924,5.308481919556417,0.17810823023319244,-4.419174973164694,-0.2672269344329834,-0.08452204614877701,0.08362410962581635,-0.27001604437828064,-0.04690760374069214,0.10702266544103622,-0.484238862991333,-1.191602110862732,0.8176783919334412,-0.22437883913516998,-0.2768583595752716,0.24321249127388
1749045772.3143792,5.736252307891846,0.14377634107556148,-2.2868480682373047,5.307939517288961,0.1780315339565277,-4.418912712727682,-0.2682953476905823,-0.08307118713855743,0.08360647410154343,-0.26998957991600037,-0.04715891554951668,0.10784760862588882,-0.47735530138015747,-1.2077462673187256,0.8302306532859802,-0.2744508385658264,-0.2567140460014343,0.21693055331707
1749045772.3144484,5.735744476318359,0.14358822881665034,-2.2866766452789307,5.307404505997457,0.1779129058122635,-4.418693129216329,-0.2710789144039154,-0.0874970480799675,0.08451061695814133,-0.2707446813583374,-0.047055333852767944,0.10483212769031525,-0.5083941221237183,-1.1670030355453491,0.8426055908203125,-0.2816227376461029,-0.26106029748916626,0.2537561357021332
1749045772.3144925,5.73515510559082,0.14338986455883784,-2.286500930786133,5.3068779585655115,0.17785197496414185,-4.418543283139364,-0.2739298343658447,-0.08404981344938278,0.08596155047416687,-0.27233707904815674,-0.046951644122600555,0.10473153740167618,-0.4669567942619324,-1.2163987159729004,0.8554443717002869,-0.3155718445777893,-0.2655782699584961,0.2523968815803528
1749045772.314532,5.73515510559082,0.14338986455883784,-2.286500930786133,5.3068779585655115,0.17785197496414185,-4.418543283139364,-0.2739298343658447,-0.08404981344938278,0.08596155047416687,-0.27233707904815674,-0.046951644122600555,0.10473153740167618,-0.4669567942619324,-1.2163987159729004,0.8554443717002869,-0.3155718445777893,-0.2655782699584961,0.2523968815803528
1749045772.3145707,5.73403263092041,0.14305822431530757,-2.286146640777588,5.305756377964773,0.1777191162109375,-4.418096248303549,-0.27321332693099976,-0.08547671139240265,0.0866730660200119,-0.286274790763855,-0.04656129702925682,0.1123785674571991,-0.5222626328468323,-1.167994499206543,0.8583372831344604,-0.25379711389541626,-0.27528101205825806,0.22994115948677063
1749045772.3146088,5.73403263092041,0.14305822431530757,-2.286146640777588,5.305756377964773,0.1777191162109375,-4.418096248303549,-0.27321332693099976,-0.08547671139240265,0.0866730660200119,-0.286274790763855,-0.04656129702925682,0.1123785674571991,-0.5222626328468323,-1.167994499206543,0.8583372831344604,-0.25379711389541626,-0.27528101205825806,0.22994115948677063
1749045772.3146465,5.732983589172363,0.14267687379803462,-2.285775661468506,5.304612684040823,0.17747794091701508,-4.417597595845358,-0.27822551131248474,-0.08651231229305267,0.08903976529836655,-0.2854667603969574,-0.04541471600532532,0.1124936118721962,-0.506854772567749,-1.200737476348877,0.834297239780426,-0.25779399275779724,-0.2909073829650879,0.2419227510690689
1749045772.3146849,5.732377052307129,0.1425383526035766,-2.2855958938598633,5.30404673793868,0.1774049699306488,-4.417378608380453,-0.27990520000457764,-0.08688360452651978,0.09264271706342697,-0.28671592473983765,-0.04699316620826721,0.11358219385147095,-0.5149275064468384,-1.205198884010315,0.8328168392181396,-0.2932804524898529,-0.2996864318847656,0.23099446296691895
1749045772.3147225,5.731795310974121,0.14233319341625972,-2.2854132652282715,5.30346046665267,0.17726662755012512,-4.417143527661459,-0.2818586230278015,-0.08788038045167923,0.09025262296199799,-0.2901909649372101,-0.04823851212859154,0.11572003364562988,-0.48798492550849915,-1.1714065074920654,0.8487532734870911,-0.28075191378593445,-0.2986079156398773,0.2154577672481537
1749045772.3147616,5.731795310974121,0.14233319341625972,-2.2854132652282715,5.30346046665267,0.17726662755012512,-4.417143527661459,-0.2818586230278015,-0.08788038045167923,0.09025262296199799,-0.2901909649372101,-0.04823851212859154,0.11572003364562988,-0.48798492550849915,-1.1714065074920654,0.8487532734870911,-0.28075191378593445,-0.2986079156398773,0.2154577672481537
1749045772.3148012,5.731232166290283,0.1421568828770141,-2.2852249145507812,5.302849519043722,0.1772131621837616,-4.416935149823324,-0.2808883488178253,-0.08788256347179413,0.09084168076515198,-0.29165419936180115,-0.04913735017180443,0.11568071693181992,-0.5334411263465881,-1.190712571144104,0.8628047704696655,-0.2876048684120178,-0.29249855875968933,0.2336011677980423
1749045772.3148384,5.7300639152526855,0.14178661882366939,-2.284830093383789,5.301629948406973,0.1770370900630951,-4.4164279142962855,-0.28590959310531616,-0.08961710333824158,0.09386128932237625,-0.29656174778938293,-0.04884267598390579,0.11665152758359909,-0.5226899981498718,-1.1705435514450073,0.8294719457626343,-0.2581484913825989,-0.28646981716156006,0.19574172794818878
1749045772.3148756,5.729524612426758,0.14163391172375484,-2.284654378890991,5.301058995514669,0.17690160870552063,-4.41621965566744,-0.28892865777015686,-0.08992807567119598,0.09509105235338211,-0.29457634687423706,-0.04861403629183769,0.11575005203485489,-0.4496581554412842,-1.1855953931808472,0.8150345087051392,-0.2631191313266754,-0.29599595069885254,0.220611110329628
1749045772.3149157,5.728936672210693,0.1414310175129394,-2.2844624519348145,5.300451862602987,0.17681773006916046,-4.4159608522998255,-0.2877352833747864,-0.08985873311758041,0.09496501088142395,-0.2964181900024414,-0.049009740352630615,0.11570464074611664,-0.5128098726272583,-1.2043019533157349,0.8257213234901428,-0.28447309136390686,-0.2901584804058075,0.216787189245224
1749045772.3149552,5.728368282318115,0.1412406402775268,-2.2842516899108887,5.299857127457418,0.1767290234565735,-4.415733400975363,-0.28944483399391174,-0.08960749208927155,0.09977640956640244,-0.29934394359588623,-0.050357554107904434,0.11429646611213684,-0.4949098229408264,-1.2051810026168823,0.774261474609375,-0.27752238512039185,-0.29139694571495056,0.22686094045639038
1749045772.3149924,5.727780818939209,0.14109222471203609,-2.2840447425842285,5.2992275831993005,0.17660191655158997,-4.4154738823520105,-0.2914997637271881,-0.08989311754703522,0.09640219062566757,-0.3013765811920166,-0.051293015480041504,0.11512400954961777,-0.48202523589134216,-1.2154674530029297,0.8141608238220215,-0.25530290603637695,-0.2714601755142212,0.237410306930542
1749045772.315029,5.727120876312256,0.14091233789410396,-2.283888101577759,5.298629152565756,0.17645537853240967,-4.4152602593051355,-0.29409778118133545,-0.09034036099910736,0.0995139330625534,-0.30437353253364563,-0.05064697191119194,0.11736544221639633,-0.43988096714019775,-1.2562013864517212,0.7907766699790955,-0.2398427426815033,-0.28318092226982117,0.20082059502601624
1749045772.3150659,5.726553916931152,0.14074496805157466,-2.283665418624878,5.298018502980032,0.17643298208713531,-4.415020767842428,-0.2940848767757416,-0.09009756147861481,0.09696497768163681,-0.30407702922821045,-0.050924867391586304,0.11323059350252151,-0.45602867007255554,-1.2626343965530396,0.792465090751648,-0.2451045662164688,-0.27306944131851196,0.2278902679681778
1749045772.3151762,5.726553916931152,0.14074496805157466,-2.283665418624878,5.298018502980032,0.17643298208713531,-4.415020767842428,-0.2940848767757416,-0.09009756147861481,0.09696497768163681,-0.30407702922821045,-0.050924867391586304,0.11323059350252151,-0.45602867007255554,-1.2626343965530396,0.792465090751648,-0.2451045662164688,-0.27306944131851196,0.2278902679681778
1749045772.316495,5.725392818450928,0.14038149892773433,-2.2832858562469482,5.296766507416525,0.17619067430496216,-4.414549295102255,-0.2962532937526703,-0.09024223685264587,0.09949514269828796,-0.30229452252388,-0.05190281197428703,0.11457258462905884,-0.5285824537277222,-1.2485328912734985,0.7850027680397034,-0.26829224824905396,-0.2815402150154114,0.22620297968387604
1749045772.3582892,5.724786281585693,0.14016596853222651,-2.2830824851989746,5.296171772270956,0.1760793924331665,-4.414276067410604,-0.29930245876312256,-0.09462643414735794,0.09940606355667114,-0.3071022033691406,-0.051915451884269714,0.11769223213195801,-0.5167713165283203,-1.2262024879455566,0.7825655937194824,-0.26769670844078064,-0.28336644172668457,0.22810596227645874
1749045772.3583343,5.724178314208984,0.14002124845471187,-2.2828633785247803,5.295537578850546,0.17600637674331665,-4.414051477109091,-0.30043578147888184,-0.09093949943780899,0.10080450773239136,-0.312100887298584,-0.05225292220711708,0.1142445057630539,-0.4554952085018158,-1.2884986400604248,0.7573864459991455,-0.2617610692977905,-0.27019375562667847,0.24205061793327332
1749045772.3583791,5.723553657531738,0.13981763898815913,-2.2826602458953857,5.294918644219198,0.17586258053779602,-4.413839522992269,-0.2986938953399658,-0.09241645783185959,0.10063641518354416,-0.31106388568878174,-0.051477715373039246,0.11695399135351181,-0.490251362323761,-1.2621432542800903,0.7672276496887207,-0.2587387263774872,-0.27316123247146606,0.23867309093475342
1749045772.3584194,5.723553657531738,0.13981763898815913,-2.2826602458953857,5.294918644219198,0.17586258053779602,-4.413839522992269,-0.2986938953399658,-0.09241645783185959,0.10063641518354416,-0.31106388568878174,-0.051477715373039246,0.11695399135351181,-0.490251362323761,-1.2621432542800903,0.7672276496887207,-0.2587387263774872,-0.27316123247146606,0.23867309093475342
1749045772.3584573,5.722968578338623,0.13966576635327144,-2.2824606895446777,5.294253515988149,0.1758042275905609,-4.413614932690756,-0.3005044758319855,-0.09368540346622467,0.10157281160354614,-0.3127995729446411,-0.05070871114730835,0.11876780539751053,-0.5249442458152771,-1.262293815612793,0.7714176177978516,-0.2287810891866684,-0.29225367307662964,0.25291064381599426
1749045772.3584983,5.721752166748047,0.1392637926289062,-2.282061815261841,5.293055999069967,0.17561472952365875,-4.4131546656238,-0.30656373500823975,-0.0956314355134964,0.100038081407547,-0.3159494400024414,-0.0518670380115509,0.12082298845052719,-0.43975913524627686,-1.1718858480453491,0.773784875869751,-0.22863008081912994,-0.28977933526039124,0.25213155150413513
1749045772.3585367,5.721752166748047,0.1392637926289062,-2.282061815261841,5.293055999069967,0.17561472952365875,-4.4131546656238,-0.30656373500823975,-0.0956314355134964,0.100038081407547,-0.3159494400024414,-0.0518670380115509,0.12082298845052719,-0.43975913524627686,-1.1718858480453491,0.773784875869751,-0.22863008081912994,-0.28977933526039124,0.25213155150413513
1749045772.3585737,5.720544338226318,0.13883738100018306,-2.2816150188446045,5.291748690396108,0.17537248134613037,-4.412640635167257,-0.3055780529975891,-0.09933307021856308,0.09923693537712097,-0.31809094548225403,-0.053933531045913696,0.12294463068246841,-0.5316762924194336,-1.1628923416137695,0.7705064415931702,-0.19582408666610718,-0.271381676197052,0.2464679777622223
1749045772.3586113,5.719925403594971,0.13867370664562984,-2.2814269065856934,5.291120993881979,0.1752600222826004,-4.41241163412203,-0.3082244396209717,-0.09608136862516403,0.10198935121297836,-0.317315012216568,-0.05264139547944069,0.12300219386816025,-0.5038666725158691,-1.2456674575805664,0.7498422861099243,-0.2153911292552948,-0.2856994569301605,0.23387354612350464
1749045772.3586485,5.719372749328613,0.13845817625012202,-2.2812275886535645,5.290494072228231,0.17516759037971497,-4.412149373685018,-0.3129863142967224,-0.09778213500976562,0.10004924237728119,-0.31844988465309143,-0.05189679563045502,0.12208292633295059,-0.47458845376968384,-1.2453422546386719,0.7680385112762451,-0.19045335054397583,-0.29360246658325195,0.274791419506073
1749045772.3586864,5.718727111816406,0.13826696454968257,-2.281020402908325,5.289852547436514,0.1750214844942093,-4.411908213292257,-0.31147706508636475,-0.09734567254781723,0.09942987561225891,-0.31740811467170715,-0.0521576963365078,0.12574049830436707,-0.49275290966033936,-1.2338662147521973,0.7833666801452637,-0.21929435431957245,-0.2747241258621216,0.22369013726711273
1749045772.3587303,5.718106746673584,0.13804785787548823,-2.280832052230835,5.289221989899435,0.17493629455566406,-4.411649409924642,-0.3094010055065155,-0.09688065946102142,0.09985572844743729,-0.31769150495529175,-0.05466918647289276,0.12286176532506943,-0.4945042133331299,-1.2381293773651123,0.782188355922699,-0.2361193299293518,-0.2780727446079254,0.2407388985157013
1749045772.3587801,5.7175116539001465,0.13786332189526362,-2.2806293964385986,5.288561808853903,0.17480942606925964,-4.411413613949911,-0.3128680884838104,-0.09701341390609741,0.09962862730026245,-0.3207649886608124,-0.05474213883280754,0.12337491661310196,-0.5321320295333862,-1.2314257621765137,0.781539261341095,-0.222822368144989,-0.2602880001068115,0.2399882823228836
1749045772.3588436,5.7175116539001465,0.13786332189526362,-2.2806293964385986,5.288561808853903,0.17480942606925964,-4.411413613949911,-0.3128680884838104,-0.09701341390609741,0.09962862730026245,-0.3207649886608124,-0.05474213883280754,0.12337491661310196,-0.5321320295333862,-1.2314257621765137,0.781539261341095,-0.222822368144989,-0.2602880001068115,0.2399882823228836
1749045772.358908,5.716259479522705,0.1374947267719726,-2.2802534103393555,5.287317085057058,0.17460548877716064,-4.410882774983541,-0.3144401013851166,-0.09733738005161285,0.0976414903998375,-0.3208494782447815,-0.055771224200725555,0.125828355550766,-0.46642887592315674,-1.2029162645339966,0.8065829873085022,-0.1908199042081833,-0.25090929865837097,0.22224187850952148
1749045772.358976,5.716259479522705,0.1374947267719726,-2.2802534103393555,5.287317085057058,0.17460548877716064,-4.410882774983541,-0.3144401013851166,-0.09733738005161285,0.0976414903998375,-0.3208494782447815,-0.055771224200725555,0.125828355550766,-0.46642887592315674,-1.2029162645339966,0.8065829873085022,-0.1908199042081833,-0.25090929865837097,0.22224187850952148
1749045772.3590415,5.7149786949157715,0.13705460607495112,-2.2798824310302734,5.285993385105886,0.1743900626897812,-4.410391036664144,-0.3144610822200775,-0.09693247824907303,0.09636766463518143,-0.3233320116996765,-0.05216072499752045,0.12511618435382843,-0.49763649702072144,-1.258374571800232,0.8416758179664612,-0.20810848474502563,-0.2837768793106079,0.24623340368270874
1749045772.3591087,5.7143707275390625,0.1368824678608398,-2.2796473503112793,5.285357820778646,0.1742975413799286,-4.410132948552267,-0.3163626194000244,-0.09787929803133011,0.09936671704053879,-0.32409340143203735,-0.05216477811336517,0.12594713270664215,-0.5190994739532471,-1.2262951135635376,0.8533435463905334,-0.20662230253219604,-0.28128132224082947,0.24645495414733887
1749045772.3591766,5.713688850402832,0.13666288434948726,-2.279456377029419,5.284744727402487,0.1741390973329544,-4.409903470669882,-0.3176814019680023,-0.09862709045410156,0.09939540922641754,-0.32524189352989197,-0.0530308298766613,0.12662962079048157,-0.45308685302734375,-1.2249791622161865,0.8152925372123718,-0.19180695712566376,-0.25970953702926636,0.23392710089683533
1749045772.3592439,5.713064193725586,0.13646809637036128,-2.279279947280884,5.284080314427175,0.1740625947713852,-4.409647647534506,-0.3153422176837921,-0.09947871416807175,0.10022040456533432,-0.32480669021606445,-0.05425560846924782,0.1262337863445282,-0.5330089926719666,-1.195521593093872,0.8372495174407959,-0.18013045191764832,-0.2721194624900818,0.2528478503227234
1749045772.359435,5.712433815002441,0.13628415643658442,-2.2790613174438477,5.283464419632711,0.17397767305374146,-4.409383241330282,-0.31838202476501465,-0.09658389538526535,0.10227856040000916,-0.32397323846817017,-0.05439744517207146,0.12696249783039093,-0.48869621753692627,-1.2785357236862183,0.7999983429908752,-0.18245862424373627,-0.26428693532943726,0.23548415303230286
1749045772.360571,5.7118048667907715,0.1360577779957275,-2.2788538932800293,5.28281186798171,0.17387086153030396,-4.409127060567037,-0.3199366331100464,-0.1005997583270073,0.101810023188591,-0.32349905371665955,-0.052821941673755646,0.12761008739471436,-0.4428676962852478,-1.22795569896698,0.8121378421783447,-0.2233843207359314,-0.2737877070903778,0.22156789898872375
1749045772.4022813,5.7118048667907715,0.1360577779957275,-2.2788538932800293,5.28281186798171,0.17387086153030396,-4.409127060567037,-0.3199366331100464,-0.1005997583270073,0.101810023188591,-0.32349905371665955,-0.052821941673755646,0.12761008739471436,-0.4428676962852478,-1.22795569896698,0.8121378421783447,-0.2233843207359314,-0.2737877070903778,0.22156789898872375
1749045772.402326,5.71053409576416,0.13567428171124263,-2.2784390449523926,5.28151963928298,0.17365071177482605,-4.408579413090841,-0.31717824935913086,-0.0983377993106842,0.10140998661518097,-0.3267076015472412,-0.05399933457374573,0.12756085395812988,-0.4680909514427185,-1.2353171110153198,0.8397160768508911,-0.20613379776477814,-0.2771391272544861,0.20967386662960052
1749045772.4023721,5.709895610809326,0.13547126829113765,-2.278219699859619,5.280857848912039,0.1735657900571823,-4.408358637486593,-0.31651028990745544,-0.09940794855356216,0.10052662342786789,-0.32414135336875916,-0.05523236468434334,0.1305190473794937,-0.518945574760437,-1.197921633720398,0.8318785429000854,-0.2002740204334259,-0.2644928991794586,0.19838134944438934
1749045772.4024289,5.709306240081787,0.1353105741688232,-2.27801251411438,5.280193257122793,0.17344219982624054,-4.408125225697653,-0.3176669180393219,-0.09798537939786911,0.10221058130264282,-0.3200119435787201,-0.05552328750491142,0.12634079158306122,-0.48066234588623047,-1.2293041944503784,0.8209558725357056,-0.22392630577087402,-0.2529867887496948,0.21514193713665009
1749045772.4024696,5.708640098571777,0.13507644712414546,-2.277796983718872,5.279589640885153,0.17329944670200348,-4.407877985631124,-0.3186555504798889,-0.10124456882476807,0.10476501286029816,-0.3171236515045166,-0.05457475781440735,0.1260373294353485,-0.45530182123184204,-1.1748344898223877,0.7936919331550598,-0.2533467411994934,-0.25240716338157654,0.22713080048561096
1749045772.4025075,5.708640098571777,0.13507644712414546,-2.277796983718872,5.279589640885153,0.17329944670200348,-4.407877985631124,-0.3186555504798889,-0.10124456882476807,0.10476501286029816,-0.3171236515045166,-0.05457475781440735,0.1260373294353485,-0.45530182123184204,-1.1748344898223877,0.7936919331550598,-0.2533467411994934,-0.25240716338157654,0.22713080048561096
1749045772.4025457,5.707404613494873,0.13468830167736812,-2.2773852348327637,5.278301524906912,0.17317382991313934,-4.407342378293173,-0.31785786151885986,-0.09863267838954926,0.10549445450305939,-0.3255190849304199,-0.05053013935685158,0.12910234928131104,-0.5182856917381287,-1.2369478940963745,0.7916896939277649,-0.26935309171676636,-0.27344679832458496,0.20067279040813446
1749045772.4025826,5.706714153289795,0.13449828206982417,-2.277182102203369,5.277644026070394,0.17303113639354706,-4.407139841710226,-0.3177231550216675,-0.09590307623147964,0.10494749248027802,-0.32650473713874817,-0.049866676330566406,0.12774239480495453,-0.49126073718070984,-1.2625036239624023,0.7709828615188599,-0.22504490613937378,-0.3005780279636383,0.24203401803970337
1749045772.4026194,5.706113338470459,0.1343208986469726,-2.276974678039551,5.276986408024587,0.17295442521572113,-4.406877104436056,-0.3182694911956787,-0.09748243540525436,0.10433751344680786,-0.3265170156955719,-0.0506141223013401,0.1285383403301239,-0.46386489272117615,-1.24111008644104,0.779334545135498,-0.20272782444953918,-0.2943034768104553,0.2502814531326294
1749045772.4026563,5.706113338470459,0.1343208986469726,-2.276974678039551,5.276986408024587,0.17295442521572113,-4.406877104436056,-0.3182694911956787,-0.09748243540525436,0.10433751344680786,-0.3265170156955719,-0.0506141223013401,0.1285383403301239,-0.46386489272117615,-1.24111008644104,0.779334545135498,-0.20272782444953918,-0.2943034768104553,0.2502814531326294
1749045772.402693,5.704835414886475,0.1339534956165771,-2.2765681743621826,5.275724935322561,0.17269931733608246,-4.406375352536337,-0.3166735768318176,-0.09992650151252747,0.1048886701464653,-0.323830246925354,-0.05232955515384674,0.12807060778141022,-0.4628627300262451,-1.233568787574768,0.7714252471923828,-0.24600481986999512,-0.2921191453933716,0.2375095635652542
1749045772.4027295,5.704835414886475,0.1339534956165771,-2.2765681743621826,5.275724935322561,0.17269931733608246,-4.406375352536337,-0.3166735768318176,-0.09992650151252747,0.1048886701464653,-0.323830246925354,-0.05232955515384674,0.12807060778141022,-0.4628627300262451,-1.233568787574768,0.7714252471923828,-0.24600481986999512,-0.2921191453933716,0.2375095635652542
1749045772.4027653,5.703567028045654,0.1335475879856567,-2.2761332988739014,5.27444480636672,0.1725040227174759,-4.405874077473776,-0.3170837163925171,-0.09945974498987198,0.10452691465616226,-0.323739618062973,-0.051394566893577576,0.12789712846279144,-0.439163476228714,-1.1924216747283936,0.7621527314186096,-0.2541273534297943,-0.30666086077690125,0.22859391570091248
1749045772.4028018,5.703567028045654,0.1335475879856567,-2.2761332988739014,5.27444480636672,0.1725040227174759,-4.405874077473776,-0.3170837163925171,-0.09945974498987198,0.10452691465616226,-0.323739618062973,-0.051394566893577576,0.12789712846279144,-0.439163476228714,-1.1924216747283936,0.7621527314186096,-0.2541273534297943,-0.30666086077690125,0.22859391570091248
1749045772.402838,5.702216625213623,0.13313285886730952,-2.2757301330566406,5.273181426316061,0.1722966432571411,-4.405314509068624,-0.3155370354652405,-0.0990743562579155,0.10599764436483383,-0.3239213824272156,-0.05489245057106018,0.12680310010910034,-0.48024100065231323,-1.2331774234771729,0.7324658632278442,-0.2542473077774048,-0.29338252544403076,0.23760730028152466
