nimar13/UR3e_dataset_trayectorias/trayectorias_ejecutadas/quintic_func/trayectoria_172_result.csv
timestamp,q1,q2,q3,q4,q5,q6,qd1,qd2,qd3,qd4,qd5,qd6,tau1,tau2,tau3,tau4,tau5,tau6
1749044057.9825008,-5.528403703366415,-0.5838390749743958,-0.6910721063613892,4.876392292767324,-2.1419084707843226,-3.7576938311206263,-0.04430270567536354,0.00364387733861804,-0.018645428121089935,0.04078315570950508,-0.028725815936923027,-0.029888097196817398,-0.19065162539482117,-1.1173850297927856,-0.7172090411186218,-0.34328559041023254,-0.3681461215019226,-0.13952773809432983
1749044057.9825773,-5.528460208569662,-0.5838425916484375,-0.6910581588745117,4.876460152655401,-2.1420138517962855,-3.7578004042254847,-0.04249219968914986,0.002402389654889703,-0.017596298828721046,0.03831633925437927,-0.026267513632774353,-0.02728325128555298,-0.18963618576526642,-1.137724757194519,-0.7254897952079773,-0.3397364914417267,-0.3632053732872009,-0.15194568037986755
1749044057.9826481,-5.528460208569662,-0.5838425916484375,-0.6910581588745117,4.876460152655401,-2.1420138517962855,-3.7578004042254847,-0.04249219968914986,0.002402389654889703,-0.017596298828721046,0.03831633925437927,-0.026267513632774353,-0.02728325128555298,-0.18963618576526642,-1.137724757194519,-0.7254897952079773,-0.3397364914417267,-0.3632053732872009,-0.15194568037986755
1749044057.9827158,-5.528631154690878,-0.5838082593730469,-0.6911214590072632,4.876595157175817,-2.142106358204977,-3.757846180592672,-0.03656698018312454,0.001138526713475585,-0.014593906700611115,0.03379172459244728,-0.023779133334755898,-0.02410661056637764,-0.17694522440433502,-1.13379967212677,-0.7283275127410889,-0.3620753884315491,-0.3667001724243164,-0.14316421747207642
1749044057.9827826,-5.528696004544393,-0.5838734072497864,-0.6911455988883972,4.876666444330969,-2.142064873372213,-3.757909361516134,-0.03360239043831825,0.000908128684386611,-0.013031918555498123,0.0313878171145916,-0.022001512348651886,-0.0232678409665823,-0.1668567657470703,-1.162671446800232,-0.7217525243759155,-0.35028713941574097,-0.36103135347366333,-0.1391907036304474
1749044057.9828496,-5.528743092213766,-0.5838580292514344,-0.6911627054214478,4.876729893475332,-2.1421783606158655,-3.7579646746264856,-0.030884092673659325,0.0007554221665486693,-0.012139561586081982,0.028410840779542923,-0.02136475406587124,-0.021010838449001312,-0.1908247470855713,-1.1774452924728394,-0.7163432240486145,-0.3668724000453949,-0.3635846972465515,-0.14555548131465912
1749044057.9829152,-5.528835360203878,-0.5838545125773926,-0.6912245750427246,4.876789498120107,-2.142156426106588,-3.7579849402057093,-0.027934368699789047,0.000646726752165705,-0.010938835330307484,0.025303799659013748,-0.018931886181235313,-0.0182427279651165,-0.20294582843780518,-1.1800549030303955,-0.714288055896759,-0.34800174832344055,-0.36132729053497314,-0.14711026847362518
1749044057.9829798,-5.528878931199209,-0.5838390749743958,-0.6912175416946411,4.876790585904875,-2.142228428517477,-3.7579789797412317,-0.02609201893210411,0.0005654037813656032,-0.01013006642460823,0.02321680076420307,-0.017491916194558144,-0.01740148663520813,-0.18817611038684845,-1.186099886894226,-0.7198832631111145,-0.3606281280517578,-0.3492145538330078,-0.14728944003582
1749044057.9830463,-5.5288811961757105,-0.5838580292514344,-0.6912417411804199,4.876830893545904,-2.14223558107485,-3.7580533663379114,-0.02440124936401844,0.0005022574332542717,-0.009239262901246548,0.021137554198503494,-0.01583380624651909,-0.016507556661963463,-0.1665460616350174,-1.2141387462615967,-0.697367250919342,-0.3730472922325134,-0.35717272758483887,-0.12556599080562592
1749044057.9831119,-5.528974119816915,-0.5838356179049988,-0.6912465691566467,4.876877534180441,-2.142299000416891,-3.7580772081958216,-0.022737598046660423,0.00036242310306988657,-0.007541440427303314,0.018769459798932076,-0.014479836449027061,-0.013996371999382973,-0.17646408081054688,-1.2334672212600708,-0.6810140013694763,-0.3497244417667389,-0.34662893414497375,-0.14467528462409973
1749044057.9831765,-5.529030088578359,-0.5838271540454407,-0.6912741661071777,4.876906367927351,-2.1422951857196253,-3.758112970982687,-0.020402811467647552,0.00032846289104782045,-0.005515413824468851,0.01738373003900051,-0.012415878474712372,-0.012735575437545776,-0.19312992691993713,-1.2373408079147339,-0.672966480255127,-0.3614579141139984,-0.3549458384513855,-0.1665402054786682
1749044057.9832416,-5.529034916554586,-0.5838509959033509,-0.6912707090377808,4.876930224686422,-2.142362419758932,-3.758137051259176,-0.01884320005774498,0.0002265383955091238,-0.003676660591736436,0.015228857286274433,-0.011931363493204117,-0.012049577198922634,-0.1806662380695343,-1.2351503372192383,-0.6679063439369202,-0.3529011607170105,-0.37882623076438904,-0.13279898464679718
1749044057.9833074,-5.5290865937816065,-0.583835558300354,-0.6913049817085266,4.876945766597547,-2.1423829237567347,-3.7581337133990687,-0.016557103022933006,-0.00019999391224700958,-0.002420534612610936,0.01302826777100563,-0.011929644271731377,-0.011223413050174713,-0.18078693747520447,-1.249916911125183,-0.6693546175956726,-0.3503396511077881,-0.33842962980270386,-0.1457991749048233
1749044057.9833705,-5.5291224161731165,-0.5838699501803895,-0.6912860870361328,4.876962053566732,-2.142421070729391,-3.7581728140460413,-0.014823916368186474,-0.0002833251201082021,-0.0015068489592522383,0.01126665435731411,-0.011146527715027332,-0.0100175179541111,-0.1992601454257965,-1.2462712526321411,-0.6525248289108276,-0.3416730761528015,-0.3265741467475891,-0.14232687652111053
1749044057.9834356,-5.529099766408102,-0.5838545125773926,-0.6912980079650879,4.8769971309001825,-2.1423991362201136,-3.7581661383258265,-0.013443580828607082,-0.00033444800646975636,-0.0011184808099642396,0.009594661183655262,-0.009023348800837994,-0.007547102402895689,-0.1978033035993576,-1.2441269159317017,-0.6407538056373596,-0.34511110186576843,-0.29913878440856934,-0.12426365911960602
1749044057.9835,-5.529120687638418,-0.5838818711093445,-0.6913291215896606,4.877001750260153,-2.142426315938131,-3.7581661383258265,-0.013296528719365597,-0.0011097860988229513,-0.0008099281112663448,0.007554564159363508,-0.005327717866748571,-0.00408727815374732,-0.15632568299770355,-1.2506402730941772,-0.6405459046363831,-0.371013343334198,-0.28601521253585815,-0.10987766087055206
1749044057.9835649,-5.529219929371969,-0.5838557642749329,-0.6912980079650879,4.876998188882627,-2.1424463430987757,-3.7581780592547815,-0.009398795664310455,-0.0012727335561066866,-0.0006019874126650393,0.005430254619568586,-0.002813105471432209,-0.00227391067892313,-0.12406603991985321,-1.2564483880996704,-0.6264038681983948,-0.36174023151397705,-0.2862706184387207,-0.1079665869474411
1749044057.9836285,-5.529174868260519,-0.5838902753642579,-0.6913168430328369,4.877020630031385,-2.142465893422262,-3.758181397114889,-0.0063388897106051445,-0.0011037675430998206,-0.0005112900980748236,0.0035093065816909075,-0.0016810186207294464,-0.001492678769864142,-0.1233716756105423,-1.2556560039520264,-0.5872713923454285,-0.38789501786231995,-0.27588126063346863,-0.10114111006259918
1749044057.983694,-5.52916652361025,-0.5838937920382996,-0.6912945508956909,4.877032536059179,-2.142395798360006,-3.758181397114889,-0.003132169833406806,-0.0009394994704052806,-0.0004472598957363516,0.0022477880120277405,-0.0011928576277568936,-0.0011055768700316548,-0.12380392849445343,-1.2594423294067383,-0.5943024754524231,-0.39808255434036255,-0.24612119793891907,-0.11327318847179413
1749044057.9837584,-5.529193941746847,-0.5838937920382996,-0.6912945508956909,4.876983004599371,-2.142406765614645,-3.758162800465719,-0.0016834408743306994,-0.0009329618769697845,-0.0003251835878472775,0.0015923783648759127,-0.0008061464759521186,-0.0008808576385490596,-0.10287082195281982,-1.2878564596176147,-0.5809792876243591,-0.4134642481803894,-0.23607461154460907,-0.08448578417301178
1749044057.9839218,-5.5291903654681605,-0.5838664335063477,-0.691309928894043,4.877001750260153,-2.142419163380758,-3.7581847349749964,0.0003351909981574863,-0.0008347564144060016,-0.0002703241480048746,0.0012521863682195544,-0.000542282301466912,-0.0007339875446632504,-0.09556423127651215,-1.312557339668274,-0.5651822686195374,-0.4290570616722107,-0.2417251020669937,-0.07170431315898895
1749044057.984517,-5.529152218495504,-0.5838699501803895,-0.6912944912910461,4.876967045455732,-2.142406765614645,-3.7581780592547815,0.003721107030287385,-0.0008039850508794188,7.803161133779213e-05,0.0005525141605176032,-3.362172355991788e-05,-0.0005608642240986228,-0.07862915098667145,-1.3248167037963867,-0.5678666234016418,-0.45456463098526,-0.23200488090515137,-0.04976092278957367
1749044058.0264666,-5.529171291981832,-0.5838818711093445,-0.6912945508956909,4.876970964461126,-2.142391029988424,-3.7581966559039515,0.005048774182796478,-0.0009551850380375981,0.00023435386538039893,0.0002079708647215739,0.0003650457947514951,-0.0004515692126005888,-0.10689657926559448,-1.3396886587142944,-0.5394811034202576,-0.43925362825393677,-0.22565706074237823,-0.04177115857601166
1749044058.0265138,-5.52916652361025,-0.5839168590358277,-0.6912860870361328,4.877005386143484,-2.142395798360006,-3.758193318043844,0.004166608210653067,-0.002250782446935773,0.00030950611107982695,0.00013278071128297597,0.0004985645064152777,-0.00039478333201259375,-0.07811425626277924,-1.3170326948165894,-0.5372052192687988,-0.4637531340122223,-0.21745392680168152,-0.0473950058221817
1749044058.026555,-5.529147450123922,-0.5838973087123414,-0.6912860870361328,4.877032863884725,-2.142437760029928,-3.758193318043844,0.003710042219609022,-0.002535952487960458,0.0008205682970583439,0.0001084663235815242,0.001387698226608336,-0.00035447056870907545,-0.03390614688396454,-1.3278684616088867,-0.5354625582695007,-0.47815003991127014,-0.20070213079452515,-0.03090013563632965
1749044058.0265946,-5.529127661381857,-0.583874837761261,-0.6912860870361328,4.8769982037837885,-2.142383877431051,-3.758209292088644,0.004738235846161842,-0.0020673894323408604,0.0013103722594678402,1.9167138816555962e-05,0.001553925801999867,-0.00027725606923922896,-0.051449865102767944,-1.3505475521087646,-0.5511514544487,-0.48057180643081665,-0.18915432691574097,-0.029428616166114807
1749044058.0266333,-5.52912408510317,-0.5838712018779297,-0.6912860870361328,4.877025592118063,-2.1423752943622034,-3.758193318043844,0.005798351019620895,-0.0017770086415112019,0.0013421430485323071,3.3870346669573337e-06,0.0017151767387986183,-0.00022809812799096107,-0.04014505445957184,-1.3639317750930786,-0.5315452814102173,-0.5013753771781921,-0.18046416342258453,-0.012343212962150574
1749044058.0266716,-5.5291152636157435,-0.5838783544353028,-0.6912620067596436,4.876998367696562,-2.142379109059469,-3.7581780592547815,0.005653138738125563,-0.0014299630420282483,0.0015723897377029061,5.985245365991432e-07,0.0017274138517677784,4.33951172453817e-05,-0.060252413153648376,-1.3629621267318726,-0.5286778807640076,-0.5177240371704102,-0.18261364102363586,0.006617888808250427
1749044058.0267098,-5.529103342686788,-0.5838545125773926,-0.6912584900856018,4.876998188882627,-2.1423872152911585,-3.7581966559039515,0.006108866538852453,-0.001192755065858364,0.0015097667928785086,1.0576556519481528e-07,0.0016386223724111915,0.0001652329956414178,-0.05946531891822815,-1.3627285957336426,-0.527153730392456,-0.5050957202911377,-0.18321722745895386,-0.022687286138534546
1749044058.026748,-5.52909499803652,-0.5838475388339539,-0.6912776827812195,4.877013432770529,-2.142360035573141,-3.758181397114889,0.006706858519464731,-0.0008096829988062382,0.0014175953110679984,1.8689883418687714e-08,0.0016580687370151281,0.00025444431230425835,-0.03684800863265991,-1.372644066810608,-0.530493974685669,-0.5208029747009277,-0.1815182864665985,-0.01227407157421112
1749044058.0267851,-5.5291295687304896,-0.5838973087123414,-0.6912466287612915,4.877032819181242,-2.1423752943622034,-3.758169476185934,0.006782849319279194,-0.0009043730678968132,0.001414340571500361,3.3026985590822733e-09,0.0015556300058960915,0.0005971963983029127,-0.05609288811683655,-1.370778203010559,-0.5232096910476685,-0.5166160464286804,-0.1739453673362732,-0.000634118914604187
1749044058.026822,-5.529060486947195,-0.5838937920382996,-0.6912584900856018,4.8770202724035165,-2.1423829237567347,-3.758157555256979,0.005959919188171625,-0.000933448551222682,0.0014953229110687971,-0.0013168731238692999,0.0014607392949983478,0.001057854387909174,-0.046314433217048645,-1.3931964635849,-0.5161517858505249,-0.5178592801094055,-0.18654616177082062,-0.00021849572658538818
1749044058.026859,-5.529062990342275,-0.5838509959033509,-0.691243052482605,4.8769898293311975,-2.142313305531637,-3.7581847349749964,0.005626166705042124,-0.0013786787167191505,0.0016684210859239101,-0.0015187254175543785,0.001400590525008738,0.0011182454181835055,-0.02898356318473816,-1.391463279724121,-0.5171237587928772,-0.520501434803009,-0.15560244023799896,-0.0011156201362609863
1749044058.0268955,-5.5290520826922815,-0.5839217466166993,-0.6912741661071777,4.876986357360639,-2.14232045808901,-3.7581542173968714,0.00554550951346755,-0.0012903496390208602,0.0015528940130025148,-0.0014630777295678854,0.0012762059923261404,0.0011011329479515553,-0.033264949917793274,-1.3679935932159424,-0.5270102024078369,-0.5139313340187073,-0.18288353085517883,-0.007520809769630432
1749044058.0269325,-5.529047433529989,-0.5838369292071839,-0.6912654638290405,4.876986193447866,-2.1423633734332483,-3.758138958607809,0.005662756506353617,-0.001114635611884296,0.001330374157987535,-0.001252663554623723,0.0011609683278948069,0.001177338999696076,-0.05094647407531738,-1.3756650686264038,-0.5163247585296631,-0.5242046117782593,-0.1735721230506897,-0.009496226906776428
1749044058.0269692,-5.529015843068258,-0.583874837761261,-0.6912500858306885,4.8769898293311975,-2.1423514525042933,-3.758150879536764,0.005415298976004124,-0.0010779321892187,0.0012167674722149968,-0.0010514125460758805,0.001012942986562848,0.001143340370617807,-0.06530901789665222,-1.3890877962112427,-0.5213131308555603,-0.5229569673538208,-0.18365930020809174,0.010190173983573914
1749044058.0270064,-5.529034916554586,-0.5838831824115296,-0.6912584900856018,4.877005386143484,-2.1424101034747522,-3.7581661383258265,0.004756164271384478,-0.0009581076446920633,0.0010698531987145543,-0.0009151818230748177,0.0008897437364794314,0.0010554612381383777,-0.033708587288856506,-1.3867621421813965,-0.5185527801513672,-0.5319527387619019,-0.1651322841644287,0.0031000524759292603
1749044058.0270467,-5.529022995625631,-0.5839063090137024,-0.6912776827812195,4.87700520732955,-2.1423514525042933,-3.758169476185934,0.003886506659910083,-0.0009360830299556255,0.0009330856264568865,-0.0009243346867151558,0.000744729652069509,0.0010237907990813255,-0.040444016456604004,-1.3620353937149048,-0.5112469792366028,-0.5386989712715149,-0.1873885691165924,-0.0003689378499984741
1749044058.0270848,-5.528969351445333,-0.583918110733368,-0.6912741661071777,4.876962038665571,-2.1423514525042933,-3.7581542173968714,0.003316730260848999,-0.0009402908035553992,0.0008259454043582082,-0.000948290282394737,0.0007098322967067361,0.000938325363676995,-0.019457876682281494,-1.361358404159546,-0.5137399435043335,-0.5232133269309998,-0.16574855148792267,0.009900704026222229
1749044058.027122,-5.528999153767721,-0.5839145940593262,-0.6912777423858643,4.876950505166807,-2.142332379017965,-3.758188072835104,0.0031939332839101553,-0.0009350840118713677,0.0006743559497408569,-0.0011529872426763177,0.0007694604573771358,0.0008957581594586372,-0.033355385065078735,-1.359962821006775,-0.5117042064666748,-0.5359182953834534,-0.1805560141801834,0.00975055992603302
1749044058.027158,-5.5289955774890345,-0.5838991564563294,-0.6912549734115601,4.876977908402242,-2.142338577901022,-3.7582066694842737,0.0031548454426229,-0.0009951010579243302,0.0005374446045607328,-0.0012547781225293875,0.0007579222437925637,0.0008146637701429427,-0.03980427235364914,-1.3284245729446411,-0.5062485933303833,-0.5228966474533081,-0.18745028972625732,0.012316867709159851
1749044058.027195,-5.528992001210348,-0.58393348873172,-0.6912811398506165,4.876947152405538,-2.1423781553851526,-3.7581542173968714,0.0026355860754847527,-0.000831679324619472,0.000476672372315079,-0.0012778722448274493,0.0008019504020921886,0.0007552498718723655,-0.052408911287784576,-1.3162018060684204,-0.5108928680419922,-0.5310842394828796,-0.19485528767108917,0.0028098970651626587
1749044058.0273046,-5.528992001210348,-0.58393348873172,-0.6912811398506165,4.876947152405538,-2.1423781553851526,-3.7581542173968714,0.0026355860754847527,-0.000831679324619472,0.000476672372315079,-0.0012778722448274493,0.0008019504020921886,0.0007552498718723655,-0.052408911287784576,-1.3162018060684204,-0.5108928680419922,-0.5310842394828796,-0.19485528767108917,0.0028098970651626587
1749044058.028502,-5.528952662144796,-0.583930031662323,-0.6912654638290405,4.876950475364485,-2.1423361937152308,-3.758157555256979,0.0017376120667904615,-0.000403799582272768,0.0003930427192244679,-0.0012777545489370823,0.0007236588280647993,0.000658574455883354,-0.07974148541688919,-1.2551517486572266,-0.5185539722442627,-0.5348429083824158,-0.21369880437850952,-0.0020470619201660156
1749044058.0705032,-5.528956238423483,-0.583957390194275,-0.6912930607795715,4.876950505166807,-2.142374340687887,-3.758157555256979,0.001363937510177493,-0.00032134639332070947,0.00036144113983027637,-0.0012375590158626437,0.0006275179912336171,0.0005976803367957473,-0.059422723948955536,-1.2477627992630005,-0.529175341129303,-0.547920286655426,-0.20504514873027802,-0.018840983510017395
1749044058.070583,-5.528952662144796,-0.5839110773852845,-0.6912466287612915,4.876950520067968,-2.1423590818988245,-3.7581542173968714,0.001120830187574029,0.00030682599754072726,0.00033454629010520875,-0.0012127460213378072,0.0005510538467206061,0.0005460316315293312,-0.060841552913188934,-1.243188738822937,-0.5446404814720154,-0.550386905670166,-0.20108790695667267,0.006255060434341431
1749044058.070653,-5.528978888188497,-0.5838991564563294,-0.691270649433136,4.876969131618299,-2.1423710028277796,-3.7581422964679163,0.0010852522682398558,0.0004113413451705128,0.00031138097983784974,-0.0013014811556786299,0.0004907993716187775,0.0005024038255214691,-0.041193000972270966,-1.2249075174331665,-0.5425235629081726,-0.554120659828186,-0.20285668969154358,0.008090630173683167
1749044058.070722,-5.528940741215841,-0.5839217466166993,-0.6912741661071777,4.8769421754177,-2.14231521288027,-3.7581847349749964,0.0009444791940040886,0.0003606834798119962,0.00024088085046969354,-0.0017549570184201002,0.0004423607315402478,0.0004652381467167288,-0.06991993635892868,-1.2224217653274536,-0.5586292743682861,-0.566350519657135,-0.2066970020532608,-0.007489264011383057
1749044058.0707886,-5.528975311909811,-0.583918110733368,-0.6912930607795715,4.876919376641073,-2.142348114644186,-3.758157555256979,0.0006432817317545414,0.00031818990828469396,0.00021932285744696856,-0.0022642607800662518,0.0004026130773127079,0.00048332620644941926,-0.04541272670030594,-1.2270983457565308,-0.5523048043251038,-0.5695129036903381,-0.20340251922607422,0.02016209065914154
1749044058.0708554,-5.528982583676473,-0.5838712018779297,-0.6912620067596436,4.876942160516538,-2.1423242727862757,-3.7581761519061487,0.0006573905702680349,0.0002846295537892729,0.00020629761274904013,-0.0032016164623200893,0.0003694746701512486,0.000440897885710001,-0.050349362194538116,-1.2451961040496826,-0.5572928190231323,-0.5866430401802063,-0.18794044852256775,0.03453721106052399
1749044058.0709229,-5.528944317494528,-0.5838523072055359,-0.6912741661071777,4.876926588803091,-2.142362419758932,-3.7581947485553187,0.0006842209841124713,0.0003404300077818334,0.00019508402328938246,-0.004222272429615259,0.00034137823968194425,0.0004564982664305717,-0.06151152402162552,-1.2292722463607788,-0.568503737449646,-0.5845720171928406,-0.19083794951438904,0.04501526057720184
1749044058.0709896,-5.528940741215841,-0.5839026731303711,-0.6912776827812195,4.876910748868742,-2.142343346272604,-3.7581542173968714,0.0007119675283320248,0.00031337482505477965,0.00018505073967389762,-0.004615715704858303,0.00033882001298479736,0.00170672417152673,-0.06926221400499344,-1.2492433786392212,-0.5697500109672546,-0.6096416115760803,-0.17534753680229187,0.052968353033065796
1749044058.0710566,-5.528944317494528,-0.5838831228068848,-0.6912620067596436,4.876902821450987,-2.1424129644977015,-3.7581542173968714,0.0009375115623697639,0.00028829716029576957,0.00017600067076273263,-0.004801861010491848,0.00036839061067439616,0.0037199489306658506,-0.04331774264574051,-1.2692668437957764,-0.598069965839386,-0.6328745484352112,-0.15294376015663147,0.05699360370635986
1749044058.0711217,-5.528987173234121,-0.5839145940593262,-0.6912500858306885,4.876918065338888,-2.1423314253436487,-3.758148972188131,0.001045635319314897,0.0002669165260158479,0.0001677950785961002,-0.005301789380609989,0.00042231299448758364,0.0054815844632685184,-0.056751079857349396,-1.2872387170791626,-0.6060822010040283,-0.6491624712944031,-0.1387683004140854,0.06714142858982086
1749044058.0711858,-5.528937164937155,-0.5838972491076966,-0.6912500858306885,4.876875299006262,-2.1423314253436487,-3.7580795923816126,0.001025282428599894,0.00024849025066941977,0.00016032028361223638,-0.006396627519279718,0.0005049071623943746,0.007654640357941389,-0.028540529310703278,-1.3000980615615845,-0.5917465090751648,-0.6725823879241943,-0.11262229084968567,0.06980343163013458
1749044058.0712519,-5.528924647961752,-0.5838831824115296,-0.6912620067596436,4.876882540970602,-2.1423118750201624,-3.7580938974963587,0.000930618669372052,0.00023244231124408543,0.00015348395390901715,-0.008076213300228119,0.0037115600425750017,0.008942299522459507,-0.014481879770755768,-1.316628098487854,-0.6067140698432922,-0.6661744117736816,-0.09341992437839508,0.07299625128507614
1749044058.071317,-5.528971735631124,-0.583859459762909,-0.6912466287612915,4.8768789050872705,-2.1423075834857386,-3.7581093947040003,0.0010933933081105351,0.00015661701036151499,0.00012000452989013866,-0.010284794494509697,0.005680519621819258,0.010520833544433117,-0.011844955384731293,-1.320924162864685,-0.6078721284866333,-0.6808160543441772,-0.08752048015594482,0.09419560432434082
1749044058.0713825,-5.528990809117452,-0.5839098256877442,-0.6912620067596436,4.876843231707372,-2.142303768788473,-3.7580822149859827,0.0010999476071447134,0.00014240620657801628,0.00010669355106074363,-0.011727121658623219,0.006231703329831362,0.013976647518575191,-0.013297922909259796,-1.3700791597366333,-0.620521605014801,-0.6711705923080444,-0.0852280706167221,0.09511947631835938
1749044058.0714474,-5.528952721749441,-0.5839216870120545,-0.6912535429000854,4.876799779921331,-2.1422722975360315,-3.7580700556384485,0.0016191049944609404,2.181557829317171e-05,0.00010209795436821878,-0.013733399100601673,0.007066603749990463,0.016501521691679955,-0.007643595337867737,-1.415077805519104,-0.6162475943565369,-0.6982957720756531,-0.04882694035768509,0.09531344473361969
1749044058.0715122,-5.528975311909811,-0.5839007657817383,-0.6912620067596436,4.876783224731245,-2.1423099676715296,-3.7580462137805384,0.001914476277306676,2.1284601814386406e-07,9.834190859692171e-05,-0.015261822380125523,0.009955160319805145,0.01841127686202526,0.014654837548732758,-1.4275563955307007,-0.6198945641517639,-0.675537109375,-0.03892974555492401,0.11088846623897552
1749044058.0715768,-5.528968159352438,-0.5839217466166993,-0.6912500858306885,4.876759442477979,-2.14225942293276,-3.758009974156515,0.0030563538894057274,2.0766546260375662e-09,6.748400210199179e-06,-0.016399919986724854,0.013073241338133812,0.020862644538283348,0.013405479490756989,-1.4385706186294556,-0.6340544819831848,-0.6809247136116028,-0.03544329106807709,0.09278660267591476
1749044058.0716417,-5.528956238423483,-0.5839145940593262,-0.6912535429000854,4.876735555916586,-2.1421764532672327,-3.757946793233053,0.0034241341054439545,-0.0030404021963477135,-7.553608884336427e-05,-0.01653132028877735,0.015247807838022709,0.02170714922249317,0.02511974424123764,-1.4121663570404053,-0.6467053294181824,-0.6813139319419861,-0.0424005389213562,0.09597118198871613
1749044058.0717056,-5.528947834168569,-0.5839026731303711,-0.6912466287612915,4.876680704742231,-2.1422112623797815,-3.7579503695117396,0.0034739484544843435,-0.0027122804895043373,-0.0001064459647750482,-0.01757296919822693,0.016463113948702812,0.020951658487319946,0.03241187334060669,-1.4337365627288818,-0.6471486687660217,-0.691199004650116,-0.0419849157333374,0.08952438831329346
1749044058.0717688,-5.528940741215841,-0.5838797253421326,-0.6912535429000854,4.8766409931476495,-2.1421635786639612,-3.757902208958761,0.003223401727154851,-0.0021998935844749212,-0.00011147440818604082,-0.018556002527475357,0.017286593094468117,0.01990678906440735,0.04103173315525055,-1.4423894882202148,-0.6546241044998169,-0.6944357752799988,-0.04391410946846008,0.1104525625705719
1749044058.071942,-5.528947893773214,-0.5839265149882813,-0.6912381649017334,4.87664386907176,-2.1421406904803675,-3.7578747908221644,0.004123962949961424,-0.0019434418063610792,-0.00013418290473055094,-0.018786242231726646,0.01652025617659092,0.02014910615980625,0.08143246173858643,-1.4427770376205444,-0.6583613753318787,-0.7127990126609802,-0.03215107321739197,0.13042956590652466
1749044058.0725186,-5.528956238423483,-0.5839026731303711,-0.6912620067596436,4.8765926388795755,-2.142088238392965,-3.7578075567828577,0.0054352967999875546,-0.0019001462496817112,-0.00015436597459483892,-0.018966922536492348,0.015531964600086212,0.020190006121993065,0.05916101858019829,-1.4688719511032104,-0.670849621295929,-0.7317952513694763,-0.03343719244003296,0.1475163996219635
1749044058.1145017,-5.528967086468832,-0.5839454692653199,-0.6912347078323364,4.876568722515859,-2.1421106497394007,-3.7577670256244105,0.006014167796820402,-0.003169078379869461,-0.000165277931955643,-0.020225930958986282,0.015211212448775768,0.021783048287034035,0.06430699676275253,-1.4618275165557861,-0.6640781760215759,-0.7236198782920837,-0.006762340664863586,0.14151093363761902
1749044058.1145785,-5.528908673916952,-0.5839299720576783,-0.6912654638290405,4.876512545138159,-2.142005745564596,-3.757723633443014,0.006702471524477005,-0.004471634514629841,-0.0006588352844119072,-0.020863579586148262,0.016211284324526787,0.022226886823773384,0.09151419252157211,-1.4505800008773804,-0.6335933208465576,-0.7335526943206787,-0.02002711594104767,0.14769390225410461
1749044058.114654,-5.528912130986349,-0.5839418929866333,-0.6912811994552612,4.876457530051031,-2.1420310179339808,-3.7577415148364466,0.007274983450770378,-0.005048768129199743,-0.0007148373988457024,-0.02139166370034218,0.01619146205484867,0.023425942286849022,0.10073237866163254,-1.4654124975204468,-0.6588205099105835,-0.7349629402160645,-0.013397112488746643,0.14603964984416962
1749044058.1147223,-5.528905097638265,-0.5839692515185853,-0.6912776827812195,4.876429068833151,-2.1419995466815394,-3.75765568414797,0.007593716494739056,-0.004379680845886469,-0.0006894755642861128,-0.023633774369955063,0.01592349074780941,0.025201575830578804,0.08787080645561218,-1.483038067817688,-0.6613102555274963,-0.7482094764709473,-0.0066818296909332275,0.1543436348438263
1749044058.11479,-5.528844777737753,-0.5839587611011048,-0.6912654638290405,4.876377689629354,-2.1419289747821253,-3.757611099873678,0.007597746793180704,-0.004032510798424482,-0.0006245262338779867,-0.025237983092665672,0.01640317030251026,0.026249241083860397,0.11517900228500366,-1.4792708158493042,-0.6686607003211975,-0.7292391061782837,0.004437148571014404,0.16613611578941345
1749044058.1148562,-5.528884712849752,-0.5839468401721497,-0.6912689208984375,4.876298951893606,-2.1419289747821253,-3.7575438658343714,0.007989509031176567,-0.004384774249047041,-0.0006075393757782876,-0.02693386748433113,0.017294403165578842,0.02755187265574932,0.07207997888326645,-1.5145599842071533,-0.6611176133155823,-0.7504639029502869,0.013351932168006897,0.1584831029176712
1749044058.1149244,-5.528825585042135,-0.5839705628207703,-0.6912620067596436,4.876282381802358,-2.1418655554400843,-3.7575183550464075,0.008405429311096668,-0.004690409172326326,-0.0005930053303018212,-0.027495233342051506,0.017598291859030724,0.02759033627808094,0.0705251395702362,-1.4743397235870361,-0.6662845015525818,-0.7425918579101562,0.018603146076202393,0.17141862213611603
1749044058.1149917,-5.528836552296774,-0.5839670461467286,-0.6912895441055298,4.87620726504878,-2.141841713582174,-3.7574666182147425,0.009225266985595226,-0.004981301724910736,-0.0005995132378302515,-0.028685692697763443,0.0185506884008646,0.030007077381014824,0.08793681114912033,-1.4965907335281372,-0.6783311367034912,-0.7476426362991333,0.020487263798713684,0.18139970302581787
1749044058.1150582,-5.528804365788595,-0.5839936894229432,-0.6912741661071777,4.87614372649745,-2.141824547444479,-3.757387940083639,0.008925006724894047,-0.004927583038806915,-0.0006273269536904991,-0.029116293415427208,0.020101461559534073,0.03016534633934498,0.09496202319860458,-1.5001827478408813,-0.679672122001648,-0.749382734298706,0.030345618724822998,0.17864049971103668
1749044058.1151273,-5.528819862996237,-0.5839830797961731,-0.6912741661071777,4.876084077149191,-2.141773525868551,-3.757343355809347,0.009753883816301823,-0.004865074530243874,-0.0006576894666068256,-0.030149416998028755,0.02068057470023632,0.03216901794075966,0.08399321138858795,-1.5006846189498901,-0.6787955164909363,-0.7566549777984619,0.03855074942111969,0.18231570720672607
1749044058.115193,-5.528780523930685,-0.5840139550021668,-0.6912620067596436,4.8760245619113824,-2.1417492071734827,-3.757299248372213,0.009036416187882423,-0.004997004754841328,-0.0006824305164627731,-0.030711334198713303,0.02254662849009037,0.033528026193380356,0.0901721864938736,-1.5117545127868652,-0.67421555519104,-0.7667930722236633,0.04519431293010712,0.1913861632347107
1749044058.1152596,-5.528726343308584,-0.584010438328125,-0.6912741661071777,4.875953036337652,-2.1416896025287073,-3.757216755543844,0.009705119766294956,-0.005019622389227152,-0.000843819638248533,-0.03291938081383705,0.023957621306180954,0.03422154113650322,0.10751461982727051,-1.5001749992370605,-0.6859795451164246,-0.7469218969345093,0.04030318558216095,0.1881955862045288
1749044058.1153257,-5.528732363377706,-0.584010438328125,-0.6913014650344849,4.8758775917585275,-2.1416028181659144,-3.7571523825274866,0.010983012616634369,-0.005869156215339899,-0.0010067456169053912,-0.03468584269285202,0.02462928555905819,0.035447314381599426,0.10023847222328186,-1.5027515888214111,-0.6815171837806702,-0.7669359445571899,0.048322901129722595,0.2222546935081482
1749044058.1153924,-5.528713289891378,-0.5840342801860352,-0.6912741661071777,4.875809985190191,-2.141613308583395,-3.757098976765768,0.00991748459637165,-0.005504705011844635,-0.001078890054486692,-0.035193104296922684,0.026457907631993294,0.03609037771821022,0.11482971906661987,-1.5363117456436157,-0.6863017082214355,-0.7465980648994446,0.05234837532043457,0.1966194212436676
1749044058.1154575,-5.528678123150961,-0.584049717789032,-0.6913014650344849,4.875750455051222,-2.1415651480304163,-3.7570319811450403,0.009937998838722706,-0.005933065433055162,-0.0013175848871469498,-0.036822449415922165,0.027456026524305344,0.03708652779459953,0.11165511608123779,-1.5215725898742676,-0.7087931036949158,-0.7626299858093262,0.05913606286048889,0.22033445537090302
1749044058.115524,-5.528669063244955,-0.5840651553920289,-0.6913049221038818,4.875663015037336,-2.141489330922262,-3.7569361368762415,0.010709120891988277,-0.0054877451620996,-0.0014798339689150453,-0.03758445754647255,0.028047684580087662,0.03906705603003502,0.13215161859989166,-1.5313000679016113,-0.6969226002693176,-0.7563520669937134,0.04237276315689087,0.23529303073883057
1749044058.11559,-5.528641764317648,-0.5840770167163392,-0.6912741661071777,4.875583264022627,-2.1414416472064417,-3.756894652043478,0.010314367711544037,-0.006489522289484739,-0.0019431296968832612,-0.038438908755779266,0.02847743220627308,0.04014250263571739,0.12229305505752563,-1.5452059507369995,-0.7105353474617004,-0.7519394755363464,0.06048581004142761,0.21599014103412628
1749044058.1156554,-5.528636995946066,-0.5840978783420105,-0.6913014650344849,4.875496136933126,-2.1413663069354456,-3.756772581730978,0.011174843646585941,-0.006922571919858456,-0.0020081084221601486,-0.039921440184116364,0.03056824952363968,0.04256673529744148,0.13855555653572083,-1.561277151107788,-0.7003799080848694,-0.7465267181396484,0.07255791127681732,0.20800641179084778
1749044058.1157203,-5.528621498738424,-0.5840943616679688,-0.6912945508956909,4.8754124371107,-2.1413267294513147,-3.7566805521594446,0.011506769806146622,-0.007321466691792011,-0.0020545884035527706,-0.04014810547232628,0.03077155537903309,0.04468080401420593,0.13234329223632812,-1.5507349967956543,-0.7157935500144958,-0.7595304846763611,0.08971011638641357,0.21674007177352905
1749044058.1157858,-5.528604809437887,-0.584090844993927,-0.6912980079650879,4.875325369625845,-2.1412394682513636,-3.7565999666797083,0.011079072952270508,-0.007304309401661158,-0.002115828450769186,-0.04067941755056381,0.03219200298190117,0.044959068298339844,0.14581921696662903,-1.5766799449920654,-0.7230485677719116,-0.7642703652381897,0.10358963906764984,0.22029444575309753
1749044058.116038,-5.528542224560873,-0.5841400188258667,-0.691263735294342,4.875241982727804,-2.1412108580218714,-3.756500784550802,0.012706298381090164,-0.007631323765963316,-0.002594094490632415,-0.041561368852853775,0.03308495879173279,0.045650459825992584,0.15328645706176758,-1.566466212272644,-0.7061153650283813,-0.7599031925201416,0.11588983982801437,0.21067577600479126
1749044058.1165206,-5.528533999119894,-0.5841331642917176,-0.691309928894043,4.875193196326055,-2.141157929097311,-3.7564356962787073,0.012683580629527569,-0.007671850733458996,-0.0029737341683357954,-0.04303767904639244,0.03481945022940636,0.04691119119524956,0.13660307228565216,-1.5715500116348267,-0.7230595350265503,-0.766659677028656,0.11324799805879593,0.20062610507011414
1749044058.1582904,-5.528541151677267,-0.5841331046870728,-0.6913133859634399,4.875094252615728,-2.1410911718951624,-3.7563279310809534,0.013139215297996998,-0.008118288591504097,-0.0029771672561764717,-0.04448479786515236,0.037384528666734695,0.04863373562693596,0.15055501461029053,-1.5974518060684204,-0.7094525098800659,-0.7510963678359985,0.11738415062427521,0.21528863906860352
1749044058.1583645,-5.528512720261709,-0.5841296476176758,-0.6913133859634399,4.8750105676944635,-2.1409757773028772,-3.7562089602099817,0.01284762378782034,-0.00786644872277975,-0.0027668157126754522,-0.044427257031202316,0.0391201376914978,0.04915899038314819,0.154804065823555,-1.6296366453170776,-0.7229374647140503,-0.7840386033058167,0.09907026588916779,0.24196526408195496
1749044058.1584392,-5.528427902852194,-0.5841498535922547,-0.6913133859634399,4.874915155559339,-2.1409667173968714,-3.756092373524801,0.012310142628848553,-0.007990735583007336,-0.002662192564457655,-0.043447788804769516,0.041082385927438736,0.05079848691821098,0.17345352470874786,-1.6032402515411377,-0.7353415489196777,-0.7779297828674316,0.11075258255004883,0.2210167795419693
1749044058.1584854,-5.528423253689901,-0.5842003983310242,-0.6913374662399292,4.874816167145529,-2.1408594290362757,-3.756012026463644,0.012371093034744263,-0.009716198779642582,-0.0028460342437028885,-0.04348856955766678,0.04287353903055191,0.05109627544879913,0.1777988076210022,-1.6224642992019653,-0.7146016359329224,-0.812904953956604,0.1263463795185089,0.21992675960063934
1749044058.1585252,-5.528464857731954,-0.5841778081706543,-0.6913220882415771,4.874732705741682,-2.1407602469073694,-3.7558732668506067,0.011626778170466423,-0.00896454881876707,-0.003171705873683095,-0.04518439620733261,0.042238470166921616,0.05265897884964943,0.1692560911178589,-1.6108417510986328,-0.7293697595596313,-0.7983708381652832,0.14020441472530365,0.22552940249443054
1749044058.1585643,-5.528414789830343,-0.5842135709575196,-0.6913374662399292,4.874649080425062,-2.1406882444964808,-3.7557809988604944,0.01247768197208643,-0.008521956391632557,-0.0035631521604955196,-0.047904256731271744,0.04142862558364868,0.055356062948703766,0.18121322989463806,-1.6311372518539429,-0.7220851182937622,-0.7998543977737427,0.14624051749706268,0.21760809421539307
1749044058.1586032,-5.5283666292773646,-0.5842100542834778,-0.6913647651672363,4.874553668289938,-2.1406238714801233,-3.7556772867785853,0.012447829358279705,-0.009036685340106487,-0.0037188075948506594,-0.04841725155711174,0.043458856642246246,0.05753019452095032,0.18409615755081177,-1.6344853639602661,-0.7310303449630737,-0.8233362436294556,0.14427095651626587,0.19493599236011505
1749044058.1586416,-5.528389279042379,-0.5842688840678711,-0.6913340091705322,4.8744342652852914,-2.1405051390277308,-3.755545202885763,0.012672025710344315,-0.009581901133060455,-0.003727494738996029,-0.05020173266530037,0.0460565946996212,0.05610879138112068,0.1700425148010254,-1.6499476432800293,-0.7273966073989868,-0.8135915398597717,0.12322913110256195,0.20250971615314484
1749044058.1586795,-5.528353516255514,-0.5843150776675721,-0.6913340091705322,4.874326887517729,-2.1404293219195765,-3.7554758230792444,0.012774267233908176,-0.009151095524430275,-0.004515380132943392,-0.052545227110385895,0.04739752784371376,0.05445751175284386,0.1207091361284256,-1.645742654800415,-0.7153089642524719,-0.8209327459335327,0.13964468240737915,0.23326946794986725
1749044058.158718,-5.528274361287252,-0.5843010109714051,-0.6913772821426392,4.87422792890624,-2.1403096357928675,-3.7552908102618616,0.012682869099080563,-0.009789510630071163,-0.0038445456884801388,-0.053790852427482605,0.04670438542962074,0.05577122047543526,0.16840271651744843,-1.6175121068954468,-0.7243261933326721,-0.8142929673194885,0.12412510812282562,0.24813784658908844
1749044058.1587555,-5.528313700352804,-0.5843353432467957,-0.6913578510284424,4.874105158239164,-2.140249554310934,-3.7551634947406214,0.012644251808524132,-0.009622287936508656,-0.0031561534851789474,-0.054099030792713165,0.04780476540327072,0.05737128481268883,0.16681207716464996,-1.632381796836853,-0.7285616397857666,-0.8211591243743896,0.14017651975154877,0.21317481994628906
1749044058.1587934,-5.528281513844625,-0.5842988055995484,-0.6913542151451111,4.8740015057619,-2.140174214039938,-3.7550748030291956,0.012250876985490322,-0.008920140564441681,-0.003162478096783161,-0.053515978157520294,0.04999872297048569,0.05791783705353737,0.1571466624736786,-1.6711307764053345,-0.7272081971168518,-0.8288322687149048,0.14728766679763794,0.2178184986114502
1749044058.1588304,-5.528223697339193,-0.5843178194812317,-0.6913667917251587,4.873901206045904,-2.1400235334979456,-3.7549739519702356,0.012762121856212616,-0.008571036159992218,-0.0036207346711307764,-0.05431576818227768,0.051229268312454224,0.05916042998433113,0.18569236993789673,-1.6578145027160645,-0.729195237159729,-0.8444325923919678,0.14405184984207153,0.23541732132434845
1749044058.1588671,-5.528206411992208,-0.5843610924533387,-0.6914129853248596,4.873793887882986,-2.139977757130758,-3.754834238682882,0.013324419036507607,-0.00925244577229023,-0.004520163871347904,-0.057649578899145126,0.05143623426556587,0.061202697455883026,0.18256044387817383,-1.6461204290390015,-0.713560938835144,-0.8221681118011475,0.14303448796272278,0.22344109416007996
1749044058.158904,-5.5281670729266565,-0.5844158095172425,-0.6914024949073792,4.873644235521116,-2.1398008505450647,-3.754737202321188,0.01341803465038538,-0.00867669377475977,-0.004719346296042204,-0.05926726013422012,0.050586894154548645,0.06211412698030472,0.16306918859481812,-1.6505095958709717,-0.7295538187026978,-0.8510057330131531,0.1425524652004242,0.19863323867321014
1749044058.158941,-5.52817422548403,-0.5844003719142457,-0.6913906335830688,4.873532387405195,-2.1397364775287073,-3.7546055952655237,0.013255570083856583,-0.008627991192042828,-0.004714652895927429,-0.05992695689201355,0.049939222633838654,0.0617045983672142,0.1779870092868805,-1.6601585149765015,-0.7200478315353394,-0.8225845098495483,0.16674493253231049,0.22234311699867249
1749044058.1589777,-5.528127733861105,-0.5844052594951172,-0.6914181709289551,4.873413163214483,-2.139674965535299,-3.7545014063464563,0.013656359165906906,-0.009363056160509586,-0.004552198573946953,-0.060520607978105545,0.05173341929912567,0.06216355040669441,0.1919136643409729,-1.6398979425430298,-0.7159465551376343,-0.8316265940666199,0.16217052936553955,0.2314334213733673
1749044058.1590145,-5.528071228657858,-0.5844171804240723,-0.6914489269256592,4.873297366290846,-2.1395376364337366,-3.754338089619772,0.013563250191509724,-0.009491131640970707,-0.0044456301257014275,-0.061106305569410324,0.052691977471113205,0.06488177180290222,0.1870279610157013,-1.664960265159607,-0.7241942882537842,-0.8438352942466736,0.17936524748802185,0.21222619712352753
1749044058.1590638,-5.528090302144186,-0.5844414991191407,-0.6914147138595581,4.873147102981367,-2.1394370237933558,-3.754186455403463,0.01340420451015234,-0.009541249834001064,-0.004618494771420956,-0.06308010965585709,0.05396318808197975,0.06647489964962006,0.19930972158908844,-1.667521357536316,-0.7274531126022339,-0.8329711556434631,0.15296103060245514,0.2159789502620697
1749044058.1591036,-5.528050963078634,-0.5844653409770508,-0.6914420127868652,4.873034792929449,-2.1393635908709925,-3.754047695790426,0.013724906370043755,-0.010197908617556095,-0.0052364845760166645,-0.06536920368671417,0.05322440713644028,0.06772105395793915,0.17883245646953583,-1.658109188079834,-0.7278355360031128,-0.8460218906402588,0.17283712327480316,0.23156288266181946
1749044058.159211,-5.52799624601473,-0.5844807785800477,-0.691473126411438,4.872888195305624,-2.1392210165606897,-3.7539334932910364,0.014153609983623028,-0.010946860536932945,-0.005321825854480267,-0.06735508888959885,0.053747374564409256,0.06887826323509216,0.21443238854408264,-1.6829615831375122,-0.7187728881835938,-0.8326956033706665,0.17721930146217346,0.21810981631278992
1749044058.1604989,-5.528033677731649,-0.584489182834961,-0.6914849281311035,4.872757154494085,-2.1391261259662073,-3.753798309956686,0.014905395917594433,-0.011595409363508224,-0.005315757822245359,-0.06912735849618912,0.05450282618403435,0.07088985294103622,0.22062969207763672,-1.678922176361084,-0.7016229629516602,-0.8399342894554138,0.18862435221672058,0.21664808690547943
1749044058.2063081,-5.528033677731649,-0.584489182834961,-0.6914849281311035,4.872757154494085,-2.1391261259662073,-3.753798309956686,0.014905395917594433,-0.011595409363508224,-0.005315757822245359,-0.06912735849618912,0.05450282618403435,0.07088985294103622,0.22062969207763672,-1.678922176361084,-0.7016229629516602,-0.8399342894554138,0.18862435221672058,0.21664808690547943
1749044058.206354,-5.5279675165759485,-0.584490494137146,-0.6914864182472229,4.872459205776014,-2.13892108598818,-3.7534669081317347,0.016346421092748642,-0.010445205494761467,-0.005603651516139507,-0.07197941094636917,0.05751723423600197,0.07382215559482574,0.21958762407302856,-1.7027696371078491,-0.7123783826828003,-0.8142390847206116,0.1717652678489685,0.21305888891220093
1749044058.2064056,-5.527982060109274,-0.5845681589892884,-0.6914864182472229,4.872327673226156,-2.1387508551227015,-3.7533510367022913,0.016506588086485863,-0.01076033990830183,-0.005177633371204138,-0.07301529496908188,0.05887531861662865,0.07489766925573349,0.21038177609443665,-1.7145498991012573,-0.7225372791290283,-0.8048000335693359,0.19804564118385315,0.19948066771030426
1749044058.2064576,-5.527880016957418,-0.5845682185939332,-0.6915210485458374,4.8721496043498895,-2.1386778990374964,-3.7531912962542933,0.016385138034820557,-0.011543015018105507,-0.0052361804991960526,-0.07428886741399765,0.05981586128473282,0.07642028480768204,0.2232607901096344,-1.6931136846542358,-0.7195025682449341,-0.8218268752098083,0.17960718274116516,0.2027200162410736
1749044058.2065003,-5.527840022240774,-0.5846039217761536,-0.691529393196106,4.871997880726614,-2.1385510603534144,-3.753043238316671,0.01774705946445465,-0.012103640474379063,-0.005298168398439884,-0.0776461586356163,0.060884345322847366,0.07695873081684113,0.22225627303123474,-1.7163077592849731,-0.7175886631011963,-0.7883119583129883,0.1779898703098297,0.21839340031147003
1749044058.206539,-5.527816359196798,-0.5846249026111145,-0.691525936126709,4.871874543815412,-2.138364617024557,-3.752907101308004,0.017839549109339714,-0.012016265653073788,-0.005287669599056244,-0.07744746655225754,0.06202089786529541,0.07892117649316788,0.2253541350364685,-1.731157660484314,-0.7270990610122681,-0.7772831320762634,0.19627387821674347,0.21394510567188263
1749044058.2065768,-5.527725700532095,-0.5846640032580872,-0.6915535926818848,4.8717072931821725,-2.138240162526266,-3.752723519002096,0.019074328243732452,-0.011545216664671898,-0.005401122849434614,-0.07568902522325516,0.06352158635854721,0.07885865122079849,0.1917993128299713,-1.7503911256790161,-0.7299099564552307,-0.7931131720542908,0.17680947482585907,0.21372057497501373
1749044058.2066147,-5.527732912694113,-0.5846793812564393,-0.69155353307724,4.871579754143514,-2.1381285826312464,-3.752571407948629,0.019229203462600708,-0.01222138199955225,-0.004986021667718887,-0.07652966678142548,0.064736507833004,0.07913750410079956,0.23411308228969574,-1.7226558923721313,-0.7343884110450745,-0.798188328742981,0.1658501774072647,0.21342504024505615
1749044058.2066522,-5.527688805256979,-0.5846927923015137,-0.691568911075592,4.871421071677961,-2.1379969755755823,-3.7524195353137415,0.019283335655927658,-0.012257945723831654,-0.004705734550952911,-0.0775156021118164,0.0652555301785469,0.0796918049454689,0.21080313622951508,-1.7430474758148193,-0.7480459809303284,-0.8083176612854004,0.17632076144218445,0.242431178689003
1749044058.2066894,-5.527699712906973,-0.5847088259509583,-0.6915584802627563,4.8712539849574945,-2.1378734747516077,-3.752270285283224,0.01947075128555298,-0.012575061991810799,-0.004962376318871975,-0.07874681800603867,0.06586884707212448,0.08015243709087372,0.20016121864318848,-1.7569987773895264,-0.7552250027656555,-0.8021551966667175,0.18651503324508667,0.23913918435573578
1749044058.2067256,-5.527609590684072,-0.5847325485995789,-0.6915738582611084,4.871095227986135,-2.1377723852740687,-3.7520485560046595,0.01974903978407383,-0.013121776282787323,-0.005113670136779547,-0.08179362118244171,0.06694383174180984,0.08124203979969025,0.24659252166748047,-1.7469629049301147,-0.7348214387893677,-0.7932848930358887,0.18658052384853363,0.25384753942489624
1749044058.2067623,-5.527601246033804,-0.5847563904574891,-0.6915738582611084,4.870940255909719,-2.1376293341266077,-3.751868788396017,0.020215557888150215,-0.01338199619203806,-0.005627864506095648,-0.07863005250692368,0.06881880015134811,0.08314640074968338,0.24586790800094604,-1.7624009847640991,-0.7457773089408875,-0.8278810381889343,0.17629766464233398,0.23491284251213074
1749044058.206799,-5.527549389992849,-0.5847767156413575,-0.6916016936302185,4.870773049979963,-2.1375044027911585,-3.7517011801349085,0.02137111872434616,-0.01367227267473936,-0.005368716549128294,-0.07680220901966095,0.0706665888428688,0.0833200141787529,0.24322101473808289,-1.7731565237045288,-0.7373992800712585,-0.8581327199935913,0.18075154721736908,0.23073428869247437
1749044058.2068357,-5.527505878602163,-0.584828333263733,-0.6916289925575256,4.870630043535986,-2.1373141447650355,-3.751498047505514,0.022260600700974464,-0.013435064814984798,-0.005227524321526289,-0.07806102186441422,0.07198888808488846,0.0842478796839714,0.22870270907878876,-1.7965271472930908,-0.7346258163452148,-0.8730388879776001,0.17916402220726013,0.23547229170799255
1749044058.206872,-5.527480427418844,-0.5848283928683777,-0.6916100978851318,4.870459395437994,-2.1372206846820276,-3.751352850590841,0.02173309586942196,-0.01411413587629795,-0.00552843464538455,-0.08062721788883209,0.07220714539289474,0.0855250284075737,0.2296929508447647,-1.763034462928772,-0.7363169193267822,-0.8676087856292725,0.17572426795959473,0.25905144214630127
1749044058.2069085,-5.527429167424337,-0.5848522347262879,-0.6916254758834839,4.870327222138204,-2.1370413939105433,-3.7511888186084192,0.021605998277664185,-0.014131370931863785,-0.005277781281620264,-0.08350978791713715,0.07340177148580551,0.08869758248329163,0.23974210023880005,-1.7703572511672974,-0.7411689758300781,-0.874498724937439,0.1647290289402008,0.25436073541641235
1749044058.2069445,-5.527362887059347,-0.5849040311625977,-0.6916376948356628,4.870129275112905,-2.136871639882223,-3.7509809176074427,0.02187485247850418,-0.015287371352314949,-0.0055854106321930885,-0.08554613590240479,0.07344313710927963,0.0888986885547638,0.22274108231067657,-1.7750223875045776,-0.7380925416946411,-0.8750876784324646,0.16877798736095428,0.2560269832611084
1749044058.2069817,-5.527322534714834,-0.5849431318095704,-0.6916376948356628,4.869982096343794,-2.1367433706866663,-3.7507854143725794,0.02215570956468582,-0.01508843619376421,-0.005782143212854862,-0.08694735914468765,0.07335362583398819,0.0905272513628006,0.2602483332157135,-1.777161717414856,-0.7497063279151917,-0.8948972225189209,0.17568211257457733,0.2799147665500641
1749044058.2070181,-5.5272904078113,-0.5849529665759583,-0.6916460990905762,4.86977772691802,-2.1365955511676233,-3.750613037739889,0.0224898774176836,-0.01519481185823679,-0.005812636576592922,-0.08860553801059723,0.07421667873859406,0.09152724593877792,0.2380349338054657,-1.7612957954406738,-0.7360947132110596,-0.8992079496383667,0.17315074801445007,0.2765398621559143
1749044058.2070587,-5.5272390882121485,-0.5850152534297486,-0.6916614770889282,4.869620862394132,-2.1364439169513147,-3.7504175345050257,0.022314054891467094,-0.015219352208077908,-0.005245856940746307,-0.09214073419570923,0.07679998874664307,0.09605251997709274,0.2540106475353241,-1.7836732864379883,-0.7544372081756592,-0.8761297464370728,0.16563794016838074,0.265888512134552
1749044058.207096,-5.527175251637594,-0.5850354594043274,-0.6916580200195312,4.869418266206541,-2.1362999121295374,-3.750202242528097,0.022643230855464935,-0.01642058789730072,-0.005072386935353279,-0.09528801590204239,0.07708161324262619,0.09958218038082123,0.2527421712875366,-1.74393630027771,-0.7496522665023804,-0.8576352596282959,0.15593823790550232,0.25311294198036194
1749044058.2071326,-5.527139608060018,-0.5850439232638855,-0.6916821002960205,4.869189533382215,-2.1361287275897425,-3.7499941031085413,0.022891849279403687,-0.015687784180045128,-0.0054081277921795845,-0.09779985249042511,0.07451682537794113,0.09955844283103943,0.2360762655735016,-1.8001682758331299,-0.7507250308990479,-0.8519815802574158,0.1906524896621704,0.2539401650428772
1749044058.2072382,-5.527103249226705,-0.5851074618152161,-0.6916974782943726,4.8689938364322565,-2.136012856160299,-3.7498179117785853,0.023141968995332718,-0.016470734030008316,-0.006121300160884857,-0.09887947142124176,0.07568028569221497,0.10108622908592224,0.24221032857894897,-1.7774481773376465,-0.7383893728256226,-0.8573828339576721,0.17551271617412567,0.2505641281604767
1749044058.2084725,-5.527090970669882,-0.5850850504687806,-0.6917213201522827,4.8687840578849695,-2.135836903248922,-3.749617401753561,0.02373269759118557,-0.017166243866086006,-0.005774090997874737,-0.10116369277238846,0.07645416259765625,0.10370159894227982,0.26477110385894775,-1.7827600240707397,-0.7411339282989502,-0.8361494541168213,0.2055119425058365,0.22951076924800873
1749044058.2543073,-5.526988748704092,-0.5851516884616395,-0.6917213201522827,4.868595245271482,-2.13566238084902,-3.7493584791766565,0.02410721965134144,-0.017426541075110435,-0.005368203856050968,-0.10252899676561356,0.07936674356460571,0.1059524267911911,0.2664124071598053,-1.769419550895691,-0.7408169507980347,-0.820168673992157,0.1949281543493271,0.21989069879055023
1749044058.2543538,-5.527018849049703,-0.5852068227580567,-0.6917369961738586,4.868366586952963,-2.135552708302633,-3.749178711568014,0.024023959413170815,-0.01808869279921055,-0.005460231564939022,-0.1015840470790863,0.08097419887781143,0.10659153014421463,0.28320202231407166,-1.7669907808303833,-0.7494727373123169,-0.8072981834411621,0.16792987287044525,0.22301413118839264
1749044058.2544005,-5.526971165333883,-0.5851963323405762,-0.6917300224304199,4.8681896952684305,-2.1353748480426233,-3.7489708105670374,0.023852815851569176,-0.01778687722980976,-0.006067434325814247,-0.10291515290737152,0.0805094912648201,0.10627198964357376,0.2672024369239807,-1.789025068283081,-0.7616276144981384,-0.8305767774581909,0.17408223450183868,0.20560303330421448
1749044058.2544553,-5.526903871689932,-0.5852705401233216,-0.691726565361023,4.8679557023342035,-2.135218922291891,-3.7487812677966517,0.02481500618159771,-0.017887908965349197,-0.006715346127748489,-0.10485877841711044,0.08051898330450058,0.10539036244153976,0.28652191162109375,-1.8016153573989868,-0.752640962600708,-0.8094338774681091,0.21032576262950897,0.2231094390153885
1749044058.2544975,-5.526844267045156,-0.5852837723544617,-0.691757321357727,4.867765056877889,-2.135021511708395,-3.7485314051257532,0.025442592799663544,-0.018501782789826393,-0.006798763293772936,-0.10116533935070038,0.08436073362827301,0.10859345644712448,0.29101264476776123,-1.7847453355789185,-0.7453964352607727,-0.8312360644340515,0.19150979816913605,0.22432006895542145
1749044058.2545366,-5.526808504258291,-0.5853733581355591,-0.6917657852172852,4.867558929115095,-2.1348422209369105,-3.7483390013324183,0.026141837239265442,-0.019004320725798607,-0.006407839246094227,-0.10090149939060211,0.08550987392663956,0.10764553397893906,0.2996770739555359,-1.8037588596343994,-0.7654572129249573,-0.8327171802520752,0.20507517457008362,0.20562906563282013
1749044058.2545745,-5.52680737177004,-0.5853747886470337,-0.6917849183082581,4.867374542146482,-2.1347044149981897,-3.7481544653521937,0.02658802457153797,-0.01996757462620735,-0.006532586645334959,-0.10042363405227661,0.08673378825187683,0.10639739036560059,0.29401957988739014,-1.796555757522583,-0.7609391808509827,-0.8714287877082825,0.1935604065656662,0.24771124124526978
1749044058.2546124,-5.526735369359152,-0.5854656857303162,-0.6918055415153503,4.86718716004447,-2.134540383015768,-3.747910801564352,0.02695309743285179,-0.020622296258807182,-0.007327029015868902,-0.10474014282226562,0.08766911923885345,0.10700013488531113,0.29982009530067444,-1.7792494297027588,-0.7617844343185425,-0.8372488617897034,0.19711332023143768,0.24833856523036957
1749044058.254651,-5.526671651993887,-0.5854635399631043,-0.6918330788612366,4.866947042732992,-2.1343534628497522,-3.747678820286886,0.02702561393380165,-0.020657086744904518,-0.007911913096904755,-0.10155804455280304,0.08780185133218765,0.1121869683265686,0.3155972957611084,-1.786649227142334,-0.7545151710510254,-0.8551103472709656,0.19656667113304138,0.26026850938796997
1749044058.2546885,-5.526632908974783,-0.5854957860759278,-0.6918226480484009,4.866732227593221,-2.134193245564596,-3.747456137334005,0.027112269774079323,-0.02067846991121769,-0.007274495903402567,-0.10183902829885483,0.08825336396694183,0.11361722648143768,0.3206847608089447,-1.7839964628219604,-0.7504097819328308,-0.8895490765571594,0.19894856214523315,0.2639578580856323
1749044058.2547262,-5.526533309613363,-0.5855629009059449,-0.6918569207191467,4.8665296016033075,-2.1339905897723597,-3.747256342564718,0.028228383511304855,-0.02211063914000988,-0.00705358712002635,-0.10330305248498917,0.09242573380470276,0.11540137231349945,0.3169834017753601,-1.7909740209579468,-0.7597014904022217,-0.8998929858207703,0.18739183247089386,0.2610921561717987
1749044058.2547672,-5.526474241410391,-0.5855866831592103,-0.6918380260467529,4.866352382093229,-2.1338217894183558,-3.7470348517047327,0.0287979356944561,-0.023302525281906128,-0.007625379599630833,-0.10742474347352982,0.09080534428358078,0.1188988983631134,0.33369725942611694,-1.7836090326309204,-0.7543317675590515,-0.8993992209434509,0.185794860124588,0.24495097994804382
1749044058.2548056,-5.526476864014761,-0.5856313866427918,-0.6918656229972839,4.866134273796835,-2.133591953908102,-3.7467759291278284,0.030721629038453102,-0.02380092814564705,-0.00866220984607935,-0.11117970943450928,0.09120182693004608,0.12351870536804199,0.30141204595565796,-1.776371717453003,-0.7566562294960022,-0.8996157050132751,0.2219708263874054,0.2367766797542572
1749044058.2548423,-5.526389781628744,-0.585670606499054,-0.6918740272521973,4.8658871976430795,-2.1334508101092737,-3.7465015093432825,0.029660513624548912,-0.023830348625779152,-0.008444814011454582,-0.1141631081700325,0.09254620969295502,0.1263345628976822,0.336575448513031,-1.7540310621261597,-0.7489012479782104,-0.8845135569572449,0.2090887874364853,0.22894182801246643
1749044058.2548792,-5.526342157517568,-0.5856998723796387,-0.6919100284576416,4.86563121059493,-2.133284393941061,-3.74626070657839,0.029981499537825584,-0.023901741951704025,-0.007710952777415514,-0.11685845255851746,0.09685231000185013,0.12821049988269806,0.3144676089286804,-1.7661391496658325,-0.7622536420822144,-0.8771347403526306,0.19774582982063293,0.2126362919807434
1749044058.2549162,-5.526301209126608,-0.5857888621142884,-0.6919219493865967,4.865365254669943,-2.1330226103412073,-3.7459660212146204,0.031243588775396347,-0.024313567206263542,-0.007538225967437029,-0.11886173486709595,0.0980328693985939,0.1291806697845459,0.3063996136188507,-1.7774714231491089,-0.7513493299484253,-0.88204026222229,0.18544161319732666,0.21257835626602173
1749044058.2549522,-5.526221875344412,-0.5857902330211182,-0.6919338703155518,4.865152585297384,-2.1328895727740687,-3.745744530354635,0.03157949075102806,-0.024824408814311028,-0.007519115228205919,-0.1271391212940216,0.0941014364361763,0.12998254597187042,0.32737669348716736,-1.7807176113128662,-0.7527748346328735,-0.8375906348228455,0.21316377818584442,0.19903600215911865
1749044058.2549884,-5.526140276585714,-0.5859091442874451,-0.6919457912445068,4.8648898033197305,-2.1326926390277308,-3.7454498449908655,0.03213764727115631,-0.024980388581752777,-0.007414401974529028,-0.1271805465221405,0.09545852988958359,0.1295389086008072,0.3270098567008972,-1.7622302770614624,-0.7634117603302002,-0.8328330516815186,0.2304004728794098,0.17981596291065216
1749044058.255025,-5.526118282471792,-0.585925893192627,-0.6919614672660828,4.864647972374716,-2.132505718861715,-3.745178763066427,0.0324741005897522,-0.025138193741440773,-0.007697730325162411,-0.12777046859264374,0.09757855534553528,0.12941372394561768,0.32106271386146545,-1.7737373113632202,-0.7688090205192566,-0.8285052180290222,0.23763389885425568,0.20575110614299774
1749044058.2550614,-5.526015106831686,-0.5859791201404114,-0.6919971704483032,4.864408048778333,-2.132251564656393,-3.7449339071856897,0.03266367316246033,-0.02538995072245598,-0.007779346778988838,-0.13118866086006165,0.10017120093107224,0.1288224756717682,0.32928624749183655,-1.7593697309494019,-0.752301037311554,-0.8071048259735107,0.24093544483184814,0.2028818428516388
1749044058.2550976,-5.5259591976748865,-0.5860301417163392,-0.6919971704483032,4.864128219872274,-2.132071320210592,-3.744661871586935,0.03354054316878319,-0.025262903422117233,-0.007923271507024765,-0.12989194691181183,0.10280227661132812,0.12703083455562592,0.33248764276504517,-1.7789936065673828,-0.7618330121040344,-0.8096146583557129,0.2390698790550232,0.22797027230262756
1749044058.2551336,-5.525906805192129,-0.5860504669002076,-0.6920250654220581,4.8638929454381845,-2.1318796316729944,-3.74440581003298,0.03366689756512642,-0.026005014777183533,-0.007865807972848415,-0.12738890945911407,0.10498520731925964,0.1293879747390747,0.31168535351753235,-1.750379204750061,-0.7546676993370056,-0.8413114547729492,0.22569991648197174,0.23965643346309662
1749044058.2552392,-5.5258477369891565,-0.5861295026591797,-0.6920180320739746,4.863627064019003,-2.131714169179098,-3.744145933781759,0.03420712798833847,-0.02731088362634182,-0.0075549231842160225,-0.12715858221054077,0.10669810324907303,0.12854208052158356,0.3282770812511444,-1.7296608686447144,-0.7608016133308411,-0.8431503176689148,0.22405926883220673,0.24931100010871887
1749044058.2564797,-5.525739912186758,-0.5861897033504029,-0.6920456290245056,4.863359349756994,-2.1314285437213343,-3.7438913027392786,0.03449392691254616,-0.027389708906412125,-0.008510810323059559,-0.12681129574775696,0.10816726088523865,0.12809738516807556,0.32939404249191284,-1.7368032932281494,-0.756314218044281,-0.8746921420097351,0.20985324680805206,0.269221693277359
1749044058.2982788,-5.525720540677206,-0.58624221504245,-0.692069411277771,4.863114225655355,-2.1312721411334437,-3.743650738392965,0.03430558741092682,-0.0272272489964962,-0.008369308896362782,-0.12557768821716309,0.10884980857372284,0.13202042877674103,0.3257380723953247,-1.7322473526000977,-0.7470771670341492,-0.8742527365684509,0.21775665879249573,0.28415507078170776
1749044058.2983253,-5.525608960782186,-0.5863022965243836,-0.692084789276123,4.862849819451132,-2.131021801625387,-3.743364397679464,0.03442870080471039,-0.026936383917927742,-0.008565438911318779,-0.1264636516571045,0.10984796285629272,0.13781830668449402,0.33531394600868225,-1.7573846578598022,-0.7447335720062256,-0.8953461647033691,0.2113294154405594,0.26202696561813354
1749044058.2983673,-5.525533441697256,-0.5863588613322754,-0.6921207904815674,4.862620222359457,-2.1307628790484827,-3.743138853703634,0.03641664236783981,-0.02726973220705986,-0.00940128043293953,-0.12829318642616272,0.1111704409122467,0.13921058177947998,0.3156454563140869,-1.7552399635314941,-0.7301536798477173,-0.892715334892273,0.2075885832309723,0.2724601924419403
1749044058.298407,-5.525500063096182,-0.5863946241191407,-0.6921257972717285,4.862350809365072,-2.130554501210348,-3.7428391615497034,0.037003133445978165,-0.028150081634521484,-0.00929171685129404,-0.13101375102996826,0.1118762344121933,0.1433599293231964,0.3009137511253357,-1.7423290014266968,-0.7263113260269165,-0.8843234777450562,0.21117550134658813,0.26243674755096436
1749044058.298447,-5.525419775639669,-0.5864924949458619,-0.6921379566192627,4.862060937076368,-2.1303771177874964,-3.7425480524646204,0.03543577715754509,-0.027990587055683136,-0.008582290261983871,-0.13638512790203094,0.112404964864254,0.1463395357131958,0.2938395142555237,-1.7166115045547485,-0.7340220212936401,-0.8830851316452026,0.20580127835273743,0.27637040615081787
1749044058.2984862,-5.525337461625234,-0.5865093630603333,-0.6921652555465698,4.861800062447347,-2.13010818163027,-3.7422755400287073,0.03462633118033409,-0.027553969994187355,-0.008254204876720905,-0.14176814258098602,0.11351677030324936,0.1498037427663803,0.34447258710861206,-1.7421916723251343,-0.7364877462387085,-0.8446912169456482,0.20316773653030396,0.2427973598241806
1749044058.2985249,-5.525231424962179,-0.5866069358638306,-0.6921652555465698,4.861471015005865,-2.1298721472369593,-3.7419756094561976,0.0367245152592659,-0.02849988453090191,-0.008861890994012356,-0.14477550983428955,0.11163210868835449,0.15175467729568481,0.32173752784729004,-1.7373790740966797,-0.7305113077163696,-0.8206838965415955,0.21452361345291138,0.23608848452568054
1749044058.2985628,-5.525170091782705,-0.5866255921176453,-0.6921824216842651,4.861201914935865,-2.1296919027911585,-3.7416492144214075,0.03637225180864334,-0.02916300669312477,-0.008567042648792267,-0.14584527909755707,0.11534161865711212,0.151387020945549,0.32348132133483887,-1.7265890836715698,-0.7355644702911377,-0.8277571797370911,0.1968589425086975,0.23400652408599854
1749044058.2986004,-5.525098029767172,-0.586708204155304,-0.6921977996826172,4.860903966217794,-2.1294377485858362,-3.7413821856128138,0.03820778802037239,-0.027833692729473114,-0.008365803398191929,-0.1488540917634964,0.11349749565124512,0.1530916690826416,0.29113876819610596,-1.74712073802948,-0.7469995021820068,-0.7939075231552124,0.17787761986255646,0.22555284202098846
1749044058.2986386,-5.525014583264486,-0.5867452186397095,-0.6922564506530762,4.860591637879171,-2.129209820424215,-3.741108481084005,0.038162555545568466,-0.026599610224366188,-0.00930049829185009,-0.14552420377731323,0.1125205010175705,0.151264026761055,0.3163186311721802,-1.7614250183105469,-0.7389543652534485,-0.7788591980934143,0.2313108891248703,0.22898916900157928
1749044058.2986765,-5.524954382573263,-0.5868124526790162,-0.6922683119773865,4.860280144005575,-2.1290066877948206,-3.7407847086535853,0.036792512983083725,-0.02717297151684761,-0.008951565250754356,-0.14497698843479156,0.11439655721187592,0.15374943614006042,0.30132603645324707,-1.7556743621826172,-0.7357284426689148,-0.7973552942276001,0.2483040988445282,0.2562932074069977
1749044058.2987146,-5.5248793999301355,-0.5868684214404603,-0.6922735571861267,4.86003993728713,-2.128723923360006,-3.740457359944479,0.036668065935373306,-0.028148023411631584,-0.009019396267831326,-0.14630217850208282,0.11886639893054962,0.15417683124542236,0.3033911883831024,-1.7533482313156128,-0.7172284126281738,-0.7685370445251465,0.22826805710792542,0.25586506724357605
1749044058.298752,-5.524845663701193,-0.5869165819934388,-0.6922973394393921,4.859734999924459,-2.1285398642169397,-3.740145508443014,0.03836191073060036,-0.027813013643026352,-0.009024471044540405,-0.14316701889038086,0.11690885573625565,0.15621787309646606,0.33354946970939636,-1.7779849767684937,-0.7314093112945557,-0.808080792427063,0.22643128037452698,0.24905216693878174
1749044058.2987893,-5.524755005036489,-0.586948887710907,-0.6923179626464844,4.859460580139913,-2.1282923857318323,-3.73987323442568,0.03861621394753456,-0.027870820835232735,-0.009299630299210548,-0.14367258548736572,0.11809875816106796,0.15765902400016785,0.3151615858078003,-1.7849104404449463,-0.723097562789917,-0.824002742767334,0.23034238815307617,0.25458717346191406
1749044058.2988265,-5.524651769791738,-0.5870243471911927,-0.6923452615737915,4.859163942724027,-2.1280420462237757,-3.7395063082324427,0.03837573528289795,-0.02901739813387394,-0.008817307651042938,-0.14449995756149292,0.12001222372055054,0.1609887182712555,0.3250466585159302,-1.7608038187026978,-0.7317993640899658,-0.8241475820541382,0.25468710064888,0.2460928112268448
1749044058.2988634,-5.52457565466036,-0.5870998662761231,-0.6923571825027466,4.858872520714559,-2.1277626196490687,-3.73921782175173,0.0387723483145237,-0.02839267998933792,-0.009091130457818508,-0.1478131264448166,0.12193698436021805,0.16203051805496216,0.314494252204895,-1.7758158445358276,-0.7314280867576599,-0.827239453792572,0.23616597056388855,0.24923813343048096
1749044058.2989008,-5.52448803583254,-0.5871600669673462,-0.6923728585243225,4.8585588214691064,-2.127589527760641,-3.7388511339770716,0.03914656490087509,-0.028194326907396317,-0.009530838578939438,-0.14897580444812775,0.12423861771821976,0.16418582201004028,0.3123490512371063,-1.8094487190246582,-0.7322531938552856,-0.8310684561729431,0.23676395416259766,0.21530833840370178
1749044058.2989376,-5.524416093026296,-0.5871957105449219,-0.6923624277114868,4.858264165907659,-2.1272757689105433,-3.738553826008932,0.03966880217194557,-0.028643185272812843,-0.009254694916307926,-0.1553114950656891,0.1256125420331955,0.16379618644714355,0.31616032123565674,-1.7870899438858032,-0.744392454624176,-0.7965879440307617,0.2395385503768921,0.2350192815065384
1749044058.2989743,-5.5243487397777,-0.5872678321651001,-0.6923743486404419,4.85793516316966,-2.127007786427633,-3.7382264772998255,0.03922107070684433,-0.028474081307649612,-0.008808617480099201,-0.1550217568874359,0.13081768155097961,0.16322016716003418,0.33607321977615356,-1.7961668968200684,-0.724566638469696,-0.8083356618881226,0.2059049904346466,0.23886738717556
1749044058.299011,-5.524245027695791,-0.5872999590686341,-0.6924138069152832,4.857613372593679,-2.126721207295553,-3.737946097050802,0.03958708047866821,-0.028810769319534302,-0.008804673328995705,-0.1576547473669052,0.12956957519054413,0.1611243188381195,0.3291359841823578,-1.8188226222991943,-0.7304640412330627,-0.7839398384094238,0.17250417172908783,0.24652934074401855
1749044058.299173,-5.5242202321635645,-0.5874027770808716,-0.6924138069152832,4.857313501625814,-2.12651235262026,-3.7375832239734095,0.039550166577100754,-0.028906768187880516,-0.008505772799253464,-0.15873561799526215,0.12757597863674164,0.16549165546894073,0.3414943218231201,-1.7979751825332642,-0.743526041507721,-0.7837741374969482,0.2065839022397995,0.24602586030960083
1749044058.3004982,-5.524105731640951,-0.5874203008464356,-0.6924376487731934,4.856987985759535,-2.1262529532061976,-3.7372358481036585,0.04098515585064888,-0.028870485723018646,-0.008548283018171787,-0.15679021179676056,0.128944531083107,0.16232983767986298,0.32525163888931274,-1.798038363456726,-0.7448227405548096,-0.8065450191497803,0.20090708136558533,0.2952518165111542
1749044058.346588,-5.524018053208486,-0.5874762100032349,-0.6924690008163452,4.856650161534109,-2.1259482542621058,-3.736974302922384,0.042152754962444305,-0.029369432479143143,-0.009325548075139523,-0.1560530960559845,0.13080322742462158,0.16650009155273438,0.3311164975166321,-1.8218884468078613,-0.7371450662612915,-0.810735285282135,0.1965407282114029,0.27056774497032166
1749044058.3466687,-5.523980740700857,-0.5875315231135865,-0.6924773454666138,4.856336566596784,-2.125711266194479,-3.7366228739367884,0.03987923264503479,-0.029362909495830536,-0.009474757127463818,-0.15612764656543732,0.12884269654750824,0.1685197800397873,0.33812031149864197,-1.8204715251922607,-0.7244427800178528,-0.8186390399932861,0.1924746036529541,0.2784227132797241
1749044058.3467236,-5.523854140435354,-0.5876063865474244,-0.692497968673706,4.856079685478964,-2.1254289785968226,-3.7362378279315394,0.041022736579179764,-0.029074542224407196,-0.008939439430832863,-0.1572761833667755,0.12936025857925415,0.17128470540046692,0.36460673809051514,-1.8293428421020508,-0.7437799572944641,-0.8399092555046082,0.23090849816799164,0.2971374988555908
1749044058.3467662,-5.52374762693514,-0.5876475733569642,-0.6924634575843811,4.855723637133398,-2.125216309224264,-3.735912863408224,0.041632406413555145,-0.029169321060180664,-0.008967310190200806,-0.1578103005886078,0.13026614487171173,0.17602238059043884,0.33336928486824036,-1.8286031484603882,-0.7459211349487305,-0.8380361795425415,0.2256980985403061,0.27771466970443726
1749044058.3468065,-5.523691181336538,-0.5877078336528321,-0.6925098896026611,4.855421635299482,-2.1249612013446253,-3.73557955423464,0.04284514859318733,-0.0300455279648304,-0.009208477102220058,-0.15898804366588593,0.13079892098903656,0.17780612409114838,0.3423270583152771,-1.85834801197052,-0.751131534576416,-0.8588539361953735,0.23935052752494812,0.2721998989582062
1749044058.346846,-5.523638312016622,-0.5877778095057984,-0.6925337314605713,4.855091053038397,-2.124690834675924,-3.7351964155780237,0.04392418637871742,-0.03055165708065033,-0.0091048339381814,-0.16322378814220428,0.13255858421325684,0.1792445033788681,0.30367547273635864,-1.8324518203735352,-0.7454849481582642,-0.8479978442192078,0.23400743305683136,0.25672972202301025
1749044058.3468854,-5.5235782901393335,-0.5878344935229798,-0.6925612688064575,4.854752796679296,-2.124406639729635,-3.734880272542135,0.04260128736495972,-0.03032161295413971,-0.009160255081951618,-0.1661146879196167,0.13527284562587738,0.1794826090335846,0.3257313370704651,-1.8551404476165771,-0.758905291557312,-0.865380048751831,0.2661077678203583,0.2669828236103058
1749044058.3469322,-5.52340937057604,-0.5878791970065613,-0.6925885677337646,4.854406910925665,-2.124143425618307,-3.734492842351095,0.042539775371551514,-0.030928106978535652,-0.009496367536485195,-0.1706416755914688,0.1370563954114914,0.1834196299314499,0.35321956872940063,-1.854004144668579,-0.7539102435112,-0.8372907042503357,0.2536467909812927,0.23906677961349487
1749044058.346972,-5.523325328026907,-0.5879197281650086,-0.6926127076148987,4.854029360204496,-2.123852078114645,-3.7341142336474817,0.04461318999528885,-0.03100334107875824,-0.009079914540052414,-0.17357701063156128,0.1388085037469864,0.1804550439119339,0.33913224935531616,-1.854252576828003,-0.7678451538085938,-0.8311516046524048,0.25437891483306885,0.2635435461997986
1749044058.3470106,-5.523303095494406,-0.5879917305758973,-0.692624568939209,4.853674161225118,-2.123530689870016,-3.7338200251208704,0.04426141455769539,-0.03196147829294205,-0.009020698256790638,-0.17436456680297852,0.14080099761486053,0.18557557463645935,0.32810476422309875,-1.8552783727645874,-0.7679020166397095,-0.8216282725334167,0.24729040265083313,0.285460889339447
1749044058.3470485,-5.5232089201556605,-0.588089720611908,-0.692602276802063,4.8533126441533945,-2.123317543660299,-3.7334139982806605,0.04410434514284134,-0.032334502786397934,-0.010399731807410717,-0.17184385657310486,0.14172104001045227,0.1837671846151352,0.35388195514678955,-1.848628044128418,-0.7596374750137329,-0.8380168676376343,0.2530847191810608,0.3038916289806366
1749044058.3470862,-5.523097399865286,-0.5881372851184388,-0.692648708820343,4.8529575047786615,-2.1229785124408167,-3.7329750696765345,0.044737834483385086,-0.03274742141366005,-0.00953070167452097,-0.17728175222873688,0.1423209309577942,0.1875169426202774,0.3697034418582916,-1.833640694618225,-0.762108564376831,-0.8201736211776733,0.2794380784034729,0.2877978980541229
1749044058.347123,-5.52301806608309,-0.588156060581543,-0.6926536560058594,4.852592038899221,-2.122719113026754,-3.732642475758688,0.04519238695502281,-0.03319842740893364,-0.00962954480201006,-0.17393846809864044,0.14561456441879272,0.19201703369617462,0.36061692237854004,-1.8455876111984253,-0.7611608505249023,-0.8194618821144104,0.23701763153076172,0.2915413975715637
1749044058.3471606,-5.522950355206625,-0.5882280629924317,-0.6926933526992798,4.85226437726573,-2.122392002736227,-3.732199494038717,0.04543060064315796,-0.03417607396841049,-0.010445387102663517,-0.17585289478302002,0.14411161839962006,0.19451650977134705,0.36121928691864014,-1.8468066453933716,-0.7560076713562012,-0.8471206426620483,0.26371869444847107,0.29060542583465576
1749044058.3471982,-5.522849742566244,-0.588327483539917,-0.6927087306976318,4.851917493134298,-2.122070614491598,-3.7318552176104944,0.04582555219531059,-0.03508838266134262,-0.00969704706221819,-0.17844150960445404,0.1447286456823349,0.19648179411888123,0.37331536412239075,-1.861226201057434,-0.7601789832115173,-0.8334391713142395,0.28309375047683716,0.2728049159049988
1749044058.3472362,-5.522750918065206,-0.5883751076510926,-0.692713737487793,4.85154044905261,-2.1218183676349085,-3.7314868609057825,0.047019150108098984,-0.036385614424943924,-0.009145038202404976,-0.18324407935142517,0.14964063465595245,0.1985047459602356,0.3724486231803894,-1.8290609121322632,-0.772958517074585,-0.8585121631622314,0.2434139996767044,0.25366756319999695
1749044058.3472736,-5.522666696702139,-0.5884577196887513,-0.6927294135093689,4.851185235172071,-2.1215031782733362,-3.731084410344259,0.04689682275056839,-0.036562204360961914,-0.010357349179685116,-0.18450459837913513,0.15000316500663757,0.20079132914543152,0.36739352345466614,-1.840060830116272,-0.770376443862915,-0.8336079120635986,0.25947797298431396,0.2645654082298279
1749044058.3473108,-5.522555474434988,-0.5885499280742188,-0.6927685737609863,4.85084185281352,-2.1212666670428675,-3.730710808430807,0.04842698574066162,-0.0370696485042572,-0.010063518770039082,-0.18703554570674896,0.1521323025226593,0.20012949407100677,0.38114258646965027,-1.8497153520584106,-0.7718710899353027,-0.852199375629425,0.2708531618118286,0.26936671137809753
1749044058.3473475,-5.5224947969066065,-0.5885912340930481,-0.6927616596221924,4.850432964950361,-2.120913330708639,-3.7302570978747767,0.04887673258781433,-0.038394421339035034,-0.00947384350001812,-0.19223430752754211,0.1562151163816452,0.19903382658958435,0.34384745359420776,-1.8339217901229858,-0.7726715803146362,-0.8171394467353821,0.2554333209991455,0.3009611666202545
1749044058.347384,-5.52239174047579,-0.5886815351298829,-0.6928080916404724,4.850047620921888,-2.1206052939044397,-3.729880158101217,0.048563409596681595,-0.04025065526366234,-0.010381492786109447,-0.19145603477954865,0.1580396294593811,0.20177122950553894,0.3878726661205292,-1.7887425422668457,-0.7771366834640503,-0.8245382308959961,0.2596694231033325,0.2801111042499542
1749044058.3474238,-5.522284392510549,-0.5887500208667298,-0.6928321719169617,4.849671873241224,-2.120291058217184,-3.7294417063342493,0.0487823486328125,-0.038601577281951904,-0.009804649278521538,-0.1913989633321762,0.15979470312595367,0.20267584919929504,0.37486913800239563,-1.8207917213439941,-0.766740083694458,-0.8375677466392517,0.27127790451049805,0.29228630661964417
1749044058.3474605,-5.522144917641775,-0.5888409179500123,-0.692837119102478,4.849286082177915,-2.119912926350729,-3.7290523687945765,0.049141086637973785,-0.03670323267579079,-0.009597806259989738,-0.19353561103343964,0.16563881933689117,0.20379959046840668,0.3902406096458435,-1.8488001823425293,-0.782386064529419,-0.8338803648948669,0.2318626046180725,0.2902141511440277
1749044058.3475733,-5.522086147462026,-0.5889095228961487,-0.6928834915161133,4.84886089244441,-2.119650189076559,-3.728598181401388,0.04952920600771904,-0.03922291100025177,-0.010420857928693295,-0.19536258280277252,0.1610409915447235,0.20431099832057953,0.39132940769195557,-1.831855058670044,-0.7540053129196167,-0.8269633054733276,0.23551329970359802,0.28795096278190613
1749044058.348457,-5.521969262753622,-0.588993029003479,-0.6928542852401733,4.848497319012441,-2.1192577520953577,-3.728201452885763,0.04972521960735321,-0.03962049260735512,-0.010698762722313404,-0.19635280966758728,0.16066528856754303,0.20612701773643494,0.3983795940876007,-1.8394924402236938,-0.777848482131958,-0.8418760299682617,0.2512720227241516,0.32245150208473206
1749044058.3902779,-5.521843020115988,-0.5890852373889466,-0.6928937435150146,4.848114910512724,-2.118922535573141,-3.7277653853045862,0.05103493109345436,-0.0407598651945591,-0.01121238712221384,-0.1981237828731537,0.16252420842647552,0.20691269636154175,0.383978933095932,-1.835625410079956,-0.7616837024688721,-0.8361725807189941,0.22728735208511353,0.3017868995666504
1749044058.3903239,-5.521769766007559,-0.5891643923572083,-0.6929247975349426,4.847712296038427,-2.118603054677145,-3.727309767399923,0.05157884210348129,-0.03996935859322548,-0.011179586872458458,-0.19893784821033478,0.1615850031375885,0.20797140896320343,0.372672438621521,-1.8228665590286255,-0.7699601054191589,-0.8402308821678162,0.26181480288505554,0.2988666892051697
1749044058.3903646,-5.521662120019094,-0.5892602366260071,-0.692945122718811,4.847283813148298,-2.118265453969137,-3.7268992106067103,0.05135103687644005,-0.03878403455018997,-0.011079798452556133,-0.19947858154773712,0.16243502497673035,0.20941205322742462,0.37948834896087646,-1.8455300331115723,-0.7757976651191711,-0.8525412678718567,0.24420036375522614,0.3169108033180237
1749044058.390404,-5.521551255379812,-0.5893092316440125,-0.6929538249969482,4.846877264767446,-2.1179354826556605,-3.7265098730670374,0.05205611139535904,-0.03875133395195007,-0.011319344863295555,-0.2032356709241867,0.16497886180877686,0.21314997971057892,0.37208929657936096,-1.8404228687286377,-0.7714716196060181,-0.866831362247467,0.22102612257003784,0.29083630442619324
1749044058.390444,-5.521423701439993,-0.5894126457026978,-0.6929587721824646,4.846478494792738,-2.1175668875323694,-3.7260547319995325,0.055301591753959656,-0.04058752954006195,-0.010707668960094452,-0.2004638910293579,0.16492898762226105,0.2139168232679367,0.3274504244327545,-1.8242536783218384,-0.7836061716079712,-0.8622188568115234,0.2436589151620865,0.3016090393066406
1749044058.3904827,-5.521339182053701,-0.5894994300654908,-0.6929982900619507,4.846051710634985,-2.117246929799215,-3.725631300603048,0.0526963472366333,-0.04073392227292061,-0.011577276512980461,-0.2047741562128067,0.16629375517368317,0.2177470624446869,0.32564693689346313,-1.8325910568237305,-0.7767142057418823,-0.87235027551651,0.2410234808921814,0.30606788396835327
1749044058.390522,-5.52127439180483,-0.5895763796618958,-0.6930601000785828,4.845642018109121,-2.116868321095602,-3.725192133580343,0.05425640940666199,-0.04021957144141197,-0.011744335293769836,-0.203027606010437,0.1671205461025238,0.2198198139667511,0.35854431986808777,-1.820508599281311,-0.7590492367744446,-0.8702346682548523,0.21744345128536224,0.29936182498931885
1749044058.3905606,-5.521117035542623,-0.5896399778178711,-0.6930769681930542,4.8452388671930215,-2.116509262715475,-3.724708620701925,0.05347179248929024,-0.04091093689203262,-0.011679626069962978,-0.2037188857793808,0.16702844202518463,0.22122350335121155,0.3471514880657196,-1.821825623512268,-0.7645474076271057,-0.8817529678344727,0.23004955053329468,0.2723791003227234
1749044058.3905978,-5.520972851906912,-0.5897288483432312,-0.6930856704711914,4.84483656564311,-2.116260830556051,-3.7242844740497034,0.05635284259915352,-0.04024270549416542,-0.012580730020999908,-0.20611248910427094,0.16676223278045654,0.2211780995130539,0.3370751738548279,-1.842660903930664,-0.7630237936973572,-0.8854193687438965,0.2320117950439453,0.2770189642906189
1749044058.390635,-5.520903948937551,-0.589828149681427,-0.6931097507476807,4.844422909408369,-2.1158936659442347,-3.7238217035876673,0.05534134805202484,-0.04065262898802757,-0.012178613804280758,-0.21216405928134918,0.17229397594928741,0.223655566573143,0.2851770222187042,-1.8334182500839233,-0.7603107690811157,-0.8882113695144653,0.2142162024974823,0.2590993642807007
1749044058.3906724,-5.520765248929159,-0.5899191063693543,-0.6931765079498291,4.843976798444547,-2.1155546347247522,-3.7233603636371058,0.05472303554415703,-0.04269975423812866,-0.011624274775385857,-0.21296373009681702,0.16967695951461792,0.2208528071641922,0.3291860818862915,-1.82962167263031,-0.7638585567474365,-0.8573784232139587,0.23980627954006195,0.2999598979949951
1749044058.3907092,-5.520645980034963,-0.5899912279895325,-0.693145751953125,4.843574243574896,-2.1151536146747034,-3.7229440847979944,0.055463455617427826,-0.03990401700139046,-0.01137128658592701,-0.2194732278585434,0.17240206897258759,0.22351492941379547,0.28996914625167847,-1.8596950769424438,-0.7609527111053467,-0.8735772967338562,0.22482724487781525,0.2844362258911133
1749044058.3907459,-5.5205765406238,-0.5900562566569825,-0.6931695938110352,4.843112948327818,-2.114833656941549,-3.7224538961993616,0.05542128533124924,-0.0408342108130455,-0.010823419317603111,-0.21691922843456268,0.1755068153142929,0.22404184937477112,0.3015757203102112,-1.8510322570800781,-0.7707192897796631,-0.871644914150238,0.21645556390285492,0.32161906361579895
1749044058.390783,-5.520418409501211,-0.59015907466922,-0.6932281851768494,4.842702317028799,-2.1145365873919886,-3.722013060246603,0.055462393909692764,-0.04123654216527939,-0.01112818717956543,-0.21530058979988098,0.17570841312408447,0.22592699527740479,0.3137724697589874,-1.8305493593215942,-0.7718406915664673,-0.8707056045532227,0.22113287448883057,0.29912275075912476
1749044058.3908195,-5.520302538071768,-0.5902773302844544,-0.6932331323623657,4.842267113714971,-2.1141822973834437,-3.721588675175802,0.055705297738313675,-0.04379435256123543,-0.011629895307123661,-0.2146110087633133,0.17715239524841309,0.22996124625205994,0.3084874451160431,-1.818123698234558,-0.7591313123703003,-0.8875236511230469,0.2344209998846054,0.2992574870586395
1749044058.3908563,-5.520121757184164,-0.5903269213489075,-0.6932500004768372,4.841810169606962,-2.1137965361224573,-3.7211337725268763,0.05549488961696625,-0.04241017997264862,-0.012015254236757755,-0.21543648838996887,0.17709624767303467,0.23073332011699677,0.3088543713092804,-1.8283509016036987,-0.785080075263977,-0.9088805913925171,0.25202399492263794,0.27824294567108154
1749044058.3908923,-5.520064119492666,-0.5903912943652649,-0.6932963728904724,4.8413840411003015,-2.113483730946676,-3.720609728490011,0.055320583283901215,-0.04106012359261513,-0.012677965685725212,-0.21754632890224457,0.17794100940227509,0.23686425387859344,0.315391480922699,-1.8669134378433228,-0.7686543464660645,-0.9208177924156189,0.263650119304657,0.2629242539405823
1749044058.390929,-5.519943956528799,-0.590482310657837,-0.6932741403579712,4.840925934701719,-2.1131203810321253,-3.720149580632345,0.054951440542936325,-0.04289009049534798,-0.012377259321510792,-0.22245942056179047,0.17690825462341309,0.23436544835567474,0.31911036372184753,-1.8518357276916504,-0.7568382024765015,-0.9118452668190002,0.25506365299224854,0.28386497497558594
1749044058.3909657,-5.519875530396597,-0.590581552391388,-0.693348228931427,4.840499478369512,-2.1127260367022913,-3.7196782271014612,0.057393334805965424,-0.043404702097177505,-0.013568630442023277,-0.22435574233531952,0.18170540034770966,0.23682083189487457,0.33229348063468933,-1.8539677858352661,-0.7625742554664612,-0.9135428667068481,0.2383478432893753,0.2716318964958191
1749044058.391003,-5.51972467104067,-0.5906899136355896,-0.6933687329292297,4.840038063913145,-2.112363640462057,-3.7191739718066614,0.05673133209347725,-0.045385219156742096,-0.012455791234970093,-0.22924600541591644,0.17882834374904633,0.23740032315254211,0.2976278066635132,-1.8341443538665771,-0.7515275478363037,-0.8866389989852905,0.2830120921134949,0.2885845899581909
1749044058.3911643,-5.519620422516958,-0.590804712181427,-0.6933806538581848,4.839571881085195,-2.111976448689596,-3.718666140233175,0.05548318475484848,-0.04637594521045685,-0.011432789266109467,-0.2252727597951889,0.18384785950183868,0.23895743489265442,0.34081417322158813,-1.7973949909210205,-0.7884896993637085,-0.910997748374939,0.27213627099990845,0.2892664968967438
1749044058.3925335,-5.519525233899252,-0.590873197918274,-0.6933736801147461,4.839152622013845,-2.1116092840777796,-3.718187395726339,0.05592916160821915,-0.043929122388362885,-0.011500456370413303,-0.2262510508298874,0.1849851906299591,0.23934513330459595,0.3287477493286133,-1.84095299243927,-0.7865272760391235,-0.9135036468505859,0.24260921776294708,0.29098421335220337
1749044058.4343114,-5.519433025513784,-0.590953604584076,-0.6934062242507935,4.838702264219084,-2.1111987272845667,-3.717728916798727,0.058726225048303604,-0.0473787859082222,-0.01171256322413683,-0.22409909963607788,0.1871890425682068,0.2399960160255432,0.30638641119003296,-1.8000470399856567,-0.7902578711509705,-0.9632460474967957,0.2572580873966217,0.2861328423023224
1749044058.4343581,-5.519282106553213,-0.5910334152034302,-0.6934561133384705,4.8382285861070535,-2.110851589833395,-3.717257324849264,0.055742546916007996,-0.048226602375507355,-0.012759744189679623,-0.22658275067806244,0.19103045761585236,0.24082495272159576,0.3158200979232788,-1.7838817834854126,-0.7878482937812805,-0.9581048488616943,0.23875275254249573,0.2707071304321289
1749044058.434399,-5.519186321889059,-0.5911607307246705,-0.6934729814529419,4.837781759887495,-2.110418144856588,-3.716769282017843,0.05571458861231804,-0.04836340248584747,-0.012924198992550373,-0.23120222985744476,0.1922318935394287,0.2461441308259964,0.3700157403945923,-1.7922816276550293,-0.768194854259491,-0.9499213695526123,0.2208244949579239,0.25613680481910706
1749044058.4344401,-5.519186321889059,-0.5911607307246705,-0.6934729814529419,4.837781759887495,-2.110418144856588,-3.716769282017843,0.05571458861231804,-0.04836340248584747,-0.012924198992550373,-0.23120222985744476,0.1922318935394287,0.2461441308259964,0.3700157403945923,-1.7922816276550293,-0.768194854259491,-0.9499213695526123,0.2208244949579239,0.25613680481910706
1749044058.434479,-5.518963102494375,-0.5913125437549134,-0.6935209035873413,4.836806791811743,-2.109725300465719,-3.7157867590533655,0.05817175284028053,-0.049893610179424286,-0.01278328150510788,-0.24261444807052612,0.19234013557434082,0.248522087931633,0.3210521936416626,-1.7791897058486938,-0.7704569697380066,-0.8963114023208618,0.22623583674430847,0.2732589542865753
1749044058.4345238,-5.518820528184072,-0.5914288920215149,-0.6935452818870544,4.836332525103845,-2.109299961720602,-3.7153099218951624,0.058425817638635635,-0.048682816326618195,-0.012189528904855251,-0.24660682678222656,0.19149641692638397,0.25113871693611145,0.3357996642589569,-1.7807297706604004,-0.801025927066803,-0.8551025390625,0.24728797376155853,0.28496527671813965
1749044058.4345653,-5.518743757401602,-0.5914973777583619,-0.6935725212097168,4.835823680251398,-2.1089451948748987,-3.7148142496692103,0.0588395819067955,-0.04867887869477272,-0.01239787507802248,-0.24051858484745026,0.1928274929523468,0.2520948350429535,0.32918232679367065,-1.7880609035491943,-0.7854494452476501,-0.8822827339172363,0.2398839145898819,0.2909596860408783
1749044058.434603,-5.518553618584768,-0.59163452804599,-0.6935725212097168,4.835318039148607,-2.108617607747213,-3.714318339024679,0.059495557099580765,-0.047997526824474335,-0.012355497106909752,-0.23632930219173431,0.19322380423545837,0.2534288167953491,0.34919801354408264,-1.815614938735962,-0.7968236207962036,-0.941944420337677,0.25832808017730713,0.2700031101703644
1749044058.434641,-5.518496755753652,-0.5916890662959595,-0.6936326622962952,4.834867800563135,-2.10822564760317,-3.7137461344348353,0.059020452201366425,-0.0476936399936676,-0.012812832370400429,-0.23732009530067444,0.19831185042858124,0.2571052312850952,0.3426351845264435,-1.778623104095459,-0.8023590445518494,-0.9523040652275085,0.2353016436100006,0.26421058177948
1749044058.434678,-5.51838052669634,-0.591781274681427,-0.6936292052268982,4.834350067168035,-2.1078198591815394,-3.7132225672351282,0.059358179569244385,-0.04715734347701073,-0.012911093421280384,-0.24231821298599243,0.19983649253845215,0.25714975595474243,0.3501032590866089,-1.7955279350280762,-0.7905475497245789,-0.9263753294944763,0.2466304749250412,0.2668430507183075
1749044058.4347146,-5.518261973057882,-0.5918582242778321,-0.6936805844306946,4.833841304271974,-2.107413117085592,-3.7126756350146692,0.059634506702423096,-0.046764783561229706,-0.014074724167585373,-0.25092586874961853,0.20165486633777618,0.25733691453933716,0.3321646451950073,-1.8072445392608643,-0.7785540819168091,-0.898989737033844,0.2718356251716614,0.2675424814224243
1749044058.4347515,-5.518123571072714,-0.5920577806285401,-0.6937128305435181,4.833374108165064,-2.1069939772235315,-3.7122092882739466,0.060152988880872726,-0.046912334859371185,-0.014333555474877357,-0.25767841935157776,0.20376987755298615,0.25897443294525146,0.33279454708099365,-1.8134032487869263,-0.7745718955993652,-0.8669971823692322,0.2825276851654053,0.28981953859329224
1749044058.4347875,-5.517964545880453,-0.5921150606921692,-0.6937525868415833,4.83286892899827,-2.1065643469439905,-3.7116621176349085,0.06094895675778389,-0.04746908321976662,-0.015209889970719814,-0.2559153437614441,0.20261409878730774,0.26034462451934814,0.35904625058174133,-1.8029614686965942,-0.7646665573120117,-0.8378937244415283,0.29289981722831726,0.2836214005947113
1749044058.4348247,-5.517855827008383,-0.5921765726855774,-0.6937731504440308,4.832389290421762,-2.1061680952655237,-3.711137835179464,0.06148216500878334,-0.04659935086965561,-0.014979630708694458,-0.2553490102291107,0.20484477281570435,0.26334500312805176,0.37261849641799927,-1.8244218826293945,-0.7694562673568726,-0.8489407300949097,0.2699662446975708,0.2710877060890198
1749044058.4348605,-5.51776767173876,-0.5922654432109375,-0.6937816143035889,4.831861349731245,-2.105729881917135,-3.7106269041644495,0.062396544963121414,-0.04736624285578728,-0.015394087880849838,-0.24806547164916992,0.21118220686912537,0.2639101445674896,0.3591311573982239,-1.8079204559326172,-0.7748674750328064,-0.8974146246910095,0.2482706606388092,0.2972089350223541
1749044058.434897,-5.517640058194296,-0.59235634029422,-0.6938483715057373,4.8313709674175165,-2.105345074330465,-3.710111204777853,0.0627826526761055,-0.047439537942409515,-0.015060006640851498,-0.2469412237405777,0.20876190066337585,0.2661512792110443,0.3512480854988098,-1.8382713794708252,-0.767242968082428,-0.9325228929519653,0.23682422935962677,0.2814910411834717
1749044058.4349332,-5.517536584530966,-0.5924745959094544,-0.6938536167144775,4.830872732191839,-2.1048997084247034,-3.7095704714404505,0.06300865858793259,-0.04788036644458771,-0.015082594007253647,-0.2512247562408447,0.2140282392501831,0.2680151164531708,0.3582487404346466,-1.8361303806304932,-0.759623110294342,-0.9508020877838135,0.2090754508972168,0.2694423794746399
1749044058.43497,-5.517361406479971,-0.5925794404796143,-0.6939050555229187,4.830362643092432,-2.1044724623309534,-3.709015432988302,0.06312695890665054,-0.04896124452352524,-0.014852750115096569,-0.260509729385376,0.2107355147600174,0.2715129852294922,0.35678631067276,-1.8054641485214233,-0.769483208656311,-0.9371885061264038,0.23566573858261108,0.3033347427845001
1749044058.4350061,-5.517261330281393,-0.592702643280365,-0.693932294845581,4.829770813673296,-2.1040809790240687,-3.708456818257467,0.06646716594696045,-0.049600325524806976,-0.01511154044419527,-0.2651425898075104,0.2089526504278183,0.27148672938346863,0.32848766446113586,-1.7891925573349,-0.7590788006782532,-0.8838373422622681,0.25873881578445435,0.3054189383983612
1749044058.4350424,-5.517261330281393,-0.592702643280365,-0.693932294845581,4.829770813673296,-2.1040809790240687,-3.708456818257467,0.06646716594696045,-0.049600325524806976,-0.01511154044419527,-0.2651425898075104,0.2089526504278183,0.27148672938346863,0.32848766446113586,-1.7891925573349,-0.7590788006782532,-0.8838373422622681,0.25873881578445435,0.3054189383983612
1749044058.4351714,-5.516974393521444,-0.5928670328906556,-0.6940045952796936,4.828733975976267,-2.10325271288027,-3.7073479334460657,0.06470219790935516,-0.04999251291155815,-0.016128290444612503,-0.26638689637184143,0.21167844533920288,0.27391573786735535,0.35332775115966797,-1.8216309547424316,-0.7489804625511169,-0.8334319591522217,0.2650810778141022,0.2819458842277527
1749044058.4365184,-5.516808275376455,-0.5929628175548096,-0.694024920463562,4.828204381256857,-2.1028407255755823,-3.706787172948019,0.06814021617174149,-0.05104910954833031,-0.0165645070374012,-0.2639073431491852,0.21174658834934235,0.27571141719818115,0.31847357749938965,-1.7839661836624146,-0.7476559281349182,-0.8623178601264954,0.29380929470062256,0.27235543727874756
1749044058.4782848,-5.516688410435812,-0.5930895370296021,-0.6940524578094482,4.827671105950632,-2.1024063269244593,-3.7062605063067835,0.06528035551309586,-0.04811973497271538,-0.015479126013815403,-0.26260462403297424,0.21495354175567627,0.2784241735935211,0.351692795753479,-1.8446402549743652,-0.7364781498908997,-0.8793458938598633,0.3046392798423767,0.30593806505203247
1749044058.4783313,-5.516560379658834,-0.5932125610164185,-0.6940504908561707,4.827153134136953,-2.102011028920309,-3.7057583967791956,0.06638412922620773,-0.05043216794729233,-0.015561710111796856,-0.26823166012763977,0.2155790776014328,0.27775678038597107,0.34419605135917664,-1.8315153121948242,-0.760825514793396,-0.8822163343429565,0.29538384079933167,0.32809847593307495
1749044058.4783723,-5.51643675962557,-0.5933090609363099,-0.6941242218017578,4.826634081989088,-2.1015799681292933,-3.7051597277270716,0.06611529737710953,-0.05112224072217941,-0.014611815102398396,-0.2757970988750458,0.22086749970912933,0.28004732728004456,0.3522525131702423,-1.822106122970581,-0.7429153323173523,-0.8730031251907349,0.30345332622528076,0.3382345736026764
1749044058.4784222,-5.516278092061178,-0.5933888715556641,-0.6941364407539368,4.826084273844518,-2.1010940710650843,-3.7046075502978724,0.06627199798822403,-0.05338531732559204,-0.01474960707128048,-0.2774111330509186,0.22309471666812897,0.28296545147895813,0.3806053102016449,-1.770721673965454,-0.7570745348930359,-0.811515748500824,0.2848506569862366,0.33123064041137695
1749044058.47847,-5.5161542932139795,-0.5935091537288208,-0.694188117980957,4.8255077106650255,-2.100647274647848,-3.70398193994631,0.06717156618833542,-0.05052700266242027,-0.014325437135994434,-0.2766306400299072,0.22711291909217834,0.28763556480407715,0.35654574632644653,-1.8164423704147339,-0.763352632522583,-0.7893202900886536,0.26115214824676514,0.32914501428604126
1749044058.4785106,-5.515998188649313,-0.5936204356006165,-0.6941654682159424,4.824973265617647,-2.100208107625143,-3.703388516102926,0.06797648221254349,-0.05156625434756279,-0.014856291003525257,-0.2693261206150055,0.2303001880645752,0.29054728150367737,0.3273453414440155,-1.8416343927383423,-0.7596148252487183,-0.8603692054748535,0.25252658128738403,0.31926587224006653
1749044058.478549,-5.515902761613027,-0.5937310618213196,-0.6942359805107117,4.824392574816503,-2.0997183958636683,-3.702878777180807,0.06791798770427704,-0.05264535918831825,-0.01427224837243557,-0.26677581667900085,0.23112718760967255,0.2940932810306549,0.36036309599876404,-1.802510380744934,-0.7764055728912354,-0.880502462387085,0.2756968140602112,0.3093912899494171
1749044058.4785872,-5.515774969254629,-0.5937701624682923,-0.694237470626831,4.823831039458074,-2.0992630163775843,-3.7022672335254114,0.06777869910001755,-0.05385323241353035,-0.014787761494517326,-0.2722548544406891,0.23100416362285614,0.2916662096977234,0.3780238926410675,-1.8048295974731445,-0.7841243147850037,-0.8793650269508362,0.2515068054199219,0.31516435742378235
1749044058.4786253,-5.515646878873007,-0.5939086836627503,-0.6942923069000244,4.823277684837141,-2.098788086568014,-3.701719347630636,0.07060176879167557,-0.05348982661962509,-0.014891881495714188,-0.28301265835762024,0.23046515882015228,0.29475173354148865,0.3552515506744385,-1.7836990356445312,-0.7795733213424683,-0.860073983669281,0.22919845581054688,0.32072901725769043
1749044058.478663,-5.515646878873007,-0.5939086836627503,-0.6942923069000244,4.823277684837141,-2.098788086568014,-3.701719347630636,0.07060176879167557,-0.05348982661962509,-0.014891881495714188,-0.28301265835762024,0.23046515882015228,0.29475173354148865,0.3552515506744385,-1.7836990356445312,-0.7795733213424683,-0.860073983669281,0.22919845581054688,0.32072901725769043
1749044058.4787004,-5.515359882508413,-0.5941164058497925,-0.6943333148956299,4.822122233897009,-2.0978429953204554,-3.7004850546466272,0.0683368518948555,-0.053293295204639435,-0.015117119066417217,-0.2851307988166809,0.2311192899942398,0.29978176951408386,0.3649548292160034,-1.8059649467468262,-0.7581809163093567,-0.767006516456604,0.22431717813014984,0.3359367251396179
1749044058.4787376,-5.515169803296224,-0.5942207139781495,-0.6943608522415161,4.821583638876238,-2.0974229017840784,-3.6999035517321985,0.07239872217178345,-0.05253531038761139,-0.016046321019530296,-0.2796061038970947,0.23107308149337769,0.30148667097091675,0.37960201501846313,-1.8459036350250244,-0.7797800302505493,-0.8233299255371094,0.2356044352054596,0.284064918756485
1749044058.478775,-5.515073482190267,-0.5943248432925721,-0.6943812370300293,4.821022349386968,-2.0969212690936487,-3.699289147053854,0.07105565071105957,-0.05509908124804497,-0.01586219109594822,-0.2740700840950012,0.23243650794029236,0.3039156496524811,0.36567094922065735,-1.8218004703521729,-0.7590208649635315,-0.869664192199707,0.26320821046829224,0.2975919842720032
1749044058.4788122,-5.514910046254293,-0.5944480460933228,-0.6944328546524048,4.820449504047193,-2.096461598073141,-3.6986683050738733,0.07120456546545029,-0.05342511087656021,-0.01661822944879532,-0.27601754665374756,0.23278328776359558,0.3021802008152008,0.38761651515960693,-1.807083249092102,-0.7464280724525452,-0.8977014422416687,0.23846054077148438,0.3451932668685913
