nimar13/UR3e_dataset_trayectorias/trayectorias_ejecutadas/quintic_func/trayectoria_071_result.csv
timestamp,q1,q2,q3,q4,q5,q6,qd1,qd2,qd3,qd4,qd5,qd6,tau1,tau2,tau3,tau4,tau5,tau6
1749041195.0903046,4.255616188049316,-1.22565712154422,-1.5405943393707275,-4.121299882928366,4.389413356781006,-2.6313865820514124,0.0020344911608844995,0.0005276135052554309,-0.0010290490463376045,-0.0029969934839755297,0.000595086719840765,-0.0005553693627007306,0.14145731925964355,0.5860887169837952,0.8158105611801147,-0.007905587553977966,0.04919539391994476,-0.06614445149898529
1749041195.0903523,4.255612850189209,-1.2256879967502137,-1.5405824184417725,-4.121312280694479,4.3894124031066895,-2.6313329378711146,0.0009110590326599777,0.0004915850004181266,-0.0007952531450428069,-0.0010367828654125333,0.00029185874154791236,-0.0003651298175100237,0.14090119302272797,0.5867641568183899,0.8221849203109741,0.007442012429237366,0.04076831042766571,-0.05569206178188324
1749041195.0903933,4.255593299865723,-1.2256879967502137,-1.5405700206756592,-4.121299882928366,4.3894362449646,-2.6313138643847864,-0.0034769410267472267,0.00046015300904400647,-0.000573756464291364,-0.0005604558973573148,6.660261715296656e-05,-0.00019187018915545195,0.13275417685508728,0.609441339969635,0.8502098917961121,0.016255535185337067,0.01738208532333374,-0.05282127857208252
1749041195.090433,4.255581378936768,-1.2256915134242554,-1.5405664443969727,-4.1212879619994105,4.389398097991943,-2.631336514149801,-0.004649910610169172,0.00043251513852737844,-0.00041836529271677136,-0.00018823389837052673,1.1769380762416404e-05,-3.3905474992934614e-05,0.14846040308475494,0.5832721590995789,0.8616922497749329,0.02756444364786148,0.01263357698917389,-0.04244866967201233
1749041195.0904713,4.25555419921875,-1.225669042473175,-1.5405700206756592,-4.121291538278097,4.389389514923096,-2.6313019434558313,-0.004272759892046452,0.0003051501698791981,0.00026174969389103353,-3.326290607219562e-05,-0.0013228636234998703,-5.991453235765221e-06,0.10147465765476227,0.6079639196395874,0.8692740201950073,0.04880644381046295,-0.019815027713775635,-0.04331566393375397
1749041195.0905087,4.255538463592529,-1.2257069510272522,-1.5405700206756592,-4.1212879619994105,4.3893537521362305,-2.6313210169421595,-0.0043647438287734985,0.0002828181313816458,0.0004673615039791912,0.0017020459054037929,-0.002662917133420706,0.0013260720297694206,0.07327018678188324,0.600824773311615,0.8775334358215332,0.05575452744960785,-0.002914413809776306,-0.024742677807807922
1749041195.0905466,4.255529880523682,-1.2256809634021302,-1.5405546426773071,-4.121244331399435,4.389385223388672,-2.6313019434558313,-0.004752991255372763,0.0003023033495992422,0.0012058921856805682,0.004049164708703756,-0.002641338622197509,0.002511500148102641,0.0903763622045517,0.5953593850135803,0.8941054344177246,0.04677969217300415,3.7476420402526855e-05,-0.03260227292776108
1749041195.0905838,4.255529880523682,-1.2256725591472168,-1.540561556816101,-4.121244331399435,4.389409065246582,-2.6313162485705774,-0.006418081931769848,0.0003464249020908028,0.001776734832674265,0.0041366866789758205,-0.0019446611404418945,0.0032565363217145205,0.09651952981948853,0.5797478556632996,0.8872092962265015,0.07431737333536148,-0.04295623302459717,-0.042525701224803925
1749041195.090621,4.255502223968506,-1.225665495996811,-1.540558099746704,-4.121244331399435,4.389397144317627,-2.631324593220846,-0.006486084777861834,0.0008920099935494363,0.0020245034247636795,0.0033493363298475742,-0.0016357270069420338,0.003588017774745822,0.09241187572479248,0.6099851131439209,0.8906317353248596,0.062337785959243774,-0.024643421173095703,-0.044654421508312225
1749041195.090663,4.2555131912231445,-1.225676105623581,-1.540534257888794,-4.121251722375387,4.389397144317627,-2.631312672291891,-0.005416102707386017,0.0012447111075744033,0.001911655068397522,0.002507985569536686,-0.0014232974499464035,0.003406328149139881,0.07910219579935074,0.5808340907096863,0.8986098766326904,0.06720991432666779,-0.03409521281719208,-0.024287469685077667
1749041195.0907023,4.255528926849365,-1.2256378096393128,-1.540515422821045,-4.1212362251677455,4.389409065246582,-2.631319824849264,-0.005070589017122984,0.002740871161222458,0.0017451044404879212,0.0021743234246969223,-0.0011543809669092298,0.0028296345844864845,0.08167418092489243,0.5689154863357544,0.9026980996131897,0.09159579873085022,-0.045460984110832214,-0.02527584880590439
1749041195.0907402,4.25551700592041,-1.2256330412677308,-1.540534257888794,-4.121267934838766,4.389385223388672,-2.631312672291891,-0.005959870759397745,0.002294564386829734,0.0015475384425371885,0.0021825165022164583,-0.0011331643909215927,0.002469422994181514,0.061983272433280945,0.5718448162078857,0.8949350118637085,0.0992681160569191,-0.04685342311859131,-0.03676164895296097
1749041195.0907774,4.255461692810059,-1.225617603664734,-1.540534257888794,-4.121205230752462,4.389362335205078,-2.6312888304339808,-0.006354138255119324,0.0015579396858811378,0.0015243538655340672,0.0030117500573396683,-0.0016898749163374305,0.0019588940776884556,0.07851860672235489,0.589526891708374,0.9120259284973145,0.09012666344642639,-0.05708463490009308,-0.014874517917633057
1749041195.090814,4.255485534667969,-1.22566773117099,-1.540561556816101,-4.121208807031149,4.389357566833496,-2.6312971750842493,-0.005754272919148207,0.0013844233471900225,0.00136648491024971,0.0037813647650182247,-0.002018821192905307,0.0017064075218513608,0.06790235638618469,0.5645220279693604,0.9137832522392273,0.09361697733402252,-0.05063764750957489,-0.01845622807741165
1749041195.0908544,4.255536079406738,-1.2256053549102326,-1.540546178817749,-4.121231456796163,4.389322757720947,-2.6312690416919153,-0.005061632487922907,0.0012667382834479213,0.001290279207751155,0.0039879209361970425,-0.00255108205601573,0.0015660282224416733,0.034594304859638214,0.5954734086990356,0.9199556112289429,0.10193489491939545,-0.052018605172634125,-0.021588943898677826
1749041195.0908966,4.255504131317139,-1.2256365579417725,-1.540537714958191,-4.121231456796163,4.389334201812744,-2.631300751362936,-0.004768276121467352,0.0012043456081300974,0.0012140832841396332,0.003762498265132308,-0.0023376133758574724,0.0014807279221713543,0.051907528191804886,0.5839294195175171,0.9162943959236145,0.09596936404705048,-0.07002408802509308,-0.014762096107006073
1749041195.090944,4.255465507507324,-1.2256018680385132,-1.540534257888794,-4.121227880517477,4.389357566833496,-2.631308142338888,-0.00474661635234952,0.0009253152529709041,0.0011614516843110323,0.0031517327297478914,-0.0019654014613479376,0.001481437124311924,0.053505200892686844,0.5846811532974243,0.9354585409164429,0.10182013362646103,-0.053118422627449036,-0.025184206664562225
1749041195.0909884,4.2554731369018555,-1.2256400746158143,-1.540534257888794,-4.121227880517477,4.389361381530762,-2.6312852541552942,-0.0043966080993413925,0.0008560808491893113,0.0010803488548845053,0.0026549336034804583,-0.001683200360275805,0.0014244448393583298,0.03261742740869522,0.5871017575263977,0.9269118905067444,0.11658716201782227,-0.04940514266490936,-0.01387827843427658
1749041195.0910265,4.255449295043945,-1.225617603664734,-1.540537714958191,-4.121204038659567,4.38933801651001,-2.6312888304339808,-0.0034914857242256403,0.0008741837809793651,0.0009866809705272317,0.002119330456480384,-0.0012461437145248055,0.001305149868130684,0.020080216228961945,0.5915344953536987,0.924853503704071,0.09825518727302551,-0.05580925941467285,-0.027847953140735626
1749041195.091064,4.255449295043945,-1.225617603664734,-1.540537714958191,-4.121204038659567,4.38933801651001,-2.6312888304339808,-0.0034914857242256403,0.0008741837809793651,0.0009866809705272317,0.002119330456480384,-0.0012461437145248055,0.001305149868130684,0.020080216228961945,0.5915344953536987,0.924853503704071,0.09825518727302551,-0.05580925941467285,-0.027847953140735626
1749041195.0911694,4.255456924438477,-1.2256140273860474,-1.540515422821045,-4.12120046238088,4.389373302459717,-2.6312578360186976,-0.0031378872226923704,0.0010402821935713291,0.0009095145505852997,0.0025753688532859087,-0.0010897846659645438,0.0012347586452960968,0.022853009402751923,0.5990628004074097,0.9428903460502625,0.09399940073490143,-0.04422108829021454,-0.01606222242116928
1749041195.0930374,4.255429267883301,-1.2256400746158143,-1.540534257888794,-4.121204038659567,4.389369487762451,-2.6312926451312464,-0.002665935782715678,0.001017627539113164,0.0008812792366370559,0.003199421800673008,-0.000950701767578721,0.0010973474709317088,0.025547079741954803,0.5786528587341309,0.9424413442611694,0.10651502013206482,-0.06378298252820969,-0.016045793890953064
1749041195.1344995,4.2554450035095215,-1.2256330412677308,-1.540518879890442,-4.1211730442442835,4.389376640319824,-2.631261650715963,-0.002234488492831588,0.0009988324018195271,0.0008078207029029727,0.003396988147869706,-0.0008982772706076503,0.000914196134544909,0.04589897394180298,0.5934592485427856,0.9386472702026367,0.0989777147769928,-0.04944370687007904,-0.016331441700458527
1749041195.1345644,4.255472660064697,-1.225655512218811,-1.540549635887146,-4.12117662052297,4.389345169067383,-2.631261650715963,-0.001894324435852468,0.0009851536015048623,0.0007318714051507413,0.0030126094352453947,-0.000837837578728795,0.0007645426667295396,0.03279314935207367,0.5912747383117676,0.9373724460601807,0.08564596623182297,-0.0430903285741806,-0.02917780727148056
1749041195.1346083,4.2554450035095215,-1.2255899471095582,-1.540549635887146,-4.1211611233153285,4.389373302459717,-2.631261650715963,-0.0016615920467302203,0.001135297934524715,0.0006290705059655011,0.0026015632320195436,-0.0007643075659871101,0.0007572656613774598,0.0649343952536583,0.6272971034049988,0.9425961971282959,0.095280222594738,-0.044157788157463074,-0.017184793949127197
1749041195.134648,4.2554450035095215,-1.2255899471095582,-1.540549635887146,-4.1211611233153285,4.389373302459717,-2.631261650715963,-0.0016615920467302203,0.001135297934524715,0.0006290705059655011,0.0026015632320195436,-0.0007643075659871101,0.0007572656613774598,0.0649343952536583,0.6272971034049988,0.9425961971282959,0.095280222594738,-0.044157788157463074,-0.017184793949127197
1749041195.134687,4.255434036254883,-1.2256246370128174,-1.540549635887146,-4.121180196801657,4.38932991027832,-2.6312506834613245,-0.0013642747653648257,0.0012555893044918776,0.0005517200916074216,0.002135265851393342,-0.0006991981063038111,0.000679416989441961,0.02589833363890648,0.6164221167564392,0.9301065802574158,0.09186182916164398,-0.0480063259601593,-0.025352932512760162
1749041195.1347258,4.255394458770752,-1.225631759767868,-1.540541172027588,-4.12117662052297,4.389361381530762,-2.6312764326678675,-0.000807262200396508,0.0025758943520486355,0.0005310227279551327,0.0012912154197692871,-0.0005961902788840234,0.0005451703327707946,0.030031487345695496,0.5949411988258362,0.9482945799827576,0.10584706813097,-0.05450824648141861,-0.02378378063440323
1749041195.134764,4.255402565002441,-1.225615994339325,-1.540537714958191,-4.1211682758727015,4.389388561248779,-2.631308142338888,-0.0006830298225395381,0.002747677732259035,0.0005532462382689118,0.00111916265450418,-0.000555268838070333,0.0004950351431034505,0.03524721413850784,0.5951880216598511,0.9406501650810242,0.09441965073347092,-0.050708919763565063,0.004607938230037689
1749041195.1348016,4.2554450035095215,-1.225576714878418,-1.5405223369598389,-4.121183773080343,4.38933801651001,-2.631242338811056,-0.0005929806502535939,0.002512471517547965,0.0005530585185624659,0.001017081900499761,-0.0005215556011535227,0.00045339873759076,0.03494351729750633,0.6128051280975342,0.9461995959281921,0.10868047177791595,-0.03394897282123566,-0.019945956766605377
1749041195.1348398,4.255472660064697,-1.225588635807373,-1.5405223369598389,-4.121183773080343,4.389385223388672,-2.631230417882101,-0.0005238939775153995,0.0021173134446144104,0.0005444317939691246,0.0009755378123372793,-0.00034875026904046535,0.0004745502956211567,0.044079069048166275,0.5814954042434692,0.9466922879219055,0.08844825625419617,-0.030037999153137207,-0.029122553765773773
1749041195.134878,4.255429267883301,-1.2256075900844117,-1.540518879890442,-4.121152063409323,4.3893537521362305,-2.6312888304339808,-0.00046910523087717593,0.0018530456582084298,0.0005611664964817464,0.0008861355599947274,-0.00030159897869452834,0.000450365012511611,0.034234967082738876,0.5629599094390869,0.9466301798820496,0.09097345918416977,-0.06235446035861969,-0.00723683089017868
1749041195.1349158,4.255417346954346,-1.225588635807373,-1.5405257940292358,-4.12117662052297,4.389341354370117,-2.631272617970602,-0.000424907892011106,0.0014599226415157318,0.0006020512664690614,0.0006924248882569373,-0.00027866518939845264,0.00042192943510599434,0.028131701052188873,0.5928521752357483,0.9467558264732361,0.09049046039581299,-0.04699467122554779,-0.033287398517131805
1749041195.1349533,4.255436420440674,-1.2255921524814148,-1.5405069589614868,-4.121183773080343,4.389357566833496,-2.6312764326678675,-0.00045786856207996607,0.0011981100542470813,0.0006764460122212768,0.0006291366298682988,-0.000261676381342113,0.00039570312947034836,0.023615814745426178,0.5560356378555298,0.9427745938301086,0.11459964513778687,-0.039086028933525085,-0.023801885545253754
1749041195.1350036,4.25541353225708,-1.2255539459041138,-1.5405069589614868,-4.1211682758727015,4.389361381530762,-2.631279770527975,-0.00042870736797340214,0.0011422134703025222,0.0012344750575721264,0.0006097881123423576,-0.000247160904109478,0.0003723128465935588,-0.0014361366629600525,0.5534510612487793,0.952699601650238,0.09712587296962738,-0.04167332500219345,-0.01778995245695114
1749041195.1350448,4.255448341369629,-1.2255539459041138,-1.5404950380325317,-4.121172090569967,4.389352321624756,-2.6312764326678675,-0.0005078499671071768,0.0009680476505309343,0.0015174706932157278,0.0005871745524927974,-0.00023425905965268612,0.00035154292709194124,0.02879144996404648,0.5754842758178711,0.9491494297981262,0.08266636729240417,-0.04427491873502731,-0.03841336816549301
1749041195.1350896,4.255398273468018,-1.225588635807373,-1.5405138731002808,-4.121180196801657,4.38933801651001,-2.6312888304339808,-0.0005345693207345903,0.0008390438742935658,0.002109730150550604,0.0005788265261799097,-0.00022264578728936613,0.00033294971217401326,-0.010867223143577576,0.5439859628677368,0.9320408701896667,0.10271970927715302,-0.027370378375053406,-0.0341845378279686
1749041195.1351287,4.255374908447266,-1.2255696517280121,-1.5405138731002808,-4.121155878106588,4.389341354370117,-2.631279770527975,-0.0023576945532113314,0.0007403724594041705,0.0018292845925316215,0.0005996508989483118,-0.00021214595471974462,0.00031620176741853356,-0.03279542922973633,0.549437403678894,0.9297615885734558,0.11062391102313995,-0.019760869443416595,-0.025055162608623505
1749041195.1351662,4.255401611328125,-1.2256005567363282,-1.5404950380325317,-4.121164699594015,4.389373302459717,-2.631279770527975,-0.004452316090464592,0.0006624606321565807,0.0014323409413918853,0.0005966556491330266,-0.00020258895528968424,0.0003010927466675639,-0.0013407692313194275,0.5370579957962036,0.9311829209327698,0.10011502355337143,-0.008068159222602844,-0.03540974110364914
1749041195.1352038,4.255405426025391,-1.225576714878418,-1.5405104160308838,-4.121187587777609,4.389361381530762,-2.6312852541552942,-0.0046623339876532555,0.0005994178936816752,0.0011665974743664265,0.0005793225718662143,-0.0001938497443916276,0.0002875304198823869,-0.014837563037872314,0.5467934012413025,0.9146616458892822,0.10044392943382263,-0.009317159652709961,-0.05399208515882492
1749041195.135241,4.255405426025391,-1.2255970400622864,-1.5405292510986328,-4.121152063409323,4.389326572418213,-2.6312764326678675,-0.004345743916928768,0.0005473238416016102,0.0009836186654865742,0.0006414017989300191,-0.00017302288324572146,0.00012795829388778657,-0.011182531714439392,0.538854718208313,0.9287770390510559,0.10578722506761551,-0.004181116819381714,-0.05534479767084122
1749041195.1352777,4.255381107330322,-1.2256075900844117,-1.5405104160308838,-4.121139665643209,4.389361381530762,-2.6312764326678675,-0.005596636328846216,0.0005035551148466766,0.0008503832505084574,0.000693867972586304,-0.00014707795344293118,6.365619628923014e-05,-0.05887844040989876,0.5879417657852173,0.9300667643547058,0.13405048847198486,0.020413026213645935,-0.08852431923151016
1749041195.1353943,4.255369186401367,-1.22560407341037,-1.5405104160308838,-4.121172090569967,4.389318943023682,-2.631272617970602,-0.007533126510679722,0.0004662848950829357,0.0007490156567655504,0.0010653437348082662,-0.00011846513370983303,1.5414141671499237e-05,-0.053114328533411026,0.5434454083442688,0.9213346242904663,0.13231529295444489,0.024224355816841125,-0.08969303220510483
1749041195.1371086,4.255395889282227,-1.2255970400622864,-1.5405257940292358,-4.121124168435568,4.389369487762451,-2.631272617970602,-0.008638398721814156,0.00043414425454102457,0.0006692869937978685,0.0012635700404644012,-0.0001019955743686296,2.723840680118883e-06,-0.04982152208685875,0.5547354221343994,0.9224060773849487,0.15172410011291504,0.04090099036693573,-0.11040931195020676
1749041195.182302,4.255321979522705,-1.2256005567363282,-1.5404915809631348,-4.121139665643209,4.389385223388672,-2.6312926451312464,-0.009475715458393097,0.0004061453801114112,0.0006049243384040892,0.0019107455154880881,0.00010210373147856444,-0.0023096450604498386,-0.056888122111558914,0.5752133131027222,0.9090010523796082,0.14767488837242126,0.05762334167957306,-0.10005626827478409
1749041195.1823473,4.255329132080078,-1.2256005567363282,-1.5405104160308838,-4.12116326908254,4.3893537521362305,-2.631300751362936,-0.010011597536504269,0.0003815495874732733,0.0005518681136891246,0.0023895553313195705,0.0001900326315080747,-0.004161059856414795,-0.07663935422897339,0.5705841779708862,0.9007787108421326,0.1482720673084259,0.05649709701538086,-0.13208633661270142
1749041195.1823878,4.255269527435303,-1.2255957287601014,-1.5405104160308838,-4.121152063409323,4.3893537521362305,-2.6313236395465296,-0.011229359544813633,0.0003597591712605208,0.0005122136790305376,0.0026680228766053915,0.0002471843035891652,-0.004864209797233343,-0.06108269467949867,0.5353782773017883,0.8939386010169983,0.1571982353925705,0.0951131135225296,-0.13001948595046997
1749041195.182427,4.255309104919434,-1.2256111663630982,-1.5405104160308838,-4.121154447595114,4.38933801651001,-2.631300751362936,-0.01167740486562252,0.0003403185401111841,0.00017474591732025146,0.003187228227034211,0.0011823331005871296,-0.004913997836410999,-0.03319269418716431,0.5673466324806213,0.9040139317512512,0.1538042575120926,0.08223852515220642,-0.13499528169631958
1749041195.1824648,4.255265235900879,-1.2256230276874085,-1.5405292510986328,-4.121119638482565,4.389404296875,-2.631312672291891,-0.012357075698673725,0.0003228789137210697,0.0001417608727933839,0.003695124527439475,0.0015529547818005085,-0.004879587329924107,-0.07425078004598618,0.5809637308120728,0.8896006941795349,0.15517345070838928,0.09276792407035828,-0.13715241849422455
1749041195.1825027,4.255218029022217,-1.2255802911571045,-1.5404950380325317,-4.121104141274923,4.389381408691406,-2.6313090960132044,-0.012207107618451118,0.00030713723390363157,0.00013023213250562549,0.00435757078230381,0.0021595859434455633,-0.005809464026242495,-0.06830410659313202,0.5549774169921875,0.8694279789924622,0.1593295782804489,0.10165426135063171,-0.16336272656917572
1749041195.1825397,4.255218029022217,-1.2255921524814148,-1.5405223369598389,-4.121088644067282,4.389409065246582,-2.631371084843771,-0.012397811748087406,0.0002928561589214951,0.00012136213626945391,0.005019213072955608,0.0023110255133360624,-0.007384611759334803,-0.09415892511606216,0.568854808807373,0.8785446882247925,0.15013664960861206,0.12224717438220978,-0.16880591213703156
1749041195.1825767,4.255190372467041,-1.2256005567363282,-1.5405138731002808,-4.121126791039938,4.389397144317627,-2.631399218236105,-0.013540426269173622,0.0002798486966639757,0.00011368698324076831,0.005769834853708744,0.0025963028892874718,-0.009839335456490517,-0.08097026497125626,0.598798394203186,0.8648713231086731,0.16685685515403748,0.11961819231510162,-0.1691790074110031
1749041195.1826138,4.255173683166504,-1.2256353062442322,-1.5405104160308838,-4.121092220345968,4.389389514923096,-2.631400171910421,-0.014039433561265469,0.0003049961233045906,6.0692676925100386e-05,0.0063155521638691425,0.003216376295313239,-0.011375009082257748,-0.07953150570392609,0.576751708984375,0.8649642467498779,0.1410301774740219,0.14207015931606293,-0.15852202475070953
1749041195.182651,4.255130290985107,-1.22560407341037,-1.5404950380325317,-4.121087690392965,4.389377593994141,-2.6313965956317347,-0.01476271077990532,0.00029371626442298293,5.093740037409589e-05,0.006515539716929197,0.0036055578384548426,-0.01335570402443409,-0.06835619360208511,0.5825341939926147,0.850158154964447,0.16216668486595154,0.15679143369197845,-0.16116149723529816
1749041195.1826882,4.25509786605835,-1.225607619886734,-1.5404950380325317,-4.121052166024679,4.389374256134033,-2.6314359346972864,-0.014518504031002522,0.00028221658430993557,6.4589826251904014e-06,0.007219709921628237,0.003927724901586771,-0.014889311976730824,-0.08455704897642136,0.5932278633117676,0.8285291790962219,0.1577141135931015,0.16591183841228485,-0.16233345866203308
1749041195.1827252,4.255077362060547,-1.225576714878418,-1.5405069589614868,-4.1210321388640345,4.389386177062988,-2.631483856831686,-0.014888263307511806,0.00027157223667018116,4.2172541725449264e-07,0.007914305664598942,0.005645188502967358,-0.015665628015995026,-0.10921501368284225,0.5943155288696289,0.8209447264671326,0.15726684033870697,0.17853401601314545,-0.15615913271903992
1749041195.1827655,4.255069255828857,-1.225576714878418,-1.5405223369598389,-4.121020217935079,4.389413356781006,-2.631507460271017,-0.01437984686344862,0.00018458135309629142,2.7535653757126966e-08,0.008942455053329468,0.00768550019711256,-0.016858195886015892,-0.12860190868377686,0.5755652189254761,0.8059085011482239,0.17444010078907013,0.1854701191186905,-0.15895718336105347
1749041195.1828032,4.255057334899902,-1.22560407341037,-1.5405069589614868,-4.121004720727438,4.389432907104492,-2.6315396467791956,-0.015623114071786404,0.00017496397776994854,-0.0003172883880324662,0.00963343121111393,0.00989600084722042,-0.01753893867135048,-0.08188101649284363,0.5724391937255859,0.8027665019035339,0.17092327773571014,0.1839999407529831,-0.1519664227962494
1749041195.1828396,4.255002021789551,-1.2255609792521973,-1.540534257888794,-4.120988031426901,4.389495849609375,-2.6315603891955774,-0.01604858972132206,0.00016839266754686832,-0.0022791139781475067,0.010543178766965866,0.011464607901871204,-0.017321832478046417,-0.11344243586063385,0.5858498811721802,0.8040186762809753,0.18312214314937592,0.20288091897964478,-0.1590234488248825
1749041195.1828766,4.255001068115234,-1.2255539459041138,-1.540553092956543,-4.120978733102316,4.389511585235596,-2.631615225468771,-0.016696326434612274,0.0001623169082449749,-0.0026602630969136953,0.011366103775799274,0.01336604729294777,-0.017458995804190636,-0.12307117879390717,0.591602087020874,0.8017483353614807,0.17486874759197235,0.2017722725868225,-0.1665515899658203
1749041195.1829133,4.254961013793945,-1.2255957287601014,-1.540518879890442,-4.120947738687033,4.3895087242126465,-2.6316385904895228,-0.016952242702245712,0.00015666682156734169,-0.002492519561201334,0.011977790854871273,0.015123854391276836,-0.01808292418718338,-0.13046035170555115,0.5680592060089111,0.7843462228775024,0.17427799105644226,0.21932999789714813,-0.17739826440811157
1749041195.1829505,4.254960536956787,-1.2256040436080475,-1.540537714958191,-4.120923896829122,4.389548301696777,-2.6317368189441126,-0.01795155182480812,0.0001786328648449853,-0.0021222864743322134,0.012299280613660812,0.01849476620554924,-0.018499480560421944,-0.13903404772281647,0.5911034345626831,0.7854539752006531,0.19041667878627777,0.18851105868816376,-0.17177197337150574
1749041195.1829948,4.254849433898926,-1.2255957287601014,-1.540534257888794,-4.120903631249899,4.389642238616943,-2.6317415873156946,-0.018867963925004005,0.00017573090735822916,-0.0020444998517632484,0.012675493955612183,0.019508041441440582,-0.018882762640714645,-0.15022048354148865,0.5757204294204712,0.7525582313537598,0.19143331050872803,0.1829231232404709,-0.1773538589477539
1749041195.1830442,4.254849433898926,-1.2255957287601014,-1.540534257888794,-4.120903631249899,4.389642238616943,-2.6317415873156946,-0.018867963925004005,0.00017573090735822916,-0.0020444998517632484,0.012675493955612183,0.019508041441440582,-0.018882762640714645,-0.15022048354148865,0.5757204294204712,0.7525582313537598,0.19143331050872803,0.1829231232404709,-0.1773538589477539
1749041195.183083,4.25477409362793,-1.225576714878418,-1.540546178817749,-4.120843549767965,4.3896989822387695,-2.6318333784686487,-0.01949680969119072,0.00019243484712205827,-0.0038437265902757645,0.013984909281134605,0.019236566498875618,-0.02071288973093033,-0.1279180943965912,0.6084288358688354,0.7506604790687561,0.19204123318195343,0.16302786767482758,-0.16590771079063416
1749041195.1831205,4.254749298095703,-1.2256317299655457,-1.540558099746704,-4.120815416375631,4.389684677124023,-2.631850544606344,-0.0201420858502388,0.00021082315652165562,-0.004362775944173336,0.015248209238052368,0.01856422983109951,-0.02152235247194767,-0.13582327961921692,0.5913282632827759,0.7397838234901428,0.19126063585281372,0.15056858956813812,-0.16003313660621643
1749041195.1832302,4.254721641540527,-1.225569711332657,-1.540558099746704,-4.1207949123778285,4.389779090881348,-2.631901804600851,-0.020447907969355583,0.0003477685968391597,-0.004451533779501915,0.016103947535157204,0.018373368307948112,-0.02249794825911522,-0.1699763536453247,0.6039736270904541,0.7361580729484558,0.16283200681209564,0.16192744672298431,-0.15589749813079834
1749041195.1850624,4.254655361175537,-1.2256041032126923,-1.5405700206756592,-4.120759149590963,4.389822483062744,-2.631934467946188,-0.02095085009932518,0.00045346395927481353,-0.004144802689552307,0.01576611027121544,0.018727585673332214,-0.02210603840649128,-0.16608723998069763,0.5934810638427734,0.7155905961990356,0.18004995584487915,0.15804560482501984,-0.15744680166244507
1749041195.226289,4.254602432250977,-1.225545511846878,-1.5405824184417725,-4.120703598062033,4.389842510223389,-2.6319850126849573,-0.022607721388339996,0.0005380993243306875,-0.00478062778711319,0.014826755970716476,0.018043600022792816,-0.022887201979756355,-0.14468176662921906,0.5936626195907593,0.7146652936935425,0.1662871390581131,0.15751531720161438,-0.17218449711799622
1749041195.2263362,4.254581928253174,-1.2255609792521973,-1.5405977964401245,-4.12069906810903,4.389897346496582,-2.632040802632467,-0.022656889632344246,0.0010787678183987737,-0.006822158582508564,0.013915297575294971,0.01692557893693447,-0.023499084636569023,-0.171549454331398,0.6156102418899536,0.7144450545310974,0.17923617362976074,0.1548493504524231,-0.15369287133216858
1749041195.2263777,4.254549503326416,-1.2256230574897309,-1.5406097173690796,-4.120656152764791,4.389925956726074,-2.6321092287646692,-0.023112816736102104,0.0014016097411513329,-0.007713900879025459,0.013481312431395054,0.016160476952791214,-0.024110961705446243,-0.20214468240737915,0.5724760293960571,0.7379862070083618,0.19562429189682007,0.15879957377910614,-0.17270603775978088
1749041195.2264173,4.254505157470703,-1.2255838376334687,-1.5405993461608887,-4.120619913140768,4.389949798583984,-2.6321447531329554,-0.024145064875483513,0.0013604037230834365,-0.006763299461454153,0.013226492330431938,0.015926742926239967,-0.025585917755961418,-0.1802634745836258,0.5809199810028076,0.7104018330574036,0.18817183375358582,0.13909541070461273,-0.15638116002082825
1749041195.2264564,4.254453659057617,-1.2255957287601014,-1.5406301021575928,-4.120591779748434,4.389997482299805,-2.6321919600116175,-0.024638716131448746,0.0013216257793828845,-0.0068100751377642155,0.012237617745995522,0.015029599890112877,-0.025696365162730217,-0.1991422027349472,0.6002213954925537,0.6998691558837891,0.17045393586158752,0.16304144263267517,-0.15932780504226685
1749041195.2264957,4.254393577575684,-1.2255574625781556,-1.540653944015503,-4.120587249795431,4.389986515045166,-2.6322484652148646,-0.026326337829232216,0.001240084646269679,-0.00771103473380208,0.011907282285392284,0.014482717961072922,-0.027988413348793983,-0.19927191734313965,0.5966095924377441,0.6898718476295471,0.1925097107887268,0.15551620721817017,-0.14304277300834656
1749041195.2265337,4.254342079162598,-1.2256064277938385,-1.540653944015503,-4.120559831658834,4.390010356903076,-2.6323159376727503,-0.02822900004684925,0.001293335692025721,-0.008986596949398518,0.011459464207291603,0.014930355362594128,-0.027417335659265518,-0.18020689487457275,0.5948313474655151,0.7039207816123962,0.19612887501716614,0.1782671958208084,-0.17253124713897705
1749041195.2265708,4.254305362701416,-1.225529746418335,-1.5406628847122192,-4.120563407937521,4.390045166015625,-2.6323629061328333,-0.030160605907440186,0.001227476284839213,-0.008885948918759823,0.011549743823707104,0.015010187402367592,-0.02860824018716812,-0.20636966824531555,0.5827221870422363,0.7094712257385254,0.2105788141489029,0.18444781005382538,-0.17244824767112732
1749041195.2266083,4.254246234893799,-1.2255838078311463,-1.5406970977783203,-4.1205343208708705,4.3900580406188965,-2.6324384848224085,-0.031156238168478012,0.0011821443913504481,-0.008304904215037823,0.012214160524308681,0.014883622527122498,-0.029196206480264664,-0.22076734900474548,0.6067702770233154,0.6841433048248291,0.20504657924175262,0.18752522766590118,-0.18075719475746155
1749041195.2266455,4.254189491271973,-1.2255717080882569,-1.5407328605651855,-4.120499750176901,4.390097618103027,-2.6324833075152796,-0.031228428706526756,0.0012568554375320673,-0.010123892687261105,0.011704661883413792,0.01514972560107708,-0.03147432953119278,-0.2119133472442627,0.6256681680679321,0.6926963925361633,0.21036052703857422,0.2064930647611618,-0.17770248651504517
1749041195.2266834,4.254091262817383,-1.2255526346019288,-1.5407413244247437,-4.1204945049681605,4.390130043029785,-2.63258940378298,-0.032666344195604324,0.001321289106272161,-0.010884205810725689,0.011735066771507263,0.01734081283211708,-0.032141655683517456,-0.22689279913902283,0.6217350959777832,0.7057061195373535,0.2160620093345642,0.1957545131444931,-0.1892147809267044
1749041195.2267208,4.254022598266602,-1.2255526346019288,-1.5407657623291016,-4.12047066311025,4.390169620513916,-2.632606093083517,-0.034906093031167984,0.0014985001180320978,-0.01115163043141365,0.012665877118706703,0.018530234694480896,-0.034250758588314056,-0.24317726492881775,0.6193187236785889,0.6977859735488892,0.224573016166687,0.19262947142124176,-0.19234015047550201
1749041195.2267582,4.253966808319092,-1.2255526346019288,-1.5407894849777222,-4.120430608788961,4.390197277069092,-2.6326707045184534,-0.0363643616437912,0.00139729178044945,-0.012148946523666382,0.014198919758200645,0.01933434046804905,-0.03572211414575577,-0.24208256602287292,0.6190890073776245,0.6951478719711304,0.22610074281692505,0.19327934086322784,-0.18658694624900818
1749041195.2267954,4.253929615020752,-1.2255716782859345,-1.54081392288208,-4.120391508141989,4.390225410461426,-2.632761541997091,-0.03877239301800728,0.0015615237643942237,-0.012197022326290607,0.015423208475112915,0.021432917565107346,-0.036764610558748245,-0.21404598653316498,0.5804312229156494,0.7111366391181946,0.2386242002248764,0.20914199948310852,-0.18898023664951324
1749041195.226833,4.25385046005249,-1.2255645555308838,-1.5408411026000977,-4.120371242562765,4.390257835388184,-2.632810179387228,-0.039806611835956573,0.0015702977543696761,-0.012781575322151184,0.016394978389143944,0.02276577614247799,-0.03862646967172623,-0.22874951362609863,0.593477725982666,0.6977201700210571,0.22544938325881958,0.20952335000038147,-0.1865445077419281
1749041195.2268708,4.253715515136719,-1.2255285543254395,-1.540861964225769,-4.1203466854491175,4.390317440032959,-2.632923428212301,-0.03884933888912201,0.0015009235357865691,-0.013072962872684002,0.01721472479403019,0.024623267352581024,-0.03976219519972801,-0.2736956477165222,0.6013020277023315,0.6835965514183044,0.24417445063591003,0.20027488470077515,-0.1895221471786499
1749041195.226908,4.253651142120361,-1.225559727554657,-1.5409131050109863,-4.120295187036032,4.39035701751709,-2.633000198994772,-0.040368471294641495,0.001408529351465404,-0.01319043803960085,0.01857176423072815,0.025601079687476158,-0.040635280311107635,-0.24980688095092773,0.6125161647796631,0.7063730955123901,0.240965336561203,0.1936729997396469,-0.19149570167064667
1749041195.2269456,4.253598213195801,-1.225540505056717,-1.5409096479415894,-4.120271345178121,4.390448093414307,-2.6330717245685022,-0.04241851717233658,0.0014326416421681643,-0.012950730510056019,0.019322765991091728,0.026203110814094543,-0.04262157529592514,-0.26033639907836914,0.5958409905433655,0.7083629369735718,0.24472962319850922,0.1857493817806244,-0.19720304012298584
1749041195.2269828,4.253503322601318,-1.2255633038333436,-1.5409300327301025,-4.120226760903829,4.390564918518066,-2.6331830660449427,-0.042413730174303055,0.0013525577960535884,-0.012627558782696724,0.020460039377212524,0.02770826779305935,-0.044223055243492126,-0.2767781913280487,0.6097652912139893,0.7101175785064697,0.2283833920955658,0.1801089495420456,-0.18923839926719666
1749041195.2270203,4.253445625305176,-1.2255021792701264,-1.540985107421875,-4.120206495324606,4.390621185302734,-2.6332319418536585,-0.043857790529727936,0.0014040921814739704,-0.012410963885486126,0.020755309611558914,0.027388785034418106,-0.04430730640888214,-0.2865106463432312,0.6116477847099304,0.7131862640380859,0.24987269937992096,0.1867794692516327,-0.20477119088172913
1749041195.2272468,4.253323554992676,-1.2255250376513978,-1.54099702835083,-4.120134969750875,4.3906426429748535,-2.6333816687213343,-0.044636934995651245,0.0013674903893843293,-0.012070003896951675,0.02066854014992714,0.0279997605830431,-0.04482141509652138,-0.2837522625923157,0.5925634503364563,0.7013554573059082,0.25557705760002136,0.1844755858182907,-0.19971409440040588
1749041195.2290173,4.253234386444092,-1.2255404752543946,-1.5410174131393433,-4.1200837097563685,4.3906941413879395,-2.6333885828601282,-0.045638978481292725,0.001584973419085145,-0.012587533332407475,0.021791359409689903,0.027881987392902374,-0.04556300491094589,-0.3094291090965271,0.6101106405258179,0.6988052725791931,0.2575156092643738,0.18812695145606995,-0.2020711749792099
1749041195.2702963,4.2531819343566895,-1.2255250376513978,-1.5410571098327637,-4.120051046411032,4.390738010406494,-2.6335142294513147,-0.046531371772289276,0.00161933118943125,-0.011646810919046402,0.022315027192234993,0.028868908062577248,-0.047133345156908035,-0.27691370248794556,0.5980442762374878,0.7131535410881042,0.2580431401729584,0.16621854901313782,-0.17945045232772827
1749041195.2703426,4.253066539764404,-1.2255357068828125,-1.5410809516906738,-4.1199873886504115,4.390825271606445,-2.633606020604269,-0.047728028148412704,0.001803153776563704,-0.011627629399299622,0.02234000898897648,0.028369726613163948,-0.048061251640319824,-0.28388726711273193,0.6206029057502747,0.6930018663406372,0.2608973979949951,0.18852850794792175,-0.21475757658481598
1749041195.2703846,4.252956390380859,-1.2254855197719117,-1.5410809516906738,-4.119970222512716,4.390845775604248,-2.633667294179098,-0.04923679679632187,0.001752374810166657,-0.011669841594994068,0.023145323619246483,0.02978496067225933,-0.04875253885984421,-0.3084878921508789,0.5953115820884705,0.7044203877449036,0.24627457559108734,0.17752474546432495,-0.21282805502414703
1749041195.2704246,4.252902507781982,-1.225543962126114,-1.54109787940979,-4.1199382744231166,4.390870094299316,-2.6337972323047083,-0.05011330172419548,0.001554585644043982,-0.011466635391116142,0.023818394169211388,0.029835373163223267,-0.04946272447705269,-0.29336971044540405,0.6103274822235107,0.6971926689147949,0.24751609563827515,0.1715397983789444,-0.18683791160583496
1749041195.2704637,4.2527594566345215,-1.2254542869380494,-1.541144609451294,-4.119858881036276,4.390976905822754,-2.63390022913088,-0.051665108650922775,0.0014172587543725967,-0.01193101704120636,0.025084229186177254,0.03128316253423691,-0.05109585076570511,-0.30081692337989807,0.6086658239364624,0.6921427845954895,0.248253732919693,0.17207157611846924,-0.2179441899061203
1749041195.2705028,4.252667427062988,-1.2255391341498871,-1.5411614179611206,-4.119818111459249,4.391021251678467,-2.63405949274172,-0.052542153745889664,0.001480850507505238,-0.011700419709086418,0.02715870924293995,0.030295178294181824,-0.05172760784626007,-0.31122905015945435,0.6000961065292358,0.6944516897201538,0.25469788908958435,0.19788195192813873,-0.19119299948215485
1749041195.270542,4.2525434494018555,-1.2254855197719117,-1.5411733388900757,-4.119750639001364,4.391119003295898,-2.63413912454714,-0.05409920588135719,0.00160702015273273,-0.011817509308457375,0.026565928012132645,0.03114745207130909,-0.05257878452539444,-0.30080482363700867,0.6076948642730713,0.6685553789138794,0.26126134395599365,0.19578254222869873,-0.2090160995721817
1749041195.2705803,4.252466678619385,-1.2255510848811646,-1.5412167310714722,-4.119706054727072,4.391170501708984,-2.6342626253711146,-0.05461861193180084,0.0016051777638494968,-0.01222370844334364,0.026565710082650185,0.03077499195933342,-0.05376182869076729,-0.30614832043647766,0.6201313734054565,0.6853463649749756,0.2511279582977295,0.20706263184547424,-0.20041047036647797
1749041195.2706187,4.252320766448975,-1.2255127888968964,-1.5412131547927856,-4.119661708871359,4.391208648681641,-2.6343351046191614,-0.055504363030195236,0.0018732774769887328,-0.012398896738886833,0.027624724432826042,0.03184465318918228,-0.055364977568387985,-0.3211723566055298,0.6107413172721863,0.6721736192703247,0.261947900056839,0.2026309072971344,-0.19801035523414612
1749041195.2706563,4.252250671386719,-1.2255304616740723,-1.5412418842315674,-4.119578739205831,4.391337871551514,-2.6344895998584192,-0.05708931386470795,0.001944041345268488,-0.01306061539798975,0.028306512162089348,0.03275013342499733,-0.05643054097890854,-0.338955283164978,0.5915959477424622,0.6771098971366882,0.2505030035972595,0.21258294582366943,-0.21051739156246185
1749041195.2706938,4.252165794372559,-1.2254649263671418,-1.5412503480911255,-4.119521518746847,4.39136266708374,-2.6345902124988,-0.05768211930990219,0.002080479171127081,-0.012900949455797672,0.02809414081275463,0.03468417376279831,-0.05770495533943176,-0.3339633643627167,0.5960714817047119,0.6813583374023438,0.2474628984928131,0.21225754916667938,-0.20511333644390106
1749041195.2707307,4.251948356628418,-1.22548063219104,-1.541317343711853,-4.1194898090758265,4.391458511352539,-2.634716335927145,-0.05860096961259842,0.002009923104196787,-0.014109800569713116,0.02877289243042469,0.03582638502120972,-0.05795011296868324,-0.36924174427986145,0.5921722650527954,0.6682519912719727,0.2456030249595642,0.19873012602329254,-0.22146493196487427
1749041195.2707672,4.251833438873291,-1.225489006643631,-1.5413565635681152,-4.119442125360006,4.3915205001831055,-2.634820524846212,-0.06177300214767456,0.0019525346579030156,-0.013720243237912655,0.028765615075826645,0.03609081730246544,-0.05893813818693161,-0.33802491426467896,0.6009793877601624,0.6739383339881897,0.27358222007751465,0.1965055763721466,-0.2084822952747345
1749041195.2708042,4.251712799072266,-1.2254996758750458,-1.5413838624954224,-4.11936940769338,4.391585350036621,-2.6349249521838587,-0.06032872572541237,0.001854491070844233,-0.014174125157296658,0.02916901744902134,0.036208078265190125,-0.061440806835889816,-0.3540065288543701,0.5978797078132629,0.6677771210670471,0.26057255268096924,0.20466145873069763,-0.20394399762153625
1749041195.2708445,4.251635551452637,-1.2254925531199952,-1.5413894653320312,-4.119317670861715,4.3916802406311035,-2.6350823084460657,-0.06268168240785599,0.0016250727931037545,-0.013983643613755703,0.029165659099817276,0.0367024801671505,-0.06339418888092041,-0.38732507824897766,0.6123512387275696,0.6723318099975586,0.27274206280708313,0.2199172079563141,-0.19378165900707245
1749041195.270882,4.2515153884887695,-1.2254890364459534,-1.541425108909607,-4.119269987145895,4.3917365074157715,-2.6352065245257776,-0.0684555321931839,0.0016613358166068792,-0.014827273786067963,0.030093248933553696,0.037695035338401794,-0.06342460215091705,-0.35845184326171875,0.5945827960968018,0.6628895998001099,0.2710137963294983,0.21302935481071472,-0.2037094682455063
1749041195.2709215,4.2513837814331055,-1.225468472843506,-1.5414643287658691,-4.119197507897848,4.3918352127075195,-2.63534123102297,-0.0666525587439537,0.002048161346465349,-0.014902159571647644,0.031313274055719376,0.04097020626068115,-0.06401456892490387,-0.3240692913532257,0.5977486968040466,0.6509413719177246,0.29259049892425537,0.2032356560230255,-0.21100053191184998
1749041195.2709692,4.251219749450684,-1.225453035240509,-1.5414894819259644,-4.119125505486959,4.391914367675781,-2.635441843663351,-0.06835085153579712,0.0020743184722959995,-0.015889715403318405,0.03274594619870186,0.04229522496461868,-0.06734807044267654,-0.3650050461292267,0.5779342651367188,0.6647492051124573,0.2714235186576843,0.219747394323349,-0.22976529598236084
1749041195.2710264,4.251115798950195,-1.2254218620112916,-1.541521430015564,-4.119057079354757,4.391940593719482,-2.635592762623922,-0.07086591422557831,0.002403839724138379,-0.015937896445393562,0.032352548092603683,0.04099246859550476,-0.06877688318490982,-0.364047646522522,0.5906535387039185,0.6616101861000061,0.27910763025283813,0.21036936342716217,-0.21614649891853333
1749041195.2710674,4.25092887878418,-1.2254565519145508,-1.5415571928024292,-4.118981023828024,4.392045974731445,-2.635736052189962,-0.07256431132555008,0.002087448490783572,-0.016499323770403862,0.03241614252328873,0.041202422231435776,-0.07214116305112839,-0.3716471195220947,0.5901233553886414,0.6657123565673828,0.2908940315246582,0.24285350739955902,-0.20733806490898132
1749041195.271179,4.2508158683776855,-1.2254376274398346,-1.5415934324264526,-4.11890234569692,4.392153739929199,-2.6358683745013636,-0.0737646296620369,0.0018839382100850344,-0.017168423160910606,0.03393348306417465,0.04248000681400299,-0.07660228759050369,-0.35131239891052246,0.595923900604248,0.6678983569145203,0.30065223574638367,0.2131093144416809,-0.18225577473640442
1749041195.2730238,4.25065279006958,-1.225518600349762,-1.5416207313537598,-4.11883344272756,4.392244815826416,-2.6360273996936243,-0.07431947439908981,0.001808442990295589,-0.01756034791469574,0.03571654483675957,0.0436585508286953,-0.07493656128644943,-0.38125234842300415,0.5970650911331177,0.6688397526741028,0.2808520197868347,0.22050483524799347,-0.1955954134464264
1749041195.3142946,4.250500202178955,-1.2254324716380616,-1.541653037071228,-4.118761440316671,4.392309665679932,-2.6362207571612757,-0.07637526839971542,0.0017812504665926099,-0.01858500763773918,0.03776609152555466,0.04530089348554611,-0.07416079193353653,-0.3725198805332184,0.6162876486778259,0.6675527095794678,0.2860398590564728,0.23143360018730164,-0.2086501270532608
1749041195.3143442,4.250324726104736,-1.2254182261279603,-1.5416892766952515,-4.118692298928732,4.392397880554199,-2.6363728682147425,-0.07733910530805588,0.0017954856157302856,-0.018335435539484024,0.03795778378844261,0.04706895351409912,-0.07694534212350845,-0.3970608413219452,0.6088152527809143,0.6502501964569092,0.2758466899394989,0.210042804479599,-0.22205334901809692
1749041195.3143857,4.250173091888428,-1.2254482370666047,-1.5417215824127197,-4.118601223031515,4.392550468444824,-2.636501137410299,-0.08286077529191971,0.0024327258579432964,-0.01845201663672924,0.037762075662612915,0.048792608082294464,-0.08017388731241226,-0.3788767158985138,0.60411137342453,0.6488678455352783,0.2769900858402252,0.20816943049430847,-0.19256074726581573
1749041195.314425,4.250016212463379,-1.2254411441138764,-1.5417613983154297,-4.1185203991332,4.392589092254639,-2.6366756598102015,-0.08024659752845764,0.002429710002616048,-0.018645737320184708,0.03927333280444145,0.048347584903240204,-0.0806848406791687,-0.41185861825942993,0.6058349013328552,0.6428584456443787,0.2802010476589203,0.23603712022304535,-0.20373143255710602
1749041195.3144646,4.249809265136719,-1.2254099410823365,-1.5417816638946533,-4.118461032907003,4.392753601074219,-2.636820379887716,-0.082968570291996,0.002564207185059786,-0.019351135939359665,0.038592997938394547,0.049339015036821365,-0.0816553384065628,-0.399552583694458,0.603442907333374,0.6463156938552856,0.3010216951370239,0.23399683833122253,-0.20373286306858063
1749041195.3145037,4.24970006942749,-1.2254482072642823,-1.5418453216552734,-4.1184076271452845,4.392780303955078,-2.6369877497302454,-0.0838087648153305,0.002341383835300803,-0.02038297988474369,0.038689132779836655,0.05056525394320488,-0.08267815411090851,-0.3692227900028229,0.6199846863746643,0.6439875364303589,0.3035236597061157,0.237276092171669,-0.20196664333343506
1749041195.3145416,4.249509334564209,-1.225428895359375,-1.5419117212295532,-4.118332048455709,4.39290714263916,-2.6371544043170374,-0.08537346124649048,0.002244445960968733,-0.020849095657467842,0.040285058319568634,0.05155608803033829,-0.0829184427857399,-0.42503049969673157,0.6000701785087585,0.6481555700302124,0.3057141602039337,0.22286827862262726,-0.2062453031539917
1749041195.3145797,4.249336242675781,-1.2254240673831482,-1.5419132709503174,-4.1182643375792445,4.393037796020508,-2.637322012578146,-0.08754047751426697,0.002315741730853915,-0.021270183846354485,0.042430754750967026,0.051969852298498154,-0.08648308366537094,-0.41247648000717163,0.5973579287528992,0.6543282866477966,0.3011491298675537,0.23170889914035797,-0.21074405312538147
1749041195.3146172,4.249336242675781,-1.2254240673831482,-1.5419132709503174,-4.1182643375792445,4.393037796020508,-2.637322012578146,-0.08754047751426697,0.002315741730853915,-0.021270183846354485,0.042430754750967026,0.051969852298498154,-0.08648308366537094,-0.41247648000717163,0.5973579287528992,0.6543282866477966,0.3011491298675537,0.23170889914035797,-0.21074405312538147
1749041195.3146548,4.248909950256348,-1.2254086297801514,-1.542028546333313,-4.11807980159902,4.3932719230651855,-2.637683931981222,-0.09053467959165573,0.0026948240119963884,-0.022789698094129562,0.04330529272556305,0.05533552169799805,-0.08822576701641083,-0.4198334217071533,0.6271792650222778,0.6465070843696594,0.32111889123916626,0.22362026572227478,-0.21089623868465424
1749041195.3146915,4.248785495758057,-1.2253931921771546,-1.5420761108398438,-4.117983480493063,4.393317699432373,-2.637885872517721,-0.09414651989936829,0.0029678326100111008,-0.023242587223649025,0.04500456899404526,0.056787699460983276,-0.08908133953809738,-0.4238266944885254,0.6144336462020874,0.6602396965026855,0.30707064270973206,0.22067108750343323,-0.24150368571281433
1749041195.314728,4.248597145080566,-1.2253931921771546,-1.5421432256698608,-4.117887159387106,4.393489360809326,-2.6380508581744593,-0.09615157544612885,0.003219359088689089,-0.02292518876492977,0.045548807829618454,0.0576043464243412,-0.0906827375292778,-0.3823916018009186,0.6020560264587402,0.65754234790802,0.32559484243392944,0.2292323112487793,-0.22403714060783386
1749041195.3147655,4.248413562774658,-1.22542758405719,-1.5421600341796875,-4.1177877388396205,4.393580913543701,-2.6382582823382776,-0.09869346767663956,0.0031876340508461,-0.022796977311372757,0.04685293510556221,0.05842724069952965,-0.0970066636800766,-0.4223388731479645,0.5952163934707642,0.6413730382919312,0.3199836313724518,0.2364451140165329,-0.21824388206005096
1749041195.3148024,4.248205184936523,-1.2253655058196564,-1.5422241687774658,-4.1177104912199916,4.393651485443115,-2.638409201298849,-0.09979891777038574,0.003056200686842203,-0.02350359596312046,0.04831547290086746,0.05913596600294113,-0.09741591662168503,-0.4281531572341919,0.6241409182548523,0.6373828053474426,0.29836979508399963,0.24954651296138763,-0.20972390472888947
1749041195.3148396,4.247986316680908,-1.2254002851298829,-1.5422598123550415,-4.117563863793844,4.393771648406982,-2.6386502424823206,-0.10125519335269928,0.002729604486376047,-0.02442682906985283,0.0491015650331974,0.061172399669885635,-0.09741643071174622,-0.3818798065185547,0.5971333980560303,0.6586035490036011,0.3016737103462219,0.23450486361980438,-0.20262068510055542
1749041195.31488,4.247801780700684,-1.225388066177704,-1.5422886610031128,-4.1174873314299525,4.393971920013428,-2.638853375111715,-0.09993197023868561,0.0025966577231884003,-0.024421310052275658,0.05016409605741501,0.06185445562005043,-0.1008024662733078,-0.4714457392692566,0.5864990949630737,0.650915265083313,0.3082100749015808,0.2571093738079071,-0.21880219876766205
1749041195.3149245,4.247801780700684,-1.225388066177704,-1.5422886610031128,-4.1174873314299525,4.393971920013428,-2.638853375111715,-0.09993197023868561,0.0025966577231884003,-0.024421310052275658,0.05016409605741501,0.06185445562005043,-0.1008024662733078,-0.4714457392692566,0.5864990949630737,0.650915265083313,0.3082100749015808,0.2571093738079071,-0.21880219876766205
1749041195.3149679,4.247377395629883,-1.225372628574707,-1.542396903038025,-4.1172832451262416,4.394186973571777,-2.639249626790182,-0.10596434026956558,0.0024545365013182163,-0.026782318949699402,0.05179501697421074,0.06661757081747055,-0.10637764632701874,-0.433504581451416,0.6354933381080627,0.6392850279808044,0.30738306045532227,0.22916395962238312,-0.22027373313903809
1749041195.3150146,4.24714994430542,-1.2253845495036622,-1.5424445867538452,-4.1171869240202845,4.394355773925781,-2.6394718329059046,-0.11039722710847855,0.002797683933749795,-0.027242977172136307,0.052359193563461304,0.06899260729551315,-0.10871822386980057,-0.3867138922214508,0.6157081723213196,0.6525267362594604,0.31322309374809265,0.21139001846313477,-0.20207685232162476
1749041195.3150527,4.2469916343688965,-1.2253762048533936,-1.5425046682357788,-4.1170624695219935,4.394477844238281,-2.6396833101855677,-0.11024139821529388,0.0030309357680380344,-0.02727239951491356,0.05371619388461113,0.06969817727804184,-0.11053720116615295,-0.43466636538505554,0.6047791242599487,0.6462706327438354,0.3110682964324951,0.2174633890390396,-0.19319292902946472
1749041195.3151543,4.2467217445373535,-1.2253881257823487,-1.542568325996399,-4.116942306558126,4.394642353057861,-2.63991362253298,-0.11273157596588135,0.0029545738361775875,-0.027139177545905113,0.05577831342816353,0.06949049234390259,-0.11234573274850845,-0.460235059261322,0.6283460259437561,0.6142181754112244,0.2892812192440033,0.22869709134101868,-0.2283097207546234
1749041195.317046,4.246443748474121,-1.2253571313670655,-1.5426312685012817,-4.11685385326528,4.3947834968566895,-2.640113178883688,-0.11531659960746765,0.0031506195664405823,-0.027654586359858513,0.05611695349216461,0.07033582031726837,-0.11328929662704468,-0.4543607234954834,0.6139435768127441,0.6436113715171814,0.2686876952648163,0.23242312669754028,-0.20188505947589874
1749041195.358281,4.246277809143066,-1.2253524524024506,-1.542710304260254,-4.116742034951681,4.394900798797607,-2.6403372923480433,-0.1165647879242897,0.0035229616332799196,-0.029316656291484833,0.05617966502904892,0.07143912464380264,-0.11555074900388718,-0.4236624836921692,0.6171945333480835,0.649928092956543,0.3028128147125244,0.19808226823806763,-0.22076669335365295
1749041195.3583272,4.245995998382568,-1.2253402036479493,-1.5427669286727905,-4.116602083245748,4.395051002502441,-2.6405790487872522,-0.12074530869722366,0.003563840873539448,-0.029997780919075012,0.05669770762324333,0.0714062973856926,-0.11649301648139954,-0.39052829146385193,0.5877952575683594,0.6461352109909058,0.31874462962150574,0.21452146768569946,-0.2054089903831482
1749041195.3583682,4.245762825012207,-1.2253247064403077,-1.5427956581115723,-4.116509815255636,4.395179271697998,-2.6408754030810755,-0.12156358361244202,0.0033601028844714165,-0.029676660895347595,0.05748496204614639,0.07093869149684906,-0.11806082725524902,-0.42815878987312317,0.6288303136825562,0.6503010988235474,0.3053716719150543,0.21045184135437012,-0.23691433668136597
1749041195.3584085,4.245519638061523,-1.2253318291953583,-1.5428564548492432,-4.116386076013082,4.395314693450928,-2.641118113194601,-0.12288019806146622,0.0030096196569502354,-0.02997344732284546,0.05877278745174408,0.0716017633676529,-0.11900756508111954,-0.42568475008010864,0.6317169666290283,0.6580433249473572,0.29864197969436646,0.23853594064712524,-0.2303999662399292
1749041195.3584466,4.245266914367676,-1.225309209232666,-1.5429192781448364,-4.116285224954122,4.39542293548584,-2.641315285359518,-0.12577323615550995,0.002954346127808094,-0.030103981494903564,0.05841774120926857,0.07288343459367752,-0.12006645649671555,-0.4413374364376068,0.5978378057479858,0.6323157548904419,0.3232777714729309,0.22529062628746033,-0.22425054013729095
1749041195.3584852,4.245026588439941,-1.2253402036479493,-1.542975902557373,-4.1161774597563685,4.395639419555664,-2.6415820757495325,-0.12813729047775269,0.0033791624009609222,-0.030696392059326172,0.059040140360593796,0.07376815378665924,-0.11980728060007095,-0.4203685224056244,0.6127758026123047,0.6418393850326538,0.34178924560546875,0.21966922283172607,-0.23938027024269104
1749041195.3585234,4.2447590827941895,-1.225277618770935,-1.5430514812469482,-4.116041084329122,4.3957719802856445,-2.6417983214007776,-0.13039056956768036,0.004245352931320667,-0.03126460313796997,0.06057872250676155,0.07240310311317444,-0.12252095341682434,-0.412575364112854,0.6137819886207581,0.6408444046974182,0.3253188133239746,0.2459985464811325,-0.24114273488521576
1749041195.3585615,4.244510650634766,-1.2252884668162842,-1.543092131614685,-4.115932603875631,4.395899772644043,-2.6420839468585413,-0.13143125176429749,0.00431923009455204,-0.03151224926114082,0.06241573765873909,0.07413174211978912,-0.12596023082733154,-0.4074578881263733,0.6039852499961853,0.6375361084938049,0.3299245238304138,0.26461875438690186,-0.2404981255531311
1749041195.3585987,4.244258403778076,-1.2252847713283082,-1.5431591272354126,-4.115812679330343,4.396085739135742,-2.642355505620138,-0.1345306634902954,0.004013586323708296,-0.03138112276792526,0.062408365309238434,0.07691730558872223,-0.12507551908493042,-0.40784382820129395,0.6157493591308594,0.6373523473739624,0.3300016224384308,0.25246119499206543,-0.2801361083984375
1749041195.3586488,4.243978977203369,-1.2252682012370606,-1.5432430505752563,-4.115680595437521,4.3961944580078125,-2.6425557772265833,-0.13340020179748535,0.0037663723342120647,-0.0317346416413784,0.06302511692047119,0.07907106727361679,-0.12795446813106537,-0.42576491832733154,0.6233447194099426,0.6370561122894287,0.33388131856918335,0.244380921125412,-0.2792309522628784
1749041195.358716,4.243715286254883,-1.225253776913025,-1.5433032512664795,-4.115560670892233,4.396397590637207,-2.642862145100729,-0.1346755027770996,0.0037290153559297323,-0.032253067940473557,0.06300657987594604,0.08347746729850769,-0.13485050201416016,-0.46719038486480713,0.5967504978179932,0.6245206594467163,0.3613133430480957,0.24191446602344513,-0.2576797902584076
1749041195.3587835,4.243446350097656,-1.2252801221660157,-1.5433627367019653,-4.115427871743673,4.396541118621826,-2.6430936495410364,-0.14047716557979584,0.0036752999294549227,-0.03245611488819122,0.06684558838605881,0.08279405534267426,-0.13421165943145752,-0.42868247628211975,0.6040832996368408,0.6271863579750061,0.3473260700702667,0.22417409718036652,-0.2588854432106018
1749041195.3588574,4.243152141571045,-1.225209580068924,-1.543415904045105,-4.115263124505514,4.396780967712402,-2.6434035936938685,-0.13907396793365479,0.004120758268982172,-0.03368496149778366,0.07058575749397278,0.08120544254779816,-0.13699616491794586,-0.4399699866771698,0.6148234605789185,0.6376981139183044,0.3322426974773407,0.24794135987758636,-0.2574217915534973
1749041195.3589258,4.242856502532959,-1.2252681714347382,-1.5435186624526978,-4.115120073358053,4.396941184997559,-2.643702809010641,-0.1415899693965912,0.004172210581600666,-0.034287042915821075,0.07040470093488693,0.08400790393352509,-0.13969838619232178,-0.4184799790382385,0.5944369435310364,0.6320710778236389,0.30915185809135437,0.25790584087371826,-0.24218009412288666
1749041195.3589928,4.242619514465332,-1.2252250474742432,-1.543563961982727,-4.115007301370138,4.397070407867432,-2.643984619771139,-0.1461191028356552,0.003601054660975933,-0.03483878821134567,0.06987330317497253,0.08624248951673508,-0.14222504198551178,-0.43800458312034607,0.6148445010185242,0.6212949156761169,0.33603447675704956,0.26930683851242065,-0.2672766447067261
1749041195.3590603,4.242312908172607,-1.2251901489547272,-1.543642282485962,-4.114819665948385,4.397252559661865,-2.644248072301046,-0.14765946567058563,0.003606846323236823,-0.03657948598265648,0.07094255089759827,0.0874878540635109,-0.14147913455963135,-0.430231511592865,0.6027863621711731,0.6435848474502563,0.3401501476764679,0.2468409240245819,-0.2552180290222168
1749041195.359128,4.242031097412109,-1.2252513033202668,-1.5437073707580566,-4.114690681497091,4.397427082061768,-2.644566361104147,-0.15080809593200684,0.003992505371570587,-0.03635258227586746,0.07173750549554825,0.08934903144836426,-0.1459597647190094,-0.41153496503829956,0.5823013782501221,0.6512329578399658,0.32018476724624634,0.23386725783348083,-0.2516229748725891
1749041195.3591924,4.241701126098633,-1.2251973313144227,-1.5438066720962524,-4.114530702630514,4.397638320922852,-2.644834343587057,-0.14763416349887848,0.004144570790231228,-0.035317983478307724,0.07482712715864182,0.08962951600551605,-0.14269894361495972,-0.45239612460136414,0.6102433204650879,0.6151153445243835,0.3201383352279663,0.24305181205272675,-0.27815744280815125
1749041195.359257,4.241425037384033,-1.2251771849444886,-1.5438977479934692,-4.114418407479757,4.397762775421143,-2.6451757589923304,-0.14794132113456726,0.0040349941700696945,-0.03590000793337822,0.07575537264347076,0.08943657577037811,-0.14343257248401642,-0.4697679579257965,0.611473798751831,0.6279369592666626,0.29772403836250305,0.24392013251781464,-0.2776740491390228
1749041195.3593273,4.241085529327393,-1.225220338707306,-1.5439472198486328,-4.1142620048918666,4.397988319396973,-2.645466391240255,-0.1512211114168167,0.0038141284603625536,-0.037612080574035645,0.07348022609949112,0.09345599263906479,-0.14904242753982544,-0.4655284881591797,0.619971513748169,0.6310737133026123,0.299113929271698,0.24308355152606964,-0.24249465763568878
1749041195.3596487,4.240799903869629,-1.225158081655838,-1.5440348386764526,-4.1140834293761195,4.398163795471191,-2.6457930246936243,-0.154264435172081,0.0034341709688305855,-0.0396856851875782,0.07207877933979034,0.0933491438627243,-0.14894770085811615,-0.4546922445297241,0.6005038619041443,0.6570598483085632,0.33073049783706665,0.23580361902713776,-0.2701960802078247
1749041195.3610435,4.240454196929932,-1.2251890462687989,-1.5441032648086548,-4.113973518411154,4.398359298706055,-2.6460838953601282,-0.15633411705493927,0.0034090920817106962,-0.04030333459377289,0.07245306670665741,0.09224669635295868,-0.15184837579727173,-0.44359439611434937,0.5984368324279785,0.664228618144989,0.3141133785247803,0.2417527139186859,-0.280603289604187
1749041195.4022887,4.240156650543213,-1.225196198826172,-1.5442219972610474,-4.113798042336935,4.39854621887207,-2.64640719095339,-0.1578880399465561,0.003709510900080204,-0.03885584697127342,0.07402145862579346,0.09332232922315598,-0.15626107156276703,-0.46023884415626526,0.6187993288040161,0.6699553728103638,0.32717281579971313,0.25129926204681396,-0.2568141222000122
1749041195.402335,4.239899635314941,-1.2251616579345246,-1.5442904233932495,-4.113638301888937,4.398721694946289,-2.646733109151022,-0.16092953085899353,0.0038697111885994673,-0.03884776681661606,0.0754074975848198,0.0975908488035202,-0.15962213277816772,-0.44936877489089966,0.6141864061355591,0.6387463808059692,0.3277949392795563,0.2457151561975479,-0.23575952649116516
1749041195.4023795,4.239509582519531,-1.225218878393509,-1.5443583726882935,-4.113512893716329,4.39891242980957,-2.6470487753497522,-0.16334180533885956,0.004447142127901316,-0.040418557822704315,0.07482307404279709,0.10088738054037094,-0.16301164031028748,-0.4429510235786438,0.6172847151756287,0.6450857520103455,0.3245213031768799,0.20905271172523499,-0.19568085670471191
1749041195.402421,4.239194393157959,-1.225156621342041,-1.5444575548171997,-4.113340993920797,4.3991193771362305,-2.6473637262927454,-0.16539643704891205,0.004669955000281334,-0.041366275399923325,0.07351648807525635,0.09676504880189896,-0.16317205131053925,-0.4355017840862274,0.6171114444732666,0.6739783883094788,0.3615480661392212,0.23586387932300568,-0.2178676873445511
1749041195.4024608,4.238869667053223,-1.2251482766917725,-1.544522762298584,-4.113165279427999,4.399305820465088,-2.6476548353778284,-0.1640036553144455,0.004651619587093592,-0.04161125421524048,0.07512176781892776,0.09629642963409424,-0.1637464463710785,-0.5393970012664795,0.5890829563140869,0.6663663387298584,0.3276151716709137,0.2663041651248932,-0.22828397154808044
1749041195.402499,4.238506317138672,-1.225144700413086,-1.5446066856384277,-4.113032241860861,4.399481773376465,-2.6479652563678187,-0.16582122445106506,0.004104803316295147,-0.04134099930524826,0.07601243257522583,0.09790249913930893,-0.16261141002178192,-0.5038442015647888,0.592113733291626,0.6692686676979065,0.3586992621421814,0.2674478590488434,-0.23257026076316833
1749041195.4025376,4.238185882568359,-1.2251256567290802,-1.5447025299072266,-4.112891574899191,4.399661064147949,-2.6483193079577845,-0.1702071875333786,0.0037303126882761717,-0.041800811886787415,0.07740917801856995,0.09881382435560226,-0.1631947159767151,-0.41060924530029297,0.6194401383399963,0.6603410243988037,0.3497365117073059,0.27718260884284973,-0.24961110949516296
1749041195.4025757,4.237866401672363,-1.225132779484131,-1.5447933673858643,-4.112719436685079,4.399902820587158,-2.6486457029925745,-0.17243409156799316,0.003716340521350503,-0.04214216023683548,0.08194680511951447,0.10084995627403259,-0.16127917170524597,-0.41645437479019165,0.6233940720558167,0.6788903474807739,0.33266448974609375,0.28274378180503845,-0.2937723398208618
1749041195.4026132,4.237553119659424,-1.225175992851593,-1.544873833656311,-4.112548013726705,4.400024890899658,-2.648968760167257,-0.1745612621307373,0.0037817179691046476,-0.042118970304727554,0.08220501989126205,0.10200953483581543,-0.16562150418758392,-0.4572303891181946,0.6300363540649414,0.6597486138343811,0.33517953753471375,0.2709357738494873,-0.2765321135520935
1749041195.402651,4.237165927886963,-1.2251086992076416,-1.5449806451797485,-4.112410923043722,4.400301933288574,-2.649322573338644,-0.1739158034324646,0.004232062492519617,-0.04267386347055435,0.08095159381628036,0.10457388311624527,-0.16521278023719788,-0.4887778162956238,0.6246119141578674,0.6691170334815979,0.34332019090652466,0.28861892223358154,-0.30402296781539917
1749041195.402689,4.236795425415039,-1.2251208585551758,-1.5450576543807983,-4.112239500085348,4.400505065917969,-2.6496499220477503,-0.17697447538375854,0.004509950987994671,-0.04294542595744133,0.08195342868566513,0.10647441446781158,-0.17142978310585022,-0.4320122301578522,0.5931279063224792,0.6786148548126221,0.3771425783634186,0.27860555052757263,-0.3051319718360901
1749041195.4027262,4.236473560333252,-1.225100354557373,-1.545133113861084,-4.112075944940084,4.400670051574707,-2.6499882380114954,-0.1777474284172058,0.00492224283516407,-0.042812418192625046,0.08305401355028152,0.10847733914852142,-0.17433732748031616,-0.46485435962677,0.5833972096443176,0.6625640392303467,0.3590432107448578,0.27745378017425537,-0.27223965525627136
1749041195.4027634,4.236091136932373,-1.2251193982413788,-1.5452289581298828,-4.111927410165304,4.4009575843811035,-2.6503925959216517,-0.17847470939159393,0.004520826041698456,-0.04318583756685257,0.08801748603582382,0.11017004400491714,-0.1780361533164978,-0.4945252537727356,0.6030736565589905,0.6748893857002258,0.3465062081813812,0.28306901454925537,-0.27832522988319397
1749041195.4028003,4.23575496673584,-1.225081281071045,-1.5452975034713745,-4.111747165719503,4.4011616706848145,-2.6507511774646204,-0.18191415071487427,0.0040504904463887215,-0.04409890994429588,0.0899009108543396,0.11287219077348709,-0.18198120594024658,-0.4644981324672699,0.6273862719535828,0.680220365524292,0.3394773006439209,0.2527628242969513,-0.25055938959121704
1749041195.402838,4.235414505004883,-1.2250765723041077,-1.5453779697418213,-4.111582180062765,4.401385307312012,-2.6510871092425745,-0.18518944084644318,0.0044581228867173195,-0.044424209743738174,0.08874883502721786,0.11512816697359085,-0.1829693466424942,-0.4321575462818146,0.6289756298065186,0.6551387310028076,0.35425686836242676,0.24820789694786072,-0.2634108364582062
1749041195.4028754,4.235046863555908,-1.2250729364207764,-1.5454857349395752,-4.111386676827902,4.401610851287842,-2.651461187993185,-0.18697625398635864,0.0046728369779884815,-0.04503418132662773,0.08924955129623413,0.11560734361410141,-0.18223220109939575,-0.43015313148498535,0.6187180280685425,0.6711549162864685,0.3434070646762848,0.23337553441524506,-0.27444303035736084
1749041195.4029121,4.23464822769165,-1.2250801485827942,-1.5455771684646606,-4.111171384850973,4.401846408843994,-2.6518126169787806,-0.1894565224647522,0.004600448999553919,-0.045512568205595016,0.09094521403312683,0.11576953530311584,-0.18150238692760468,-0.46067893505096436,0.6188434362411499,0.6902186274528503,0.3423134982585907,0.23127171397209167,-0.25973939895629883
1749041195.4029493,4.234256267547607,-1.2250403326800843,-1.5456575155258179,-4.111009975472921,4.402111530303955,-2.652198616658346,-0.18958015739917755,0.004461880773305893,-0.045770879834890366,0.0917341560125351,0.11324433982372284,-0.178268700838089,-0.4621990919113159,0.6064912676811218,0.6706427931785583,0.34982311725616455,0.2433125078678131,-0.3187953233718872
1749041195.4029872,4.233865261077881,-1.2250488561442872,-1.5457464456558228,-4.110813756982321,4.40226936340332,-2.6525452772723597,-0.19302356243133545,0.0056888749822974205,-0.0463610514998436,0.09210467338562012,0.11540073901414871,-0.1851452738046646,-0.42840510606765747,0.6125147938728333,0.6853247880935669,0.3400382995605469,0.2614784836769104,-0.30667179822921753
1749041195.4030244,4.233515739440918,-1.2250439089587708,-1.5458680391311646,-4.11063351253652,4.402550220489502,-2.652924124394552,-0.19021724164485931,0.005436731036752462,-0.046954937279224396,0.09275185316801071,0.11375141888856888,-0.18494366109371185,-0.4737718105316162,0.6244621276855469,0.6903682947158813,0.3265230357646942,0.26891857385635376,-0.31621265411376953
1749041195.4031315,4.233097076416016,-1.224993572836258,-1.5459365844726562,-4.110456844369406,4.402747631072998,-2.6533225218402308,-0.19172316789627075,0.004900643602013588,-0.047324009239673615,0.09240110963582993,0.1125781387090683,-0.19047480821609497,-0.48476749658584595,0.6220904588699341,0.6961944699287415,0.34087151288986206,0.2892090380191803,-0.3128030300140381
1749041195.404995,4.2326860427856445,-1.2249971193126221,-1.546032428741455,-4.110277315179342,4.403021812438965,-2.6537235418902796,-0.19524624943733215,0.004699505399912596,-0.04747852310538292,0.09335698932409286,0.1142721101641655,-0.1968943476676941,-0.4673536419868469,0.6216405034065247,0.6736059784889221,0.3558565378189087,0.2870723605155945,-0.27348101139068604
1749041195.4465616,4.232363700866699,-1.224981651907303,-1.546128273010254,-4.110097070733541,4.403253078460693,-2.6541462580310267,-0.19735856354236603,0.004288302268832922,-0.047476012259721756,0.09372241795063019,0.11950778216123581,-0.20248015224933624,-0.4182395339012146,0.6149055361747742,0.6926477551460266,0.34290072321891785,0.2449440360069275,-0.24785062670707703
1749041195.4466417,4.231964588165283,-1.2249887746623536,-1.5462206602096558,-4.109872957269186,4.403500556945801,-2.6545522848712366,-0.19784387946128845,0.004482005722820759,-0.04856023192405701,0.09387119859457016,0.11867908388376236,-0.20267127454280853,-0.4535544216632843,0.6269646883010864,0.6947690844535828,0.3601319193840027,0.2623560130596161,-0.22365932166576385
1749041195.446717,4.231541156768799,-1.2249646943858643,-1.5463287830352783,-4.109703203240866,4.403720378875732,-2.6549626032458704,-0.1993030458688736,0.004671650007367134,-0.049891263246536255,0.0950118899345398,0.11931312829256058,-0.2014978677034378,-0.4437738358974457,0.618240475654602,0.6981946229934692,0.3509458899497986,0.26873570680618286,-0.22377251088619232
1749041195.4467907,4.231114387512207,-1.224972979431488,-1.5464211702346802,-4.109515806237692,4.403954982757568,-2.655337397252218,-0.19890481233596802,0.004800833761692047,-0.04745049402117729,0.09478304535150528,0.12033993005752563,-0.19676686823368073,-0.4449599087238312,0.6304914355278015,0.6815946698188782,0.3616149425506592,0.25777798891067505,-0.2463228851556778
1749041195.4468615,4.230747222900391,-1.224945680504181,-1.546501636505127,-4.109296461144918,4.404202461242676,-2.6557114760028284,-0.2002360075712204,0.005109311547130346,-0.047560252249240875,0.09659642726182938,0.12119679152965546,-0.1987629532814026,-0.4391249120235443,0.6408226490020752,0.6731141805648804,0.34387505054473877,0.2795606851577759,-0.2701374292373657
1749041195.4469326,4.230327606201172,-1.2249492567828675,-1.5466094017028809,-4.109126945535177,4.404460906982422,-2.6561134497271937,-0.20364201068878174,0.005084697622805834,-0.048476871103048325,0.09724228829145432,0.12220427393913269,-0.19489747285842896,-0.4560222029685974,0.6216633319854736,0.6537286639213562,0.3485943078994751,0.28486692905426025,-0.3219417929649353
1749041195.4470024,4.229865550994873,-1.2249563199332734,-1.5467309951782227,-4.108908077279562,4.404672622680664,-2.656496826802389,-0.20652084052562714,0.005199488252401352,-0.05074666440486908,0.0995500236749649,0.12389344722032547,-0.19988733530044556,-0.43681833148002625,0.6102789640426636,0.6874812841415405,0.35945746302604675,0.2959690988063812,-0.309467077255249
1749041195.447072,4.229522705078125,-1.2249527734569092,-1.5468393564224243,-4.108691593209738,4.404943943023682,-2.656903092061178,-0.20832012593746185,0.004885995294898748,-0.04896612465381622,0.10073000937700272,0.12910065054893494,-0.20131751894950867,-0.4371003210544586,0.650211751461029,0.6773312091827393,0.3437967300415039,0.2624461352825165,-0.30973008275032043
1749041195.4471424,4.2290449142456055,-1.2249013048461457,-1.546940803527832,-4.108533760110372,4.4052300453186035,-2.6573334375964563,-0.21112258732318878,0.005105487070977688,-0.04834841191768646,0.10066375881433487,0.12932930886745453,-0.20711201429367065,-0.41592302918434143,0.6241523623466492,0.6439928412437439,0.35217469930648804,0.2316049039363861,-0.2834600806236267
1749041195.4472117,4.22868013381958,-1.224906013613083,-1.5470483303070068,-4.108329435388082,4.405449867248535,-2.657748047505514,-0.21066880226135254,0.005752766504883766,-0.04976312071084976,0.10404700040817261,0.12787498533725739,-0.21101981401443481,-0.4390839636325836,0.6263065338134766,0.6692453026771545,0.34667399525642395,0.2845514714717865,-0.280544638633728
1749041195.4472816,4.228224277496338,-1.2248498660377045,-1.5471560955047607,-4.108105798760885,4.405693054199219,-2.65818959871401,-0.211124986410141,0.00583356898277998,-0.05104827880859375,0.10617658495903015,0.128832146525383,-0.2132774144411087,-0.48721441626548767,0.6117632389068604,0.6466647386550903,0.3275943100452423,0.26275157928466797,-0.26776379346847534
1749041195.4473293,4.227804183959961,-1.2248580914786835,-1.5472400188446045,-4.107900997201437,4.40596342086792,-2.6585848967181605,-0.21500448882579803,0.00601757038384676,-0.051379524171352386,0.10460156947374344,0.13182076811790466,-0.2151263803243637,-0.44442570209503174,0.6053858399391174,0.6706892848014832,0.3360947072505951,0.266108900308609,-0.2713896334171295
1749041195.4473674,4.2273993492126465,-1.2249120336822052,-1.5473545789718628,-4.10770907024526,4.406195640563965,-2.6590116659747522,-0.2170374095439911,0.005008303094655275,-0.0514456145465374,0.10470177978277206,0.12891662120819092,-0.21079160273075104,-0.42931583523750305,0.6213163137435913,0.6528814435005188,0.33578816056251526,0.2953052818775177,-0.2750646471977234
1749041195.4474046,4.226936340332031,-1.2248498362353821,-1.547459602355957,-4.107465168038839,4.4064788818359375,-2.6594722906695765,-0.21768225729465485,0.0049548340030014515,-0.051867514848709106,0.10805273801088333,0.12959037721157074,-0.21262909471988678,-0.46365633606910706,0.6504157185554504,0.6642223596572876,0.34013473987579346,0.29297444224357605,-0.3248898983001709
1749041195.4474418,4.226465225219727,-1.2248723965934296,-1.547567367553711,-4.107248445550436,4.406749248504639,-2.6598671118365687,-0.2199087291955948,0.005581544246524572,-0.0530799925327301,0.1117023229598999,0.13121341168880463,-0.2143838107585907,-0.5121774077415466,0.6417969465255737,0.6549504399299622,0.3114009201526642,0.29695814847946167,-0.3329789638519287
1749041195.4474783,4.226009368896484,-1.2248292726329346,-1.547660231590271,-4.107051750222677,4.407012462615967,-2.660344187413351,-0.2213418036699295,0.006777659524232149,-0.053025636821985245,0.10672648251056671,0.13299067318439484,-0.22003492712974548,-0.46117067337036133,0.627433180809021,0.6494370102882385,0.3204193115234375,0.31627318263053894,-0.3414663076400757
1749041195.4475145,4.225581169128418,-1.224820927982666,-1.5477797985076904,-4.106819053689474,4.407283782958984,-2.6607397238360804,-0.22141136229038239,0.006838901434093714,-0.05494317784905434,0.10842970758676529,0.13565924763679504,-0.2284596711397171,-0.476402223110199,0.6063679456710815,0.6698136925697327,0.3111174404621124,0.2864397168159485,-0.2777734398841858
1749041195.4475513,4.225109577178955,-1.224820927982666,-1.5478756427764893,-4.106603284875387,4.407597541809082,-2.6612096468554896,-0.22284120321273804,0.005963867995887995,-0.05454961955547333,0.10887087136507034,0.13779538869857788,-0.23357586562633514,-0.47003406286239624,0.6058735251426697,0.6672607064247131,0.34036481380462646,0.2745075821876526,-0.2469882071018219
1749041195.4475877,4.224692344665527,-1.2248019141009827,-1.5479867458343506,-4.106374879876608,4.407892227172852,-2.6616793314563196,-0.22600600123405457,0.005071650259196758,-0.0521833673119545,0.11010517179965973,0.1382637917995453,-0.23396465182304382,-0.4621061384677887,0.5930477976799011,0.6211957335472107,0.31018781661987305,0.2709653675556183,-0.23284707963466644
1749041195.4476244,4.224209785461426,-1.2247813803008576,-1.5481071472167969,-4.106173893014425,4.40817928314209,-2.6621690432177942,-0.22781458497047424,0.0051421839743852615,-0.053149256855249405,0.10914254188537598,0.1390504240989685,-0.22885343432426453,-0.44869300723075867,0.6515999436378479,0.6401268839836121,0.34468314051628113,0.27018916606903076,-0.24135300517082214
1749041195.4477413,4.223729610443115,-1.2247691613486786,-1.5482064485549927,-4.105923315087789,4.408466815948486,-2.662633482609884,-0.2299487590789795,0.005942125804722309,-0.055738020688295364,0.10851053893566132,0.14028050005435944,-0.22927884757518768,-0.46920931339263916,0.622300922870636,0.6473371982574463,0.3375229835510254,0.25520265102386475,-0.25946566462516785
1749041195.4490747,4.223289966583252,-1.2248004239848633,-1.5483113527297974,-4.105706831017965,4.408750057220459,-2.6630218664752405,-0.22889955341815948,0.00641116127371788,-0.055825501680374146,0.11272595077753067,0.14017173647880554,-0.2237486094236374,-0.482270210981369,0.5877823233604431,0.6500019431114197,0.30020278692245483,0.25182318687438965,-0.3047058880329132
1749041195.4903016,4.222794532775879,-1.2247727674296875,-1.5484260320663452,-4.105497499505514,4.408994674682617,-2.6635385195361536,-0.22918418049812317,0.005885049235075712,-0.0530533641576767,0.10871492326259613,0.1390603631734848,-0.22633320093154907,-0.5134339928627014,0.615300178527832,0.6023740768432617,0.3542042374610901,0.26213303208351135,-0.2957223653793335
1749041195.4903486,4.222364902496338,-1.2247608465007325,-1.5485267639160156,-4.105273624459738,4.409300327301025,-2.6639848391162317,-0.23353438079357147,0.005095506552606821,-0.05521595850586891,0.10920894891023636,0.1420450657606125,-0.2292669266462326,-0.4787564277648926,0.6357253193855286,0.6114383935928345,0.3580301105976105,0.24390584230422974,-0.32298290729522705
1749041195.4903917,4.221874237060547,-1.2247644823840638,-1.5486036539077759,-4.105080505410665,4.409568786621094,-2.664431397114889,-0.2371368259191513,0.004956497810781002,-0.05631864070892334,0.11316388100385666,0.13999272882938385,-0.23632541298866272,-0.44958460330963135,0.6284626722335815,0.6223195195198059,0.33552855253219604,0.2457231879234314,-0.3026054799556732
1749041195.4904318,4.221418380737305,-1.2247403425029297,-1.5487309694290161,-4.104844947854513,4.409834861755371,-2.664912764226095,-0.23697589337825775,0.005840592551976442,-0.05684376135468483,0.11667732894420624,0.13848339021205902,-0.23992599546909332,-0.4458443224430084,0.6283700466156006,0.6100094318389893,0.3311181962490082,0.28917601704597473,-0.2750788927078247
1749041195.49047,4.220921993255615,-1.224712924366333,-1.5488470792770386,-4.104601045648092,4.410168647766113,-2.665415350590841,-0.23665004968643188,0.0069351159036159515,-0.05732452869415283,0.11518321931362152,0.14448527991771698,-0.24077172577381134,-0.4456305205821991,0.6251339912414551,0.6150097846984863,0.32779476046562195,0.2650514841079712,-0.26631689071655273
1749041195.4905086,4.220449924468994,-1.2246781152537842,-1.5489708185195923,-4.104395051995748,4.410400867462158,-2.6659093538867396,-0.2380051612854004,0.006769436877220869,-0.05762164294719696,0.11705899238586426,0.14213351905345917,-0.2416870892047882,-0.5109983682632446,0.611432671546936,0.5922715663909912,0.3565707802772522,0.29511797428131104,-0.2681424617767334
1749041195.4905465,4.219961643218994,-1.2247283917716523,-1.549059510231018,-4.104132076302999,4.410668849945068,-2.6663675943957728,-0.24077674746513367,0.006142152938991785,-0.058793406933546066,0.11871786415576935,0.14265942573547363,-0.23988908529281616,-0.4917575418949127,0.6335365772247314,0.6100854277610779,0.3394770920276642,0.3109998106956482,-0.29197877645492554
1749041195.4905841,4.219462871551514,-1.2246923607638855,-1.5492210388183594,-4.103891035119528,4.410943508148193,-2.6668368021594446,-0.2439970076084137,0.006237345281988382,-0.05986646190285683,0.12006066739559174,0.1443149447441101,-0.24105510115623474,-0.4907042980194092,0.629853367805481,0.5938484072685242,0.3345790505409241,0.3206014037132263,-0.3061468005180359
1749041195.490622,4.218943119049072,-1.2246924203685303,-1.5492994785308838,-4.103682418862814,4.411245822906494,-2.6673315207110804,-0.24609723687171936,0.006655077915638685,-0.06024874374270439,0.12085874378681183,0.14725421369075775,-0.2444181889295578,-0.49129411578178406,0.6285916566848755,0.6047975420951843,0.3219201862812042,0.31525111198425293,-0.31310123205184937
1749041195.4906592,4.218451499938965,-1.2246492368033906,-1.5494449138641357,-4.103434225121969,4.411564350128174,-2.66784912744631,-0.2490697056055069,0.007300416938960552,-0.061069611459970474,0.11908015608787537,0.14915283024311066,-0.2513684034347534,-0.4700598418712616,0.6123833656311035,0.6172857284545898,0.3333534896373749,0.3350987136363983,-0.291459858417511
1749041195.4906967,4.217951774597168,-1.2246444684318085,-1.549542784690857,-4.10318197826528,4.411830425262451,-2.6683126131640833,-0.2467309981584549,0.007380024529993534,-0.06163393333554268,0.11841684579849243,0.15355288982391357,-0.2570034861564636,-0.47330188751220703,0.6067315936088562,0.6204273700714111,0.35122978687286377,0.3031960427761078,-0.24933338165283203
1749041195.4907339,4.217432022094727,-1.224621908073761,-1.5496631860733032,-4.10291375736379,4.412194728851318,-2.6688509623156946,-0.24825789034366608,0.006371911149471998,-0.061628133058547974,0.11893057078123093,0.15777058899402618,-0.25598636269569397,-0.48051518201828003,0.6061010360717773,0.6117684841156006,0.33356600999832153,0.2568312883377075,-0.23094289004802704
1749041195.4907706,4.216963768005371,-1.2246132057956238,-1.549804925918579,-4.102724453011984,4.412474632263184,-2.669349495564596,-0.2494700402021408,0.005635658744722605,-0.061572037637233734,0.11965910345315933,0.1551821231842041,-0.2562401592731476,-0.5385342240333557,0.6322501301765442,0.598152220249176,0.3531607389450073,0.2845432758331299,-0.24306908249855042
1749041195.4908073,4.216451168060303,-1.224601374273636,-1.5499029159545898,-4.102464099923605,4.412867069244385,-2.669861141835348,-0.25546926259994507,0.006346536334604025,-0.06215895339846611,0.12045799940824509,0.15755316615104675,-0.24915996193885803,-0.5187479853630066,0.625093936920166,0.5876258611679077,0.3716616928577423,0.2838132381439209,-0.29199719429016113
1749041195.4908435,4.215951919555664,-1.2246168416789551,-1.5500379800796509,-4.102239986459249,4.413174152374268,-2.6703513304339808,-0.2576655149459839,0.006756709422916174,-0.06273560971021652,0.12214755266904831,0.15653885900974274,-0.2502722144126892,-0.4521406888961792,0.6180059909820557,0.5943317413330078,0.36122897267341614,0.27031654119491577,-0.29984360933303833
1749041195.4908805,4.215388774871826,-1.22458107889209,-1.5501818656921387,-4.101994415322775,4.4134745597839355,-2.6708653608905237,-0.2570625841617584,0.006785375531762838,-0.06282627582550049,0.12470970302820206,0.158123180270195,-0.25361961126327515,-0.4790102541446686,0.6200125813484192,0.5930895805358887,0.3602566719055176,0.2533940374851227,-0.31387555599212646
1749041195.490917,4.2148542404174805,-1.2245308023742218,-1.550305724143982,-4.1017121277251185,4.413794040679932,-2.6714192072497767,-0.25736814737319946,0.006493288557976484,-0.06303232163190842,0.12645108997821808,0.15830063819885254,-0.25801897048950195,-0.5238567590713501,0.6217654347419739,0.5832707285881042,0.3553977906703949,0.2687191963195801,-0.31360211968421936
1749041195.4909666,4.21441125869751,-1.2245064240745087,-1.550437092781067,-4.101462980309957,4.414152145385742,-2.6719072500811976,-0.2622310519218445,0.00660568755120039,-0.06400434672832489,0.12972678244113922,0.15905484557151794,-0.26061946153640747,-0.514629602432251,0.6123298406600952,0.5993054509162903,0.34228193759918213,0.25306159257888794,-0.2830808162689209
1749041195.4910066,4.2138800621032715,-1.2245450776866456,-1.5505539178848267,-4.101210971871847,4.41440486907959,-2.672412697468893,-0.2651326358318329,0.007263656705617905,-0.0663546770811081,0.12871430814266205,0.15833891928195953,-0.26099154353141785,-0.4787338674068451,0.6045504212379456,0.6158006191253662,0.332658052444458,0.2513602674007416,-0.29831933975219727
1749041195.4910448,4.213301181793213,-1.2245296102813263,-1.5506889820098877,-4.100965877572531,4.414742946624756,-2.6729558149920862,-0.26640450954437256,0.006785898935049772,-0.06545325368642807,0.12808579206466675,0.15868325531482697,-0.25847315788269043,-0.4709324836730957,0.614726185798645,0.6060594916343689,0.3486559987068176,0.26018625497817993,-0.2952306270599365
1749041195.4911485,4.212839603424072,-1.224496917133667,-1.550817608833313,-4.100681921044821,4.415058612823486,-2.6734817663775843,-0.2661597728729248,0.006417423021048307,-0.06664009392261505,0.12965098023414612,0.15717314183712006,-0.263649582862854,-0.48317697644233704,0.6148035526275635,0.5991502404212952,0.36089617013931274,0.2594608664512634,-0.3274587392807007
1749041195.4930322,4.212316036224365,-1.2245207589915772,-1.5509644746780396,-4.100393434564108,4.415427207946777,-2.6740153471576136,-0.2686358690261841,0.0063852365128695965,-0.07106826454401016,0.13377127051353455,0.157586008310318,-0.26361092925071716,-0.5124197602272034,0.6261366605758667,0.6457499861717224,0.31257864832878113,0.275646835565567,-0.3512341380119324
1749041195.5343487,4.21172571182251,-1.224496917133667,-1.5510971546173096,-4.10011686901235,4.415716171264648,-2.674518648778097,-0.27046576142311096,0.0069675021804869175,-0.06828642636537552,0.13125883042812347,0.15832850337028503,-0.2698216438293457,-0.5043104290962219,0.6276577711105347,0.6278411746025085,0.326271653175354,0.27848297357559204,-0.31851744651794434
1749041195.5343962,4.211197853088379,-1.2244814497283478,-1.551228642463684,-4.099841972390646,4.4161057472229,-2.6751042048083704,-0.27396297454833984,0.007696854416280985,-0.06884956359863281,0.13265804946422577,0.16493619978427887,-0.27527421712875366,-0.5273199677467346,0.5965573787689209,0.6193546056747437,0.3040514588356018,0.2655620276927948,-0.29678264260292053
1749041195.534439,4.210629463195801,-1.2244573694518586,-1.551360845565796,-4.099599977532858,4.416412353515625,-2.675638977681295,-0.2752344608306885,0.006873356178402901,-0.06932471692562103,0.131245419383049,0.16341161727905273,-0.2770616114139557,-0.48424777388572693,0.6090503931045532,0.6409057974815369,0.30515652894973755,0.24948523938655853,-0.2582959532737732
1749041195.5344794,4.210104942321777,-1.2244141858867188,-1.551477074623108,-4.099347730676168,4.416669845581055,-2.67622954050173,-0.2738131582736969,0.006114827934652567,-0.0690537765622139,0.12971918284893036,0.16365544497966766,-0.27725958824157715,-0.498818039894104,0.6438825130462646,0.6199101209640503,0.3429354429244995,0.24760906398296356,-0.2667994797229767
1749041195.5345345,4.209545612335205,-1.224452630882599,-1.5516085624694824,-4.099083086053366,4.417051315307617,-2.6767831484424036,-0.2752723693847656,0.00611247168853879,-0.06910404562950134,0.128746896982193,0.1654890775680542,-0.2709101438522339,-0.5625879764556885,0.6144425272941589,0.6224791407585144,0.33531293272972107,0.24950188398361206,-0.2736818790435791
1749041195.5345824,4.209012985229492,-1.2244368356517334,-1.5517839193344116,-4.098806520501608,4.417392730712891,-2.6773293654071253,-0.28074824810028076,0.00595760066062212,-0.06936389952898026,0.13005909323692322,0.16153673827648163,-0.2723025977611542,-0.5262073874473572,0.632390558719635,0.6109437942504883,0.3564620316028595,0.2704535126686096,-0.3043908476829529
1749041195.5346384,4.208444595336914,-1.2244475048831482,-1.551912546157837,-4.098557849923605,4.417701244354248,-2.677876059209005,-0.2843802571296692,0.006243556272238493,-0.07150841504335403,0.13242100179195404,0.16206330060958862,-0.27225837111473083,-0.4912606477737427,0.6515176892280579,0.6417802572250366,0.3401104509830475,0.30121588706970215,-0.3220336437225342
1749041195.534679,4.207887649536133,-1.224397526388504,-1.5520596504211426,-4.098301549951071,4.418051242828369,-2.6784146467791956,-0.28273001313209534,0.006592653691768646,-0.0702146515250206,0.13208669424057007,0.16473396122455597,-0.2765235900878906,-0.4940630793571472,0.6446419358253479,0.6143966317176819,0.3578762710094452,0.3089420795440674,-0.32067468762397766
1749041195.5347173,4.2073073387146,-1.2244202059558411,-1.552215576171875,-4.0980571709074916,4.418374538421631,-2.6789539496051233,-0.28053387999534607,0.006455695256590843,-0.07211166620254517,0.13458752632141113,0.16791635751724243,-0.27866530418395996,-0.5696569681167603,0.643459677696228,0.6189160943031311,0.34916001558303833,0.30808788537979126,-0.2998744249343872
1749041195.534755,4.2073073387146,-1.2244202059558411,-1.552215576171875,-4.0980571709074916,4.418374538421631,-2.6789539496051233,-0.28053387999534607,0.006455695256590843,-0.07211166620254517,0.13458752632141113,0.16791635751724243,-0.27866530418395996,-0.5696569681167603,0.643459677696228,0.6189160943031311,0.34916001558303833,0.30808788537979126,-0.2998744249343872
1749041195.534793,4.206782341003418,-1.224408285026886,-1.5523412227630615,-4.097780366937155,4.4187092781066895,-2.6795275847064417,-0.2866273522377014,0.0067106569185853004,-0.07467620074748993,0.13945575058460236,0.17117252945899963,-0.281247615814209,-0.561820387840271,0.6468943953514099,0.6817214488983154,0.34088802337646484,0.30759042501449585,-0.3013904094696045
1749041195.5348308,4.205645561218262,-1.224321888094284,-1.5526167154312134,-4.097201009789938,4.419403553009033,-2.6806679407702845,-0.2933409810066223,0.007139004301279783,-0.07337772101163864,0.13726355135440826,0.17493502795696259,-0.2816837728023529,-0.4768081307411194,0.6475178599357605,0.6662206053733826,0.3585742712020874,0.2734256982803345,-0.3408016264438629
1749041195.5348697,4.205014705657959,-1.2243496042541047,-1.55280339717865,-4.096912284890646,4.4197187423706055,-2.6812177340136927,-0.2931962013244629,0.007204912602901459,-0.07388073205947876,0.13830183446407318,0.17386047542095184,-0.28507426381111145,-0.4639785587787628,0.6242714524269104,0.6684420108795166,0.34908443689346313,0.3114393651485443,-0.3453012704849243
1749041195.5349069,4.2044453620910645,-1.2243136030486603,-1.552943468093872,-4.096611877480978,4.420104026794434,-2.6818419138537806,-0.29270169138908386,0.00714716874063015,-0.0745803564786911,0.13941596448421478,0.17918458580970764,-0.2900766432285309,-0.4941238760948181,0.6388323903083801,0.6746508479118347,0.3437535762786865,0.26126500964164734,-0.334318608045578
1749041195.5349479,4.2038893699646,-1.2242981058410187,-1.5531033277511597,-4.096327205697531,4.420467853546143,-2.6824243704425257,-0.29853910207748413,0.0073781306855380535,-0.07385586947202682,0.14092488586902618,0.17790961265563965,-0.2939552068710327,-0.5539357662200928,0.6427493691444397,0.6630061268806458,0.33812564611434937,0.27878713607788086,-0.3292856514453888
1749041195.5349922,4.203261375427246,-1.2243052285960694,-1.553247332572937,-4.096038480798239,4.420842170715332,-2.682972017918722,-0.29985982179641724,0.007495927158743143,-0.07383140921592712,0.14225336909294128,0.17961850762367249,-0.2937789857387543,-0.4271952509880066,0.6072074770927429,0.6775354146957397,0.3186678886413574,0.25872042775154114,-0.28429749608039856
1749041195.535042,4.20271635055542,-1.2242930692485352,-1.553363561630249,-4.09573568920278,4.421177864074707,-2.683601204548971,-0.2956485152244568,0.007286171894520521,-0.07219092547893524,0.14124473929405212,0.18011678755283356,-0.29413270950317383,-0.3925226926803589,0.595432698726654,0.6743927597999573,0.30329975485801697,0.21150749921798706,-0.25389206409454346
1749041195.535082,4.2020721435546875,-1.2242621046355744,-1.5534999370574951,-4.095447679559225,4.421568393707275,-2.684118096028463,-0.2888049781322479,0.00586961442604661,-0.06998774409294128,0.1396462470293045,0.17772752046585083,-0.2934431731700897,-0.42127928137779236,0.6171584129333496,0.6496862769126892,0.31565043330192566,0.2229500263929367,-0.25753724575042725
1749041195.5351193,4.201446056365967,-1.2242531341365357,-1.5536510944366455,-4.09517039875173,4.421937942504883,-2.6847620646106165,-0.28818291425704956,0.005439602304250002,-0.06842948496341705,0.13890868425369263,0.1744396984577179,-0.28975585103034973,-0.5183733701705933,0.6679315567016602,0.6332118511199951,0.3026311993598938,0.25309574604034424,-0.2859634459018707
1749041195.5351572,4.200954914093018,-1.2242556375316163,-1.553776741027832,-4.094884058038229,4.422265529632568,-2.6852908770190638,-0.2954736351966858,0.0051671420224010944,-0.0695057213306427,0.13890622556209564,0.1742822676897049,-0.28877153992652893,-0.6204093098640442,0.6932553052902222,0.5932475924491882,0.3302599787712097,0.31631290912628174,-0.3476758897304535
1749041195.5352702,4.200328350067139,-1.2242449086955567,-1.5539271831512451,-4.094642778436178,4.42259407043457,-2.685915772114889,-0.3024000823497772,0.007354802452027798,-0.07146892696619034,0.14162513613700867,0.17906881868839264,-0.2923763692378998,-0.561751663684845,0.6710004806518555,0.6064689755439758,0.3244864344596863,0.28559815883636475,-0.3444124758243561
1749041195.5370421,4.199755668640137,-1.2242210668376465,-1.5540711879730225,-4.094351669351095,4.423011302947998,-2.686479393635885,-0.3078843057155609,0.009495940059423447,-0.07371135801076889,0.14437274634838104,0.18695087730884552,-0.2949042320251465,-0.49878811836242676,0.6482623815536499,0.6232829093933105,0.30409950017929077,0.23472702503204346,-0.3120356500148773
1749041195.5782843,4.199124336242676,-1.224205271606781,-1.5541908740997314,-4.094056268731588,4.4233503341674805,-2.687127415333883,-0.30599895119667053,0.009852984920144081,-0.07425135374069214,0.1426621675491333,0.18532490730285645,-0.30093374848365784,-0.5333526730537415,0.6369416117668152,0.6215503811836243,0.33104267716407776,0.24584227800369263,-0.329904168844223
1749041195.5783298,4.198519706726074,-1.2241850656322022,-1.5543502569198608,-4.093771120110983,4.423662185668945,-2.6876993815051478,-0.31046029925346375,0.009148232638835907,-0.07459408044815063,0.14530453085899353,0.1876547783613205,-0.3031298816204071,-0.5181303024291992,0.63154536485672,0.6182687878608704,0.3318015933036804,0.2365194708108902,-0.315081924200058
1749041195.5783849,4.197929859161377,-1.2242040795138855,-1.5544906854629517,-4.0934957466521205,4.424055099487305,-2.688317362462179,-0.31137871742248535,0.00911962054669857,-0.07478082925081253,0.14547768235206604,0.18133001029491425,-0.30616673827171326,-0.4670485556125641,0.6396716237068176,0.6210939884185791,0.3114628791809082,0.268616259098053,-0.300219863653183
1749041195.5784318,4.197275161743164,-1.224160985355713,-1.5546501874923706,-4.093187709847921,4.424437999725342,-2.6889115015613,-0.3093482553958893,0.008635965175926685,-0.07839085161685944,0.14467473328113556,0.17982164025306702,-0.3079407811164856,-0.46543240547180176,0.6305995583534241,0.6508086919784546,0.3344513177871704,0.2927411198616028,-0.3154769539833069
1749041195.5784717,4.196634769439697,-1.224105880861618,-1.5548145771026611,-4.0928877792754115,4.424737930297852,-2.6895292440997522,-0.3086875081062317,0.007925568148493767,-0.07686580717563629,0.14693684875965118,0.18109655380249023,-0.3079620599746704,-0.5166667103767395,0.6064848899841309,0.6511375308036804,0.3273736238479614,0.31317025423049927,-0.29320085048675537
1749041195.5785136,4.196017742156982,-1.2240904134562989,-1.5549460649490356,-4.092595954934591,4.425159931182861,-2.6901822725879114,-0.3099208176136017,0.007358692120760679,-0.07584871351718903,0.14728029072284698,0.18374936282634735,-0.3079158365726471,-0.5396418571472168,0.6455778479576111,0.6300365924835205,0.3085995614528656,0.30645838379859924,-0.295050710439682
1749041195.578552,4.195402145385742,-1.2240856748870392,-1.5551061630249023,-4.092304607430929,4.425511837005615,-2.690773312245504,-0.31058913469314575,0.00783220399171114,-0.07846079021692276,0.145729199051857,0.18739448487758636,-0.30588218569755554,-0.47534608840942383,0.647966206073761,0.6648737192153931,0.31280234456062317,0.29552969336509705,-0.3113301694393158
1749041195.57859,4.194711208343506,-1.2240112286857148,-1.5552500486373901,-4.092020174066061,4.425900459289551,-2.691423241292135,-0.3120655119419098,0.009046385996043682,-0.07640111446380615,0.1446482390165329,0.19151315093040466,-0.3076710104942322,-0.48359549045562744,0.6197200417518616,0.6359694004058838,0.34851938486099243,0.28712135553359985,-0.3139117956161499
1749041195.5786273,4.194094181060791,-1.2240184110454102,-1.5554214715957642,-4.091736217538351,4.426292896270752,-2.6920178572284144,-0.31204459071159363,0.008512701839208603,-0.07623851299285889,0.1461348980665207,0.19575141370296478,-0.30965545773506165,-0.4902151823043823,0.5986060500144958,0.6416995525360107,0.3698950409889221,0.22072306275367737,-0.307934433221817
1749041195.5786655,4.193531513214111,-1.224042461519577,-1.5555341243743896,-4.09144463161611,4.426646709442139,-2.692620340977804,-0.31492316722869873,0.007517245132476091,-0.07660932093858719,0.14548440277576447,0.1898101419210434,-0.30955374240875244,-0.5117862224578857,0.6310746073722839,0.6294021606445312,0.34338605403900146,0.2744831442832947,-0.3029394745826721
1749041195.578703,4.1928019523620605,-1.2240255039981385,-1.555693507194519,-4.091132064858908,4.427065372467041,-2.693278137837545,-0.3160141408443451,0.0075836582109332085,-0.07689941674470901,0.1465812772512436,0.192935049533844,-0.3110741972923279,-0.4643750786781311,0.6248664259910583,0.6166280508041382,0.37499144673347473,0.24566598236560822,-0.2709536552429199
1749041195.57874,4.192216396331787,-1.2240014237216492,-1.55585777759552,-4.090828558007711,4.427413463592529,-2.6938486734973353,-0.3128642141819,0.00772751634940505,-0.07912290096282959,0.15291230380535126,0.19012846052646637,-0.31323331594467163,-0.4732759892940521,0.6129577159881592,0.6409333348274231,0.3445347845554352,0.2795165181159973,-0.2947949469089508
1749041195.5787773,4.191522121429443,-1.2239931386760254,-1.5559865236282349,-4.090520282784933,4.427867412567139,-2.694541041051046,-0.31242835521698,0.00882753450423479,-0.07806304097175598,0.15271075069904327,0.19040891528129578,-0.3124237656593323,-0.47174257040023804,0.6148602366447449,0.6594762802124023,0.3185860216617584,0.266398161649704,-0.3087927997112274
1749041195.5788152,4.190948009490967,-1.2239464086345215,-1.5561877489089966,-4.090205093423361,4.428256511688232,-2.695155445729391,-0.3139532804489136,0.008045690134167671,-0.07714969664812088,0.15439310669898987,0.19187086820602417,-0.31470993161201477,-0.5195507407188416,0.644471287727356,0.6209535002708435,0.32155460119247437,0.26810505986213684,-0.3279552459716797
1749041195.5788553,4.190269947052002,-1.2239345473102112,-1.5563249588012695,-4.089896818200582,4.428600311279297,-2.6957674662219446,-0.31784260272979736,0.008389283902943134,-0.0815284252166748,0.15416742861270905,0.19178560376167297,-0.31595173478126526,-0.43988853693008423,0.5882424116134644,0.6634445190429688,0.3141521215438843,0.2577425241470337,-0.28668713569641113
1749041195.578894,4.18967866897583,-1.2239606839469452,-1.5565003156661987,-4.089600463906759,4.428975582122803,-2.6963844935046595,-0.3165312111377716,0.008078170008957386,-0.07801814377307892,0.15186084806919098,0.1901027411222458,-0.31523412466049194,-0.4278312623500824,0.6125068068504333,0.6451449394226074,0.31947362422943115,0.26810312271118164,-0.28921055793762207
1749041195.578934,4.189016819000244,-1.2239330571940918,-1.5566402673721313,-4.089269538918966,4.429355144500732,-2.6970184485064905,-0.316039502620697,0.007214064244180918,-0.07875489443540573,0.1510917693376541,0.18834175169467926,-0.3130277991294861,-0.4845404326915741,0.6332013607025146,0.6369776725769043,0.32503488659858704,0.26481205224990845,-0.2818911075592041
1749041195.5789714,4.188371658325195,-1.2239056688598176,-1.5568046569824219,-4.088976284066671,4.4297685623168945,-2.6976574102984827,-0.3144986629486084,0.007129458710551262,-0.07864032685756683,0.15029650926589966,0.19343647360801697,-0.3138265311717987,-0.5266605615615845,0.627412736415863,0.6376941204071045,0.33241575956344604,0.24608176946640015,-0.28687259554862976
1749041195.5790083,4.1877851486206055,-1.223866031771042,-1.5569673776626587,-4.088648458520407,4.430151462554932,-2.6982761065112513,-0.3173099458217621,0.008235994726419449,-0.0789899155497551,0.15238939225673676,0.1904788613319397,-0.316706120967865,-0.4446176588535309,0.6051628589630127,0.650867223739624,0.3326735198497772,0.25640973448753357,-0.2805244028568268
1749041195.5790446,4.187142372131348,-1.2238589388183136,-1.5571166276931763,-4.08834495166921,4.430474758148193,-2.698935572301046,-0.3158106803894043,0.007648977916687727,-0.07747932523488998,0.15343935787677765,0.19279234111309052,-0.3155117928981781,-0.4380306601524353,0.6143314242362976,0.6496469378471375,0.3086637258529663,0.2508995532989502,-0.30385297536849976
