nimar13/UR3e_dataset_trayectorias/trayectorias_ejecutadas/quintic_func/trayectoria_201_result.csv
timestamp,q1,q2,q3,q4,q5,q6,qd1,qd2,qd3,qd4,qd5,qd6,tau1,tau2,tau3,tau4,tau5,tau6
1749044799.6302779,1.6915600299835205,-2.1027242145934046,0.37733155885805303,5.40284942367629,-1.8423836866961878,2.0495426654815674,-0.0016343881143257022,0.0006759081734344363,-0.0002553051454015076,-0.002643223851919174,0.0009226089459843934,-0.000299406296107918,0.14411631226539612,0.41079267859458923,-0.22571176290512085,-0.5750203132629395,-0.13791529834270477,0.05949997156858444
1749044799.6303236,1.691556453704834,-2.1027280292906703,0.3773434797870081,5.40283356884078,-1.8423860708819788,2.049605369567871,-0.0014003640972077847,0.0005879858508706093,-0.00024536039563827217,-0.002324467757716775,0.0012960887979716063,-0.0010965828550979495,0.15472541749477386,0.390237420797348,-0.22402355074882507,-0.577317476272583,-0.135294571518898,0.06910523027181625
1749044799.6303637,1.691556453704834,-2.1027280292906703,0.3773434797870081,5.40283356884078,-1.8423860708819788,2.049605369567871,-0.0014003640972077847,0.0005879858508706093,-0.00024536039563827217,-0.002324467757716775,0.0012960887979716063,-0.0010965828550979495,0.15472541749477386,0.390237420797348,-0.22402355074882507,-0.577317476272583,-0.135294571518898,0.06910523027181625
1749044799.630403,1.6915373802185059,-2.102697034875387,0.37734681764711553,5.40283356884078,-1.842344109212057,2.049570083618164,-0.001001832541078329,0.0004661119601223618,-0.0002276269078720361,-0.0018513976829126477,0.0011368601117283106,-0.0009577712044119835,0.15122243762016296,0.39978089928627014,-0.24541182816028595,-0.5868197679519653,-0.1435077041387558,0.06099496781826019
1749044799.6304407,1.691563606262207,-2.102738996545309,0.37734681764711553,5.402837264328756,-1.8423479239093226,2.049558162689209,-0.0005112943472340703,0.0004223455034662038,-0.0002196882269345224,-0.001774644828401506,0.0010342071764171124,-0.0008936127414926887,0.15173104405403137,0.390363872051239,-0.22989684343338013,-0.598190188407898,-0.13635043799877167,0.07886511087417603
1749044799.6304784,1.6915600299835205,-2.102750917474264,0.37734681764711553,5.402856755047598,-1.8424137274371546,2.049570083618164,-0.00040905288187786937,0.00038609857438132167,-0.00021228485275059938,-0.0020599844865500927,0.0009768976597115397,-0.000819244422018528,0.12345246970653534,0.38856440782546997,-0.23214547336101532,-0.5964597463607788,-0.13386376202106476,0.0881229043006897
1749044799.630516,1.6915600299835205,-2.102750917474264,0.37734681764711553,5.402856755047598,-1.8424137274371546,2.049570083618164,-0.00040905288187786937,0.00038609857438132167,-0.00021228485275059938,-0.0020599844865500927,0.0009768976597115397,-0.000819244422018528,0.12345246970653534,0.38856440782546997,-0.23214547336101532,-0.5964597463607788,-0.13386376202106476,0.0881229043006897
1749044799.630553,1.6915600299835205,-2.102750917474264,0.37734681764711553,5.402856755047598,-1.8424137274371546,2.049570083618164,-0.00040905288187786937,0.00038609857438132167,-0.00021228485275059938,-0.0020599844865500927,0.0009768976597115397,-0.000819244422018528,0.12345246970653534,0.38856440782546997,-0.23214547336101532,-0.5964597463607788,-0.13386376202106476,0.0881229043006897
1749044799.6305902,1.691556453704834,-2.102716108361715,0.3773124853717249,5.40282170751647,-1.8423860708819788,2.0495426654815674,-0.0003216751210857183,0.00032953437766991556,-0.0001988801232073456,-0.0020439329091459513,0.0009681088267825544,-0.0006560691981576383,0.15496833622455597,0.39373379945755005,-0.2374429702758789,-0.59375,-0.12081404030323029,0.07340291142463684
1749044799.6306274,1.6915874481201172,-2.102719923058981,0.37732440630068,5.402825343399801,-1.8423202673541468,2.049551010131836,1.500182975178177e-06,0.00028743056464008987,-0.00018706792616285384,-0.001706933369860053,0.0009205553214997053,-0.0005428115837275982,0.12145824730396271,0.40313735604286194,-0.25585228204727173,-0.6131483316421509,-0.12422873079776764,0.10020673274993896
1749044799.630664,1.6915528774261475,-2.102750917474264,0.3772929350482386,5.402825343399801,-1.84235126176943,2.049551010131836,1.4636695411240908e-08,0.00021789188031107187,-0.00018167310918215662,-0.0016665973234921694,0.0007860707701183856,-0.0004996790667064488,0.1363113522529602,0.377177894115448,-0.2520035207271576,-0.5981960296630859,-0.12711729109287262,0.06496325880289078
1749044799.630701,1.6915804147720337,-2.1027242145934046,0.3773282209979456,5.402825343399801,-1.842363182698385,2.049539089202881,1.428044765772185e-10,0.00020391102589201182,-0.00017658068099990487,-0.00152168411295861,0.0006723216501995921,-0.00046288641169667244,0.1496349573135376,0.37870514392852783,-0.24162667989730835,-0.6028164625167847,-0.1256200522184372,0.0808437317609787
1749044799.6307383,1.691575527191162,-2.1026932201781214,0.37733155885805303,5.402817117958822,-1.8423751036273401,2.049570083618164,1.3932871783389755e-12,0.00019296443497296423,-0.0001717658742563799,-0.001494738389737904,0.0005850662710145116,-0.00043111975537613034,0.1552915722131729,0.39402785897254944,-0.2667771577835083,-0.6163644790649414,-0.11312834918498993,0.07539448142051697
1749044799.6307747,1.6915600299835205,-2.1027633152403773,0.3773282209979456,5.402817117958822,-1.842363182698385,2.049558162689209,1.3593753943677567e-14,0.00018314574845135212,-0.00016720674466341734,-0.00139036204200238,0.000517485139425844,-0.0004034830490127206,0.143695667386055,0.3698391616344452,-0.2511989176273346,-0.6021634340286255,-0.1296640783548355,0.07308806478977203
1749044799.6308117,1.6915284395217896,-2.102708955804342,0.37733155885805303,5.402817117958822,-1.8423669973956507,2.0495736598968506,1.3262890857200098e-16,0.00017427917919121683,-0.00016288351616822183,-0.0012546376092359424,0.0005292173591442406,-0.0003791679337155074,0.14609988033771515,0.36420032382011414,-0.2592335343360901,-0.6193923950195312,-0.12586869299411774,0.06297528743743896
1749044799.630848,1.691575527191162,-2.102731843987936,0.3773282209979456,5.402797567635336,-1.8423789183246058,2.049558162689209,1.2940080562583012e-18,0.00016623098053969443,-0.0001799413003027439,-0.0010837387526407838,0.0004995933850295842,-0.0003575986484065652,0.1683187037706375,0.36598846316337585,-0.24482473731040955,-0.6105363368988037,-0.124710813164711,0.0916210263967514
1749044799.6308851,1.691564917564392,-2.1027170620360316,0.37735063234438115,5.402801263123312,-1.842367951069967,2.0495736598968506,1.2625127634632583e-20,0.00013179016241338104,-0.00017690045933704823,-0.0009439776185899973,0.00046035790001042187,-0.0003383840958122164,0.15537598729133606,0.3734470307826996,-0.2651700973510742,-0.6060683727264404,-0.13818024098873138,0.07208260893821716
1749044799.630922,1.6915719509124756,-2.1027280292906703,0.37731630006899053,5.402797567635336,-1.842356030141012,2.0495855808258057,1.231783962961774e-22,0.00011425599950598553,-0.0001727459894027561,-0.0008344155503436923,0.0004246571334078908,-0.00032112112967297435,0.1423075944185257,0.3511834442615509,-0.26421505212783813,-0.6138001680374146,-0.12615491449832916,0.09325986355543137
1749044799.6309586,1.691602349281311,-2.1027633152403773,0.37734681764711553,5.402832674771108,-1.84235126176943,2.049558162689209,1.2018032608714997e-24,0.00010950481373583898,-0.00016870416584424675,-0.0007474588346667588,0.0003937512228731066,-0.0003055199340451509,0.1441439539194107,0.35495254397392273,-0.2676635682582855,-0.5937702655792236,-0.1303734928369522,0.09094895422458649
1749044799.630995,1.691575527191162,-2.102701326409811,0.3773434797870081,5.402817117958822,-1.8423789183246058,2.049539089202881,1.1725519872756256e-26,0.00010523507080506533,-0.0001648418401600793,-0.0006769101601094007,0.00036696248571388423,-0.0002913885109592229,0.1497470587491989,0.36401888728141785,-0.2604345381259918,-0.6215255260467529,-0.12615104019641876,0.08962499350309372
1749044799.631099,1.691563606262207,-2.1027471027769984,0.37731630006899053,5.402797567635336,-1.842363182698385,2.049539089202881,1.1440127388394692e-28,0.00010128737631021068,-0.00016115218750201166,-0.0005756749887950718,0.00034356574178673327,-0.0002785001997835934,0.17377041280269623,0.34169885516166687,-0.2630200684070587,-0.6021407842636108,-0.12395425140857697,0.09689852595329285
1749044799.6324537,1.691563606262207,-2.1027471027769984,0.37731630006899053,5.402797567635336,-1.842363182698385,2.049539089202881,1.1440127388394692e-28,0.00010128737631021068,-0.00016115218750201166,-0.0005756749887950718,0.00034356574178673327,-0.0002785001997835934,0.17377041280269623,0.34169885516166687,-0.2630200684070587,-0.6021407842636108,-0.12395425140857697,0.09689852595329285
1749044799.6742718,1.6915494203567505,-2.1027242145934046,0.37731630006899053,5.402782010823049,-1.8423836866961878,2.049558162689209,1.0890012560835928e-32,-5.9212787164142355e-05,-0.0001542471582069993,-0.00040871722740121186,0.0003047475765924901,-0.00025586286210455,0.16464130580425262,0.35266318917274475,-0.2761886715888977,-0.6189426779747009,-0.14654086530208588,0.11130450665950775
1749044799.6743193,1.691568374633789,-2.1027242145934046,0.37733489671816045,5.402801263123312,-1.8423827330218714,2.0495545864105225,1.0624957089577978e-34,-7.31337713659741e-05,-0.00015106315549928695,-0.0003729320305865258,0.00028844154439866543,-0.0002458725939504802,0.17582054436206818,0.34378740191459656,-0.27345049381256104,-0.5993613004684448,-0.11615492403507233,0.09177546203136444
1749044799.6743593,1.6916178464889526,-2.102731843987936,0.37733155885805303,5.402797567635336,-1.842363182698385,2.0495736598968506,1.036635224258031e-36,-7.043158984743059e-05,-9.842576400842518e-05,-0.00034403332392685115,0.0002738084876909852,-0.0002366250118939206,0.19049225747585297,0.32896846532821655,-0.2792326509952545,-0.6146408319473267,-0.13774265348911285,0.10120487213134766
1749044799.6743977,1.691568374633789,-2.1027471027769984,0.37734681764711553,5.402813422470846,-1.8423669973956507,2.049539089202881,1.0114042624677015e-38,-9.091963875107467e-05,-9.316269279224798e-05,-0.000319498882163316,0.00026058516232296824,-0.00022806185006629676,0.18315036594867706,0.3307236433029175,-0.27908235788345337,-0.6006185412406921,-0.1388930231332779,0.10334949195384979
1749044799.6744359,1.691568374633789,-2.1027471027769984,0.37734681764711553,5.402813422470846,-1.8423669973956507,2.049539089202881,1.0114042624677015e-38,-9.091963875107467e-05,-9.316269279224798e-05,-0.000319498882163316,0.00026058516232296824,-0.00022806185006629676,0.18315036594867706,0.3307236433029175,-0.27908235788345337,-0.6006185412406921,-0.1388930231332779,0.10334949195384979
1749044799.6744738,1.691602349281311,-2.1027399502196253,0.3773124853717249,5.402817177563467,-1.8423860708819788,2.049551010131836,9.626920449911493e-43,-9.454917744733393e-05,-0.0001157212900579907,-0.00027970082010142505,0.00023763187346048653,-9.420585411135107e-05,0.20184220373630524,0.32899340987205505,-0.29665759205818176,-0.598915696144104,-0.1370626538991928,0.10054269433021545
1749044799.6745114,1.6916178464889526,-2.102748533288473,0.3773282209979456,5.402801263123312,-1.8423479239093226,2.049562692642212,0.00030357492505572736,-0.0001208315952681005,-0.00012191204586997628,-0.00026331283152103424,0.00022761081345379353,-6.993985880399123e-05,0.19606216251850128,0.32710322737693787,-0.2918379306793213,-0.5982093811035156,-0.12986136972904205,0.10551881790161133
1749044799.6745493,1.6916178464889526,-2.102748533288473,0.3773282209979456,5.402801263123312,-1.8423479239093226,2.049562692642212,0.00030357492505572736,-0.0001208315952681005,-0.00012191204586997628,-0.00026331283152103424,0.00022761081345379353,-6.993985880399123e-05,0.19606216251850128,0.32710322737693787,-0.2918379306793213,-0.5982093811035156,-0.12986136972904205,0.10551881790161133
1749044799.6745865,1.6915719509124756,-2.1027051411070765,0.37731630006899053,5.402813422470846,-1.8423479239093226,2.0495545864105225,0.000376090407371521,-0.00014231508248485625,-0.0006833212682977319,-0.00023569760378450155,0.00020990477059967816,-6.098922676756047e-05,0.18876920640468597,0.29940202832221985,-0.3161211609840393,-0.5930913686752319,-0.13937069475650787,0.11544491350650787
1749044799.6746242,1.6916059255599976,-2.102743764916891,0.37733155885805303,5.402797567635336,-1.8423979918109339,2.049558162689209,0.0004183091514278203,-0.0005284746875986457,-0.001804314088076353,-0.00019847504154313356,0.00020204759493935853,-4.202889249427244e-05,0.2444523721933365,0.28112518787384033,-0.32480496168136597,-0.5854975581169128,-0.1412084847688675,0.12620601058006287
1749044799.674662,1.6915804147720337,-2.1027170620360316,0.37731963792909795,5.402813422470846,-1.842405144368307,2.0495665073394775,0.0012583493953570724,-0.0006573181017301977,-0.003401340451091528,-0.00017407455015927553,0.00019475267617963254,-1.018215698422864e-05,0.23698757588863373,0.3060035705566406,-0.3165002167224884,-0.5730289220809937,-0.14255933463573456,0.1523556411266327
1749044799.6746993,1.6915768384933472,-2.1027361355223597,0.37728864351381475,5.402797567635336,-1.8423355261432093,2.0495426654815674,0.0012903755996376276,-0.0012861392460763454,-0.0047734384424984455,-0.00016353685350622982,0.0001879742630990222,-1.7992940684052883e-06,0.22028152644634247,0.288654625415802,-0.29146745800971985,-0.5724549293518066,-0.10711199045181274,0.13763386011123657
1749044799.6747365,1.6915881633758545,-2.10275997738027,0.37730342546571904,5.402797567635336,-1.84235126176943,2.0495855808258057,0.001930537517182529,-0.0014370183926075697,-0.004654332995414734,-0.00015598109166603535,0.00019897909078281373,-3.179541749886994e-07,0.2091132253408432,0.294313907623291,-0.29491016268730164,-0.5651041269302368,-0.12292538583278656,0.14392483234405518
1749044799.674773,1.6915953159332275,-2.1027242145934046,0.3773143927203577,5.402804839401998,-1.8423550764666956,2.0495736598968506,0.0014479125384241343,-0.0011422298848628998,-0.004318239167332649,-0.00011895498028025031,0.00020273297559469938,0.0013838133309036493,0.21289019286632538,0.2868828773498535,-0.28984445333480835,-0.5640964508056641,-0.12128348648548126,0.1278466135263443
1749044799.6748097,1.691568374633789,-2.1027242145934046,0.37730294862856084,5.402825343399801,-1.8423317114459437,2.049562692642212,0.0011411926243454218,-0.0009425991447642446,-0.0037599848583340645,-0.00010880404443014413,0.00019815607811324298,0.0018137015867978334,0.19428449869155884,0.3173375129699707,-0.2992200255393982,-0.555315375328064,-0.11180724203586578,0.12404796481132507
1749044799.6748462,1.6915874481201172,-2.1027523479857386,0.3772833983050745,5.402817117958822,-1.8423426787005823,2.049539089202881,0.0009419123525731266,-0.0009217973565682769,-0.0035627703182399273,-0.00010367487266194075,0.0002019533421844244,0.0015693572349846363,0.17197918891906738,0.3149601221084595,-0.31002429127693176,-0.5762565732002258,-0.13379479944705963,0.11129550635814667
1749044799.6748834,1.6915987730026245,-2.102732320825094,0.37727147737611944,5.402832674771108,-1.8423479239093226,2.0495665073394775,0.0008018632070161402,-0.0008147565531544387,-0.003266730811446905,-9.967652295017615e-05,0.00021027510229032487,0.00128317647613585,0.18486282229423523,0.3000745177268982,-0.31286951899528503,-0.5591262578964233,-0.11244861781597137,0.10405968129634857
1749044799.6749196,1.691602349281311,-2.1027642689146937,0.37728673616518194,5.402809786587515,-1.8423388640033167,2.0496017932891846,0.0006980437901802361,-0.0007215087534859776,-0.0037655511405318975,-9.609826520318165e-05,0.00020675442647188902,0.0010687493486329913,0.17564265429973602,0.29622697830200195,-0.322133868932724,-0.5571949481964111,-0.12054519355297089,0.11412261426448822
1749044799.6749635,1.6915804147720337,-2.102732320825094,0.37724382082094365,5.402813422470846,-1.8423588911639612,2.0495545864105225,0.0005162503803148866,-0.0007099710055626929,-0.004307124298065901,-9.278917423216626e-05,0.00020141479035373777,0.0009132311679422855,0.15721718966960907,0.30547451972961426,-0.3058633506298065,-0.5686913728713989,-0.11336831748485565,0.09572555124759674
1749044799.675004,1.6915804147720337,-2.102732320825094,0.37724382082094365,5.402813422470846,-1.8423588911639612,2.0495545864105225,0.0005162503803148866,-0.0007099710055626929,-0.004307124298065901,-9.278917423216626e-05,0.00020141479035373777,0.0009132311679422855,0.15721718966960907,0.30547451972961426,-0.3058633506298065,-0.5686913728713989,-0.11336831748485565,0.09572555124759674
1749044799.6751204,1.6916108131408691,-2.102760454217428,0.3772323767291468,5.402828979283132,-1.84235126176943,2.049551010131836,0.00030812734621576965,-0.0006705591222271323,-0.005581197328865528,-8.970342605607584e-05,0.0001623497373657301,0.00044691935181617737,0.13675320148468018,0.3058510422706604,-0.3090960681438446,-0.5597593784332275,-0.11407876014709473,0.08251899480819702
1749044799.6764758,1.6916334629058838,-2.1027523479857386,0.3772233168231409,5.40279387214736,-1.8423317114459437,2.049582004547119,-0.0023485675919800997,-0.0005228584632277489,-0.006300681736320257,-8.411327144131064e-05,0.00013017666060477495,2.452904482197482e-05,0.1125459223985672,0.27422571182250977,-0.3130381405353546,-0.5707739591598511,-0.10160399973392487,0.026385445147752762
1749044799.7182732,1.691568374633789,-2.1027680836119593,0.3772323767291468,5.40279387214736,-1.8423708120929163,2.0495855808258057,-0.0036141795571893454,-0.0005561730358749628,-0.0057246023789048195,-8.157044794643298e-05,0.0001346436038147658,-0.001836449489928782,0.13649538159370422,0.2981107234954834,-0.2993462085723877,-0.5695438385009766,-0.10553175210952759,0.015802942216396332
1749044799.718318,1.6915408372879028,-2.102732320825094,0.37722713152040654,5.402801263123312,-1.842344109212057,2.049510955810547,-0.003127367002889514,-0.000584184832405299,-0.005377603229135275,-7.917820767033845e-05,0.00014394863683264703,-0.0045079453848302364,0.10654862970113754,0.29640090465545654,-0.31419286131858826,-0.5777974128723145,-0.10945121943950653,0.04990578815340996
1749044799.7183583,1.691602349281311,-2.1027451954283656,0.3771875540362757,5.402817117958822,-1.8423598448382776,2.049546241760254,-0.002631140174344182,-0.0008480686810798943,-0.005567640531808138,-7.692192593822256e-05,0.00015610488480888307,-0.006243038922548294,0.06378025561571121,0.29440879821777344,-0.31481462717056274,-0.5771301984786987,-0.11356234550476074,0.004204755648970604
1749044799.718397,1.691564917564392,-2.102732320825094,0.37718421617616826,5.402801263123312,-1.84235126176943,2.04951810836792,-0.0025847507640719414,-0.000823090726044029,-0.006417024414986372,-7.47901649447158e-05,0.00016057532047852874,-0.006651788018643856,0.05113811045885086,0.2928979992866516,-0.30440187454223633,-0.5877166390419006,-0.10383260250091553,0.011703914031386375
1749044799.7184346,1.691544532775879,-2.1027680836119593,0.3771908918963831,5.402801263123312,-1.8423588911639612,2.049553632736206,-0.003948044963181019,-0.0008212176617234945,-0.007031774614006281,-7.27743681636639e-05,0.00015804321446921676,-0.007209520321339369,0.03417981415987015,0.30446481704711914,-0.3053312599658966,-0.5853182077407837,-0.1054854542016983,0.011190254241228104
1749044799.7184727,1.691556453704834,-2.1027561626830042,0.3771632353412073,5.402801263123312,-1.842346493397848,2.04951810836792,-0.005600945558398962,-0.0007237943354994059,-0.006333362776786089,-7.086392724886537e-05,0.00015443310257978737,-0.007841513492166996,0.04130921885371208,0.2977558374404907,-0.3133791387081146,-0.5956203937530518,-0.1071069985628128,-0.012412795796990395
1749044799.7185104,1.691556453704834,-2.1027561626830042,0.3771632353412073,5.402801263123312,-1.842346493397848,2.04951810836792,-0.005600945558398962,-0.0007237943354994059,-0.006333362776786089,-7.086392724886537e-05,0.00015443310257978737,-0.007841513492166996,0.04130921885371208,0.2977558374404907,-0.3133791387081146,-0.5956203937530518,-0.1071069985628128,-0.012412795796990395
1749044799.718547,1.6915154457092285,-2.1027523479857386,0.3771556059466761,5.402797567635336,-1.8423550764666956,2.0495100021362305,-0.00782832968980074,-0.0005707999225705862,-0.006276363041251898,-8.570458885515109e-05,0.00016761453298386186,-0.011800341308116913,0.01521189883351326,0.3155595660209656,-0.30843114852905273,-0.5925579071044922,-0.10292208194732666,-0.05634576082229614
1749044799.7185843,1.6915202140808105,-2.102732320825094,0.3771117369281214,5.402828979283132,-1.8423860708819788,2.049467086791992,-0.008237374946475029,-0.000516208412591368,-0.006959086749702692,-8.686870569363236e-05,0.0002950520138256252,-0.014338580891489983,0.022573845461010933,0.27077364921569824,-0.31355369091033936,-0.6142773628234863,-0.09923408925533295,-0.016693204641342163
1749044799.71863,1.6914963722229004,-2.102783342401022,0.37710315385927373,5.402813422470846,-1.8423622290240687,2.0494813919067383,-0.008564773015677929,-0.0004711556248366833,-0.0073328386060893536,-8.537909161532298e-05,0.0003500846796669066,-0.015117579139769077,-0.017754236236214638,0.2783995270729065,-0.3206517696380615,-0.6251026391983032,-0.0936506986618042,-0.020908892154693604
1749044799.7186687,1.6914916038513184,-2.1027680836119593,0.37708837190736944,5.402797567635336,-1.8423388640033167,2.0494260787963867,-0.010915381833910942,-0.0005031756008975208,-0.0072611114010214806,-4.235401502228342e-05,0.00033764136605896056,-0.016019828617572784,-0.03916035592556,0.29023462533950806,-0.31626901030540466,-0.6256272792816162,-0.11106865108013153,-0.01943119615316391
1749044799.718706,1.6914916038513184,-2.102732320825094,0.37705690065492803,5.402828979283132,-1.8423708120929163,2.0494225025177,-0.01161983609199524,-0.00046796788228675723,-0.006817416753619909,-4.3456700950628147e-05,0.000367663218639791,-0.016394810751080513,-0.04053332284092903,0.2907447814941406,-0.31767186522483826,-0.6384762525558472,-0.10154187679290771,-0.04247681796550751
1749044799.7187426,1.6914434432983398,-2.1027361355223597,0.37706023851503545,5.402817117958822,-1.8423669973956507,2.04939866065979,-0.012235852889716625,-0.0004356267745606601,-0.007633518427610397,-7.565503619844094e-05,0.00035299360752105713,-0.01619952730834484,-0.030377615243196487,0.3240988850593567,-0.319566011428833,-0.6439968347549438,-0.09830556809902191,-0.04728882759809494
1749044799.718779,1.6914434432983398,-2.1027361355223597,0.37706023851503545,5.402817117958822,-1.8423669973956507,2.04939866065979,-0.012235852889716625,-0.0004356267745606601,-0.007633518427610397,-7.565503619844094e-05,0.00035299360752105713,-0.01619952730834484,-0.030377615243196487,0.3240988850593567,-0.319566011428833,-0.6439968347549438,-0.09830556809902191,-0.04728882759809494
1749044799.7188153,1.6914160251617432,-2.102760454217428,0.37704354921449834,5.402801263123312,-1.8423708120929163,2.0493149757385254,-0.014593292959034443,-0.00038269287324510515,-0.008082429878413677,-0.0013736736727878451,0.0003138141764793545,-0.01710371859371662,-0.04176482558250427,0.2931205630302429,-0.3140351176261902,-0.6550980806350708,-0.0955282598733902,-0.08647256344556808
1749044799.718852,1.6913886070251465,-2.102748533288473,0.3770225683795374,5.402804899006643,-1.8423426787005823,2.049299478530884,-0.014977865852415562,-0.0003607763792388141,-0.008312705904245377,-0.002141944132745266,0.0003367891476955265,-0.01844542659819126,-0.04024650156497955,0.2931506037712097,-0.32648664712905884,-0.6467165946960449,-0.08508370816707611,-0.08384976536035538
1749044799.7188888,1.691368818283081,-2.1027680836119593,0.37701160112489873,5.402801263123312,-1.8423426787005823,2.049302339553833,-0.014823281206190586,-0.00034123208024539053,-0.00960793811827898,-0.002459119539707899,0.0003263842372689396,-0.019692303612828255,-0.04522152990102768,0.3406360149383545,-0.3104860186576843,-0.6581713557243347,-0.1078164130449295,-0.0902889221906662
1749044799.7189252,1.691329002380371,-2.102748533288473,0.3769791761981409,5.402762102871694,-1.8423622290240687,2.049290418624878,-0.014918769709765911,-0.0003236975462641567,-0.010042699985206127,-0.0025362756568938494,0.00034341614809818566,-0.02203785814344883,-0.06412481516599655,0.3134497404098511,-0.315828800201416,-0.6605851650238037,-0.09041404724121094,-0.09371759742498398
1749044799.7189617,1.6912895441055298,-2.102760454217428,0.37697154680360967,5.402789342194357,-1.8423388640033167,2.0492348670959473,-0.015277857892215252,-0.0003078778099734336,-0.009754229336977005,-0.002843930386006832,0.0003372077480889857,-0.023603564128279686,-0.0630929097533226,0.3263958692550659,-0.3222053349018097,-0.672230064868927,-0.08925090730190277,-0.10256671905517578
1749044799.718998,1.6912460327148438,-2.1027800045409144,0.3769314924823206,5.402770447521963,-1.8423708120929163,2.0492029190063477,-0.014815962873399258,-0.00029353200807236135,-0.010696234181523323,-0.0036825290881097317,0.0003641658986452967,-0.024907918646931648,-0.09251563251018524,0.3467574119567871,-0.3163541257381439,-0.6650873422622681,-0.07673510909080505,-0.1265348196029663
1749044799.719096,1.6912450790405273,-2.10275997738027,0.37690812746156865,5.4027535794074915,-1.8423669973956507,2.0492100715637207,-0.0155607545748353,-0.0002804629039019346,-0.010817941278219223,-0.004976141732186079,0.0003620216448325664,-0.027616232633590698,-0.0913054421544075,0.33142030239105225,-0.3249315917491913,-0.6607719659805298,-0.08948470652103424,-0.12173862010240555
1749044799.720496,1.691202163696289,-2.102776189843649,0.3768990675555628,5.402749883919515,-1.8423588911639612,2.0491344928741455,-0.01600233092904091,-0.0002685102226678282,-0.010380140505731106,-0.0052359504625201225,0.00039458065293729305,-0.02954641729593277,-0.09589339792728424,0.33026647567749023,-0.32729434967041016,-0.6807217597961426,-0.07556895911693573,-0.10396991670131683
1749044799.7662902,1.6912128925323486,-2.102748533288473,0.3768842856036585,5.402738022595205,-1.8423388640033167,2.049114227294922,-0.016758400946855545,-0.00025753260706551373,-0.010919331572949886,-0.00545885693281889,0.000422566692577675,-0.031344059854745865,-0.09776453673839569,0.3315277695655823,-0.31209370493888855,-0.7016554474830627,-0.08140027523040771,-0.13038823008537292
1749044799.7663348,1.6911766529083252,-2.102748533288473,0.37686044374574834,5.402729737549581,-1.842346493397848,2.0490269660949707,-0.017102669924497604,-0.00024741774541325867,-0.011126447468996048,-0.005322723649442196,0.0004526452103164047,-0.03277693688869476,-0.09242754429578781,0.33515000343322754,-0.3307563066482544,-0.6811491847038269,-0.07580174505710602,-0.13412600755691528
1749044799.7663734,1.6911532878875732,-2.1027451954283656,0.3768351713763636,5.402733373432913,-1.8423550764666956,2.0489869117736816,-0.017377488315105438,-0.00023806806711945683,-0.0121232895180583,-0.0051254876889288425,0.0007824000786058605,-0.03414604067802429,-0.11994799971580505,0.33171403408050537,-0.31827542185783386,-0.7007945775985718,-0.07206462323665619,-0.1402432918548584
1749044799.766412,1.6910512447357178,-2.102748533288473,0.37679940858949834,5.402717816620626,-1.8423622290240687,2.0489041805267334,-0.018122078850865364,-0.00022939960763324052,-0.012305480428040028,-0.005853396374732256,0.0008847666322253644,-0.03686407208442688,-0.14343954622745514,0.3240848183631897,-0.32382357120513916,-0.707580029964447,-0.07460357248783112,-0.1550401747226715
1749044799.766451,1.6910765171051025,-2.1027571163573207,0.3767913023578089,5.402690100460806,-1.8423221747027796,2.048851251602173,-0.018939929082989693,-0.00022133935999590904,-0.01218525692820549,-0.006161930039525032,0.0009300107485614717,-0.039189573377370834,-0.15223371982574463,0.3056042790412903,-0.32133185863494873,-0.704291820526123,-0.06810462474822998,-0.154273122549057
1749044799.7664886,1.6910181045532227,-2.1027451954283656,0.3767793814288538,5.402725147991934,-1.8423274199115198,2.048766613006592,-0.021226916462183,-0.00021382712293416262,-0.012528524734079838,-0.006140229757875204,0.000990899745374918,-0.03988922759890556,-0.08798067271709442,0.33143550157546997,-0.3204846978187561,-0.7315788269042969,-0.061466947197914124,-0.15696871280670166
1749044799.7665267,1.690962553024292,-2.102776189843649,0.3767278830157679,5.402650403767385,-1.8423312346087855,2.048694610595703,-0.021964948624372482,-0.00020680755551438779,-0.012615886516869068,-0.006315199658274651,0.0010887241223827004,-0.04227243736386299,-0.10908046364784241,0.3601997494697571,-0.3327729105949402,-0.7286745309829712,-0.06203703582286835,-0.163151815533638
1749044799.7665646,1.690962553024292,-2.102776189843649,0.3767278830157679,5.402650403767385,-1.8423312346087855,2.048694610595703,-0.021964948624372482,-0.00020680755551438779,-0.012615886516869068,-0.006315199658274651,0.0010887241223827004,-0.04227243736386299,-0.10908046364784241,0.3601997494697571,-0.3327729105949402,-0.7286745309829712,-0.06203703582286835,-0.163151815533638
1749044799.766602,1.6908516883850098,-2.102760454217428,0.37670737901796514,5.402642178326406,-1.8423240820514124,2.048517942428589,-0.021480698138475418,-0.00019406605861149728,-0.012227342464029789,-0.007672722451388836,0.0012150413822382689,-0.043856181204319,-0.13293857872486115,0.3613836169242859,-0.3132503032684326,-0.7455763220787048,-0.05850449204444885,-0.19217726588249207
1749044799.7666383,1.6908471584320068,-2.102760454217428,0.3766558806048792,5.402637529164114,-1.8423312346087855,2.0484466552734375,-0.02218015305697918,-0.00018826672749128193,-0.013155318796634674,-0.00883082952350378,0.0015341747784987092,-0.04505012184381485,-0.1611684411764145,0.3501163721084595,-0.3195206820964813,-0.7240020036697388,-0.04239004850387573,-0.1956610381603241
1749044799.7666752,1.6907988786697388,-2.102713247338766,0.37661964098085576,5.402637529164114,-1.8422964254962366,2.048374652862549,-0.02349814772605896,-0.00018280345830135047,-0.012995176948606968,-0.008706639520823956,0.001999905565753579,-0.04782123491168022,-0.18164581060409546,0.3370000123977661,-0.3091709613800049,-0.7191005945205688,-0.03952468931674957,-0.20949915051460266
1749044799.766712,1.690763235092163,-2.1027561626830042,0.3766267935382288,5.402598130493917,-1.8423498312579554,2.048234701156616,-0.024826187640428543,-0.00017764887888915837,-0.013124516233801842,-0.009035402908921242,0.0021693254821002483,-0.05082787573337555,-0.1910971701145172,0.36335837841033936,-0.32708197832107544,-0.7488265633583069,-0.056969135999679565,-0.19940286874771118
1749044799.7667487,1.690763235092163,-2.1027561626830042,0.3766267935382288,5.402598130493917,-1.8423498312579554,2.048234701156616,-0.024826187640428543,-0.00017764887888915837,-0.013124516233801842,-0.009035402908921242,0.0021693254821002483,-0.05082787573337555,-0.1910971701145172,0.36335837841033936,-0.32708197832107544,-0.7488265633583069,-0.056969135999679565,-0.19940286874771118
1749044799.7667856,1.6907153129577637,-2.1027413807311,0.3765681425677698,5.4025547979171655,-1.8423073927508753,2.048107862472534,-0.02576788142323494,-0.00017277688311878592,-0.013265217654407024,-0.009554938413202763,0.002366401953622699,-0.051818110048770905,-0.18585780262947083,0.3704919219017029,-0.30046260356903076,-0.7336175441741943,-0.0529027134180069,-0.22607293725013733
1749044799.7668242,1.690690517425537,-2.1027451954283656,0.3765514532672327,5.402562129288473,-1.8422840277301233,2.0480148792266846,-0.026187976822257042,-0.00016816469724290073,-0.013410160318017006,-0.009266437962651253,0.0025862581096589565,-0.05592743307352066,-0.18107905983924866,0.37023067474365234,-0.31959080696105957,-0.7460920810699463,-0.0331670343875885,-0.1949211210012436
1749044799.766861,1.6906315088272095,-2.102748533288473,0.37649280229677373,5.402538287430563,-1.8423035780536097,2.047891855239868,-0.026943473145365715,-0.0001637930836295709,-0.013850129209458828,-0.00885414332151413,0.002914257813245058,-0.05950963497161865,-0.20271912217140198,0.3617711663246155,-0.31657782196998596,-0.759437620639801,-0.05380548536777496,-0.17944565415382385
1749044799.7668977,1.6904970407485962,-2.102748533288473,0.37646705309023076,5.402517843037405,-1.842318360005514,2.047651529312134,-0.02888600155711174,-5.3139487135922536e-05,-0.014554359018802643,-0.009794913232326508,0.0031538731418550014,-0.05923265591263771,-0.23488110303878784,0.37258583307266235,-0.2915132939815521,-0.752819836139679,-0.038375020027160645,-0.207953080534935
1749044799.766934,1.6904802322387695,-2.102760454217428,0.3764279524432581,5.402490365296163,-1.842335049306051,2.0475785732269287,-0.029514728114008904,-4.8465797590324655e-05,-0.014594748616218567,-0.00998331792652607,0.0028438963927328587,-0.05903558060526848,-0.23683366179466248,0.36532145738601685,-0.31227055191993713,-0.7567278146743774,-0.033438533544540405,-0.19429939985275269
1749044799.7669702,1.6904046535491943,-2.1027451954283656,0.37638789812196904,5.402462947159567,-1.8422673384295862,2.0474302768707275,-0.03088448755443096,-4.716420517070219e-05,-0.015237369574606419,-0.010733052156865597,0.0024720020592212677,-0.062187425792217255,-0.2197541743516922,0.3624252676963806,-0.31568923592567444,-0.7553806900978088,-0.03835597634315491,-0.19173456728458405
1749044799.7670066,1.6903371810913086,-2.1027571163573207,0.3763640562640589,5.402411329537191,-1.8423221747027796,2.047295093536377,-0.03151179477572441,-4.595959035214037e-05,-0.015258113853633404,-0.010713250376284122,0.002175745088607073,-0.06351281702518463,-0.22859926521778107,0.39329564571380615,-0.2916543781757355,-0.773436963558197,-0.03264506161212921,-0.18723294138908386
1749044799.7670434,1.690241813659668,-2.1027680836119593,0.3763321081744593,5.402430522232809,-1.8423073927508753,2.0471794605255127,-0.032725658267736435,-4.481535142986104e-05,-0.015302697196602821,-0.010937667451798916,0.00198554084636271,-0.06383899599313736,-0.2364228367805481,0.40424787998199463,-0.29616495966911316,-0.7775471210479736,-0.019662171602249146,-0.19959650933742523
1749044799.7670796,1.6901823282241821,-2.102760454217428,0.3763073126422327,5.402390825539388,-1.8422325293170374,2.0470237731933594,-0.03435003384947777,-4.372667899588123e-05,-0.015702849254012108,-0.010710491798818111,0.0019370786612853408,-0.06480935215950012,-0.23347052931785583,0.4043821096420288,-0.31002235412597656,-0.779934287071228,-0.015413321554660797,-0.1849871724843979
1749044799.7673159,1.6901533603668213,-2.102795263329977,0.3763025442706507,5.402363407402792,-1.8422601858722132,2.046891689300537,-0.03421502560377121,-4.268957127351314e-05,-0.015889830887317657,-0.01071158517152071,0.002179298549890518,-0.06352952122688293,-0.2533578872680664,0.40014004707336426,-0.31451159715652466,-0.7851238250732422,-0.013437919318675995,-0.2072191685438156
1749044799.7684813,1.6900519132614136,-2.1027571163573207,0.3762319723712366,5.402386235981741,-1.842236344014303,2.046766757965088,-0.03497204929590225,-2.7440721169114113e-05,-0.01659306325018406,-0.010962216183543205,0.003000458236783743,-0.06545162200927734,-0.2573682963848114,0.4227029085159302,-0.3008067309856415,-0.7810701727867126,-0.018054179847240448,-0.1801948845386505
1749044799.814296,1.689997673034668,-2.1027680836119593,0.3761995474444788,5.402366089611807,-1.8422554175006312,2.046612024307251,-0.03612891584634781,-2.0442521417862736e-05,-0.016496581956744194,-0.011821763589978218,0.003701478475704789,-0.06587499380111694,-0.24369202554225922,0.4225226640701294,-0.2959766983985901,-0.7774407863616943,-0.013049893081188202,-0.19264188408851624
1749044799.8143408,1.6899584531784058,-2.1027642689146937,0.3761633078204554,5.402322995453634,-1.842243496571676,2.046499013900757,-0.03701971843838692,-1.9927629182348028e-05,-0.017257433384656906,-0.011677597649395466,0.003891234751790762,-0.06667286157608032,-0.2927730679512024,0.4072681665420532,-0.30064573884010315,-0.7729742527008057,-0.023406215012073517,-0.19358500838279724
1749044799.814381,1.6898788213729858,-2.102748533288473,0.3761242071734827,5.402326631336965,-1.842248264943258,2.0463707447052,-0.03827103227376938,-1.9442603615971166e-07,-0.017064634710550308,-0.012291135266423225,0.0035673475358635187,-0.0665954053401947,-0.29036813974380493,0.4205911159515381,-0.3076714873313904,-0.7765309810638428,-0.0299106165766716,-0.1996821016073227
1749044799.8144195,1.6898183822631836,-2.1027990780272425,0.3760879675494593,5.402248251229086,-1.8422592321978968,2.0462379455566406,-0.03958962857723236,-1.8969383841493936e-09,-0.017857283353805542,-0.011951200664043427,0.003273544367402792,-0.06672461330890656,-0.28445470333099365,0.4359161853790283,-0.30364546179771423,-0.7815021276473999,-0.020583055913448334,-0.21662765741348267
1749044799.814458,1.6897387504577637,-2.1027413807311,0.3760789076434534,5.402243661671438,-1.8422592321978968,2.046091079711914,-0.04137739911675453,-1.8507683233193184e-11,-0.01831934042274952,-0.011811427772045135,0.0030243315268307924,-0.06918980926275253,-0.3013184368610382,0.45274782180786133,-0.300280898809433,-0.7753139734268188,0.0026944875717163086,-0.2174389362335205
1749044799.8144963,1.6896480321884155,-2.102771898309225,0.3760159651385706,5.402231800347128,-1.8422511259662073,2.0459582805633545,-0.04207383468747139,-1.805721913140934e-13,-0.018217913806438446,-0.0122380331158638,0.0031074839644134045,-0.07099572569131851,-0.28295519948005676,0.46901023387908936,-0.31741073727607727,-0.7855372428894043,-0.011988334357738495,-0.2214670032262802
1749044799.8145342,1.6895641088485718,-2.102748533288473,0.3759959379779261,5.402227151184835,-1.8422234694110315,2.045795202255249,-0.0435347855091095,0.0015811511548236012,-0.01877155341207981,-0.012073490768671036,0.0035035309847444296,-0.07195063680410385,-0.29807689785957336,0.48749834299087524,-0.3079133927822113,-0.800398051738739,0.0004837438464164734,-0.2336249202489853
1749044799.8145714,1.6894527673721313,-2.102760454217428,0.37594396272768194,5.402203070908346,-1.8421834150897425,2.0456583499908447,-0.04477363079786301,0.0023020184598863125,-0.019341368228197098,-0.012566160410642624,0.003761553205549717,-0.07289064675569534,-0.28809526562690735,0.43998873233795166,-0.31173527240753174,-0.7872183918952942,-0.02233801782131195,-0.2128608226776123
1749044799.8146086,1.6894527673721313,-2.102760454217428,0.37594396272768194,5.402203070908346,-1.8421834150897425,2.0456583499908447,-0.04477363079786301,0.0023020184598863125,-0.019341368228197098,-0.012566160410642624,0.003761553205549717,-0.07289064675569534,-0.28809526562690735,0.43998873233795166,-0.31173527240753174,-0.7872183918952942,-0.02233801782131195,-0.2128608226776123
1749044799.8146458,1.6892889738082886,-2.1027561626830042,0.3759062925921839,5.402143406658926,-1.8422072569476526,2.045370578765869,-0.04691261798143387,0.001448718598112464,-0.02000981941819191,-0.01302647590637207,0.004000159911811352,-0.07631770521402359,-0.3071746528148651,0.4670836329460144,-0.31059202551841736,-0.8000049591064453,-0.020220428705215454,-0.24208718538284302
1749044799.814682,1.689158320426941,-2.1027413807311,0.37583619752992803,5.4020845768745325,-1.842180077229635,2.045182943344116,-0.04764722287654877,0.0012057125568389893,-0.02066476084291935,-0.01326074916869402,0.0036812047474086285,-0.0781780406832695,-0.2525656223297119,0.46753883361816406,-0.3096751570701599,-0.803707480430603,-0.016092993319034576,-0.22218383848667145
1749044799.814719,1.6891098022460938,-2.102748533288473,0.375803295766012,5.402099180012502,-1.8422148863421839,2.045038938522339,-0.048541441559791565,0.0008763902587816119,-0.020493341609835625,-0.013206535018980503,0.0035469650756567717,-0.07906782627105713,-0.28310906887054443,0.5042208433151245,-0.3178017735481262,-0.7839447855949402,-0.010554522275924683,-0.23936262726783752
1749044799.814756,1.6890180110931396,-2.1027680836119593,0.37574464479555303,5.402075099736013,-1.8422306219684046,2.0448551177978516,-0.04930352792143822,0.0008508407627232373,-0.020964032039046288,-0.013617034070193768,0.0031488854438066483,-0.08334948122501373,-0.2946339249610901,0.5079084038734436,-0.3170804977416992,-0.8088288903236389,0.005341336131095886,-0.24675951898097992
1749044799.814792,1.6888713836669922,-2.102743764916891,0.3757541815387171,5.40202813127593,-1.842187229787008,2.044715166091919,-0.05019238963723183,0.0009501728345640004,-0.02190224453806877,-0.013996145687997341,0.002996231662109494,-0.08495215326547623,-0.27989816665649414,0.5169018507003784,-0.31496429443359375,-0.7890235185623169,-0.0029879212379455566,-0.23286986351013184
1749044799.8148286,1.6887725591659546,-2.1027051411070765,0.37570268312563115,5.402039038925924,-1.842203442250387,2.0445590019226074,-0.05051889643073082,0.001491861417889595,-0.022356485947966576,-0.013736958615481853,0.002968429820612073,-0.08412119746208191,-0.31782960891723633,0.5018171072006226,-0.3115536868572235,-0.8129642009735107,-0.0150216743350029,-0.23207271099090576
1749044799.814865,1.6887339353561401,-2.1027399502196253,0.3756354490863245,5.401972222119131,-1.8422067801104944,2.0443856716156006,-0.05329858139157295,0.0016102045774459839,-0.022362912073731422,-0.013568819500505924,0.0032973166089504957,-0.08666099607944489,-0.2892884910106659,0.508916974067688,-0.32499128580093384,-0.8158140182495117,0.018783777952194214,-0.23371095955371857
1749044799.8149014,1.6886004209518433,-2.102731843987936,0.37559253374208623,5.401963937073507,-1.8421829382525843,2.0442142486572266,-0.05091744288802147,0.0022776254918426275,-0.02215755172073841,-0.014587274752557278,0.003621644340455532,-0.08815207332372665,-0.3212779462337494,0.5110552310943604,-0.3089529573917389,-0.7970343828201294,-0.005018666386604309,-0.246351420879364
1749044799.8149383,1.6884962320327759,-2.102743764916891,0.37553579012026006,5.401916968613424,-1.8421829382525843,2.044034004211426,-0.05218500643968582,0.0020625803153961897,-0.02360181324183941,-0.014756524004042149,0.0041493140161037445,-0.0928979367017746,-0.3569100499153137,0.5144956111907959,-0.31231677532196045,-0.8171548843383789,-0.006219096481800079,-0.2366763949394226
1749044799.8149753,1.6884046792984009,-2.102743764916891,0.3754842917071741,5.401919650822439,-1.84221059480776,2.0438647270202637,-0.0533936433494091,0.0021297272760421038,-0.02476922608911991,-0.014604766853153706,0.004678631201386452,-0.09348812699317932,-0.36839544773101807,0.5221015214920044,-0.3122905492782593,-0.8244786858558655,-0.01189027726650238,-0.19679862260818481
1749044799.8150117,1.6882505416870117,-2.10270418743276,0.375467602406637,5.401850151806631,-1.8421552816974085,2.043637752532959,-0.0573442205786705,0.002381730591878295,-0.024929603561758995,-0.01499095093458891,0.0047604418359696865,-0.09324385970830917,-0.31278127431869507,0.5203876495361328,-0.3181753158569336,-0.8189898133277893,-0.01790887862443924,-0.26199981570243835
1749044799.8150485,1.6881662607192993,-2.1027122936644496,0.375404183064596,5.401872026711263,-1.8421395460711878,2.0434348583221436,-0.05517945438623428,0.003224319778382778,-0.024560997262597084,-0.015679489821195602,0.0041597443632781506,-0.09650736302137375,-0.342586874961853,0.529492974281311,-0.31925809383392334,-0.8400903940200806,-0.019726410508155823,-0.23527859151363373
1749044799.8150854,1.6880546808242798,-2.1026812992491664,0.3753717581378382,5.401832330017843,-1.8421743551837366,2.0432536602020264,-0.057444505393505096,0.003965411335229874,-0.024495698511600494,-0.016514820978045464,0.0037993420846760273,-0.0981544628739357,-0.37684744596481323,0.5147215127944946,-0.3294600248336792,-0.8138816356658936,0.0002449527382850647,-0.23307959735393524
1749044799.815189,1.6879823207855225,-2.10270418743276,0.37530786195863897,5.401796328812399,-1.8421314398394983,2.0430266857147217,-0.059497952461242676,0.00404787715524435,-0.02544330433011055,-0.01696956157684326,0.003723755246028304,-0.09953185170888901,-0.33829277753829956,0.4996884763240814,-0.3464469313621521,-0.8361354470252991,-0.005443371832370758,-0.23312285542488098
1749044799.8164532,1.6878459453582764,-2.102692266503805,0.37527543703188115,5.401729213982382,-1.8421037832843226,2.042841672897339,-0.06035803630948067,0.003963003400713205,-0.02652895264327526,-0.017947807908058167,0.0034222411923110485,-0.09924958646297455,-0.357730507850647,0.5276511907577515,-0.32318976521492004,-0.8269901275634766,-0.010157786309719086,-0.23757584393024445
1749044799.858296,1.6877154111862183,-2.102692266503805,0.37519675890077764,5.401693391590872,-1.8421276251422327,2.0426177978515625,-0.061820484697818756,0.004424538929015398,-0.026595227420330048,-0.01876586303114891,0.0030772611498832703,-0.10002739727497101,-0.3516470491886139,0.5101460218429565,-0.3392881751060486,-0.8238686323165894,0.012030325829982758,-0.2366677224636078
1749044799.85834,1.68756902217865,-2.1026884518065394,0.37515145937074834,5.401708054333486,-1.8421228567706507,2.0424370765686035,-0.06139747053384781,0.004163956269621849,-0.02750103734433651,-0.018899068236351013,0.003084398340433836,-0.10120794177055359,-0.35433557629585266,0.5196099281311035,-0.32718345522880554,-0.8269003629684448,0.008357740938663483,-0.24007901549339294
1749044799.8583803,1.6875040531158447,-2.102652212182516,0.37510759035219365,5.401609468251028,-1.842095677052633,2.042217493057251,-0.06361107528209686,0.004342583939433098,-0.0289829820394516,-0.019326703622937202,0.003632555017247796,-0.10129006952047348,-0.375218003988266,0.5309404730796814,-0.3276608884334564,-0.8233224153518677,-0.003725297749042511,-0.2570922374725342
1749044799.8584187,1.6873605251312256,-2.1026436291136683,0.37501651445497686,5.401582050114431,-1.842111889516012,2.0420491695404053,-0.06491358578205109,0.0044273692183196545,-0.029111400246620178,-0.019862009212374687,0.003913194872438908,-0.10441021621227264,-0.3417631983757019,0.5196053385734558,-0.3237651288509369,-0.8214578628540039,0.004426397383213043,-0.26667189598083496
1749044799.858467,1.6873605251312256,-2.1026436291136683,0.37501651445497686,5.401582050114431,-1.842111889516012,2.0420491695404053,-0.06491358578205109,0.0044273692183196545,-0.029111400246620178,-0.019862009212374687,0.003913194872438908,-0.10441021621227264,-0.3417631983757019,0.5196053385734558,-0.3237651288509369,-0.8214578628540039,0.004426397383213043,-0.26667189598083496
1749044799.8585067,1.6870626211166382,-2.1026250324644984,0.37490874925722295,5.401517557888784,-1.842048470173971,2.041585683822632,-0.06549856811761856,0.005263846833258867,-0.028915325179696083,-0.020551910623908043,0.002867836505174637,-0.10691818594932556,-0.37622693181037903,0.5329371094703674,-0.3417205810546875,-0.8334442377090454,-0.003713957965373993,-0.25412288308143616
1749044799.858545,1.6869465112686157,-2.102628370324606,0.37484437624086553,5.401438224106588,-1.8420684973346155,2.041363000869751,-0.06967415660619736,0.0049389866180717945,-0.030438601970672607,-0.022889718413352966,0.002301963744685054,-0.10890046507120132,-0.33800989389419556,0.5292858481407166,-0.3539263904094696,-0.8105681538581848,0.015851832926273346,-0.2563791871070862
1749044799.8585825,1.6869465112686157,-2.102628370324606,0.37484437624086553,5.401438224106588,-1.8420684973346155,2.041363000869751,-0.06967415660619736,0.0049389866180717945,-0.030438601970672607,-0.022889718413352966,0.002301963744685054,-0.10890046507120132,-0.33800989389419556,0.5292858481407166,-0.3539263904094696,-0.8105681538581848,0.015851832926273346,-0.2563791871070862
1749044799.8586202,1.686806559562683,-2.1026040516295375,0.3747919241534632,5.4014028189475916,-1.8420990149127405,2.0411455631256104,-0.06758798658847809,0.004865221679210663,-0.0318823866546154,-0.02204015851020813,0.002111945766955614,-0.11494161933660507,-0.3913607597351074,0.5566277503967285,-0.3350871205329895,-0.7926315069198608,0.02424047514796257,-0.26197242736816406
1749044799.858658,1.6865057945251465,-2.1026040516295375,0.3746560255633753,5.401338028698721,-1.842095677052633,2.040654420852661,-0.0731436088681221,0.004749390296638012,-0.03282508626580238,-0.02182292751967907,0.0032873370219022036,-0.11893358081579208,-0.3477188050746918,0.5669935941696167,-0.34564992785453796,-0.8121411204338074,0.015104852616786957,-0.24492114782333374
1749044799.8586955,1.6863759756088257,-2.1026116810240687,0.3745997587787073,5.40126262882308,-1.8420594374286097,2.0404138565063477,-0.07241340726613998,0.005417429376393557,-0.03388180583715439,-0.021669283509254456,0.0037219878286123276,-0.12193860858678818,-0.33687230944633484,0.5620117783546448,-0.33886343240737915,-0.8068459033966064,0.03003041446208954,-0.23966450989246368
1749044799.8587325,1.6862105131149292,-2.102607866326803,0.37454301515688115,5.401235151081838,-1.8420823256122034,2.0401501655578613,-0.07330039143562317,0.005603261291980743,-0.03389182686805725,-0.021664151921868324,0.004113412462174892,-0.12429172545671463,-0.36917656660079956,0.5652921199798584,-0.31300291419029236,-0.8193855285644531,0.014248356223106384,-0.25003576278686523
1749044799.8587708,1.686082363128662,-2.102615018884176,0.37443668047060186,5.401206421643057,-1.8420127073871058,2.039910078048706,-0.0738731324672699,0.005094392690807581,-0.03388895466923714,-0.021016467362642288,0.004611038137227297,-0.12554487586021423,-0.38549020886421204,0.5677734613418579,-0.32756322622299194,-0.8100106716156006,0.025107305496931076,-0.22796179354190826
1749044799.8588085,1.685914397239685,-2.10257687191152,0.3743804136859339,5.401139247208395,-1.8420370260821741,2.039649724960327,-0.07538757473230362,0.005587414372712374,-0.03459012508392334,-0.02146247774362564,0.00426259683445096,-0.12643054127693176,-0.3563964068889618,0.5930963754653931,-0.32518061995506287,-0.8230597376823425,0.02184172347187996,-0.22028380632400513
1749044799.8588455,1.685759425163269,-2.102572103539938,0.374307934437887,5.401075827866354,-1.8420594374286097,2.0394134521484375,-0.07491645216941833,0.005235276650637388,-0.035348668694496155,-0.022687643766403198,0.0038390536792576313,-0.12689483165740967,-0.3426103889942169,0.5930089950561523,-0.32719987630844116,-0.7976049780845642,0.025424838066101074,-0.24269214272499084
1749044799.8588817,1.685612440109253,-2.1025759182372035,0.3742273489581507,5.401078450470724,-1.8420704046832483,2.039156913757324,-0.07606422901153564,0.004683435428887606,-0.03685596585273743,-0.022537190467119217,0.0033901496790349483,-0.12739720940589905,-0.3683925271034241,0.5817688703536987,-0.318274587392807,-0.8178452253341675,0.019363071769475937,-0.2386104017496109
1749044799.858919,1.6854826211929321,-2.1025597057738246,0.3741558233844202,5.4010387537773035,-1.8419888655291956,2.0388925075531006,-0.07790476083755493,0.005485737230628729,-0.037071533501148224,-0.02287968061864376,0.0031801266595721245,-0.128447487950325,-0.3562404215335846,0.6066498756408691,-0.3141074478626251,-0.8117462992668152,0.04643014818429947,-0.2711932957172394
1749044799.8589559,1.6852890253067017,-2.1025358639159144,0.3740642706500452,5.4009600756462,-1.8420441786395472,2.038597345352173,-0.07926289737224579,0.005374711472541094,-0.03559610992670059,-0.023503273725509644,0.003156510880216956,-0.13024890422821045,-0.35520562529563904,0.5989948511123657,-0.32634592056274414,-0.802088737487793,0.03927851468324661,-0.26562902331352234
1749044799.858993,1.6851686239242554,-2.1025287113585414,0.37399226823915654,5.400915789395132,-1.8420317808734339,2.038369655609131,-0.07925216853618622,0.005902573466300964,-0.03623538836836815,-0.02451506443321705,0.003446403192356229,-0.1312827467918396,-0.35322391986846924,0.6110734939575195,-0.343234121799469,-0.8115121722221375,0.04124794155359268,-0.2753014862537384
1749044799.8590302,1.6850299835205078,-2.1025129757323207,0.3739054838763636,5.400883364468374,-1.8420079390155237,2.0381247997283936,-0.08052477240562439,0.005883006379008293,-0.03727351874113083,-0.02464449591934681,0.004164431244134903,-0.13239909708499908,-0.38372379541397095,0.623399019241333,-0.33502939343452454,-0.782468855381012,0.02507590502500534,-0.2565208077430725
1749044799.859138,1.6848816871643066,-2.102527757684225,0.37382489839662725,5.400831806450643,-1.841980282460348,2.0378170013427734,-0.08186909556388855,0.0055976686999201775,-0.03783831745386124,-0.023654481396079063,0.005413879174739122,-0.13692206144332886,-0.3846931457519531,0.6006242036819458,-0.3392932713031769,-0.7972673773765564,0.03534397482872009,-0.26833465695381165
1749044799.860461,1.6847141981124878,-2.1025082073607386,0.3737838904010218,5.400772201805868,-1.8419492880450647,2.0375373363494873,-0.08150485903024673,0.00549562182277441,-0.03968184068799019,-0.02381412498652935,0.006559343077242374,-0.13887986540794373,-0.39862707257270813,0.6169641017913818,-0.32347261905670166,-0.8215802311897278,0.023668862879276276,-0.2597517967224121
1749044799.9024875,1.6845194101333618,-2.102481027642721,0.3736808935748499,5.400716948300161,-1.8419373671161097,2.0373082160949707,-0.08605186641216278,0.006322725676000118,-0.039592064917087555,-0.02362705022096634,0.006551689468324184,-0.13918736577033997,-0.34898820519447327,0.6151125431060791,-0.3101887106895447,-0.7900893688201904,0.018658537417650223,-0.2762155830860138
1749044799.9025624,1.684348464012146,-2.1024958095946253,0.37359697023500615,5.400672423630514,-1.8419674078570765,2.0370078086853027,-0.08393248170614243,0.006808854173868895,-0.03787098452448845,-0.023765023797750473,0.005676828324794769,-0.14375747740268707,-0.39643555879592896,0.6323750615119934,-0.34175264835357666,-0.8009584546089172,0.010812211781740189,-0.2901266813278198
1749044799.9026315,1.684348464012146,-2.1024958095946253,0.37359697023500615,5.400672423630514,-1.8419674078570765,2.0370078086853027,-0.08393248170614243,0.006808854173868895,-0.03787098452448845,-0.023765023797750473,0.005676828324794769,-0.14375747740268707,-0.39643555879592896,0.6323750615119934,-0.34175264835357666,-0.8009584546089172,0.010812211781740189,-0.2901266813278198
1749044799.9026983,1.6839945316314697,-2.1024633846678675,0.37344390550722295,5.400584029942312,-1.8419325987445276,2.036388397216797,-0.08811140805482864,0.006266599986702204,-0.04132230207324028,-0.023526277393102646,0.0041927555575966835,-0.1464684158563614,-0.32735857367515564,0.6355584859848022,-0.3103906214237213,-0.7978595495223999,0.022373631596565247,-0.2579355239868164
1749044799.9027624,1.6838188171386719,-2.1024357281126917,0.3733757177935999,5.400544750481405,-1.8419364134417933,2.0360841751098633,-0.08858928829431534,0.0066587976180016994,-0.04122762382030487,-0.02437352016568184,0.004289988428354263,-0.14922893047332764,-0.3707520365715027,0.6386440992355347,-0.31004589796066284,-0.8186525106430054,0.02885177917778492,-0.23742437362670898
1749044799.9028306,1.6838188171386719,-2.1024357281126917,0.3733757177935999,5.400544750481405,-1.8419364134417933,2.0360841751098633,-0.08858928829431534,0.0066587976180016994,-0.04122762382030487,-0.02437352016568184,0.004289988428354263,-0.14922893047332764,-0.3707520365715027,0.6386440992355347,-0.31004589796066284,-0.8186525106430054,0.02885177917778492,-0.23742437362670898
1749044799.9028976,1.6833984851837158,-2.1024466953673304,0.3731926123248499,5.400436925679006,-1.8419202009784144,2.035491704940796,-0.08880796283483505,0.007061786949634552,-0.041892364621162415,-0.024744395166635513,0.003416660474613309,-0.1506221443414688,-0.38477301597595215,0.6676945090293884,-0.34128811955451965,-0.8207741975784302,0.041744958609342575,-0.26713377237319946
1749044799.902964,1.6832367181777954,-2.102431436578268,0.3731196562396448,5.400392699032583,-1.8418853918658655,2.0351786613464355,-0.0920981764793396,0.008084453642368317,-0.043073371052742004,-0.025452354922890663,0.003142457688227296,-0.15316985547542572,-0.34639766812324524,0.6512118577957153,-0.319891095161438,-0.8112590312957764,0.0612417608499527,-0.2529028058052063
1749044799.9030318,1.6830625534057617,-2.1024075947203578,0.3730052153216761,5.4003377435501,-1.8419202009784144,2.034878969192505,-0.08969499915838242,0.008052255026996136,-0.04331453889608383,-0.02631659060716629,0.0033465654123574495,-0.15396597981452942,-0.3900538682937622,0.6506497263908386,-0.32018712162971497,-0.7893584966659546,0.0638471245765686,-0.2498222440481186
1749044799.9030979,1.6828974485397339,-2.1023956737914027,0.37292462984193975,5.400277900486746,-1.8418892065631312,2.0345709323883057,-0.09434549510478973,0.007795786950737238,-0.0435178168118,-0.025202792137861252,0.0036087066400796175,-0.1548115611076355,-0.3874533176422119,0.6504124999046326,-0.31803983449935913,-0.8185572624206543,0.049611806869506836,-0.25693970918655396
1749044799.9031641,1.6828974485397339,-2.1023956737914027,0.37292462984193975,5.400277900486746,-1.8418892065631312,2.0345709323883057,-0.09434549510478973,0.007795786950737238,-0.0435178168118,-0.025202792137861252,0.0036087066400796175,-0.1548115611076355,-0.3874533176422119,0.6504124999046326,-0.31803983449935913,-0.8185572624206543,0.049611806869506836,-0.25693970918655396
1749044799.9032292,1.682484745979309,-2.102344652215475,0.3727634588824671,5.400154459267416,-1.8418691794024866,2.0339033603668213,-0.09519272297620773,0.008908289484679699,-0.04468598589301109,-0.02603326365351677,0.00497916154563427,-0.1592434048652649,-0.3508302867412567,0.6609678268432617,-0.30197831988334656,-0.8308717608451843,0.06274242699146271,-0.24947798252105713
1749044799.9032958,1.6823506355285645,-2.1023436985411585,0.37266379991640264,5.400110173016348,-1.8418763319598597,2.0335824489593506,-0.09565667808055878,0.008972564712166786,-0.045059122145175934,-0.02611953392624855,0.0059431372210383415,-0.16191695630550385,-0.33326512575149536,0.6580154299736023,-0.3234683573246002,-0.8186200261116028,0.038239166140556335,-0.2733060121536255
1749044799.903362,1.6823506355285645,-2.1023436985411585,0.37266379991640264,5.400110173016348,-1.8418763319598597,2.0335824489593506,-0.09565667808055878,0.008972564712166786,-0.045059122145175934,-0.02611953392624855,0.0059431372210383415,-0.16191695630550385,-0.33326512575149536,0.6580154299736023,-0.3234683573246002,-0.8186200261116028,0.038239166140556335,-0.2733060121536255
1749044799.903428,1.6819024085998535,-2.102311750451559,0.37249976793398076,5.400014626770773,-1.8418763319598597,2.032930374145508,-0.09614422917366028,0.00855776946991682,-0.04591023921966553,-0.024901557713747025,0.0068339090794324875,-0.167275533080101,-0.3916814923286438,0.6695613861083984,-0.3140851855278015,-0.853976845741272,0.054780762642621994,-0.2593706250190735
1749044799.9034905,1.6817609071731567,-2.1022993526854457,0.3723657766925257,5.39998226144866,-1.8418286482440394,2.0325944423675537,-0.09751208126544952,0.00914112851023674,-0.04622434452176094,-0.025540122762322426,0.006803684867918491,-0.1694393903017044,-0.3566666841506958,0.6600463390350342,-0.32802870869636536,-0.8580066561698914,0.031127581372857094,-0.25655725598335266
1749044799.9035568,1.681535243988037,-2.102248331109518,0.3722885290728968,5.399965750962057,-1.8418057600604456,2.0322389602661133,-0.09921908378601074,0.008725490421056747,-0.04627423360943794,-0.02600962109863758,0.007108218502253294,-0.16911529004573822,-0.38158607482910156,0.6713086366653442,-0.3281221389770508,-0.8492056727409363,0.04858260601758957,-0.2723233699798584
1749044799.9036226,1.6813315153121948,-2.10227169613027,0.37220460573305303,5.399890351086416,-1.8418129126178187,2.031890869140625,-0.1002037525177002,0.008789625950157642,-0.04698191583156586,-0.026950040832161903,0.007215577643364668,-0.1692553609609604,-0.40459683537483215,0.6697738170623779,-0.33791249990463257,-0.858684241771698,0.029856422916054726,-0.28743600845336914
1749044799.9036882,1.6811026334762573,-2.102255483666891,0.3720930258380335,5.399814653187551,-1.841790501271383,2.031569719314575,-0.1019817367196083,0.00955132581293583,-0.04712152108550072,-0.02762124501168728,0.006516975350677967,-0.17113277316093445,-0.35153627395629883,0.6710575819015503,-0.3374812602996826,-0.8600518703460693,0.03265510872006416,-0.2902448773384094
1749044799.9037535,1.6811026334762573,-2.102255483666891,0.3720930258380335,5.399814653187551,-1.841790501271383,2.031569719314575,-0.1019817367196083,0.00955132581293583,-0.04712152108550072,-0.02762124501168728,0.006516975350677967,-0.17113277316093445,-0.35153627395629883,0.6710575819015503,-0.3374812602996826,-0.8600518703460693,0.03265510872006416,-0.2902448773384094
1749044799.9039006,1.6807186603546143,-2.102199216882223,0.37191659608949834,5.399695205479421,-1.84182054201235,2.0308427810668945,-0.10186653584241867,0.009037725627422333,-0.04845822975039482,-0.02754700556397438,0.0055395448580384254,-0.17382320761680603,-0.3793213963508606,0.6596846580505371,-0.3329578638076782,-0.8698673844337463,0.039991721510887146,-0.28539469838142395
1749044799.9044766,1.6805185079574585,-2.1021911106505335,0.3718202749835413,5.399662899761953,-1.841733757649557,2.0304665565490723,-0.10144854336977005,0.010052946396172047,-0.04876749590039253,-0.026963241398334503,0.005915123503655195,-0.17807777225971222,-0.4181918501853943,0.6839200854301453,-0.33752864599227905,-0.8894314765930176,0.05610091984272003,-0.28565365076065063
1749044799.9505188,1.6802726984024048,-2.1021634540953578,0.3716848532306116,5.39958022811965,-1.8417685667621058,2.0301501750946045,-0.1070343628525734,0.009738252498209476,-0.049529414623975754,-0.028063669800758362,0.005937164183706045,-0.17750190198421478,-0.3502393960952759,0.6748854517936707,-0.33424705266952515,-0.8736469745635986,0.0490533784031868,-0.2905353605747223
1749044799.9505985,1.6800841093063354,-2.102147718469137,0.37161285081972295,5.399516629963674,-1.8417304197894495,2.029770612716675,-0.10391465574502945,0.009391801431775093,-0.04991958290338516,-0.028810881078243256,0.006226458586752415,-0.1842222511768341,-0.3788808286190033,0.6862922310829163,-0.3361802101135254,-0.8839294910430908,0.04884856194257736,-0.2723110616207123
1749044799.9506705,1.6798841953277588,-2.102123876611227,0.37151986757387334,5.399456846504965,-1.8417137304889124,2.0293898582458496,-0.10827381908893585,0.01111591886729002,-0.049809154123067856,-0.030924731865525246,0.00576316611841321,-0.18235310912132263,-0.3693932294845581,0.6795802116394043,-0.3262619376182556,-0.8856894969940186,0.05075705051422119,-0.2841547429561615
1749044799.9507425,1.6796727180480957,-2.1021744213499964,0.3714206854449671,5.399388718395986,-1.8417328039752405,2.0290143489837646,-0.10609982907772064,0.010392267256975174,-0.05007708817720413,-0.0319523811340332,0.005318389739841223,-0.18655461072921753,-0.41801193356513977,0.6674726009368896,-0.3424399197101593,-0.875739336013794,0.06069222837686539,-0.26895672082901
1749044799.9508114,1.6794769763946533,-2.102119108239645,0.3713281790362757,5.399316656380453,-1.8417051474200647,2.0286457538604736,-0.10863454639911652,0.009785562753677368,-0.05035126581788063,-0.03175022453069687,0.00520935608074069,-0.18882468342781067,-0.378417432308197,0.6966328620910645,-0.3644062578678131,-0.8698968887329102,0.06717188656330109,-0.27195727825164795
1749044799.9508805,1.6791763305664062,-2.102098604241842,0.3712046782123011,5.399284887104788,-1.8417328039752405,2.028242588043213,-0.10848027467727661,0.01038979459553957,-0.05265650525689125,-0.03196561336517334,0.005515560042113066,-0.1921781748533249,-0.37929368019104004,0.680662214756012,-0.3303402066230774,-0.8922417759895325,0.05539437383413315,-0.26246750354766846
1749044799.9509237,1.678992509841919,-2.102098604241842,0.37113887468446904,5.399209189205923,-1.8417485396014612,2.0278615951538086,-0.11229225993156433,0.01037927158176899,-0.050395455211400986,-0.031868744641542435,0.005905380472540855,-0.1914159506559372,-0.37741246819496155,0.6693583130836487,-0.362383097410202,-0.8832529783248901,0.060947977006435394,-0.24854952096939087
1749044799.9509628,1.678776741027832,-2.1020242176451625,0.37103110948671514,5.399168538838186,-1.8416970411883753,2.027442455291748,-0.11060909181833267,0.010611295700073242,-0.05094616860151291,-0.03181014955043793,0.006516218185424805,-0.19196324050426483,-0.40554219484329224,0.6936809420585632,-0.3745308220386505,-0.9122540950775146,0.050786569714546204,-0.300355464220047
1749044799.9510002,1.6785341501235962,-2.1020151577391566,0.3709042708026331,5.399093138962545,-1.841700855885641,2.0271060466766357,-0.11499423533678055,0.01019302662461996,-0.05159618705511093,-0.033045992255210876,0.0063304477371275425,-0.1928219497203827,-0.35526713728904724,0.6952023506164551,-0.3665142357349396,-0.9019113779067993,0.06764049828052521,-0.24226272106170654
1749044799.9510376,1.678295612335205,-2.102007051507467,0.3707965056048792,5.3990251300628564,-1.8416741530047815,2.0266945362091064,-0.11414140462875366,0.01022097747772932,-0.055350303649902344,-0.03384716063737869,0.00619269534945488,-0.19511093199253082,-0.37895336747169495,0.6862072348594666,-0.3409520387649536,-0.9010746479034424,0.05859781801700592,-0.27831363677978516
1749044799.9510748,1.678059697151184,-2.101964136163229,0.37069541612734014,5.398956942349233,-1.8416970411883753,2.026322841644287,-0.11447373032569885,0.010103228501975536,-0.053620196878910065,-0.03408242389559746,0.00616056565195322,-0.19957290589809418,-0.3914583921432495,0.7192963361740112,-0.3419421315193176,-0.8906297087669373,0.06499400734901428,-0.28223904967308044
1749044799.9511118,1.677837610244751,-2.101955076257223,0.3705804983722132,5.398897099285879,-1.841666046773092,2.025941848754883,-0.11461550742387772,0.010296600870788097,-0.053143180906772614,-0.03472195193171501,0.007056795060634613,-0.20238034427165985,-0.37115100026130676,0.6945436000823975,-0.3776170611381531,-0.8967016935348511,0.056230053305625916,-0.2642281651496887
1749044799.951149,1.677837610244751,-2.101955076257223,0.3705804983722132,5.398897099285879,-1.841666046773092,2.025941848754883,-0.11461550742387772,0.010296600870788097,-0.053143180906772614,-0.03472195193171501,0.007056795060634613,-0.20238034427165985,-0.37115100026130676,0.6945436000823975,-0.3776170611381531,-0.8967016935348511,0.056230053305625916,-0.2642281651496887
1749044799.951187,1.677385687828064,-2.1019040546812953,0.37036115327943975,5.39876555183486,-1.8416255156146448,2.0251007080078125,-0.1175881177186966,0.009790978394448757,-0.0556744821369648,-0.03622715547680855,0.0076045747846364975,-0.2050715535879135,-0.41408440470695496,0.6907975673675537,-0.34469664096832275,-0.9009943604469299,0.05469413101673126,-0.2632570266723633
1749044799.9512246,1.6771773099899292,-2.101946016351217,0.3702634016620081,5.3986554620559595,-1.8416441122638147,2.024712324142456,-0.119132861495018,0.010488243773579597,-0.05611630529165268,-0.03731473535299301,0.006559715606272221,-0.20501311123371124,-0.390036940574646,0.706739068031311,-0.3562377989292145,-0.8854029774665833,0.059722404927015305,-0.2573363184928894
1749044799.9512632,1.6771773099899292,-2.101946016351217,0.3702634016620081,5.3986554620559595,-1.8416441122638147,2.024712324142456,-0.119132861495018,0.010488243773579597,-0.05611630529165268,-0.03731473535299301,0.006559715606272221,-0.20501311123371124,-0.390036940574646,0.706739068031311,-0.3562377989292145,-0.8854029774665833,0.059722404927015305,-0.2573363184928894
1749044799.9513013,1.676579236984253,-2.101874967614645,0.3700164000140589,5.398515629559316,-1.8415616194354456,2.023892402648926,-0.12073332071304321,0.010470331646502018,-0.05875428766012192,-0.03854147344827652,0.006669714115560055,-0.2042894959449768,-0.3988138437271118,0.7237213850021362,-0.35328465700149536,-0.8943373560905457,0.07413753867149353,-0.29288774728775024
1749044799.951339,1.6763707399368286,-2.1018387279906214,0.3698924223529261,5.398462641030111,-1.8415892759906214,2.023491859436035,-0.12135626375675201,0.010817140340805054,-0.05716373026371002,-0.038952089846134186,0.006817912217229605,-0.20483443140983582,-0.39832860231399536,0.7037675380706787,-0.35127192735671997,-0.887814462184906,0.051617901772260666,-0.2871611416339874
1749044799.9513764,1.67616605758667,-2.1017991505064906,0.3697918097125452,5.398367035179891,-1.8415187040912073,2.023066520690918,-0.125385120511055,0.010485169477760792,-0.057193733751773834,-0.0404759906232357,0.007287262473255396,-0.20616914331912994,-0.36157169938087463,0.7012144327163696,-0.3683432936668396,-0.8867751359939575,0.06459251046180725,-0.3265199661254883
1749044799.9514146,1.67616605758667,-2.1017991505064906,0.3697918097125452,5.398367035179891,-1.8415187040912073,2.023066520690918,-0.125385120511055,0.010485169477760792,-0.057193733751773834,-0.0404759906232357,0.007287262473255396,-0.20616914331912994,-0.36157169938087463,0.7012144327163696,-0.3683432936668396,-0.8867751359939575,0.06459251046180725,-0.3265199661254883
1749044799.951452,1.6759072542190552,-2.1018110714354457,0.3696835676776331,5.398275959282675,-1.8415573279010218,2.02262282371521,-0.1230427473783493,0.010427295230329037,-0.05875980108976364,-0.039865005761384964,0.007353306282311678,-0.21193702518939972,-0.4040714204311371,0.7288368940353394,-0.37941449880599976,-0.8769295811653137,0.04188681021332741,-0.30019116401672363
1749044799.9514887,1.6753532886505127,-2.1017667255797328,0.36942798296083623,5.398120450764456,-1.841517750416891,2.0217106342315674,-0.12375142425298691,0.010902028530836105,-0.05884064733982086,-0.04114594683051109,0.0064045125618577,-0.21907362341880798,-0.40179285407066345,0.7469334602355957,-0.3667927086353302,-0.8583688139915466,0.07029974460601807,-0.284540593624115
1749044799.9516063,1.6751062870025635,-2.1017586193480433,0.36929256120790654,5.398055839329519,-1.8415105978595179,2.0213253498077393,-0.12492600083351135,0.010356131009757519,-0.06015170365571976,-0.041565634310245514,0.006254358682781458,-0.2201942652463913,-0.4032498002052307,0.726797342300415,-0.36737290024757385,-0.8665525913238525,0.06041494384407997,-0.2827605903148651
1749044799.952444,1.6748756170272827,-2.1017309627928675,0.36918718019594365,5.3979683993156335,-1.841501537953512,2.0208842754364014,-0.12581901252269745,0.01059787068516016,-0.061936844140291214,-0.041906535625457764,0.005806170869618654,-0.2197776585817337,-0.42535191774368286,0.7230483293533325,-0.35189810395240784,-0.8696809411048889,0.06346490979194641,-0.27069827914237976
1749044799.9982977,1.6745895147323608,-2.101711412469381,0.3690560499774378,5.397857177048483,-1.8414743582354944,2.0204200744628906,-0.12860502302646637,0.0110595328733325,-0.062097445130348206,-0.042805492877960205,0.005720340181142092,-0.22113411128520966,-0.4027436375617981,0.7299719452857971,-0.3334071636199951,-0.8469125628471375,0.07979507744312286,-0.2903459668159485
1749044799.9983437,1.6743419170379639,-2.101694723168844,0.3689201513873499,5.397816526680746,-1.8414900938617151,2.0199532508850098,-0.1327476054430008,0.012335186824202538,-0.06268304586410522,-0.042701173573732376,0.005660936236381531,-0.22227787971496582,-0.3981616795063019,0.7335115075111389,-0.3399793207645416,-0.8312907814979553,0.07702024281024933,-0.2961012125015259
1749044799.9983845,1.6741169691085815,-2.1016866169371546,0.3687847296344202,5.397701787739553,-1.8414629141436976,2.0194926261901855,-0.12920159101486206,0.011494101025164127,-0.0631510391831398,-0.04292282834649086,0.005949495825916529,-0.22496716678142548,-0.42116671800613403,0.7455371618270874,-0.35571861267089844,-0.8359622955322266,0.0908275842666626,-0.2915843725204468
1749044799.9984238,1.673878788948059,-2.101630826989645,0.36868364015688115,5.397602367192068,-1.8414266745196741,2.019041061401367,-0.1311902552843094,0.011119337752461433,-0.0627078041434288,-0.043677520006895065,0.0066696773283183575,-0.23010948300361633,-0.43961620330810547,0.7258669137954712,-0.3691152334213257,-0.8075674176216125,0.07606872916221619,-0.271571546792984
1749044799.9984713,1.6735683679580688,-2.1015998325743617,0.36854774156679326,5.397522198944845,-1.8414338270770472,2.0185763835906982,-0.13227194547653198,0.011231956072151661,-0.06432851403951645,-0.04449203610420227,0.007156590931117535,-0.2347673624753952,-0.41865161061286926,0.7296856641769409,-0.3305325210094452,-0.7953383922576904,0.08236537873744965,-0.2448502480983734
1749044799.9985209,1.6732656955718994,-2.1016107998290003,0.36839229265321904,5.397434937744894,-1.8414409796344202,2.0180535316467285,-0.13356202840805054,0.011081716977059841,-0.06391284614801407,-0.042267248034477234,0.007892489433288574,-0.23705202341079712,-0.4364430606365204,0.7503569722175598,-0.3493764400482178,-0.8120160102844238,0.07827736437320709,-0.23162521421909332
1749044799.9985654,1.6730413436889648,-2.101586481133932,0.36828357378114873,5.397362935334005,-1.8414137999164026,2.0176589488983154,-0.13365109264850616,0.011309335939586163,-0.06426256150007248,-0.04096905514597893,0.0074968826957046986,-0.2349526435136795,-0.4190636873245239,0.7463282942771912,-0.34437260031700134,-0.8248183727264404,0.059478919953107834,-0.22111810743808746
1749044799.9986036,1.6727626323699951,-2.101574560204977,0.3681400457965296,5.397302317410269,-1.8413861433612269,2.01719069480896,-0.13290612399578094,0.010948989540338516,-0.06500693410634995,-0.03995935991406441,0.007103913929313421,-0.2313261181116104,-0.45457810163497925,0.7424470782279968,-0.3439939618110657,-0.8283842206001282,0.061954278498888016,-0.24439793825149536
1749044799.9986415,1.67254638671875,-2.101527353326315,0.3680012861834925,5.397183644562521,-1.8413861433612269,2.016695976257324,-0.1341230720281601,0.010839113034307957,-0.06564511358737946,-0.04057866707444191,0.0063011301681399345,-0.23224900662899017,-0.45862877368927,0.7508478760719299,-0.34553617238998413,-0.819306492805481,0.06758160889148712,-0.26813387870788574
1749044799.9986794,1.6722369194030762,-2.1015268764891566,0.36789161363710576,5.397122788220205,-1.841409985219137,2.016263723373413,-0.13488350808620453,0.011469686403870583,-0.06559313088655472,-0.03998341038823128,0.005495654419064522,-0.22792845964431763,-0.46214255690574646,0.7605260014533997,-0.34507274627685547,-0.8145402073860168,0.08071325719356537,-0.31359758973121643
1749044799.9987168,1.6719269752502441,-2.10147823909902,0.3677714506732386,5.397016095906057,-1.841351334248678,2.0157761573791504,-0.13879339396953583,0.011316859163343906,-0.0661480575799942,-0.04026156663894653,0.005331703927367926,-0.23354171216487885,-0.39110812544822693,0.7412469387054443,-0.3523674011230469,-0.8159158825874329,0.10084515810012817,-0.30183345079421997
1749044799.9987545,1.6716554164886475,-2.10147823909902,0.3676236311541956,5.396978962212362,-1.8413704077350062,2.015327215194702,-0.1409495323896408,0.01134581957012415,-0.06707240641117096,-0.03885713964700699,0.0058029755018651485,-0.23642803728580475,-0.45971739292144775,0.7361245155334473,-0.3395198583602905,-0.8239815831184387,0.10623957216739655,-0.3174296021461487
1749044799.9987922,1.6713730096817017,-2.1014582119383753,0.36749536195863897,5.3968920586402795,-1.8413499037372034,2.014814615249634,-0.13944962620735168,0.01177507359534502,-0.06682834774255753,-0.03709622099995613,0.007379682268947363,-0.24066361784934998,-0.45189541578292847,0.7374240159988403,-0.35302847623825073,-0.8345473408699036,0.09880229830741882,-0.299344003200531
1749044799.9988294,1.6711056232452393,-2.101426740685934,0.3673751989947718,5.396831738739767,-1.8412841002093714,2.0143189430236816,-0.14295169711112976,0.010240651667118073,-0.06800738722085953,-0.03653790056705475,0.008175050839781761,-0.24158179759979248,-0.382302463054657,0.7621154189109802,-0.34557753801345825,-0.8515137434005737,0.09606917947530746,-0.2934609651565552
1749044799.9988658,1.6708967685699463,-2.1014181576170863,0.36723167101015264,5.396708774357595,-1.8413298765765589,2.0138232707977295,-0.1432998776435852,0.010795075446367264,-0.06737317144870758,-0.03749573603272438,0.008475011214613914,-0.24249374866485596,-0.40830129384994507,0.7447024583816528,-0.3640010356903076,-0.8393030762672424,0.07398886233568192,-0.29072311520576477
1749044799.9989026,1.6705471277236938,-2.10137476543569,0.36709577242006475,5.39663319566802,-1.8412745634662073,2.0133774280548096,-0.14666177332401276,0.010263759642839432,-0.07051809132099152,-0.03848433122038841,0.007797653321176767,-0.2415654957294464,-0.41397592425346375,0.7587299942970276,-0.3392702639102936,-0.8322861790657043,0.09397601336240768,-0.32289642095565796
1749044799.9989386,1.6702572107315063,-2.101363321343893,0.3669636885272425,5.396561312466421,-1.8412554899798792,2.012831211090088,-0.14292766153812408,0.01039845496416092,-0.06796909123659134,-0.038413308560848236,0.007441944442689419,-0.2434903085231781,-0.4753047823905945,0.7802466750144958,-0.35348567366600037,-0.8397451639175415,0.08963415771722794,-0.3328176736831665
1749044799.9989753,1.6699700355529785,-2.1013580761351527,0.36681968370546514,5.396508741169729,-1.8412745634662073,2.0123794078826904,-0.14434510469436646,0.01127711869776249,-0.06854914873838425,-0.03831106796860695,0.007209125906229019,-0.24859045445919037,-0.4487452507019043,0.7562631964683533,-0.3592042326927185,-0.8606475591659546,0.09214342385530472,-0.33088529109954834
1749044799.9990118,1.6696906089782715,-2.101323267022604,0.3666723410235804,5.396428632527151,-1.841231648121969,2.0118818283081055,-0.14742223918437958,0.010428288020193577,-0.07184271514415741,-0.03625066578388214,0.007408387493342161,-0.2573159337043762,-0.4460560977458954,0.7556903958320618,-0.33700796961784363,-0.8898513317108154,0.10352420061826706,-0.32569432258605957
1749044799.9990487,1.6693720817565918,-2.101314207116598,0.3665712515460413,5.396353411465444,-1.8412378470050257,2.011349678039551,-0.1494842916727066,0.01048017293214798,-0.06997963786125183,-0.03655373677611351,0.007964805699884892,-0.2617945969104767,-0.4344007968902588,0.7571224570274353,-0.35852062702178955,-0.881899893283844,0.09761699289083481,-0.27347835898399353
1749044799.999097,1.6693720817565918,-2.101314207116598,0.3665712515460413,5.396353411465444,-1.8412378470050257,2.011349678039551,-0.1494842916727066,0.01048017293214798,-0.06997963786125183,-0.03655373677611351,0.007964805699884892,-0.2617945969104767,-0.4344007968902588,0.7571224570274353,-0.35852062702178955,-0.881899893283844,0.09761699289083481,-0.27347835898399353
1749044799.999136,1.669077754020691,-2.101278921166891,0.36641151109804326,5.396281647473135,-1.8412345091449183,2.010777473449707,-0.1506233960390091,0.011812586337327957,-0.07133237272500992,-0.03835451602935791,0.008161029778420925,-0.2628881335258484,-0.44003230333328247,0.7722123861312866,-0.3501777946949005,-0.8857697248458862,0.09604840725660324,-0.24497555196285248
1749044799.9992452,1.669077754020691,-2.101278921166891,0.36641151109804326,5.396281647473135,-1.8412345091449183,2.010777473449707,-0.1506233960390091,0.011812586337327957,-0.07133237272500992,-0.03835451602935791,0.008161029778420925,-0.2628881335258484,-0.44003230333328247,0.7722123861312866,-0.3501777946949005,-0.8857697248458862,0.09604840725660324,-0.24497555196285248
1749044800.0004685,1.6681064367294312,-2.101241727868551,0.3659914175616663,5.396026360779562,-1.8411901632892054,2.009284257888794,-0.15281140804290771,0.011062726378440857,-0.0729493722319603,-0.040127839893102646,0.006849907338619232,-0.2561732828617096,-0.4373873472213745,0.7689552307128906,-0.3480554521083832,-0.9097623825073242,0.11097211390733719,-0.32342368364334106
1749044800.042477,1.667860984802246,-2.101201673547262,0.3658388296710413,5.395993220597067,-1.841170612965719,2.008760452270508,-0.15409812331199646,0.011099324561655521,-0.07581198960542679,-0.04067905992269516,0.006829950958490372,-0.2574186325073242,-0.41711753606796265,0.7554441094398499,-0.33896002173423767,-0.9003057479858398,0.10772570222616196,-0.3477988541126251
1749044800.042535,1.6675740480422974,-2.101159235040182,0.3656685988055628,5.3958589909370325,-1.8412054220782679,2.0082554817199707,-0.15815424919128418,0.012229761108756065,-0.07469857484102249,-0.04197236895561218,0.006862812675535679,-0.26308271288871765,-0.474304735660553,0.7648751735687256,-0.32781773805618286,-0.9226276278495789,0.10633251816034317,-0.3489755094051361
1749044800.0425785,1.667251467704773,-2.1011816463866175,0.3655660788165491,5.395763385086813,-1.8411157766925257,2.0076539516448975,-0.1574827879667282,0.011339155025780201,-0.0736083909869194,-0.04383363947272301,0.007469287607818842,-0.26924851536750793,-0.46535515785217285,0.7756748795509338,-0.34031975269317627,-0.9031489491462708,0.11560201644897461,-0.31796735525131226
1749044800.0426202,1.6669479608535767,-2.1011301479735316,0.3654068152057093,5.395679759770193,-1.8410847822772425,2.0071396827697754,-0.159402996301651,0.011938332580029964,-0.07753913849592209,-0.045519523322582245,0.007882796227931976,-0.27333393692970276,-0.4088626801967621,0.762849748134613,-0.3177363872528076,-0.9005900025367737,0.1285165250301361,-0.29505571722984314
1749044800.0426607,1.6666457653045654,-2.1011105976500453,0.36524707475771123,5.39559947231368,-1.8410685698138636,2.0065672397613525,-0.1583094745874405,0.011873544193804264,-0.07517704367637634,-0.046513330191373825,0.008892446756362915,-0.2699020206928253,-0.46341198682785034,0.7591784000396729,-0.3329308032989502,-0.9064571857452393,0.11749531328678131,-0.3009670376777649
1749044800.0427191,1.6662955284118652,-2.1010781727232875,0.3651064077960413,5.395500230580129,-1.8410795370685022,2.0060269832611084,-0.1606910079717636,0.012419109232723713,-0.0753013864159584,-0.046821631491184235,0.00917969923466444,-0.2716941833496094,-0.42726969718933105,0.751366913318634,-0.35387328267097473,-0.8999254703521729,0.11030218005180359,-0.29470568895339966
1749044800.0427809,1.6660230159759521,-2.101070066491598,0.3649194876300257,5.3953924653823755,-1.8411110083209437,2.0054664611816406,-0.16459107398986816,0.011585395783185959,-0.0761885792016983,-0.04731528088450432,0.0095807034522295,-0.2712865471839905,-0.4308012127876282,0.7735483050346375,-0.34280407428741455,-0.8917216062545776,0.09971003979444504,-0.319819837808609
1749044800.0428228,1.6656659841537476,-2.1010576687254847,0.36477548280824834,5.395331549435415,-1.841039005910055,2.0048863887786865,-0.16273562610149384,0.011387012898921967,-0.07645899802446365,-0.0484655536711216,0.00905981007963419,-0.2778536081314087,-0.4133070111274719,0.7435981631278992,-0.33740711212158203,-0.8767744898796082,0.10864164680242538,-0.31458115577697754
1749044800.042862,1.665334939956665,-2.1010176144041957,0.36463815370668584,5.395201074868002,-1.8410008589373987,2.004333734512329,-0.16310223937034607,0.011455545201897621,-0.07667482644319534,-0.05016801878809929,0.008580740541219711,-0.2836817502975464,-0.45826807618141174,0.7728784680366516,-0.3453260660171509,-0.8922977447509766,0.1063159629702568,-0.25302642583847046
1749044800.0429,1.6650389432907104,-2.100978990594381,0.3644598166095179,5.395086335926809,-1.840980354939596,2.0036842823028564,-0.1634807586669922,0.011642102152109146,-0.0768638476729393,-0.05145671218633652,0.008749800734221935,-0.2839716672897339,-0.4580714702606201,0.7757676243782043,-0.35726314783096313,-0.8925285935401917,0.10226286947727203,-0.23052804172039032
1749044800.0429375,1.6646963357925415,-2.1009699306883753,0.3643382231341761,5.394997644215383,-1.8410308996783655,2.0031661987304688,-0.1644306182861328,0.01145661249756813,-0.07721583545207977,-0.05178038775920868,0.009158853441476822,-0.2807195782661438,-0.4728411138057709,0.7875891327857971,-0.3511068820953369,-0.8617449998855591,0.08694164454936981,-0.25400984287261963
1749044800.042975,1.664350986480713,-2.1009651623167933,0.36414796510805303,5.394898164063253,-1.8409994284259241,2.002629280090332,-0.1657571941614151,0.011769882403314114,-0.07847126573324203,-0.051385313272476196,0.008547787554562092,-0.27289018034935,-0.4663195312023163,0.7708059549331665,-0.35934096574783325,-0.8727210760116577,0.0981079488992691,-0.2792285084724426
1749044800.0430124,1.6640352010726929,-2.1009537182249964,0.3640225569354456,5.394793975144186,-1.8409770170794886,2.002101182937622,-0.1677132546901703,0.011449044570326805,-0.07907615602016449,-0.0519227497279644,0.007832824252545834,-0.27286577224731445,-0.44835373759269714,0.7958638668060303,-0.34418758749961853,-0.8776751756668091,0.13997191190719604,-0.31057482957839966
1749044800.0430505,1.6636931896209717,-2.1008979282774867,0.3638857046710413,5.39468281248168,-1.8409832159625452,2.0015571117401123,-0.16742224991321564,0.011764801107347012,-0.0786266028881073,-0.05311598256230354,0.00746450200676918,-0.2769819498062134,-0.453116238117218,0.7775259017944336,-0.344326376914978,-0.8680589199066162,0.14033736288547516,-0.3435545861721039
1749044800.0430882,1.6633576154708862,-2.1008697948851527,0.36371070543398076,5.3945631859596155,-1.840975586568014,2.0009775161743164,-0.1697269082069397,0.011840110644698143,-0.07883556187152863,-0.053674109280109406,0.007375489454716444,-0.282609760761261,-0.4393511116504669,0.7878981232643127,-0.3462613821029663,-0.8482809066772461,0.13788650929927826,-0.3327611982822418
1749044800.0431254,1.6630150079727173,-2.1008316479124964,0.36352378526796514,5.394452142506399,-1.84094745317568,2.0004160404205322,-0.17156365513801575,0.011343063786625862,-0.07912053912878036,-0.05371702462434769,0.007545522414147854,-0.28801390528678894,-0.4295441210269928,0.7979516386985779,-0.37344807386398315,-0.8437478542327881,0.14727683365345,-0.29022514820098877
1749044800.0431623,1.662684440612793,-2.100853582421774,0.36338645616640264,5.3943670866783044,-1.840888802205221,1.9998278617858887,-0.17125044763088226,0.011714169755578041,-0.08068845421075821,-0.053808730095624924,0.009194901213049889,-0.2919608950614929,-0.4571012854576111,0.7858662605285645,-0.35004955530166626,-0.8194458484649658,0.12374864518642426,-0.2802896797657013
1749044800.043203,1.6622989177703857,-2.1008173427977503,0.3632152716266077,5.394236492901602,-1.840907398854391,1.9992566108703613,-0.17058272659778595,0.01175245363265276,-0.08079691231250763,-0.053284939378499985,0.010982039384543896,-0.29065704345703125,-0.4819800853729248,0.802183210849762,-0.3518437147140503,-0.8406626582145691,0.11641514301300049,-0.34214144945144653
1749044800.0432413,1.6619786024093628,-2.100778718987936,0.3630474249469202,5.394148158818044,-1.840921703969137,1.998648762702942,-0.17049840092658997,0.011849305592477322,-0.08412759751081467,-0.05316641926765442,0.010745152831077576,-0.293362557888031,-0.47619664669036865,0.8016828894615173,-0.3261224627494812,-0.8187142610549927,0.12595438957214355,-0.328330934047699
1749044800.043278,1.6619786024093628,-2.100778718987936,0.3630474249469202,5.394148158818044,-1.840921703969137,1.998648762702942,-0.17049840092658997,0.011849305592477322,-0.08412759751081467,-0.05316641926765442,0.010745152831077576,-0.293362557888031,-0.47619664669036865,0.8016828894615173,-0.3261224627494812,-0.8187142610549927,0.12595438957214355,-0.328330934047699
1749044800.0433888,1.661621332168579,-2.1008006534972132,0.3628752867328089,5.394012975483694,-1.840848747883932,1.9981111288070679,-0.1734173446893692,0.012376639060676098,-0.0818210244178772,-0.05388243496417999,0.00997145101428032,-0.2982540726661682,-0.42210808396339417,0.8012338280677795,-0.3459659516811371,-0.8252633213996887,0.11479949951171875,-0.32142922282218933
1749044800.0445197,1.6609382629394531,-2.1007334194579066,0.36255151430238897,5.393812942295828,-1.8408477942096155,1.996830701828003,-0.17612643539905548,0.012574982829391956,-0.08487126976251602,-0.05431235954165459,0.00830793660134077,-0.3055535852909088,-0.4402964413166046,0.8035554885864258,-0.3086957037448883,-0.8117733001708984,0.13052670657634735,-0.2577129006385803
1749044800.0862827,1.6605726480484009,-2.1007095775999964,0.36238319078554326,5.393682527333059,-1.8408477942096155,1.9962211847305298,-0.178000345826149,0.012120065279304981,-0.08454358577728271,-0.05287815257906914,0.008968180976808071,-0.30530843138694763,-0.4127761721611023,0.8059383630752563,-0.33680254220962524,-0.7970249056816101,0.13382510840892792,-0.2528494894504547
1749044800.0863287,1.6602253913879395,-2.1006661854186,0.36220008531679326,5.393597590714254,-1.840815846120016,1.9956390857696533,-0.1781250387430191,0.012758493423461914,-0.08552105724811554,-0.052349891513586044,0.009611682035028934,-0.30194079875946045,-0.43702319264411926,0.7891553640365601,-0.33022764325141907,-0.7979667782783508,0.1280868500471115,-0.3150792121887207
1749044800.0863767,1.6598668098449707,-2.1006223164000453,0.3620665709124964,5.393501746445455,-1.8408001104937952,1.9950894117355347,-0.1811923384666443,0.012752143666148186,-0.08652222156524658,-0.052951958030462265,0.009612306952476501,-0.3015826642513275,-0.4542776644229889,0.8258135318756104,-0.3192342519760132,-0.802254319190979,0.11469389498233795,-0.3510986566543579
1749044800.0864372,1.6595155000686646,-2.1006185017027796,0.36188966432680303,5.39339433887557,-1.8407920042621058,1.9944778680801392,-0.17943014204502106,0.013561906293034554,-0.08621194958686829,-0.0522502101957798,0.009363018907606602,-0.3062351942062378,-0.45349329710006714,0.7975696921348572,-0.32709699869155884,-0.779729425907135,0.15794745087623596,-0.33327725529670715
1749044800.0864806,1.659130573272705,-2.100617071191305,0.3617146650897425,5.3932867524917505,-1.8407519499408167,1.993847370147705,-0.17905031144618988,0.012553523294627666,-0.08681423962116241,-0.05049663037061691,0.008793585002422333,-0.3115623891353607,-0.47948378324508667,0.7916290760040283,-0.3211582899093628,-0.811882734298706,0.1426718533039093,-0.2936325967311859
1749044800.08652,1.6587791442871094,-2.1005612812437953,0.36154300371278936,5.393199133663931,-1.8407171408282679,1.9932066202163696,-0.1824910044670105,0.012974015437066555,-0.08657640218734741,-0.04729791730642319,0.009325672872364521,-0.3139776587486267,-0.4283466935157776,0.8234500885009766,-0.3224675953388214,-0.8163893818855286,0.15461912751197815,-0.2893914580345154
1749044800.086559,1.658406138420105,-2.10054936031484,0.3613627592669886,5.393126415997305,-1.8407161871539515,1.992563009262085,-0.18330582976341248,0.01293258648365736,-0.08543410152196884,-0.04609420523047447,0.010410317219793797,-0.3101678192615509,-0.42508554458618164,0.8070361018180847,-0.3436954617500305,-0.8415743112564087,0.13599362969398499,-0.30059096217155457
1749044800.0865965,1.658057689666748,-2.1005011997618617,0.3612259070025843,5.392995464592733,-1.8407042662249964,1.9920207262039185,-0.18595729768276215,0.012979768216609955,-0.08906648308038712,-0.04691794514656067,0.011144295334815979,-0.3123805522918701,-0.43042850494384766,0.8175994753837585,-0.3215084969997406,-0.8406252861022949,0.11266186833381653,-0.3142855167388916
1749044800.0866342,1.657659888267517,-2.100473543206686,0.3610337416278284,5.392946886807241,-1.8406994978534144,1.9913603067398071,-0.18416282534599304,0.013558437116444111,-0.08704426884651184,-0.04762694984674454,0.011497258208692074,-0.3160993456840515,-0.44451871514320374,0.8169376850128174,-0.32760247588157654,-0.85897296667099,0.126435324549675,-0.3305583596229553
1749044800.0866725,1.6573050022125244,-2.100462099114889,0.3608468214618128,5.39283578374938,-1.8406832853900355,1.9906833171844482,-0.18363229930400848,0.01275504007935524,-0.08790647238492966,-0.04681969806551933,0.01069499459117651,-0.3214874267578125,-0.44601625204086304,0.8054921627044678,-0.3340465724468231,-0.8781638145446777,0.13065996766090393,-0.3054521083831787
1749044800.0867105,1.6573050022125244,-2.100462099114889,0.3608468214618128,5.39283578374938,-1.8406832853900355,1.9906833171844482,-0.18363229930400848,0.01275504007935524,-0.08790647238492966,-0.04681969806551933,0.01069499459117651,-0.3214874267578125,-0.44601625204086304,0.8054921627044678,-0.3340465724468231,-0.8781638145446777,0.13065996766090393,-0.3054521083831787
1749044800.0867474,1.656625747680664,-2.1004401646056117,0.3604987303363245,5.39262484291152,-1.8406131903277796,1.9893734455108643,-0.18721310794353485,0.013828735798597336,-0.08816472440958023,-0.04906244948506355,0.009493064135313034,-0.3280189335346222,-0.45639410614967346,0.837687611579895,-0.34629008173942566,-0.8899196982383728,0.1255957931280136,-0.2478693276643753
1749044800.0867836,1.6562130451202393,-2.100405355493063,0.3603099028216761,5.3925292370613,-1.8405807654010218,1.9887666702270508,-0.18920151889324188,0.013912596739828587,-0.08882267028093338,-0.05007745698094368,0.009171547368168831,-0.3237003684043884,-0.4316689372062683,0.8084006309509277,-0.3292372226715088,-0.8650963306427002,0.13094565272331238,-0.27088961005210876
1749044800.0868216,1.6562130451202393,-2.100405355493063,0.3603099028216761,5.3925292370613,-1.8405807654010218,1.9887666702270508,-0.18920151889324188,0.013912596739828587,-0.08882267028093338,-0.05007745698094368,0.009171547368168831,-0.3237003684043884,-0.4316689372062683,0.8084006309509277,-0.3292372226715088,-0.8650963306427002,0.13094565272331238,-0.27088961005210876
1749044800.086858,1.6554514169692993,-2.100332876245016,0.3599312941180628,5.3923255679901025,-1.840576473866598,1.987432837486267,-0.19175086915493011,0.013178631663322449,-0.09025124460458755,-0.048658739775419235,0.010182534344494343,-0.3229135274887085,-0.46872398257255554,0.8290639519691467,-0.3415120542049408,-0.9002751708030701,0.13379092514514923,-0.31407463550567627
1749044800.0868943,1.6550763845443726,-2.1003366909422816,0.35972673097719365,5.392252850323477,-1.8405416647540491,1.9867644309997559,-0.1928626298904419,0.012826821766793728,-0.09128329157829285,-0.049229368567466736,0.010050645098090172,-0.3250634968280792,-0.44673508405685425,0.8436114192008972,-0.32862111926078796,-0.9193994998931885,0.15435472130775452,-0.30128732323646545
1749044800.086931,1.6546783447265625,-2.100300451318258,0.3595626989947718,5.392118620663442,-1.840536896382467,1.986122965812683,-0.19306416809558868,0.013503325171768665,-0.09185781329870224,-0.05196832865476608,0.010772612877190113,-0.32674846053123474,-0.43851932883262634,0.8495414853096008,-0.33358049392700195,-0.8996986150741577,0.14930790662765503,-0.3021785020828247
1749044800.086968,1.6546783447265625,-2.100300451318258,0.3595626989947718,5.392118620663442,-1.840536896382467,1.986122965812683,-0.19306416809558868,0.013503325171768665,-0.09185781329870224,-0.05196832865476608,0.010772612877190113,-0.32674846053123474,-0.43851932883262634,0.8495414853096008,-0.33358049392700195,-0.8996986150741577,0.14930790662765503,-0.3021785020828247
1749044800.0870056,1.6539057493209839,-2.100218435327047,0.3591864744769495,5.391910660057821,-1.8405235449420374,1.984883427619934,-0.19489477574825287,0.013775201514363289,-0.09379981458187103,-0.05525200068950653,0.010649433359503746,-0.3277779817581177,-0.4740350842475891,0.8422702550888062,-0.3099954128265381,-0.9100866317749023,0.14449024200439453,-0.36213159561157227
1749044800.0870426,1.6534770727157593,-2.100166460076803,0.35902578035463506,5.391771662026205,-1.8405197302447718,1.9841914176940918,-0.1978292018175125,0.01425726804882288,-0.0944986417889595,-0.05634945258498192,0.010492349974811077,-0.3331820070743561,-0.4373137056827545,0.8315057754516602,-0.32324105501174927,-0.9049350023269653,0.13969115912914276,-0.33919304609298706
1749044800.0871491,1.6531082391738892,-2.1001702747740687,0.3588212172137659,5.391663896828451,-1.8404539267169397,1.9835151433944702,-0.19783295691013336,0.014234215952455997,-0.09257002919912338,-0.057275064289569855,0.010361813940107822,-0.3376716375350952,-0.4088112711906433,0.8430487513542175,-0.3314903676509857,-0.899341881275177,0.130764901638031,-0.31630048155784607
1749044800.0884542,1.6531082391738892,-2.1001702747740687,0.3588212172137659,5.391663896828451,-1.8404539267169397,1.9835151433944702,-0.19783295691013336,0.014234215952455997,-0.09257002919912338,-0.057275064289569855,0.010361813940107822,-0.3376716375350952,-0.4088112711906433,0.8430487513542175,-0.3314903676509857,-0.899341881275177,0.130764901638031,-0.31630048155784607
1749044800.1302855,1.6523005962371826,-2.1001292667784632,0.35841161409486944,5.3914440152938745,-1.840410057698385,1.9821443557739258,-0.19909349083900452,0.014529066160321236,-0.09570246189832687,-0.059251055121421814,0.010836328379809856,-0.34007424116134644,-0.4110028147697449,0.8474552035331726,-0.3004048764705658,-0.8911685943603516,0.16972357034683228,-0.31164833903312683
1749044800.130331,1.6518974304199219,-2.100096365014547,0.35825807252992803,5.391308831959524,-1.8403814474688929,1.9814741611480713,-0.19721265137195587,0.014385591261088848,-0.09488781541585922,-0.0599188394844532,0.0114444550126791,-0.34082579612731934,-0.4072078764438629,0.8292346596717834,-0.3308945894241333,-0.8822453022003174,0.1648624837398529,-0.3170875012874603
1749044800.1303713,1.6514784097671509,-2.100072523156637,0.35803443590273076,5.391173469811239,-1.8403657118426722,1.9807432889938354,-0.19617414474487305,0.013784934766590595,-0.09542155265808105,-0.060852598398923874,0.012274142354726791,-0.34113144874572754,-0.42317238450050354,0.8554679155349731,-0.3246268332004547,-0.874747097492218,0.14925871789455414,-0.32373809814453125
1749044800.130411,1.6514784097671509,-2.100072523156637,0.35803443590273076,5.391173469811239,-1.8403657118426722,1.9807432889938354,-0.19617414474487305,0.013784934766590595,-0.09542155265808105,-0.060852598398923874,0.012274142354726791,-0.34113144874572754,-0.42317238450050354,0.8554679155349731,-0.3246268332004547,-0.874747097492218,0.14925871789455414,-0.32373809814453125
1749044800.130452,1.6510497331619263,-2.100048681298727,0.3578546682940882,5.3910297630126855,-1.8403814474688929,1.9800689220428467,-0.19713181257247925,0.013690951280295849,-0.09648491442203522,-0.06264244765043259,0.012385043315589428,-0.3425509035587311,-0.4816924035549164,0.8796105980873108,-0.3263462781906128,-0.861390233039856,0.1369902491569519,-0.35597485303878784
1749044800.1304932,1.6502714157104492,-2.0999537907042445,0.3574894110309046,5.390759277134695,-1.8403494993792933,1.9786548614501953,-0.20327584445476532,0.015131275169551373,-0.09616086632013321,-0.06679262965917587,0.00994211807847023,-0.34832945466041565,-0.4224134385585785,0.8366376757621765,-0.3441008925437927,-0.8294645547866821,0.16004614531993866,-0.3270225524902344
1749044800.1305315,1.6498645544052124,-2.099957128564352,0.35730106035341436,5.390654074936666,-1.840271298085348,1.9780014753341675,-0.2006118893623352,0.014949122443795204,-0.09594094753265381,-0.06679102778434753,0.009610958397388458,-0.34897589683532715,-0.40850305557250977,0.853556752204895,-0.30321556329727173,-0.8062100410461426,0.17267848551273346,-0.32449012994766235
1749044800.130569,1.6498645544052124,-2.099957128564352,0.35730106035341436,5.390654074936666,-1.840271298085348,1.9780014753341675,-0.2006118893623352,0.014949122443795204,-0.09594094753265381,-0.06679102778434753,0.009610958397388458,-0.34897589683532715,-0.40850305557250977,0.853556752204895,-0.30321556329727173,-0.8062100410461426,0.17267848551273346,-0.32449012994766235
1749044800.1306064,1.6490676403045654,-2.099901338616842,0.3568819204913538,5.390403139382162,-1.840285603200094,1.9765797853469849,-0.2037331461906433,0.015295089222490788,-0.09825880080461502,-0.0682089701294899,0.011105289682745934,-0.35583820939064026,-0.4211507737636566,0.8683071136474609,-0.3130720853805542,-0.7885615825653076,0.16680854558944702,-0.3244888484477997
1749044800.1306436,1.648626685142517,-2.0998765430846156,0.35667115846742803,5.390240120678701,-1.8402579466449183,1.9758857488632202,-0.20566245913505554,0.015378105454146862,-0.09753620624542236,-0.06742572039365768,0.011286099441349506,-0.3562200665473938,-0.4042733311653137,0.8606456518173218,-0.3222161531448364,-0.7775264978408813,0.15337076783180237,-0.29019415378570557
1749044800.1306808,1.6482270956039429,-2.099840303460592,0.3565014044391077,5.390112149506368,-1.8402417341815394,1.975136160850525,-0.2056576907634735,0.01589233987033367,-0.09811707586050034,-0.06356895714998245,0.011093903332948685,-0.3560117185115814,-0.43297019600868225,0.8495666980743408,-0.3206937909126282,-0.7769505381584167,0.15561699867248535,-0.28182336688041687
