nimar13/UR3e_dataset_trayectorias/trayectorias_ejecutadas/quintic_func/trayectoria_228_result.csv
timestamp,q1,q2,q3,q4,q5,q6,qd1,qd2,qd3,qd4,qd5,qd6,tau1,tau2,tau3,tau4,tau5,tau6
1749045356.454299,-3.965787474309103,-2.4505678615965785,-1.9462273120880127,2.88870017110791,0.7052438855171204,-3.2313149611102503,0.001723596709780395,0.0003558373427949846,0.0011133539956063032,-0.0005876612849533558,-9.844055603025481e-05,0.0013282502768561244,-0.031062517315149307,0.8915366530418396,0.0693843886256218,-0.38878118991851807,0.16682691872119904,0.03359200432896614
1749045356.4543474,-3.965764824544088,-2.450564523736471,-1.9461992979049683,2.8887082773395996,0.7052403688430786,-3.2312875429736536,0.0016588631551712751,0.00033383569098077714,0.001292590401135385,-0.000529766024556011,-9.581984340911731e-05,0.0012489105574786663,-0.03872000798583031,0.8980198502540588,0.08523833751678467,-0.40632790327072144,0.1766328364610672,0.003402862697839737
1749045356.4543881,-3.9658029715167444,-2.4505797825255335,-1.9461957216262817,2.888712092036865,0.7052093148231506,-3.2313221136676233,0.0013658342650160193,0.0003143950889352709,0.0013998047215864062,-0.00048227887600660324,-9.333495108876377e-05,0.0011476515792310238,-0.03972403332591057,0.9003590941429138,0.07737919688224792,-0.4061260223388672,0.18669064342975616,-0.006024450063705444
1749045356.4544268,-3.9657493273364466,-2.450517793694967,-1.9462190866470337,2.888692541713379,0.7052714824676514,-3.2313221136676233,0.0012811326887458563,0.0002970965579152107,0.001307350816205144,-0.0004426123632583767,-9.097580914385617e-05,0.0009722645627334714,-0.04546905681490898,0.87730473279953,0.0733235627412796,-0.402679443359375,0.17853601276874542,0.0015521794557571411
1749045356.454465,-3.965760056172506,-2.4505368671812953,-1.9462345838546753,2.8886963564106445,0.7052093148231506,-3.231303040181295,0.0009813158540055156,0.000281602144241333,0.0011021399404853582,-0.00040901394095271826,-8.873298793332651e-05,0.0009197919280268252,-0.049346547573804855,0.8829914927482605,0.07627250254154205,-0.3911926746368408,0.1731257289648056,0.009216558188199997
1749045356.454503,-3.9657374064074915,-2.4505487881102503,-1.9462029933929443,2.8887273508259277,0.7052128314971924,-3.2313221136676233,0.0007995269843377173,0.00022755310055799782,0.0010359141742810607,-0.00038016107282601297,-8.659828017698601e-05,0.0008145066676661372,-0.07578413188457489,0.8828622698783875,0.070136159658432,-0.39301639795303345,0.17468683421611786,0.003539402037858963
1749045356.4545412,-3.965760056172506,-2.450517793694967,-1.9461992979049683,2.8887082773395996,0.7052249908447266,-3.23129111925234,0.0006787083693780005,0.0002125471510225907,0.000931103655602783,-0.0003551084955688566,-8.456363138975576e-05,0.0007778290309943259,-0.05426269397139549,0.8800526261329651,0.07186008989810944,-0.39942270517349243,0.16035164892673492,0.00891239196062088
1749045356.4545784,-3.9657092730151575,-2.4505678615965785,-1.9462029933929443,2.888712092036865,0.7051974534988403,-3.2312756220446985,0.0005896336515434086,0.00020292028784751892,0.0008260019239969552,-0.00033317101770080626,-8.262253686552867e-05,0.0007253995281644166,-0.04821457341313362,0.879671037197113,0.07296242564916611,-0.4017288088798523,0.1624433845281601,-0.008965488523244858
1749045356.454616,-3.9657684008227747,-2.4505487881102503,-1.9462029933929443,2.888704462642334,0.7052249312400818,-3.231295887623922,0.0005213252152316272,0.00019416383292991668,0.0007409724639728665,-0.0003137852472718805,-8.07684991741553e-05,0.0006876722327433527,-0.058514002710580826,0.8585954308509827,0.08007657527923584,-0.401386559009552,0.1599019318819046,-0.002788923680782318
1749045356.4546535,-3.965738360081808,-2.4505678615965785,-1.9462065696716309,2.8887273508259277,0.7052334547042847,-3.231279198323385,0.0004671769274864346,0.0001861324708443135,0.0006717501091770828,-0.0002965289750136435,-5.899968164158054e-05,0.0006692319293506444,-0.04344126209616661,0.8480039238929749,0.0608019158244133,-0.39708763360977173,0.16512934863567352,0.013827655464410782
1749045356.454691,-3.965710465108053,-2.4505487881102503,-1.9462029933929443,2.8887311655231933,0.7052334547042847,-3.2313149611102503,0.00042319370550103486,0.0001787393557606265,0.0005063392454758286,-0.000281082175206393,-2.7485742975841276e-05,0.0006196021568030119,-0.08346571028232574,0.8237583041191101,0.055293794721364975,-0.39305591583251953,0.15523995459079742,0.0039510466158390045
1749045356.454728,-3.965760056172506,-2.4505678615965785,-1.9462065696716309,2.888712092036865,0.7052334547042847,-3.23129111925234,0.0003174461016897112,0.00017191025835927576,0.00044308119686320424,-0.0002671624533832073,-2.153294553863816e-05,0.0005717403837479651,-0.08268637955188751,0.8446911573410034,0.07186469435691833,-0.3857342600822449,0.15107758343219757,0.00480145588517189
1749045356.4547658,-3.965752903615133,-2.4505750141539515,-1.9462308883666992,2.8887154298969726,0.7052522897720337,-3.23129111925234,0.0002850376768037677,0.00016558451170567423,0.0004025168891530484,-0.0002545540046412498,-2.011397918977309e-05,0.0005298330215737224,-0.08065727353096008,0.8441186547279358,0.06473032385110855,-0.39564067125320435,0.1493745595216751,-3.032386302947998e-05
1749045356.4548028,-3.9657684008227747,-2.450540681878561,-1.9462226629257202,2.888712092036865,0.705276370048523,-3.231260124837057,0.0002640414168126881,0.00015970782260410488,0.0003693822945933789,-0.00024309029686264694,-1.951200101757422e-05,0.00046919466694816947,-0.06618255376815796,0.8446910977363586,0.07123975455760956,-0.38539713621139526,0.1451389342546463,-0.014555113390088081
1749045356.4548392,-3.9657719771014612,-2.450529714623922,-1.9461992979049683,2.8886892038532714,0.7051939368247986,-3.23129111925234,0.00018651537538971752,0.00012369832256808877,0.0003413359518162906,-0.0002326120884390548,-1.9069193513132632e-05,0.0003969356184825301,-0.09244079887866974,0.8341429233551025,0.08132519572973251,-0.3920134902000427,0.1524818390607834,-0.004246499389410019
1749045356.4548762,-3.9657493273364466,-2.4505258999266566,-1.9462190866470337,2.8886892038532714,0.7051835060119629,-3.23129111925234,0.00017272024706471711,0.00011930091568501666,0.00031725221197120845,-0.000222996502998285,-1.8668397387955338e-05,0.0003596190072130412,-0.10243721306324005,0.8214465975761414,0.07036513090133667,-0.3896723985671997,0.14687754213809967,-0.0026680417358875275
1749045356.4549134,-3.9657564798938196,-2.450529714623922,-1.9461910724639893,2.888712092036865,0.7052145004272461,-3.23129111925234,-0.00011352221918059513,9.574794967193156e-05,0.00029634611564688385,-0.00021415049559436738,-1.828808854043018e-05,0.00033202909980900586,-0.08789332211017609,0.8179115653038025,0.05577107146382332,-0.3808615207672119,0.14629562199115753,0.006271682679653168
1749045356.45495,-3.965811316167013,-2.4505330524840296,-1.9462065696716309,2.8886963564106445,0.7052162885665894,-3.2313221136676233,-0.00019886136578861624,8.40009524836205e-05,0.00027802714612334967,-0.00020597812545020133,-3.261562960688025e-05,0.00030901507125236094,-0.07973544299602509,0.8071079850196838,0.0632789134979248,-0.3901709318161011,0.14151223003864288,0.0030026882886886597
1749045356.454987,-3.9657302538501185,-2.4505139789977015,-1.9461874961853027,2.888704462642334,0.7052128314971924,-3.231325928364889,-0.0002477917296346277,8.138354314723983e-05,0.0002618419530335814,-0.00019840434833895415,-4.069983333465643e-05,0.00028909885440953076,-0.06978411972522736,0.8110185265541077,0.0629022940993309,-0.3713955879211426,0.13190628588199615,-0.006663892418146133
1749045356.4550238,-3.9657684008227747,-2.4505678615965785,-1.9461874961853027,2.8887082773395996,0.7052023410797119,-3.231283966694967,-0.00023361248895525932,7.932075095595792e-05,0.00024743768153712153,-0.00019137193157803267,-4.9586840759729967e-05,0.00027161225443705916,-0.10162241756916046,0.8131514191627502,0.05304418131709099,-0.3785438537597656,0.12448583543300629,0.005415651947259903
1749045356.4550602,-3.9657684008227747,-2.4505449734129847,-1.9461992979049683,2.888692541713379,0.7052093148231506,-3.2312827746020716,-0.00021940101578366011,-6.305049464572221e-05,0.00023453675385098904,-0.00018481974257156253,-6.260129157453775e-05,0.0002561363799031824,-0.0781136304140091,0.813535749912262,0.0656079575419426,-0.3787190914154053,0.1398288756608963,-0.016746781766414642
1749045356.4550967,-3.9657684008227747,-2.450517793694967,-1.9462029933929443,2.8887240129658203,0.7052285075187683,-3.231283966694967,-0.0002067967870971188,-6.223326636245474e-05,0.0002229146775789559,-0.0001786995999282226,-0.0001693540543783456,0.00024232854775618762,-0.09768052399158478,0.8140018582344055,0.06032443791627884,-0.3742169737815857,0.1299009472131729,-0.022434042766690254
1749045356.4552023,-3.965752903615133,-2.4505678615965785,-1.9462153911590576,2.8887082773395996,0.7052128314971924,-3.23129111925234,-0.00019555499602574855,-8.994575182441622e-05,0.0002123904851032421,-0.00017297455633524805,-0.0003103259077761322,0.00022992953017819673,-0.08398963510990143,0.7995142340660095,0.06828715652227402,-0.3886070251464844,0.12816976010799408,0.004151243716478348
1749045356.4564598,-3.9657910505877894,-2.4505487881102503,-1.9462065696716309,2.8887273508259277,0.7052215337753296,-3.23129111925234,-0.0002313786681042984,-8.732746937312186e-05,0.00020281555771362036,-0.00016760433209128678,-0.00036134416586719453,0.00021874575759284198,-0.11432866752147675,0.7959280610084534,0.07589635252952576,-0.38819509744644165,0.12677793204784393,-0.018642164766788483
1749045356.4982839,-3.9657910505877894,-2.4505378208556117,-1.9462190866470337,2.8887273508259277,0.7051973938941956,-3.2312637011157435,-0.00022048971732147038,-8.459421223960817e-05,0.00019406697538215667,-0.00016255550144705921,-0.0003560826007742435,0.00020859837241005152,-0.09199602901935577,0.7955309748649597,0.06876170635223389,-0.3862721920013428,0.10816045105457306,0.0021708719432353973
1749045356.4983335,-3.965764824544088,-2.4505678615965785,-1.9462190866470337,2.8887240129658203,0.7052285075187683,-3.231272045766012,-0.00021019420819357038,-8.202436583815143e-05,0.00018604159413371235,-0.0001578052033437416,-0.00036900100531056523,0.0001993469923036173,-0.09605203568935394,0.7871195673942566,0.05096667259931564,-0.3768761157989502,0.12033350765705109,0.0036409087479114532
1749045356.4983761,-3.965799395238058,-2.450583597222799,-1.9462029933929443,2.8886963564106445,0.7052592635154724,-3.2313221136676233,-0.0002008138399105519,-0.00010529896098887548,0.00017865437257569283,-0.0001533237809780985,-0.00036652025301009417,0.00019088796398136765,-0.10748554766178131,0.7998344302177429,0.05922522395849228,-0.3695710301399231,0.125106081366539,-0.022843031212687492
1749045356.4984162,-3.9657684008227747,-2.4505726299681605,-1.9462029933929443,2.8887082773395996,0.7052249908447266,-3.2312994639026087,-0.00019223465642426163,-0.00010309332719771191,0.00017183103773277253,-0.00014908812590874732,-0.0003495353157632053,0.00018311655730940402,-0.10522060096263885,0.7704564929008484,0.04127812758088112,-0.3722890615463257,0.11773444712162018,-0.010675396770238876
1749045356.498458,-3.9657719771014612,-2.4505726299681605,-1.9462029933929443,2.888704462642334,0.7052093148231506,-3.231279198323385,-0.0001843539357651025,-0.00011735847510863096,0.00016551029693800956,-0.00014508275489788502,-0.00037027435610070825,0.00017594981181900948,-0.12074068188667297,0.7358735203742981,0.03537215664982796,-0.3633030652999878,0.12516428530216217,-0.008754808455705643
1749045356.4984977,-3.9657564798938196,-2.4505959949889125,-1.9462226629257202,2.888712092036865,0.7052438855171204,-3.2312875429736536,-0.0003280128294136375,-0.0003410348726902157,0.00015963772602844983,-0.00014128623297438025,-0.000358674704330042,0.00016932784637901932,-0.12838464975357056,0.7375842928886414,0.025060318410396576,-0.34828972816467285,0.12172345817089081,-0.036812737584114075
1749045356.4985356,-3.965740982686178,-2.450552602807516,-1.9462065696716309,2.888712092036865,0.7052473425865173,-3.231252733861105,-0.0003659692301880568,-0.0006131356931291521,0.00015416802489198744,-0.000118895826744847,-0.00042949107591994107,0.0001631848863326013,-0.13281922042369843,0.7375155091285706,0.002481329720467329,-0.3500182032585144,0.12311302125453949,-0.03553866595029831
1749045356.4985735,-3.965799395238058,-2.4505797825255335,-1.9461910724639893,2.8886892038532714,0.7052249908447266,-3.23129111925234,-0.0003482695610728115,-0.0024707650300115347,0.0001269943022634834,-0.00011261774488957599,-0.0004421653284225613,0.0001574698690092191,-0.11615754663944244,0.7311251163482666,0.003474622964859009,-0.3399604558944702,0.12566964328289032,-0.027368130162358284
1749045356.4986103,-3.9657612482654017,-2.4505673847594203,-1.9462226629257202,2.888712092036865,0.7051974534988403,-3.2313066164599817,-0.0003272334870416671,-0.002939704805612564,0.00011593042290769517,-9.352499910164624e-05,-0.0004114355833735317,0.00015214559971354902,-0.1011057049036026,0.7399014234542847,0.016336331143975258,-0.3532285690307617,0.12397487461566925,-0.01705937460064888
1749045356.4986484,-3.965787474309103,-2.450592180291647,-1.9462065696716309,2.888692541713379,0.7051939368247986,-3.2313066164599817,-0.0003085350035689771,-0.002406136132776737,0.00011187142808921635,-8.635880658403039e-05,-0.00037848297506570816,0.00014716833538841456,-0.09587264060974121,0.7157044410705566,0.015123634599149227,-0.35284388065338135,0.11548729240894318,-0.03744348883628845
1749045356.4986866,-3.9657719771014612,-2.450575967828268,-1.9461874961853027,2.888692541713379,0.7052285075187683,-3.2312946955310267,-0.0002586949267424643,-0.002062300918623805,0.00010847044177353382,-8.348562550963834e-05,-0.0003493373515084386,0.0001425044029019773,-0.07208292186260223,0.7104828953742981,0.0093468576669693,-0.36911892890930176,0.13664861023426056,-0.0515470877289772
1749045356.498723,-3.965792242680685,-2.450585027734274,-1.9462029933929443,2.8887435632893066,0.7052285075187683,-3.2312946955310267,-0.00023089330352377146,-0.0015808393945917487,0.00010529557039262727,-8.144282037392259e-05,-0.000324172928230837,0.00013813035911880434,-0.04916387423872948,0.7129080295562744,0.033793795853853226,-0.3714403510093689,0.1423216611146927,-0.04281275346875191
1749045356.4987614,-3.9657684008227747,-2.4505964718260707,-1.9462065696716309,2.888712092036865,0.7051939368247986,-3.2313221136676233,-0.00013658771058544517,-0.0015758033841848373,0.00010230292537016794,-7.96135573182255e-05,-0.00030235969461500645,0.00013401568867266178,-0.028937537223100662,0.6930899620056152,0.03526797518134117,-0.38947248458862305,0.14683587849140167,-0.060264699161052704
1749045356.4987984,-3.9657767454730433,-2.450585027734274,-1.9462153911590576,2.8887273508259277,0.7051785588264465,-3.23129111925234,0.0002668523811735213,-0.0016420796746388078,9.947591024683788e-05,-4.492441439651884e-05,-0.00028329523047432303,0.00013013751595281065,-0.030574124306440353,0.6926692724227905,0.04202474653720856,-0.39172589778900146,0.16969747841358185,-0.052820101380348206
1749045356.498836,-3.9657838980304163,-2.450585027734274,-1.9462029933929443,2.888712092036865,0.7052093148231506,-3.2312875429736536,0.00045555076212622225,-0.0024590175598859787,9.680094808572903e-05,-3.1391624361276627e-05,-0.0002664951025508344,0.000126479979371652,-0.02598082646727562,0.7062554359436035,0.043981365859508514,-0.42700111865997314,0.17842359840869904,-0.03608991950750351
1749045356.4988732,-3.9657755533801478,-2.4505778751769007,-1.9462308883666992,2.888712092036865,0.7052162885665894,-3.23129111925234,0.0023236284032464027,-0.0028646199498325586,6.294057675404474e-05,-4.9052920076064765e-05,-0.0002515775850042701,0.0001230215566465631,-0.03184334561228752,0.6922760605812073,0.05196523293852806,-0.42430704832077026,0.1849033683538437,-0.0563734732568264
1749045356.4989145,-3.96578032175173,-2.450632711450094,-1.9461838006973267,2.8887082773395996,0.7051785588264465,-3.231303040181295,0.002573056612163782,-0.00317688868381083,3.157332321279682e-05,-0.0004907614784315228,-0.00023824370873626322,0.00011974596418440342,-0.00290558859705925,0.7338685393333435,0.08670831471681595,-0.43052053451538086,0.18322141468524933,-0.04386818781495094
1749045356.4989522,-3.9657564798938196,-2.450655599633688,-1.9461838006973267,2.8886963564106445,0.7052438855171204,-3.231272045766012,0.0024712022859603167,-0.0022706531453877687,2.8656970243901014e-05,-0.0013902906794101,-0.00019381934544071555,0.00011664242629194632,0.011140014976263046,0.7335231304168701,0.0984971821308136,-0.445614218711853,0.2010185271501541,-0.02956479787826538
1749045356.4989896,-3.965752903615133,-2.450621267358297,-1.9461838006973267,2.888680620784424,0.7052197456359863,-3.23129111925234,0.0028773664962500334,-0.0018172899726778269,5.343188968254253e-05,-0.0026564467698335648,-0.00017459546506870538,0.000113694928586483,0.007874373346567154,0.7135661840438843,0.09777377545833588,-0.46280747652053833,0.21738041937351227,-0.0398566797375679
1749045356.49903,-3.9657445589648646,-2.45061792949819,-1.9461874961853027,2.8886963564106445,0.7052557468414307,-3.2312946955310267,0.003613739972934127,-0.0015844301087781787,9.839216363616288e-05,-0.004698246251791716,-0.00014142616419121623,0.0001108915894292295,0.03380448371171951,0.7126776576042175,0.1112728863954544,-0.4784853458404541,0.2292737513780594,-0.06025633215904236
1749045356.4991388,-3.96574837366213,-2.450639864007467,-1.9461874961853027,2.88870017110791,0.7052093148231506,-3.231298271809713,0.00644425256177783,-0.001449019298888743,0.0011323383077979088,-0.005825376603752375,-3.7648769648512825e-05,0.00010822505282703787,0.03842915594577789,0.7067893147468567,0.13184352219104767,-0.48405998945236206,0.24224157631397247,-0.059198785573244095
1749045356.5004568,-3.965763870869772,-2.450639387170309,-1.9461874961853027,2.8886377054401855,0.7052093148231506,-3.2312875429736536,0.006371603347361088,-0.001196842873468995,0.0038989840541034937,-0.007270858623087406,0.00012234751193318516,0.00010568309517111629,0.03006468340754509,0.6970241069793701,0.12849172949790955,-0.49191492795944214,0.2631450295448303,-0.0344037264585495
1749045356.542304,-3.9656901995288294,-2.450648447076315,-1.9461755752563477,2.888636274928711,0.7052403688430786,-3.231303040181295,0.007455357350409031,-0.001300488947890699,0.005898135714232922,-0.009132534265518188,0.00021483357704710215,0.00010325674520572647,0.043782781809568405,0.7243760824203491,0.12156695872545242,-0.5114033818244934,0.2867974042892456,-0.027256213128566742
1749045356.5423539,-3.9657092730151575,-2.450648447076315,-1.9461755752563477,2.888617678279541,0.7051716446876526,-3.23129111925234,0.00894257239997387,-0.0018078767461702228,0.0060693551786243916,-0.011020655743777752,0.001372009515762329,0.00010094094614032656,0.06413088738918304,0.7123445272445679,0.11262017488479614,-0.5219533443450928,0.2947380542755127,-0.0028810761868953705
1749045356.5423956,-3.965696398411886,-2.450614114800924,-1.9461791515350342,2.8885695177265625,0.7052128314971924,-3.231272045766012,0.009488508105278015,-0.0017692240653559566,0.005987599957734346,-0.012475568801164627,0.002190864412114024,9.872617374639958e-05,0.08534453809261322,0.7226136326789856,0.1527397334575653,-0.5252327919006348,0.31759440898895264,-0.018220610916614532
1749045356.5424352,-3.965731207524435,-2.450655599633688,-1.9461636543273926,2.88857285558667,0.7052111029624939,-3.2313149611102503,0.010756672360002995,-0.0014705873327329755,0.006776034366339445,-0.014609393663704395,0.00287613901309669,9.660574869485572e-05,0.11154605448246002,0.7194039821624756,0.16893766820430756,-0.5290582776069641,0.33451592922210693,-0.025476912036538124
1749045356.5424745,-3.9656761328326624,-2.45061792949819,-1.9461517333984375,2.888556643123291,0.7052093148231506,-3.2313221136676233,0.012835697270929813,-0.0012260768562555313,0.009024588391184807,-0.01711057871580124,0.00314292311668396,9.4575785624329e-05,0.11717276275157928,0.7253598570823669,0.1620636135339737,-0.5295416116714478,0.34891629219055176,-0.04503346607089043
1749045356.5425172,-3.9656289259540003,-2.4506417713561,-1.9461588859558105,2.8885132509418945,0.7052145004272461,-3.23129111925234,0.013408265076577663,-0.001093989354558289,0.011265626177191734,-0.01802213490009308,0.0038600671105086803,9.262884850613773e-05,0.13708579540252686,0.7159103155136108,0.16110190749168396,-0.5198265314102173,0.3725045919418335,0.0015194378793239594
1749045356.5425568,-3.965617005025045,-2.4506288967528285,-1.9461278915405273,2.8884927469440917,0.705276370048523,-3.231303040181295,0.01546975877135992,-0.001059292466379702,0.011968719772994518,-0.01784669980406761,0.005314813926815987,9.075968409888446e-05,0.13681316375732422,0.7230600118637085,0.17179574072360992,-0.5264866352081299,0.39914441108703613,-0.013807401061058044
1749045356.542595,-3.9655969778644007,-2.4506451092162074,-1.946103572845459,2.8884641367145996,0.7053002119064331,-3.2312756220446985,0.016423987224698067,-0.0010355105623602867,0.013163955882191658,-0.01739475503563881,0.007286681793630123,8.896568760974333e-05,0.15613862872123718,0.7060924172401428,0.19119445979595184,-0.5376140475273132,0.3995927572250366,-0.00992850586771965
1749045356.542633,-3.9655330816852015,-2.450625558892721,-1.9460797309875488,2.8884097772785644,0.7053124308586121,-3.23129111925234,0.018349425867199898,-0.0009331872570328414,0.013893313705921173,-0.01745859906077385,0.008378313854336739,8.724091458134353e-05,0.11656495928764343,0.7104305624961853,0.19406232237815857,-0.5409741401672363,0.4052918255329132,-0.00812501460313797
1749045356.542675,-3.9654818216906946,-2.4506761036314906,-1.9460558891296387,2.888381167049072,0.705315887928009,-3.2312756220446985,0.017708461731672287,-0.0009138627792708576,0.015586385503411293,-0.01748846285045147,0.008928930386900902,9.543284249957651e-05,0.1391550749540329,0.6953186392784119,0.1799890398979187,-0.5418390035629272,0.4164208471775055,0.014984440058469772
1749045356.5427139,-3.9655047098742884,-2.450615545312399,-1.9460159540176392,2.888333483333252,0.7053362131118774,-3.2312443892108362,0.016648059710860252,-0.0009212135337293148,0.01623721793293953,-0.018872395157814026,0.009932619519531727,9.949719969881698e-05,0.15149353444576263,0.7205873131752014,0.18422773480415344,-0.5658879280090332,0.4222510755062103,0.02424446865916252
1749045356.5427523,-3.9654372374164026,-2.4506417713561,-1.9460077285766602,2.8883096414753417,0.7053362131118774,-3.23129111925234,0.01735980249941349,-0.0009103441261686385,0.017375949770212173,-0.02051471546292305,0.01091073639690876,9.870754729490727e-05,0.13692057132720947,0.7071022987365723,0.1622670739889145,-0.5701338052749634,0.4350886940956116,0.01867702230811119
1749045356.5427904,-3.9653897921191614,-2.4506451092162074,-1.9459636211395264,2.88825432836499,0.7053911089897156,-3.2312994639026087,0.017296507954597473,-0.0009816536912694573,0.016639454290270805,-0.020992809906601906,0.011744420044124126,0.0001064372991095297,0.1654011607170105,0.7072622179985046,0.1668669581413269,-0.5716663599014282,0.43174445629119873,0.031584482640028
1749045356.5428324,-3.9653497377978724,-2.4506570301451625,-1.9459046125411987,2.8882295328327636,0.7053806781768799,-3.2313101927386683,0.018379151821136475,-0.0009828219190239906,0.016652457416057587,-0.02204582281410694,0.013026922009885311,0.00011928234016522765,0.1405726820230484,0.735577404499054,0.16576352715492249,-0.5737336277961731,0.43720704317092896,0.02906939759850502
1749045356.5428708,-3.965336863194601,-2.450653692285055,-1.9458732604980469,2.888197584743164,0.7054201364517212,-3.23129111925234,0.019437287002801895,-0.0008720008190721273,0.016650347039103508,-0.022237662225961685,0.013786555267870426,0.00010256376845063642,0.13325436413288116,0.7137511372566223,0.1810058057308197,-0.5817499756813049,0.4347859025001526,0.037241313606500626
1749045356.5429096,-3.9652820269214075,-2.4506570301451625,-1.9458563327789307,2.8881265360065917,0.7054132223129272,-3.2312756220446985,0.019444651901721954,-0.0008719113538973033,0.01681724563241005,-0.024644091725349426,0.014367854222655296,0.00012159657489974052,0.16075676679611206,0.7209568619728088,0.17743602395057678,-0.587388813495636,0.4562031626701355,0.043602172285318375
1749045356.54295,-3.9652214686023157,-2.4506689510741175,-1.945785641670227,2.888094111079834,0.7054373025894165,-3.2313101927386683,0.019561704248189926,-0.0007691343780606985,0.017905211076140404,-0.02705921046435833,0.015352104790508747,0.002090632915496826,0.14193196594715118,0.7308836579322815,0.17816267907619476,-0.5989899039268494,0.4581826329231262,0.028308041393756866
1749045356.542989,-3.9652167002307337,-2.4506451092162074,-1.9458117485046387,2.888014956111572,0.7054799795150757,-3.23126727739443,0.020089467987418175,-0.0006854463135823607,0.016918200999498367,-0.028861599043011665,0.01608593389391899,0.003452100558206439,0.17322807013988495,0.7289051413536072,0.19295208156108856,-0.5939869284629822,0.4617732763290405,0.040236398577690125
1749045356.5430264,-3.9651885668383997,-2.450672288934225,-1.945772409439087,2.8879434305378417,0.7055470943450928,-3.2312708536731165,0.020264707505702972,-0.0007055106689222157,0.01800544187426567,-0.03021342121064663,0.016500335186719894,0.0035713627003133297,0.15144512057304382,0.6991744041442871,0.1749739944934845,-0.609693169593811,0.47427690029144287,0.04340934008359909
1749045356.5430634,-3.9651292006122034,-2.4506846867003382,-1.9457170963287354,2.887911005611084,0.7055485248565674,-3.2312708536731165,0.020786212757229805,-0.0006526150391437113,0.018548958003520966,-0.03103889897465706,0.017070084810256958,0.003303793491795659,0.15268167853355408,0.7165411114692688,0.18976035714149475,-0.6120030879974365,0.49481770396232605,0.06073642522096634
1749045356.5431676,-3.9650736490832728,-2.450648447076315,-1.9456968307495117,2.887835665340088,0.7055915594100952,-3.2312517801867884,0.021935641765594482,-0.0005502086132764816,0.018749430775642395,-0.03244119510054588,0.019639458507299423,0.003446388989686966,0.16552670300006866,0.7096355557441711,0.21440353989601135,-0.6156076788902283,0.49367305636405945,0.04604348540306091
1749045356.5444515,-3.965029780064718,-2.450672288934225,-1.9456486701965332,2.887763662929199,0.7056597471237183,-3.231220070515768,0.022536450996994972,-0.0006533138803206384,0.01939762383699417,-0.03460080549120903,0.020917223766446114,0.0037818194832652807,0.15888799726963043,0.7075308561325073,0.19864536821842194,-0.6349599957466125,0.5059548616409302,0.0412745475769043
1749045356.586284,-3.964989725743429,-2.450672288934225,-1.9456331729888916,2.8877078729816894,0.7057027220726013,-3.2312429586993616,0.02310025878250599,-0.0006975135183893144,0.01994808204472065,-0.03602420166134834,0.02228577807545662,0.004302548710256815,0.1917354166507721,0.7111743092536926,0.23843181133270264,-0.6437426209449768,0.48978060483932495,0.04532371461391449
1749045356.5863297,-3.964926783238546,-2.450648923913473,-1.9456164836883545,2.8876005846210937,0.70572829246521,-3.2312236467944544,0.02355642057955265,-0.0012199361808598042,0.020521635189652443,-0.03896590322256088,0.024224093183875084,0.006028599105775356,0.18847396969795227,0.7331309914588928,0.2496166229248047,-0.6404301524162292,0.5064477920532227,0.07036767899990082
1749045356.5863695,-3.964926783238546,-2.450648923913473,-1.9456164836883545,2.8876005846210937,0.70572829246521,-3.2312236467944544,0.02355642057955265,-0.0012199361808598042,0.020521635189652443,-0.03896590322256088,0.024224093183875084,0.006028599105775356,0.18847396969795227,0.7331309914588928,0.2496166229248047,-0.6404301524162292,0.5064477920532227,0.07036767899990082
1749045356.5864093,-3.9648929278003138,-2.450665136376852,-1.9455289840698242,2.8874832826801757,0.7058192491531372,-3.231246534978048,0.02575059048831463,-0.0011761236237362027,0.022986024618148804,-0.041778288781642914,0.026582134887576103,0.007858465425670147,0.26264631748199463,0.7092723250389099,0.2533712089061737,-0.6696944832801819,0.5163016319274902,0.0525226965546608
1749045356.5864484,-3.964853588734762,-2.450653692285055,-1.9455087184906006,2.8873845773884277,0.7059065699577332,-3.2311952749835413,0.027136217802762985,-0.001213635434396565,0.02384207583963871,-0.043859776109457016,0.0269191674888134,0.008139103651046753,0.239820659160614,0.7127783298492432,0.2577340006828308,-0.6792899966239929,0.5240298509597778,0.05704868584871292
1749045356.5864875,-3.9647861162768763,-2.4506622753539027,-1.9454652070999146,2.8872968393513183,0.7059080600738525,-3.2312381903277796,0.02825072966516018,-0.001147437491454184,0.025266600772738457,-0.04679876193404198,0.027703044936060905,0.008438984863460064,0.262522429227829,0.7130006551742554,0.2771369218826294,-0.6704241037368774,0.522404670715332,0.06276381015777588
1749045356.5865257,-3.9647348562823694,-2.45068420986318,-1.9454092979431152,2.887204809779785,0.705952525138855,-3.231242005025045,0.029686354100704193,-0.001099945860914886,0.026638725772500038,-0.04992874711751938,0.02782529965043068,0.008107519708573818,0.2623002529144287,0.7053073048591614,0.27504971623420715,-0.6895389556884766,0.5344182252883911,0.08000513166189194
1749045356.5865636,-3.9646783510791224,-2.4506994686522425,-1.9453730583190918,2.887077494258545,0.7060245275497437,-3.231210772191183,0.03152397274971008,-0.0010603158734738827,0.02816789038479328,-0.050958845764398575,0.02948756329715252,0.008402431383728981,0.2389853298664093,0.7008441686630249,0.27590736746788025,-0.6897925138473511,0.5154111981391907,0.06666687875986099
1749045356.586601,-3.9646063486682337,-2.450646539727682,-1.9453139305114746,2.886962576503418,0.7061185836791992,-3.2312143484698694,0.032255228608846664,-0.0009191295248456299,0.029470831155776978,-0.05075078457593918,0.03022262640297413,0.009296590462327003,0.26480141282081604,0.7061652541160583,0.2838418483734131,-0.7105786204338074,0.559820294380188,0.06535139679908752
1749045356.586639,-3.9645779768573206,-2.4506808720030726,-1.945253849029541,2.886873884791992,0.7061856389045715,-3.2311869303332728,0.034282244741916656,-0.0010185308055952191,0.02915794588625431,-0.05270751938223839,0.03212437778711319,0.010548110119998455,0.29088854789733887,0.706226646900177,0.2976113557815552,-0.7382475137710571,0.5476718544960022,0.08315534889698029
1749045356.5866761,-3.9645779768573206,-2.4506808720030726,-1.945253849029541,2.886873884791992,0.7061856389045715,-3.2311869303332728,0.034282244741916656,-0.0010185308055952191,0.02915794588625431,-0.05270751938223839,0.03212437778711319,0.010548110119998455,0.29088854789733887,0.706226646900177,0.2976113557815552,-0.7382475137710571,0.5476718544960022,0.08315534889698029
1749045356.5867133,-3.964395348225729,-2.450712343255514,-1.9451144933700562,2.886615439052246,0.706301748752594,-3.231131617222921,0.0367778018116951,-0.0014719637110829353,0.033472638577222824,-0.0593794584274292,0.0334220826625824,0.009926388040184975,0.29035601019859314,0.7267106175422668,0.29566627740859985,-0.7228439450263977,0.5734684467315674,0.07041320949792862
1749045356.5867507,-3.9643691221820276,-2.4506737194456996,-1.9450585842132568,2.8865114885517578,0.7063393592834473,-3.2311278025256556,0.037370048463344574,-0.0014178050914779305,0.03462661802768707,-0.0611683689057827,0.03518136963248253,0.009793040342628956,0.30169764161109924,0.7045838236808777,0.30160972476005554,-0.7302175164222717,0.5730224847793579,0.09944938123226166
1749045356.586788,-3.9642120043383997,-2.450705190698141,-1.9449985027313232,2.886376066798828,0.706426739692688,-3.2311423460589808,0.04120064899325371,-0.0013476838357746601,0.03672876954078674,-0.06280776113271713,0.036627113819122314,0.010408936068415642,0.30159878730773926,0.7089426517486572,0.2889356017112732,-0.7143428921699524,0.577376127243042,0.0944531038403511
1749045356.5868244,-3.9641593138324183,-2.4507090053954066,-1.9448918104171753,2.886255903834961,0.7065213322639465,-3.231126848851339,0.040587443858385086,-0.0013583762338384986,0.038062047213315964,-0.0643145814538002,0.0382220521569252,0.011147543787956238,0.3242450952529907,0.70162034034729,0.3033803701400757,-0.748153567314148,0.5659465789794922,0.07885808497667313
1749045356.5868618,-3.9641101996051233,-2.4506994686522425,-1.9448388814926147,2.8860933023640136,0.7065742611885071,-3.231083933507101,0.04446649178862572,-0.0013052719878032804,0.03771921619772911,-0.06696192920207977,0.03786717727780342,0.011802036315202713,0.2734583020210266,0.6953469514846802,0.31615951657295227,-0.7436150908470154,0.5649234056472778,0.09746050834655762
1749045356.586899,-3.964006487523214,-2.450705190698141,-1.9447590112686157,2.8859807687946777,0.7066926956176758,-3.231083933507101,0.044769201427698135,-0.001246549072675407,0.03870447352528572,-0.06978572905063629,0.03742948919534683,0.011845743283629417,0.25599849224090576,0.6922624111175537,0.3135443329811096,-0.7448462843894958,0.5974228382110596,0.07023923844099045
1749045356.586937,-3.9638758341418665,-2.4507304630675257,-1.9446561336517334,2.885833426112793,0.7067801356315613,-3.2310949007617396,0.04300452768802643,-0.0013189982855692506,0.041098617017269135,-0.07260270416736603,0.03791226074099541,0.011820660904049873,0.32881101965904236,0.7055231332778931,0.30070915818214417,-0.7276269197463989,0.6020004749298096,0.09254437685012817
1749045356.5869737,-3.9638548533069056,-2.450730939904684,-1.944600224494934,2.88568560659375,0.7068588733673096,-3.2310548464404505,0.04581207036972046,-0.0014182135928422213,0.04252650961279869,-0.07435882836580276,0.03886610269546509,0.01187981478869915,0.33037838339805603,0.7114875316619873,0.2858692705631256,-0.7391834855079651,0.613041877746582,0.09141544997692108
1749045356.5870109,-3.9637163321124476,-2.4506947002806605,-1.9445163011550903,2.885510130519531,0.7069015502929688,-3.231093947087423,0.048050083220005035,-0.001863265410065651,0.04400690644979477,-0.07825052738189697,0.04087049141526222,0.012635213322937489,0.3095631003379822,0.7408134937286377,0.3086112141609192,-0.7319234013557434,0.5994030833244324,0.09025841951370239
1749045356.5872514,-3.9636593500720423,-2.45067896465444,-1.9444204568862915,2.8853980737873535,0.7070196866989136,-3.2310202757464808,0.04830450192093849,-0.0016254306538030505,0.043775007128715515,-0.08095210790634155,0.04211616516113281,0.01339239813387394,0.2841971516609192,0.7359182834625244,0.30249789357185364,-0.7248955965042114,0.6076402068138123,0.09691067785024643
1749045356.588476,-3.963552776967184,-2.4507085285582484,-1.9443329572677612,2.885195417995117,0.7070621252059937,-3.2310429255114954,0.04929986968636513,-0.0012933254474774003,0.044036366045475006,-0.0829419270157814,0.04239605367183685,0.013342194259166718,0.330629825592041,0.7202571630477905,0.3240266442298889,-0.700803279876709,0.6303053498268127,0.09874037653207779
1749045356.6302958,-3.963440720235006,-2.450705190698141,-1.9442377090454102,2.885039969081543,0.7071030735969543,-3.23100716272463,0.05055208131670952,-0.0010727749904617667,0.04569000005722046,-0.0843382328748703,0.043379541486501694,0.013404874131083488,0.33818015456199646,0.7332487106323242,0.32925891876220703,-0.730236291885376,0.6176846623420715,0.09739992022514343
1749045356.630342,-3.9633365313159388,-2.4507013760008753,-1.9441381692886353,2.884875460261963,0.7072370052337646,-3.230955425892965,0.05241769924759865,-0.0010047460673376918,0.04692267253994942,-0.08684013038873672,0.04478331655263901,0.013927450403571129,0.35382628440856934,0.712454080581665,0.32780027389526367,-0.6968207359313965,0.6350991129875183,0.09961090981960297
1749045356.6303842,-3.9633365313159388,-2.4507013760008753,-1.9441381692886353,2.884875460261963,0.7072370052337646,-3.230955425892965,0.05241769924759865,-0.0010047460673376918,0.04692267253994942,-0.08684013038873672,0.04478331655263901,0.013927450403571129,0.35382628440856934,0.712454080581665,0.32780027389526367,-0.6968207359313965,0.6350991129875183,0.09961090981960297
1749045356.6304233,-3.963288132344381,-2.450709959069723,-1.9440613985061646,2.884716673488281,0.7073138952255249,-3.2309206167804163,0.053461216390132904,-0.0009138965397141874,0.047885507345199585,-0.08783338218927383,0.04656318575143814,0.014470181427896023,0.33483317494392395,0.7064117193222046,0.3131992816925049,-0.7102360725402832,0.6203122138977051,0.0996844619512558
1749045356.6304615,-3.9631486574756067,-2.450716634789938,-1.9439619779586792,2.884528322810791,0.7074356079101562,-3.230907742177145,0.054812464863061905,-0.0007461599889211357,0.04826325178146362,-0.0883164182305336,0.04802905395627022,0.012952652759850025,0.36431533098220825,0.684746503829956,0.31841203570365906,-0.7215414643287659,0.6404699087142944,0.11071813106536865
1749045356.6305008,-3.9629362265216272,-2.450716634789938,-1.943766713142395,2.8841659265705566,0.707618772983551,-3.2308641115771692,0.05788307264447212,-0.0013211928308010101,0.051745906472206116,-0.09101807326078415,0.04863883927464485,0.01276370044797659,0.34590545296669006,0.7033271789550781,0.2959045469760895,-0.7090371251106262,0.658201277256012,0.13839639723300934
1749045356.6305382,-3.9628403822528284,-2.450709959069723,-1.9436553716659546,2.883986158961914,0.7077233791351318,-3.2308476606952112,0.05894053727388382,-0.0016289138002321124,0.05072775110602379,-0.08933363109827042,0.0510016605257988,0.013415176421403885,0.34141528606414795,0.7146648168563843,0.33788198232650757,-0.741011917591095,0.6653517484664917,0.1330610066652298
1749045356.630576,-3.9627202192889612,-2.450735708276266,-1.9435665607452393,2.8838259416767578,0.7078158259391785,-3.2308247725116175,0.06039527803659439,-0.0014947883319109678,0.05239083617925644,-0.09017934650182724,0.053517427295446396,0.013630058616399765,0.3856674134731293,0.6899091005325317,0.33201318979263306,-0.7459569573402405,0.6487441062927246,0.12219183146953583
1749045356.6306133,-3.9626017252551478,-2.450716634789938,-1.9434551000595093,2.883639021510742,0.7079423069953918,-3.230823818837301,0.062400586903095245,-0.0013788072392344475,0.05554090067744255,-0.09346302598714828,0.05564666911959648,0.013699506409466267,0.323263943195343,0.7062976360321045,0.29128217697143555,-0.7435544729232788,0.619066059589386,0.12946060299873352
1749045356.6306505,-3.962426249180929,-2.4507438145079554,-1.943351149559021,2.8834826189228515,0.7080433964729309,-3.2307682673083704,0.061180274933576584,-0.0012653209269046783,0.05627277120947838,-0.09439461678266525,0.057939596474170685,0.01362639106810093,0.3936634063720703,0.7011946439743042,0.30333656072616577,-0.7747510671615601,0.6345261335372925,0.1301620602607727
1749045356.6306927,-3.962426249180929,-2.4507438145079554,-1.943351149559021,2.8834826189228515,0.7080433964729309,-3.2307682673083704,0.061180274933576584,-0.0012653209269046783,0.05627277120947838,-0.09439461678266525,0.057939596474170685,0.01362639106810093,0.3936634063720703,0.7011946439743042,0.30333656072616577,-0.7747510671615601,0.6345261335372925,0.1301620602607727
1749045356.6307309,-3.962169949208395,-2.450709959069723,-1.9430890083312988,2.8831044870563964,0.7082984447479248,-3.230736319218771,0.0655495896935463,-0.001186185865662992,0.0597052164375782,-0.09361793845891953,0.057831548154354095,0.013459734618663788,0.4144967496395111,0.7170058488845825,0.31786805391311646,-0.8388212323188782,0.6318161487579346,0.1396564394235611
1749045356.6307678,-3.962169949208395,-2.450709959069723,-1.9430890083312988,2.8831044870563964,0.7082984447479248,-3.230736319218771,0.0655495896935463,-0.001186185865662992,0.0597052164375782,-0.09361793845891953,0.057831548154354095,0.013459734618663788,0.4144967496395111,0.7170058488845825,0.31786805391311646,-0.8388212323188782,0.6318161487579346,0.1396564394235611
1749045356.630805,-3.9619811216937464,-2.450740476647848,-1.9428527355194092,2.8826934534260253,0.708522617816925,-3.2306726614581507,0.06930845975875854,-0.0012820245465263724,0.059924956411123276,-0.10065742582082748,0.05853128060698509,0.012233703397214413,0.3471013009548187,0.6834745407104492,0.3230888545513153,-0.8160988688468933,0.6320518851280212,0.13272467255592346
1749045356.6308413,-3.961832586918966,-2.4507252178587855,-1.9427402019500732,2.8824936586567382,0.7086460590362549,-3.2306798140155237,0.06801830232143402,-0.0018957109423354268,0.060930728912353516,-0.10329445451498032,0.057697415351867676,0.011943557299673557,0.4173581600189209,0.7152910232543945,0.3341381847858429,-0.8345974683761597,0.647912859916687,0.14964213967323303
1749045356.6308784,-3.961682144795553,-2.4507528744139613,-1.9426020383834839,2.882234736079834,0.7087436318397522,-3.2306440512286585,0.07075248658657074,-0.00173288700170815,0.062137290835380554,-0.10832208395004272,0.05785682424902916,0.012114111334085464,0.3912385106086731,0.6987341642379761,0.30741220712661743,-0.8146367073059082,0.6517643928527832,0.13157352805137634
1749045356.6309156,-3.961569849644796,-2.4507528744139613,-1.9424662590026855,2.882054014796875,0.7088702321052551,-3.230600420628683,0.07287423312664032,-0.0017426122212782502,0.0631413534283638,-0.11229298263788223,0.05849103629589081,0.011852702125906944,0.33517730236053467,0.7240207195281982,0.31219521164894104,-0.795637845993042,0.6727960109710693,0.14179298281669617
1749045356.6309538,-3.96139103571047,-2.450768133203024,-1.9423691034317017,2.881788416499756,0.7090330719947815,-3.2305994669543665,0.0713154599070549,-0.0015388424508273602,0.06331628561019897,-0.11605513840913773,0.060235798358917236,0.012213671579957008,0.3900017738342285,0.7040725946426392,0.29555419087409973,-0.7941941022872925,0.6500117778778076,0.14592844247817993
1749045356.6309907,-3.9612396399127405,-2.4507528744139613,-1.9422181844711304,2.8815480905720214,0.7091304659843445,-3.230576817189352,0.07317624241113663,-0.0014248262159526348,0.06326668709516525,-0.11949720233678818,0.060867130756378174,0.012383188121020794,0.3979441821575165,0.6930711269378662,0.30789002776145935,-0.755826473236084,0.6817800402641296,0.1393418312072754
1749045356.6310275,-3.9610982576953333,-2.450780054131979,-1.9420870542526245,2.881312533015869,0.7092880606651306,-3.2305565516101282,0.07409186661243439,-0.0013808365911245346,0.06412952393293381,-0.124984011054039,0.06179378181695938,0.013373630121350288,0.4243496358394623,0.6941742897033691,0.3285279870033264,-0.7184611558914185,0.6658260226249695,0.156642347574234
1749045356.6311367,-3.960959498082296,-2.4507833919920863,-1.941974401473999,2.881073160762451,0.7093961238861084,-3.2305083910571497,0.07552560418844223,-0.0014661704190075397,0.06551851332187653,-0.12443414330482483,0.06381452828645706,0.014206108637154102,0.411368727684021,0.7078022360801697,0.32173246145248413,-0.7344934344291687,0.6753760576248169,0.1342104971408844
1749045356.6325035,-3.9607916514026087,-2.4507719479002894,-1.9418232440948486,2.880790873164795,0.7095053195953369,-3.230500046406881,0.07661991566419601,-0.0018328274600207806,0.06602556258440018,-0.12238368391990662,0.06506535410881042,0.013879140838980675,0.4130780100822449,0.6959806680679321,0.3240588307380676,-0.7601602077484131,0.6630169749259949,0.15145233273506165
1749045356.6743007,-3.9606507460223597,-2.4507647953429164,-1.9416987895965576,2.8805553156086425,0.7096526026725769,-3.2304845491992396,0.07787355035543442,-0.001836225506849587,0.06755837053060532,-0.12189729511737823,0.06641847640275955,0.013341441750526428,0.4068566858768463,0.6852530241012573,0.3184111714363098,-0.7422791719436646,0.6700006723403931,0.14549851417541504
1749045356.674348,-3.960429016743795,-2.4507767162718714,-1.9415483474731445,2.880307360286377,0.7097967267036438,-3.2304368654834192,0.07914982736110687,-0.0018858517287299037,0.06718699634075165,-0.12479608505964279,0.06776703894138336,0.013711830601096153,0.4059344232082367,0.7238559722900391,0.33069735765457153,-0.7199418544769287,0.671890139579773,0.1583702266216278
1749045356.6743894,-3.96033484140505,-2.4507581196227015,-1.9414201974868774,2.880044623012207,0.7099557518959045,-3.230412546788351,0.0844884067773819,-0.00168347149156034,0.0675959438085556,-0.11971423029899597,0.0688614547252655,0.013807627372443676,0.35968419909477234,0.7133691310882568,0.33949118852615356,-0.7655404806137085,0.6663005352020264,0.1643141806125641
1749045356.674429,-3.9601367155658167,-2.4507833919920863,-1.9412879943847656,2.8798281389423828,0.7100792527198792,-3.230385128651754,0.08031074702739716,-0.0015164328506216407,0.06831814348697662,-0.11851190030574799,0.06948594748973846,0.013342184945940971,0.3975358307361603,0.7050958871841431,0.35408395528793335,-0.7750239968299866,0.6574193239212036,0.17717596888542175
1749045356.674467,-3.9599414507495325,-2.450799127618307,-1.9411375522613525,2.8795649248310546,0.7102159857749939,-3.230349365864889,0.08283405750989914,-0.0012060451554134488,0.07155817002058029,-0.12071207165718079,0.07025284320116043,0.012749368324875832,0.403559148311615,0.6913818120956421,0.32526445388793945,-0.7656599879264832,0.6502164006233215,0.17574700713157654
1749045356.674506,-3.9597964922534388,-2.450792451898092,-1.9409818649291992,2.8793341356464843,0.7103785872459412,-3.2303093115436,0.08454298228025436,-0.0012606518575921655,0.07034323364496231,-0.12271159887313843,0.07091169059276581,0.013437620364129543,0.35808196663856506,0.6631518602371216,0.3489033579826355,-0.7882925271987915,0.6424369812011719,0.15716296434402466
1749045356.6745446,-3.9596434275256556,-2.4507767162718714,-1.9408378601074219,2.8790947633930664,0.7105157375335693,-3.230316702519552,0.08514430373907089,-0.0012377242092043161,0.07129635661840439,-0.12439198046922684,0.07240857928991318,0.014640848152339458,0.4130096435546875,0.6933829188346863,0.35636621713638306,-0.8053176403045654,0.6354618072509766,0.15580356121063232
1749045356.6745834,-3.959475819264547,-2.4508077106871546,-1.9406700134277344,2.878828211421631,0.7106664180755615,-3.230280939732687,0.08730810880661011,-0.0015440416755154729,0.07544483244419098,-0.12819591164588928,0.07281321287155151,0.014939000830054283,0.3534345030784607,0.6853951215744019,0.3407319486141205,-0.8088765144348145,0.6294391751289368,0.14930877089500427
1749045356.6746264,-3.959287707005636,-2.4507886372008265,-1.9405306577682495,2.8785645204731445,0.710763692855835,-3.2302289644824427,0.08862915635108948,-0.001564728794619441,0.07407354563474655,-0.13127312064170837,0.07077853381633759,0.014910508878529072,0.3669452369213104,0.6916899681091309,0.3451215326786041,-0.8213282823562622,0.6590728163719177,0.17260488867759705
1749045356.6746657,-3.959097210560934,-2.4507576427855433,-1.940371036529541,2.878317041988037,0.7109386920928955,-3.2302053610431116,0.08914973586797714,-0.0015752039616927505,0.07583411782979965,-0.1339006870985031,0.07011633366346359,0.015147827565670013,0.37572211027145386,0.6823368072509766,0.3606956899166107,-0.7980939745903015,0.6853132843971252,0.16248783469200134
1749045356.6747186,-3.958921019230978,-2.4508005581297816,-1.9401878118515015,2.8779947000690917,0.7111238241195679,-3.230185095463888,0.08931265026330948,-0.0016390315722674131,0.07745411992073059,-0.1376391053199768,0.07138195633888245,0.015779724344611168,0.382333368062973,0.6978923082351685,0.3363792300224304,-0.800426185131073,0.670083224773407,0.1464841067790985
1749045356.6747746,-3.958744827901022,-2.450811048547262,-1.9400473833084106,2.877723379726074,0.7112329602241516,-3.230180327092306,0.08961692452430725,-0.0017139918636530638,0.07841600477695465,-0.13929037749767303,0.07272857427597046,0.015645312145352364,0.3960020840167999,0.7025348544120789,0.3232067823410034,-0.7945056557655334,0.6970084309577942,0.1536715179681778
1749045356.6748283,-3.958550516759054,-2.4508091411986292,-1.939873456954956,2.877439184779785,0.7113614082336426,-3.2301011721240442,0.08995059132575989,-0.0017422343371436,0.07904862612485886,-0.14162294566631317,0.07612691819667816,0.015368795953691006,0.41217130422592163,0.7058100700378418,0.3273252248764038,-0.7977563142776489,0.675429105758667,0.15586978197097778
1749045356.6748824,-3.9583893457995813,-2.450792451898092,-1.9397246837615967,2.877123995418213,0.7115480899810791,-3.230096403752462,0.09091625362634659,-0.0016311004292219877,0.079122394323349,-0.14488670229911804,0.07692385464906693,0.015844905748963356,0.42996668815612793,0.6936782598495483,0.33421939611434937,-0.7520730495452881,0.6770666241645813,0.15633605420589447
1749045356.6749368,-3.958197895680563,-2.450812955895895,-1.9395651817321777,2.876828356380127,0.7116609811782837,-3.2300565878497522,0.0914362221956253,-0.001876072259619832,0.0815967321395874,-0.14229625463485718,0.07541017234325409,0.015739399939775467,0.43234190344810486,0.7073251605033875,0.32110628485679626,-0.7915982604026794,0.6944449543952942,0.1584502011537552
1749045356.6749914,-3.95801812807192,-2.4508282146849574,-1.9393893480300903,2.8765222269245605,0.7117702960968018,-3.230013672505514,0.09220263361930847,-0.0017720324685797095,0.0806979089975357,-0.1426069289445877,0.07719879597425461,0.015539622865617275,0.43896040320396423,0.719154417514801,0.33615538477897644,-0.7997768521308899,0.7281451225280762,0.16867990791797638
1749045356.6750455,-3.9578071276294153,-2.450820108453268,-1.9392495155334473,2.8762380319782714,0.7119622230529785,-3.230008904133932,0.09619313478469849,-0.0021137972362339497,0.08388398587703705,-0.14490489661693573,0.08150221407413483,0.015343647450208664,0.3903045654296875,0.7074417471885681,0.3446003794670105,-0.7743347883224487,0.7037776708602905,0.1690697968006134
1749045356.6750994,-3.957634512578146,-2.4508210621275843,-1.9390779733657837,2.8759352403828125,0.7121440768241882,-3.2299607435809534,0.0952310785651207,-0.002037426922470331,0.08302716910839081,-0.14358952641487122,0.08560968935489655,0.01646391674876213,0.46787798404693604,0.708884060382843,0.3429352939128876,-0.8070204854011536,0.693793535232544,0.15067002177238464
1749045356.6751544,-3.957634512578146,-2.4508210621275843,-1.9390779733657837,2.8759352403828125,0.7121440768241882,-3.2299607435809534,0.0952310785651207,-0.002037426922470331,0.08302716910839081,-0.14358952641487122,0.08560968935489655,0.01646391674876213,0.46787798404693604,0.708884060382843,0.3429352939128876,-0.8070204854011536,0.693793535232544,0.15067002177238464
1749045356.675211,-3.95721942583193,-2.450812955895895,-1.9387083053588867,2.875321074123047,0.7124846577644348,-3.229893986378805,0.10022759437561035,-0.001889919862151146,0.0860687643289566,-0.14734479784965515,0.0908174216747284,0.016261156648397446,0.4056006669998169,0.7018841505050659,0.3252214193344116,-0.8329886794090271,0.684363603591919,0.16420011222362518
1749045356.67536,-3.957043472920553,-2.450805803338522,-1.9385511875152588,2.875044985408447,0.7127159833908081,-3.229861323033468,0.10150991380214691,-0.0018777759978547692,0.08646640181541443,-0.14978013932704926,0.09100288897752762,0.016947729513049126,0.38750365376472473,0.6925798654556274,0.3408646583557129,-0.8134108781814575,0.6502057313919067,0.17385484278202057
1749045356.6764805,-3.95685846010317,-2.450836797753805,-1.938399314880371,2.874706907863281,0.712897777557373,-3.229825560246603,0.10317564755678177,-0.0017986982129514217,0.08775980770587921,-0.15199391543865204,0.09161493927240372,0.017760848626494408,0.41126322746276855,0.6872434616088867,0.33147212862968445,-0.8186147212982178,0.6740431785583496,0.19107267260551453
1749045356.7182927,-3.956604544316427,-2.450843950311178,-1.9381968975067139,2.874422236079834,0.7130464911460876,-3.2297890822040003,0.10442374646663666,-0.0017722283955663443,0.08820133656263351,-0.15877710282802582,0.0911317989230156,0.01796071231365204,0.4303230047225952,0.6868345141410828,0.35980984568595886,-0.8228000998497009,0.667485237121582,0.16429519653320312
1749045356.7183383,-3.95640474954714,-2.4508453808226527,-1.9380396604537964,2.874067946071289,0.7132518291473389,-3.2297619024859827,0.10607418417930603,-0.0016415166901424527,0.09044931083917618,-0.16232216358184814,0.09528768807649612,0.017860380932688713,0.4010206460952759,0.7041663527488708,0.32976222038269043,-0.7854071855545044,0.6260905861854553,0.17474199831485748
1749045356.7183836,-3.956231657658712,-2.4508329830565394,-1.9378570318222046,2.873725576991699,0.7134370803833008,-3.2297046820269983,0.10559544712305069,-0.0016163433901965618,0.09137947857379913,-0.1625329703092575,0.09429492801427841,0.0194323118776083,0.394759863615036,0.6952665448188782,0.3418729603290558,-0.7761986255645752,0.6166640520095825,0.1577838659286499
1749045356.7184377,-3.9560120741473597,-2.45084871868276,-1.9376616477966309,2.873400850886963,0.7136099934577942,-3.22966176668276,0.10509622097015381,-0.0016583290416747332,0.09213157743215561,-0.16616307199001312,0.08904929459095001,0.01930670253932476,0.36876046657562256,0.6946236491203308,0.33501267433166504,-0.7646201252937317,0.6519531607627869,0.1664961874485016
1749045356.7184787,-3.9557727018939417,-2.450864454308981,-1.9374699592590332,2.8730155664631347,0.713760256767273,-3.2296178976642054,0.10572697222232819,-0.0018094558035954833,0.09347541630268097,-0.16394123435020447,0.08937571197748184,0.018800674006342888,0.45602601766586304,0.6882899403572083,0.3283492922782898,-0.7745220065116882,0.6510410308837891,0.1663900762796402
1749045356.7185173,-3.955620352421896,-2.450829645196432,-1.9372752904891968,2.872699423427246,0.7139814496040344,-3.22960073152651,0.10822080820798874,-0.0018276929622516036,0.09460319578647614,-0.16464827954769135,0.09042563289403915,0.019600557163357735,0.3792831301689148,0.6920832991600037,0.3335794508457184,-0.7783823609352112,0.6831910610198975,0.14948570728302002
1749045356.7185557,-3.955365006123678,-2.4508568249144496,-1.937087059020996,2.872368021602295,0.7141541242599487,-3.229564968739645,0.1101698949933052,-0.001716524944640696,0.09516292810440063,-0.165904700756073,0.09528184682130814,0.019058791920542717,0.41982850432395935,0.7014579176902771,0.3358325958251953,-0.7753859758377075,0.6538411974906921,0.16910409927368164
1749045356.7185934,-3.955125872288839,-2.4508677921690882,-1.9369038343429565,2.8720289903828125,0.7143544554710388,-3.229509417210714,0.11246555298566818,-0.001789516769349575,0.09797286987304688,-0.16691544651985168,0.09416431933641434,0.018125731498003006,0.4080983102321625,0.7003441452980042,0.3211725354194641,-0.7827467918395996,0.6392833590507507,0.16059720516204834
1749045356.7186306,-3.9549291769610804,-2.450853487054342,-1.9367070198059082,2.8716975885578613,0.7145324945449829,-3.2294510046588343,0.1138782873749733,-0.001774703268893063,0.09671762585639954,-0.16802336275577545,0.0913541167974472,0.01842840202152729,0.40039965510368347,0.6816815137863159,0.3182760775089264,-0.7996307611465454,0.69245445728302,0.17719778418540955
1749045356.7186677,-3.954686228428976,-2.4508730373778285,-1.936488151550293,2.871365709895752,0.7147328853607178,-3.229469124470846,0.11528700590133667,-0.0017677613068372011,0.10027550905942917,-0.16985547542572021,0.09330891072750092,0.01795513741672039,0.39866361021995544,0.6885824203491211,0.3323151767253876,-0.796575665473938,0.6869814991950989,0.17533031105995178
1749045356.7187057,-3.954454485570089,-2.450860639611715,-1.936281681060791,2.8710543352314453,0.7149246335029602,-3.2294018904315394,0.11644823849201202,-0.0016231907065957785,0.09965145587921143,-0.17430861294269562,0.09581106156110764,0.018359504640102386,0.40830737352371216,0.7040944695472717,0.3006573021411896,-0.790736198425293,0.6778780817985535,0.17516110837459564
1749045356.718743,-3.9542692343341272,-2.450860639611715,-1.936077356338501,2.8707033830830078,0.715131938457489,-3.2293887774096888,0.1163410171866417,-0.001605920260772109,0.10001443326473236,-0.17878375947475433,0.09575565904378891,0.02003425918519497,0.40154582262039185,0.6914120316505432,0.30938079953193665,-0.7675955295562744,0.6870348453521729,0.1836148053407669
1749045356.718784,-3.9539902845965784,-2.450860639611715,-1.935889482498169,2.870340033168457,0.7152995467185974,-3.22931415239443,0.11784406006336212,-0.001490755588747561,0.10129161179065704,-0.1804346889257431,0.09663765132427216,0.020273175090551376,0.4525946378707886,0.6838847994804382,0.33255571126937866,-0.7953953742980957,0.6971786022186279,0.1660294085741043
1749045356.7188234,-3.9537697474109095,-2.4508730373778285,-1.9356708526611328,2.869973345393799,0.7154688835144043,-3.2292938868152063,0.11967991292476654,-0.0018161413026973605,0.10192201286554337,-0.18302245438098907,0.0975579097867012,0.01998235285282135,0.369130939245224,0.6791650652885437,0.32050374150276184,-0.7746198773384094,0.6943997740745544,0.18338213860988617
1749045356.7188609,-3.9535542170154017,-2.450853487054342,-1.93546724319458,2.8695904451557617,0.7156866192817688,-3.2292376200305384,0.11809981614351273,-0.0018894406966865063,0.10353028774261475,-0.18064342439174652,0.09943447262048721,0.021251922473311424,0.48293232917785645,0.6870149970054626,0.30328795313835144,-0.8009929656982422,0.7071042060852051,0.1615256816148758
1749045356.7188988,-3.9533260504352015,-2.4509006939330042,-1.935244083404541,2.869246645564697,0.7158831357955933,-3.229206387196676,0.11800184100866318,-0.002522099995985627,0.10124876350164413,-0.18471597135066986,0.1008232831954956,0.020991070196032524,0.4295402467250824,0.6881359219551086,0.34131452441215515,-0.8075346350669861,0.7024168372154236,0.177585631608963
1749045356.718936,-3.953035895024435,-2.4508377514281214,-1.935056447982788,2.868863268489502,0.7160784006118774,-3.2291935125934046,0.12093799561262131,-0.0027913039084523916,0.10404499620199203,-0.18354317545890808,0.10318529605865479,0.021500006318092346,0.4394780099391937,0.686263382434845,0.3216785788536072,-0.8283939361572266,0.6936445236206055,0.16100166738033295
1749045356.7189734,-3.9528191725360315,-2.4509088001646937,-1.9348682165145874,2.868459864253662,0.7162789106369019,-3.229126278554098,0.12341146916151047,-0.002613877411931753,0.10356182605028152,-0.1865961104631424,0.10631579160690308,0.02058781310915947,0.4418434798717499,0.689500629901886,0.3624502420425415,-0.8140541315078735,0.6845127940177917,0.17866633832454681
1749045356.71901,-3.952536169682638,-2.4508968792357386,-1.9346414804458618,2.8680764871784667,0.7165323495864868,-3.2290905157672327,0.12484079599380493,-0.002552691614255309,0.10481749475002289,-0.1912415325641632,0.10885916650295258,0.02105402946472168,0.4266780912876129,0.7060315012931824,0.3543822169303894,-0.8059548735618591,0.6808148622512817,0.1749545931816101
1749045356.719047,-3.9523239771472376,-2.4509126148619593,-1.9344408512115479,2.8677164751240234,0.7167069315910339,-3.2290733496295374,0.12664669752120972,-0.0024126237258315086,0.1066092848777771,-0.19522534310817719,0.11109792441129684,0.02210708148777485,0.42484423518180847,0.6805674433708191,0.35946720838546753,-0.7987034916877747,0.6522014141082764,0.17462614178657532
1749045356.7191374,-3.952064339314596,-2.450920721093649,-1.9342217445373535,2.867320700282715,0.7169380784034729,-3.2290411631213587,0.12662260234355927,-0.002597434911876917,0.10835582762956619,-0.20186035335063934,0.11154322326183319,0.022322598844766617,0.45826083421707153,0.691031813621521,0.3677436411380768,-0.7673497796058655,0.6570507287979126,0.18144240975379944
1749045356.720468,-3.9518283049212855,-2.4509555302061976,-1.934003233909607,2.8668557840534667,0.7172034978866577,-3.2289775053607386,0.12964726984500885,-0.0028297118842601776,0.10995105654001236,-0.2030273675918579,0.11148921400308609,0.021630216389894485,0.41439124941825867,0.7047564387321472,0.3406798243522644,-0.755868673324585,0.652229368686676,0.1827492117881775
1749045356.7663186,-3.951552216206686,-2.4509483776488246,-1.9337717294692993,2.8664795595356445,0.7174073457717896,-3.2289069334613245,0.13341546058654785,-0.0026612819638103247,0.11026068776845932,-0.2067345380783081,0.11162454634904861,0.022356897592544556,0.3948787450790405,0.7028667330741882,0.36016660928726196,-0.7186635732650757,0.6453188061714172,0.1878073811531067
1749045356.7663655,-3.951315943394796,-2.450897832910055,-1.9335827827453613,2.866060419673584,0.7176176309585571,-3.2288671175586146,0.1299804300069809,-0.002174447989091277,0.11100294440984726,-0.2025945633649826,0.11444074660539627,0.02201373502612114,0.42981913685798645,0.7079556584358215,0.33827948570251465,-0.7412875890731812,0.6406688690185547,0.19565826654434204
1749045356.7664063,-3.9510520140277308,-2.450933118859762,-1.9333323240280151,2.8656808572956542,0.71784907579422,-3.2288039366351526,0.13105565309524536,-0.0018705398542806506,0.11106596887111664,-0.1981211006641388,0.10936453193426132,0.022912437096238136,0.42838627099990845,0.7043543457984924,0.3770390748977661,-0.7712881565093994,0.6682138442993164,0.17497476935386658
1749045356.7664454,-3.9507294336902063,-2.4509440861144007,-1.9331321716308594,2.865269346828125,0.7180838584899902,-3.2287665049182337,0.1324082911014557,-0.001468261587433517,0.11300536245107651,-0.19790230691432953,0.1084383875131607,0.023388229310512543,0.4035593867301941,0.6760702729225159,0.36334657669067383,-0.8104355335235596,0.6763660311698914,0.1927662193775177
1749045356.7664833,-3.950489346181051,-2.4509483776488246,-1.9329044818878174,2.8648692804523925,0.7183268070220947,-3.228727165852682,0.131048321723938,-0.00138464302290231,0.11438058316707611,-0.19901485741138458,0.11053735017776489,0.022874362766742706,0.4266408085823059,0.667330801486969,0.3577469289302826,-0.7925166487693787,0.6979849934577942,0.1852346956729889
1749045356.7665217,-3.9502294699298304,-2.450933118859762,-1.9326738119125366,2.8644425111958007,0.7185698747634888,-3.2287064234363,0.1338929831981659,-0.0014417303027585149,0.11695162951946259,-0.2026747465133667,0.11375077068805695,0.023539893329143524,0.44068488478660583,0.6788590550422668,0.3673588037490845,-0.8166078329086304,0.654394805431366,0.1984383463859558
1749045356.7665598,-3.9499226252185267,-2.450951715508932,-1.9324498176574707,2.8640548425861816,0.7187549471855164,-3.228647057210104,0.13396883010864258,-0.0017392206937074661,0.1157003790140152,-0.20982219278812408,0.11096823960542679,0.02293357253074646,0.47567641735076904,0.6734887361526489,0.3828003704547882,-0.7937886118888855,0.6917811632156372,0.1959201544523239
1749045356.766598,-3.949662748967306,-2.450975557366842,-1.932179570198059,2.863604708308838,0.7189790606498718,-3.2286341826068323,0.1385471075773239,-0.003049983875826001,0.12091443687677383,-0.21577437222003937,0.11359040439128876,0.02355664037168026,0.35712552070617676,0.6732663512229919,0.3526783883571625,-0.7648253440856934,0.6842983961105347,0.1821223348379135
1749045356.766636,-3.9493444601642054,-2.450975557366842,-1.9319597482681274,2.863185091609619,0.7192410230636597,-3.228570286427633,0.13867928087711334,-0.0028865698259323835,0.11970250308513641,-0.21865995228290558,0.1159120723605156,0.02386515401303768,0.4018211364746094,0.7060558795928955,0.3531114459037781,-0.7397152185440063,0.6730012893676758,0.18406866490840912
1749045356.7666743,-3.9490955511676233,-2.450944562951559,-1.9316924810409546,2.862769289607666,0.7194069623947144,-3.2285030523883265,0.1348472535610199,-0.0025986197870224714,0.12083166837692261,-0.2154267579317093,0.1181139424443245,0.022926567122340202,0.44884198904037476,0.6920701861381531,0.33975422382354736,-0.7469618320465088,0.6675969958305359,0.1888550966978073
1749045356.7667112,-3.94886285463442,-2.450930257836813,-1.9314496517181396,2.8622919756123046,0.7196621298789978,-3.228467051182882,0.13901753723621368,-0.002074898686259985,0.12288933247327805,-0.21423713862895966,0.11868049949407578,0.02394038997590542,0.4194117784500122,0.7011224627494812,0.3515934646129608,-0.7709965109825134,0.6811089515686035,0.19946376979351044
1749045356.7667487,-3.948559586201803,-2.450968404809469,-1.9311823844909668,2.8618599611469726,0.7199292778968811,-3.228410784398214,0.14005914330482483,-0.001974759390577674,0.12188071012496948,-0.21055631339550018,0.11858615279197693,0.024194445461034775,0.38968634605407715,0.6816977858543396,0.3368535339832306,-0.7991769313812256,0.6864656209945679,0.1981734335422516
1749045356.7667863,-3.948244873677389,-2.450956960717672,-1.9309625625610352,2.8614680010029296,0.7201604843139648,-3.2283952871905726,0.13990426063537598,-0.0020162444561719894,0.1260421872138977,-0.21049907803535461,0.12334898859262466,0.025011373683810234,0.40765249729156494,0.6869245171546936,0.3356792628765106,-0.818895697593689,0.6653921604156494,0.1843743920326233
1749045356.7668242,-3.9480236212359827,-2.4509722195067347,-1.9306918382644653,2.861043615932129,0.7204206585884094,-3.228323046361105,0.13981761038303375,-0.0024968176148831844,0.12405774742364883,-0.2145039439201355,0.1200391873717308,0.02499075047671795,0.4483034908771515,0.6627632975578308,0.34385544061660767,-0.8410177230834961,0.6821121573448181,0.2025962471961975
1749045356.7668617,-3.9476805369006556,-2.450961252252096,-1.9304438829421997,2.8606173235126953,0.7206931710243225,-3.2282636801349085,0.14338882267475128,-0.0026276251301169395,0.1259211301803589,-0.22578704357147217,0.11939273774623871,0.025397974997758865,0.45409873127937317,0.6875567436218262,0.3500191271305084,-0.7902624607086182,0.7005583047866821,0.1790974736213684
1749045356.7668984,-3.9473732153521937,-2.450984617272848,-1.9301921129226685,2.860158606166504,0.7209140658378601,-3.2282429377185267,0.14263826608657837,-0.0030522788874804974,0.12776267528533936,-0.22863146662712097,0.12188063561916351,0.02532224915921688,0.42952337861061096,0.69715416431427,0.3154785931110382,-0.8125079274177551,0.7155929803848267,0.19315320253372192
1749045356.7669358,-3.9471519629107874,-2.450988908807272,-1.929940938949585,2.859729452724121,0.7211811542510986,-3.228186909352438,0.14400143921375275,-0.003235994838178158,0.12819616496562958,-0.23715847730636597,0.12255185842514038,0.024732574820518494,0.4017907381057739,0.7014626264572144,0.3196071982383728,-0.7308707237243652,0.6891406774520874,0.1901395618915558
1749045356.7669733,-3.9468258062945765,-2.4510323009886683,-1.9297086000442505,2.8592402177998046,0.7214261889457703,-3.228119436894552,0.1465899795293808,-0.0027900165878236294,0.12965674698352814,-0.23293204605579376,0.12031431496143341,0.025859110057353973,0.40240320563316345,0.7054252624511719,0.33140525221824646,-0.7502425909042358,0.7236056327819824,0.19461548328399658
1749045356.7670112,-3.9465611616717737,-2.451024194756979,-1.9294413328170776,2.8587915140339355,0.7216574549674988,-3.2280874888049524,0.14638523757457733,-0.002504773670807481,0.13000386953353882,-0.22944752871990204,0.12221934646368027,0.025172853842377663,0.3859094977378845,0.7117713093757629,0.3210315704345703,-0.7819910049438477,0.7212353348731995,0.1935681402683258
1749045356.7670481,-3.9462178389178675,-2.450993677178854,-1.929171085357666,2.858339949245117,0.7219158411026001,-3.2280076185809534,0.14950278401374817,-0.0024374101776629686,0.1312398761510849,-0.22728098928928375,0.1230902224779129,0.026072556152939796,0.41646161675453186,0.7142903208732605,0.3281669020652771,-0.8181329369544983,0.7125089764595032,0.1949550211429596
1749045356.7670856,-3.945902172719137,-2.451024671594137,-1.9289227724075317,2.857884569759033,0.7221419215202332,-3.227966849003927,0.14988578855991364,-0.002652015769854188,0.13159359991550446,-0.22800804674625397,0.12466330826282501,0.025871699675917625,0.4237884283065796,0.707548201084137,0.31542879343032837,-0.8489284515380859,0.7360425591468811,0.1984458714723587
1749045356.7671227,-3.9456339518176478,-2.451017042199606,-1.9286749362945557,2.8573714929768066,0.7223697304725647,-3.227915350590841,0.15114037692546844,-0.0024151059333235025,0.1306690126657486,-0.23267655074596405,0.1273515373468399,0.026509964838624,0.4223746061325073,0.6840174794197083,0.3380851447582245,-0.8263347148895264,0.7220028638839722,0.1993795782327652
1749045356.7672331,-3.945303265248434,-2.4510323009886683,-1.9283925294876099,2.8569156366535644,0.7226278185844421,-3.2278710047351282,0.14782844483852386,-0.002392455004155636,0.1313958466053009,-0.24127331376075745,0.13027945160865784,0.026175469160079956,0.4425601363182068,0.682820737361908,0.3415600657463074,-0.7912269830703735,0.7228899002075195,0.2032122164964676
1749045356.7684708,-3.9449790159808558,-2.4510284862914027,-1.9281632900238037,2.856402559871338,0.722876250743866,-3.2277916113482874,0.15123146772384644,-0.0022112310398370028,0.13278791308403015,-0.24698147177696228,0.1341869831085205,0.026068048551678658,0.43015313148498535,0.6871188282966614,0.3691703677177429,-0.769194483757019,0.7160660624504089,0.20234936475753784
1749045356.8102875,-3.944726292287008,-2.4510284862914027,-1.9278995990753174,2.8559605318256835,0.7231466770172119,-3.2277513186084192,0.15444687008857727,-0.0023574484512209892,0.1340976506471634,-0.24870334565639496,0.13623405992984772,0.026939447969198227,0.4342065751552582,0.6665628552436829,0.3563084006309509,-0.7148284912109375,0.712164044380188,0.19487649202346802
1749045356.8103335,-3.944376770650045,-2.4510284862914027,-1.9276052713394165,2.8554560381123046,0.7234155535697937,-3.22771126428713,0.15535253286361694,-0.002720037242397666,0.13522347807884216,-0.244827002286911,0.13750603795051575,0.02753852680325508,0.4041907787322998,0.6916558742523193,0.34788745641708374,-0.7740898132324219,0.7146576046943665,0.2055860310792923
1749045356.8103743,-3.944376770650045,-2.4510284862914027,-1.9276052713394165,2.8554560381123046,0.7234155535697937,-3.22771126428713,0.15535253286361694,-0.002720037242397666,0.13522347807884216,-0.244827002286911,0.13750603795051575,0.02753852680325508,0.4041907787322998,0.6916558742523193,0.34788745641708374,-0.7740898132324219,0.7146576046943665,0.2055860310792923
1749045356.8104134,-3.943768564854757,-2.451064725915426,-1.9270581007003784,2.8545138078876953,0.7240477204322815,-3.227579895650045,0.156168594956398,-0.00259008863940835,0.13793224096298218,-0.23577360808849335,0.13994841277599335,0.027297772467136383,0.3920038938522339,0.6757507920265198,0.3424644470214844,-0.8689777851104736,0.7089704275131226,0.19985154271125793
1749045356.8104517,-3.943425242100851,-2.451048513452047,-1.9267714023590088,2.8540536600300292,0.7242887616157532,-3.22754413286318,0.15814903378486633,-0.002681880025193095,0.1408083289861679,-0.2378910928964615,0.13849015533924103,0.027674853801727295,0.395133376121521,0.674784243106842,0.3244328498840332,-0.9046127796173096,0.6944454312324524,0.19641578197479248
1749045356.8104901,-3.9431095759021204,-2.451052328149313,-1.926515817642212,2.8535639482685546,0.7245308756828308,-3.227499548588888,0.1595078855752945,-0.002789686433970928,0.13952851295471191,-0.24881763756275177,0.14020825922489166,0.027682684361934662,0.40489840507507324,0.6715635061264038,0.35545429587364197,-0.8575488924980164,0.7152366042137146,0.20752981305122375
1749045356.81053,-3.9427650610553187,-2.451048513452047,-1.9262365102767944,2.8530446726032714,0.72480309009552,-3.2274275461779993,0.15768581628799438,-0.0026866132393479347,0.14060746133327484,-0.2542967200279236,0.13685500621795654,0.02844991721212864,0.47469383478164673,0.6924721002578735,0.3641890585422516,-0.8525749444961548,0.6970599889755249,0.20443393290042877
1749045356.8105688,-3.942504946385519,-2.451080461541647,-1.9259607791900635,2.852529688472412,0.7251127362251282,-3.2273762861834925,0.1589650809764862,-0.003203906584531069,0.14162030816078186,-0.26106953620910645,0.13408733904361725,0.02848997712135315,0.40106356143951416,0.6866203546524048,0.3423680365085602,-0.767478346824646,0.7240184545516968,0.19073347747325897
1749045356.810606,-3.9421501795398157,-2.4510847530760707,-1.925661325454712,2.8520218568989257,0.7253887057304382,-3.2273317019092005,0.15814858675003052,-0.0035298047587275505,0.14070937037467957,-0.25862205028533936,0.13700109720230103,0.028734972700476646,0.3308403789997101,0.6976412534713745,0.30415189266204834,-0.7435448169708252,0.7083738446235657,0.20336103439331055
1749045356.8106434,-3.941791359578268,-2.451076646844381,-1.925417184829712,2.8514835077473144,0.7256727814674377,-3.2272523085223597,0.15818610787391663,-0.0035051957238465548,0.13885511457920074,-0.25268834829330444,0.13831882178783417,0.027522528544068336,0.51011061668396,0.705215573310852,0.3967090845108032,-0.8324140310287476,0.7396038770675659,0.20860135555267334
1749045356.8106813,-3.9414835611926478,-2.451104303399557,-1.9251148700714111,2.8509880739399414,0.7258970141410828,-3.2271772066699427,0.16307273507118225,-0.0027964150067418814,0.141626238822937,-0.2513855993747711,0.140486940741539,0.028166798874735832,0.4801262617111206,0.6897475719451904,0.42429038882255554,-0.8678762912750244,0.7365358471870422,0.1941644847393036
1749045356.810719,-3.9411359469043177,-2.451080461541647,-1.924835443496704,2.8504683214375,0.7261589169502258,-3.2271409670459192,0.16848523914813995,-0.0024494791869074106,0.1461700201034546,-0.2560372054576874,0.14512716233730316,0.02802618034183979,0.39416754245758057,0.6860215663909912,0.3826083540916443,-0.8905320763587952,0.7409214973449707,0.2081473022699356
1749045356.8107562,-3.9408395926104944,-2.4510728321471156,-1.924548625946045,2.849996729488037,0.7265030145645142,-3.2270923296557825,0.17077530920505524,-0.0020627037156373262,0.14854373037815094,-0.2641022503376007,0.14957740902900696,0.028432879596948624,0.373184472322464,0.6753687858581543,0.3797007203102112,-0.8513646125793457,0.7032456994056702,0.20777025818824768
1749045356.8107924,-3.940514866505758,-2.451123376885885,-1.9242329597473145,2.8494106966206054,0.7267598509788513,-3.2270167509662073,0.168667733669281,-0.0020873649045825005,0.14947302639484406,-0.2718133330345154,0.14957746863365173,0.029777102172374725,0.47682052850723267,0.683800458908081,0.3976258337497711,-0.8370509743690491,0.7070515155792236,0.2007024884223938
1749045356.8108299,-3.9401336351977747,-2.4510847530760707,-1.9239376783370972,2.8488594728657226,0.7270439267158508,-3.226980272923605,0.1703520268201828,-0.0024240855127573013,0.15383107960224152,-0.269173264503479,0.15448497235774994,0.030675293877720833,0.48133736848831177,0.6547361612319946,0.36206120252609253,-0.8392279744148254,0.7017799615859985,0.1914236694574356
1749045356.8108668,-3.939812485371725,-2.4511052570738734,-1.9236501455307007,2.8483168321796875,0.7273783087730408,-3.2268853823291224,0.1711369901895523,-0.0028278713580220938,0.15463067591190338,-0.2678552269935608,0.15155714750289917,0.030481256544589996,0.38142937421798706,0.6859170198440552,0.33305487036705017,-0.8299516439437866,0.6968590021133423,0.19622603058815002
1749045356.8109045,-3.939429585133688,-2.451120992700094,-1.9233314990997314,2.8477827745625,0.7276776432991028,-3.2268369833575647,0.1720438450574875,-0.0033080442808568478,0.15405450761318207,-0.261227011680603,0.15185131132602692,0.030042165890336037,0.41464757919311523,0.6748265027999878,0.31335529685020447,-0.8914477229118347,0.6944977641105652,0.2095569223165512
1749045356.810942,-3.9390509764300745,-2.451108594933981,-1.9230120182037354,2.847277804011963,0.7280077934265137,-3.2267850081073206,0.17066092789173126,-0.0032599675469100475,0.1544778198003769,-0.26163598895072937,0.15444199740886688,0.029652198776602745,0.4850216507911682,0.6909152865409851,0.3273560404777527,-0.9132078289985657,0.6785703301429749,0.19519789516925812
1749045356.8109787,-3.938800875340597,-2.4511124096312464,-1.9227286577224731,2.846719427699707,0.728300929069519,-3.226725403462545,0.17180167138576508,-0.003611941123381257,0.1538885086774826,-0.2687797248363495,0.1495457887649536,0.029658155515789986,0.48588719964027405,0.6939446330070496,0.35822534561157227,-0.9344077110290527,0.7121849060058594,0.18897950649261475
1749045356.8110151,-3.938387695943014,-2.451136728326315,-1.9224053621292114,2.8461295801350097,0.7286041378974915,-3.226668898259298,0.17512980103492737,-0.0038653588853776455,0.15583300590515137,-0.27579522132873535,0.14878016710281372,0.030480144545435905,0.4297879934310913,0.68885338306427,0.3490929901599884,-0.8659734129905701,0.7189621925354004,0.18476203083992004
1749045356.811118,-3.938040081654684,-2.451164861718649,-1.9220621585845947,2.845573588008545,0.7288916110992432,-3.226600710545675,0.175779789686203,-0.003819476580247283,0.15665671229362488,-0.28602659702301025,0.14922210574150085,0.03099498711526394,0.4183720350265503,0.689367413520813,0.326603502035141,-0.8204413652420044,0.7493146061897278,0.1779986321926117
1749045356.8124762,-3.937716070805685,-2.451141496697897,-1.9217631816864014,2.8449908930012207,0.7291952967643738,-3.226536814366476,0.17668284475803375,-0.003773581935092807,0.15702083706855774,-0.28380560874938965,0.14982406795024872,0.03169221058487892,0.4498926103115082,0.700926661491394,0.3512876331806183,-0.8010510206222534,0.7362479567527771,0.19580797851085663
1749045356.8583114,-3.937368933354513,-2.451141496697897,-1.9214394092559814,2.844372435207031,0.7294928431510925,-3.2264488379107874,0.17776066064834595,-0.0031837939750403166,0.15730242431163788,-0.27915486693382263,0.15170739591121674,0.03087504766881466,0.4403151571750641,0.6983742713928223,0.3577496409416199,-0.8094069957733154,0.7267251014709473,0.17359697818756104
1749045356.85836,-3.9369786421405237,-2.451141496697897,-1.9211595058441162,2.8438164430805664,0.7298234701156616,-3.2264204660998743,0.18046005070209503,-0.0027503424789756536,0.1579064279794693,-0.2755480408668518,0.15472660958766937,0.03160453587770462,0.41410309076309204,0.6837545037269592,0.36382412910461426,-0.8388498425483704,0.7277495265007019,0.1833522766828537
1749045356.8584013,-3.9366162459002894,-2.4511834583678187,-1.9207935333251953,2.8432256418415527,0.7301493287086487,-3.2263601461993616,0.18244071304798126,-0.0025644360575824976,0.15859316289424896,-0.27721378207206726,0.15665598213672638,0.0307655930519104,0.43046072125434875,0.6697039008140564,0.3676735460758209,-0.880695104598999,0.7151082754135132,0.20756115019321442
1749045356.8584404,-3.9362381140338343,-2.451165338555807,-1.9204825162887573,2.842665358180664,0.7304475903511047,-3.2262585798846644,0.1829720437526703,-0.0023898384533822536,0.1581553816795349,-0.2817952036857605,0.15889698266983032,0.030075037851929665,0.4392538368701935,0.6671492457389832,0.39571231603622437,-0.8342096209526062,0.7070056796073914,0.20597811043262482
1749045356.858479,-3.93588096300234,-2.4511686764159144,-1.9201467037200928,2.8420588213154296,0.7307969331741333,-3.226224962865011,0.18463698029518127,-0.0029119651298969984,0.15961739420890808,-0.28718358278274536,0.15866249799728394,0.030547307804226875,0.49467968940734863,0.6721941828727722,0.3739756941795349,-0.8217225074768066,0.7128848433494568,0.21561524271965027
1749045356.8585198,-3.9354992548571985,-2.45115389446401,-1.919800043106079,2.8414880472370605,0.73112952709198,-3.226180378590719,0.18455052375793457,-0.003162889275699854,0.1631453037261963,-0.29027122259140015,0.15604712069034576,0.03161410987377167,0.4437614381313324,0.667527437210083,0.344251811504364,-0.7724004983901978,0.7194672226905823,0.2057613730430603
1749045356.8585577,-3.9351826349841517,-2.45117249111318,-1.9195077419281006,2.84090964376416,0.7314537167549133,-3.226105515156881,0.18387539684772491,-0.0039813523180782795,0.16223643720149994,-0.28368550539016724,0.15719187259674072,0.03149397298693657,0.4455866813659668,0.6717288494110107,0.3763236403465271,-0.8331148624420166,0.7316230535507202,0.20291265845298767
1749045356.8585951,-3.9351826349841517,-2.45117249111318,-1.9195077419281006,2.84090964376416,0.7314537167549133,-3.226105515156881,0.18387539684772491,-0.0039813523180782795,0.16223643720149994,-0.28368550539016724,0.15719187259674072,0.03149397298693657,0.4455866813659668,0.6717288494110107,0.3763236403465271,-0.8331148624420166,0.7316230535507202,0.20291265845298767
1749045356.8586328,-3.9343672434436243,-2.451212545434469,-1.9188295602798462,2.839799090022705,0.7321171164512634,-3.2259889284717005,0.18703679740428925,-0.003958968445658684,0.16530463099479675,-0.2839282751083374,0.1561776101589203,0.03288586437702179,0.49437522888183594,0.6836243271827698,0.38324809074401855,-0.8806129097938538,0.7289742231369019,0.17240794003009796
1749045356.8586702,-3.9340181986438196,-2.4511968098082484,-1.9185067415237427,2.8391968446918945,0.7324621081352234,-3.2258902231799524,0.18962737917900085,-0.0037040056195110083,0.16491642594337463,-0.2929580509662628,0.16200198233127594,0.03239011764526367,0.4380367398262024,0.6603525280952454,0.3714682161808014,-0.8552910089492798,0.7122776508331299,0.17903932929039001
1749045356.858708,-3.933607880269186,-2.451204916039938,-1.9181873798370361,2.83863274633374,0.7327359318733215,-3.2258101145373743,0.1915702074766159,-0.0033898181281983852,0.16590529680252075,-0.3017483353614807,0.15976303815841675,0.032530590891838074,0.4548097252845764,0.6829460859298706,0.3733627200126648,-0.8392959833145142,0.7120048999786377,0.1964152753353119
1749045356.8587453,-3.9332132975207728,-2.4512206516661585,-1.9178519248962402,2.8380376535603027,0.7330583930015564,-3.2257350126849573,0.1937246471643448,-0.0034568274859339,0.16660825908184052,-0.3001727759838104,0.16166479885578156,0.032212503254413605,0.4659811854362488,0.6873596906661987,0.39681482315063477,-0.829217791557312,0.740234375,0.20657828450202942
1749045356.8587823,-3.932873312626974,-2.4512487850584925,-1.917528510093689,2.8374034601398925,0.7333858609199524,-3.2256904284106653,0.19805482029914856,-0.0036518543493002653,0.1684585064649582,-0.29846450686454773,0.16450265049934387,0.033284127712249756,0.41517990827560425,0.6642860770225525,0.3858587443828583,-0.8275505900382996,0.7225739359855652,0.19673334062099457
1749045356.8588243,-3.9324470202075403,-2.451244970361227,-1.917192816734314,2.836836023921631,0.7337119579315186,-3.225602928792135,0.19628074765205383,-0.0029360970947891474,0.1700538992881775,-0.2979808449745178,0.1673646718263626,0.032622307538986206,0.4415929913520813,0.657595694065094,0.3803381621837616,-0.8523470759391785,0.7269750237464905,0.18906235694885254
1749045356.8588665,-3.932068649922506,-2.4512521229186,-1.9168548583984375,2.836181803340576,0.7340628504753113,-3.2255738417254847,0.1936914026737213,-0.002872331300750375,0.17104853689670563,-0.3033578395843506,0.1731705367565155,0.0330904982984066,0.4795101284980774,0.6817958950996399,0.3673272728919983,-0.8438411951065063,0.6870357990264893,0.18271076679229736
1749045356.8589046,-3.931727711354391,-2.451287408868307,-1.9164999723434448,2.8355585771748046,0.7344419956207275,-3.225509230290548,0.1957540214061737,-0.0030209829565137625,0.1720372885465622,-0.31254860758781433,0.17188914120197296,0.03256329149007797,0.46218928694725037,0.6677748560905457,0.3690570592880249,-0.8162230849266052,0.6670469641685486,0.19832630455493927
1749045356.8589425,-3.9313374201404017,-2.4512797794737757,-1.916152834892273,2.834943934077881,0.7347933650016785,-3.225452725087301,0.19925116002559662,-0.00406586704775691,0.1726037561893463,-0.3131389319896698,0.16890168190002441,0.03187789022922516,0.45962584018707275,0.6852663159370422,0.3465729355812073,-0.783640444278717,0.6814520955085754,0.20447005331516266
1749045356.8589792,-3.9309237639056605,-2.4513117275633753,-1.9157779216766357,2.834301157588623,0.7351533770561218,-3.225354258214132,0.19914251565933228,-0.005750926211476326,0.1757921725511551,-0.31297099590301514,0.1699497252702713,0.032541994005441666,0.47520211338996887,0.6977538466453552,0.37250441312789917,-0.7563802003860474,0.6734559535980225,0.20678921043872833
1749045356.8590167,-3.9305549303637903,-2.451296468774313,-1.9154691696166992,2.8336893755146484,0.7354478240013123,-3.2253175417529505,0.19989553093910217,-0.005168576259166002,0.1762704700231552,-0.3067471981048584,0.16658897697925568,0.03192514926195145,0.4946008324623108,0.7313933372497559,0.3581525981426239,-0.8088052272796631,0.6880271434783936,0.20969350636005402
1749045356.8590536,-3.930099074040548,-2.451308389703268,-1.9151175022125244,2.833078070277832,0.7357755303382874,-3.225222651158468,0.20004902780056,-0.004279093351215124,0.17776794731616974,-0.30663684010505676,0.16721989214420319,0.0325399711728096,0.4813767969608307,0.6921219229698181,0.3550328314304352,-0.8322293162345886,0.7000430822372437,0.2135203331708908
1749045356.8590908,-3.929710928593771,-2.4513007603087367,-1.914762258529663,2.8324710565754394,0.7361664175987244,-3.2251890341388147,0.20076532661914825,-0.0036066663451492786,0.1784769892692566,-0.31368106603622437,0.16838228702545166,0.03279290720820427,0.4652232229709625,0.7000797986984253,0.3571964502334595,-0.8366087675094604,0.6861552596092224,0.21821171045303345
1749045356.8591273,-3.9292851130114954,-2.451273103753561,-1.9143842458724976,2.8318192201801757,0.7364717125892639,-3.225044075642721,0.20163904130458832,-0.0033484750892966986,0.17673666775226593,-0.31807610392570496,0.17164663970470428,0.034261684864759445,0.4766269326210022,0.688036322593689,0.36687523126602173,-0.8161379098892212,0.7009962201118469,0.20629101991653442
1749045356.8592403,-3.9289279619800013,-2.4512974224486292,-1.9140528440475464,2.831184073085449,0.736872673034668,-3.225010935460226,0.2031351923942566,-0.0030892621725797653,0.17728620767593384,-0.32097747921943665,0.17453157901763916,0.03436388075351715,0.49430012702941895,0.668187141418457,0.3618276119232178,-0.7499682307243347,0.6703189015388489,0.2057262659072876
1749045356.860495,-3.9285054842578333,-2.4513007603087367,-1.9137016534805298,2.8305370050617675,0.7371659278869629,-3.224978272114889,0.20514169335365295,-0.0028909780085086823,0.178604856133461,-0.31795164942741394,0.17442511022090912,0.03421849384903908,0.45560702681541443,0.6814452409744263,0.3772820830345154,-0.7685648798942566,0.6844700574874878,0.20625519752502441
1749045356.9023523,-3.9280472437488,-2.4513236484923304,-1.9133309125900269,2.8298980432697753,0.7375141978263855,-3.2249015013324183,0.20804762840270996,-0.002660259371623397,0.17927207052707672,-0.31615257263183594,0.17511700093746185,0.034341536462306976,0.43607303500175476,0.6798129081726074,0.3763568103313446,-0.7928346991539001,0.6695359349250793,0.1941000521183014
1749045356.902399,-3.927655283604757,-2.4513126812376917,-1.912959098815918,2.8293067651936035,0.7378929853439331,-3.224818531666891,0.21106712520122528,-0.002912909025326371,0.17972099781036377,-0.3196679651737213,0.17467595636844635,0.03369816392660141,0.4845249652862549,0.6740354299545288,0.405508816242218,-0.8331357836723328,0.7063145041465759,0.2201925367116928
1749045356.9024403,-3.9272411505328577,-2.4513045750060023,-1.9125844240188599,2.828624411220215,0.738203227519989,-3.2247663179980677,0.21151331067085266,-0.0029779761098325253,0.1821611374616623,-0.3281770348548889,0.17628070712089539,0.03503512963652611,0.4515398144721985,0.6830793619155884,0.38332322239875793,-0.7884553074836731,0.7043763399124146,0.19952726364135742
1749045356.9024796,-3.92680269876589,-2.451324602166647,-1.9121983051300049,2.8280159670063476,0.7385784983634949,-3.2246788183795374,0.21009662747383118,-0.00347259733825922,0.18389678001403809,-0.33263978362083435,0.17558450996875763,0.03543819114565849,0.4750806391239166,0.6582392454147339,0.3942943811416626,-0.7727944254875183,0.6788286566734314,0.2013915479183197
1749045356.9025183,-3.9263749758349817,-2.4513474903502406,-1.9118343591690063,2.8273417192646484,0.7389625906944275,-3.224602762852804,0.2104356586933136,-0.004389205016195774,0.18451060354709625,-0.32853513956069946,0.17206816375255585,0.035153284668922424,0.5206310153007507,0.6759141683578491,0.3875972032546997,-0.791513979434967,0.7134037017822266,0.219216451048851
1749045356.9025574,-3.9259331862079065,-2.451336523095602,-1.9114588499069214,2.826690836543701,0.7393262386322021,-3.2245150248156946,0.21279793977737427,-0.004303404130041599,0.18628239631652832,-0.32666468620300293,0.17783328890800476,0.03569734841585159,0.4695727229118347,0.695497989654541,0.368886262178421,-0.8059215545654297,0.6927509307861328,0.2179572731256485
1749045356.902596,-3.925521437321798,-2.451352735558981,-1.9110915660858154,2.826028032893799,0.7396621704101562,-3.2244656721698206,0.21448561549186707,-0.004079825710505247,0.18718942999839783,-0.3281671404838562,0.17810103297233582,0.0345667265355587,0.43330246210098267,0.6899526119232178,0.34062549471855164,-0.8393585085868835,0.7260813117027283,0.22050975263118744
1749045356.9026344,-3.925133291875021,-2.45139278988027,-1.910701036453247,2.825369043941162,0.7400596737861633,-3.2243316809283655,0.21378374099731445,-0.003736787009984255,0.18470847606658936,-0.33668020367622375,0.18075740337371826,0.03579600900411606,0.45716047286987305,0.6658225059509277,0.3888189196586609,-0.7974352836608887,0.7144603729248047,0.21452322602272034
1749045356.9026735,-3.9246955553637903,-2.451407571832174,-1.9103610515594482,2.8246981340595703,0.7404006123542786,-3.224271599446432,0.2138737440109253,-0.0037177579943090677,0.18738935887813568,-0.34405645728111267,0.18435336649417877,0.03659563139081001,0.4826546907424927,0.7036718130111694,0.3962060809135437,-0.7948389053344727,0.68994140625,0.20106399059295654
1749045356.9027114,-3.9242497126208704,-2.4514199695982875,-1.9099937677383423,2.824044390315674,0.7407537698745728,-3.224227492009298,0.2153201550245285,-0.004753779619932175,0.1907348483800888,-0.3413340151309967,0.18492700159549713,0.03644084930419922,0.45994478464126587,0.6897976398468018,0.37442663311958313,-0.7689916491508484,0.7149113416671753,0.22070887684822083
1749045356.9027488,-3.9238341490374964,-2.4513851604857386,-1.9095841646194458,2.8233958917805175,0.7411140203475952,-3.2241435686694544,0.21753467619419098,-0.0049130660481750965,0.18952186405658722,-0.3380544185638428,0.18860992789268494,0.036598846316337585,0.4513813555240631,0.7129651308059692,0.3710862696170807,-0.8035441040992737,0.7043741941452026,0.20155228674411774
1749045356.902787,-3.9233995119677942,-2.4514318905272425,-1.9091925621032715,2.8226935106464843,0.7415017485618591,-3.2240825335132044,0.2202109843492508,-0.0037969453260302544,0.1899254322052002,-0.33744165301322937,0.1864785999059677,0.036755286157131195,0.4894636273384094,0.6979560852050781,0.4028257131576538,-0.8507099747657776,0.6899177432060242,0.2232145071029663
1749045356.9028254,-3.9233995119677942,-2.4514318905272425,-1.9091925621032715,2.8226935106464843,0.7415017485618591,-3.2240825335132044,0.2202109843492508,-0.0037969453260302544,0.1899254322052002,-0.33744165301322937,0.1864785999059677,0.036755286157131195,0.4894636273384094,0.6979560852050781,0.4028257131576538,-0.8507099747657776,0.6899177432060242,0.2232145071029663
1749045356.9028628,-3.92253286043276,-2.4514018497862757,-1.9084300994873047,2.821363611812256,0.7422437071800232,-3.2239227930652063,0.2222900241613388,-0.0027918568812310696,0.19502583146095276,-0.3446398377418518,0.18981501460075378,0.03757132217288017,0.4038623571395874,0.6753385066986084,0.348205029964447,-0.8299664258956909,0.6741926670074463,0.23056620359420776
1749045356.9029,-3.922117296849386,-2.451409002343649,-1.908035159111023,2.8207079607197265,0.7426308989524841,-3.223844114934103,0.22084131836891174,-0.0033152117393910885,0.19532953202724457,-0.3443050682544708,0.19062042236328125,0.03744569048285484,0.4766310453414917,0.6742340326309204,0.3446941375732422,-0.8301898837089539,0.6677874326705933,0.2248033881187439
1749045356.9029374,-3.921635691319601,-2.4514714680113734,-1.9076358079910278,2.819997950191162,0.7430183291435242,-3.223787848149435,0.2207736372947693,-0.004151316359639168,0.19503097236156464,-0.34284377098083496,0.19064293801784515,0.03793031722307205,0.5203894972801208,0.6979649066925049,0.37154117226600647,-0.8618437051773071,0.6854785084724426,0.21348337829113007
1749045356.9029741,-3.9211891333209437,-2.451420923272604,-1.9072412252426147,2.8193270403095703,0.7434108853340149,-3.223710600529806,0.22434687614440918,-0.0040462808683514595,0.19440101087093353,-0.34472399950027466,0.19246108829975128,0.03914402797818184,0.5439481139183044,0.689570426940918,0.40153247117996216,-0.9298292398452759,0.6894645690917969,0.21529385447502136
1749045356.903011,-3.920804564152853,-2.4514595470824183,-1.9068772792816162,2.8186351495930175,0.7438480257987976,-3.2236467043506067,0.22889164090156555,-0.0036774631589651108,0.19638201594352722,-0.35411253571510315,0.1946769505739212,0.03927762433886528,0.45448535680770874,0.6725254654884338,0.37554603815078735,-0.8835819959640503,0.6761731505393982,0.21469494700431824
1749045356.9030476,-3.9202993551837366,-2.451432844201559,-1.9064664840698242,2.817913218135498,0.7441932559013367,-3.2235353628741663,0.2315075695514679,-0.0035376467276364565,0.1958611160516739,-0.36170369386672974,0.1952916830778122,0.03919314220547676,0.4560871422290802,0.6916765570640564,0.3761545717716217,-0.8386986255645752,0.6576166152954102,0.18535959720611572
1749045356.9030848,-3.9198442141162317,-2.4514643154540003,-1.9060708284378052,2.8171626764484863,0.7445963025093079,-3.223466936741964,0.23061712086200714,-0.0035013349261134863,0.19532957673072815,-0.3587680459022522,0.1960235834121704,0.03950586915016174,0.4562874436378479,0.6797394752502441,0.3988748788833618,-0.845775842666626,0.6713999509811401,0.19839680194854736
1749045356.9031947,-3.9194121996508997,-2.45151486019277,-1.9056763648986816,2.8164684015461425,0.7449493408203125,-3.2233555952655237,0.22975841164588928,-0.003266723360866308,0.19903787970542908,-0.35643672943115234,0.19428865611553192,0.03854355588555336,0.496963769197464,0.6712145209312439,0.3944149613380432,-0.8960449695587158,0.6918054819107056,0.20184847712516785
1749045356.9044704,-3.918924872075216,-2.451425691644186,-1.9052894115447998,2.81575791418042,0.7453296780586243,-3.223264519368307,0.23174606263637543,-0.0031858000438660383,0.20044395327568054,-0.36034369468688965,0.19467905163764954,0.04037681594491005,0.41250860691070557,0.6671258211135864,0.376580148935318,-0.8771940469741821,0.660183310508728,0.18392165005207062
1749045356.9503257,-3.91848594347109,-2.4514767132201136,-1.9048821926116943,2.81496445714917,0.7457378506660461,-3.2232242266284388,0.23188504576683044,-0.003339191433042288,0.20076751708984375,-0.3659134805202484,0.19239377975463867,0.04140177369117737,0.44875261187553406,0.634456217288971,0.37384897470474243,-0.8732290863990784,0.7132613062858582,0.18937814235687256
1749045356.9503725,-3.91797906557192,-2.451472898522848,-1.9044742584228516,2.8142215448566894,0.7461217641830444,-3.22312838235964,0.23371708393096924,-0.004231803119182587,0.1990385502576828,-0.363793283700943,0.19596311450004578,0.041422974318265915,0.4706431031227112,0.6780250668525696,0.4027775526046753,-0.8493284583091736,0.6946835517883301,0.18345779180526733
1749045356.9504168,-3.9175007979022425,-2.4515119991698207,-1.9040642976760864,2.813474341029785,0.7464833855628967,-3.223071877156393,0.2350708544254303,-0.004158542491495609,0.20020811259746552,-0.3626162111759186,0.19464565813541412,0.03938852995634079,0.4873235821723938,0.6997517347335815,0.41914406418800354,-0.8631857633590698,0.7143562436103821,0.18636612594127655
1749045356.9504626,-3.9170754591571253,-2.451496740380758,-1.9036731719970703,2.812746210689209,0.7469210028648376,-3.2229650656329554,0.2359159141778946,-0.004414512775838375,0.20292063057422638,-0.36216577887535095,0.19825109839439392,0.038412824273109436,0.46004778146743774,0.696855366230011,0.41255587339401245,-0.8482860326766968,0.7187348008155823,0.19509615004062653
1749045356.9505022,-3.9165688196765345,-2.451531549493307,-1.903293251991272,2.811995669002197,0.7473254203796387,-3.2228930632220667,0.23458711802959442,-0.005230056121945381,0.2043609470129013,-0.36520060896873474,0.20330224931240082,0.0389900729060173,0.49394887685775757,0.6910828948020935,0.3818981945514679,-0.8756759762763977,0.6805523037910461,0.2134058177471161
1749045356.9505405,-3.916077200566427,-2.4515134296812953,-1.9028618335723877,2.8112379747578125,0.747740626335144,-3.22284442583193,0.23714765906333923,-0.005636890418827534,0.2045471966266632,-0.3680311143398285,0.20742401480674744,0.03983825817704201,0.48242560029029846,0.7124695181846619,0.3869667053222656,-0.8586415648460388,0.6617953777313232,0.20555837452411652
1749045356.9505816,-3.916077200566427,-2.4515134296812953,-1.9028618335723877,2.8112379747578125,0.747740626335144,-3.22284442583193,0.23714765906333923,-0.005636890418827534,0.2045471966266632,-0.3680311143398285,0.20742401480674744,0.03983825817704201,0.48242560029029846,0.7124695181846619,0.3869667053222656,-0.8586415648460388,0.6617953777313232,0.20555837452411652
1749045356.9506197,-3.9151185194598597,-2.4515515766539515,-1.9020249843597412,2.8097235399433593,0.7485753893852234,-3.2226880232440394,0.2413989156484604,-0.004030966199934483,0.2112114429473877,-0.36950093507766724,0.2073706090450287,0.041657641530036926,0.42400169372558594,0.6851222515106201,0.37688544392585754,-0.8112722635269165,0.65720134973526,0.18791404366493225
1749045356.9506612,-3.914659086857931,-2.451548238793844,-1.901625633239746,2.8090073305317382,0.7489574551582336,-3.222607676182882,0.23960143327713013,-0.00360756553709507,0.21132433414459229,-0.3652615547180176,0.20438380539417267,0.04133826866745949,0.43417391180992126,0.6702316403388977,0.37692806124687195,-0.8440717458724976,0.6770581007003784,0.19653934240341187
1749045356.9507003,-3.9141791502581995,-2.4515682659544886,-1.9011753797531128,2.808279200191162,0.7493621706962585,-3.222520176564352,0.23823018372058868,-0.0035930757876485586,0.2092781960964203,-0.3664015233516693,0.20461317896842957,0.04146936535835266,0.471659779548645,0.6992071270942688,0.4022946357727051,-0.8714690804481506,0.6695714592933655,0.18789395689964294
1749045356.9507382,-3.913638416920797,-2.4515444240965785,-1.9007818698883057,2.8075052934833984,0.7497889399528503,-3.222470823918478,0.23962727189064026,-0.004082623869180679,0.21095359325408936,-0.3727152645587921,0.20406179130077362,0.04306836798787117,0.5704712867736816,0.6878769993782043,0.41921719908714294,-0.8580467104911804,0.7085584998130798,0.1814630776643753
1749045356.9507754,-3.913638416920797,-2.4515444240965785,-1.9007818698883057,2.8075052934833984,0.7497889399528503,-3.222470823918478,0.23962727189064026,-0.004082623869180679,0.21095359325408936,-0.3727152645587921,0.20406179130077362,0.04306836798787117,0.5704712867736816,0.6878769993782043,0.41921719908714294,-0.8580467104911804,0.7085584998130798,0.1814630776643753
1749045356.950812,-3.91270357767214,-2.4515611133971156,-1.899894118309021,2.8060433107563476,0.7505912184715271,-3.2222490946399134,0.24429240822792053,-0.005150116514414549,0.21390455961227417,-0.3754476010799408,0.20995089411735535,0.04241999238729477,0.41636574268341064,0.7119897603988647,0.3738754391670227,-0.8372355699539185,0.6779965758323669,0.17697735130786896
1749045356.950849,-3.9122212568866175,-2.451564451257223,-1.8994672298431396,2.8052593904682617,0.7510131597518921,-3.222137753163473,0.24288804829120636,-0.004357010591775179,0.21355612576007843,-0.3763456344604492,0.21009628474712372,0.04103352129459381,0.435724139213562,0.6958867907524109,0.40780964493751526,-0.8649318218231201,0.6964078545570374,0.18893739581108093
1749045356.9508865,-3.911722246800558,-2.4515844784178675,-1.8990601301193237,2.8044745165058593,0.7514020204544067,-3.2220967451678675,0.24465660750865936,-0.003704179311171174,0.21363985538482666,-0.3793833255767822,0.2097366452217102,0.04030882939696312,0.5174042582511902,0.6894701719284058,0.4272286891937256,-0.9090525507926941,0.713651716709137,0.19230937957763672
1749045356.9509237,-3.911227289830343,-2.451592107812399,-1.898618459701538,2.8037444788166503,0.7518426179885864,-3.2220009008990687,0.24480579793453217,-0.003380579175427556,0.21638745069503784,-0.38547590374946594,0.21252883970737457,0.04045018181204796,0.466006338596344,0.6809800267219543,0.3856213092803955,-0.8363050222396851,0.6979011297225952,0.20046895742416382
