nimar13/UR3e_dataset_trayectorias/trayectorias_ejecutadas/quintic_func/trayectoria_246_result.csv
timestamp,q1,q2,q3,q4,q5,q6,qd1,qd2,qd3,qd4,qd5,qd6,tau1,tau2,tau3,tau4,tau5,tau6
1749045964.9502795,2.9906792640686035,-0.6029690665057679,-2.4039270877838135,-2.6315251789488734,-0.49444610277284795,-0.6585934797870081,-0.0030241222120821476,-0.00043326718150638044,0.0018887607147917151,0.0010218360694125295,0.0006907026981934905,-0.0002541763533372432,0.05973155051469803,-0.03667868673801422,1.1129813194274902,0.378248929977417,-0.32211318612098694,-0.11692345887422562
1749045964.9503317,2.9906516075134277,-0.6029656690410157,-2.403958797454834,-2.631521841088766,-0.49449187914003545,-0.6585863272296351,-0.0025879070162773132,-0.0004055643221363425,0.001679111272096634,0.0008684209315106273,0.000631215691100806,-0.0002455035282764584,0.07051460444927216,-0.020369842648506165,1.1025426387786865,0.39447343349456787,-0.33830881118774414,-0.09658237546682358
1749045964.9503732,2.9906792640686035,-0.6029690665057679,-2.4039196968078613,-2.6315370998778285,-0.494453255330221,-0.65857440630068,-0.0017693686531856656,-0.0003592996799852699,0.0013180479872971773,0.0007517061312682927,0.0005065738805569708,-0.0002298268082085997,0.044431790709495544,-0.0418519526720047,1.114660382270813,0.39198920130729675,-0.3313959538936615,-0.12069127708673477
1749045964.9504118,2.9906792640686035,-0.6029690665057679,-2.4039196968078613,-2.6315370998778285,-0.494453255330221,-0.65857440630068,-0.0017693686531856656,-0.0003592996799852699,0.0013180479872971773,0.0007517061312682927,0.0005065738805569708,-0.0002298268082085997,0.044431790709495544,-0.0418519526720047,1.114660382270813,0.39198920130729675,-0.3313959538936615,-0.12069127708673477
1749045964.950455,2.9906721115112305,-0.6029690665057679,-2.4039742946624756,-2.631498952905172,-0.4944689909564417,-0.6585467497455042,-0.0015762012917548418,-0.0003399117267690599,0.001118368236348033,0.0006626879912801087,0.00045521941501647234,-0.00022271378838922828,0.03729930520057678,-0.005311504006385803,1.1223622560501099,0.40457192063331604,-0.3349449932575226,-0.1287369728088379
1749045964.9504964,2.9907066822052,-0.6029656690410157,-2.4039552211761475,-2.6315180263915003,-0.49442989030946904,-0.6585395971881312,-0.0012244157260283828,-0.0003225100226700306,0.0009675168548710644,0.0005904921563342214,0.0004132719768676907,-0.0002160307631129399,0.05573153495788574,-0.03469841182231903,1.121169924736023,0.3990945518016815,-0.325280100107193,-0.13018187880516052
1749045964.9505334,2.990722417831421,-0.6029503506473084,-2.4039669036865234,-2.6315061054625453,-0.4944499174701136,-0.6585310141192835,-0.0009420369751751423,-0.000306802277918905,0.000852951779961586,0.0005321358912624419,0.00043946210644207895,-0.00020973631762899458,0.05061310529708862,-0.01724797487258911,1.1261695623397827,0.4053797125816345,-0.32768282294273376,-0.1290774941444397
1749045964.9505699,2.9906792640686035,-0.6029656690410157,-2.4039669036865234,-2.6315061054625453,-0.49447709718813115,-0.6585705916034144,-0.0009285458945669234,-0.0002925543230958283,0.0007624709978699684,0.00048426759894937277,0.00041619903640821576,-0.00020379637135192752,0.013559117913246155,-0.0060224831104278564,1.1290181875228882,0.4037662148475647,-0.3217621147632599,-0.12904402613639832
1749045964.950607,2.990675687789917,-0.6029571455768128,-2.403963327407837,-2.6315370998778285,-0.4944651762591761,-0.6585548559771937,-0.0007962231175042689,-0.00027957092970609665,0.0006891630473546684,0.0004443058278411627,0.00038812457933090627,-0.00015898192941676825,-0.00012402236461639404,-0.0029532164335250854,1.1443341970443726,0.3927976191043854,-0.3319714665412903,-0.13038045167922974
1749045964.950644,2.9906444549560547,-0.6029690665057679,-2.4039669036865234,-2.631521841088766,-0.4944375197040003,-0.6585586706744593,-0.0008055449579842389,-0.00026769147370941937,0.0006290434976108372,0.0004104416002519429,0.00036235383595339954,-0.00013130066508892924,0.0424409955739975,-0.0016842037439346313,1.1248910427093506,0.40694430470466614,-0.3412589728832245,-0.13963817059993744
1749045964.9506807,2.9906911849975586,-0.6029690665057679,-2.4039478302001953,-2.6315180263915003,-0.49441796938051397,-0.6585586706744593,-0.0007171989418566227,-0.0002567795163486153,0.000578462437260896,0.00038139676325954497,0.00033960206201300025,-0.00012361090921331197,0.04398863762617111,0.00572340190410614,1.1352674961090088,0.40705546736717224,-0.3339930474758148,-0.13774606585502625
1749045964.950718,2.9906911849975586,-0.6029690665057679,-2.4039478302001953,-2.6315180263915003,-0.49441796938051397,-0.6585586706744593,-0.0007171989418566227,-0.0002567795163486153,0.000578462437260896,0.00038139676325954497,0.00033960206201300025,-0.00012361090921331197,0.04398863762617111,0.00572340190410614,1.1352674961090088,0.40705546736717224,-0.3339930474758148,-0.13774606585502625
1749045964.9507551,2.9907138347625732,-0.6029622715762635,-2.403951406478882,-2.631498952905172,-0.49444610277284795,-0.6585896650897425,-0.0005842000246047974,-7.491202995879576e-05,0.0004983192193321884,0.0003341159026604146,0.00030161699396558106,-0.00013785416376776993,0.027910977602005005,0.017703086137771606,1.1263456344604492,0.40567412972450256,-0.33972790837287903,-0.12559469044208527
1749045964.9507914,2.9907138347625732,-0.6029622715762635,-2.403951406478882,-2.631498952905172,-0.49444610277284795,-0.6585896650897425,-0.0005842000246047974,-7.491202995879576e-05,0.0004983192193321884,0.0003341159026604146,0.00030161699396558106,-0.00013785416376776993,0.027910977602005005,0.017703086137771606,1.1263456344604492,0.40567412972450256,-0.33972790837287903,-0.12559469044208527
1749045964.9508274,2.99068284034729,-0.6029504102519532,-2.4039390087127686,-2.631521841088766,-0.4944422880755823,-0.6585548559771937,-0.0005631701787933707,-6.870704237371683e-05,0.00031555179157294333,0.00033274778979830444,0.0002712903078645468,-0.00016681061242707074,0.03521193191409111,0.01732354611158371,1.146835207939148,0.3916507959365845,-0.3426332473754883,-0.13131509721279144
1749045964.9508634,2.9906983375549316,-0.6029537481120606,-2.4039552211761475,-2.6315142116942347,-0.49439889589418584,-0.6585586706744593,-0.0005223167827352881,-6.618071347475052e-05,0.00033412795164622366,0.00032622352591715753,0.0002582949528004974,-0.00017122029385063797,0.037962354719638824,0.011769741773605347,1.140299677848816,0.40191903710365295,-0.35226354002952576,-0.15278494358062744
1749045964.9509003,2.990663766860962,-0.6029259127429505,-2.403923511505127,-2.6315022907652796,-0.4944265524493616,-0.6585634390460413,-0.0004869602562393993,-6.383378786267713e-05,0.00035353662678971887,0.00031196133932098746,0.0002465005964040756,-0.00047393166460096836,0.07549487054347992,0.029541820287704468,1.131313443183899,0.39742183685302734,-0.34109795093536377,-0.15477299690246582
1749045964.9509535,2.9906864166259766,-0.6029537481120606,-2.4039270877838135,-2.631521841088766,-0.49445802370180303,-0.6585357824908655,-0.0004561254754662514,-6.164747173897922e-05,0.00038380041951313615,0.00029755267314612865,0.00023573324142489582,-0.0005591962253674865,0.03937810659408569,0.03442876785993576,1.1287251710891724,0.41594311594963074,-0.3282181918621063,-0.1406126618385315
1749045964.9510033,2.9907259941101074,-0.6029259127429505,-2.403911590576172,-2.631521841088766,-0.49441463152040654,-0.6585548559771937,-0.00042894843500107527,-5.960595444776118e-05,0.0006098824669606984,0.0002841769019141793,0.00022586106206290424,-0.00057795929023996,0.05469748377799988,0.039067819714546204,1.1339994668960571,0.41195234656333923,-0.35875752568244934,-0.12211618572473526
1749045964.9510415,2.9907138347625732,-0.6029191774180909,-2.4039390087127686,-2.631509920159811,-0.49438363710512334,-0.6585705916034144,-0.00040481120231561363,-5.769542985945009e-05,0.0007858021417632699,0.0002940713311545551,0.00021679283236153424,-0.000559019623324275,0.07162343710660934,0.02402716875076294,1.1197535991668701,0.37772336602211,-0.34912124276161194,-0.13735437393188477
1749045964.951151,2.9906673431396484,-0.6029418271831055,-2.4039151668548584,-2.6315180263915003,-0.4944217840777796,-0.65857440630068,-0.00034022555337287486,-5.590348155237734e-05,0.0007505955873057246,0.00029494872433133423,0.0002084219449898228,-0.0005786644178442657,0.05557994917035103,0.02803906798362732,1.1209629774093628,0.40641123056411743,-0.3531007468700409,-0.14369681477546692
1749045964.9524784,2.9906792640686035,-0.602980987434723,-2.4039270877838135,-2.6315061054625453,-0.4944375197040003,-0.65857440630068,-0.000318460282869637,-5.4219530284171924e-05,0.0006633743178099394,0.0002855317434296012,0.00020066792785655707,-0.0006664828397333622,0.06303133070468903,0.044347479939460754,1.1105676889419556,0.3985597491264343,-0.3636888861656189,-0.1566411554813385
1749045964.9982796,2.990675687789917,-0.6029503506473084,-2.4039461612701416,-2.6315022907652796,-0.49443370500673467,-0.6586220900165003,-0.0003030846710316837,-2.715229675231967e-05,0.0005907696904614568,0.0002750279672909528,0.00019347867055330426,-0.00072607456240803,0.08169659227132797,0.055641062557697296,1.101525902748108,0.40295830368995667,-0.35781005024909973,-0.1534864902496338
1749045964.9983253,2.9906792640686035,-0.6029843252948304,-2.403942584991455,-2.631487031976217,-0.49441463152040654,-0.658543888722555,-0.00028918025782331824,-2.5577512133168057e-05,0.0005322283250279725,0.0002649737289175391,0.0001867843238869682,-0.0007534524775110185,0.08163145184516907,0.04025602340698242,1.1118477582931519,0.4071209728717804,-0.35975977778434753,-0.13731448352336884
1749045964.9983654,2.9907174110412598,-0.6029571455768128,-2.403923511505127,-2.631521841088766,-0.4944651762591761,-0.6586139837848108,-0.0002764878736343235,-2.4863071303116158e-05,0.00048457711818628013,0.00025557391927577555,0.00018053317035082728,-0.0007483646622858942,0.08946433663368225,0.05542248487472534,1.1170932054519653,0.3987242877483368,-0.3625447154045105,-0.1470513641834259
1749045964.9984055,2.990694761276245,-0.6029537481120606,-2.4039196968078613,-2.6315180263915003,-0.4944217840777796,-0.6585825125323694,-9.483039320912212e-05,-2.4194607249228284e-05,0.00044472794979810715,0.000246814131969586,0.00017469405429437757,-0.0007290702778846025,0.08162683993577957,0.046103090047836304,1.1208899021148682,0.39654964208602905,-0.35780587792396545,-0.15878839790821075
1749045964.9984515,2.9906911849975586,-0.6029537481120606,-2.4039390087127686,-2.6315022907652796,-0.4944098631488245,-0.6585863272296351,-4.296857878216542e-05,-2.3561193302157335e-05,0.0004107735585421324,0.00023863140086177737,0.00016921854694373906,-0.0007698650006204844,0.07229961454868317,0.05532367527484894,1.1197304725646973,0.386523574590683,-0.3693836033344269,-0.15494860708713531
1749045964.9985008,2.9906721115112305,-0.6029537481120606,-2.403935194015503,-2.6315180263915003,-0.494453255330221,-0.6585786978351038,-4.056846591993235e-05,-2.2960148271522485e-05,0.00038178981048986316,0.00023097143275663257,0.00016407541988883168,-0.0008001941023394465,0.07795177400112152,0.0608995258808136,1.120914340019226,0.4065547287464142,-0.3644943833351135,-0.15813708305358887
1749045964.9985397,2.9906983375549316,-0.6029350322536011,-2.4039270877838135,-2.6315061054625453,-0.4944255987750452,-0.6585934797870081,-3.881315569742583e-05,-2.2388943762052804e-05,0.0003565691877156496,0.00022379166330210865,0.00015923558385111392,-0.0007880852208472788,0.07524538785219193,0.07413191348314285,1.109237790107727,0.39917662739753723,-0.3458033502101898,-0.14662623405456543
1749045964.998577,2.9907066822052,-0.6029384297183533,-2.4039788246154785,-2.631521841088766,-0.4944570700274866,-0.6586139837848108,-3.720941094798036e-05,-2.1845507944817655e-05,0.00033441002597101033,0.00021704367827624083,0.00015467342745978385,-0.000797425105702132,0.06987469643354416,0.0624602809548378,1.096303939819336,0.3961471915245056,-0.36330416798591614,-0.1557309776544571
1749045964.998614,2.99068284034729,-0.6029259127429505,-2.4039552211761475,-2.6315370998778285,-0.49446088472475225,-0.6585524717914026,-3.573206049622968e-05,-6.7429032242216635e-06,0.00031496642623096704,0.00021068903151899576,0.0001503626408521086,-0.0008538995170965791,0.07096230983734131,0.09489304572343826,1.1131552457809448,0.4036673605442047,-0.37298038601875305,-0.15405580401420593
1749045964.9986506,2.990636110305786,-0.6029503506473084,-2.4039552211761475,-2.6315180263915003,-0.4944098631488245,-0.6585753599749964,-3.436673796386458e-05,-6.578785161082124e-08,0.00029755226569250226,0.00020469898299779743,0.00014629038923885673,-0.000897927035111934,0.08377820253372192,0.07597008347511292,1.1092133522033691,0.4007125496864319,-0.3642663061618805,-0.14083899557590485
1749045964.9986866,2.9906983375549316,-0.6029690665057679,-2.403942584991455,-2.631487031976217,-0.4944060484515589,-0.6586139837848108,-1.0498937626834959e-05,-6.418661713247786e-10,0.0002820065419655293,0.000199038942810148,0.00014243142504710704,-0.0009049272048287094,0.0895444005727768,0.05811617523431778,1.1131304502487183,0.3957449495792389,-0.3646828532218933,-0.15090641379356384
1749045964.9987228,2.9907102584838867,-0.6029571455768128,-2.403951406478882,-2.6315022907652796,-0.4943917433368128,-0.6585825125323694,-1.0243400083709275e-07,-6.2624354486839895e-12,0.00026804659864865243,0.00019368213543202728,0.00013876843149773777,-0.000863994937390089,0.13002431392669678,0.07404986768960953,1.1078835725784302,0.4105749726295471,-0.3595990240573883,-0.14325642585754395
1749045964.9987586,2.9906792640686035,-0.6029877227595826,-2.403916120529175,-2.631514688531393,-0.49441463152040654,-0.6585825125323694,-9.994082228459433e-10,-6.110012533899409e-14,0.00025531958090141416,0.00018860853742808104,0.00013529266288969666,-0.000850090233143419,0.09233047813177109,0.07254248857498169,1.1013330221176147,0.40111595392227173,-0.37630656361579895,-0.14773812890052795
1749045964.9987946,2.99068284034729,-0.6029690665057679,-2.4039196968078613,-2.631497999230856,-0.494453255330221,-0.6585944334613245,-9.750831218846567e-12,-5.96129929816315e-16,0.00024376333749387413,0.0001837931340560317,0.00013198568194638938,-0.0008257831796072423,0.08434414118528366,0.09559877216815948,1.1000995635986328,0.4157763421535492,-0.36643996834754944,-0.1483267843723297
1749045964.9988313,2.990670919418335,-0.6029571455768128,-2.4039390087127686,-2.631521841088766,-0.49440271059145147,-0.6585667769061487,-9.513502724316225e-14,-5.816204671880857e-18,0.00023325196525547653,0.00017921626567840576,0.00012883389717899263,-0.0008489269530400634,0.07398199290037155,0.08693061769008636,1.1092865467071533,0.4039296805858612,-0.3625066578388214,-0.1493307203054428
1749045964.9988675,2.9906983375549316,-0.6029503506473084,-2.4039270877838135,-2.631487031976217,-0.49444610277284795,-0.6585558096515101,-9.28195008985497e-16,-5.674641886577326e-20,0.00022359279682859778,0.00017486386059317738,0.0001258329866686836,-0.000858524814248085,0.09153462946414948,0.08551060408353806,1.1236718893051147,0.40768855810165405,-0.3670191764831543,-0.169051393866539
1749045964.9989038,2.9906864166259766,-0.602975921039917,-2.4039196968078613,-2.6315061054625453,-0.4944265524493616,-0.6585753599749964,-9.056033730415263e-18,-5.53652522133181e-22,0.00021467593614943326,0.0001400238397764042,0.00012296735076233745,-0.0008643873734399676,0.07417817413806915,0.06969336420297623,1.1339468955993652,0.42963987588882446,-0.35402074456214905,-0.1391831636428833
1749045964.99894,2.990729570388794,-0.6029656690410157,-2.4039390087127686,-2.6315251789488734,-0.4944689909564417,-0.6586068312274378,-8.835615662220688e-20,-5.401770013572476e-24,0.00023193749075289816,0.00011829017603304237,0.00012022756709484383,-0.0008116191602312028,0.07179228216409683,0.0740327537059784,1.1518393754959106,0.40904441475868225,-0.3426353633403778,-0.14211998879909515
1749045964.998976,2.990701913833618,-0.6029606026462098,-2.4039270877838135,-2.6314712963499964,-0.4944217840777796,-0.6585906187640589,-8.62056292012368e-22,-5.270294042417654e-26,0.0002559705462772399,0.00012494699331000447,0.00011761010682675987,-0.0008352584554813802,0.04397682845592499,0.031138762831687927,1.1686224937438965,0.42290857434272766,-0.3579980731010437,-0.13957570493221283
1749045964.9990118,2.9907054901123047,-0.6029350918582459,-2.4039270877838135,-2.6315180263915003,-0.4944499174701136,-0.658637825642721,-8.410743463601422e-24,-5.142018691807607e-28,0.000255595805356279,0.00013650181062985212,0.00011510300828376785,-0.0008469135500490665,0.051406130194664,0.03290843218564987,1.176596999168396,0.41129663586616516,-0.3485099971294403,-0.13826154172420502
1749045964.999048,2.9906792640686035,-0.6029724043658753,-2.403923511505127,-2.631509920159811,-0.49443370500673467,-0.6586182753192347,-8.20603188932908e-26,-5.016865444563694e-30,0.0021033035591244698,0.00014586411998607218,0.00011269903188804165,-0.000867546652443707,0.032395221292972565,0.035665303468704224,1.1699837446212769,0.41835033893585205,-0.344194233417511,-0.14039745926856995
1749045964.9990842,2.9907066822052,-0.6029877227595826,-2.403923511505127,-2.6314903698363246,-0.49441796938051397,-0.6586139837848108,-8.006302149629136e-28,-4.8947581829504175e-32,0.0031138353515416384,0.000144727440783754,0.0001103959366446361,-0.0008627151255495846,0.024803271517157555,0.022591374814510345,1.1570488214492798,0.42707332968711853,-0.34618595242500305,-0.14657916128635406
1749045964.9991899,2.99068284034729,-0.6029384297183533,-2.4038960933685303,-2.631509920159811,-0.49443370500673467,-0.6585753599749964,-0.001344239921309054,-4.775622583545647e-34,0.002688289387151599,0.00014185966574586928,0.00010818436567205936,-0.0007948818383738399,-0.03270424157381058,0.009986162185668945,1.1596208810806274,0.4129825234413147,-0.33178743720054626,-0.13102053105831146
1749045965.0004814,2.9906516075134277,-0.6029537481120606,-2.403911590576172,-2.631528993646139,-0.49443370500673467,-0.6586068312274378,-0.003189940471202135,-4.659387257016254e-36,0.0021878788247704506,0.00013880216283723712,0.00010605787974782288,-0.0007200403488241136,-0.003630124032497406,0.015092805027961731,1.17507803440094,0.401273250579834,-0.3404891788959503,-0.1310833990573883
1749045965.0422676,2.99068284034729,-0.6029690665057679,-2.4039080142974854,-2.6315061054625453,-0.49447375932802373,-0.6585786978351038,-0.0035531006287783384,-4.5459809346048113e-38,0.0015819205436855555,0.00013582243991550058,0.00010401591134723276,-0.0006551511469297111,-0.0006721131503582001,0.009626075625419617,1.188064694404602,0.4037579596042633,-0.3453845679759979,-0.09350582957267761
1749045965.042313,2.990670919418335,-0.6029225748828431,-2.4039151668548584,-2.631521841088766,-0.49449187914003545,-0.6586068312274378,-0.0031882417388260365,-4.435333847342338e-40,0.0012676467886194587,0.00013295773533172905,0.00010205015860265121,-0.0006005081813782454,-0.014572881162166595,-0.011126011610031128,1.190629243850708,0.38068443536758423,-0.3396833837032318,-0.10710613429546356
1749045965.042353,2.990648031234741,-0.6029724043658753,-2.4039151668548584,-2.6315251789488734,-0.49443370500673467,-0.6586106459247034,-0.0031028278172016144,-4.327209657835035e-42,0.0013529714196920395,0.0001302090531680733,0.0001001560376607813,-0.0005541947903111577,-0.047972939908504486,-0.011748552322387695,1.2009618282318115,0.3961467444896698,-0.33869391679763794,-0.09100258350372314
1749045965.0423994,2.990643262863159,-0.6029724043658753,-2.4039306640625,-2.631521841088766,-0.4943950811969202,-0.6585944334613245,-0.004226122051477432,-4.203895392974451e-44,0.0019869536627084017,0.00012757276999764144,9.833300282480195e-05,-0.0004926371038891375,-0.031370580196380615,-0.00997297465801239,1.1945205926895142,0.36209529638290405,-0.3472216725349426,-0.08370061218738556
1749045965.0424564,2.9906468391418457,-0.6029350918582459,-2.4039032459259033,-2.6315251789488734,-0.49441796938051397,-0.6585872809039515,-0.004724910948425531,-0.0,0.0029045550618320704,0.00012504062033258379,9.657445480115712e-05,-0.00042762025259435177,-0.03698381036520004,-0.022481724619865417,1.1931898593902588,0.3766714036464691,-0.3385055363178253,-0.0915277898311615
1749045965.0424967,2.990678071975708,-0.6029537481120606,-2.4039151668548584,-2.6315180263915003,-0.4944217840777796,-0.6586068312274378,-0.005195246543735266,0.0,0.003108857199549675,0.0001226062304340303,9.487639181315899e-05,-0.0003951425605919212,-0.05779131501913071,-0.028437629342079163,1.1939603090286255,0.3713022470474243,-0.3398759365081787,-0.08303222060203552
1749045965.0425344,2.990612030029297,-0.6029690665057679,-2.403918743133545,-2.631521841088766,-0.49442989030946904,-0.6586030165301722,-0.005654522683471441,0.0,0.0028905519284307957,0.00012026590411551297,9.323897393187508e-05,-0.0002431156754028052,-0.04862481355667114,-0.03633914887905121,1.193962812423706,0.3425319492816925,-0.35443320870399475,-0.07489241659641266
1749045965.0425723,2.990614414215088,-0.6029571455768128,-2.4038949012756348,-2.631521841088766,-0.49440271059145147,-0.6586068312274378,-0.007004996761679649,0.0,0.0027912252116948366,0.00011801308573922142,9.165656956611201e-05,-0.00011403369717299938,-0.0418873056769371,-0.030777499079704285,1.2068840265274048,0.3398205041885376,-0.3479832112789154,-0.03602359816431999
1749045965.0426095,2.990572452545166,-0.6029724043658753,-2.4038949012756348,-2.6315061054625453,-0.49441463152040654,-0.6585896650897425,-0.00782841071486473,0.0,0.0031035100109875202,0.00011151174840051681,9.012573718791828e-05,-2.626932291605044e-05,-0.043079063296318054,-0.04376742243766785,1.2055941820144653,0.31497713923454285,-0.3536779284477234,-0.023606330156326294
1749045965.0426462,2.9906179904937744,-0.6029656690410157,-2.4039223194122314,-2.631509920159811,-0.4944651762591761,-0.6585786978351038,-0.007937479764223099,0.0,0.0032236988190561533,0.00010485112579772249,8.864687697496265e-05,-4.642064595827833e-06,-0.059990353882312775,-0.04888944327831268,1.2017194032669067,0.31521719694137573,-0.3597955107688904,-0.02974189817905426
1749045965.0426834,2.990536689758301,-0.6029690069011231,-2.4038448333740234,-2.63149418453359,-0.4944217840777796,-0.6585786978351038,-0.008262253366410732,0.0,0.003956670872867107,6.360371480695903e-05,8.721518679521978e-05,0.0027758674696087837,-0.09822354465723038,-0.03668297827243805,1.2068663835525513,0.28477177023887634,-0.3537884056568146,-0.03511983901262283
1749045965.04272,2.990586757659912,-0.6029316943934937,-2.4038710594177246,-2.6314903698363246,-0.4944499174701136,-0.6585477034198206,-0.00947696715593338,0.0,0.004445554688572884,1.580026037117932e-05,8.582803275203332e-05,0.004860502667725086,-0.09448908269405365,-0.07279269397258759,1.1966654062271118,0.24605756998062134,-0.36625373363494873,-0.006081647239625454
1749045965.042756,2.990586757659912,-0.6029316943934937,-2.4038710594177246,-2.6314903698363246,-0.4944499174701136,-0.6585477034198206,-0.00947696715593338,0.0,0.004445554688572884,1.580026037117932e-05,8.582803275203332e-05,0.004860502667725086,-0.09448908269405365,-0.07279269397258759,1.1966654062271118,0.24605756998062134,-0.36625373363494873,-0.006081647239625454
1749045965.0427928,2.990535259246826,-0.6029724043658753,-2.403890371322632,-2.6315022907652796,-0.4943760077105921,-0.6585944334613245,-0.011402240954339504,0.0,0.004825193900614977,2.79207188214059e-06,8.448593143839389e-05,0.005491411779075861,-0.12865512073040009,-0.0661274641752243,1.2147783041000366,0.22041913866996765,-0.3651035726070404,-0.006323113106191158
1749045965.0428288,2.990499258041382,-0.6029690665057679,-2.403839349746704,-2.631533762017721,-0.49443370500673467,-0.65857440630068,-0.014474241062998772,-0.003355551976710558,0.005008968524634838,-0.004531493876129389,8.192168024834245e-05,0.0056770360097289085,-0.15817351639270782,-0.060782864689826965,1.215893030166626,0.20141275227069855,-0.37710586190223694,0.040514927357435226
1749045965.0428648,2.9904980659484863,-0.6029656690410157,-2.403803825378418,-2.6315418682494105,-0.49444610277284795,-0.6585658232318323,-0.015237207524478436,-0.0040645659901201725,0.0058610267005860806,-0.007117489818483591,8.069803152466193e-05,0.007540928199887276,-0.14419417083263397,-0.07209663093090057,1.2143884897232056,0.17220890522003174,-0.3764948546886444,0.0392254963517189
1749045965.0429006,2.990474224090576,-0.602980987434723,-2.4038074016571045,-2.6315728626646937,-0.494453255330221,-0.6585267225848597,-0.017146212980151176,-0.002923746593296528,0.005852093920111656,-0.009850668720901012,7.488150004064664e-05,0.011266877874732018,-0.12102154642343521,-0.08059920370578766,1.2223221063613892,0.1753975749015808,-0.3766839802265167,0.031106751412153244
1749045965.0429401,2.990427255630493,-0.6029895108989258,-2.403830051422119,-2.631578107873434,-0.49449283281435186,-0.6584757010089319,-0.01721940003335476,-0.002262878930196166,0.005790244787931442,-0.011788628064095974,6.681993545498699e-05,0.013804692775011063,-0.13178926706314087,-0.09643930196762085,1.220262050628662,0.17858214676380157,-0.3823786675930023,0.03272801265120506
1749045965.0429835,2.9903757572174072,-0.6029741925052186,-2.4037764072418213,-2.6316400967040003,-0.49446183839906865,-0.6584938208209437,-0.01735560968518257,-0.002081821206957102,0.005293742287904024,-0.012861383147537708,6.463193130912259e-05,0.015017922967672348,-0.1107998788356781,-0.12045325338840485,1.2315534353256226,0.17851731181144714,-0.4081477224826813,0.021964244544506073
1749045965.043022,2.99035906791687,-0.6030115646174927,-2.403764486312866,-2.6316334209837855,-0.49445802370180303,-0.658424202595846,-0.016707882285118103,-0.002089815679937601,0.0057101743295788765,-0.013707921840250492,5.308639083523303e-05,0.015303281135857105,-0.09792018681764603,-0.12387751042842865,1.238986611366272,0.20002707839012146,-0.3922448456287384,0.025201719254255295
1749045965.0431266,2.9903433322906494,-0.6029861134341736,-2.4037680625915527,-2.6316892109312953,-0.4944375197040003,-0.6584280172931116,-0.01585865207016468,-0.004239469766616821,0.005645497236400843,-0.014774730429053307,5.0468141125747934e-05,0.015062455087900162,-0.1292618215084076,-0.08944466710090637,1.2348417043685913,0.1811281144618988,-0.4097466766834259,0.018336456269025803
1749045965.0444558,2.9903218746185303,-0.6029895108989258,-2.4037716388702393,-2.6317130527892054,-0.49443370500673467,-0.6584232489215296,-0.01618102192878723,-0.004184646066278219,0.006339523009955883,-0.01589447446167469,4.9444101023254916e-05,0.014218770898878574,-0.11505768448114395,-0.0852692574262619,1.2405613660812378,0.19137082993984222,-0.4182288944721222,0.04422862455248833
1749045965.0862732,2.990248918533325,-0.6030286711505433,-2.4037437438964844,-2.631764074365133,-0.4944499174701136,-0.6583769957171839,-0.015982868149876595,-0.003829491790384054,0.0060768951661884785,-0.01701570861041546,3.872170782415196e-05,0.014020318165421486,-0.14288873970508575,-0.1226407140493393,1.244395136833191,0.1765851080417633,-0.4207907021045685,0.06192700192332268
1749045965.0863192,2.9901890754699707,-0.6029640597156067,-2.403747320175171,-2.6317879162230433,-0.49446183839906865,-0.6583874861346644,-0.017482111230492592,-0.0032072009053081274,0.0057756309397518635,-0.01776556856930256,3.642756200861186e-05,0.014982148073613644,-0.12877526879310608,-0.11238060891628265,1.2589257955551147,0.21101585030555725,-0.44521287083625793,0.055462129414081573
1749045965.0863593,2.9901719093322754,-0.6029861134341736,-2.4037508964538574,-2.6318046055235804,-0.4944728056537073,-0.6584070364581507,-0.01760171912610531,-0.0030226644594222307,0.005914862733334303,-0.019198119640350342,-7.571433258135585e-08,0.015587218105793,-0.12171483039855957,-0.1662188619375229,1.2593321800231934,0.19143366813659668,-0.4335947334766388,0.06336962431669235
1749045965.0863981,2.9901599884033203,-0.6030099552920838,-2.4037275314331055,-2.6318751774229945,-0.49447375932802373,-0.6583674589740198,-0.01846594549715519,-0.003368678968399763,0.0062194024212658405,-0.02056887559592724,-2.8841945095336996e-05,0.016176274046301842,-0.12467923760414124,-0.12814800441265106,1.2589421272277832,0.19222328066825867,-0.44914183020591736,0.06729834526777267
1749045965.0864358,2.990119218826294,-0.6030167502215882,-2.403723955154419,-2.631907125512594,-0.49444610277284795,-0.6583121458636683,-0.01889548823237419,-0.004126114305108786,0.007109734229743481,-0.02078743278980255,-4.403165075927973e-05,0.017473731189966202,-0.12552952766418457,-0.13714013993740082,1.279076099395752,0.19706037640571594,-0.4540603458881378,0.07870636135339737
1749045965.086474,2.9900639057159424,-0.6030565065196534,-2.4037349224090576,-2.6319738827147425,-0.49444610277284795,-0.6583035627948206,-0.018677590414881706,-0.005201210267841816,0.007433827500790358,-0.022127440199255943,-5.6540437071816996e-05,0.019069809466600418,-0.14372584223747253,-0.15245382487773895,1.2475254535675049,0.20276106894016266,-0.48674824833869934,0.07004928588867188
1749045965.086511,2.990074634552002,-0.6030529898456116,-2.403684616088867,-2.6319905720152796,-0.49443370500673467,-0.6582835356341761,-0.01898440718650818,-0.005666149780154228,0.007282814010977745,-0.02320670895278454,-0.0006615939782932401,0.019767971709370613,-0.12084724009037018,-0.1422407180070877,1.2684919834136963,0.21439912915229797,-0.47729602456092834,0.08438935875892639
1749045965.0865486,2.990035057067871,-0.6030954879573365,-2.4036529064178467,-2.6320468387999476,-0.49443370500673467,-0.658243481312887,-0.020213380455970764,-0.005479790735989809,0.007705649361014366,-0.02412785403430462,-0.0011105050798505545,0.02022264525294304,-0.15451127290725708,-0.1378062665462494,1.2753077745437622,0.19695985317230225,-0.48239007592201233,0.11448237299919128
1749045965.0865865,2.9899439811706543,-0.6030581158450623,-2.4036638736724854,-2.6320978603758753,-0.4944542090045374,-0.6581967512713831,-0.020662076771259308,-0.005351535975933075,0.008241692557930946,-0.02499161846935749,-0.0016135632758960128,0.022051967680454254,-0.1641349345445633,-0.14626172184944153,1.2758339643478394,0.20523305237293243,-0.48462799191474915,0.11580066382884979
1749045965.086624,2.9899356365203857,-0.6030461949161072,-2.4036483764648438,-2.6321736774840296,-0.49446183839906865,-0.6581838766681116,-0.02060978300869465,-0.0061224657110869884,0.008489904925227165,-0.024883246049284935,-0.0019497425528243184,0.02338959462940693,-0.15713199973106384,-0.1568375527858734,1.285793662071228,0.19734913110733032,-0.48686864972114563,0.1137867122888565
1749045965.086661,2.989903211593628,-0.6030887526324769,-2.403640031814575,-2.6322175465025843,-0.49445802370180303,-0.6581323782550257,-0.022186512127518654,-0.006789477076381445,0.008831249549984932,-0.026232704520225525,-0.00242460030131042,0.025780895724892616,-0.19489705562591553,-0.16828307509422302,1.2969552278518677,0.193692147731781,-0.4938751757144928,0.12620677053928375
1749045965.086698,2.989863634109497,-0.6030972760966797,-2.403609037399292,-2.632261892358297,-0.49449378648866826,-0.6581080595599573,-0.02342885360121727,-0.007388536352664232,0.009906860999763012,-0.02723810076713562,-0.002820251975208521,0.026637962087988853,-0.15565042197704315,-0.19861745834350586,1.2996931076049805,0.17805780470371246,-0.5187047123908997,0.13287590444087982
1749045965.086734,2.9897966384887695,-0.6031590861133118,-2.40360426902771,-2.632312913934225,-0.49444705644716436,-0.6580451170550745,-0.024007126688957214,-0.007247894536703825,0.010744920000433922,-0.028789332136511803,-0.0036571843083947897,0.028220588341355324,-0.19678311049938202,-0.2077937126159668,1.3095494508743286,0.19329792261123657,-0.5057050585746765,0.14817924797534943
1749045965.0867705,2.989807367324829,-0.6031215947917481,-2.4035799503326416,-2.632369180718893,-0.4944661299334925,-0.6579893271075647,-0.024366596713662148,-0.0083180982619524,0.01112386491149664,-0.030212190002202988,-0.004536944441497326,0.029109250754117966,-0.22942671179771423,-0.18367591500282288,1.298902988433838,0.20696111023426056,-0.5142264366149902,0.1557627171278
1749045965.0868068,2.9897007942199707,-0.6031488341144104,-2.4035680294036865,-2.632463117639059,-0.49452144304384404,-0.6579325834857386,-0.025519881397485733,-0.008040142245590687,0.01239023543894291,-0.032577548176050186,-0.0057229287922382355,0.030810238793492317,-0.2468717396259308,-0.19876259565353394,1.3035287857055664,0.17788341641426086,-0.5201350450515747,0.15447589755058289
1749045965.0868437,2.9896597862243652,-0.6031573575786133,-2.4035322666168213,-2.6325155697264613,-0.4945634047137659,-0.657846752797262,-0.027692465111613274,-0.008174678310751915,0.01214941218495369,-0.034431472420692444,-0.006948396097868681,0.03256044164299965,-0.23197674751281738,-0.19646772742271423,1.313499927520752,0.1708100140094757,-0.5138230323791504,0.15656258165836334
1749045965.0868802,2.9895894527435303,-0.6031845969012757,-2.403508424758911,-2.6325789890685023,-0.4945104757892054,-0.6577819029437464,-0.029114840552210808,-0.008722381666302681,0.012812218628823757,-0.036732953041791916,-0.007594769354909658,0.03543379157781601,-0.2238558530807495,-0.2189667671918869,1.3080801963806152,0.18305759131908417,-0.5231228470802307,0.16020876169204712
1749045965.0869167,2.989553451538086,-0.6032050412944336,-2.403473138809204,-2.632658620873922,-0.4945886770831507,-0.6577337423907679,-0.029902994632720947,-0.009668184444308281,0.01329879928380251,-0.03912029787898064,-0.00835399143397808,0.036551814526319504,-0.2642897367477417,-0.2049150913953781,1.3109654188156128,0.2082301825284958,-0.533541738986969,0.18425637483596802
1749045965.086953,2.9894933700561523,-0.6032243531993409,-2.403456687927246,-2.632749219933981,-0.4945452849017542,-0.6576622168170374,-0.031811054795980453,-0.010380028747022152,0.013358722440898418,-0.039771851152181625,-0.00953337736427784,0.037423450499773026,-0.25492483377456665,-0.21254687011241913,1.314861536026001,0.19383570551872253,-0.520543098449707,0.17626607418060303
1749045965.0869894,2.989454507827759,-0.6032515329173584,-2.403433322906494,-2.632817407647604,-0.4945896307574671,-0.6575863997088831,-0.033325158059597015,-0.010335386730730534,0.0131893465295434,-0.040526337921619415,-0.010671195574104786,0.03819791227579117,-0.24634554982185364,-0.2139272391796112,1.3195143938064575,0.19565819203853607,-0.5330334901809692,0.19227954745292664
1749045965.0871873,2.989368438720703,-0.6032532018474122,-2.403393268585205,-2.6328894100584925,-0.4946244398700159,-0.6575029532061976,-0.03622613847255707,-0.010922794230282307,0.013199452310800552,-0.04171968251466751,-0.010439753532409668,0.03884166479110718,-0.23044854402542114,-0.2238195836544037,1.3160810470581055,0.1800841987133026,-0.5242788791656494,0.19378188252449036
1749045965.0884638,2.9893240928649902,-0.6032765668681641,-2.40338134765625,-2.632972856561178,-0.49461347261537725,-0.6574385801898401,-0.03622429072856903,-0.011155111715197563,0.013762294314801693,-0.042238567024469376,-0.010776304639875889,0.04030509665608406,-0.2707940936088562,-0.2478187382221222,1.3203216791152954,0.15712518990039825,-0.5278345346450806,0.17552095651626587
1749045965.1302674,2.9892261028289795,-0.6033077400973816,-2.4033684730529785,-2.633071561852926,-0.49470836320985967,-0.6573126951800745,-0.03948688134551048,-0.011310792528092861,0.013513820245862007,-0.044085483998060226,-0.012097573839128017,0.041737738996744156,-0.26116660237312317,-0.24550679326057434,1.3213881254196167,0.1690957099199295,-0.5149383544921875,0.19370916485786438
1749045965.130313,2.989145517349243,-0.6032974880984803,-2.4033219814300537,-2.6331778965392054,-0.4946802298175257,-0.6572745482074183,-0.04073936119675636,-0.011918916366994381,0.013610058464109898,-0.04753769934177399,-0.012827396392822266,0.04276934266090393,-0.2581180930137634,-0.23849430680274963,1.326762080192566,0.15882070362567902,-0.5311541557312012,0.19363847374916077
1749045965.130353,2.9890615940093994,-0.6033333104899903,-2.4033010005950928,-2.633266111413473,-0.49473697343935186,-0.657168213521139,-0.03992672637104988,-0.011956890113651752,0.01365624088793993,-0.04950551316142082,-0.013297413475811481,0.0429954007267952,-0.31007736921310425,-0.25177669525146484,1.3261263370513916,0.1890048235654831,-0.5185294151306152,0.18983176350593567
1749045965.1303947,2.9889776706695557,-0.6033451718143006,-2.40326189994812,-2.6333891354002894,-0.4947717825519007,-0.6571152845965784,-0.042093757539987564,-0.011941464617848396,0.014188023284077644,-0.050161100924015045,-0.014026901684701443,0.04384903982281685,-0.28445279598236084,-0.25625306367874146,1.3363049030303955,0.18399326503276825,-0.5043236017227173,0.19161376357078552
1749045965.1304328,2.988893747329712,-0.6033570927432557,-2.4032726287841797,-2.633449693719381,-0.4947417418109339,-0.6570242086993616,-0.043191950768232346,-0.012187549844384193,0.015223130583763123,-0.05138175189495087,-0.014336944557726383,0.044884420931339264,-0.2745857238769531,-0.2617883086204529,1.3235857486724854,0.17800267040729523,-0.48639896512031555,0.20917528867721558
1749045965.1304705,2.9888217449188232,-0.6034155052951355,-2.403198003768921,-2.63354553798818,-0.49478131929506475,-0.6568940321551722,-0.04415842518210411,-0.011876189149916172,0.015593056567013264,-0.05410809442400932,-0.013847232796251774,0.04492642730474472,-0.2696222960948944,-0.2799214720726013,1.3153046369552612,0.18383054435253143,-0.48283565044403076,0.2139742076396942
1749045965.1305075,2.9887259006500244,-0.6034223002246399,-2.403205394744873,-2.6336528263487757,-0.4948208967791956,-0.656832520161764,-0.04498101398348808,-0.012136118486523628,0.015220276080071926,-0.0539100207388401,-0.01266583800315857,0.04629767686128616,-0.27567335963249207,-0.26112502813339233,1.3253285884857178,0.16910628974437714,-0.5006992220878601,0.20532795786857605
1749045965.1305447,2.988652467727661,-0.6034205716899415,-2.403154134750366,-2.633763452569479,-0.4948638121234339,-0.6567485968219202,-0.04617801681160927,-0.011765758506953716,0.015100033953785896,-0.05257551372051239,-0.011348654516041279,0.04743025079369545,-0.282642662525177,-0.28286582231521606,1.337384581565857,0.173475444316864,-0.4857780933380127,0.22067978978157043
1749045965.1305816,2.988537549972534,-0.6034631294063111,-2.4031271934509277,-2.6338707409300746,-0.4948685804950159,-0.6566408316241663,-0.04626287892460823,-0.01224161870777607,0.015150930732488632,-0.052831847220659256,-0.010413692332804203,0.04851650446653366,-0.2881450653076172,-0.2797534465789795,1.3415136337280273,0.15689626336097717,-0.49109727144241333,0.18896904587745667
1749045965.1306176,2.988442897796631,-0.6035147470286866,-2.403106212615967,-2.633993764916891,-0.49486095110048467,-0.6564987341510218,-0.04728401452302933,-0.0121025824919343,0.014989305287599564,-0.055221810936927795,-0.009802714921534061,0.04912453889846802,-0.29742616415023804,-0.30783742666244507,1.354820728302002,0.1538095772266388,-0.49801307916641235,0.19921159744262695
1749045965.1306536,2.9883575439453125,-0.6034959715655823,-2.4030632972717285,-2.6340977154173792,-0.4948971907245081,-0.6564486662494105,-0.04830508679151535,-0.012300333008170128,0.015868354588747025,-0.05680133402347565,-0.009438702836632729,0.05079551786184311,-0.34494882822036743,-0.29616108536720276,1.3585788011550903,0.16404509544372559,-0.4789949655532837,0.20316171646118164
1749045965.13069,2.9883201122283936,-0.6035351318171998,-2.4030306339263916,-2.634239812890524,-0.4949286619769495,-0.6563299337970179,-0.04926787316799164,-0.012121720239520073,0.016058720648288727,-0.05800783634185791,-0.00937604159116745,0.05040388181805611,-0.310483455657959,-0.28142985701560974,1.3451824188232422,0.1565731167793274,-0.5064910650253296,0.20133909583091736
1749045965.1307266,2.9881861209869385,-0.6035249394229432,-2.403010606765747,-2.6343242130675257,-0.49495250383485967,-0.6562345663653772,-0.050578128546476364,-0.011343342252075672,0.016540637239813805,-0.05914442986249924,-0.0094863660633564,0.04973611235618591,-0.3210270404815674,-0.30218562483787537,1.3584437370300293,0.17350870370864868,-0.5030415654182434,0.21763639152050018
1749045965.1307633,2.9880783557891846,-0.6035605830005188,-2.4029974937438965,-2.634452005425924,-0.4949572722064417,-0.6561182180987757,-0.05199503153562546,-0.011843863874673843,0.016698412597179413,-0.0601712167263031,-0.009546241723001003,0.04993276670575142,-0.32681986689567566,-0.3268929719924927,1.3568801879882812,0.15722112357616425,-0.49644434452056885,0.22617073357105255
1749045965.1308033,2.9880406856536865,-0.6035918158343812,-2.4029383659362793,-2.634578367272848,-0.4949610869037073,-0.6560190359698694,-0.05288083851337433,-0.011318858712911606,0.017570383846759796,-0.06176847219467163,-0.009236724115908146,0.05110476166009903,-0.35842233896255493,-0.29254040122032166,1.3560774326324463,0.15540705621242523,-0.49446094036102295,0.23486894369125366
1749045965.1308408,2.987898349761963,-0.6036156576922913,-2.4029338359832764,-2.634709974328512,-0.49498111406435186,-0.6559112707721155,-0.05436066910624504,-0.012174984440207481,0.01795353554189205,-0.06367572396993637,-0.00992264598608017,0.051992133259773254,-0.3306814134120941,-0.3285592496395111,1.369051456451416,0.18091101944446564,-0.501853346824646,0.20260606706142426
1749045965.1308773,2.9878060817718506,-0.603654758339264,-2.402871608734131,-2.634841104547018,-0.4949896971331995,-0.6557963530169886,-0.05536612123250961,-0.011748782359063625,0.01825116015970707,-0.06524746119976044,-0.010122785344719887,0.053181156516075134,-0.3552899956703186,-0.32903748750686646,1.349183440208435,0.16289368271827698,-0.48572564125061035,0.2143031656742096
1749045965.1309137,2.9876513481140137,-0.6036791962436219,-2.402874708175659,-2.634956499139303,-0.4950445334063929,-0.6556957403766077,-0.056827135384082794,-0.011817870661616325,0.01863376423716545,-0.06681431084871292,-0.010951743461191654,0.05429518595337868,-0.3711676299571991,-0.34048938751220703,1.3457814455032349,0.18239913880825043,-0.4889346957206726,0.21479487419128418
1749045965.1309497,2.9875710010528564,-0.6036995810321351,-2.4028193950653076,-2.6350914440550746,-0.4950760046588343,-0.6555998961078089,-0.05796077102422714,-0.0124471141025424,0.018973516300320625,-0.06812398135662079,-0.011271730065345764,0.05533590540289879,-0.35211896896362305,-0.3123331069946289,1.3513461351394653,0.21190476417541504,-0.4817851185798645,0.21276864409446716
1749045965.130986,2.9874751567840576,-0.6036961835673829,-2.4027717113494873,-2.635254045526022,-0.49510366121401006,-0.6554577986346644,-0.05861750617623329,-0.012034943327307701,0.018835410475730896,-0.06947693973779678,-0.01081060990691185,0.05691533908247948,-0.3726777732372284,-0.3304460644721985,1.3573073148727417,0.1920575499534607,-0.4720328450202942,0.20772308111190796
1749045965.131104,2.9873275756835938,-0.60376991451297,-2.40274715423584,-2.6353818378844203,-0.4951127211200159,-0.655365292225973,-0.06013654172420502,-0.01307967584580183,0.01986122317612171,-0.06954465061426163,-0.0106712831184268,0.05792885646224022,-0.3786952793598175,-0.3438301384449005,1.3486042022705078,0.1648593693971634,-0.476470410823822,0.21003375947475433
1749045965.132485,2.987257719039917,-0.6037402910045166,-2.4026997089385986,-2.6355401478209437,-0.4951213041888636,-0.6552494207965296,-0.061467330902814865,-0.013066721148788929,0.020403262227773666,-0.07062756270170212,-0.010087239556014538,0.059761401265859604,-0.3621581792831421,-0.31852903962135315,1.357887625694275,0.19175325334072113,-0.47494930028915405,0.20952291786670685
1749045965.1782818,2.9870877265930176,-0.6037954253009339,-2.4026477336883545,-2.6357108555235804,-0.4951055685626429,-0.6551607290851038,-0.06203166022896767,-0.013423794880509377,0.021323107182979584,-0.07206364721059799,-0.009711163118481636,0.060209378600120544,-0.3964075744152069,-0.3440454304218292,1.3457365036010742,0.1924629807472229,-0.4691264033317566,0.21768440306186676
1749045965.1783268,2.9869866371154785,-0.6038277906230469,-2.402600049972534,-2.6358610592284144,-0.49516040483583623,-0.6550181547748011,-0.06381765753030777,-0.013551472686231136,0.021886862814426422,-0.07332900166511536,-0.00952922087162733,0.061055541038513184,-0.39124685525894165,-0.33480915427207947,1.3327507972717285,0.17688678205013275,-0.4703024625778198,0.2113373726606369
1749045965.1783688,2.986846446990967,-0.6038124722293396,-2.4025800228118896,-2.635993619958395,-0.4951885382281702,-0.6549213568316858,-0.0653887689113617,-0.013541177846491337,0.022297406569123268,-0.07178982347249985,-0.009397884830832481,0.06378265470266342,-0.41673821210861206,-0.3371082842350006,1.3606528043746948,0.1543799489736557,-0.4654123783111572,0.2091522365808487
1749045965.178415,2.9866883754730225,-0.6038827461055298,-2.4025204181671143,-2.6361214123167933,-0.4951584974872034,-0.6547825972186487,-0.06852744519710541,-0.01441564504057169,0.02232779562473297,-0.07260500639677048,-0.008270390331745148,0.06504903733730316,-0.326415091753006,-0.35236644744873047,1.3573908805847168,0.1669532060623169,-0.46470701694488525,0.19096562266349792
1749045965.1784627,2.9865639209747314,-0.6038826865008851,-2.4024767875671387,-2.636256834069723,-0.4952314535724085,-0.6546004454242151,-0.06687059253454208,-0.014332549646496773,0.023444775491952896,-0.07379890978336334,-0.007807347923517227,0.06462938338518143,-0.407369464635849,-0.3710242509841919,1.3424861431121826,0.17825570702552795,-0.49257075786590576,0.22262267768383026
1749045965.1785092,2.9864394664764404,-0.6039463442615052,-2.402432680130005,-2.6364346943297328,-0.49524003664125615,-0.6545074621783655,-0.06919744610786438,-0.01552174985408783,0.02381974458694458,-0.07580482214689255,-0.008390617556869984,0.06429309397935867,-0.3969801068305969,-0.3285490572452545,1.3483211994171143,0.18082240223884583,-0.49906110763549805,0.22418580949306488
1749045965.1785493,2.9863269329071045,-0.6039445561221619,-2.4024198055267334,-2.636571069756979,-0.4952791372882288,-0.6543567816363733,-0.07336548715829849,-0.015417737886309624,0.02407238818705082,-0.08048506826162338,-0.009515763260424137,0.06635545939207077,-0.3471263647079468,-0.34380626678466797,1.3461863994598389,0.18686936795711517,-0.4850640296936035,0.22668346762657166
1749045965.178587,2.9861719608306885,-0.6039683979800721,-2.4023561477661133,-2.6367489300169886,-0.49527198473085576,-0.6542285124408167,-0.07136157155036926,-0.015909608453512192,0.023948848247528076,-0.08081498742103577,-0.010519804432988167,0.0668269470334053,-0.39430516958236694,-0.3487779498100281,1.3587548732757568,0.1794385313987732,-0.49082839488983154,0.21856462955474854
1749045965.178624,2.986043930053711,-0.6039837163737793,-2.4023115634918213,-2.636892934838766,-0.49533111253847295,-0.6540887991534632,-0.07387617975473404,-0.01614139787852764,0.02458055689930916,-0.07994746416807175,-0.011813601478934288,0.07018335908651352,-0.4223025441169739,-0.36475223302841187,1.361613392829895,0.16137345135211945,-0.48267102241516113,0.1927737593650818
1749045965.1786604,2.9858877658843994,-0.6040318769267579,-2.402245044708252,-2.637083192864889,-0.4953239599810999,-0.6539691130267542,-0.0761844590306282,-0.01647021435201168,0.025779487565159798,-0.08191268891096115,-0.011878181248903275,0.0696600079536438,-0.38138386607170105,-0.3460083603858948,1.3583570718765259,0.16811013221740723,-0.48591679334640503,0.1931566298007965
1749045965.1786966,2.9857401847839355,-0.604055718784668,-2.4022088050842285,-2.63725008587026,-0.49532825151552373,-0.6538060347186487,-0.07734739780426025,-0.0169985368847847,0.025707336142659187,-0.0830795094370842,-0.011873643845319748,0.0686720460653305,-0.40766915678977966,-0.37940800189971924,1.360484004020691,0.17094171047210693,-0.469817191362381,0.20501641929149628
1749045965.1787333,2.9855639934539795,-0.604088084106781,-2.4021494388580322,-2.6374479732909144,-0.49537927309145147,-0.6536744276629847,-0.08057185262441635,-0.017134137451648712,0.02572805993258953,-0.08679938316345215,-0.012704839929938316,0.06825657933950424,-0.3920633792877197,-0.3779781758785248,1.3583928346633911,0.1537480354309082,-0.48521050810813904,0.23636524379253387
1749045965.1787694,2.9854044914245605,-0.604154960518219,-2.4020893573760986,-2.637623449365133,-0.49540788332094365,-0.6535542646991175,-0.07968961447477341,-0.01855827122926712,0.026635419577360153,-0.08840351551771164,-0.013748538680374622,0.07208488136529922,-0.4106677174568176,-0.3582572937011719,1.3588043451309204,0.18121185898780823,-0.47814086079597473,0.21755670011043549
1749045965.178806,2.985260486602783,-0.6042007964900513,-2.4020373821258545,-2.637783189813131,-0.4954159895526331,-0.6533868948565882,-0.08120884001255035,-0.019002635031938553,0.026934897527098656,-0.08870569616556168,-0.01434025913476944,0.07363469898700714,-0.42576876282691956,-0.36922788619995117,1.347476601600647,0.19529461860656738,-0.4528408944606781,0.23155508935451508
1749045965.1788423,2.985100030899048,-0.6042151612094422,-2.4019784927368164,-2.637996812860006,-0.49545556703676397,-0.6532629171954554,-0.08623187988996506,-0.018683690577745438,0.027004241943359375,-0.08989299833774567,-0.013798439875245094,0.0754743441939354,-0.37877345085144043,-0.3692343235015869,1.361279010772705,0.17411765456199646,-0.47777554392814636,0.21800000965595245
1749045965.178879,2.9848971366882324,-0.6042422217181702,-2.401949167251587,-2.6381408176817835,-0.4954636732684534,-0.6530965010272425,-0.08344770222902298,-0.01991586945950985,0.027341412380337715,-0.09097741544246674,-0.014649736694991589,0.07736048102378845,-0.4101390242576599,-0.37389665842056274,1.3439810276031494,0.16791601479053497,-0.4759961664676666,0.21240057051181793
1749045965.178915,2.9847447872161865,-0.6043143433383484,-2.4018778800964355,-2.6383358440794886,-0.4954875151263636,-0.6529515425311487,-0.08625096827745438,-0.020144108682870865,0.02792753092944622,-0.09322752803564072,-0.015084080398082733,0.07915539294481277,-0.3940510153770447,-0.3641255497932434,1.3552782535552979,0.16029515862464905,-0.47583332657814026,0.22148314118385315
1749045965.1789513,2.984529972076416,-0.6043466490558167,-2.4018380641937256,-2.63852657894277,-0.49551183382143194,-0.6528008619891565,-0.0874757394194603,-0.019750796258449554,0.028183558955788612,-0.09554392844438553,-0.014113697223365307,0.08082535117864609,-0.39463528990745544,-0.37943553924560547,1.36534583568573,0.15109121799468994,-0.477950781583786,0.22020557522773743
1749045965.1789896,2.984353542327881,-0.6043551725200196,-2.4017746448516846,-2.6387015781798304,-0.4955709616290491,-0.6526249090777796,-0.08832725882530212,-0.02013297565281391,0.02757703699171543,-0.09983539581298828,-0.013203251175582409,0.08130558580160141,-0.4024008512496948,-0.3347976505756378,1.3796348571777344,0.15828323364257812,-0.47377392649650574,0.2281942069530487
1749045965.1790524,2.984177589416504,-0.6043790143779297,-2.401733875274658,-2.638935705224508,-0.4955714384662073,-0.6524503866778772,-0.08930015563964844,-0.020862560719251633,0.02917320467531681,-0.10319007188081741,-0.014348765835165977,0.08548037707805634,-0.40303272008895874,-0.3809773325920105,1.3450872898101807,0.18062102794647217,-0.4956662356853485,0.217989981174469
1749045965.1790936,2.9840288162231445,-0.6044390958598633,-2.401658773422241,-2.6391502819456996,-0.4956305662738245,-0.6522787253009241,-0.09122822433710098,-0.020752543583512306,0.02981378510594368,-0.10569556057453156,-0.015593795105814934,0.08754464983940125,-0.40148359537124634,-0.3969251811504364,1.3474394083023071,0.19331619143486023,-0.49121007323265076,0.20932525396347046
1749045965.1791306,2.9838178157806396,-0.604494110946991,-2.401582956314087,-2.6393925152220667,-0.4956744352923792,-0.6520870367633265,-0.09286905825138092,-0.02120591141283512,0.03001052513718605,-0.10581791400909424,-0.01638888753950596,0.08569224178791046,-0.4051850140094757,-0.4032575488090515,1.3784071207046509,0.17544858157634735,-0.4997130036354065,0.22256143391132355
1749045965.1792204,2.9836690425872803,-0.6045178932002564,-2.4015161991119385,-2.6395799122252406,-0.4956710974322718,-0.6519396940814417,-0.09511124342679977,-0.021393662318587303,0.030597714707255363,-0.11213948577642441,-0.015797823667526245,0.08662430942058563,-0.4051470160484314,-0.3967368006706238,1.378474473953247,0.21402356028556824,-0.49152833223342896,0.22081102430820465
1749045965.180462,2.9834461212158203,-0.6045621794513245,-2.4014670848846436,-2.6398102245726527,-0.4957192579852503,-0.6517794767962855,-0.09632021933794022,-0.02156984433531761,0.03169606626033783,-0.11079100519418716,-0.016131337732076645,0.08728554099798203,-0.3828606903553009,-0.4149082899093628,1.373557686805725,0.23539862036705017,-0.4857421815395355,0.24011078476905823
1749045965.2222846,2.9834461212158203,-0.6045621794513245,-2.4014670848846436,-2.6398102245726527,-0.4957192579852503,-0.6517794767962855,-0.09632021933794022,-0.02156984433531761,0.03169606626033783,-0.11079100519418716,-0.016131337732076645,0.08728554099798203,-0.3828606903553009,-0.4149082899093628,1.373557686805725,0.23539862036705017,-0.4857421815395355,0.24011078476905823
1749045965.2223303,2.983093500137329,-0.6046188634685059,-2.4013123512268066,-2.640251775781149,-0.4958451429950159,-0.6513894240008753,-0.09903475642204285,-0.022493425756692886,0.03335810825228691,-0.11024532467126846,-0.016998499631881714,0.09471724182367325,-0.39642995595932007,-0.4045986533164978,1.3667991161346436,0.19339115917682648,-0.4839645028114319,0.20634113252162933
1749045965.2223828,2.982858419418335,-0.6046636265567322,-2.4012601375579834,-2.640458723107809,-0.4958422819720667,-0.6511996428119105,-0.09916309267282486,-0.023384714499115944,0.03359108790755272,-0.11471408605575562,-0.01816396974027157,0.0925506055355072,-0.40101873874664307,-0.40102845430374146,1.3772703409194946,0.21670998632907867,-0.48809510469436646,0.23181022703647614
1749045965.2224312,2.982640027999878,-0.6047266286662598,-2.40120005607605,-2.640709539453024,-0.4958904425250452,-0.6509841124164026,-0.10411939769983292,-0.0238476675003767,0.03386325016617775,-0.11166627705097198,-0.019233452156186104,0.09306325763463974,-0.39314910769462585,-0.4022535979747772,1.3665872812271118,0.20252619683742523,-0.47738295793533325,0.25520509481430054
1749045965.2224815,2.982377052307129,-0.6047662061503907,-2.4011213779449463,-2.6409431896605433,-0.4959057013141077,-0.6507852713214319,-0.10132923722267151,-0.02431083843111992,0.03398818150162697,-0.11211797595024109,-0.01957220584154129,0.09589043259620667,-0.42845654487609863,-0.4233102798461914,1.3610177040100098,0.19969481229782104,-0.46431615948677063,0.2441112995147705
1749045965.2225218,2.98219633102417,-0.6048172873309632,-2.401088237762451,-2.6411549053587855,-0.49600059190859014,-0.6506202856646937,-0.10644548386335373,-0.025009578093886375,0.03471771627664566,-0.11354418098926544,-0.01988167129456997,0.09698165953159332,-0.40133023262023926,-0.4154711067676544,1.3680920600891113,0.16678372025489807,-0.4911884069442749,0.24441710114479065
1749045965.2225602,2.982027053833008,-0.6048706334880372,-2.4010088443756104,-2.6413971386351527,-0.49602967897524053,-0.6504128615008753,-0.10313902050256729,-0.02563161961734295,0.036457665264606476,-0.11510229855775833,-0.019787034019827843,0.09866467118263245,-0.36134153604507446,-0.41021811962127686,1.3548915386199951,0.19959257543087006,-0.4689520001411438,0.24185645580291748
1749045965.2225978,2.981764554977417,-0.6049409669688721,-2.400940418243408,-2.641611715356344,-0.49606162706484014,-0.6502402464496058,-0.10253448039293289,-0.025844067335128784,0.03624887764453888,-0.11708584427833557,-0.01841321587562561,0.09876244515180588,-0.41835153102874756,-0.39959728717803955,1.3343532085418701,0.16763843595981598,-0.48324841260910034,0.23709286749362946
1749045965.222635,2.9815762042999268,-0.6049851340106507,-2.4008617401123047,-2.6418429813780726,-0.4961045424090784,-0.6500147024737757,-0.10443869978189468,-0.02642790786921978,0.034954629838466644,-0.11855926364660263,-0.017420606687664986,0.09875601530075073,-0.4722962975502014,-0.42954930663108826,1.3778879642486572,0.16940535604953766,-0.4895857572555542,0.2689344584941864
1749045965.2226727,2.9813685417175293,-0.6050208967975159,-2.4007976055145264,-2.6421200237669886,-0.49609357515443975,-0.6498249212848108,-0.10870042443275452,-0.02579418569803238,0.036371730268001556,-0.12323800474405289,-0.017001718282699585,0.10110749304294586,-0.4740891456604004,-0.41716113686561584,1.379338026046753,0.1400788128376007,-0.48538148403167725,0.26830801367759705
1749045965.2227108,2.9811720848083496,-0.6050996345332642,-2.4007134437561035,-2.6423517666258753,-0.4961612860309046,-0.6495683828936976,-0.11344178766012192,-0.02590002492070198,0.038581978529691696,-0.1275632381439209,-0.01619666814804077,0.10303478688001633,-0.3880014419555664,-0.4187496304512024,1.3692264556884766,0.1810871660709381,-0.49254146218299866,0.24017050862312317
1749045965.2227519,2.980935573577881,-0.6051104825786133,-2.4006223678588867,-2.642590185204977,-0.4961813131915491,-0.6493685881244105,-0.11419840157032013,-0.02657994255423546,0.039234861731529236,-0.12889380753040314,-0.015966778621077538,0.10605717450380325,-0.4176788926124573,-0.4244135320186615,1.3333020210266113,0.1571962535381317,-0.5015891790390015,0.2673443555831909
1749045965.2227902,2.980692148208618,-0.6051802200130005,-2.4005508422851562,-2.642876287499899,-0.4961665312396448,-0.6491683165179651,-0.1142701655626297,-0.026883117854595184,0.041373129934072495,-0.1355205625295639,-0.017634740099310875,0.10690233111381531,-0.41670405864715576,-0.42576026916503906,1.3413740396499634,0.19230104982852936,-0.5152581930160522,0.2534228265285492
1749045965.2228284,2.9804646968841553,-0.6052335661700745,-2.400451183319092,-2.643120428124899,-0.4962533156024378,-0.6489408651935022,-0.11632820963859558,-0.02690747380256653,0.04101608693599701,-0.13240289688110352,-0.019271621480584145,0.10728485882282257,-0.4228619635105133,-0.44336485862731934,1.3323066234588623,0.20079320669174194,-0.5193084478378296,0.26752525568008423
1749045965.2228644,2.980217218399048,-0.6052812498858948,-2.4003865718841553,-2.6434012852110804,-0.4962733427630823,-0.648721996937887,-0.11817105114459991,-0.027437923476099968,0.039204128086566925,-0.13438798487186432,-0.019892854616045952,0.1088227927684784,-0.4183933138847351,-0.4787174463272095,1.346360683441162,0.16454890370368958,-0.5145082473754883,0.2520497143268585
1749045965.2229013,2.9800233840942383,-0.605348066692688,-2.400299072265625,-2.643679758111471,-0.49634105363954717,-0.6484893004046839,-0.11927337199449539,-0.028595203533768654,0.039490725845098495,-0.1407727599143982,-0.021388515830039978,0.1091812252998352,-0.39120498299598694,-0.4589211940765381,1.3733396530151367,0.20289193093776703,-0.5129770040512085,0.24555028975009918
1749045965.2229376,2.9797606468200684,-0.605368511085846,-2.4002273082733154,-2.6439420185484828,-0.49636918703188115,-0.6482394377337855,-0.12116000056266785,-0.029378743842244148,0.040881287306547165,-0.1368585079908371,-0.020533880218863487,0.11076247692108154,-0.4143669605255127,-0.457632839679718,1.3520708084106445,0.16405771672725677,-0.5161246657371521,0.2786853611469269
1749045965.2229867,2.979532480239868,-0.6054456991008301,-2.4001524448394775,-2.644224782983297,-0.4964097181903284,-0.6480363051043909,-0.12222325801849365,-0.029119014739990234,0.04098663106560707,-0.13932816684246063,-0.02183164469897747,0.11055463552474976,-0.4387180805206299,-0.45530396699905396,1.356730580329895,0.1633506417274475,-0.5067875981330872,0.27499648928642273
1749045965.2230299,2.979292869567871,-0.60550411165271,-2.4000914096832275,-2.644494195977682,-0.49647695222963506,-0.6478155295001429,-0.12325283139944077,-0.029399340972304344,0.04026772081851959,-0.14046610891819,-0.022049469873309135,0.11383382976055145,-0.4296681582927704,-0.45469415187835693,1.3576852083206177,0.15270932018756866,-0.502810001373291,0.2655774652957916
1749045965.2230673,2.979048252105713,-0.605541543369629,-2.400000810623169,-2.6447726688780726,-0.4964860121356409,-0.6475570837603968,-0.1251983940601349,-0.029621442779898643,0.04035670682787895,-0.14388248324394226,-0.02123192511498928,0.11589178442955017,-0.44324958324432373,-0.44757235050201416,1.387122392654419,0.1501312255859375,-0.4883902668952942,0.24608805775642395
1749045965.2231767,2.978808641433716,-0.605650858288147,-2.3999359607696533,-2.6450983486571253,-0.496556584035055,-0.6473367849933069,-0.1261896789073944,-0.030343107879161835,0.04173897206783295,-0.146451935172081,-0.02205980382859707,0.11520873755216599,-0.4044267237186432,-0.4482266902923584,1.3880263566970825,0.16651558876037598,-0.5150046348571777,0.2773370146751404
1749045965.2244809,2.9785265922546387,-0.6056679648211976,-2.3998324871063232,-2.645384450952047,-0.49662477174867803,-0.6470702330218714,-0.13119778037071228,-0.030190523713827133,0.042315445840358734,-0.14976640045642853,-0.02299412712454796,0.1179104596376419,-0.4025745093822479,-0.45715072751045227,1.3713696002960205,0.1664310246706009,-0.5071377158164978,0.271996408700943
1749045965.266557,2.978250741958618,-0.6057707232287903,-2.3997368812561035,-2.645691057244772,-0.4966328779803675,-0.6468389670001429,-0.12911854684352875,-0.03057108446955681,0.04379166662693024,-0.15286748111248016,-0.022257652133703232,0.12239246815443039,-0.4419456124305725,-0.44557681679725647,1.3649802207946777,0.1717979907989502,-0.5082459449768066,0.2467554807662964
1749045965.2666056,2.97800612449646,-0.6057962340167542,-2.3996376991271973,-2.6460048160948695,-0.49666148820985967,-0.6465757528888147,-0.13077637553215027,-0.03086247108876705,0.04390221834182739,-0.1533159464597702,-0.022779714316129684,0.12235826253890991,-0.4410185217857361,-0.48307177424430847,1.3671190738677979,0.1488676816225052,-0.5139462351799011,0.2654012441635132
1749045965.2666478,2.9777579307556152,-0.605890230541565,-2.3995885848999023,-2.646280427972311,-0.49676353136171514,-0.6463401953326624,-0.13525545597076416,-0.03103119507431984,0.04457652196288109,-0.15847572684288025,-0.022643275558948517,0.12435129284858704,-0.45579877495765686,-0.4869842231273651,1.3718435764312744,0.17588025331497192,-0.5291433334350586,0.27658212184906006
1749045965.2666888,2.9774558544158936,-0.6059351724437256,-2.3994853496551514,-2.6466337643065394,-0.4967921415912073,-0.6460769812213343,-0.13668620586395264,-0.0324045866727829,0.04506424814462662,-0.15529948472976685,-0.023861009627580643,0.1268659383058548,-0.42582589387893677,-0.4655734896659851,1.3655670881271362,0.19219134747982025,-0.5168713927268982,0.25978586077690125
1749045965.2667272,2.977174997329712,-0.6060344141772767,-2.3994176387786865,-2.646959444085592,-0.4968522230731409,-0.6458376089679163,-0.1375991404056549,-0.032699789851903915,0.04478377103805542,-0.15539827942848206,-0.02487097680568695,0.12982413172721863,-0.440650075674057,-0.4531997740268707,1.383233904838562,0.15359057486057281,-0.5069460868835449,0.2528904378414154
1749045965.2667837,2.97690749168396,-0.6060666602901001,-2.3993337154388428,-2.647308965722555,-0.49687225023378545,-0.6455543676959437,-0.13802073895931244,-0.03364116698503494,0.045610588043928146,-0.16093820333480835,-0.02464115433394909,0.13014493882656097,-0.4328119456768036,-0.4883952736854553,1.3853237628936768,0.18082478642463684,-0.5337901711463928,0.2286948561668396
1749045965.2668252,2.9766197204589844,-0.6060887736133118,-2.3992342948913574,-2.647606988946432,-0.49694806734193975,-0.6452878157245081,-0.14164113998413086,-0.03472009673714638,0.045499302446842194,-0.1592651903629303,-0.025187352672219276,0.13580435514450073,-0.44150790572166443,-0.47501105070114136,1.3855609893798828,0.1655779480934143,-0.5072555541992188,0.2307976484298706
1749045965.266863,2.976363182067871,-0.6062005323222657,-2.399158239364624,-2.647937913934225,-0.49697667757143194,-0.645031754170553,-0.13957913219928741,-0.03481559827923775,0.04543271288275719,-0.16164766252040863,-0.023242922499775887,0.13318964838981628,-0.4450273811817169,-0.4407508373260498,1.4032615423202515,0.17398521304130554,-0.5174448490142822,0.23395252227783203
1749045965.2668998,2.976059675216675,-0.6063133639148255,-2.399042844772339,-2.648259779016012,-0.4970281759845179,-0.6447461287127894,-0.1426546573638916,-0.0343022383749485,0.04494529962539673,-0.1619657427072525,-0.022703487426042557,0.13293281197547913,-0.4761522114276886,-0.4507618844509125,1.428060531616211,0.16872495412826538,-0.5552547574043274,0.24774599075317383
1749045965.2669365,2.9757838249206543,-0.6063355368426819,-2.39897084236145,-2.6485702000060023,-0.49706775346864873,-0.6444900671588343,-0.14585135877132416,-0.03502782806754112,0.04675869271159172,-0.164644256234169,-0.02238072082400322,0.13682511448860168,-0.4528212547302246,-0.4530220031738281,1.411495327949524,0.16667160391807556,-0.5614731311798096,0.264753520488739
1749045965.2669742,2.975480556488037,-0.6064194601825257,-2.3988749980926514,-2.648900171319479,-0.4970963636981409,-0.6442340056048792,-0.14688153564929962,-0.03571609407663345,0.04912135750055313,-0.16537447273731232,-0.02319508045911789,0.13718290627002716,-0.43265068531036377,-0.44318053126335144,1.3922165632247925,0.16783785820007324,-0.5642949342727661,0.2306155413389206
1749045965.2670228,2.9751925468444824,-0.6065322917750855,-2.3987715244293213,-2.64922632793569,-0.49720651308168584,-0.6439550558673304,-0.14810286462306976,-0.034686047583818436,0.04631819576025009,-0.16752347350120544,-0.02463122084736824,0.1385674625635147,-0.4447757303714752,-0.4538508653640747,1.4218542575836182,0.16342929005622864,-0.568658173084259,0.24652773141860962
1749045965.2670655,2.9749162197113037,-0.6065357488444825,-2.3986682891845703,-2.6495872936644496,-0.49719220796693975,-0.6436398665057581,-0.15017691254615784,-0.03342266008257866,0.048235997557640076,-0.16938574612140656,-0.025884227827191353,0.14071890711784363,-0.435345321893692,-0.5007184743881226,1.425362467765808,0.15005704760551453,-0.5569776296615601,0.24579912424087524
1749045965.2671032,2.97458553314209,-0.6066266459277649,-2.398573160171509,-2.6499492130675257,-0.4972761313067835,-0.6433408896075647,-0.15113119781017303,-0.034452926367521286,0.04910023510456085,-0.17131133377552032,-0.027642691507935524,0.14380529522895813,-0.44848811626434326,-0.4649622142314911,1.4287515878677368,0.15230830013751984,-0.5589156150817871,0.2548852562904358
1749045965.267141,2.9743194580078125,-0.6067021054080506,-2.398496389389038,-2.650295396844381,-0.497324291859762,-0.6430771986590784,-0.1505538374185562,-0.03457195311784744,0.050442568957805634,-0.17028026282787323,-0.026890648528933525,0.14550618827342987,-0.4573131799697876,-0.4723988175392151,1.4266397953033447,0.1240612119436264,-0.5671568512916565,0.21685566008090973
1749045965.2671783,2.973977565765381,-0.6067896646312256,-2.3983731269836426,-2.6506535015501917,-0.497411076222555,-0.6427820364581507,-0.15420544147491455,-0.035726651549339294,0.050115738064050674,-0.17794537544250488,-0.02733304165303707,0.14734728634357452,-0.3985072374343872,-0.47976788878440857,1.4216995239257812,0.17374852299690247,-0.562698483467102,0.21380653977394104
1749045965.267215,2.9736344814300537,-0.6068770450404664,-2.398277997970581,-2.6510030231871546,-0.4974430243121546,-0.6425169149981897,-0.15376587212085724,-0.03738359734416008,0.04816821962594986,-0.17544275522232056,-0.02737615816295147,0.14937064051628113,-0.4700870215892792,-0.4666704833507538,1.4514881372451782,0.16592466831207275,-0.5537467002868652,0.2128046154975891
1749045965.2672517,2.973346471786499,-0.6068833631328125,-2.398162841796875,-2.6513687572874964,-0.49751454988588506,-0.6421368757831019,-0.15626923739910126,-0.035500653088092804,0.05030898377299309,-0.17705339193344116,-0.02944248728454113,0.14878323674201965,-0.41970306634902954,-0.4792329668998718,1.4553879499435425,0.167496457695961,-0.5661815404891968,0.2032501995563507
1749045965.267303,2.9730732440948486,-0.6069588226130982,-2.3980705738067627,-2.65175785640859,-0.4975517431842249,-0.6418641249286097,-0.15592169761657715,-0.03451436758041382,0.05101840943098068,-0.17908062040805817,-0.02932608686387539,0.14725655317306519,-0.4390631914138794,-0.5005267262458801,1.4537335634231567,0.16295568645000458,-0.5664067268371582,0.22457779943943024
1749045965.2673426,2.972721576690674,-0.6070581835559388,-2.397947072982788,-2.6521007023253382,-0.4976308981524866,-0.64154559770693,-0.158278226852417,-0.03667238727211952,0.05204886198043823,-0.18017688393592834,-0.03080916404724121,0.14691855013370514,-0.41441988945007324,-0.5220821499824524,1.4398939609527588,0.16078314185142517,-0.5548403859138489,0.2134632170200348
1749045965.2674632,2.972378969192505,-0.6071338218501587,-2.3978586196899414,-2.6524273357787074,-0.497690502797262,-0.641242806111471,-0.16295075416564941,-0.03696982562541962,0.05285186693072319,-0.18288859724998474,-0.029206961393356323,0.14572948217391968,-0.3967134654521942,-0.5031192302703857,1.4533737897872925,0.16878259181976318,-0.5675937533378601,0.25448518991470337
1749045965.2684715,2.972032070159912,-0.6072058242610474,-2.397766351699829,-2.6528245411314906,-0.49773866335024053,-0.6409972349749964,-0.1610305905342102,-0.037148091942071915,0.05426559969782829,-0.1837286502122879,-0.029685450717806816,0.1457204967737198,-0.4340032637119293,-0.5221993923187256,1.4453861713409424,0.15370827913284302,-0.5738725066184998,0.25538700819015503
1749045965.3142884,2.971755266189575,-0.6072932046702881,-2.3976590633392334,-2.6532613239684046,-0.4978063742267054,-0.6406877676593226,-0.16201242804527283,-0.03783624991774559,0.05485578998923302,-0.1833888590335846,-0.029540695250034332,0.14756625890731812,-0.4557570815086365,-0.5033876895904541,1.4425510168075562,0.14845652878284454,-0.5518282651901245,0.258559912443161
1749045965.314336,2.971407413482666,-0.6073491734317322,-2.3975160121917725,-2.653611799279684,-0.4978740851031702,-0.6404193083392542,-0.16279013454914093,-0.03870377689599991,0.05654200538992882,-0.18726085126399994,-0.031151674687862396,0.1480199098587036,-0.4318923056125641,-0.4983839690685272,1.4177742004394531,0.17306041717529297,-0.5597212314605713,0.2726323902606964
1749045965.3143759,2.9710958003997803,-0.6074177187732239,-2.397428035736084,-2.6539937458434046,-0.49792987505068,-0.6401055494891565,-0.1641412079334259,-0.03891030699014664,0.05720419064164162,-0.18334490060806274,-0.029871487990021706,0.15261352062225342,-0.4717603027820587,-0.49540168046951294,1.4296623468399048,0.13657493889331818,-0.5492026209831238,0.29845064878463745
1749045965.3144143,2.9707865715026855,-0.6075324577144166,-2.397308111190796,-2.654355665246481,-0.49800187746156865,-0.6398065725909632,-0.16642239689826965,-0.0409652404487133,0.05759018287062645,-0.18939563632011414,-0.031370609998703,0.15637770295143127,-0.4997556805610657,-0.49048179388046265,1.4340018033981323,0.10919347405433655,-0.5581552982330322,0.2883320748806
1749045965.314453,2.97041916847229,-0.6075961154750367,-2.397193193435669,-2.6547333202757777,-0.49803048769106084,-0.6394632498370569,-0.17095310986042023,-0.040317606180906296,0.05847109481692314,-0.1868898719549179,-0.03080265037715435,0.15952174365520477,-0.4851553738117218,-0.49826839566230774,1.4160330295562744,0.10768379271030426,-0.5548964142799377,0.2809664011001587
1749045965.3144925,2.9700679779052734,-0.6076954764178772,-2.3971052169799805,-2.655118604699606,-0.49812156358827764,-0.6391361395465296,-0.16996857523918152,-0.042453501373529434,0.05848013982176781,-0.19029025733470917,-0.03160056099295616,0.1654629111289978,-0.45074790716171265,-0.460058331489563,1.4245800971984863,0.10734008997678757,-0.5762060880661011,0.25271546840667725
1749045965.3145304,2.969735622406006,-0.6077674788287659,-2.3969974517822266,-2.655497213403219,-0.4982088247882288,-0.6388290564166468,-0.17165254056453705,-0.04237750917673111,0.05771683156490326,-0.19166895747184753,-0.03156924620270729,0.16799144446849823,-0.4481567144393921,-0.4587114453315735,1.4460843801498413,0.09370558708906174,-0.5639559626579285,0.25137001276016235
1749045965.314567,2.9693639278411865,-0.607844428425171,-2.3968770503997803,-2.655893941918844,-0.4982650915728968,-0.6384747664081019,-0.17466728389263153,-0.04098082706332207,0.060034073889255524,-0.19389094412326813,-0.031993307173252106,0.16751430928707123,-0.3983076810836792,-0.4698992371559143,1.4176404476165771,0.08165819942951202,-0.5617753267288208,0.23783165216445923
1749045965.3146043,2.9690520763397217,-0.6079368156245728,-2.396754264831543,-2.656288286248678,-0.4983251730548304,-0.6381080786334437,-0.17535120248794556,-0.04331398382782936,0.05789594352245331,-0.19643515348434448,-0.03405136987566948,0.17132186889648438,-0.44831761717796326,-0.4665927588939667,1.4315952062606812,0.05570553243160248,-0.5540921688079834,0.23094674944877625
1749045965.3146412,2.9686598777770996,-0.6080088180354615,-2.396646499633789,-2.6566888294615687,-0.4983933607684534,-0.6377838293658655,-0.17753520607948303,-0.04298334941267967,0.05797659978270531,-0.203940287232399,-0.03424832969903946,0.16852663457393646,-0.4256751537322998,-0.4598613381385803,1.4506291151046753,0.07674106955528259,-0.5377394556999207,0.2336672693490982
1749045965.314678,2.968266487121582,-0.6081195634654541,-2.396514415740967,-2.657078882256979,-0.49846202531923467,-0.6374605337726038,-0.17548583447933197,-0.045267898589372635,0.059843678027391434,-0.2045956254005432,-0.03530137613415718,0.17042846977710724,-0.43827497959136963,-0.4442572593688965,1.4454307556152344,0.0848066583275795,-0.5243159532546997,0.25283122062683105
1749045965.3147151,2.967949867248535,-0.6082258385470887,-2.396395444869995,-2.6575166187682093,-0.4985287825213831,-0.6371377150165003,-0.17763549089431763,-0.04227025434374809,0.062017470598220825,-0.2113376259803772,-0.03513438254594803,0.170296773314476,-0.4549446105957031,-0.467121958732605,1.4295098781585693,0.12432383000850677,-0.527313768863678,0.24331139028072357
1749045965.3147516,2.9675817489624023,-0.608255998497345,-2.3962595462799072,-2.6579071484007777,-0.4985898176776331,-0.6368301550494593,-0.18051834404468536,-0.04125635698437691,0.05989854782819748,-0.20973677933216095,-0.033873509615659714,0.1715760976076126,-0.44902294874191284,-0.5051950216293335,1.448203206062317,0.12741881608963013,-0.5206799507141113,0.26539862155914307
1749045965.3147888,2.9671666622161865,-0.6083399218371888,-2.3961472511291504,-2.658352037469381,-0.498692814503805,-0.636474911366598,-0.182793527841568,-0.042558878660202026,0.06178055331110954,-0.211556538939476,-0.0329335555434227,0.17525319755077362,-0.4318845868110657,-0.5030176043510437,1.4523876905441284,0.12261414527893066,-0.5355255603790283,0.25657594203948975
1749045965.3148258,2.9668262004852295,-0.6084238451770325,-2.396000862121582,-2.658776422540182,-0.4987834135638636,-0.6360424200641077,-0.18464107811450958,-0.04421907290816307,0.06366297602653503,-0.21181735396385193,-0.03409602493047714,0.17827126383781433,-0.4341680407524109,-0.46206343173980713,1.426729440689087,0.09949858486652374,-0.5295182466506958,0.2648608386516571
1749045965.3148623,2.9664576053619385,-0.608551101093628,-2.3958489894866943,-2.659233709374899,-0.49882823625673467,-0.6356871763812464,-0.18477663397789001,-0.043903592973947525,0.0644688680768013,-0.21338239312171936,-0.034994613379240036,0.18125231564044952,-0.4166238307952881,-0.4822794198989868,1.4180736541748047,0.08617265522480011,-0.5131906867027283,0.23193144798278809
1749045965.3148985,2.966031074523926,-0.6086588662913819,-2.3957488536834717,-2.6596280537047328,-0.4988492170916956,-0.6353543440448206,-0.18467013537883759,-0.04426604136824608,0.0648728758096695,-0.21547219157218933,-0.034710757434368134,0.18275530636310577,-0.3976750671863556,-0.4681544601917267,1.421931266784668,0.0858493372797966,-0.5218481421470642,0.231366366147995
1749045965.3149397,2.9656665325164795,-0.6087274116328736,-2.3956172466278076,-2.660030027429098,-0.4989560286151331,-0.6349604765521448,-0.18618741631507874,-0.043973810970783234,0.06476804614067078,-0.21666200459003448,-0.03479987382888794,0.1834322065114975,-0.42242008447647095,-0.463985413312912,1.4148263931274414,0.08154326677322388,-0.5285540819168091,0.20318642258644104
1749045965.314978,2.965301513671875,-0.6088420909694214,-2.395493745803833,-2.6604753933348597,-0.4990475813495081,-0.6346281210528772,-0.1879892647266388,-0.04367147758603096,0.0643734261393547,-0.22154191136360168,-0.03526514396071434,0.18234075605869293,-0.4593125581741333,-0.511734127998352,1.4157520532608032,0.08686330914497375,-0.5214989185333252,0.20900636911392212
1749045965.3150144,2.9649102687835693,-0.6088876289180298,-2.3953585624694824,-2.660915514031881,-0.4991191069232386,-0.6342547575580042,-0.19066455960273743,-0.04375789314508438,0.06435684114694595,-0.21981856226921082,-0.03366789594292641,0.18025334179401398,-0.4415096044540405,-0.46599432826042175,1.4350149631500244,0.07430516183376312,-0.5283260345458984,0.21797294914722443
1749045965.315051,2.9645729064941406,-0.6089869898608704,-2.39522647857666,-2.6613809070982875,-0.4991682211505335,-0.6339266935931605,-0.19131673872470856,-0.043936558067798615,0.06365297734737396,-0.22697637975215912,-0.03414882346987724,0.18037061393260956,-0.45302122831344604,-0.47666406631469727,1.4383776187896729,0.0880395844578743,-0.5253243446350098,0.23262843489646912
1749045965.3150873,2.964129686355591,-0.609089807873108,-2.3951263427734375,-2.6618339023985804,-0.4992631117450159,-0.6335681120501917,-0.1922307014465332,-0.04477920010685921,0.06523718684911728,-0.22708231210708618,-0.03465605154633522,0.177892804145813,-0.4195147752761841,-0.4527261555194855,1.4423290491104126,0.12167364358901978,-0.5124013423919678,0.2905925214290619
1749045965.3152177,2.9637577533721924,-0.60917021453891,-2.3949787616729736,-2.6622797451415003,-0.4993231932269495,-0.633181397114889,-0.19317592680454254,-0.0449041910469532,0.0662291944026947,-0.230576291680336,-0.035268981009721756,0.18357788026332855,-0.42332565784454346,-0.4666668176651001,1.4313324689865112,0.10120624303817749,-0.5048053860664368,0.2657857835292816
1749045965.3164554,2.9633891582489014,-0.6092268389514466,-2.3948471546173096,-2.662752767602438,-0.499399487172262,-0.6328066031085413,-0.19349543750286102,-0.045112378895282745,0.06505239009857178,-0.23245616257190704,-0.03605050966143608,0.18479645252227783,-0.47747305035591125,-0.47037360072135925,1.4498264789581299,0.10484913736581802,-0.5213493704795837,0.27709630131721497
1749045965.3582826,2.9629733562469482,-0.6093849104693909,-2.3946917057037354,-2.66324581722402,-0.4994271437274378,-0.6324313322650355,-0.19505465030670166,-0.04486735910177231,0.06824059784412384,-0.23440134525299072,-0.03512527048587799,0.1879725307226181,-0.48278194665908813,-0.485294908285141,1.4369457960128784,0.0881909728050232,-0.5229959487915039,0.2746311128139496
1749045965.3583288,2.9625966548919678,-0.6094150704196473,-2.394563913345337,-2.663680215875143,-0.4994919935809534,-0.6320212523089808,-0.1988164186477661,-0.04502829164266586,0.0683189332485199,-0.2343188375234604,-0.03647390007972717,0.19112487137317657,-0.45895981788635254,-0.48413166403770447,1.405731201171875,0.10072969645261765,-0.5080686211585999,0.24237558245658875
1749045965.358369,2.9621846675872803,-0.6095297497561951,-2.3944249153137207,-2.6641298733153285,-0.49959069887270147,-0.6316693464862269,-0.1999138742685318,-0.04485224187374115,0.06749530136585236,-0.23722156882286072,-0.03656887635588646,0.19363613426685333,-0.4885900616645813,-0.48201704025268555,1.4339839220046997,0.1042947918176651,-0.49813181161880493,0.2316148281097412
1749045965.3584077,2.961792230606079,-0.6096486014178772,-2.3943123817443848,-2.664614339868063,-0.49966651598085576,-0.6312750021563929,-0.20196159183979034,-0.04522106796503067,0.0705360472202301,-0.2350122034549713,-0.03563899174332619,0.195306196808815,-0.47658613324165344,-0.5010418891906738,1.4360997676849365,0.08530136942863464,-0.5065996050834656,0.2336830198764801
1749045965.3584456,2.9613680839538574,-0.6097374719432374,-2.3941493034362793,-2.66506352047109,-0.4997504393206995,-0.6308653990374964,-0.20332907140254974,-0.045249585062265396,0.07041753828525543,-0.23639735579490662,-0.035963449627161026,0.19330978393554688,-0.48742446303367615,-0.5165918469429016,1.3734807968139648,0.09440203756093979,-0.5218090415000916,0.2544015645980835
1749045965.3584902,2.9609408378601074,-0.6098019045642395,-2.3939661979675293,-2.665556570092672,-0.499791447316305,-0.6304505507098597,-0.2047448456287384,-0.04651736840605736,0.06968414783477783,-0.23783810436725616,-0.03572813794016838,0.19389674067497253,-0.46789005398750305,-0.5063823461532593,1.413143277168274,0.07460887730121613,-0.5179077386856079,0.26199641823768616
1749045965.3585303,2.9605207443237305,-0.609932617550232,-2.3938539028167725,-2.6660529575743617,-0.49993735948671514,-0.6301105658160608,-0.20539134740829468,-0.047022443264722824,0.07170923054218292,-0.23967991769313812,-0.03703433275222778,0.19456863403320312,-0.5219043493270874,-0.49860119819641113,1.399147629737854,0.0736585259437561,-0.5351165533065796,0.256784051656723
1749045965.3585682,2.9601128101348877,-0.610028402214386,-2.393709897994995,-2.666511198083395,-0.4999812285052698,-0.6296642462359827,-0.2096988558769226,-0.047833383083343506,0.07308659702539444,-0.24387474358081818,-0.03806743025779724,0.19615520536899567,-0.4730398952960968,-0.4711686372756958,1.389357089996338,0.09007147699594498,-0.516270637512207,0.28038138151168823
1749045965.358606,2.959657669067383,-0.6100900334170838,-2.393554449081421,-2.667009016076559,-0.5000260511981409,-0.629272762929098,-0.21304892003536224,-0.04843086376786232,0.07274392247200012,-0.24646539986133575,-0.03675118088722229,0.19945473968982697,-0.49062100052833557,-0.49591267108917236,1.3822396993637085,0.07172329723834991,-0.5185055732727051,0.269020140171051
1749045965.358643,2.959303140640259,-0.6101893943599244,-2.393430233001709,-2.667520662347311,-0.5001056830035608,-0.6288660208331507,-0.21334423124790192,-0.049012817442417145,0.07238630950450897,-0.2516552805900574,-0.0355936735868454,0.20163512229919434,-0.42735233902931213,-0.48961296677589417,1.3798621892929077,0.12137759476900101,-0.5347381830215454,0.24926656484603882
1749045965.3586795,2.958883285522461,-0.6102969807437439,-2.393251419067383,-2.6680103741087855,-0.5001967589007776,-0.6284311453448694,-0.21292589604854584,-0.04918110370635986,0.07224703580141068,-0.24864549934864044,-0.03513014316558838,0.2048080414533615,-0.47817835211753845,-0.5005499720573425,1.3882625102996826,0.08892640471458435,-0.5377708673477173,0.25457242131233215
1749045965.358716,2.9584391117095947,-0.610381082897522,-2.3930959701538086,-2.6685239277281703,-0.500277344380514,-0.6280482451068323,-0.21469302475452423,-0.04960763454437256,0.07258439809083939,-0.25183647871017456,-0.036149781197309494,0.20503383874893188,-0.4522886872291565,-0.46907567977905273,1.3860543966293335,0.13406910002231598,-0.5303689241409302,0.23937100172042847
1749045965.3587532,2.9579880237579346,-0.6105036300471802,-2.3929247856140137,-2.66904940227651,-0.5003097693072718,-0.6276448408709925,-0.21656601130962372,-0.05110137164592743,0.07238172739744186,-0.25268104672431946,-0.037968285381793976,0.20400717854499817,-0.5289309024810791,-0.48245376348495483,1.3919821977615356,0.11896437406539917,-0.5338811874389648,0.23813417553901672
1749045965.3587894,2.957536220550537,-0.610599474315979,-2.392824649810791,-2.6695271931090296,-0.5004213492022913,-0.627237621937887,-0.21812798082828522,-0.050385504961013794,0.07267755270004272,-0.2543907165527344,-0.0389961339533329,0.20796756446361542,-0.46090036630630493,-0.47864699363708496,1.401374101638794,0.11162031441926956,-0.543509304523468,0.22177353501319885
1749045965.3588262,2.957123279571533,-0.6107141536525269,-2.3926608562469482,-2.670049329797262,-0.5005119482623499,-0.6268704573260706,-0.21875591576099396,-0.048869311809539795,0.07435020804405212,-0.2551113963127136,-0.038882024586200714,0.20246857404708862,-0.47068971395492554,-0.5070003271102905,1.3687041997909546,0.10733715444803238,-0.5423462986946106,0.2600562572479248
1749045965.358863,2.956714153289795,-0.6108099979213257,-2.3925247192382812,-2.6705194912352503,-0.5005806128131312,-0.6263936201678675,-0.22137877345085144,-0.05076060816645622,0.07192614674568176,-0.2531338930130005,-0.03890314698219299,0.20662929117679596,-0.46552950143814087,-0.5023701190948486,1.408517837524414,0.08796776831150055,-0.554169774055481,0.2823382616043091
1749045965.3589103,2.956254243850708,-0.6108994048884888,-2.392385244369507,-2.6710521183409632,-0.5006750265704554,-0.6260412375079554,-0.22088022530078888,-0.05214355140924454,0.07273576408624649,-0.25796037912368774,-0.03855440393090248,0.2057783603668213,-0.510729968547821,-0.5049741268157959,1.4091548919677734,0.08577845990657806,-0.5415878891944885,0.2974931597709656
1749045965.3589466,2.955833673477173,-0.611010805969574,-2.3922297954559326,-2.6715737781920375,-0.5007169882403772,-0.6255753676043909,-0.22399887442588806,-0.05309515818953514,0.07508225739002228,-0.25860896706581116,-0.037976887077093124,0.2101530283689499,-0.4173365831375122,-0.4693126678466797,1.3638591766357422,0.10775847733020782,-0.5587195158004761,0.30143028497695923
1749045965.3589823,2.9553709030151367,-0.6111031335643311,-2.3920819759368896,-2.6720954380431117,-0.5007923285113733,-0.6251795927630823,-0.22397972643375397,-0.05024906247854233,0.0720859244465828,-0.25926628708839417,-0.03880186006426811,0.21307317912578583,-0.46261969208717346,-0.5039223432540894,1.428941011428833,0.10222916305065155,-0.5588446855545044,0.2826026678085327
1749045965.3590183,2.9549074172973633,-0.6112227004817505,-2.391922950744629,-2.672600885430807,-0.5009143988238733,-0.624725643788473,-0.22581793367862701,-0.05249723419547081,0.07294721901416779,-0.26128950715065,-0.03872869536280632,0.21444420516490936,-0.4910239577293396,-0.4844542145729065,1.4194378852844238,0.09614768624305725,-0.57237708568573,0.2840666174888611
1749045965.3591764,2.9545063972473145,-0.6113150876811524,-2.3918023109436035,-2.673138280908102,-0.5009482542621058,-0.6242826620685022,-0.22964733839035034,-0.05205758661031723,0.07255826145410538,-0.26234015822410583,-0.03930843994021416,0.21609696745872498,-0.4940330684185028,-0.5031224489212036,1.4310129880905151,0.10104326903820038,-0.5520907044410706,0.27730682492256165
1749045965.3604696,2.9539949893951416,-0.6114332240870972,-2.3916361331939697,-2.6736203632750453,-0.5010317007647913,-0.6238744894610804,-0.23152536153793335,-0.05255575850605965,0.07205132395029068,-0.2646891474723816,-0.040673114359378815,0.21672645211219788,-0.4471166729927063,-0.5120660066604614,1.4530376195907593,0.08227437734603882,-0.5575215220451355,0.2751079201698303
1749045965.4022737,2.9535746574401855,-0.6115415853312989,-2.3915116786956787,-2.674188276330465,-0.5010965506183069,-0.6234524885760706,-0.23094680905342102,-0.053686317056417465,0.0733717679977417,-0.2658458650112152,-0.04177960753440857,0.21781869232654572,-0.465565025806427,-0.5087718367576599,1.4442540407180786,0.09276622533798218,-0.5506152510643005,0.2927030324935913
1749045965.40232,2.95310640335083,-0.6116696757129212,-2.391336441040039,-2.674729963342184,-0.501230541859762,-0.6230056921588343,-0.2306349277496338,-0.05337527394294739,0.07365171611309052,-0.2689806818962097,-0.04232604429125786,0.2171095609664917,-0.5361180901527405,-0.4935753047466278,1.44430673122406,0.10900840163230896,-0.5466777086257935,0.29942587018013
1749045965.4023595,2.952634572982788,-0.6117997926524659,-2.391193151473999,-2.6752544842162074,-0.5012725035296839,-0.6225665251361292,-0.2340308427810669,-0.053358521312475204,0.0736919417977333,-0.27170899510383606,-0.042949043214321136,0.220234215259552,-0.5214731693267822,-0.5088250041007996,1.442952275276184,0.09810315072536469,-0.5513348579406738,0.3138810694217682
1749045965.4023972,2.9521734714508057,-0.6118803185275574,-2.3910529613494873,-2.675772329370016,-0.5014141241656702,-0.6221745649920862,-0.23589913547039032,-0.054561715573072433,0.07392757385969162,-0.2710367739200592,-0.04433222860097885,0.22363170981407166,-0.4916970133781433,-0.4977588951587677,1.4576466083526611,0.09330448508262634,-0.5244542956352234,0.27508872747421265
1749045965.402435,2.95172119140625,-0.6120122832110901,-2.390943765640259,-2.6763106785216273,-0.5014904181109827,-0.6216891447650355,-0.23841138184070587,-0.05574599653482437,0.07477131485939026,-0.272931307554245,-0.04579514265060425,0.2276385873556137,-0.4754614531993866,-0.4470463991165161,1.480747938156128,0.11351502686738968,-0.525771975517273,0.28906524181365967
1749045965.4024725,2.9512290954589844,-0.6121012729457398,-2.390749931335449,-2.6768790684142054,-0.5015853087054651,-0.621246639882223,-0.2390834391117096,-0.05269446223974228,0.07569276541471481,-0.27810513973236084,-0.04636814445257187,0.22992803156375885,-0.470114529132843,-0.517967939376831,1.479987621307373,0.08152702450752258,-0.5273960828781128,0.2862016558647156
1749045965.4025102,2.9507384300231934,-0.6121865671924134,-2.390625476837158,-2.677456041375631,-0.5016701857196253,-0.620772663746969,-0.24043141305446625,-0.054697584360837936,0.076255202293396,-0.27658843994140625,-0.044498298317193985,0.23032447695732117,-0.49019762873649597,-0.5024215579032898,1.4691590070724487,0.09841662645339966,-0.537298321723938,0.2673201858997345
1749045965.4025476,2.9502458572387695,-0.6123166841319581,-2.390453815460205,-2.6780315838255824,-0.501754109059469,-0.620310131703512,-0.24103060364723206,-0.056343503296375275,0.08050896227359772,-0.2807241976261139,-0.04517088457942009,0.23232106864452362,-0.5073525309562683,-0.5050290822982788,1.4747434854507446,0.12278702855110168,-0.5283347368240356,0.24867725372314453
1749045965.4025848,2.9497766494750977,-0.612433449631073,-2.390286684036255,-2.678601404229635,-0.5018423239337366,-0.619849983845846,-0.2431132197380066,-0.05682120844721794,0.07952924072742462,-0.2806890904903412,-0.046007223427295685,0.22986328601837158,-0.5087857246398926,-0.450913667678833,1.4505516290664673,0.1176910549402237,-0.5289720892906189,0.29093584418296814
1749045965.4026217,2.949242115020752,-0.6125446718982239,-2.3901114463806152,-2.679143568078512,-0.5019453207599085,-0.6193712393390101,-0.24734827876091003,-0.05399804934859276,0.07971755415201187,-0.28022438287734985,-0.04678693786263466,0.2311255931854248,-0.49969834089279175,-0.5169075131416321,1.460086464881897,0.12023035436868668,-0.5202402472496033,0.2780955135822296
1749045965.4026613,2.949242115020752,-0.6125446718982239,-2.3901114463806152,-2.679143568078512,-0.5019453207599085,-0.6193712393390101,-0.24734827876091003,-0.05399804934859276,0.07971755415201187,-0.28022438287734985,-0.04678693786263466,0.2311255931854248,-0.49969834089279175,-0.5169075131416321,1.460086464881897,0.12023035436868668,-0.5202402472496033,0.2780955135822296
1749045965.4026985,2.9482927322387695,-0.6127448839000245,-2.389784336090088,-2.6803094349303187,-0.5021327177630823,-0.6183856169330042,-0.24810181558132172,-0.056146249175071716,0.0805075615644455,-0.28242748975753784,-0.04724689573049545,0.23288261890411377,-0.46864867210388184,-0.504260778427124,1.4467252492904663,0.08815425634384155,-0.5000300407409668,0.28555503487586975
1749045965.402735,2.9478039741516113,-0.6128723186305542,-2.3896408081054688,-2.6808792553343714,-0.5021818319903772,-0.617965046559469,-0.2487199753522873,-0.057034168392419815,0.08109506964683533,-0.28315043449401855,-0.04667143151164055,0.23290222883224487,-0.48079776763916016,-0.4898614287376404,1.4648547172546387,0.11683252453804016,-0.4987547695636749,0.29080113768577576
1749045965.4027715,2.9472618103027344,-0.6129841965487977,-2.3894691467285156,-2.681425233880514,-0.5022895971881312,-0.6174972693072718,-0.24929004907608032,-0.05694710463285446,0.08266417682170868,-0.2862013280391693,-0.04666583240032196,0.23113957047462463,-0.48041656613349915,-0.4799787998199463,1.4544003009796143,0.0831466019153595,-0.5059957504272461,0.3102984130382538
1749045965.4028077,2.946796178817749,-0.6130765837481995,-2.3893048763275146,-2.6820208034911097,-0.5023973623858851,-0.6169899145709437,-0.2543278634548187,-0.05847539007663727,0.08181653171777725,-0.28389325737953186,-0.04753796383738518,0.23545478284358978,-0.5949670076370239,-0.4791249930858612,1.4884546995162964,0.05089475214481354,-0.5097223520278931,0.3127783536911011
1749045965.4028447,2.9462764263153076,-0.613208071594574,-2.3891727924346924,-2.6825901470580042,-0.5025265852557581,-0.6165502707110804,-0.2598210573196411,-0.058708228170871735,0.08412735164165497,-0.28691527247428894,-0.04940684139728546,0.23665392398834229,-0.40620315074920654,-0.48000043630599976,1.4541897773742676,0.10307023674249649,-0.5166764855384827,0.3089865446090698
1749045965.4028814,2.94573712348938,-0.613312379722931,-2.388934850692749,-2.6831757030882777,-0.5026081244098108,-0.6160514990435999,-0.2578519582748413,-0.05878095328807831,0.0855659693479538,-0.28687024116516113,-0.04852505028247833,0.2397994101047516,-0.46508586406707764,-0.4789917469024658,1.4492484331130981,0.0688323974609375,-0.5086309313774109,0.30577585101127625
1749045965.4029176,2.9452712535858154,-0.6134361785701294,-2.388791084289551,-2.6837803326048792,-0.5026844183551233,-0.6155245939837855,-0.25395429134368896,-0.059851985424757004,0.08593571186065674,-0.2873833477497101,-0.047863442450761795,0.24130001664161682,-0.4610843360424042,-0.4799017310142517,1.4279541969299316,0.059322893619537354,-0.49081310629844666,0.30634650588035583
1749045965.4029548,2.944751739501953,-0.6135901373675843,-2.388603925704956,-2.6843744717040003,-0.5027959982501429,-0.6150911490069788,-0.25641533732414246,-0.060132961720228195,0.08944416791200638,-0.2917780876159668,-0.047759536653757095,0.2433299571275711,-0.5272232890129089,-0.4760555624961853,1.4098857641220093,0.06025751307606697,-0.4766090214252472,0.2917424142360687
1749045965.402998,2.944164514541626,-0.613722102051117,-2.388428211212158,-2.6849781475462855,-0.5028722921954554,-0.6145761648761194,-0.2608191967010498,-0.060267239809036255,0.0872596725821495,-0.29959970712661743,-0.04798318073153496,0.24486035108566284,-0.46275290846824646,-0.46867799758911133,1.4178228378295898,0.10862600803375244,-0.48790284991264343,0.2936556339263916
1749045965.4031074,2.94370698928833,-0.6138230127147217,-2.388245105743408,-2.685598989526266,-0.502965275441305,-0.6140731016742151,-0.26281315088272095,-0.06039418280124664,0.08877691626548767,-0.2978001534938812,-0.04853368550539017,0.24503976106643677,-0.4422973692417145,-0.49222078919410706,1.4267568588256836,0.09435662627220154,-0.4759397506713867,0.3010280132293701
1749045965.4044902,2.943159580230713,-0.6139600437930604,-2.3880653381347656,-2.686205049554342,-0.5030987898456019,-0.6135624090777796,-0.26137039065361023,-0.06138158589601517,0.08861043304204941,-0.2960949242115021,-0.04744487628340721,0.24842558801174164,-0.4456550180912018,-0.4325569272041321,1.3983256816864014,0.0871991366147995,-0.49119195342063904,0.28589028120040894
1749045965.4462752,2.942631244659424,-0.614074782734253,-2.3878703117370605,-2.68678679088735,-0.5031598250018519,-0.6131051222430628,-0.2601199746131897,-0.06111022084951401,0.08776693046092987,-0.2938135266304016,-0.04529203847050667,0.24613147974014282,-0.4865899980068207,-0.467556893825531,1.4280630350112915,0.05726403743028641,-0.5129907131195068,0.282304972410202
1749045965.4463205,2.9421069622039795,-0.6142441791347046,-2.387714385986328,-2.68735994915151,-0.5032523314105433,-0.6126025358783167,-0.26178106665611267,-0.060910966247320175,0.08901112526655197,-0.2937034070491791,-0.04527902230620384,0.2493123710155487,-0.5138590335845947,-0.47395116090774536,1.4107400178909302,0.033409133553504944,-0.5016592144966125,0.2859411835670471
1749045965.4463634,2.9415628910064697,-0.6143174928477784,-2.3875231742858887,-2.687932630578512,-0.5033276716815394,-0.6120865980731409,-0.26537731289863586,-0.060551077127456665,0.08946055173873901,-0.2949850261211395,-0.04474201798439026,0.2498340755701065,-0.5155367851257324,-0.49844467639923096,1.3986986875534058,0.01455548033118248,-0.497283399105072,0.2957213819026947
1749045965.446402,2.9410271644592285,-0.6144616168788453,-2.3873937129974365,-2.6885701618590296,-0.5034273306476038,-0.6115878264056605,-0.2680441439151764,-0.06121758744120598,0.08986198157072067,-0.3010062873363495,-0.044666606932878494,0.25156348943710327,-0.4720592200756073,-0.4791426658630371,1.4080904722213745,0.02974662184715271,-0.5108081698417664,0.29902440309524536
1749045965.446449,2.94050669670105,-0.6145929855159302,-2.387176275253296,-2.6891595325865687,-0.5035694281207483,-0.611096207295553,-0.2672058343887329,-0.059973616153001785,0.09020225703716278,-0.3069670796394348,-0.044616397470235825,0.25348421931266785,-0.49350279569625854,-0.5083831548690796,1.4155232906341553,0.03911784291267395,-0.52064049243927,0.2981909215450287
1749045965.4464905,2.939938545227051,-0.6147285860827942,-2.38700008392334,-2.689787527123922,-0.5035994688617151,-0.6105878988849085,-0.2669685184955597,-0.06332527101039886,0.09176204353570938,-0.30655285716056824,-0.043889120221138,0.2533978521823883,-0.4876026213169098,-0.45322510600090027,1.3956633806228638,0.04154884070158005,-0.5228004455566406,0.30014854669570923
1749045965.446529,2.939417839050293,-0.6148330134204407,-2.3868207931518555,-2.690380712548727,-0.503725830708639,-0.6100323835956019,-0.2688099443912506,-0.05884816497564316,0.0927356705069542,-0.3069760799407959,-0.0447377972304821,0.25646916031837463,-0.48841580748558044,-0.48533350229263306,1.3836174011230469,0.031426116824150085,-0.5318465828895569,0.2637280821800232
1749045965.446567,2.938854694366455,-0.6149524611285706,-2.386629104614258,-2.6910249195494593,-0.5038254896747034,-0.6095283667193812,-0.2705135941505432,-0.060380902141332626,0.09380233287811279,-0.3098079264163971,-0.04619995504617691,0.2601659893989563,-0.530165433883667,-0.503115177154541,1.3629409074783325,0.004645884037017822,-0.5207452178001404,0.27525055408477783
1749045965.4466047,2.938269853591919,-0.6150916975787659,-2.38645339012146,-2.691639085809225,-0.5039218107806605,-0.6089776198016565,-0.27317672967910767,-0.06223318725824356,0.09318412095308304,-0.31110310554504395,-0.04698382690548897,0.2575322091579437,-0.5245260000228882,-0.5086542367935181,1.365614414215088,0.0037226080894470215,-0.5258989334106445,0.2932894825935364
1749045965.4466417,2.937753677368164,-0.6152113837054749,-2.3862462043762207,-2.6922790012755335,-0.5040019194232386,-0.6084464232074183,-0.277185320854187,-0.06228643283247948,0.09293632954359055,-0.3199187219142914,-0.048684537410736084,0.25984036922454834,-0.43156933784484863,-0.48681768774986267,1.3678362369537354,0.06186898052692413,-0.5134004354476929,0.2780354619026184
1749045965.446679,2.937173843383789,-0.6152962011149903,-2.3860819339752197,-2.6929246387877406,-0.5041134993182581,-0.607950512562887,-0.2724493443965912,-0.061595164239406586,0.09111219644546509,-0.32191476225852966,-0.04903990775346756,0.25974148511886597,-0.4667399525642395,-0.5264703631401062,1.3783807754516602,0.07659535109996796,-0.5170249938964844,0.30243587493896484
1749045965.4467158,2.936616897583008,-0.6154250067523499,-2.3859143257141113,-2.6935225925841273,-0.5042327086078089,-0.6074507872210901,-0.27566009759902954,-0.06381076574325562,0.08890693634748459,-0.322562038898468,-0.04795750603079796,0.2605501115322113,-0.5136862397193909,-0.5010883808135986,1.4126566648483276,0.04828101769089699,-0.5383830070495605,0.2941662073135376
1749045965.4467523,2.936095952987671,-0.6155137580684205,-2.3857192993164062,-2.6941405735411585,-0.504284683858053,-0.6069749037372034,-0.2802685797214508,-0.06378587335348129,0.09187664091587067,-0.32316669821739197,-0.04769830405712128,0.2603049576282501,-0.5351536273956299,-0.5034071207046509,1.4038348197937012,0.02392110973596573,-0.5399940013885498,0.3228742480278015
