nimar13/UR3e_dataset_trayectorias/trayectorias_ejecutadas/quintic_func/trayectoria_169_result.csv
timestamp,q1,q2,q3,q4,q5,q6,qd1,qd2,qd3,qd4,qd5,qd6,tau1,tau2,tau3,tau4,tau5,tau6
1749043948.114272,5.951805114746094,-1.9071318111815394,-2.209624767303467,5.245485889702596,3.1996147632598877,4.153265953063965,0.0019403414335101843,-0.0001944711257237941,-0.0008660232415422797,0.0010162316029891372,0.001172372605651617,0.0016957438783720136,0.13542434573173523,0.7122880816459656,0.6046940088272095,0.5143021941184998,0.5938870310783386,0.07566922903060913
1749043948.1143188,5.951827526092529,-1.9070893726744593,-2.209632158279419,5.245473968773641,3.199583053588867,4.1532697677612305,0.0008214869885705411,-0.00017587283218745142,-0.0005702315247617662,0.0008243436459451914,0.0007785569760017097,0.0013099487405270338,0.11119392514228821,0.7366270422935486,0.6170219779014587,0.4809104800224304,0.5741233229637146,0.0652303695678711
1749043948.1143596,5.951807022094727,-1.9071365795531214,-2.209644079208374,5.245485889702596,3.199575662612915,4.153304576873779,-0.0034286852460354567,-0.00016506173415109515,0.00019302492728456855,0.0006495130946859717,0.0003563631034921855,0.0006835230742581189,0.09580716490745544,0.7172780632972717,0.6315975189208984,0.4912247359752655,0.5700075030326843,0.0510750412940979
1749043948.1143985,5.951796531677246,-1.907140394250387,-2.209620237350464,5.245485889702596,3.1996028423309326,4.1532816886901855,-0.00461133848875761,-0.00015554949641227722,0.0006260325317271054,0.0004972521564923227,0.00021416458184830844,0.0002477752568665892,0.1195773035287857,0.7443249225616455,0.6309298872947693,0.47263282537460327,0.5539051294326782,0.04939788579940796
1749043948.114436,5.951854228973389,-1.90714754680776,-2.209620237350464,5.2455047247703455,3.199552059173584,4.153250694274902,-0.0035371086560189724,8.34231250337325e-05,0.002039526589214802,0.0003680018417071551,0.00012225234240759164,4.378448647912592e-05,0.08223943412303925,0.729084849357605,0.6475356221199036,0.4766196012496948,0.5493797659873962,0.034569740295410156
1749043948.114473,5.951767444610596,-1.9071160755553187,-2.209620237350464,5.24549280384139,3.19956374168396,4.1532697677612305,-0.0034294589422643185,0.000103027603472583,0.0019971714355051517,0.0001251190697075799,6.583791400771588e-05,7.73717874835711e-06,0.05796678364276886,0.7634947896003723,0.6381385922431946,0.4646405577659607,0.5235665440559387,0.039238184690475464
1749043948.1145108,5.951814651489258,-1.9071594677367152,-2.2096285820007324,5.24549280384139,3.1995954513549805,4.1532816886901855,-0.0043695708736777306,9.76746014202945e-05,0.001653396524488926,-0.00026079986128024757,1.1634250768111087e-05,-0.001417351420968771,0.06278550624847412,0.7593421339988708,0.6560034155845642,0.4647587239742279,0.5271780490875244,0.012894153594970703
1749043948.114548,5.951748847961426,-1.9071318111815394,-2.209651231765747,5.245477425843038,3.1995601654052734,4.153257846832275,-0.005609109066426754,9.264929394703358e-05,0.001253296504728496,-0.0016904635122045875,2.0558943560899934e-06,-0.00294754421338439,0.06783950328826904,0.7577342391014099,0.6707293391227722,0.4620349109172821,0.5250932574272156,0.02538585662841797
1749043948.1145854,5.9517951011657715,-1.907093187371725,-2.2096476554870605,5.245477425843038,3.1995627880096436,4.153273582458496,-0.006663777865469456,8.811346924630925e-05,0.0011612685630097985,-0.0024270187132060528,3.6329811337054707e-07,-0.003325070720165968,0.08338502049446106,0.7422498464584351,0.6784891486167908,0.460300087928772,0.5193119645118713,0.028998613357543945
1749043948.1146224,5.951735496520996,-1.9071327648558558,-2.2096476554870605,5.245462047844686,3.1995792388916016,4.153264999389648,-0.006425005383789539,8.400084334425628e-05,0.0012284788535907865,-0.0025293701328337193,-0.000300254876492545,-0.003173563629388809,0.09440743923187256,0.7462254166603088,0.6755236983299255,0.4553288519382477,0.5171055197715759,0.032936692237854004
1749043948.1146595,5.951759338378906,-1.9071365795531214,-2.209651231765747,5.245465504914083,3.1995365619659424,4.15324592590332,-0.006249143276363611,8.025560964597389e-05,0.0012396363308653235,-0.0022125467658042908,-0.0016964877722784877,-0.0025878672022372484,0.07821717858314514,0.739298939704895,0.6914803385734558,0.44177109003067017,0.5166570544242859,0.036465734243392944
1749043948.114697,5.951813220977783,-1.9071089229979457,-2.2096285820007324,5.245484399586477,3.1995508670806885,4.153261661529541,-0.006358715705573559,7.682985597057268e-05,0.0013436913723126054,-0.0016885873628780246,-0.0016569147119298577,-0.0022596651688218117,0.055078838020563126,0.7491324543952942,0.7039781212806702,0.45507875084877014,0.515326976776123,0.021509945392608643
1749043948.1147408,5.9517502784729,-1.9071089229979457,-2.209632158279419,5.245437907963552,3.199521064758301,4.153234004974365,-0.006133540067821741,7.368444494204596e-05,0.0019277178216725588,-0.0012071760138496757,-0.001367591554298997,-0.0020914406049996614,0.08976484835147858,0.7537829279899597,0.6904667019844055,0.4520043730735779,0.5074754357337952,0.009929269552230835
1749043948.1147795,5.951757907867432,-1.9071089229979457,-2.2096476554870605,5.245450126915731,3.1995866298675537,4.153214931488037,-0.005212223622947931,7.078659109538421e-05,0.0019243542337790132,-0.0011476934887468815,-0.0012582612689584494,-0.002087850123643875,0.053108058869838715,0.7477405071258545,0.7186539769172668,0.4557161033153534,0.5073538422584534,0.021641790866851807
1749043948.1148164,5.951719760894775,-1.9071246586241664,-2.209613084793091,5.245472538262167,3.1995747089385986,4.153253078460693,-0.0046514710411429405,6.810806371504441e-05,0.0016012530541047454,-0.0011391501175239682,-0.0010916827013716102,-0.0025066169910132885,0.0548548698425293,0.7281959056854248,0.7141658663749695,0.45769938826560974,0.4996100068092346,0.024173498153686523
1749043948.114854,5.951711177825928,-1.9071508846678675,-2.209632158279419,5.245437907963552,3.1995627880096436,4.1532111167907715,-0.004969159606844187,6.562474300153553e-05,0.0014164254534989595,-0.0010436531156301498,-0.0008318178588524461,-0.0027323176618665457,0.04940027743577957,0.7427961230278015,0.7113922238349915,0.4510379433631897,0.4972558617591858,0.024977773427963257
1749043948.1149104,5.951699256896973,-1.9071327648558558,-2.209620237350464,5.24546896198348,3.199540138244629,4.153198719024658,-0.004807562567293644,6.331659824354574e-05,0.0014087050221860409,-0.0009065581834875047,-0.0006915651611052454,-0.0025373497046530247,0.0667804405093193,0.7227290868759155,0.7282220721244812,0.44251540303230286,0.5008592009544373,0.0161094069480896
1749043948.1149786,5.951754093170166,-1.9070970020689906,-2.209608316421509,5.245484339981832,3.1995317935943604,4.153198719024658,-0.00408791471272707,6.116490840213373e-05,0.0014750343980267644,-0.0007643235148862004,-0.0005970761412754655,-0.002298901788890362,0.041021496057510376,0.7213906645774841,0.7147703170776367,0.43901848793029785,0.502301037311554,0.010601818561553955
1749043948.1150453,5.951699256896973,-1.9071399174132289,-2.209592819213867,5.245462047844686,3.199547290802002,4.153234004974365,-0.0033124196343123913,5.9154706832487136e-05,0.0016204316634684801,-0.0006543703493662179,-0.0005263798520900309,-0.0019694415386766195,0.05711803585290909,0.7107416391372681,0.7256650328636169,0.441189169883728,0.5023009181022644,0.028316617012023926
1749043948.1151135,5.951718807220459,-1.9071318111815394,-2.209608316421509,5.245475935726919,3.1995627880096436,4.153237819671631,-0.0028321214485913515,5.7272514823125675e-05,0.0023919863160699606,-0.0005710311816073954,-0.0004708183405455202,-0.0016768526984378695,0.010681196115911007,0.722459077835083,0.7052363753318787,0.4443139135837555,0.5039781928062439,0.030100613832473755
1749043948.115269,5.95168399810791,-1.9071246586241664,-2.209592819213867,5.24546896198348,3.199559211730957,4.1532182693481445,-0.0024254615418612957,5.5506428907392547e-05,0.0026297427248209715,-0.0005064141005277634,-0.0004261053691152483,-0.001240854267962277,0.02897963672876358,0.7324889302253723,0.7009978890419006,0.4403993785381317,0.5018517374992371,0.01003497838973999
1749043948.1165397,5.951672077178955,-1.907151838342184,-2.2095491886138916,5.245453583985128,3.1995437145233154,4.15322208404541,-0.0021259996574372053,5.384584437706508e-05,0.0025136589538306,-0.00045496338861994445,-0.0004153877089265734,-0.0011830456787720323,0.02267429232597351,0.7236415147781372,0.6980316042900085,0.4447900354862213,0.5006936192512512,0.020607411861419678
1749043948.1582909,5.9516754150390625,-1.9071246586241664,-2.209568500518799,5.245437907963552,3.1995508670806885,4.153237819671631,-0.0020024338737130165,5.228196823736653e-05,0.002215481596067548,-0.0004130381566938013,-0.0004205185978207737,-0.0011353115551173687,0.031397271901369095,0.705145537853241,0.7120535969734192,0.45357874035835266,0.49122387170791626,-0.004958599805831909
1749043948.158337,5.951679229736328,-1.907128473321432,-2.2095720767974854,5.245422470360555,3.199540138244629,4.15322208404541,-0.0017838996136561036,5.080627306597307e-05,0.002025383524596691,-0.0003782097774092108,-0.0003963404451496899,-0.0010643850546330214,0.03339136391878128,0.7089518904685974,0.6932932138442993,0.45485565066337585,0.5140548348426819,0.02716749906539917
1749043948.158381,5.951655864715576,-1.90714754680776,-2.2095839977264404,5.245484339981832,3.199554443359375,4.153191089630127,-0.0014688842929899693,3.252314854762517e-05,0.0016989662544801831,-0.00034881546162068844,-0.0003703109105117619,-0.0010107815032824874,0.02916848473250866,0.690620481967926,0.6893571019172668,0.45750412344932556,0.509928286075592,0.014542877674102783
1749043948.1584206,5.951679229736328,-1.9071246586241664,-2.2095720767974854,5.245453583985128,3.199554443359375,4.15322208404541,-0.001321106101386249,2.4121982278302312e-05,0.0013953923480585217,-0.00037607664125971496,-0.0003466610796749592,-0.000935882912017405,0.026962902396917343,0.6944024562835693,0.7120750546455383,0.4466035068035126,0.5137304663658142,0.018470346927642822
1749043948.1584592,5.951694965362549,-1.9071365795531214,-2.2095530033111572,5.245465504914083,3.1995365619659424,4.15322208404541,-0.001236766460351646,2.3420720026479103e-05,0.0011868212604895234,-0.0003601188655011356,-0.00032578984973952174,-0.0009199398336932063,0.02488730102777481,0.6974160075187683,0.7025800347328186,0.4523787200450897,0.5081323981285095,0.015662580728530884
1749043948.158499,5.951679229736328,-1.9071318111815394,-2.2095720767974854,5.245453583985128,3.199552059173584,4.1531982421875,-0.0011808528797701001,2.2825966880191118e-05,0.001094407052733004,-0.00033909804187715054,-0.0003072428226005286,-0.0008212971151806414,0.055003099143505096,0.6842284798622131,0.703617513179779,0.459686815738678,0.5126007795333862,0.0030249953269958496
1749043948.1585374,5.951655387878418,-1.9071175060667933,-2.2095911502838135,5.245460557728567,3.199578285217285,4.153187274932861,-0.00102619722019881,2.226137621619273e-05,0.0009622825309634209,-0.0003193083393853158,-0.00029065331909805536,-0.0007642322452738881,0.04645140841603279,0.686180055141449,0.7195912599563599,0.45526042580604553,0.5140911936759949,0.019119858741760254
1749043948.158575,5.951659679412842,-1.9071017704405726,-2.209568500518799,5.245453583985128,3.1995866298675537,4.153174877166748,-0.0008981365244835615,6.86833755025873e-06,0.0008364898385480046,-0.00030150945531204343,-0.00027581877657212317,-0.0007352145039476454,0.044240932911634445,0.6747792959213257,0.7024082541465759,0.44646283984184265,0.5090288519859314,0.020596027374267578
1749043948.158613,5.951725959777832,-1.907093187371725,-2.2095839977264404,5.245453583985128,3.1995866298675537,4.1532135009765625,-0.0007985264528542757,6.7011661997185e-08,0.0007383025949820876,-0.00028555691824294627,-0.0002624079352244735,-0.0006749384920112789,0.06905759125947952,0.652069091796875,0.7053683400154114,0.4523455798625946,0.5182192921638489,0.021316170692443848
1749043948.1586509,5.951663017272949,-1.9071327648558558,-2.209587574005127,5.245444881706991,3.1995627880096436,4.153205871582031,-0.0007187768933363259,6.538063979100173e-10,0.0006607826799154282,-0.00027120293816551566,-0.0002502136630937457,-0.0006183740915730596,0.03654748946428299,0.6467930674552917,0.7116734981536865,0.45847946405410767,0.5172064900398254,0.016772687435150146
1749043948.1586883,5.951710224151611,-1.9071399174132289,-2.2095839977264404,5.245426046639242,3.1995747089385986,4.153233051300049,-0.0006534733111038804,6.378930803713212e-12,0.0005979698617011309,-0.0002582239976618439,-0.00023914390476420522,-0.0005695613799616694,0.05928004905581474,0.6675839424133301,0.6976422071456909,0.4590553939342499,0.5167664289474487,0.02442556619644165
1749043948.1587303,5.951702117919922,-1.9071055851378382,-2.2096002101898193,5.2454225299652,3.199547290802002,4.153229236602783,-0.0005991174257360399,6.223671480520138e-14,0.0005460440297611058,-0.0002464308636263013,-0.00022899924078956246,-0.0005277938325889409,0.07332845777273178,0.6664500832557678,0.7086948156356812,0.47181281447410583,0.5309880375862122,0.03700578212738037
1749043948.1587687,5.9516754150390625,-1.907140394250387,-2.209568500518799,5.24545710065917,3.1995437145233154,4.15322208404541,-0.0005530831404030323,6.072191263430907e-16,0.0005024815327487886,-0.0002356682816753164,-0.00021965905034448951,-0.0004916945472359657,0.06356710195541382,0.6569731831550598,0.703743040561676,0.46514591574668884,0.5165215730667114,0.014996469020843506
1749043948.1588063,5.951691150665283,-1.9071437321104945,-2.209587574005127,5.245472478657522,3.199559211730957,4.153225898742676,-0.00045149936340749264,5.924397414460955e-18,0.000465336546767503,-0.00022580689983442426,-0.0002110831846948713,-0.00046020769514143467,0.04092937707901001,0.626160204410553,0.7090761065483093,0.47310611605644226,0.523257315158844,0.003473937511444092
1749043948.1588438,5.951679229736328,-1.907128473321432,-2.209603786468506,5.245437907963552,3.199571132659912,4.1531982421875,-0.00041950601735152304,-0.0010101491352543235,0.00043328452738933265,-0.00021673830633517355,-0.00020314125868026167,-0.0003681679372675717,0.027021978050470352,0.6228002905845642,0.7099034190177917,0.4781307876110077,0.5394220948219299,0.01611405611038208
1749043948.1588807,5.951672077178955,-1.9071485004820765,-2.2095839977264404,5.245453583985128,3.1995437145233154,4.15321683883667,-0.00043154507875442505,-0.0012769958702847362,0.00040540468762628734,-0.00018852784705813974,-0.00019575834448914975,-0.0003312837507110089,0.06476355344057083,0.6066039204597473,0.7201287150382996,0.4827217757701874,0.5412830710411072,0.007302373647689819
1749043948.1589184,5.951733112335205,-1.907121320764059,-2.2095839977264404,5.245465504914083,3.199559211730957,4.153229236602783,-0.0004228732723277062,-0.002641614992171526,0.00038088252767920494,-0.00016981807129923254,-0.000188918667845428,-0.00032775747240521014,0.020562894642353058,0.6121724247932434,0.7335694432258606,0.4945754408836365,0.5279585719108582,-0.003768324851989746
1749043948.1589556,5.951659679412842,-1.9071675739684046,-2.2095565795898438,5.24545710065917,3.199552059173584,4.15321683883667,-0.0003995812148787081,-0.002978518372401595,0.00040691514732316136,-0.00016166090790648013,-0.00017200229922309518,-0.00035680748987942934,0.03120393678545952,0.6069453358650208,0.7148754000663757,0.5000666975975037,0.5459883213043213,-0.0017626285552978516
1749043948.1589925,5.951687335968018,-1.9071523151793421,-2.209568500518799,5.245450126915731,3.199547290802002,4.1531877517700195,-0.0002876544604077935,-0.002545778639614582,0.0003880898002535105,-0.00013027447857894003,-0.00015063992759678513,-0.00040021538734436035,-0.012866868637502193,0.6146208643913269,0.7282827496528625,0.4992583096027374,0.5548500418663025,-0.003051668405532837
1749043948.1590302,5.9516520500183105,-1.9071485004820765,-2.209603786468506,5.245484339981832,3.199547290802002,4.153185844421387,-0.0003475354751572013,-0.002355722477659583,0.0002775402390398085,-0.00012135371071053669,-0.00014309465768747032,-0.000665882311295718,-0.0387088768184185,0.5898833870887756,0.7388569712638855,0.5225644111633301,0.5540716052055359,0.0016055107116699219
1749043948.159146,5.951666831970215,-1.907179971734518,-2.2095792293548584,5.245446669846334,3.19956636428833,4.153202056884766,-0.001556627219542861,-0.002487537916749716,0.00029281480237841606,-9.28257722989656e-05,-0.00013821084576193243,-0.0009179380722343922,-0.02687528356909752,0.6007229685783386,0.7358232736587524,0.5046004056930542,0.563924252986908,0.0063742995262146
1749043948.1605012,5.951702117919922,-1.907156606713766,-2.209564685821533,5.24545710065917,3.1995747089385986,4.153163433074951,-0.0037950840778648853,-0.002432603156194091,0.00034949523978866637,-3.373917570570484e-05,-0.00013399895397014916,-0.0016172309406101704,-0.033297859132289886,0.5788969993591309,0.7434775829315186,0.5035527348518372,0.5605872273445129,-0.010632142424583435
1749043948.202272,5.951634883880615,-1.9071375332274378,-2.2095839977264404,5.245484339981832,3.199540138244629,4.153160095214844,-0.004938257858157158,-0.0028716749511659145,0.0010771354427561164,4.537240238278173e-05,-0.00013011504779569805,-0.0022420354653149843,-0.03858616575598717,0.6149106025695801,0.7486089468002319,0.531382143497467,0.5556455254554749,0.004446208477020264
1749043948.2023175,5.951705455780029,-1.907203813592428,-2.209575653076172,5.245450126915731,3.199618339538574,4.153182029724121,-0.004897029139101505,-0.003445875132456422,0.0013907545944675803,7.950403960421681e-05,-0.00012645612878259271,-0.002700208220630884,-0.035398781299591064,0.5810524821281433,0.7508500218391418,0.5344497561454773,0.5523881316184998,-0.024228036403656006
1749043948.2023582,5.951673984527588,-1.907203813592428,-2.2095913887023926,5.245487916260519,3.1995627880096436,4.15319299697876,-0.00531280180439353,-0.003969788085669279,0.0018901301082223654,9.623207006370649e-05,-0.0001229912304552272,-0.0030159424059093,-0.09045746922492981,0.6199259161949158,0.7369326949119568,0.5476163625717163,0.5548499822616577,-0.02150595188140869
1749043948.2024136,5.951659202575684,-1.9071656666197718,-2.2095720767974854,5.245462047844686,3.1995556354522705,4.15319299697876,-0.005220507737249136,-0.003789918962866068,0.0018276250921189785,0.00011000886297551915,-0.00011972399079240859,-0.003419386688619852,-0.07248498499393463,0.6240698099136353,0.7525404095649719,0.5550454258918762,0.5486804842948914,-0.02628856897354126
1749043948.2024608,5.951603412628174,-1.9071842632689417,-2.209545135498047,5.245480882912435,3.199540138244629,4.153162002563477,-0.009082614444196224,-0.003389333374798298,0.0017352186841890216,0.00013231388584244996,-0.00011662172619253397,-0.0037358226254582405,-0.06500165164470673,0.620037853717804,0.7635318636894226,0.5451865196228027,0.5438664555549622,-0.04036016762256622
1749043948.2025008,5.95162296295166,-1.9072314701476039,-2.2095565795898438,5.245450126915731,3.199571132659912,4.153143405914307,-0.010832928121089935,-0.0031477531883865595,0.0016950510907918215,0.0007264144369401038,-0.00011366905528120697,-0.004154527094215155,-0.06653670966625214,0.6271156072616577,0.7572522759437561,0.5488417744636536,0.551275908946991,-0.03351014852523804
1749043948.2025392,5.951638221740723,-1.90720858196401,-2.2095720767974854,5.245450126915731,3.199547290802002,4.15315055847168,-0.010902002453804016,-0.0027447075117379427,0.0018425148446112871,0.00085664406651631,-0.00011087291204603389,-0.0048853568732738495,-0.08617827296257019,0.6125310659408569,0.7852253913879395,0.5580088496208191,0.5534080862998962,-0.036049991846084595
1749043948.2025778,5.951555252075195,-1.90720858196401,-2.2095296382904053,5.245450126915731,3.199618339538574,4.15315055847168,-0.011738281697034836,-0.0025678309611976147,0.0022470734547823668,0.0008812378509901464,-0.00010820725583471358,-0.005051058251410723,-0.08137482404708862,0.6119097471237183,0.7724142670631409,0.5503469109535217,0.5436246991157532,-0.03373280167579651
1749043948.2026157,5.951597213745117,-1.90720858196401,-2.2095673084259033,5.24549280384139,3.1995866298675537,4.153122901916504,-0.01178185548633337,-0.002370529342442751,0.003026739228516817,0.0009310083696618676,-0.00010566075070528314,-0.005209633149206638,-0.11446480453014374,0.644992470741272,0.7670524716377258,0.5641916394233704,0.5406091809272766,-0.032963573932647705
1749043948.2026541,5.951535224914551,-1.9072205028929652,-2.2095487117767334,5.245453583985128,3.1995627880096436,4.153122901916504,-0.012424305081367493,-0.002085817279294133,0.003160313470289111,0.0010328240459784865,-0.00010324056347599253,-0.006051495671272278,-0.09462067484855652,0.6413775086402893,0.7679979801177979,0.5748905539512634,0.5504719614982605,-0.045618683099746704
1749043948.202695,5.951452732086182,-1.9072205028929652,-2.20955228805542,5.245477425843038,3.199578285217285,4.1531453132629395,-0.014487885870039463,-0.0017464733682572842,0.003535532159730792,0.001029190025292337,-0.00010092556476593018,-0.00709468312561512,-0.13420647382736206,0.6349930167198181,0.775458812713623,0.5826545357704163,0.5265190601348877,-0.052769869565963745
1749043948.2027328,5.951471328735352,-1.907255312005514,-2.20955228805542,5.245480882912435,3.199578285217285,4.153102397918701,-0.015159964561462402,-0.0015215212479233742,0.003761236323043704,0.001034718006849289,-9.870668145595118e-05,-0.008109181188046932,-0.15882891416549683,0.6568979620933533,0.7761256098747253,0.6032821536064148,0.5382605195045471,-0.04606276750564575
1749043948.2027698,5.951474666595459,-1.9072133503355921,-2.209540367126465,5.245477425843038,3.19954252243042,4.153090476989746,-0.01759827882051468,-0.0012408695183694363,0.003933560103178024,0.0011787606636062264,-9.659154602559283e-05,-0.008468273095786572,-0.12006313353776932,0.6463068723678589,0.7905508875846863,0.5820401310920715,0.5288587808609009,-0.050489336252212524
1749043948.2028062,5.951411724090576,-1.9072171650328578,-2.2095248699188232,5.245477425843038,3.1995437145233154,4.153082370758057,-0.01743108034133911,-0.001036561094224453,0.004293900914490223,0.001258104108273983,-9.456215775571764e-05,-0.008998977951705456,-0.1154351755976677,0.6477382183074951,0.7943241000175476,0.5936346054077148,0.5242465734481812,-0.058171987533569336
1749043948.202843,5.951379776000977,-1.9072638950743617,-2.2095248699188232,5.245508181839742,3.199559211730957,4.153047561645508,-0.01731669157743454,-0.0008899710373952985,0.004816101398319006,0.002014086814597249,-9.261166997021064e-05,-0.009404479525983334,-0.13278496265411377,0.6627042293548584,0.8097500205039978,0.5936521291732788,0.5323173403739929,-0.05490463972091675
1749043948.202881,5.9513397216796875,-1.9072357616820277,-2.209512948989868,5.2455047247703455,3.1995866298675537,4.153054714202881,-0.01754509098827839,-0.0007797333528287709,0.00598546676337719,0.00357852247543633,-9.07471840037033e-05,-0.009339327923953533,-0.1264563500881195,0.6544976234436035,0.804487407207489,0.5952761173248291,0.5206738710403442,-0.05001369118690491
1749043948.2029178,5.951265811920166,-1.9072290859618128,-2.209501028060913,5.245485889702596,3.199493646621704,4.1530585289001465,-0.017672806978225708,-0.000693804700858891,0.005731738638132811,0.004616131540387869,-0.00010182259575231001,-0.010289258323609829,-0.157267764210701,0.6504373550415039,0.7974522113800049,0.5961022973060608,0.5123733878135681,-0.07734331488609314
1749043948.202955,5.951228618621826,-1.9072171650328578,-2.2094886302948,5.245513188629904,3.199559211730957,4.153027534484863,-0.018002118915319443,-0.0006249579600989819,0.006146315485239029,0.004373900592327118,-0.0001038010377669707,-0.012033280916512012,-0.15953077375888824,0.6575111150741577,0.8158285617828369,0.6021465063095093,0.5010770559310913,-0.08346392214298248
1749043948.2030013,5.951239585876465,-1.9072171650328578,-2.209473133087158,5.245528566628256,3.1995818614959717,4.153026103973389,-0.01873006671667099,-0.0005685334326699376,0.007318186108022928,0.003590366570279002,-0.00010253009531879798,-0.013042380101978779,-0.17629937827587128,0.6639397144317627,0.8308501243591309,0.6025095582008362,0.4966861605644226,-0.08621689677238464
1749043948.2030458,5.951180934906006,-1.9072324238219203,-2.2094573974609375,5.245544004231252,3.199540138244629,4.152998924255371,-0.019802842289209366,-0.0005214582197368145,0.008219820447266102,0.0031872657127678394,-0.00011040897516068071,-0.01427517831325531,-0.17648442089557648,0.6638709306716919,0.8165135383605957,0.6107332706451416,0.4774055480957031,-0.09294098615646362
1749043948.2031598,5.951157093048096,-1.9072324238219203,-2.209437370300293,5.245537030487814,3.1995127201080322,4.152960300445557,-0.021236175671219826,-0.00048158731078729033,0.008915484882891178,0.003367567900568247,-0.0001198885656776838,-0.014435725286602974,-0.1589178591966629,0.6844580173492432,0.8228726983070374,0.6139596700668335,0.4800921082496643,-0.09233162552118301
1749043948.2044523,5.951113700866699,-1.9072205028929652,-2.2093937397003174,5.245537030487814,3.199547290802002,4.152947425842285,-0.021947050467133522,-0.0004473821318242699,0.009212254546582699,0.003672126680612564,-0.00012740139209199697,-0.015757542103528976,-0.18352806568145752,0.6877954006195068,0.8381621837615967,0.6195305585861206,0.47610944509506226,-0.0859559029340744
1749043948.2462862,5.951056957244873,-1.9072238407530726,-2.2094171047210693,5.245537030487814,3.1995890140533447,4.152907371520996,-0.022287676110863686,-0.00041771199903450906,0.010821165516972542,0.004979379009455442,-0.0001040382485371083,-0.016782233491539955,-0.22972989082336426,0.6866533756256104,0.8141153454780579,0.6249595880508423,0.47247546911239624,-0.09597202390432358
1749043948.2463331,5.9510178565979,-1.9072357616820277,-2.209380865097046,5.245576488762655,3.19956636428833,4.152937889099121,-0.023854123428463936,-0.0003917360445484519,0.011070428416132927,0.006888076663017273,-0.00011500039545353502,-0.016335543245077133,-0.2051975131034851,0.7237982749938965,0.8184618949890137,0.6113505959510803,0.4511316418647766,-0.08437289297580719
1749043948.246374,5.950981140136719,-1.9072052441039027,-2.2093570232391357,5.245557653694906,3.199559211730957,4.152891159057617,-0.024087589234113693,-0.0001440159830963239,0.01128773856908083,0.007520081475377083,-0.0006161332130432129,-0.01591169647872448,-0.23216663300991058,0.6957447528839111,0.8332063555717468,0.5895928740501404,0.4500221014022827,-0.07600231468677521
1749043948.2464132,5.950929164886475,-1.9072171650328578,-2.2093300819396973,5.245615947037496,3.1995162963867188,4.152839660644531,-0.025531884282827377,-0.00011120701674371958,0.011822846718132496,0.008122068829834461,-0.0013610742753371596,-0.01659492217004299,-0.21951396763324738,0.7187477350234985,0.8428518176078796,0.6079248785972595,0.42378950119018555,-0.07490713149309158
1749043948.2464516,5.950900554656982,-1.9071856937804164,-2.2093217372894287,5.245609032898702,3.19950795173645,4.152827739715576,-0.026758451014757156,-0.00010451499838382006,0.011582892388105392,0.008247331716120243,-0.0014776221942156553,-0.016272706910967827,-0.22776231169700623,0.7139989137649536,0.8601141571998596,0.596813976764679,0.44228723645210266,-0.08362974226474762
1749043948.246491,5.950782775878906,-1.90720858196401,-2.2092974185943604,5.245609032898702,3.199535369873047,4.152831077575684,-0.028505723923444748,-9.877692355075851e-05,0.012484759092330933,0.009145784191787243,-0.0015623976942151785,-0.0156474057585001,-0.23487621545791626,0.7094918489456177,0.8374360203742981,0.6020196080207825,0.436292827129364,-0.11220955103635788
1749043948.2465289,5.950788974761963,-1.9072476826109828,-2.2092700004577637,5.245670544892111,3.1995389461517334,4.152775764465332,-0.029520293697714806,-9.363728895550594e-05,0.012580669485032558,0.00932404212653637,-0.001625929377041757,-0.01629508100450039,-0.22813129425048828,0.7240643501281738,0.8530588746070862,0.6097866892814636,0.412697970867157,-0.10618683695793152
1749043948.2465675,5.950725555419922,-1.9072324238219203,-2.2092461585998535,5.245675551682272,3.199535369873047,4.1527485847473145,-0.031389981508255005,-4.9010777729563415e-05,0.012945307418704033,0.00883963517844677,-0.0017339425394311547,-0.0177331380546093,-0.2453942596912384,0.7504439353942871,0.8455039858818054,0.5881565809249878,0.3895277976989746,-0.10591056942939758
1749043948.2466052,5.950677394866943,-1.9072443447508753,-2.209221601486206,5.245665120869436,3.199561834335327,4.152751922607422,-0.03211615979671478,-4.245043601258658e-05,0.013242509216070175,0.00872727669775486,-0.0019774751272052526,-0.01775434985756874,-0.2617749273777008,0.7277501225471497,0.8489128351211548,0.6237316727638245,0.3962414860725403,-0.09993919730186462
1749043948.2466426,5.950571060180664,-1.9072205028929652,-2.209217071533203,5.245720076351919,3.199523448944092,4.152735233306885,-0.03330295905470848,-4.0498372982256114e-05,0.012927541509270668,0.009034563787281513,-0.002748047700151801,-0.01868308149278164,-0.28194931149482727,0.7623231410980225,0.8419214487075806,0.5950736403465271,0.38788148760795593,-0.11415350437164307
1749043948.2466805,5.950565338134766,-1.907201429406637,-2.209170341491699,5.245735752373495,3.1994881629943848,4.152642250061035,-0.03699987754225731,-3.912198735633865e-06,0.013282149098813534,0.008865823037922382,-0.003247068729251623,-0.020264167338609695,-0.27511629462242126,0.7659597396850586,0.851719319820404,0.6008802056312561,0.37626567482948303,-0.1250099539756775
1749043948.2467186,5.950427055358887,-1.9072238407530726,-2.2091429233551025,5.245728719025411,3.199479818344116,4.152648448944092,-0.03840017691254616,-3.8169780225416616e-08,0.012861893512308598,0.00819326750934124,-0.0038236952386796474,-0.02041075937449932,-0.2623094618320465,0.7461869716644287,0.8558380007743835,0.5996567606925964,0.37188729643821716,-0.12381566315889359
1749043948.2467568,5.950383186340332,-1.9072205028929652,-2.209110736846924,5.245744097023763,3.19950270652771,4.152617454528809,-0.03784836456179619,-3.724075214872613e-10,0.013576864264905453,0.008092445321381092,-0.005292548332363367,-0.021756429225206375,-0.2994289994239807,0.7896056175231934,0.8554593920707703,0.6075239777565002,0.36744800209999084,-0.15498019754886627
1749043948.2467952,5.950333595275879,-1.9072205028929652,-2.209099054336548,5.245764481812277,3.199448823928833,4.152628421783447,-0.040087610483169556,-3.6334338315846537e-12,0.0131293386220932,0.008691917173564434,-0.005708786658942699,-0.02347286231815815,-0.3075605630874634,0.7955330610275269,0.8606614470481873,0.6036190390586853,0.363516241312027,-0.14787153899669647
1749043948.246833,5.950226783752441,-1.9072290859618128,-2.209078788757324,5.245776641159811,3.1994717121124268,4.15252161026001,-0.04286766052246094,-3.54499856390373e-14,0.01383933238685131,0.008609458804130554,-0.005647255573421717,-0.024352017790079117,-0.2978912889957428,0.822269082069397,0.8624318242073059,0.6022617816925049,0.3370722830295563,-0.15386205911636353
1749043948.2468715,5.950143814086914,-1.9072133503355921,-2.2090585231781006,5.245803701668539,3.1993887424468994,4.1524977684021,-0.044690508395433426,0.002708584303036332,0.013581025414168835,0.00836426205933094,-0.0053379894234240055,-0.025775115936994553,-0.3292681574821472,0.8000829219818115,0.8853662610054016,0.599700391292572,0.34029796719551086,-0.13329778611660004
1749043948.2469096,5.950040340423584,-1.90720858196401,-2.2089955806732178,5.245815920620718,3.199451446533203,4.152407169342041,-0.047467853873968124,0.0022389283403754234,0.014240127988159657,0.009612979367375374,-0.005259383004158735,-0.02633797936141491,-0.32744741439819336,0.7794773578643799,0.8828359842300415,0.6139847040176392,0.3337714970111847,-0.14195911586284637
1749043948.246948,5.950009346008301,-1.90720858196401,-2.2089755535125732,5.245839702873983,3.1994359493255615,4.152348041534424,-0.046409305185079575,0.0017092885682359338,0.014283820055425167,0.008911315351724625,-0.005849834531545639,-0.027181098237633705,-0.3490203619003296,0.7964402437210083,0.86909019947052,0.6037614345550537,0.31166502833366394,-0.15405264496803284
1749043948.2469926,5.949836730957031,-1.9072052441039027,-2.2089829444885254,5.245851623802938,3.1993494033813477,4.1523308753967285,-0.048412661999464035,0.001380747533403337,0.015251281671226025,0.008187316358089447,-0.008115919306874275,-0.027323508635163307,-0.3809269964694977,0.8110275268554688,0.8789000511169434,0.6134148836135864,0.31717562675476074,-0.16427204012870789
1749043948.2470312,5.949763774871826,-1.907203813592428,-2.2089428901672363,5.245879280358114,3.199399471282959,4.152275562286377,-0.051479097455739975,0.0009573692223057151,0.01524034608155489,0.008012546226382256,-0.008781718090176582,-0.028668668121099472,-0.3406088948249817,0.8319296836853027,0.8811861276626587,0.603381335735321,0.3324950635433197,-0.1593843549489975
1749043948.2472653,5.949660301208496,-1.90720858196401,-2.2089197635650635,5.2458757040794275,3.199375867843628,4.152246952056885,-0.05324780195951462,0.0009364562574774027,0.015530537813901901,0.008784672245383263,-0.009311110712587833,-0.028992773965001106,-0.34480100870132446,0.8494499921798706,0.8844221830368042,0.6127499341964722,0.3115762770175934,-0.16818298399448395
1749043948.2484877,5.949575901031494,-1.90720858196401,-2.2088911533355713,5.245884167938986,3.199394941329956,4.15219783782959,-0.05532323196530342,0.0010240082629024982,0.015637200325727463,0.008868882432579994,-0.009800557047128677,-0.03047006018459797,-0.3657482862472534,0.8521836400032043,0.8930544257164001,0.6265880465507507,0.327552855014801,-0.16922999918460846
1749043948.2902792,5.949444770812988,-1.9072238407530726,-2.2088475227355957,5.245911764889517,3.1993401050567627,4.152099609375,-0.057487837970256805,0.0013422142947092652,0.016758641228079796,0.009458864107728004,-0.010204165242612362,-0.0313999280333519,-0.3520469665527344,0.8370535373687744,0.8940170407295227,0.6209020614624023,0.319949746131897,-0.16842038929462433
1749043948.2903254,5.949336528778076,-1.9071771107115687,-2.2088239192962646,5.245931851654806,3.199308395385742,4.15205192565918,-0.058909252285957336,0.0015060568694025278,0.017150789499282837,0.010517742484807968,-0.009975108318030834,-0.03256005421280861,-0.36893194913864136,0.8593696355819702,0.9022608399391174,0.6042883396148682,0.31887856125831604,-0.1675436794757843
1749043948.2903664,5.949252605438232,-1.9071928463377894,-2.2087881565093994,5.245959448605337,3.199307441711426,4.151983737945557,-0.06141694635152817,0.0020068399608135223,0.017734358087182045,0.01073627732694149,-0.010654855519533157,-0.031657859683036804,-0.34654176235198975,0.8604241609573364,0.8965957760810852,0.5913405418395996,0.28898584842681885,-0.1721128225326538
1749043948.2904167,5.9491286277771,-1.9072157345213832,-2.2087671756744385,5.245952474861898,3.199260950088501,4.151889324188232,-0.06194619461894035,0.0017895781202241778,0.018885189667344093,0.010695187374949455,-0.011196843348443508,-0.03264162316918373,-0.3801065683364868,0.885211706161499,0.8894225358963013,0.6090198755264282,0.30455711483955383,-0.1845138967037201
1749043948.29046,5.948988914489746,-1.9071728191771449,-2.208716630935669,5.245976257115164,3.199275255203247,4.151857376098633,-0.06371717900037766,0.0015921102603897452,0.018613401800394058,0.010881067253649235,-0.01102453377097845,-0.032034214586019516,-0.3719833493232727,0.8561698794364929,0.9128379821777344,0.6184849739074707,0.2849409282207489,-0.18735109269618988
1749043948.2904987,5.948834419250488,-1.90720858196401,-2.2086801528930664,5.246000396996298,3.199204206466675,4.151820182800293,-0.06516649574041367,0.001232719630934298,0.01885097287595272,0.010386585257947445,-0.011126404628157616,-0.03324171528220177,-0.3733726441860199,0.8870290517807007,0.8980557918548584,0.5988116264343262,0.28677821159362793,-0.15829597413539886
1749043948.2905378,5.948714256286621,-1.9071771107115687,-2.2086408138275146,5.246031152993002,3.199251413345337,4.1517486572265625,-0.06606625020503998,0.0013261084677651525,0.019587108865380287,0.009626372717320919,-0.010808290913701057,-0.03444633632898331,-0.3821974992752075,0.9023545980453491,0.9129994511604309,0.6221579313278198,0.27768033742904663,-0.19180744886398315
1749043948.2905767,5.948554992675781,-1.9071694813170375,-2.208627939224243,5.2460588095481775,3.199246883392334,4.151649475097656,-0.06736411899328232,0.0018194057047367096,0.019778452813625336,0.01022407878190279,-0.01061266753822565,-0.035575903952121735,-0.4028483033180237,0.9177021980285645,0.9271933436393738,0.6191141605377197,0.27206096053123474,-0.16684740781784058
1749043948.2906163,5.948427200317383,-1.9071532688536585,-2.208604097366333,5.246091055661001,3.199153184890747,4.1515703201293945,-0.06843055039644241,0.002742387820035219,0.020163489505648613,0.010770154185593128,-0.011464237235486507,-0.03731657564640045,-0.40000033378601074,0.911080539226532,0.9164314270019531,0.6045719385147095,0.2724383473396301,-0.1637086719274521
1749043948.2906547,5.948310375213623,-1.9072157345213832,-2.208544969558716,5.246118294983663,3.199155807495117,4.151517868041992,-0.07287215441465378,0.0031835411209613085,0.020933670923113823,0.010326143354177475,-0.011937668547034264,-0.037462878972291946,-0.40830332040786743,0.8892975449562073,0.9241945743560791,0.6229393482208252,0.2614225447177887,-0.17615117132663727
1749043948.2906954,5.948139190673828,-1.9072071514525355,-2.2085325717926025,5.246126758843221,3.1991357803344727,4.151418209075928,-0.07260065525770187,0.004212340340018272,0.0209548007696867,0.010281378403306007,-0.012133058160543442,-0.0373539961874485,-0.35152319073677063,0.9106733798980713,0.9398080110549927,0.609681248664856,0.27437376976013184,-0.17589105665683746
1749043948.2907336,5.94796895980835,-1.9071837864317835,-2.208477258682251,5.246169793396749,3.199103832244873,4.151305198669434,-0.0735173150897026,0.003975312691181898,0.021571438759565353,0.01043157372623682,-0.012037430889904499,-0.03817903250455856,-0.40375402569770813,0.9036248326301575,0.9338092803955078,0.6065382957458496,0.27970877289772034,-0.17071612179279327
1749043948.2907705,5.947835922241211,-1.907144685784811,-2.208433151245117,5.246159302979269,3.199087619781494,4.151294231414795,-0.07805833965539932,0.00326397642493248,0.02233852818608284,0.010594755411148071,-0.01144926343113184,-0.037761490792036057,-0.3522898256778717,0.9157115817070007,0.9219345450401306,0.6089245080947876,0.27671557664871216,-0.18632155656814575
1749043948.2908077,5.947673320770264,-1.907144685784811,-2.208381414413452,5.246168005257406,3.1990485191345215,4.151211738586426,-0.0739767923951149,0.003126781200990081,0.02319493144750595,0.010374324396252632,-0.012731573544442654,-0.037710316479206085,-0.4077257513999939,0.9166263937950134,0.9406699538230896,0.6014959812164307,0.27745044231414795,-0.19145500659942627
1749043948.2908452,5.947556495666504,-1.9071485004820765,-2.2083263397216797,5.246179926186361,3.1990277767181396,4.1511077880859375,-0.07898348569869995,0.0034434341359883547,0.024065664038062096,0.009652087464928627,-0.01145703624933958,-0.039106953889131546,-0.4053241014480591,0.9300800561904907,0.936506450176239,0.5948705673217773,0.2762158513069153,-0.17520950734615326
1749043948.290882,5.947350025177002,-1.9071532688536585,-2.208313226699829,5.246207225113668,3.199023962020874,4.151079177856445,-0.0801946148276329,0.0037907406222075224,0.024760836735367775,0.009566663764417171,-0.010056933388113976,-0.039483558386564255,-0.38701093196868896,0.927052915096283,0.9329385757446289,0.6283870935440063,0.24161297082901,-0.17168797552585602
1749043948.2909186,5.947213172912598,-1.9071437321104945,-2.208250045776367,5.24624644496993,3.199019432067871,4.150960922241211,-0.08043830096721649,0.004111765418201685,0.025251148268580437,0.009779466316103935,-0.010347886942327023,-0.040156517177820206,-0.4087793231010437,0.9175630211830139,0.925068199634552,0.6104563474655151,0.257826566696167,-0.17842696607112885
1749043948.2909558,5.947053909301758,-1.9071246586241664,-2.2082018852233887,5.2462549088294885,3.1989920139312744,4.1508965492248535,-0.08215653896331787,0.004818828776478767,0.02500336244702339,0.010420385748147964,-0.010454416275024414,-0.04097200185060501,-0.44094333052635193,0.9234739542007446,0.9633495211601257,0.6253913640975952,0.25703179836273193,-0.1689988523721695
1749043948.290993,5.946913719177246,-1.9071208439269007,-2.2081387042999268,5.24630485752181,3.198948383331299,4.150839805603027,-0.08466728031635284,0.0057480973191559315,0.02651085890829563,0.011141872964799404,-0.010966305620968342,-0.04137510061264038,-0.4326179325580597,0.9212327003479004,0.9286361336708069,0.6407873630523682,0.24443715810775757,-0.20263564586639404
1749043948.2910302,5.946683883666992,-1.9070970020689906,-2.208094835281372,5.246306288033285,3.1989872455596924,4.150698184967041,-0.08661779016256332,0.005152788013219833,0.027034549042582512,0.01150899101048708,-0.011930425651371479,-0.04166506603360176,-0.41811397671699524,0.9348587989807129,0.9284883737564087,0.6043089628219604,0.24431464076042175,-0.19707287847995758
1749043948.2911487,5.946561336517334,-1.9070970020689906,-2.2080626487731934,5.246333944588461,3.1988890171051025,4.150653839111328,-0.08781185001134872,0.0045750560238957405,0.027174703776836395,0.011587752029299736,-0.013008437119424343,-0.04281799867749214,-0.4320436120033264,0.9419453740119934,0.9444747567176819,0.6280634999275208,0.25561127066612244,-0.18345236778259277
1749043948.2924714,5.94638729095459,-1.9070850811400355,-2.207987070083618,5.246342289238729,3.198904514312744,4.150592803955078,-0.08985847234725952,0.0045512160286307335,0.027964062988758087,0.012083848007023335,-0.013080287724733353,-0.04378140717744827,-0.4369106888771057,0.9744209051132202,0.9493880271911621,0.5985244512557983,0.2590358555316925,-0.18055588006973267
1749043948.3342915,5.946145057678223,-1.9070855579771937,-2.207930564880371,5.2463815090949915,3.1988961696624756,4.150455474853516,-0.08926550298929214,0.00478712422773242,0.028708063066005707,0.01216018758714199,-0.012289180420339108,-0.04493727162480354,-0.4189222753047943,0.9340345859527588,0.9380912184715271,0.6044871807098389,0.22378209233283997,-0.17477275431156158
1749043948.3343403,5.946012020111084,-1.907053609887594,-2.2078707218170166,5.246414053231039,3.1988561153411865,4.150406360626221,-0.09103461354970932,0.0044747935608029366,0.028798632323741913,0.013141964562237263,-0.012376154772937298,-0.04586684703826904,-0.4531557857990265,0.9763169288635254,0.9350586533546448,0.606066107749939,0.24690786004066467,-0.17955952882766724
1749043948.3343859,5.9457855224609375,-1.9070998630919398,-2.2077884674072266,5.246441352158346,3.1988251209259033,4.150295257568359,-0.09588612616062164,0.00518455496057868,0.028966134414076805,0.013439570553600788,-0.012412375770509243,-0.04693730175495148,-0.404175728559494,0.9681457281112671,0.9490564465522766,0.5942388772964478,0.24169233441352844,-0.1758076548576355
1749043948.3344388,5.945606231689453,-1.907055994073385,-2.2077476978302,5.246461975365438,3.198789596557617,4.1501569747924805,-0.0956602394580841,0.005595759022980928,0.031020136550068855,0.013230368494987488,-0.013186226598918438,-0.04710782319307327,-0.46473100781440735,0.9601895809173584,0.9129949808120728,0.5968229174613953,0.22223787009716034,-0.16484434902668
1749043948.334481,5.945428848266602,-1.9070373974242152,-2.2076878547668457,5.246485817223348,3.1987757682800293,4.1500959396362305,-0.09848778694868088,0.005409201607108116,0.03131375089287758,0.013227592222392559,-0.013265931978821754,-0.04695666953921318,-0.4438108205795288,0.9818813800811768,0.9112036824226379,0.5953963398933411,0.21722549200057983,-0.18907272815704346
1749043948.3345199,5.945202350616455,-1.9070054493346156,-2.2076284885406494,5.246498036175527,3.1987640857696533,4.150020122528076,-0.10075072199106216,0.00497038708999753,0.031088916584849358,0.013380265794694424,-0.013092932291328907,-0.0469486303627491,-0.42785245180130005,1.003493309020996,0.9406295418739319,0.5962927937507629,0.23585478961467743,-0.20369458198547363
1749043948.3345623,5.944998264312744,-1.9070216617979945,-2.20756459236145,5.246549176960745,3.198774814605713,4.1499128341674805,-0.1017778068780899,0.004675363190472126,0.030252370983362198,0.013000991195440292,-0.013419002294540405,-0.04780799522995949,-0.41043516993522644,0.990658164024353,0.9462070465087891,0.5943793654441833,0.2172987461090088,-0.2011699378490448
1749043948.3346012,5.944763660430908,-1.907018323937887,-2.2074930667877197,5.246585178166189,3.19868540763855,4.149789810180664,-0.10274618864059448,0.004358045291155577,0.031146273016929626,0.012902991846203804,-0.01413299422711134,-0.05030040070414543,-0.44004175066947937,1.0155948400497437,0.9542185068130493,0.6125136017799377,0.21929186582565308,-0.19562339782714844
1749043948.3346393,5.944555282592773,-1.9070164165892542,-2.2074453830718994,5.2465624687965295,3.1986889839172363,4.149656295776367,-0.10450398176908493,0.005321306176483631,0.03347122669219971,0.012857041321694851,-0.014361034147441387,-0.05056065693497658,-0.4180256724357605,0.9944453239440918,0.9421858191490173,0.5971047282218933,0.22526812553405762,-0.18065381050109863
1749043948.3346806,5.944382667541504,-1.9070326290526332,-2.2073888778686523,5.246586668282308,3.1986443996429443,4.149571418762207,-0.1049031987786293,0.005902014672756195,0.033948469907045364,0.013444539159536362,-0.014122429303824902,-0.05144822597503662,-0.4185543656349182,1.0182156562805176,0.9454936981201172,0.6171923279762268,0.23513160645961761,-0.18512216210365295
1749043948.334719,5.94415283203125,-1.906992574731344,-2.2073287963867188,5.24662612655715,3.1986515522003174,4.149487495422363,-0.10945460200309753,0.006095230113714933,0.034943148493766785,0.014539035968482494,-0.014708091504871845,-0.052315376698970795,-0.4514499306678772,1.0125970840454102,0.9214525818824768,0.6032272577285767,0.2033834457397461,-0.17533962428569794
1749043948.3347638,5.943963527679443,-1.9070202312865199,-2.20725417137146,5.246684241085806,3.198596715927124,4.149414539337158,-0.10913852602243423,0.005948510020971298,0.0349375419318676,0.014661458320915699,-0.01584712043404579,-0.05329504981637001,-0.4251140058040619,1.0133280754089355,0.9236345887184143,0.6061270236968994,0.2303289771080017,-0.18056926131248474
1749043948.3348088,5.943700790405273,-1.9069720707335414,-2.2071785926818848,5.246685731201925,3.19856858253479,4.149265766143799,-0.11490094661712646,0.005927039310336113,0.03358153626322746,0.014960958622395992,-0.01576368138194084,-0.05381108447909355,-0.40091294050216675,1.0265952348709106,0.9524997472763062,0.6157410144805908,0.21479088068008423,-0.1919160932302475
1749043948.3348472,5.943532466888428,-1.906968732873434,-2.2071220874786377,5.246725249081411,3.1985132694244385,4.149211406707764,-0.11262258887290955,0.0054938155226409435,0.034159790724515915,0.014276230707764626,-0.016470294445753098,-0.05385503172874451,-0.4733979105949402,1.0393009185791016,0.9593470692634583,0.6296212673187256,0.2194337546825409,-0.19560226798057556
1749043948.3348854,5.943261623382568,-1.9069496593871058,-2.2070505619049072,5.2467524884040735,3.1985278129577637,4.149076461791992,-0.11565886437892914,0.005960927344858646,0.036800749599933624,0.016104452311992645,-0.017265411093831062,-0.05473962053656578,-0.4195396304130554,1.0400726795196533,0.946827232837677,0.608391284942627,0.21493075788021088,-0.206525057554245
1749043948.3349345,5.943065166473389,-1.9069606266417445,-2.2069437503814697,5.246800470143118,3.198429584503174,4.14894962310791,-0.11706037074327469,0.006421294994652271,0.03811616078019142,0.01723049394786358,-0.017579395323991776,-0.057746656239032745,-0.4439865052700043,1.0485985279083252,0.9399361610412598,0.6208669543266296,0.21316391229629517,-0.17878493666648865
1749043948.3349745,5.942788124084473,-1.9069324932494105,-2.2069225311279297,5.246829259186544,3.19844388961792,4.148838520050049,-0.1193482056260109,0.006029809825122356,0.03794533759355545,0.01751622185111046,-0.016644161194562912,-0.05865120515227318,-0.4652751088142395,1.0509419441223145,0.936801552772522,0.6133252382278442,0.20702284574508667,-0.18073877692222595
1749043948.3350127,5.9425787925720215,-1.9069086513915003,-2.2068235874176025,5.2468533394630334,3.1984474658966064,4.1487298011779785,-0.12091194093227386,0.006219177972525358,0.0379524789750576,0.0175283495336771,-0.01727832481265068,-0.05977668985724449,-0.43540817499160767,1.0604735612869263,0.9360543489456177,0.5974447131156921,0.21156249940395355,-0.1798449456691742
1749043948.3350496,5.9423508644104,-1.9069210491576136,-2.2067670822143555,5.246896075993337,3.1983718872070312,4.148556709289551,-0.11900033056735992,0.006717047654092312,0.038411784917116165,0.017010455951094627,-0.018247252330183983,-0.06101573258638382,-0.4865734875202179,1.0806258916854858,0.9508115649223328,0.6120942234992981,0.2344595491886139,-0.16917258501052856
1749043948.3350866,5.942060947418213,-1.9069086513915003,-2.2066526412963867,5.246925103455343,3.1983325481414795,4.14845609664917,-0.12543253600597382,0.0067253755405545235,0.039512116461992264,0.017036404460668564,-0.017480075359344482,-0.06037867069244385,-0.45751628279685974,1.0870152711868286,0.9428901672363281,0.6153596043586731,0.20802271366119385,-0.18387371301651
1749043948.3351946,5.941867351531982,-1.906865736047262,-2.2065961360931396,5.24697624424056,3.1982808113098145,4.148355960845947,-0.1234295517206192,0.007187058217823505,0.040607571601867676,0.017786122858524323,-0.017357943579554558,-0.060438014566898346,-0.5113935470581055,1.068471074104309,0.914893627166748,0.6016333103179932,0.20524084568023682,-0.19810205698013306
1749043948.3364794,5.941592693328857,-1.9068690739073695,-2.206496477127075,5.246996867447653,3.1982688903808594,4.148200988769531,-0.12646271288394928,0.006774008274078369,0.04074129834771156,0.01849747635424137,-0.018598293885588646,-0.0607234463095665,-0.5091283321380615,1.0775004625320435,0.9501577615737915,0.6189744472503662,0.198521688580513,-0.19531364738941193
1749043948.3823123,5.9413886070251465,-1.9068643055357875,-2.206397533416748,5.2470294115837,3.1982204914093018,4.148074150085449,-0.13106697797775269,0.006751629989594221,0.04160764068365097,0.0189861748367548,-0.017355386167764664,-0.061306294053792953,-0.4781798720359802,1.0884350538253784,0.9382920861244202,0.6178942322731018,0.20824727416038513,-0.19538329541683197
1749043948.3823588,5.9410624504089355,-1.9068800411620082,-2.206345319747925,5.24709968545989,3.1982240676879883,4.147969722747803,-0.13360925018787384,0.007008170243352652,0.04136398062109947,0.019667204469442368,-0.017225874587893486,-0.06127703934907913,-0.46129685640335083,1.0885932445526123,0.9259639978408813,0.5959625840187073,0.1919262409210205,-0.1874273419380188
1749043948.3824143,5.940791130065918,-1.906849046746725,-2.2062463760375977,5.2471355078514,3.1981611251831055,4.147866249084473,-0.13550296425819397,0.007157943211495876,0.0416986308991909,0.020133748650550842,-0.018479924649000168,-0.06176554784178734,-0.44668513536453247,1.0988785028457642,0.9343615174293518,0.6064587235450745,0.1935526728630066,-0.19598419964313507
1749043948.382458,5.940557956695557,-1.9068099460997523,-2.2061498165130615,5.247198807984152,3.1981284618377686,4.147730827331543,-0.13793770968914032,0.007708301767706871,0.041625116020441055,0.019668564200401306,-0.018812546506524086,-0.06380853801965714,-0.42595261335372925,1.1102473735809326,0.9477734565734863,0.6121216416358948,0.1967441290616989,-0.21063221991062164
1749043948.3824975,5.94025993347168,-1.9068132839598597,-2.20607852935791,5.247231292515554,3.198127269744873,4.147572040557861,-0.14006160199642181,0.0074404580518603325,0.04192095622420311,0.01967564970254898,-0.018859393894672394,-0.06400787830352783,-0.4350530207157135,1.1090861558914185,0.9383963942527771,0.5947182178497314,0.18717119097709656,-0.2057497501373291
1749043948.3825362,5.9399800300598145,-1.9067737064757289,-2.2059831619262695,5.247232842236318,3.1980533599853516,4.147456169128418,-0.14407004415988922,0.0075426241382956505,0.04266323894262314,0.019041836261749268,-0.01973799616098404,-0.06489846110343933,-0.4277828335762024,1.1178284883499146,0.9526615738868713,0.5933203101158142,0.20232631266117096,-0.20024555921554565
1749043948.3825746,5.9396772384643555,-1.906804700891012,-2.20589542388916,5.247287380486288,3.1980361938476562,4.147302150726318,-0.14056265354156494,0.007983710616827011,0.04256228730082512,0.0191050972789526,-0.0194398183375597,-0.06578846275806427,-0.4643329381942749,1.112287998199463,0.9661958813667297,0.6117661595344543,0.18702617287635803,-0.2113111913204193
1749043948.382613,5.939437389373779,-1.9067737064757289,-2.205803871154785,5.247342335968771,3.197984218597412,4.147205829620361,-0.14110395312309265,0.008531543426215649,0.04471033066511154,0.018966376781463623,-0.01957550458610058,-0.06689132004976273,-0.4707419276237488,1.1329336166381836,0.9463512301445007,0.606781542301178,0.18395034968852997,-0.21000000834465027
1749043948.3826544,5.939126491546631,-1.906788011590475,-2.2057511806488037,5.247371303826132,3.1979517936706543,4.1470465660095215,-0.1452464461326599,0.008722732774913311,0.04432093724608421,0.018549850210547447,-0.020303405821323395,-0.06746773421764374,-0.48314815759658813,1.12678861618042,0.9467061758041382,0.6224208474159241,0.17340441048145294,-0.20055347681045532
1749043948.382693,5.938835620880127,-1.9067408047118128,-2.2056522369384766,5.247407066612997,3.1979005336761475,4.146918296813965,-0.1481418013572693,0.008449980989098549,0.041816458106040955,0.018864735960960388,-0.019836366176605225,-0.06896357983350754,-0.4688531458377838,1.101119041442871,1.0113389492034912,0.6232828497886658,0.1761370152235031,-0.21556346118450165
1749043948.3827305,5.938516139984131,-1.9066935978331507,-2.2055716514587402,5.247439610749044,3.1978695392608643,4.146786689758301,-0.151300311088562,0.00905377697199583,0.04420774430036545,0.019052308052778244,-0.02017538622021675,-0.06983061134815216,-0.4644550681114197,1.1164933443069458,0.9802267551422119,0.6273016929626465,0.16076385974884033,-0.21431240439414978
1749043948.3827682,5.938240051269531,-1.9067431888976039,-2.2054572105407715,5.247491049557485,3.1978750228881836,4.146616458892822,-0.15026547014713287,0.008871028199791908,0.04472677409648895,0.019160255789756775,-0.021710200235247612,-0.07121286541223526,-0.46948182582855225,1.1417874097824097,0.9771701097488403,0.6263919472694397,0.161536306142807,-0.22590121626853943
1749043948.3828058,5.9379167556762695,-1.9066654644408167,-2.2053732872009277,5.247549164086141,3.1978237628936768,4.146484851837158,-0.15281572937965393,0.008797797374427319,0.047410719096660614,0.01926305703818798,-0.02189193107187748,-0.07283365726470947,-0.45223844051361084,1.1377010345458984,0.9698633551597595,0.6264309287071228,0.1606239527463913,-0.20456567406654358
1749043948.3828435,5.937633037567139,-1.906649728814596,-2.205277442932129,5.247559058457174,3.19775652885437,4.146329402923584,-0.1571664959192276,0.008298996835947037,0.04632999747991562,0.019986575469374657,-0.022617658600211143,-0.07375537604093552,-0.4474271535873413,1.1340012550354004,0.9749164581298828,0.6329213976860046,0.16809561848640442,-0.20760008692741394
1749043948.3828819,5.937329292297363,-1.9066530666747035,-2.205170154571533,5.2476104376609705,3.197693347930908,4.1461944580078125,-0.15396320819854736,0.008281281217932701,0.044985901564359665,0.020973391830921173,-0.022854596376419067,-0.0750294029712677,-0.4999285340309143,1.1478147506713867,1.0108131170272827,0.6321863532066345,0.16018830239772797,-0.21097950637340546
1749043948.3829193,5.937013626098633,-1.9066416225829066,-2.205070734024048,5.24764649847106,3.197629690170288,4.146023750305176,-0.15751367807388306,0.008888482116162777,0.046812448650598526,0.021550612524151802,-0.022367727011442184,-0.07590737193822861,-0.4819541871547699,1.1546800136566162,1.0044862031936646,0.6337034106254578,0.15759243071079254,-0.2191089540719986
1749043948.3829567,5.936749458312988,-1.9066482983031214,-2.20497465133667,5.24772863367156,3.1976284980773926,4.145883560180664,-0.1586911827325821,0.00848388858139515,0.048093799501657486,0.02236243523657322,-0.022971218451857567,-0.07837490737438202,-0.5000927448272705,1.1804072856903076,0.9980183839797974,0.6200549602508545,0.15349984169006348,-0.2193090319633484
1749043948.3829947,5.936328411102295,-1.9066211185851039,-2.2048985958099365,5.247745561390676,3.197553873062134,4.1457438468933105,-0.1614864021539688,0.008730820380151272,0.04826147109270096,0.02211644873023033,-0.02271723747253418,-0.08037722855806351,-0.5073762536048889,1.1857242584228516,1.007053017616272,0.620657742023468,0.15687215328216553,-0.21258150041103363
1749043948.3830318,5.936001300811768,-1.9066320858397425,-2.2047715187072754,5.247812616616049,3.197521924972534,4.145580291748047,-0.1637558490037918,0.009533818811178207,0.048704374581575394,0.02228027954697609,-0.0233975350856781,-0.07987061887979507,-0.504935622215271,1.1650084257125854,1.000053882598877,0.640275239944458,0.14556163549423218,-0.21437712013721466
1749043948.3830693,5.935685634613037,-1.9065610371031703,-2.204691171646118,5.247841107636251,3.197477340698242,4.1454057693481445,-0.1668008267879486,0.008960929699242115,0.048582613468170166,0.022287851199507713,-0.023611005395650864,-0.08042533695697784,-0.44160550832748413,1.1707004308700562,1.0204237699508667,0.6257227063179016,0.15187250077724457,-0.22592243552207947
1749043948.3831067,5.935349941253662,-1.9065491161742152,-2.204587697982788,5.247901308327474,3.1974129676818848,4.145289897918701,-0.1699039191007614,0.008614039979875088,0.050286915153265,0.02226642519235611,-0.023454010486602783,-0.08134905248880386,-0.46529000997543335,1.1743725538253784,1.0084524154663086,0.6282947063446045,0.14330993592739105,-0.2226751446723938
1749043948.3831437,5.934998989105225,-1.906530042687887,-2.204495668411255,5.247940766602316,3.197381019592285,4.145102024078369,-0.1696394979953766,0.010091401636600494,0.05036619305610657,0.022688372060656548,-0.024013826623558998,-0.08449970185756683,-0.4939766824245453,1.1682658195495605,1.0179442167282104,0.6316007971763611,0.15019746124744415,-0.22010284662246704
1749043948.3832567,5.934640407562256,-1.906501909295553,-2.204357147216797,5.2479848740394495,3.1973369121551514,4.144900321960449,-0.1722635179758072,0.0091345040127635,0.050993867218494415,0.02349811978638172,-0.02319115214049816,-0.08788581937551498,-0.44654136896133423,1.2051221132278442,1.0269315242767334,0.6462066769599915,0.13484039902687073,-0.19049587845802307
1749043948.384491,5.934320449829102,-1.906485219995016,-2.204273223876953,5.248032855778494,3.197331666946411,4.1447319984436035,-0.17275626957416534,0.008996233344078064,0.05114550516009331,0.02293177880346775,-0.023064790293574333,-0.0843053013086319,-0.4872857332229614,1.1978782415390015,1.040327548980713,0.6480368375778198,0.12701863050460815,-0.1963835209608078
1749043948.42629,5.933958053588867,-1.9065128765501917,-2.2041778564453125,5.24809621551589,3.197249412536621,4.144560813903809,-0.17551633715629578,0.009609389118850231,0.05267594754695892,0.02442970871925354,-0.023566484451293945,-0.08494529873132706,-0.4829659163951874,1.1937693357467651,1.0238648653030396,0.6271302700042725,0.1133606806397438,-0.223688006401062
1749043948.426336,5.933634281158447,-1.9064771137633265,-2.204057455062866,5.248140263348379,3.1971664428710938,4.144393444061279,-0.17510858178138733,0.010592957958579063,0.05316934362053871,0.024457629770040512,-0.024010328575968742,-0.08572413772344589,-0.5214539170265198,1.1887400150299072,1.02450692653656,0.6602143049240112,0.11660981923341751,-0.19790855050086975
1749043948.426382,5.9332780838012695,-1.9064651928343714,-2.203946590423584,5.248157489090719,3.197133779525757,4.1442179679870605,-0.17747779190540314,0.009943109005689621,0.05395117774605751,0.024849174544215202,-0.025809701532125473,-0.08714931458234787,-0.47502315044403076,1.190173625946045,1.0510780811309814,0.6387861967086792,0.12212792783975601,-0.20620615780353546
1749043948.426429,5.932903289794922,-1.9064175091185511,-2.2038426399230957,5.2482207892234705,3.1971089839935303,4.1440348625183105,-0.18002282083034515,0.010041244328022003,0.05444011092185974,0.024326182901859283,-0.025796521455049515,-0.08596182614564896,-0.4389112591743469,1.2136437892913818,1.0361090898513794,0.6392313838005066,0.12018420547246933,-0.20069974660873413
1749043948.4264677,5.93253231048584,-1.906428953210348,-2.2037353515625,5.2483030436332605,3.197080373764038,4.143864631652832,-0.1816687285900116,0.01056196354329586,0.0560089536011219,0.024852072820067406,-0.027027230709791183,-0.0867556557059288,-0.4514329433441162,1.1921477317810059,1.0112985372543335,0.6562921404838562,0.14817826449871063,-0.20792114734649658
1749043948.4265063,5.93218469619751,-1.906400819818014,-2.2036304473876953,5.248319911747732,3.196990489959717,4.14365816116333,-0.18291863799095154,0.01007474772632122,0.05592239648103714,0.02540193684399128,-0.026449818164110184,-0.08649825304746628,-0.47481998801231384,1.2089569568634033,1.0385860204696655,0.6608737707138062,0.11442036926746368,-0.21828272938728333
1749043948.426545,5.93182897567749,-1.9063502750792445,-2.203507661819458,5.248383152275839,3.196930170059204,4.143502235412598,-0.18300318717956543,0.01065752748399973,0.058612022548913956,0.025991633534431458,-0.027706831693649292,-0.08904200047254562,-0.473748117685318,1.2130792140960693,1.0277036428451538,0.6515457034111023,0.12226784229278564,-0.2074790596961975
1749043948.4265833,5.931469440460205,-1.9063488445677699,-2.2033615112304688,5.248423921852865,3.196916341781616,4.143319606781006,-0.18499159812927246,0.010788926854729652,0.05992741510272026,0.025922812521457672,-0.027427857741713524,-0.09022575616836548,-0.47564736008644104,1.2130942344665527,0.9840779900550842,0.659259021282196,0.12419523298740387,-0.1956077367067337
1749043948.426622,5.931056022644043,-1.9063025913634242,-2.2032527923583984,5.24848752000884,3.1968257427215576,4.143127918243408,-0.1889677494764328,0.010108019225299358,0.05790862441062927,0.025728922337293625,-0.0280924029648304,-0.08912913501262665,-0.43962639570236206,1.2092642784118652,1.0216773748397827,0.6644569039344788,0.1463995724916458,-0.21267415583133698
1749043948.4266598,5.930672645568848,-1.906321188012594,-2.2031490802764893,5.248531925469198,3.1968090534210205,4.142995357513428,-0.1887768656015396,0.010252497158944607,0.058844227343797684,0.026986826211214066,-0.02764834091067314,-0.0885213166475296,-0.5008966326713562,1.219831943511963,1.027987003326416,0.6450071930885315,0.13885444402694702,-0.20083945989608765
1749043948.4266973,5.930293560028076,-1.9063097439207972,-2.2030177116394043,5.248629617481985,3.1967334747314453,4.142776966094971,-0.19259122014045715,0.010373746044933796,0.06268835812807083,0.02710365317761898,-0.02864616923034191,-0.08921393752098083,-0.4705152213573456,1.2082393169403076,0.9978564977645874,0.6505414247512817,0.12031546980142593,-0.24035757780075073
1749043948.426735,5.929889678955078,-1.9062854252257289,-2.202878713607788,5.248654830246725,3.1967122554779053,4.1426167488098145,-0.1953083872795105,0.010907755233347416,0.06048278138041496,0.02696298621594906,-0.02884064055979252,-0.09439684450626373,-0.48302334547042847,1.2219586372375488,0.9888870120048523,0.6839072704315186,0.13804441690444946,-0.20090146362781525
1749043948.4267766,5.929521560668945,-1.9062334499754847,-2.2027549743652344,5.248730110913076,3.1965975761413574,4.142399787902832,-0.1952809989452362,0.010442341677844524,0.05991116911172867,0.027949804440140724,-0.02932109497487545,-0.0946449264883995,-0.47036024928092957,1.2271045446395874,1.0374844074249268,0.6506726145744324,0.14262859523296356,-0.19699902832508087
1749043948.4268155,5.929161548614502,-1.9062372646727503,-2.202608108520508,5.248793470650472,3.196608543395996,4.142242908477783,-0.19493265450000763,0.010272525250911713,0.061633676290512085,0.028739754110574722,-0.028859818354249,-0.09345998615026474,-0.45314449071884155,1.2381089925765991,1.0184216499328613,0.6537838578224182,0.11515667289495468,-0.22600317001342773
1749043948.4268534,5.92873477935791,-1.9061905346312464,-2.2024807929992676,5.248850095063009,3.196474313735962,4.142032623291016,-0.19541345536708832,0.010417032055556774,0.06191515177488327,0.029028134420514107,-0.028576189652085304,-0.09665057063102722,-0.4828571379184723,1.2377370595932007,1.0098711252212524,0.6735081076622009,0.1298706978559494,-0.22354988753795624
1749043948.4268916,5.928340435028076,-1.906170507470602,-2.2023653984069824,5.248897778778829,3.196465015411377,4.141800403594971,-0.1973353624343872,0.01104201190173626,0.062382061034440994,0.029329977929592133,-0.02747250162065029,-0.09855402261018753,-0.5180810689926147,1.23964262008667,0.9902892708778381,0.6545982956886292,0.1453702300786972,-0.23909859359264374
1749043948.4269288,5.927941799163818,-1.9061857662596644,-2.202279806137085,5.248938667565145,3.1963703632354736,4.141607761383057,-0.20121289789676666,0.011231840588152409,0.06195612996816635,0.029061289504170418,-0.027883775532245636,-0.1005437970161438,-0.48142826557159424,1.243270993232727,0.9946095943450928,0.6414026618003845,0.1205533891916275,-0.2116706818342209
1749043948.4269657,5.9275383949279785,-1.9061256847777308,-2.2021257877349854,5.249001729279318,3.196362018585205,4.1414079666137695,-0.20271000266075134,0.012456433847546577,0.06275522708892822,0.02946454845368862,-0.027837270870804787,-0.10269662737846375,-0.4800984263420105,1.2322559356689453,1.015538215637207,0.6653842329978943,0.11638456583023071,-0.19604763388633728
1749043948.4270031,5.927180767059326,-1.9061452351012171,-2.2019972801208496,5.24904619434432,3.196312189102173,4.1412200927734375,-0.20569996535778046,0.011415084823966026,0.06370403617620468,0.029411697760224342,-0.027865394949913025,-0.10290630906820297,-0.4496825933456421,1.237847924232483,1.013471245765686,0.6477111577987671,0.1259068250656128,-0.18576309084892273
1749043948.4270403,5.926727771759033,-1.9061528644957484,-2.201878070831299,5.249137151032247,3.19619083404541,4.141005039215088,-0.20559871196746826,0.011266248300671577,0.06466914713382721,0.02996200881898403,-0.027841152623295784,-0.10359089076519012,-0.47883450984954834,1.2535126209259033,0.9853148460388184,0.6606901288032532,0.10536403208971024,-0.1839655637741089
1749043948.4271467,5.926304340362549,-1.9060622654356898,-2.2017593383789062,5.249181258469381,3.1961936950683594,4.140774726867676,-0.20709095895290375,0.011745725758373737,0.06401405483484268,0.030313577502965927,-0.028348781168460846,-0.1015513464808464,-0.49727946519851685,1.2295093536376953,0.9996422529220581,0.6629927754402161,0.10809476673603058,-0.18526585400104523
1749043948.4284852,5.925838470458984,-1.906076570550436,-2.2016425132751465,5.2492533204849146,3.196106195449829,4.140571594238281,-0.209549218416214,0.010995711199939251,0.06729158014059067,0.03110688552260399,-0.028966804966330528,-0.10046178102493286,-0.5302498936653137,1.2545764446258545,0.9839469194412231,0.6487624049186707,0.09271280467510223,-0.20321935415267944
1749043948.470287,5.925431728363037,-1.9060336552061976,-2.20149564743042,5.249335217266836,3.1960229873657227,4.14037561416626,-0.21504426002502441,0.01198570430278778,0.06500452011823654,0.0313507542014122,-0.029645098373293877,-0.10042787343263626,-0.4760274291038513,1.2681339979171753,0.9904433488845825,0.6681644916534424,0.09431451559066772,-0.2213657796382904
1749043948.470333,5.925000190734863,-1.9059940777220667,-2.201345205307007,5.249367821007528,3.1959829330444336,4.140166759490967,-0.21341049671173096,0.011941944248974323,0.06583895534276962,0.03153042122721672,-0.03022640384733677,-0.09908398240804672,-0.49446991086006165,1.2298285961151123,1.0074280500411987,0.659633994102478,0.08652915060520172,-0.21482357382774353
1749043948.470376,5.924530506134033,-1.9059316120543421,-2.201263666152954,5.249432909279623,3.195930004119873,4.139948844909668,-0.2161903977394104,0.011273516342043877,0.0689815953373909,0.03166003152728081,-0.03235732018947601,-0.09916490316390991,-0.4910772442817688,1.2216914892196655,0.9825696349143982,0.6509730219841003,0.10806342214345932,-0.2310676872730255
1749043948.4704266,5.924160480499268,-1.905973573724264,-2.201101064682007,5.249507772713461,3.1958696842193604,4.139741897583008,-0.21751631796360016,0.011055652052164078,0.06745196133852005,0.03171207383275032,-0.03254527971148491,-0.09868985414505005,-0.5010169744491577,1.2482653856277466,0.9884482622146606,0.6620327830314636,0.14022362232208252,-0.22906498610973358
1749043948.47047,5.923701286315918,-1.9059306583800257,-2.2009389400482178,5.249567973404684,3.1958067417144775,4.139532089233398,-0.21892961859703064,0.010473696514964104,0.06770836561918259,0.032333072274923325,-0.032370250672101974,-0.09842085838317871,-0.4727683663368225,1.2367374897003174,0.9961498975753784,0.6529103517532349,0.12040407955646515,-0.24155990779399872
1749043948.4705098,5.9232001304626465,-1.9058977566161097,-2.200798511505127,5.249605166703024,3.195699453353882,4.139312744140625,-0.2169312834739685,0.010872144252061844,0.06901578605175018,0.032569464296102524,-0.0310587827116251,-0.10063569992780685,-0.5025078654289246,1.2490617036819458,0.983130931854248,0.6609434485435486,0.12389523535966873,-0.23292019963264465
1749043948.470548,5.922787666320801,-1.9058977566161097,-2.2007057666778564,5.249699580460348,3.1956658363342285,4.139132976531982,-0.21937280893325806,0.010492275469005108,0.0691600814461708,0.03308205306529999,-0.031183039769530296,-0.09925400465726852,-0.4943659007549286,1.2591421604156494,0.9829707741737366,0.6658215522766113,0.1188918724656105,-0.24462038278579712
1749043948.4705863,5.922389507293701,-1.9058896503844203,-2.20054292678833,5.249771106034078,3.1956419944763184,4.138906955718994,-0.22269292175769806,0.010552402585744858,0.06908127665519714,0.03271111473441124,-0.030719559639692307,-0.1024610847234726,-0.5040212869644165,1.2776285409927368,0.9867171049118042,0.6559602618217468,0.11231716722249985,-0.24346619844436646
1749043948.470624,5.9218430519104,-1.9058739147581996,-2.200364112854004,5.249796616822042,3.1955161094665527,4.1386919021606445,-0.22590063512325287,0.011641943827271461,0.06979524344205856,0.03259463235735893,-0.03130212798714638,-0.10489419102668762,-0.44877615571022034,1.2431689500808716,0.9832543730735779,0.6515432596206665,0.11531474441289902,-0.24857519567012787
1749043948.4706616,5.921421527862549,-1.9058190784850062,-2.2002484798431396,5.249890732556143,3.1955294609069824,4.13848876953125,-0.22506994009017944,0.01140691339969635,0.0708097591996193,0.03205931931734085,-0.03056696616113186,-0.10296080261468887,-0.44424211978912354,1.241074562072754,0.9874481558799744,0.6600383520126343,0.13250139355659485,-0.26469504833221436
1749043948.470699,5.920951843261719,-1.9058248005309046,-2.200117826461792,5.24995897987441,3.1954102516174316,4.138268947601318,-0.22569915652275085,0.010983896441757679,0.07235604524612427,0.033518560230731964,-0.03232133388519287,-0.10667744278907776,-0.464861124753952,1.2426342964172363,0.9610732793807983,0.6457033157348633,0.11720913648605347,-0.26902180910110474
1749043948.4707367,5.920488357543945,-1.9057899914183558,-2.199977159500122,5.250034200936117,3.195343494415283,4.1381001472473145,-0.22753652930259705,0.011283292435109615,0.07308489829301834,0.035306476056575775,-0.03264036402106285,-0.10956626385450363,-0.5670628547668457,1.2497611045837402,0.9721019268035889,0.6572474241256714,0.12333698570728302,-0.2526800036430359
1749043948.470774,5.920079708099365,-1.9057818851866664,-2.1998023986816406,5.250094043999471,3.1952905654907227,4.137904167175293,-0.23233915865421295,0.010739141143858433,0.07399310916662216,0.03497065231204033,-0.032017335295677185,-0.11622454971075058,-0.4433901906013489,1.2582218647003174,0.9561454057693481,0.6575347185134888,0.1164487898349762,-0.23029538989067078
1749043948.470811,5.919546604156494,-1.9057227573790492,-2.1996753215789795,5.250147270947256,3.1952695846557617,4.137639045715332,-0.2329433560371399,0.011092386208474636,0.07375770062208176,0.035640012472867966,-0.032725293189287186,-0.11359480768442154,-0.4662064015865326,1.263885259628296,0.9559543132781982,0.6298120021820068,0.12287493050098419,-0.23666472733020782
1749043948.470848,5.919114112854004,-1.9056955776610316,-2.199524402618408,5.2502068159873865,3.1951425075531006,4.137412071228027,-0.23408916592597961,0.011355111375451088,0.07375459372997284,0.03442052751779556,-0.03313721343874931,-0.11571075022220612,-0.45641791820526123,1.2469512224197388,0.9690468311309814,0.6687121987342834,0.1256149858236313,-0.24820813536643982
1749043948.470885,5.918638229370117,-1.9056598148741664,-2.199387311935425,5.25029073932723,3.1951022148132324,4.137165546417236,-0.23316647112369537,0.010737404227256775,0.07218287140130997,0.03280281648039818,-0.03515667840838432,-0.11830885708332062,-0.46064597368240356,1.2773796319961548,0.966088056564331,0.6731258630752563,0.13010235130786896,-0.236962229013443
1749043948.4709222,5.91813325881958,-1.9056860409178675,-2.199232339859009,5.250353801041403,3.1950337886810303,4.136929035186768,-0.23394431173801422,0.01225411519408226,0.07449977099895477,0.03300923854112625,-0.035636600106954575,-0.11923984438180923,-0.4877154231071472,1.2660871744155884,0.9642603397369385,0.6689765453338623,0.13815701007843018,-0.22335147857666016
1749043948.4709597,5.91768217086792,-1.905666013757223,-2.1990890502929688,5.250406968384542,3.194931745529175,4.136632919311523,-0.2363496869802475,0.012008968740701675,0.07312152534723282,0.03392595425248146,-0.03530894219875336,-0.1203022301197052,-0.5154824256896973,1.2563719749450684,0.9689912796020508,0.6806192398071289,0.15593791007995605,-0.21642428636550903
1749043948.4709964,5.917187690734863,-1.9056455097594203,-2.1989455223083496,5.250529157906332,3.1948585510253906,4.136447906494141,-0.2414889931678772,0.011975040659308434,0.07234895974397659,0.03453235700726509,-0.03494943305850029,-0.11858166009187698,-0.4775921702384949,1.2609940767288208,0.9984225034713745,0.6604738831520081,0.15917155146598816,-0.24701353907585144
1749043948.4710336,5.91667366027832,-1.9056140385069789,-2.198805570602417,5.250588285713949,3.194819450378418,4.136239528656006,-0.24203921854496002,0.012603001669049263,0.07498352229595184,0.03654795140028,-0.03252381086349487,-0.12117461115121841,-0.5268834233283997,1.2499281167984009,0.9921346306800842,0.6516846418380737,0.14517872035503387,-0.1915678083896637
1749043948.4711957,5.9162092208862305,-1.9055901966490687,-2.198615550994873,5.2506446717079065,3.1947426795959473,4.135939598083496,-0.24434323608875275,0.012130137532949448,0.0738750472664833,0.03676711767911911,-0.03231272101402283,-0.11661102622747421,-0.5013540983200073,1.2718653678894043,0.9818939566612244,0.667572557926178,0.13600781559944153,-0.23530460894107819
1749043948.4725587,5.915745258331299,-1.9055401287474574,-2.198488235473633,5.250731813698568,3.194690704345703,4.135757923126221,-0.24520094692707062,0.012868224643170834,0.07499697804450989,0.03701688349246979,-0.031577933579683304,-0.11593735218048096,-0.5199543833732605,1.2685916423797607,1.0002233982086182,0.6474877595901489,0.12527666985988617,-0.267477810382843
1749043948.5142798,5.91526985168457,-1.9055348835387171,-2.1983163356781006,5.250796663552084,3.194627046585083,4.135496616363525,-0.24736128747463226,0.012954480946063995,0.07569513469934464,0.036999937146902084,-0.03361307829618454,-0.12020226567983627,-0.5000187754631042,1.2498939037322998,1.0121535062789917,0.6412621140480042,0.119670569896698,-0.2484913170337677
1749043948.5143259,5.914743423461914,-1.905530115167135,-2.1982038021087646,5.2508840439613245,3.194582462310791,4.135261058807373,-0.2484554797410965,0.013333387672901154,0.07575260102748871,0.037717971950769424,-0.03380483388900757,-0.12129192799329758,-0.5265641212463379,1.2388479709625244,0.983371913433075,0.6305282711982727,0.11772486567497253,-0.23643790185451508
1749043948.5143683,5.914229393005371,-1.9054905376830042,-2.1980648040771484,5.250962483673849,3.1945302486419678,4.135013580322266,-0.25290003418922424,0.013040252029895782,0.07537610828876495,0.03752594068646431,-0.033324167132377625,-0.12259652465581894,-0.5291181206703186,1.243764877319336,1.0175069570541382,0.6409197449684143,0.13082587718963623,-0.25032150745391846
1749043948.5144212,5.913741588592529,-1.9054323635497035,-2.1979010105133057,5.2510121939475916,3.1944265365600586,4.134739875793457,-0.2538742423057556,0.012723554857075214,0.07575512677431107,0.036445003002882004,-0.0343543142080307,-0.1251317709684372,-0.47613921761512756,1.2677791118621826,1.0012649297714233,0.6471465826034546,0.12009875476360321,-0.2273915410041809
1749043948.5144632,5.913261413574219,-1.9054504833617152,-2.1977219581604004,5.251118171006002,3.194363594055176,4.134492874145508,-0.25311946868896484,0.013141293078660965,0.07658901810646057,0.03559614345431328,-0.03397715464234352,-0.12832598388195038,-0.4708966910839081,1.2548770904541016,1.0021135807037354,0.6431395411491394,0.13475845754146576,-0.20911742746829987
1749043948.514503,5.9126973152160645,-1.905429025689596,-2.1975820064544678,5.251167523651876,3.1942951679229736,4.134261131286621,-0.25393378734588623,0.012842276133596897,0.07855909317731857,0.03542708978056908,-0.03517167642712593,-0.1306113302707672,-0.5780804753303528,1.2689601182937622,1.0172560214996338,0.6672647595405579,0.11525341868400574,-0.23264120519161224
1749043948.5145411,5.912224292755127,-1.9053718052306117,-2.1974117755889893,5.251230942993917,3.1942193508148193,4.13396692276001,-0.2595066428184509,0.013501841574907303,0.07746591418981552,0.03675411641597748,-0.03542263060808182,-0.13111183047294617,-0.4764968752861023,1.2436429262161255,1.0110137462615967,0.6668395400047302,0.1334700584411621,-0.18191346526145935
1749043948.5145793,5.911663055419922,-1.9053970775999964,-2.1972525119781494,5.251314568310537,3.194150924682617,4.133731842041016,-0.2622421979904175,0.013556386344134808,0.07708928734064102,0.03725922852754593,-0.03569670766592026,-0.13115637004375458,-0.5003787875175476,1.2754487991333008,1.0422297716140747,0.6528012156486511,0.12379381060600281,-0.19166001677513123
1749043948.5146174,5.911163806915283,-1.905295034448141,-2.197084665298462,5.251389848976888,3.1941137313842773,4.133418083190918,-0.26426804065704346,0.013939172960817814,0.0816420391201973,0.03839985653758049,-0.036334529519081116,-0.13101960718631744,-0.46721014380455017,1.2430291175842285,0.9890776872634888,0.657656192779541,0.12561796605587006,-0.20189951360225677
1749043948.5146558,5.910604953765869,-1.905283113519186,-2.1969645023345947,5.25148885229186,3.1940035820007324,4.133150577545166,-0.26328474283218384,0.012970656156539917,0.07810328900814056,0.03804498910903931,-0.035865865647792816,-0.13071291148662567,-0.4884369671344757,1.2736809253692627,1.03256094455719,0.6569573283195496,0.13627983629703522,-0.19292080402374268
1749043948.514694,5.910126209259033,-1.9052673778929652,-2.1967742443084717,5.251529979496755,3.193962335586548,4.132899761199951,-0.2658311128616333,0.013147810474038124,0.07955557852983475,0.03734944760799408,-0.03633158281445503,-0.1283804476261139,-0.5628371238708496,1.2806248664855957,1.043102502822876,0.669556200504303,0.12503045797348022,-0.19140805304050446
1749043948.514732,5.909572601318359,-1.9052702389159144,-2.1966536045074463,5.251625346928396,3.1939139366149902,4.132687568664551,-0.2691701352596283,0.0134205287322402,0.08245765417814255,0.03768312186002731,-0.0371677428483963,-0.12682297825813293,-0.5053213834762573,1.2435543537139893,1.01845383644104,0.670640766620636,0.13302820920944214,-0.20816268026828766
1749043948.514769,5.909006118774414,-1.9052115879454554,-2.1964783668518066,5.251678633480825,3.193819046020508,4.132424354553223,-0.26996326446533203,0.013456923887133598,0.08334675431251526,0.037398867309093475,-0.03650427237153053,-0.1265655905008316,-0.4887561500072479,1.2716072797775269,1.013647437095642,0.6587076783180237,0.11305606365203857,-0.204074427485466
1749043948.5148063,5.908553600311279,-1.9052373371519984,-2.196314811706543,5.25175033786849,3.193747043609619,4.132145881652832,-0.2731676399707794,0.013246539980173111,0.08291799575090408,0.037060871720314026,-0.037275899201631546,-0.12423853576183319,-0.48058056831359863,1.2527650594711304,1.0314451456069946,0.6706948280334473,0.12270684540271759,-0.22376111149787903
1749043948.5148437,5.907979965209961,-1.9052063427367152,-2.196178913116455,5.251825678139486,3.1936402320861816,4.131918907165527,-0.27299267053604126,0.014012879692018032,0.08357622474431992,0.03744608908891678,-0.037788908928632736,-0.1270892471075058,-0.5059859752655029,1.258624792098999,1.0219429731369019,0.6749156713485718,0.11921586096286774,-0.23991823196411133
1749043948.5148816,5.907397747039795,-1.9051081142821253,-2.1959733963012695,5.251924681454458,3.1935791969299316,4.131648540496826,-0.2747993469238281,0.013843832537531853,0.08413292467594147,0.03698547184467316,-0.0394759401679039,-0.12585940957069397,-0.5269606113433838,1.266746997833252,1.033629059791565,0.675557017326355,0.12484869360923767,-0.2550894021987915
1749043948.5149193,5.9069013595581055,-1.9051033459105433,-2.1958250999450684,5.251981007843771,3.1934993267059326,4.131410121917725,-0.2769531011581421,0.014131320640444756,0.08379626274108887,0.03780307620763779,-0.03967570140957832,-0.12717022001743317,-0.5153936147689819,1.2607176303863525,1.0310885906219482,0.6992067098617554,0.13942478597164154,-0.2734236419200897
1749043948.514958,5.906349182128906,-1.9050828419127406,-2.195611000061035,5.252083587437429,3.193376064300537,4.131143093109131,-0.2807195484638214,0.01368110254406929,0.08533700555562973,0.03862914443016052,-0.039811987429857254,-0.1341710090637207,-0.5205928087234497,1.2848758697509766,1.0458424091339111,0.6702284216880798,0.1357133537530899,-0.23433856666088104
1749043948.5149956,5.905834197998047,-1.9050551853575648,-2.1954586505889893,5.25215910652236,3.1933579444885254,4.130809783935547,-0.28059929609298706,0.014110907912254333,0.0854170024394989,0.03904784098267555,-0.03928681090474129,-0.13558176159858704,-0.5218704342842102,1.2845004796981812,1.021255373954773,0.6858329176902771,0.13789457082748413,-0.24860018491744995
1749043948.515033,5.905252456665039,-1.9050313434996546,-2.195286512374878,5.2522238967712305,3.193223714828491,4.130589008331299,-0.28083279728889465,0.013821172527968884,0.08670072257518768,0.040244508534669876,-0.03929664194583893,-0.13631141185760498,-0.5612744092941284,1.283003330230713,1.0432411432266235,0.6905331611633301,0.13790011405944824,-0.23809152841567993
1749043948.5151927,5.9046430587768555,-1.9049989185728968,-2.1950762271881104,5.25230752208785,3.1931798458099365,4.1302947998046875,-0.28455257415771484,0.01438735518604517,0.08669500052928925,0.04109257832169533,-0.03880573436617851,-0.13813671469688416,-0.6024187803268433,1.2815901041030884,1.0430806875228882,0.6795932054519653,0.1396949291229248,-0.23137640953063965
1749043948.5165071,5.904090881347656,-1.9049917660155238,-2.1949243545532227,5.252375888615408,3.193119764328003,4.130035877227783,-0.2878464162349701,0.014079771004617214,0.09001675993204117,0.04080924019217491,-0.03853469714522362,-0.1387794464826584,-0.7062686681747437,1.2987210750579834,1.0263698101043701,0.6972874402999878,0.1262499839067459,-0.2504785656929016
1749043948.5622976,5.9034929275512695,-1.904954572717184,-2.194748640060425,5.25246678569869,3.1929993629455566,4.129702091217041,-0.29552385210990906,0.015025844797492027,0.08941157162189484,0.04254761338233948,-0.03899337351322174,-0.13908085227012634,-0.5058744549751282,1.2801556587219238,1.0196815729141235,0.6731418967247009,0.1320563107728958,-0.23908577859401703
1749043948.5623436,5.902937412261963,-1.904919763604635,-2.1945815086364746,5.252565848618307,3.192920207977295,4.129485130310059,-0.29266878962516785,0.014128518290817738,0.09370066970586777,0.042626313865184784,-0.04064140096306801,-0.1372029185295105,-0.5236185789108276,1.280480146408081,1.0013304948806763,0.7037700414657593,0.12054625153541565,-0.24769064784049988
1749043948.5623848,5.902327060699463,-1.9048873386778773,-2.1943747997283936,5.252627479821005,3.19287109375,4.129128932952881,-0.29301145672798157,0.014401938766241074,0.09087050706148148,0.04323942959308624,-0.03986526280641556,-0.13948550820350647,-0.5141620635986328,1.2668147087097168,0.9978726506233215,0.6897136569023132,0.10643460601568222,-0.2591731548309326
1749043948.5624244,5.901745319366455,-1.9048358402647914,-2.1941919326782227,5.252729999810018,3.1927952766418457,4.1288886070251465,-0.2927941381931305,0.013996653258800507,0.09089335799217224,0.04327628016471863,-0.03959375247359276,-0.13581445813179016,-0.5459775328636169,1.2750821113586426,1.0042513608932495,0.6896765828132629,0.13132035732269287,-0.25532832741737366
1749043948.5624628,5.901125907897949,-1.904863019982809,-2.1940274238586426,5.25276397445754,3.192711353302002,4.1286444664001465,-0.2968981862068176,0.014309288002550602,0.09082964807748795,0.04337847977876663,-0.04025939106941223,-0.13454078137874603,-0.5048784613609314,1.2763302326202393,0.9977176189422607,0.6725019812583923,0.12359543144702911,-0.2976076006889343
1749043948.562501,5.9005351066589355,-1.904834886590475,-2.1938517093658447,5.252897369652548,3.1926281452178955,4.128331184387207,-0.29776525497436523,0.01439923606812954,0.08999298512935638,0.04399576783180237,-0.03919404000043869,-0.13953186571598053,-0.502513587474823,1.2654134035110474,1.0295026302337646,0.6890544891357422,0.12656623125076294,-0.2870604991912842
1749043948.5625389,5.899955749511719,-1.9048181972899378,-2.1936604976654053,5.2529775378997705,3.19256329536438,4.128056526184082,-0.29856613278388977,0.014825539663434029,0.09110700339078903,0.04492674767971039,-0.039417434483766556,-0.141648069024086,-0.4836064577102661,1.27984619140625,0.9983271360397339,0.6963602304458618,0.11255399882793427,-0.27978992462158203
1749043948.5625763,5.899367332458496,-1.904731889764303,-2.1934657096862793,5.253064977913656,3.1924679279327393,4.127781867980957,-0.30126479268074036,0.014859599992632866,0.09464864432811737,0.04481027275323868,-0.04078325256705284,-0.1436159908771515,-0.5416379570960999,1.3065354824066162,1.018113136291504,0.6796208620071411,0.11514788120985031,-0.30303409695625305
1749043948.5626135,5.898748874664307,-1.9047075710692347,-2.1932625770568848,5.253126251488485,3.1923649311065674,4.127498626708984,-0.30636608600616455,0.015673769637942314,0.09346291422843933,0.04490489885210991,-0.04204476624727249,-0.14915768802165985,-0.450530081987381,1.2924654483795166,0.9880353212356567,0.6785152554512024,0.12676933407783508,-0.26874446868896484
1749043948.5626512,5.898111343383789,-1.9046789608397425,-2.1930835247039795,5.253225314408102,3.192265510559082,4.127181053161621,-0.30529144406318665,0.015591436065733433,0.09405457973480225,0.0462520569562912,-0.04134124517440796,-0.1538015604019165,-0.4911537766456604,1.2563960552215576,0.999081552028656,0.68541419506073,0.1287425011396408,-0.23314078152179718
1749043948.562688,5.897481441497803,-1.9046203098692835,-2.1928915977478027,5.253371166973867,3.1922354698181152,4.126873970031738,-0.30335289239883423,0.017141366377472878,0.09576286375522614,0.04802929237484932,-0.041514959186315536,-0.15651512145996094,-0.459229439496994,1.2446277141571045,0.9547628164291382,0.6680169105529785,0.120334692299366,-0.2033555656671524
1749043948.5627253,5.8968586921691895,-1.9045735798277796,-2.192688465118408,5.253451394825735,3.192124128341675,4.1266093254089355,-0.301016628742218,0.013855230994522572,0.09636876732110977,0.0475739911198616,-0.04302750527858734,-0.15658441185951233,-0.4920507073402405,1.2834124565124512,0.9640364050865173,0.6555432081222534,0.13357214629650116,-0.21486271917819977
1749043948.5627625,5.896298408508301,-1.9045754871764125,-2.1924784183502197,5.2535350797469995,3.1920483112335205,4.1262640953063965,-0.3036385476589203,0.014373642392456532,0.09414726495742798,0.045744724571704865,-0.04366036131978035,-0.1548694372177124,-0.5570878386497498,1.2834773063659668,0.9759178757667542,0.6466449499130249,0.11698134243488312,-0.20378831028938293
1749043948.5627992,5.895699501037598,-1.9045826397337855,-2.192290782928467,5.253630924015798,3.19199538230896,4.125972270965576,-0.30520376563072205,0.014632130973041058,0.09391013532876968,0.043805282562971115,-0.042852018028497696,-0.15150989592075348,-0.5130468606948853,1.2719552516937256,0.9751547574996948,0.6679097414016724,0.12423578649759293,-0.1998671591281891
1749043948.5628362,5.895111083984375,-1.9045545063414515,-2.192103147506714,5.253711092263021,3.191915273666382,4.125650882720947,-0.30480530858039856,0.015525790862739086,0.0944095253944397,0.04423666000366211,-0.04288092255592346,-0.14872106909751892,-0.4646122455596924,1.2589471340179443,0.9734273552894592,0.6792212128639221,0.1471645087003708,-0.23905694484710693
1749043948.5628736,5.894461631774902,-1.904492040673727,-2.1919119358062744,5.253810453205862,3.191796064376831,4.125433444976807,-0.3035157322883606,0.014830930158495903,0.09430469572544098,0.04552596062421799,-0.04251355305314064,-0.14460770785808563,-0.561241090297699,1.27427077293396,0.9835183024406433,0.674132764339447,0.1112242341041565,-0.26442769169807434
1749043948.5629108,5.8938822746276855,-1.9044991932311,-2.191704511642456,5.253886806755819,3.1917366981506348,4.125112056732178,-0.3064739406108856,0.015261244028806686,0.09446936100721359,0.0470062680542469,-0.042114436626434326,-0.14658406376838684,-0.5493414402008057,1.2790112495422363,0.9741983413696289,0.6485441327095032,0.10481074452400208,-0.26073306798934937
1749043948.5629487,5.8932366371154785,-1.9044705830016078,-2.1915132999420166,5.253982710629263,3.191655158996582,4.124856472015381,-0.30958184599876404,0.014664467424154282,0.09495782107114792,0.04672509431838989,-0.04264702647924423,-0.14268283545970917,-0.532395601272583,1.2749073505401611,0.9852228164672852,0.6544130444526672,0.11731792986392975,-0.2785237729549408
1749043948.562986,5.892613410949707,-1.9044033489623011,-2.1913137435913086,5.254097449570455,3.1915178298950195,4.1245317459106445,-0.309073269367218,0.015109733678400517,0.09471014887094498,0.046831365674734116,-0.04400981217622757,-0.143450066447258,-0.5139604806900024,1.2680368423461914,0.993172287940979,0.6344559192657471,0.13169074058532715,-0.32468199729919434
1749043948.563023,5.891982555389404,-1.9043995342650355,-2.191103458404541,5.254189657955923,3.1914572715759277,4.124259948730469,-0.3082115650177002,0.01456767413765192,0.09535647928714752,0.046603430062532425,-0.045163560658693314,-0.15074554085731506,-0.5615624189376831,1.2935395240783691,0.964223325252533,0.6311815977096558,0.1532304584980011,-0.2891526222229004
1749043948.5630605,5.891380786895752,-1.9043947658934535,-2.190958261489868,5.254292118340292,3.1913914680480957,4.123995780944824,-0.3086428940296173,0.014792503789067268,0.09448802471160889,0.046962179243564606,-0.045289281755685806,-0.1510436236858368,-0.5335803031921387,1.2879817485809326,0.9757028222084045,0.6520901322364807,0.145156592130661,-0.3041155934333801
1749043948.5630982,5.890721797943115,-1.9043361149229945,-2.1907598972320557,5.254365730076589,3.1912689208984375,4.123643398284912,-0.31150320172309875,0.014291790314018726,0.09540499001741409,0.04623471200466156,-0.044806163758039474,-0.15601858496665955,-0.5170947313308716,1.3028465509414673,0.9953934550285339,0.6280291676521301,0.13900163769721985,-0.2928474545478821
1749043948.5632079,5.890130043029785,-1.904335161248678,-2.1905722618103027,5.254437434464254,3.191175937652588,4.123320579528809,-0.3125556409358978,0.01457027718424797,0.09209448099136353,0.04453767091035843,-0.044762469828128815,-0.15891173481941223,-0.5037099123001099,1.3000993728637695,1.0057529211044312,0.6592808365821838,0.14200113713741302,-0.2539510428905487
1749043948.5645046,5.889483451843262,-1.904271741906637,-2.190384864807129,5.254536795407095,3.191120147705078,4.12299108505249,-0.30952343344688416,0.014426753856241703,0.0919247418642044,0.043129123747348785,-0.04531654343008995,-0.1594686359167099,-0.4868176579475403,1.3162165880203247,1.0169878005981445,0.6560343503952026,0.15687195956707,-0.2235591858625412
1749043948.6103168,5.888849258422852,-1.9042192898192347,-2.1901893615722656,5.254635798722067,3.190992593765259,4.122679233551025,-0.31146278977394104,0.014855575747787952,0.09299157559871674,0.042749568819999695,-0.043782979249954224,-0.1584504246711731,-0.518744170665741,1.288355827331543,0.9967707991600037,0.6602820754051208,0.14843487739562988,-0.21895134449005127
1749043948.6103637,5.888210773468018,-1.9042231045165003,-2.1900064945220947,5.254697072296896,3.190924882888794,4.1223649978637695,-0.31422358751296997,0.0140882208943367,0.09170647710561752,0.04383859410881996,-0.04215572774410248,-0.15558046102523804,-0.5383094549179077,1.3105719089508057,1.0410524606704712,0.661531925201416,0.13800419867038727,-0.25141218304634094
1749043948.6104054,5.887548446655273,-1.9042030773558558,-2.189846992492676,5.254784214287557,3.1907739639282227,4.122100830078125,-0.3143922686576843,0.014410593546926975,0.09324812144041061,0.0435715988278389,-0.04201069846749306,-0.15393857657909393,-0.4491705000400543,1.2944204807281494,1.0314968824386597,0.6550321578979492,0.13877873122692108,-0.2521062195301056
1749043948.610445,5.886932373046875,-1.9041787586607875,-2.189664363861084,5.2548836944396875,3.1907129287719727,4.121787071228027,-0.30944108963012695,0.014067563228309155,0.09304802119731903,0.04395986348390579,-0.04236484691500664,-0.14911578595638275,-0.5266956686973572,1.2978856563568115,1.042054533958435,0.6673719882965088,0.13400337100028992,-0.28997987508773804
1749043948.6104836,5.886259078979492,-1.9041286907591761,-2.189465284347534,5.254979538708486,3.1906254291534424,4.121476650238037,-0.31368640065193176,0.014707493595778942,0.09265635162591934,0.04473244771361351,-0.04178750514984131,-0.1509108543395996,-0.524140477180481,1.3098797798156738,1.034878134727478,0.6569142937660217,0.14021417498588562,-0.3062439262866974
1749043948.6105268,5.8856282234191895,-1.9040805302061976,-2.189258575439453,5.25504760721282,3.190580368041992,4.121212482452393,-0.31497177481651306,0.014505045488476753,0.09661415964365005,0.044412169605493546,-0.04083078354597092,-0.15259775519371033,-0.44055595993995667,1.2971304655075073,1.0146431922912598,0.6754910349845886,0.12422207742929459,-0.2826332449913025
1749043948.6105666,5.885059356689453,-1.9040833912291468,-2.189082622528076,5.25511251667098,3.1904618740081787,4.120871067047119,-0.31523793935775757,0.014935600571334362,0.09387112408876419,0.04401110112667084,-0.040438104420900345,-0.15459425747394562,-0.45720595121383667,1.2692210674285889,1.0387325286865234,0.672998309135437,0.15537360310554504,-0.29266074299812317
1749043948.6106052,5.884433269500732,-1.9040552578368128,-2.188910722732544,5.255199777870931,3.190335273742676,4.120572090148926,-0.3127944767475128,0.014001320116221905,0.09546525776386261,0.04361456632614136,-0.04110611602663994,-0.1584904044866562,-0.4375516176223755,1.3337229490280151,1.0357308387756348,0.6758539080619812,0.11068714410066605,-0.28205442428588867
1749043948.6106427,5.88375997543335,-1.9040194950499476,-2.1887307167053223,5.2553261993225,3.190321207046509,4.120230197906494,-0.3097321391105652,0.014267337508499622,0.09339199215173721,0.044145260006189346,-0.04061086103320122,-0.1628762036561966,-0.5100019574165344,1.3122390508651733,1.0373321771621704,0.6886094808578491,0.1342763900756836,-0.2223423719406128
1749043948.6106842,5.883133888244629,-1.9039870701231898,-2.1885242462158203,5.255398142128744,3.1902520656585693,4.1199259757995605,-0.3146456480026245,0.013894553296267986,0.09434008598327637,0.04441225528717041,-0.04049958288669586,-0.16411390900611877,-0.5049366354942322,1.3523976802825928,1.057629108428955,0.6718004941940308,0.12338214367628098,-0.21825984120368958
1749043948.610723,5.882533550262451,-1.9039598904051722,-2.188352108001709,5.255497205048361,3.1901838779449463,4.119596481323242,-0.31431978940963745,0.014499305747449398,0.09551439434289932,0.04535144940018654,-0.041173338890075684,-0.16219359636306763,-0.4677445590496063,1.336195468902588,1.048046350479126,0.6888059377670288,0.11122535169124603,-0.1958978772163391
1749043948.610761,5.881890296936035,-1.903947492639059,-2.188133478164673,5.255573856621542,3.1900880336761475,4.119288921356201,-0.3127085864543915,0.013717950321733952,0.09831082820892334,0.0467991828918457,-0.04139161854982376,-0.15890488028526306,-0.4869096279144287,1.3440887928009033,1.0354756116867065,0.6628284454345703,0.1192677915096283,-0.18715479969978333
1749043948.6107984,5.881322860717773,-1.9038888416686,-2.1879186630249023,5.255676793843069,3.189988613128662,4.118993759155273,-0.3100430965423584,0.014187559485435486,0.09738453477621078,0.04642108827829361,-0.041495583951473236,-0.1548120528459549,-0.5318665504455566,1.3234059810638428,1.0222374200820923,0.6786313652992249,0.12259473651647568,-0.21766072511672974
1749043948.6108353,5.88067626953125,-1.903891225854391,-2.1877503395080566,5.255765485554495,3.1899518966674805,4.118645191192627,-0.3128466010093689,0.01349138468503952,0.09792977571487427,0.04709428548812866,-0.04212779179215431,-0.14829567074775696,-0.5384529829025269,1.3639261722564697,1.0306544303894043,0.6661706566810608,0.14103682339191437,-0.2547169029712677
1749043948.6108725,5.8800740242004395,-1.9038359127440394,-2.1875317096710205,5.255852806359091,3.1898488998413086,4.118389129638672,-0.31215980648994446,0.014297716319561005,0.09896904230117798,0.04765206575393677,-0.042587436735630035,-0.15110133588314056,-0.48306629061698914,1.3410651683807373,1.0159096717834473,0.6718811988830566,0.10865876078605652,-0.2641814351081848
1749043948.6109097,5.879416465759277,-1.903792520562643,-2.1873526573181152,5.25594841220931,3.189757823944092,4.118128776550293,-0.31484469771385193,0.01449999026954174,0.09916697442531586,0.0474531427025795,-0.04256158694624901,-0.14664269983768463,-0.50046706199646,1.3476316928863525,0.9983941912651062,0.6766852140426636,0.11232256889343262,-0.29016414284706116
1749043948.6109467,5.878758430480957,-1.9038073025145472,-2.1871373653411865,5.256059634476461,3.1896886825561523,4.117823123931885,-0.3131207227706909,0.01530107669532299,0.09940275549888611,0.04600344970822334,-0.0429924838244915,-0.14710015058517456,-0.4988960027694702,1.338698148727417,0.982390284538269,0.6766154170036316,0.1311737447977066,-0.3020760715007782
1749043948.610984,5.878206253051758,-1.9037367306151332,-2.1869373321533203,5.256143319397726,3.1896276473999023,4.117488861083984,-0.31596314907073975,0.015081776306033134,0.09884323179721832,0.04734475165605545,-0.04337204992771149,-0.15291009843349457,-0.5236364603042603,1.3605350255966187,1.002989411354065,0.6734135150909424,0.11543941497802734,-0.27912259101867676
1749043948.611023,5.877547264099121,-1.9037367306151332,-2.186718702316284,5.2562357662017725,3.189481735229492,4.11718225479126,-0.3203805685043335,0.015468190424144268,0.0981375128030777,0.047681402415037155,-0.044396404176950455,-0.1523720622062683,-0.4739089012145996,1.3344125747680664,0.9956875443458557,0.6752288937568665,0.11062320321798325,-0.30910447239875793
1749043948.611065,5.876918315887451,-1.9036809406676234,-2.186523914337158,5.256307172566213,3.189394235610962,4.1168212890625,-0.31442195177078247,0.015135899186134338,0.10056408494710922,0.047348909080028534,-0.04357980936765671,-0.15631996095180511,-0.4648885726928711,1.3600409030914307,0.9748773574829102,0.6662981510162354,0.11667303740978241,-0.2592853903770447
