nimar13/UR3e_dataset_trayectorias/trayectorias_ejecutadas/quintic_func/trayectoria_090_result.csv
timestamp,q1,q2,q3,q4,q5,q6,qd1,qd2,qd3,qd4,qd5,qd6,tau1,tau2,tau3,tau4,tau5,tau6
1749041779.0143003,-5.796640251074926,-2.0081826649107875,1.5034931341754358,-3.1314975223936976,2.986518621444702,4.153820514678955,0.0,-0.0001677668624324724,-7.587880099890754e-05,-0.0001488577836425975,0.00046809116611257195,-9.971764666261151e-05,-0.0929919108748436,-0.23501063883304596,-0.8637474775314331,0.120338074862957,0.41511809825897217,0.005439236760139465
1749041779.0143476,-5.796640251074926,-2.0081826649107875,1.5034931341754358,-3.1314975223936976,2.986518621444702,4.153820514678955,0.0,-0.0001677668624324724,-7.587880099890754e-05,-0.0001488577836425975,0.00046809116611257195,-9.971764666261151e-05,-0.0929919108748436,-0.23501063883304596,-0.8637474775314331,0.120338074862957,0.41511809825897217,0.005439236760139465
1749041779.0143886,-5.796652142201559,-2.008127351800436,1.5035002867328089,-3.1314975223936976,2.986494779586792,4.1538472175598145,0.0,-0.00015928356151562184,-7.409394311252981e-05,-0.00014295786968432367,0.00046262808609753847,-9.703025716589764e-05,-0.10580132156610489,-0.23052267730236053,-0.86983323097229,0.12938010692596436,0.41116881370544434,0.0029315054416656494
1749041779.0144277,-5.796652142201559,-2.008127351800436,1.5035002867328089,-3.1314975223936976,2.986494779586792,4.1538472175598145,0.0,-0.00015928356151562184,-7.409394311252981e-05,-0.00014295786968432367,0.00046262808609753847,-9.703025716589764e-05,-0.10580132156610489,-0.23052267730236053,-0.86983323097229,0.12938010692596436,0.41116881370544434,0.0029315054416656494
1749041779.0144668,-5.796676580105917,-2.0081235371031703,1.503540341054098,-3.1315318546690882,2.986499547958374,4.153824329376221,0.0,-0.00015161656483542174,-7.239058322738856e-05,-0.00016103526286315173,0.0004584337002597749,-9.448350465390831e-05,-0.07234350591897964,-0.22629474103450775,-0.8660643100738525,0.12457738071680069,0.41606807708740234,0.02999219298362732
1749041779.014505,-5.796676580105917,-2.0081235371031703,1.503540341054098,-3.1315318546690882,2.986499547958374,4.153824329376221,0.0,-0.00015161656483542174,-7.239058322738856e-05,-0.00016103526286315173,0.0004584337002597749,-9.448350465390831e-05,-0.07234350591897964,-0.22629474103450775,-0.8660643100738525,0.12457738071680069,0.41606807708740234,0.02999219298362732
1749041779.0145428,-5.796652142201559,-2.008116384545797,1.503540341054098,-3.131528516808981,2.98656964302063,4.153866291046143,0.0,-0.00014465433196164668,-7.076491601765156e-05,-0.00015852284559514374,0.00048353648162446916,-9.206686809193343e-05,-0.09475783258676529,-0.2575076222419739,-0.8614171743392944,0.11643586307764053,0.42540037631988525,0.021464228630065918
1749041779.0145805,-5.796664063130514,-2.00817408184194,1.5035088698016565,-3.1315318546690882,2.9865031242370605,4.153862476348877,0.0,-0.00014140718849375844,-6.997833406785503e-05,-0.000153359433170408,0.0005022093537263572,-9.090470121009275e-05,-0.08704226464033127,-0.2617344260215759,-0.8686054348945618,0.1330065131187439,0.4270225763320923,0.007488235831260681
1749041779.0146272,-5.796664063130514,-2.00817408184194,1.5035088698016565,-3.1315318546690882,2.9865031242370605,4.153862476348877,0.0,-0.00014140718849375844,-6.997833406785503e-05,-0.000153359433170408,0.0005022093537263572,-9.090470121009275e-05,-0.08704226464033127,-0.2617344260215759,-0.8686054348945618,0.1330065131187439,0.4270225763320923,0.007488235831260681
1749041779.0146666,-5.796644989644186,-2.008104463616842,1.5035317579852503,-3.131535669366354,2.986480236053467,4.153815746307373,0.0,-0.000135332127683796,-1.161072077593417e-06,-0.00014361624198500067,0.0004785888595506549,-8.866551797837019e-05,-0.10550197213888168,-0.22810320556163788,-0.8661726117134094,0.12124808877706528,0.4217491149902344,0.011697903275489807
1749041779.0147183,-5.796655658875601,-2.008111616174215,1.5035284201251429,-3.131528516808981,2.986492156982422,4.153824329376221,0.0,-0.0001324862241744995,-7.580970873277693e-08,-0.00013917440082877874,0.0004797848523594439,-8.758706826483831e-05,-0.08716855198144913,-0.26377439498901367,-0.872988224029541,0.12434124201536179,0.4304783344268799,0.014039412140846252
1749041779.014775,-5.796625796948568,-2.0081197224059046,1.503540341054098,-3.1315046749510707,2.9865384101867676,4.153874397277832,0.0,-0.00012975765275768936,-4.949832099754303e-09,-0.00013499814667738974,0.0004885187954641879,-8.653438271721825e-05,-0.09270837157964706,-0.26109230518341064,-0.8664717078208923,0.11642611771821976,0.43268883228302,0.006031021475791931
1749041779.0148156,-5.796652142201559,-2.0081426105894984,1.5035126844989222,-3.1315013370909632,2.9865031242370605,4.153835296630859,0.0,-0.00012713899195659906,-3.23188670270369e-10,-0.00015250701108016074,0.0004782512260135263,-8.550649363314733e-05,-0.11687830835580826,-0.24063555896282196,-0.8661580085754395,0.12957501411437988,0.43090999126434326,0.01356343924999237
1749041779.0148537,-5.796652142201559,-2.0081426105894984,1.5035126844989222,-3.1315013370909632,2.9865031242370605,4.153835296630859,0.0,-0.00012713899195659906,-3.23188670270369e-10,-0.00015250701108016074,0.0004782512260135263,-8.550649363314733e-05,-0.11687830835580826,-0.24063555896282196,-0.8661580085754395,0.12957501411437988,0.43090999126434326,0.01356343924999237
1749041779.014891,-5.796633068715231,-2.0081235371031703,1.5035246054278772,-3.1315165958800257,2.986518621444702,4.153831481933594,0.0,-0.00012220664939377457,-1.3778039039541445e-12,-0.00014846993144601583,0.0005436307983472943,-8.352289296453819e-05,-0.09457740187644958,-0.24451188743114471,-0.870218813419342,0.12154660373926163,0.4251871109008789,0.012282013893127441
1749041779.0149276,-5.796629522238867,-2.0081197224059046,1.5035088698016565,-3.1314975223936976,2.986546754837036,4.153820514678955,0.0,-0.00011988115875283256,-8.99607604664017e-14,-0.00014461082173511386,0.0005431411555036902,-8.25648385216482e-05,-0.09464941173791885,-0.24366764724254608,-0.8771615624427795,0.11496778577566147,0.43778741359710693,0.006495073437690735
1749041779.0149682,-5.796629522238867,-2.008139272729391,1.5035508314715784,-3.1315132580199183,2.9865150451660156,4.153820514678955,0.0,-0.00011764247028622776,-5.8737944419646766e-15,-0.00014085879956837744,0.0005491865449585021,-8.16289393696934e-05,-0.08896557241678238,-0.24098627269268036,-0.8699818849563599,0.128387451171875,0.42881184816360474,0.014078006148338318
1749041779.0150285,-5.796629522238867,-2.008139272729391,1.5035508314715784,-3.1315132580199183,2.9865150451660156,4.153820514678955,0.0,-0.00011764247028622776,-5.8737944419646766e-15,-0.00014085879956837744,0.0005491865449585021,-8.16289393696934e-05,-0.08896557241678238,-0.24098627269268036,-0.8699818849563599,0.128387451171875,0.42881184816360474,0.014078006148338318
1749041779.0150778,-5.796648565922872,-2.0081235371031703,1.5035284201251429,-3.1314975223936976,2.986506700515747,4.153839588165283,0.0,-0.00011340717173879966,-2.5040907811572786e-17,-0.00013387722719926387,0.0005448350566439331,-7.9818804806564e-05,-0.11132027953863144,-0.25144320726394653,-0.8729665875434875,0.1286298930644989,0.4153228998184204,0.011045902967453003
1749041779.0151165,-5.796648565922872,-2.0081235371031703,1.5035284201251429,-3.1314975223936976,2.986506700515747,4.153839588165283,0.0,-0.00011340717173879966,-2.5040907811572786e-17,-0.00013387722719926387,0.0005448350566439331,-7.9818804806564e-05,-0.11132027953863144,-0.25144320726394653,-0.8729665875434875,0.1286298930644989,0.4153228998184204,0.011045902967453003
1749041779.0152278,-5.796667609606878,-2.0081235371031703,1.5034964720355433,-3.131535669366354,2.9865429401397705,4.153831481933594,0.0,-0.00010946620022878051,-1.0675331906728538e-19,-0.00014774227747693658,0.0004904281813651323,-2.4924695480876835e-06,-0.10740713030099869,-0.24494491517543793,-0.8535511493682861,0.128219872713089,0.4295077323913574,0.0061964839696884155
1749041779.01707,-5.796667609606878,-2.0081235371031703,1.5034964720355433,-3.131535669366354,2.9865429401397705,4.153831481933594,0.0,-0.00010946620022878051,-1.0675331906728538e-19,-0.00014774227747693658,0.0004904281813651323,-2.4924695480876835e-06,-0.10740713030099869,-0.24494491517543793,-0.8535511493682861,0.128219872713089,0.4295077323913574,0.0061964839696884155
1749041779.0582738,-5.79664129415621,-2.0081478557982386,1.5035284201251429,-3.1315165958800257,2.986527442932129,4.153815746307373,0.0,-0.00010578979708952829,-4.551060993432507e-22,-0.00014206321793608367,0.0004804183845408261,-7.783134492456156e-08,-0.1080622524023056,-0.2447427362203598,-0.8644059896469116,0.1214531883597374,0.4176967144012451,0.009117498993873596
1749041779.0583236,-5.796648565922872,-2.0081354580321253,1.5035246054278772,-3.131528516808981,2.986504077911377,4.1538472175598145,0.0,-0.0001040428614942357,-2.9715175453881474e-23,-0.00013895593292545527,0.00043640699004754424,-1.3753615135669861e-08,-0.07608386874198914,-0.2519129514694214,-0.8785327672958374,0.1353500485420227,0.41059982776641846,-0.00810907781124115
1749041779.0583694,-5.796625796948568,-2.008127351800436,1.503540341054098,-3.1315318546690882,2.9865429401397705,4.153831481933594,0.0,-0.00010235252557322383,-1.9401886052491056e-24,-0.0001359614252578467,0.000398178119212389,-2.430408096998349e-09,-0.10209167748689651,-0.2275199443101883,-0.8604663610458374,0.1131812110543251,0.4318838119506836,0.00848822295665741
1749041779.0584102,-5.796633068715231,-2.0081426105894984,1.5035207907306116,-3.1315165958800257,2.986492156982422,4.153855323791504,0.0,-0.00010071626456920058,-1.266804610600806e-25,-0.00013308966299518943,0.00036580790765583515,-4.294786193348443e-10,-0.0926874577999115,-0.25911206007003784,-0.8632098436355591,0.12004435807466507,0.4163758158683777,0.027072980999946594
1749041779.0584478,-5.796680156384603,-2.008139272729391,1.5035126844989222,-3.1315251789488734,2.9865622520446777,4.1538472175598145,0.0,-9.913155372487381e-05,-8.271328310014794e-27,-0.0001303360186284408,0.00039296073373407125,-7.589337491786807e-11,-0.08513959497213364,-0.25135964155197144,-0.8586738109588623,0.12015921622514725,0.4271544814109802,-0.002153053879737854
1749041779.0584848,-5.796652142201559,-2.0081354580321253,1.5035126844989222,-3.1315132580199183,2.986546754837036,4.153843402862549,0.0,-9.7596064733807e-05,-5.400585860938773e-28,-0.00012769395834766328,0.0003751910990104079,-1.3411156733755814e-11,-0.10179517418146133,-0.2993255853652954,-0.8710438013076782,0.11118418723344803,0.42046046257019043,0.0008879154920578003
1749041779.0585222,-5.796625796948568,-2.008096834222311,1.5035207907306116,-3.1315165958800257,2.9865238666534424,4.153827667236328,0.0,-0.00010941736400127411,-3.526196570387635e-29,-0.00013808959920424968,0.00035237165866419673,-2.369892043024846e-12,-0.08911710977554321,-0.2925288677215576,-0.8728540539741516,0.10053176432847977,0.42202138900756836,0.005381748080253601
1749041779.058559,-5.796687279139654,-2.0081316433348597,1.5035088698016565,-3.131528516808981,2.9865503311157227,4.153827667236328,0.0,-0.0001081984446500428,-2.30235445665049e-30,-0.00015945309132803231,0.0003310279280412942,-4.187847714009346e-13,-0.09285280853509903,-0.32905322313308716,-0.8676734566688538,0.10755149275064468,0.430553674697876,0.018708333373069763
1749041779.0585961,-5.796644989644186,-2.0081354580321253,1.5035284201251429,-3.1315132580199183,2.986553907394409,4.15380859375,0.0,-0.0036898108664900064,-1.5032729571874968e-31,-0.0002138627169188112,0.00031194399343803525,-7.400366262714023e-14,-0.06819809973239899,-0.27808666229248047,-0.8705108165740967,0.08805511146783829,0.4176734685897827,0.01677525043487549
1749041779.0586352,-5.796660486851827,-2.008178850213522,1.5035317579852503,-3.1315132580199183,2.986504077911377,4.153862476348877,0.0,-0.004062516614794731,-9.81529848349742e-33,-0.0002486549783498049,0.00029490000451914966,-1.3077223935079475e-14,-0.07421240210533142,-0.24662940204143524,-0.8443013429641724,0.11514067649841309,0.4029703736305237,0.01596297323703766
1749041779.0586727,-5.796629552041189,-2.0081197224059046,1.5034931341754358,-3.1315437755980433,2.98656964302063,4.153843402862549,0.0,-0.0023073418997228146,-6.4086882123300874e-34,-0.001510066562332213,0.00027961540035903454,-2.3108826982374707e-15,-0.09276732802391052,-0.2846723794937134,-0.8541968464851379,0.08780473470687866,0.4023115634918213,0.02197892963886261
1749041779.0587091,-5.796629552041189,-2.0081197224059046,1.5034931341754358,-3.1315437755980433,2.98656964302063,4.153843402862549,0.0,-0.0023073418997228146,-6.4086882123300874e-34,-0.001510066562332213,0.00027961540035903454,-2.3108826982374707e-15,-0.09276732802391052,-0.2846723794937134,-0.8541968464851379,0.08780473470687866,0.4023115634918213,0.02197892963886261
1749041779.058746,-5.796629552041189,-2.0081197224059046,1.5034931341754358,-3.1315437755980433,2.98656964302063,4.153843402862549,0.0,-0.0023073418997228146,-6.4086882123300874e-34,-0.001510066562332213,0.00027961540035903454,-2.3108826982374707e-15,-0.09276732802391052,-0.2846723794937134,-0.8541968464851379,0.08780473470687866,0.4023115634918213,0.02197892963886261
1749041779.0587828,-5.796621177588598,-2.008163114587301,1.5035284201251429,-3.131547590295309,2.9865548610687256,4.1538591384887695,0.0,-0.0015217452310025692,-4.184415505816751e-35,-0.0021720624063163996,0.0002658380544744432,-4.0835720437947876e-16,-0.06653293967247009,-0.30093586444854736,-0.837788999080658,0.09439806640148163,0.397189736366272,0.007194355130195618
1749041779.0588193,-5.796629552041189,-2.0081283054747523,1.5034964720355433,-3.1315556965269984,2.986499547958374,4.153843402862549,0.0,-0.0008556026150472462,-2.2384720921309054e-07,-0.0014773121802136302,0.00021830132754985243,-2.2533429725807102e-18,-0.0576166957616806,-0.2774622440338135,-0.8396748304367065,0.11399891972541809,0.3565192222595215,-0.0029181838035583496
1749041779.0588596,-5.796629552041189,-2.0081283054747523,1.5034964720355433,-3.1315556965269984,2.986499547958374,4.153843402862549,0.0,-0.0008556026150472462,-2.2384720921309054e-07,-0.0014773121802136302,0.00021830132754985243,-2.2533429725807102e-18,-0.0576166957616806,-0.2774622440338135,-0.8396748304367065,0.11399891972541809,0.3565192222595215,-0.0029181838035583496
1749041779.0588968,-5.796614025031225,-2.0081407032408656,1.5035317579852503,-3.131540437737936,2.9865224361419678,4.1538591384887695,-2.09405134228291e-05,-0.0006776666268706322,-9.542957535302321e-10,-0.0010686792666092515,0.00013725366443395615,-7.036422220439987e-20,-0.07066547870635986,-0.2662290334701538,-0.827340304851532,0.11985516548156738,0.306093692779541,0.008603155612945557
1749041779.058936,-5.796636644993917,-2.0081755123534144,1.5035436789142054,-3.1315556965269984,2.986494779586792,4.153827667236328,-2.0628387574106455e-05,-0.000602066982537508,-6.230869292744856e-11,-0.0008970218477770686,-2.187748577853199e-05,-1.243409738074685e-20,-0.05545714497566223,-0.24034814536571503,-0.8481272459030151,0.09427933394908905,0.29926425218582153,-0.003028884530067444
1749041779.0589738,-5.796636644993917,-2.0081755123534144,1.5035436789142054,-3.1315556965269984,2.986494779586792,4.153827667236328,-2.0628387574106455e-05,-0.000602066982537508,-6.230869292744856e-11,-0.0008970218477770686,-2.187748577853199e-05,-1.243409738074685e-20,-0.05545714497566223,-0.24034814536571503,-0.8481272459030151,0.09427933394908905,0.29926425218582153,-0.003028884530067444
1749041779.0590103,-5.796664033328192,-2.0081478557982386,1.5035246054278772,-3.131552358666891,2.986480236053467,4.153843402862549,-3.187625225109514e-06,-0.0004922509542666376,-2.6563172776834787e-13,-0.000672840338665992,-0.002527931472286582,-9.410600796400104e-06,-0.059537407010793686,-0.24208377301692963,-0.8143601417541504,0.11863455176353455,0.25093990564346313,-0.019457116723060608
1749041779.059115,-5.796648565922872,-2.008178850213522,1.5035126844989222,-3.1315680942931117,2.986475706100464,4.153827667236328,-3.110040580622808e-08,-0.0004511183069553226,-1.7343853404242632e-14,-0.0005979019333608449,-0.003654336789622903,-1.662951945036184e-06,-0.0442025251686573,-0.2249932438135147,-0.8247062563896179,0.12775009870529175,0.22508937120437622,-0.011140391230583191
1749041779.0610533,-5.796645019446508,-2.0081755123534144,1.5035126844989222,-3.1315556965269984,2.986494779586792,4.153862476348877,-3.034344164820624e-10,-0.0004163249395787716,-1.1324296874033225e-15,-0.0005380395450629294,-0.004613022785633802,-2.9386106348283647e-07,-0.02351890690624714,-0.19008605182170868,-0.8133373260498047,0.13169874250888824,0.18698400259017944,-0.02076283097267151
1749041779.1023183,-5.796664033328192,-2.0081592998900355,1.5034964720355433,-3.131552358666891,2.9864683151245117,4.153805255889893,-2.9604901429641783e-12,-0.00032421431387774646,-7.393955737374701e-17,-0.0004891158896498382,-0.006598990876227617,-0.0009119270835071802,-0.043727144598960876,-0.1844586580991745,-0.8107032179832458,0.14196988940238953,0.1599515676498413,-0.030775561928749084
1749041779.102376,-5.796664033328192,-2.0081592998900355,1.5034964720355433,-3.131552358666891,2.9864683151245117,4.153805255889893,-2.9604901429641783e-12,-0.00032421431387774646,-7.393955737374701e-17,-0.0004891158896498382,-0.006598990876227617,-0.0009119270835071802,-0.043727144598960876,-0.1844586580991745,-0.8107032179832458,0.14196988940238953,0.1599515676498413,-0.030775561928749084
1749041779.1024187,-5.796617631112234,-2.0081755123534144,1.5035317579852503,-3.131540437737936,2.986470937728882,4.153803825378418,-2.8181312903764646e-16,6.864206807222217e-05,-3.152158873746902e-19,-0.00035367588861845434,-0.011709019541740417,-0.004103043582290411,-0.02906075492501259,-0.1356520801782608,-0.7942255735397339,0.17050278186798096,0.1488071233034134,-0.030848398804664612
1749041779.1024575,-5.7966521123992365,-2.008116384545797,1.5035164991961878,-3.131552358666891,2.9864156246185303,4.153807640075684,-2.7495398775249853e-18,0.0002750263374764472,-2.0581347392808974e-20,-0.00027625265647657216,-0.011986824683845043,-0.004397676791995764,0.0187375508248806,-0.13860821723937988,-0.7893232107162476,0.1717798411846161,0.13238079845905304,-0.03680823743343353
1749041779.1024983,-5.796640191470281,-2.0081478557982386,1.5035284201251429,-3.1315719089903773,2.986360549926758,4.153784275054932,-2.6826179739020734e-20,0.0028302669525146484,-1.3438148837647392e-21,-0.00020008804858662188,-0.012962293811142445,-0.005270302761346102,-0.021979691460728645,-0.14930935204029083,-0.7842968106269836,0.1814025491476059,0.12627319991588593,-0.04384636878967285
1749041779.1025357,-5.796640191470281,-2.0081316433348597,1.5035246054278772,-3.1315370998778285,2.986356019973755,4.15379524230957,0.0009834461379796267,0.002743006683886051,-8.774152118886293e-23,7.971741433721036e-05,-0.013978025875985622,-0.005671065766364336,0.00020936504006385803,-0.12146228551864624,-0.7772559523582458,0.20534870028495789,0.11771617829799652,-0.028784409165382385
1749041779.1025724,-5.796602133904592,-2.0081516704955042,1.5035164991961878,-3.1315437755980433,2.9863405227661133,4.1537766456604,0.0013260056730359793,0.002362004015594721,-5.72889406488862e-24,0.00024892433430068195,-0.01535295695066452,-0.006627142895013094,-0.018233809620141983,-0.0775584876537323,-0.7743507623672485,0.201779305934906,0.12368381023406982,-0.022153839468955994
1749041779.102612,-5.796640191470281,-2.0081316433348597,1.5035126844989222,-3.1315437755980433,2.9862923622131348,4.153764247894287,0.0012920371955260634,0.0022527731489390135,-3.7405582710616747e-25,0.0011582064907997847,-0.016217174008488655,-0.006943640299141407,-0.0015760594978928566,-0.0626194179058075,-0.7854482531547546,0.21323707699775696,0.10460910201072693,-0.04196876287460327
1749041779.1026742,-5.796640191470281,-2.0081316433348597,1.5035126844989222,-3.1315437755980433,2.9862923622131348,4.153764247894287,0.0012920371955260634,0.0022527731489390135,-3.7405582710616747e-25,0.0011582064907997847,-0.016217174008488655,-0.006943640299141407,-0.0015760594978928566,-0.0626194179058075,-0.7854482531547546,0.21323707699775696,0.10460910201072693,-0.04196876287460327
1749041779.1027224,-5.796640191470281,-2.008127351800436,1.5035284201251429,-3.131528516808981,2.9862475395202637,4.153775215148926,0.0014152774820104241,0.005230909679085016,-1.5946586309659594e-27,0.0020390425343066454,-0.019737079739570618,-0.007771913427859545,0.013409922830760479,-0.0569596141576767,-0.7655797004699707,0.22136792540550232,0.09962595999240875,-0.04476344585418701
1749041779.1027613,-5.796636644993917,-2.00809969524526,1.5035436789142054,-3.1315318546690882,2.9861772060394287,4.15374755859375,0.0013612608890980482,0.006501749623566866,-1.0411980520939503e-28,0.002495313063263893,-0.020022012293338776,-0.00914630014449358,0.03371981903910637,-0.05303634703159332,-0.7480262517929077,0.2398894727230072,0.07189935445785522,-0.07719816267490387
1749041779.1027982,-5.796609256659643,-2.008111616174215,1.503547493611471,-3.1315132580199183,2.9861013889312744,4.153719902038574,0.0019105817191302776,0.007303472608327866,-6.798279925381742e-30,0.003467368660494685,-0.021907147020101547,-0.009111964143812656,0.032658156007528305,-0.04812852293252945,-0.7436143159866333,0.2372506558895111,0.06749902665615082,-0.06906886398792267
1749041779.1028352,-5.796597961579458,-2.0080753765501917,1.5035207907306116,-3.131519933740133,2.986104965209961,4.153739929199219,0.003015269059687853,0.007650603540241718,-4.4387908009084045e-31,0.0041151526384055614,-0.024163274094462395,-0.009881742298603058,0.037453729659318924,-0.05133640021085739,-0.7464210987091064,0.2601483464241028,0.04673969745635986,-0.07518661022186279
1749041779.1028752,-5.796587292348043,-2.008056779901022,1.5035207907306116,-3.1315118275084437,2.986083984375,4.153684139251709,0.0041440376080572605,0.006871045101433992,-2.898213060299822e-32,0.0044513968750834465,-0.026310216635465622,-0.011341347359120846,0.013097436167299747,-0.010337494313716888,-0.7300240993499756,0.26303449273109436,0.04288966953754425,-0.06454938650131226
1749041779.1029127,-5.796526912842886,-2.0080515346922816,1.5035284201251429,-3.1315013370909632,2.9860129356384277,4.153672218322754,0.004148093983530998,0.00949826929718256,0.0006898086285218596,0.005528172478079796,-0.02915291115641594,-0.011699490249156952,-0.01588498428463936,0.017168626189231873,-0.7194775938987732,0.2705201804637909,0.022205322980880737,-0.0482204407453537
1749041779.1029537,-5.796570424233572,-2.008043428460592,1.5035317579852503,-3.131496091882223,2.9859371185302734,4.153636455535889,0.003950049169361591,0.010957100428640842,0.0008807940757833421,0.005582885351032019,-0.03201837092638016,-0.012094653211534023,0.006186746060848236,-0.009891875088214874,-0.7215519547462463,0.2789117395877838,0.0011853128671646118,-0.0721571296453476
1749041779.1029913,-5.79660135904421,-2.0080276928343714,1.5035126844989222,-3.131465574304098,2.9858615398406982,4.1536126136779785,0.0037314605433493853,0.010841060429811478,0.0008681245381012559,0.00612200191244483,-0.034228719770908356,-0.011554055847227573,0.012765798717737198,0.016214542090892792,-0.718471348285675,0.293060839176178,0.004825815558433533,-0.0757099837064743
1749041779.103028,-5.7966084519969385,-2.00803866008901,1.503540341054098,-3.131465574304098,2.9858250617980957,4.153586387634277,0.0038474355824291706,0.011713978834450245,0.0008429266745224595,0.007460346911102533,-0.036448173224925995,-0.011426395736634731,-0.0042939335107803345,0.035831645131111145,-0.7231367230415344,0.29546481370925903,-0.020923122763633728,-0.08832207322120667
1749041779.1030648,-5.796608422194616,-2.007991453210348,1.503540341054098,-3.1314298115172328,2.9857027530670166,4.15356969833374,0.00400477135553956,0.012927355244755745,0.0008006103453226388,0.009084868244826794,-0.0387529656291008,-0.01216638833284378,0.01357855275273323,0.017787478864192963,-0.7118499279022217,0.32266831398010254,-0.017776310443878174,-0.09585177898406982
1749041779.1031017,-5.796542410050527,-2.0079366169371546,1.5035365263568323,-3.1314364872374476,2.9856414794921875,4.153592109680176,0.004377188626676798,0.013096156530082226,0.0008998208795674145,0.010066596791148186,-0.04170571640133858,-0.012388963252305984,0.02161957509815693,0.06835506856441498,-0.7022589445114136,0.2832467555999756,-0.008768126368522644,-0.0928085446357727
1749041779.103207,-5.7965377310859125,-2.0079204044737757,1.5035555998431605,-3.1313935718932093,2.985542058944702,4.153579235076904,0.005408857017755508,0.013573690317571163,0.0009588721441105008,0.010540135204792023,-0.045063916593790054,-0.01285600196570158,0.04778929054737091,0.07076719403266907,-0.7036176323890686,0.3132307529449463,-0.011283308267593384,-0.10491806268692017
1749041779.1050014,-5.79658475915064,-2.0078774891295375,1.5035246054278772,-3.1313816509642542,2.9854660034179688,4.153563976287842,0.005272195674479008,0.014437573961913586,0.001233638497069478,0.01197735033929348,-0.046884313225746155,-0.012356399558484554,0.04336824268102646,0.05419003963470459,-0.6984020471572876,0.3037833571434021,-0.040257252752780914,-0.09397703409194946
1749041779.1462812,-5.796522233878271,-2.007841726342672,1.503540341054098,-3.1313301525511683,2.9853553771972656,4.153536796569824,0.004999104887247086,0.014459628611803055,0.001490108435973525,0.012116548605263233,-0.04922518506646156,-0.012245305813848972,0.04617483913898468,0.04819025099277496,-0.6939826011657715,0.33078888058662415,-0.052153900265693665,-0.08859369158744812
1749041779.146326,-5.796544824038641,-2.0078560314574183,1.5035246054278772,-3.1313182316222132,2.985344648361206,4.1534810066223145,0.005177597515285015,0.013803758658468723,0.001475099241361022,0.012301355600357056,-0.04961361363530159,-0.012576853856444359,0.04376954212784767,0.07400263845920563,-0.6762670278549194,0.3352698087692261,-0.07282672822475433,-0.09971001744270325
1749041779.1463656,-5.7965258101569574,-2.007819791833395,1.5035174528705042,-3.1312982044615687,2.9851794242858887,4.153469085693359,0.004955650772899389,0.013783740811049938,0.0016533831367269158,0.012917619198560715,-0.05211706459522247,-0.012650908902287483,0.059100087732076645,0.0780862420797348,-0.6880441308021545,0.33750712871551514,-0.07369329035282135,-0.09051293134689331
1749041779.1464052,-5.796522233878271,-2.0077725849547328,1.503552261983053,-3.131254812280172,2.9850716590881348,4.153472900390625,0.005373109597712755,0.013508791103959084,0.0016409828094765544,0.013469666242599487,-0.05598334223031998,-0.01256171427667141,0.05356616899371147,0.0629844218492508,-0.6764622330665588,0.31696557998657227,-0.07622053474187851,-0.0932401716709137
1749041779.1464434,-5.796521011983053,-2.007775445977682,1.5035255591021937,-3.1312581501402796,2.9849705696105957,4.153410911560059,0.005853286478668451,0.013814762234687805,0.001731643918901682,0.013340022414922714,-0.05795178934931755,-0.012497899122536182,0.06001301482319832,0.047287918627262115,-0.6641345620155334,0.3195265531539917,-0.10021967440843582,-0.11580529808998108
1749041779.1464822,-5.796481672917501,-2.007763525048727,1.5035327116595667,-3.13126864055776,2.9848783016204834,4.15343713760376,0.006883532274514437,0.01430461648851633,0.001784157007932663,0.012452754192054272,-0.06047891080379486,-0.013739144429564476,0.04370841756463051,0.09200167655944824,-0.653114914894104,0.33026784658432007,-0.10331229865550995,-0.11909133195877075
1749041779.1466126,-5.796532873307363,-2.0077086887755335,1.5035761038409632,-3.1311985454955042,2.9847395420074463,4.153397560119629,0.0070678782649338245,0.015374250710010529,0.0019222444389015436,0.012529442086815834,-0.0665835589170456,-0.014994855970144272,0.04846573621034622,0.0852380245923996,-0.649609386920929,0.3415529131889343,-0.09561032056808472,-0.10823334753513336
1749041779.1466684,-5.796447161828176,-2.007664819756979,1.5035484472857874,-3.1311785183348597,2.984623432159424,4.153366565704346,0.006832751911133528,0.015159179456532001,0.0020123892463743687,0.012181507423520088,-0.06733700633049011,-0.015861760824918747,0.044410161674022675,0.08215939998626709,-0.654965877532959,0.3415534496307373,-0.08908414840698242,-0.11274716258049011
1749041779.1467094,-5.796438936387197,-2.007632394830221,1.5035880247699183,-3.131169935266012,2.9844720363616943,4.153388500213623,0.007196349091827869,0.014937211759388447,0.002383433049544692,0.012851092964410782,-0.0684795081615448,-0.01605374924838543,0.08079843968153,0.08413834124803543,-0.6405205130577087,0.34591495990753174,-0.12112157046794891,-0.12328532338142395
1749041779.146748,-5.796438936387197,-2.007632394830221,1.5035880247699183,-3.131169935266012,2.9844720363616943,4.153388500213623,0.007196349091827869,0.014937211759388447,0.002383433049544692,0.012851092964410782,-0.0684795081615448,-0.01605374924838543,0.08079843968153,0.08413834124803543,-0.6405205130577087,0.34591495990753174,-0.12112157046794891,-0.12328532338142395
1749041779.1467862,-5.796453003083364,-2.007576128045553,1.5035722891436976,-3.1311189136900843,2.98418927192688,4.153286457061768,0.008030660450458527,0.01521871704608202,0.002895436715334654,0.013831506483256817,-0.07441401481628418,-0.018472258001565933,0.0609566867351532,0.07989926636219025,-0.6536096930503845,0.3439335823059082,-0.10726922005414963,-0.11387979984283447
1749041779.1468232,-5.796449456607,-2.0075870953001917,1.5036004225360315,-3.131106515923971,2.9840381145477295,4.153297424316406,0.007575551979243755,0.015416563488543034,0.003068219870328903,0.014076970517635345,-0.07654803991317749,-0.018643883988261223,0.07970337569713593,0.0974043533205986,-0.6354928016662598,0.35537606477737427,-0.10342268645763397,-0.14255309104919434
1749041779.1468606,-5.79640302458872,-2.007524629632467,1.503580395375387,-3.1310740909972132,2.983886241912842,4.153226852416992,0.007361546624451876,0.015022655948996544,0.0034080345649272203,0.014598939567804337,-0.07677305489778519,-0.019641313701868057,0.05026032775640488,0.10501620173454285,-0.6370522975921631,0.35979652404785156,-0.12342868745326996,-0.11739861965179443
1749041779.1468976,-5.79640302458872,-2.007524629632467,1.503580395375387,-3.1310740909972132,2.983886241912842,4.153226852416992,0.007361546624451876,0.015022655948996544,0.0034080345649272203,0.014598939567804337,-0.07677305489778519,-0.019641313701868057,0.05026032775640488,0.10501620173454285,-0.6370522975921631,0.35979652404785156,-0.12342868745326996,-0.11739861965179443
1749041779.1469345,-5.796366665755407,-2.0075155697264613,1.5035894552813929,-3.131026407281393,2.9835751056671143,4.153225898742676,0.008095748722553253,0.01527076680213213,0.0038393682334572077,0.014486693777143955,-0.08148641884326935,-0.0194963738322258,0.06822061538696289,0.1053578183054924,-0.6382936835289001,0.38342154026031494,-0.11507318913936615,-0.141392782330513
1749041779.1469715,-5.796358440314428,-2.0074407062926234,1.5036123434649866,-3.1309992275633753,2.9834036827087402,4.1531982421875,0.008058898150920868,0.015957046300172806,0.004284833557903767,0.014978096820414066,-0.08257333189249039,-0.02057318389415741,0.07148680090904236,0.10773911327123642,-0.6341472864151001,0.3852389454841614,-0.10944977402687073,-0.15004536509513855
1749041779.1470087,-5.79636195698847,-2.0074430904784144,1.5036242643939417,-3.130951067010397,2.9832863807678223,4.153127193450928,0.007544850930571556,0.014638756401836872,0.00467750383540988,0.015985557809472084,-0.08398988842964172,-0.022058460861444473,0.07495304942131042,0.12359759211540222,-0.6462064981460571,0.37444087862968445,-0.09608274698257446,-0.14568492770195007
1749041779.147048,-5.796346519385473,-2.0073963604369105,1.5036590735064905,-3.1309153042235316,2.983076572418213,4.153103351593018,0.007498603779822588,0.015102398581802845,0.004942352883517742,0.01599818654358387,-0.08365990221500397,-0.022640516981482506,0.08653521537780762,0.13945843279361725,-0.6354885697364807,0.3775157630443573,-0.09682565182447433,-0.14428085088729858
1749041779.1470876,-5.796285245810644,-2.0073687038817347,1.5036442915545862,-3.1309153042235316,2.982872486114502,4.15306282043457,0.0081543680280447,0.014977429062128067,0.005583505611866713,0.015591686591506004,-0.08436796814203262,-0.02398849092423916,0.06733410060405731,0.14932924509048462,-0.6532553434371948,0.38948410749435425,-0.0922681912779808,-0.13987642526626587
1749041779.1471245,-5.796279881392614,-2.0073515377440394,1.5036757628070276,-3.130882879296774,2.982755422592163,4.153027057647705,0.007104206830263138,0.015238429419696331,0.0053581614047288895,0.015269837342202663,-0.08303145319223404,-0.02333596907556057,0.1083027571439743,0.14106488227844238,-0.6473616361618042,0.37521636486053467,-0.0917787253856659,-0.13170719146728516
1749041779.1473544,-5.796295915042059,-2.0073124370970667,1.5036404768573206,-3.1308208904662074,2.982607841491699,4.153002738952637,0.007200678810477257,0.014459272846579552,0.005275920499116182,0.015446123667061329,-0.08300785720348358,-0.02350420132279396,0.09331968426704407,0.16233497858047485,-0.6614433526992798,0.4036901593208313,-0.07822787761688232,-0.14444957673549652
1749041779.1490653,-5.796302858983175,-2.0072766743102015,1.5036562124835413,-3.1308261356749476,2.9824280738830566,4.152958869934082,0.0075411186553537846,0.014784954488277435,0.004870445467531681,0.0155325997620821,-0.08115391433238983,-0.022509386762976646,0.07898591458797455,0.16737273335456848,-0.6565319299697876,0.4008502960205078,-0.09811824560165405,-0.14520306885242462
1749041779.190272,-5.796302858983175,-2.0072766743102015,1.5036562124835413,-3.1308261356749476,2.9824280738830566,4.152958869934082,0.0075411186553537846,0.014784954488277435,0.004870445467531681,0.0155325997620821,-0.08115391433238983,-0.022509386762976646,0.07898591458797455,0.16737273335456848,-0.6565319299697876,0.4008502960205078,-0.09811824560165405,-0.14520306885242462
1749041779.1903183,-5.796247605477468,-2.007251878777975,1.5037115255938929,-3.1307598553099574,2.9820854663848877,4.152891159057617,0.007460061460733414,0.015271717682480812,0.004567663185298443,0.016452133655548096,-0.08048054575920105,-0.02206440269947052,0.0796804279088974,0.17294879257678986,-0.651049017906189,0.4090147018432617,-0.07466809451580048,-0.17255716025829315
1749041779.190359,-5.796235654746191,-2.007263322869772,1.5037081877337855,-3.1307012043394984,2.981964349746704,4.152851581573486,0.006424922961741686,0.01516776904463768,0.004171144682914019,0.01737586408853531,-0.07743260264396667,-0.021653398871421814,0.06784506887197495,0.1556999683380127,-0.6407680511474609,0.3991217017173767,-0.10015083849430084,-0.14754648506641388
1749041779.190398,-5.796235654746191,-2.007263322869772,1.5037081877337855,-3.1307012043394984,2.981964349746704,4.152851581573486,0.006424922961741686,0.01516776904463768,0.004171144682914019,0.01737586408853531,-0.07743260264396667,-0.021653398871421814,0.06784506887197495,0.1556999683380127,-0.6407680511474609,0.3991217017173767,-0.10015083849430084,-0.14754648506641388
1749041779.1904352,-5.796241615210668,-2.0071755848326625,1.5036924521075647,-3.130648752252096,2.9816415309906006,4.152744770050049,0.006301268003880978,0.01566368341445923,0.0037399702705442905,0.016512608155608177,-0.08011586964130402,-0.021658577024936676,0.09679745137691498,0.18931926786899567,-0.6367396116256714,0.4246535897254944,-0.09005960822105408,-0.18051940202713013
1749041779.1904724,-5.796241615210668,-2.0071755848326625,1.5036924521075647,-3.130648752252096,2.9816415309906006,4.152744770050049,0.006301268003880978,0.01566368341445923,0.0037399702705442905,0.016512608155608177,-0.08011586964130402,-0.021658577024936676,0.09679745137691498,0.18931926786899567,-0.6367396116256714,0.4246535897254944,-0.09005960822105408,-0.18051940202713013
1749041779.19051,-5.796198163424627,-2.0071236095824183,1.5036852995501917,-3.1305767498412074,2.9813177585601807,4.152665138244629,0.005931321531534195,0.016217056661844254,0.0034871473908424377,0.017080243676900864,-0.078489750623703,-0.02134796231985092,0.08787444233894348,0.18417894840240479,-0.6197571158409119,0.39888522028923035,-0.09109391272068024,-0.16757480800151825
1749041779.1905487,-5.79617560306658,-2.007111211816305,1.503723446522848,-3.1305138073363246,2.9811654090881348,4.152632713317871,0.006153411231935024,0.017005162313580513,0.003185721579939127,0.01697680540382862,-0.07900600880384445,-0.021408511325716972,0.0898187905550003,0.21796178817749023,-0.6092286705970764,0.4199509024620056,-0.09065304696559906,-0.17075598239898682
1749041779.1905863,-5.796148184929983,-2.007071157495016,1.5037005583392542,-3.1305209598936976,2.9809939861297607,4.152608871459961,0.005942723713815212,0.017540667206048965,0.0033495451789349318,0.01721259392797947,-0.07926906645298004,-0.021090824156999588,0.0814175009727478,0.18973308801651,-0.6104319095611572,0.4217965602874756,-0.08874166756868362,-0.1768137663602829
1749041779.190624,-5.796198133622305,-2.0070001087584437,1.5037201086627405,-3.1304570637144984,2.980823040008545,4.152532577514648,0.006312977056950331,0.01730225421488285,0.0036517346743494272,0.01774504967033863,-0.08221527189016342,-0.021871237084269524,0.09303471446037292,0.20074692368507385,-0.621017336845398,0.416409432888031,-0.06839490681886673,-0.15828493237495422
1749041779.1906652,-5.796181235705511,-2.006944795648092,1.503716293965475,-3.1304332218565882,2.9806432723999023,4.152501106262207,0.006535954307764769,0.017694072797894478,0.004166207276284695,0.01711326837539673,-0.08017820119857788,-0.021446045488119125,0.09576442092657089,0.20692868530750275,-0.6144819259643555,0.4135773777961731,-0.04648759961128235,-0.16279658675193787
1749041779.190703,-5.796181235705511,-2.006944795648092,1.503716293965475,-3.1304332218565882,2.9806432723999023,4.152501106262207,0.006535954307764769,0.017694072797894478,0.004166207276284695,0.01711326837539673,-0.08017820119857788,-0.021446045488119125,0.09576442092657089,0.20692868530750275,-0.6144819259643555,0.4135773777961731,-0.04648759961128235,-0.16279658675193787
1749041779.1907392,-5.796143982802526,-2.006888528863424,1.5037406126605433,-3.1303893528380335,2.980323076248169,4.152402400970459,0.006236753426492214,0.01740659400820732,0.0044983504340052605,0.016474049538373947,-0.07791461795568466,-0.020914969965815544,0.10029959678649902,0.23453384637832642,-0.6126010417938232,0.42888933420181274,-0.08289562165737152,-0.16504335403442383
1749041779.1907759,-5.796143982802526,-2.006888528863424,1.5037406126605433,-3.1303893528380335,2.980323076248169,4.152402400970459,0.006236753426492214,0.01740659400820732,0.0044983504340052605,0.016474049538373947,-0.07791461795568466,-0.020914969965815544,0.10029959678649902,0.23453384637832642,-0.6126010417938232,0.42888933420181274,-0.08289562165737152,-0.16504335403442383
1749041779.190812,-5.796083782111303,-2.0068632564940394,1.5037644545184534,-3.130310197869772,2.979999303817749,4.152349472045898,0.006502453703433275,0.018540218472480774,0.004272856749594212,0.017632970586419106,-0.08069276064634323,-0.02030854858458042,0.12003308534622192,0.2343420386314392,-0.597072422504425,0.42883771657943726,-0.08781000971794128,-0.1764959692955017
1749041779.1908488,-5.796083782111303,-2.0068632564940394,1.5037644545184534,-3.130310197869772,2.979999303817749,4.152349472045898,0.006502453703433275,0.018540218472480774,0.004272856749594212,0.017632970586419106,-0.08069276064634323,-0.02030854858458042,0.12003308534622192,0.2343420386314392,-0.597072422504425,0.42883771657943726,-0.08781000971794128,-0.1764959692955017
1749041779.1908972,-5.796059940253393,-2.006808420220846,1.5037520567523401,-3.1302935085692347,2.9798717498779297,4.152305603027344,0.0066016316413879395,0.018384845927357674,0.004930819384753704,0.018379200249910355,-0.0807913988828659,-0.020923303440213203,0.10052288323640823,0.24599966406822205,-0.5931772589683533,0.4515068829059601,-0.08290430158376694,-0.19233067333698273
1749041779.1909368,-5.796067033206121,-2.006740232507223,1.5037882963763636,-3.130210062066549,2.9795167446136475,4.152172088623047,0.007155476603657007,0.01992461271584034,0.0057889842428267,0.019020749256014824,-0.08192157745361328,-0.021975567564368248,0.09263662248849869,0.2561175525188446,-0.5956730246543884,0.44062167406082153,-0.10630728304386139,-0.1852681189775467
1749041779.1909785,-5.796000961457388,-2.006700655023092,1.5038111845599573,-3.130158086816305,2.979368209838867,4.1521477699279785,0.007711086422204971,0.02033992111682892,0.005472649820148945,0.019206715747714043,-0.08293330669403076,-0.02281915955245495,0.09206246584653854,0.24594861268997192,-0.6052489876747131,0.4349556863307953,-0.09371431171894073,-0.17636790871620178
1749041779.1910224,-5.796011809502737,-2.0066448650755824,1.5038159529315394,-3.1301070652403773,2.9791972637176514,4.152111530303955,0.007395200431346893,0.02047460898756981,0.005301814991980791,0.01971338503062725,-0.08508481830358505,-0.022395718842744827,0.09334179759025574,0.25957590341567993,-0.6095128059387207,0.43609049916267395,-0.10310035943984985,-0.16864249110221863
1749041779.1911385,-5.796050343905584,-2.006639143029684,1.5038040320025843,-3.130078455010885,2.979033946990967,4.152063846588135,0.0071603162214159966,0.02100321836769581,0.005209627561271191,0.020167412236332893,-0.08554971218109131,-0.022864941507577896,0.1262996345758438,0.2784935235977173,-0.5949462652206421,0.42257434129714966,-0.10934469103813171,-0.1679229587316513
1749041779.1931138,-5.796050343905584,-2.006639143029684,1.5038040320025843,-3.130078455010885,2.979033946990967,4.152063846588135,0.0071603162214159966,0.02100321836769581,0.005209627561271191,0.020167412236332893,-0.08554971218109131,-0.022864941507577896,0.1262996345758438,0.2784935235977173,-0.5949462652206421,0.42257434129714966,-0.10934469103813171,-0.1679229587316513
1749041779.2342892,-5.7959871331798,-2.006523748437399,1.5038240591632288,-3.130002637902731,2.9786624908447266,4.151987075805664,0.008170033805072308,0.02192329429090023,0.00589851476252079,0.020804887637495995,-0.09227095544338226,-0.022682461887598038,0.12941399216651917,0.28036412596702576,-0.5937365889549255,0.4191429615020752,-0.09396134316921234,-0.17890748381614685
1749041779.2343342,-5.7959419826613825,-2.0064689121642054,1.5038169066058558,-3.1299668751158656,2.978475570678711,4.151939392089844,0.007711960468441248,0.022361930459737778,0.006383299361914396,0.020947806537151337,-0.0898360013961792,-0.023245247080922127,0.1166040301322937,0.27608776092529297,-0.5972697138786316,0.4326102137565613,-0.11297690868377686,-0.1667720079421997
1749041779.2343748,-5.795957479869024,-2.0064364872374476,1.503883186970846,-3.129923006097311,2.9783029556274414,4.151915550231934,0.00884869322180748,0.022347910329699516,0.006041191052645445,0.021845640614628792,-0.09407836943864822,-0.022624898701906204,0.12141217291355133,0.29259681701660156,-0.5949233174324036,0.43282753229141235,-0.1326068937778473,-0.18110965192317963
1749041779.234413,-5.795940730963842,-2.0064126453795375,1.5038521925555628,-3.1298934421935023,2.9781222343444824,4.151852607727051,0.008649688214063644,0.02326156757771969,0.005743592046201229,0.021285731345415115,-0.09747713059186935,-0.02401757426559925,0.1199827492237091,0.28549832105636597,-0.5750716924667358,0.43095409870147705,-0.11258331686258316,-0.19090469181537628
1749041779.2344506,-5.7959235350238245,-2.0063559017577113,1.5038636366473597,-3.1298543415465296,2.977928638458252,4.15180778503418,0.009257512167096138,0.023784441873431206,0.005808470770716667,0.021367525681853294,-0.10213851183652878,-0.024393485859036446,0.12975043058395386,0.2672739326953888,-0.5742565393447876,0.4396301209926605,-0.09818053245544434,-0.20254884660243988
1749041779.234488,-5.795923505221502,-2.0062958202757777,1.5038564840899866,-3.129784246484274,2.9777159690856934,4.1517486572265625,0.008766916580498219,0.024192597717046738,0.006352060008794069,0.021187052130699158,-0.09996926039457321,-0.025353005155920982,0.13162650167942047,0.26120537519454956,-0.5752988457679749,0.4448171555995941,-0.10235026478767395,-0.18026256561279297
1749041779.2345357,-5.7958687285529535,-2.0062409840025843,1.5038564840899866,-3.129739900628561,2.9775123596191406,4.151700496673584,0.009306675754487514,0.02506142109632492,0.00651811808347702,0.021196411922574043,-0.10082380473613739,-0.02547142282128334,0.12347028404474258,0.2661397457122803,-0.5664780735969543,0.41652554273605347,-0.11041463166475296,-0.17744016647338867
1749041779.2345772,-5.795880649481909,-2.0062314472594203,1.503899876271383,-3.129688402215475,2.977356433868408,4.151656627655029,0.00911661982536316,0.02422342263162136,0.006130192428827286,0.021591736003756523,-0.10330840200185776,-0.026155540719628334,0.13355977833271027,0.3030390739440918,-0.5871571898460388,0.43713387846946716,-0.1178150475025177,-0.19636520743370056
1749041779.2346156,-5.7958484331714075,-2.006167551080221,1.5039241949664515,-3.129671712914938,2.977109909057617,4.151580810546875,0.008962295018136501,0.024241138249635696,0.0058072214014828205,0.021715179085731506,-0.10586854070425034,-0.02608661539852619,0.13420100510120392,0.32020115852355957,-0.569625735282898,0.43566346168518066,-0.13245363533496857,-0.1659802794456482
1749041779.2346528,-5.7958484331714075,-2.006167551080221,1.5039241949664515,-3.129671712914938,2.977109909057617,4.151580810546875,0.008962295018136501,0.024241138249635696,0.0058072214014828205,0.021715179085731506,-0.10586854070425034,-0.02608661539852619,0.13420100510120392,0.32020115852355957,-0.569625735282898,0.43566346168518066,-0.13245363533496857,-0.1659802794456482
1749041779.23469,-5.7958484331714075,-2.006064554254049,1.5039480368243616,-3.1295720539488734,2.976693868637085,4.151525020599365,0.009411053732037544,0.02642727829515934,0.006187918595969677,0.022712254896759987,-0.10889527201652527,-0.024889275431632996,0.15019014477729797,0.2987838089466095,-0.5667153596878052,0.4425901174545288,-0.1073964312672615,-0.18546518683433533
1749041779.234727,-5.795816246663229,-2.0060130558409632,1.5039094130145472,-3.129540105859274,2.9765093326568604,4.151430606842041,0.009279986843466759,0.02579951472580433,0.006643324159085751,0.02236303873360157,-0.10986147820949554,-0.024130485951900482,0.1417788565158844,0.2812805473804474,-0.5606023073196411,0.44220200181007385,-0.10083897411823273,-0.18316341936588287
1749041779.2347639,-5.795800749455587,-2.0059405765929164,1.5039599577533167,-3.1294733486571253,2.976302146911621,4.151398181915283,0.010404891334474087,0.026575427502393723,0.006311889737844467,0.022172002121806145,-0.11050383001565933,-0.02510550431907177,0.15219496190547943,0.2932776212692261,-0.5822087526321411,0.4431726336479187,-0.10172139108181,-0.18746642768383026
1749041779.2348003,-5.795811418687002,-2.005900045434469,1.5039718786822718,-3.1294061146178187,2.9760401248931885,4.15131950378418,0.009934250265359879,0.027977103367447853,0.006273851729929447,0.022789353504776955,-0.11055079847574234,-0.025153400376439095,0.14015242457389832,0.2732125222682953,-0.563116729259491,0.44985419511795044,-0.1148449182510376,-0.19171631336212158
1749041779.2348373,-5.795811418687002,-2.005900045434469,1.5039718786822718,-3.1294061146178187,2.9760401248931885,4.15131950378418,0.009934250265359879,0.027977103367447853,0.006273851729929447,0.022789353504776955,-0.11055079847574234,-0.025153400376439095,0.14015242457389832,0.2732125222682953,-0.563116729259491,0.44985419511795044,-0.1148449182510376,-0.19171631336212158
1749041779.2348738,-5.795768652354376,-2.0058328113951625,1.5039995352374476,-3.1293775043883265,2.9757845401763916,4.151313781738281,0.009161410853266716,0.027789238840341568,0.006197096314281225,0.023141445592045784,-0.11042850464582443,-0.02587573044002056,0.16397452354431152,0.2787555754184723,-0.5708267688751221,0.4428434371948242,-0.10458922386169434,-0.1975163370370865
1749041779.234913,-5.79573226371874,-2.0057207546629847,1.5040043036090296,-3.1292735538878382,2.9753565788269043,4.151167392730713,0.010425555519759655,0.026042232289910316,0.0065835765562951565,0.023406188935041428,-0.11258172243833542,-0.02659442462027073,0.13710936903953552,0.30692631006240845,-0.5748605728149414,0.42388832569122314,-0.0981413722038269,-0.1994430124759674
1749041779.2349622,-5.795708928500311,-2.005664964715475,1.504042927418844,-3.1292339764037074,2.9751293659210205,4.151119709014893,0.00919526070356369,0.026917990297079086,0.006012410391122103,0.023066435009241104,-0.11332511901855469,-0.027177397161722183,0.14935432374477386,0.2898065745830536,-0.5557215213775635,0.42817598581314087,-0.10560707747936249,-0.19490204751491547
1749041779.2350051,-5.795708898697988,-2.0056163273253382,1.5040562788592737,-3.129205366174215,2.9749205112457275,4.151033878326416,0.009102865122258663,0.027551833540201187,0.005834414158016443,0.02265888825058937,-0.11230910569429398,-0.027375370264053345,0.14086554944515228,0.27972346544265747,-0.5701205730438232,0.4280242323875427,-0.10464274883270264,-0.19396597146987915
1749041779.2350428,-5.795665417109625,-2.005540987054342,1.5040438810931605,-3.1291729412474574,2.9746649265289307,4.1509881019592285,0.009510429576039314,0.02781885489821434,0.006774439476430416,0.022074811160564423,-0.11477045714855194,-0.02875361777842045,0.16932110488414764,0.28552088141441345,-0.5765178799629211,0.44710323214530945,-0.09835128486156464,-0.1788206249475479
1749041779.2351542,-5.795657221470968,-2.0055085621275843,1.5040748755084437,-3.1290985546507777,2.9744532108306885,4.1509599685668945,0.00958723109215498,0.028311658650636673,0.007097639609128237,0.02231745235621929,-0.11350142955780029,-0.027388405054807663,0.13689589500427246,0.2854323387145996,-0.5755788087844849,0.4311829209327698,-0.09690999984741211,-0.18926255404949188
1749041779.2370362,-5.79566073814501,-2.00543274501943,1.504052464162008,-3.129073759118551,2.974229335784912,4.150916576385498,0.00971363764256239,0.02808472141623497,0.006893349811434746,0.022187761962413788,-0.11350715905427933,-0.027614565566182137,0.15224425494670868,0.28089749813079834,-0.5759022831916809,0.45118099451065063,-0.09588193893432617,-0.18242613971233368
1749041779.2785788,-5.795597616826193,-2.0054079494872035,1.504092041646139,-3.129026075402731,2.9739673137664795,4.150856971740723,0.00968807190656662,0.028306087478995323,0.006328934337943792,0.022641783580183983,-0.11436214298009872,-0.026882419362664223,0.17556770145893097,0.32288864254951477,-0.5846987366676331,0.43452849984169006,-0.12056170403957367,-0.1933753788471222
1749041779.2786663,-5.795585695897238,-2.005324979821676,1.5041230360614222,-3.1289903126158656,2.9737582206726074,4.150777816772461,0.009269346483051777,0.02833462692797184,0.0062229749746620655,0.02303328365087509,-0.11781981587409973,-0.02791406586766243,0.16536185145378113,0.29790401458740234,-0.549737274646759,0.46390312910079956,-0.07139572501182556,-0.18887966871261597
1749041779.2787404,-5.7955660859691065,-2.005296846429342,1.504092041646139,-3.1289264164366664,2.9735000133514404,4.150737285614014,0.008991536684334278,0.0286900382488966,0.006904250476509333,0.022865641862154007,-0.11322145909070969,-0.02737700566649437,0.17570850253105164,0.3178742527961731,-0.5723028779029846,0.44706493616104126,-0.0781862661242485,-0.19182033836841583
1749041779.278812,-5.795573298131124,-2.0052362881102503,1.5040963331805628,-3.1289097271361292,2.973334550857544,4.150689601898193,0.009043724276125431,0.02925589308142662,0.006613478064537048,0.023839347064495087,-0.11326349526643753,-0.028758589178323746,0.18432238698005676,0.3148503303527832,-0.570730984210968,0.4437333345413208,-0.1158066987991333,-0.20022612810134888
1749041779.2788823,-5.795503501092092,-2.0052038631834925,1.5041278044330042,-3.1288467846312464,2.97309947013855,4.150638580322266,0.009528374299407005,0.029746264219284058,0.006405804306268692,0.024526260793209076,-0.1146799698472023,-0.02854239195585251,0.18688255548477173,0.3282100260257721,-0.5673375725746155,0.4517713487148285,-0.10446164757013321,-0.19753101468086243
1749041779.2789545,-5.795503501092092,-2.0052038631834925,1.5041278044330042,-3.1288467846312464,2.97309947013855,4.150638580322266,0.009528374299407005,0.029746264219284058,0.006405804306268692,0.024526260793209076,-0.1146799698472023,-0.02854239195585251,0.18688255548477173,0.3282100260257721,-0.5673375725746155,0.4517713487148285,-0.10446164757013321,-0.19753101468086243
1749041779.2790232,-5.795482609664099,-2.005033155480856,1.504167381917135,-3.1286808453001917,2.9726293087005615,4.150541305541992,0.010781805031001568,0.030262893065810204,0.006657799705862999,0.025319591164588928,-0.11860260367393494,-0.029034392908215523,0.16990603506565094,0.31042003631591797,-0.5505140423774719,0.4360334277153015,-0.11677651107311249,-0.2043112814426422
1749041779.2790942,-5.795443419610159,-2.0049926243224085,1.5041640440570276,-3.1286527119078578,2.9723851680755615,4.150462627410889,0.010172905400395393,0.030805788934230804,0.006870580837130547,0.02563396841287613,-0.11830975860357285,-0.030016519129276276,0.18275004625320435,0.2956256866455078,-0.5696126222610474,0.4516046643257141,-0.10675528645515442,-0.19242754578590393
1749041779.2791636,-5.795485023652212,-2.0049520931639613,1.504160229359762,-3.1286002598204554,2.9721455574035645,4.1503753662109375,0.010352137498557568,0.030898895114660263,0.007217994891107082,0.025316627696156502,-0.1217266097664833,-0.029363933950662613,0.15185193717479706,0.29551732540130615,-0.5573672652244568,0.4385237693786621,-0.11529571563005447,-0.2000034749507904
1749041779.2792327,-5.795438621436254,-2.00490727047109,1.504172150288717,-3.1285492382445277,2.9719302654266357,4.150338172912598,0.010234030894935131,0.031180089339613914,0.006468574982136488,0.02477537840604782,-0.12293846160173416,-0.030100705102086067,0.17439010739326477,0.29553961753845215,-0.5480014085769653,0.44950544834136963,-0.09988053143024445,-0.19539371132850647
1749041779.2793002,-5.795400563870565,-2.0048123798766078,1.5041912237750452,-3.1285044155516566,2.971694231033325,4.150290489196777,0.010240563191473484,0.031376004219055176,0.006601263768970966,0.02518114075064659,-0.12203171104192734,-0.029397370293736458,0.19145499169826508,0.2993050217628479,-0.5633972883224487,0.43777382373809814,-0.1276882439851761,-0.18299564719200134
1749041779.2793672,-5.795400563870565,-2.0048123798766078,1.5041912237750452,-3.1285044155516566,2.971694231033325,4.150290489196777,0.010240563191473484,0.031376004219055176,0.006601263768970966,0.02518114075064659,-0.12203171104192734,-0.029397370293736458,0.19145499169826508,0.2993050217628479,-0.5633972883224487,0.43777382373809814,-0.1276882439851761,-0.18299564719200134
1749041779.2794337,-5.795379016791479,-2.004711767236227,1.5042274633990687,-3.128409048120016,2.9711384773254395,4.150155544281006,0.010375438258051872,0.03145107626914978,0.007581713143736124,0.02522432990372181,-0.12915275990962982,-0.029809946194291115,0.19101622700691223,0.31038182973861694,-0.5565388202667236,0.44278067350387573,-0.10685081779956818,-0.1866634041070938
1749041779.2794998,-5.795379016791479,-2.004711767236227,1.5042274633990687,-3.128409048120016,2.9711384773254395,4.150155544281006,0.010375438258051872,0.03145107626914978,0.007581713143736124,0.02522432990372181,-0.12915275990962982,-0.029809946194291115,0.19101622700691223,0.31038182973861694,-0.5565388202667236,0.44278067350387573,-0.10685081779956818,-0.1866634041070938
1749041779.279566,-5.795331333075659,-2.0045834980406703,1.5042479673968714,-3.1283165417113246,2.9706711769104004,4.150020122528076,0.0111752450466156,0.032540176063776016,0.006820298731327057,0.02621304616332054,-0.12893794476985931,-0.029553432017564774,0.1981050670146942,0.3149881660938263,-0.532461941242218,0.4517660439014435,-0.13809317350387573,-0.2026359885931015
1749041779.2796323,-5.795342091714041,-2.0045281849303187,1.5042441526996058,-3.128256937066549,2.9703969955444336,4.149991989135742,0.010976512916386127,0.032950229942798615,0.007643287535756826,0.026435161009430885,-0.1313084363937378,-0.0304886382073164,0.18205612897872925,0.3109174072742462,-0.5424638390541077,0.45456066727638245,-0.1505771428346634,-0.19498291611671448
1749041779.279698,-5.795337382947103,-2.004416605035299,1.5042598883258265,-3.1282130680479945,2.9701244831085205,4.14988899230957,0.010574969463050365,0.032305166125297546,0.00847660657018423,0.026705661788582802,-0.13390174508094788,-0.031184975057840347,0.18665528297424316,0.3397403657436371,-0.5498424172401428,0.45677196979522705,-0.13282182812690735,-0.20198243856430054
1749041779.2797656,-5.795229081307546,-2.0043722591795863,1.5042522589312952,-3.1281491718687953,2.9698193073272705,4.149847984313965,0.010839046910405159,0.03430689498782158,0.008508078753948212,0.026837820187211037,-0.13578011095523834,-0.032745182514190674,0.19329194724559784,0.29722729325294495,-0.5515778660774231,0.46534833312034607,-0.12106239795684814,-0.19145983457565308
1749041779.2798328,-5.795248035584585,-2.0043240986266078,1.504291836415426,-3.1280862293639125,2.9695897102355957,4.1498003005981445,0.010875070467591286,0.03516654297709465,0.007611486129462719,0.026432376354932785,-0.13712285459041595,-0.03351672738790512,0.19684188067913055,0.29133903980255127,-0.5407347679138184,0.466696560382843,-0.11330308020114899,-0.18304099142551422
1749041779.279899,-5.795248035584585,-2.0043240986266078,1.504291836415426,-3.1280862293639125,2.9695897102355957,4.1498003005981445,0.010875070467591286,0.03516654297709465,0.007611486129462719,0.026432376354932785,-0.13712285459041595,-0.03351672738790512,0.19684188067913055,0.29133903980255127,-0.5407347679138184,0.466696560382843,-0.11330308020114899,-0.18304099142551422
1749041779.2800677,-5.795220498238699,-2.004275461236471,1.504272762929098,-3.128050466577047,2.9692797660827637,4.149675369262695,0.011623818427324295,0.033836789429187775,0.007566670421510935,0.027159441262483597,-0.13760225474834442,-0.032696161419153214,0.17385664582252502,0.3338737487792969,-0.5354253053665161,0.46570754051208496,-0.09625840187072754,-0.2039734125137329
1749041779.2810571,-5.795160416756765,-2.0041009388365687,1.5043161551104944,-3.1279307804503382,2.968691349029541,4.149582386016846,0.010598388500511646,0.034639135003089905,0.008005579933524132,0.02850809134542942,-0.13921019434928894,-0.03366784006357193,0.1752811074256897,0.3196449875831604,-0.5496420860290527,0.4763121008872986,-0.12565648555755615,-0.17669668793678284
1749041779.322274,-5.795144919549124,-2.004051824609274,1.5043399969684046,-3.1278897724547328,2.9684078693389893,4.149510383605957,0.012194938026368618,0.034705210477113724,0.00820465013384819,0.02867281250655651,-0.14037594199180603,-0.034606002271175385,0.18435457348823547,0.30662891268730164,-0.5219994783401489,0.4781966209411621,-0.130062997341156,-0.19427622854709625
1749041779.3223183,-5.795159165059225,-2.0039483509459437,1.5043557325946253,-3.1278144321837367,2.96812105178833,4.1494035720825195,0.011426858603954315,0.03499114513397217,0.007971733808517456,0.029378389939665794,-0.141999289393425,-0.03541744500398636,0.1873854398727417,0.33328017592430115,-0.5328012108802795,0.47712376713752747,-0.13621889054775238,-0.1891595870256424
1749041779.3223581,-5.795159165059225,-2.0039483509459437,1.5043557325946253,-3.1278144321837367,2.96812105178833,4.1494035720825195,0.011426858603954315,0.03499114513397217,0.007971733808517456,0.029378389939665794,-0.141999289393425,-0.03541744500398636,0.1873854398727417,0.33328017592430115,-0.5328012108802795,0.47712376713752747,-0.13621889054775238,-0.1891595870256424
1749041779.3223963,-5.795097265635626,-2.0038496456541957,1.5043829123126429,-3.1277510128416957,2.9678220748901367,4.149370193481445,0.011323903687298298,0.03699856624007225,0.008551047183573246,0.02930869534611702,-0.14180387556552887,-0.03509753197431564,0.21540233492851257,0.32016873359680176,-0.5456323027610779,0.4714047312736511,-0.15957702696323395,-0.1747054159641266
1749041779.3224332,-5.795092437659399,-2.003725667993063,1.5044239203082483,-3.127631803552145,2.9672443866729736,4.1492438316345215,0.011055770330131054,0.03523789718747139,0.008649917319417,0.030238691717386246,-0.14663052558898926,-0.03571206331253052,0.22429031133651733,0.35276108980178833,-0.5464448928833008,0.47264862060546875,-0.13273970782756805,-0.2033989429473877
1749041779.3224707,-5.7950947026359,-2.0036493740477503,1.504481617604391,-3.127556940118307,2.966956615447998,4.14915657043457,0.012053714133799076,0.035035837441682816,0.008575881831347942,0.031367041170597076,-0.14787273108959198,-0.03603719547390938,0.21308746933937073,0.3485255539417267,-0.5358731150627136,0.49140453338623047,-0.15389713644981384,-0.2147614061832428
1749041779.3225093,-5.79504827061762,-2.0036126575865687,1.5044596830951136,-3.1274968586363734,2.9666502475738525,4.149065971374512,0.012539739720523357,0.0368153415620327,0.008115229196846485,0.031665075570344925,-0.15368498861789703,-0.03738660737872124,0.17692309617996216,0.34379857778549194,-0.5319250226020813,0.4721141755580902,-0.11943390220403671,-0.1907375305891037
1749041779.3225467,-5.795000139866964,-2.003552576104635,1.5044439474688929,-3.127440115014547,2.9663658142089844,4.149016857147217,0.012425333261489868,0.037359774112701416,0.007449560798704624,0.03226596117019653,-0.15233899652957916,-0.038218844681978226,0.21840037405490875,0.3574601709842682,-0.5220572352409363,0.47754108905792236,-0.13380032777786255,-0.1973419189453125
1749041779.3225842,-5.794957284127371,-2.00350346187734,1.5044878164874476,-3.127371927300924,2.966062307357788,4.148936748504639,0.012752478942275047,0.0370534211397171,0.007997415959835052,0.0330151803791523,-0.15310423076152802,-0.03914995118975639,0.19881989061832428,0.32075145840644836,-0.5242186188697815,0.47434374690055847,-0.13021929562091827,-0.17766430974006653
1749041779.3226213,-5.79494953552355,-2.003364702264303,1.504495922719137,-3.1273280582823695,2.965721607208252,4.148849010467529,0.012240218929946423,0.03653368726372719,0.007974835112690926,0.03296153247356415,-0.15287020802497864,-0.039014678448438644,0.21651166677474976,0.3496348261833191,-0.5356268882751465,0.4780597686767578,-0.1518433839082718,-0.183281809091568
1749041779.3226576,-5.794940535222189,-2.0032807789244593,1.5045269171344202,-3.1272179088988246,2.9654300212860107,4.148765563964844,0.013126607984304428,0.037460509687662125,0.0076869577169418335,0.03498222306370735,-0.15235741436481476,-0.03846108168363571,0.21832343935966492,0.3377695083618164,-0.5223585367202759,0.4460350275039673,-0.1508001834154129,-0.1923830211162567
1749041779.3226938,-5.794901225958959,-2.0032526455321253,1.5045393149005335,-3.1271807156004847,2.9650754928588867,4.148694038391113,0.012221266515552998,0.03808173909783363,0.007768451701849699,0.0340578518807888,-0.15817968547344208,-0.038509875535964966,0.21341732144355774,0.32595598697662354,-0.5263116955757141,0.4630240499973297,-0.13085706532001495,-0.16985338926315308
1749041779.32273,-5.794852975999014,-2.0031806431212367,1.5045159498797815,-3.1271125278868617,2.964780330657959,4.14860725402832,0.011998114176094532,0.0382448248565197,0.008172539062798023,0.03335586190223694,-0.1565561592578888,-0.039265673607587814,0.23188269138336182,0.3404935896396637,-0.5204422473907471,0.4571757912635803,-0.14527590572834015,-0.1835595965385437
1749041779.3227668,-5.794852975999014,-2.0031806431212367,1.5045159498797815,-3.1271125278868617,2.964780330657959,4.14860725402832,0.011998114176094532,0.0382448248565197,0.008172539062798023,0.03335586190223694,-0.1565561592578888,-0.039265673607587814,0.23188269138336182,0.3404935896396637,-0.5204422473907471,0.4571757912635803,-0.14527590572834015,-0.1835595965385437
1749041779.322803,-5.794841144477026,-2.0030089817442835,1.5045598188983362,-3.126946588555807,2.964158058166504,4.14846658706665,0.012639624997973442,0.038859762251377106,0.008188524283468723,0.032225579023361206,-0.16122372448444366,-0.03749358654022217,0.21847116947174072,0.3513902425765991,-0.5258063077926636,0.46706119179725647,-0.11591736972332001,-0.1795005202293396
1749041779.3228395,-5.794790569935934,-2.002944131890768,1.5045798460589808,-3.1268869839110316,2.963773488998413,4.148414611816406,0.013218882493674755,0.03896935656666756,0.008720087818801403,0.032471563667058945,-0.16049711406230927,-0.0379788838326931,0.21499383449554443,0.30758535861968994,-0.5232352018356323,0.4846329689025879,-0.15362927317619324,-0.18146485090255737
1749041779.3228967,-5.79477504292597,-2.0028449497618617,1.5046146551715296,-3.126857896844381,2.9634346961975098,4.148327350616455,0.012912498787045479,0.03846462815999985,0.008441110141575336,0.03298908472061157,-0.16232380270957947,-0.037411391735076904,0.22820186614990234,0.3427940011024475,-0.5195941925048828,0.47839096188545227,-0.11811513453722,-0.19545702636241913
1749041779.3229673,-5.794766549264089,-2.002796789208883,1.5046199003802698,-3.126751562158102,2.9631357192993164,4.1482672691345215,0.013795878738164902,0.03965921700000763,0.008275835774838924,0.03397062048316002,-0.1647968292236328,-0.038374967873096466,0.22786247730255127,0.33162638545036316,-0.5121230483055115,0.4870647192001343,-0.13805878162384033,-0.18489818274974823
1749041779.3230164,-5.7947112063514155,-2.0027195415892542,1.504638973866598,-3.126702447930807,2.962782144546509,4.148140907287598,0.013552545569837093,0.039858344942331314,0.007838783785700798,0.034939613193273544,-0.16527168452739716,-0.039534538984298706,0.21742624044418335,0.32778435945510864,-0.5140219330787659,0.4644891023635864,-0.11983668804168701,-0.1971130669116974
1749041779.3230555,-5.794740949069158,-2.002639432946676,1.5046208540545862,-3.126627107659811,2.9624881744384766,4.14810037612915,0.0140551021322608,0.03979746252298355,0.008189755491912365,0.034822866320610046,-0.16606517136096954,-0.03858030587434769,0.2094177007675171,0.335635244846344,-0.5179001688957214,0.4550817310810089,-0.09123481065034866,-0.2070828378200531
1749041779.3231592,-5.794739876185552,-2.0025373897948207,1.5046675840960901,-3.1265675030150355,2.9621381759643555,4.147994041442871,0.013548754155635834,0.03997071459889412,0.00887320376932621,0.03540537506341934,-0.16388490796089172,-0.03844517096877098,0.22334381937980652,0.32924413681030273,-0.5122300982475281,0.4669790267944336,-0.10731905698776245,-0.19435182213783264
1749041779.325064,-5.794739876185552,-2.0025373897948207,1.5046675840960901,-3.1265675030150355,2.9621381759643555,4.147994041442871,0.013548754155635834,0.03997071459889412,0.00887320376932621,0.03540537506341934,-0.16388490796089172,-0.03844517096877098,0.22334381937980652,0.32924413681030273,-0.5122300982475281,0.4669790267944336,-0.10731905698776245,-0.19435182213783264
1749041779.3662708,-5.794626567755834,-2.0023495159544886,1.5046756903277796,-3.126439233819479,2.961461067199707,4.14784574508667,0.013592339120805264,0.04057709872722626,0.008738561533391476,0.03707893192768097,-0.16284318268299103,-0.03870133310556412,0.21874752640724182,0.33813172578811646,-0.505449652671814,0.4574023187160492,-0.14241459965705872,-0.21765580773353577
1749041779.3663166,-5.794595632945196,-2.0023118458189906,1.504719082509176,-3.1263486347594203,2.9611642360687256,4.147754669189453,0.014410319738090038,0.040776148438453674,0.00872085615992546,0.037008438259363174,-0.1645708978176117,-0.03930728882551193,0.22453999519348145,0.33199217915534973,-0.5168348550796509,0.462677538394928,-0.13138605654239655,-0.1868981122970581
1749041779.3663583,-5.794590775166647,-2.00221647838735,1.504723850880758,-3.1262766323485316,2.9608449935913086,4.147677898406982,0.014175339601933956,0.04256521537899971,0.008634969592094421,0.036723218858242035,-0.16491015255451202,-0.03976302593946457,0.22098878026008606,0.3007650077342987,-0.5197714567184448,0.4638233482837677,-0.16031357645988464,-0.1968052089214325
1749041779.3663976,-5.794590775166647,-2.00221647838735,1.504723850880758,-3.1262766323485316,2.9608449935913086,4.147677898406982,0.014175339601933956,0.04256521537899971,0.008634969592094421,0.036723218858242035,-0.16491015255451202,-0.03976302593946457,0.22098878026008606,0.3007650077342987,-0.5197714567184448,0.4638233482837677,-0.16031357645988464,-0.1968052089214325
1749041779.3664353,-5.7945342699634,-2.0020648441710414,1.5047515074359339,-3.12611784557485,2.9601120948791504,4.147531509399414,0.013698512688279152,0.04028939828276634,0.008956900797784328,0.03583581745624542,-0.16858431696891785,-0.03891428932547569,0.2553451657295227,0.33792489767074585,-0.4969888925552368,0.4585067927837372,-0.13043886423110962,-0.19493818283081055
1749041779.3664734,-5.794486586247579,-2.0019685230650843,1.5047596136676233,-3.1260739765562953,2.9597995281219482,4.147450923919678,0.014465785585343838,0.04131513088941574,0.009033172391355038,0.03511911630630493,-0.17284294962882996,-0.04029292240738869,0.21780884265899658,0.33420729637145996,-0.5091329216957092,0.4686410129070282,-0.11802607029676437,-0.21018508076667786
1749041779.3665109,-5.79444727698435,-2.001880785027975,1.5047839323626917,-3.125998159448141,2.959418296813965,4.147383213043213,0.013655176386237144,0.04130559414625168,0.008844181895256042,0.035344913601875305,-0.16957418620586395,-0.04022441431879997,0.19557423889636993,0.3313289284706116,-0.5007749199867249,0.48182111978530884,-0.14427582919597626,-0.2155599445104599
1749041779.3665485,-5.794466290866033,-2.0018087826170863,1.5048115889178675,-3.1259457073607386,2.9591293334960938,4.147273540496826,0.014077337458729744,0.04321281611919403,0.009131766855716705,0.03582724183797836,-0.17067083716392517,-0.04037543013691902,0.24054193496704102,0.3204854130744934,-0.5003696084022522,0.49243980646133423,-0.1416621208190918,-0.23041006922721863
1749041779.366586,-5.79439896741976,-2.0016776523985804,1.504838768635885,-3.125892778436178,2.9587483406066895,4.147216320037842,0.014094552025198936,0.043398261070251465,0.009752621874213219,0.03762911632657051,-0.17223913967609406,-0.041482310742139816,0.24036681652069092,0.3090139627456665,-0.5071201324462891,0.4583474397659302,-0.13325011730194092,-0.21909202635288239
1749041779.366623,-5.79435977736582,-2.001644273797506,1.504831616078512,-3.1257902584471644,2.9584319591522217,4.147101402282715,0.014469114132225513,0.04171700030565262,0.009303710423409939,0.03771992027759552,-0.1714911162853241,-0.04179099574685097,0.2371462732553482,0.3141440153121948,-0.49865293502807617,0.46802976727485657,-0.1398327350616455,-0.20426180958747864
1749041779.3666596,-5.79436690012087,-2.0015293560423792,1.5048678557025355,-3.1257182560362757,2.958057403564453,4.147040843963623,0.014349660836160183,0.042023953050374985,0.009800756350159645,0.03728387877345085,-0.17658424377441406,-0.041405197232961655,0.23480267822742462,0.35643163323402405,-0.5024181604385376,0.47003477811813354,-0.1334676891565323,-0.2115590125322342
1749041779.3666964,-5.794308457766668,-2.0014454327025355,1.5048955122577112,-3.12563480953359,2.9576876163482666,4.146961212158203,0.014697965234518051,0.04270891472697258,0.009539567865431309,0.0374535396695137,-0.17241506278514862,-0.04301855340600014,0.23543386161327362,0.32040631771087646,-0.5012107491493225,0.46696850657463074,-0.18455743789672852,-0.2166341096162796
1749041779.3667333,-5.794291857873098,-2.0013615093626917,1.5049036184894007,-3.125547548333639,2.9573605060577393,4.14686918258667,0.014671904034912586,0.043125465512275696,0.009365956299006939,0.03673791512846947,-0.17431645095348358,-0.04353330656886101,0.24695047736167908,0.33804523944854736,-0.4962966740131378,0.4745205044746399,-0.17834961414337158,-0.19776934385299683
1749041779.3667707,-5.794291828070776,-2.0012999973692835,1.5049193541156214,-3.125472208062643,2.957036018371582,4.1467509269714355,0.015138668939471245,0.04276755452156067,0.00959236454218626,0.03669086843729019,-0.1779666543006897,-0.04356319084763527,0.2727098762989044,0.3544367551803589,-0.49615129828453064,0.4690490961074829,-0.14074264466762543,-0.22576965391635895
1749041779.3668084,-5.794201318417684,-2.001181264916891,1.5049517790423792,-3.1254006824889125,2.9566473960876465,4.14668607711792,0.015209292061626911,0.043373070657253265,0.009581186808645725,0.03827406093478203,-0.17890901863574982,-0.043900229036808014,0.2382006198167801,0.3232882022857666,-0.49993133544921875,0.4796684682369232,-0.19630806148052216,-0.22384056448936462
1749041779.3668451,-5.794201318417684,-2.001181264916891,1.5049517790423792,-3.1254006824889125,2.9566473960876465,4.14668607711792,0.015209292061626911,0.043373070657253265,0.009581186808645725,0.03827406093478203,-0.17890901863574982,-0.043900229036808014,0.2382006198167801,0.3232882022857666,-0.49993133544921875,0.4796684682369232,-0.19630806148052216,-0.22384056448936462
1749041779.3668823,-5.794180963431494,-2.001016756097311,1.5049479643451136,-3.125232835809225,2.955909490585327,4.146484851837158,0.014907324686646461,0.043790947645902634,0.008777034468948841,0.038569990545511246,-0.18514534831047058,-0.04524282366037369,0.24697190523147583,0.3366309404373169,-0.5081592202186584,0.4598844647407532,-0.17194460332393646,-0.22879183292388916
1749041779.36692,-5.794180963431494,-2.001016756097311,1.5049479643451136,-3.125232835809225,2.955909490585327,4.146484851837158,0.014907324686646461,0.043790947645902634,0.008777034468948841,0.038569990545511246,-0.18514534831047058,-0.04524282366037369,0.24697190523147583,0.3366309404373169,-0.5081592202186584,0.4598844647407532,-0.17194460332393646,-0.22879183292388916
1749041779.3669565,-5.7941434423076075,-2.000829359094137,1.5049994627581995,-3.1250931225218714,2.955167531967163,4.146327972412109,0.015412070788443089,0.044152069836854935,0.009419681504368782,0.039579953998327255,-0.18881268799304962,-0.04631659388542175,0.23897230625152588,0.35227879881858826,-0.4952092170715332,0.4703271687030792,-0.1505340039730072,-0.20575189590454102
1749041779.3669932,-5.794076774512426,-2.0007406673827113,1.505030934010641,-3.1250130138792933,2.9548120498657227,4.146252632141113,0.015904072672128677,0.04376576840877533,0.009588134475052357,0.03949129208922386,-0.18941666185855865,-0.04679426923394203,0.25851351022720337,0.3371661901473999,-0.4913938045501709,0.46704962849617004,-0.1820356547832489,-0.22330036759376526
1749041779.3670974,-5.794076774512426,-2.0007406673827113,1.505030934010641,-3.1250130138792933,2.9548120498657227,4.146252632141113,0.015904072672128677,0.04376576840877533,0.009588134475052357,0.03949129208922386,-0.18941666185855865,-0.04679426923394203,0.25851351022720337,0.3371661901473999,-0.4913938045501709,0.46704962849617004,-0.1820356547832489,-0.22330036759376526
1749041779.3690512,-5.794013623391287,-2.0006123981871546,1.505047623311178,-3.1248537502684535,2.9540395736694336,4.146065711975098,0.0157778337597847,0.04580602049827576,0.009654071182012558,0.0397021509706974,-0.1925927698612213,-0.047851771116256714,0.2772032618522644,0.33117371797561646,-0.4809887409210205,0.47674208879470825,-0.19548602402210236,-0.21783840656280518
1749041779.4103162,-5.7940242926227015,-2.0005046329894007,1.5050714651690882,-3.1247650585570277,2.9536051750183105,4.1459150314331055,0.01586737111210823,0.046308234333992004,0.010089760646224022,0.039380744099617004,-0.1983281672000885,-0.04956837370991707,0.2539486289024353,0.3397690951824188,-0.503162145614624,0.45966288447380066,-0.1578541249036789,-0.20801416039466858
1749041779.4103854,-5.7940242926227015,-2.0005046329894007,1.5050714651690882,-3.1247650585570277,2.9536051750183105,4.1459150314331055,0.01586737111210823,0.046308234333992004,0.010089760646224022,0.039380744099617004,-0.1983281672000885,-0.04956837370991707,0.2539486289024353,0.3397690951824188,-0.503162145614624,0.45966288447380066,-0.1578541249036789,-0.20801416039466858
1749041779.4104357,-5.793948713933126,-2.000312944451803,1.505103890095846,-3.124618192712301,2.952855348587036,4.145747661590576,0.016639331355690956,0.047000229358673096,0.009745762683451176,0.03999719023704529,-0.2065783441066742,-0.04941588267683983,0.24144673347473145,0.33699312806129456,-0.48222458362579346,0.4715619385242462,-0.1480293720960617,-0.20136046409606934
1749041779.4104762,-5.793948713933126,-2.000312944451803,1.505103890095846,-3.124618192712301,2.952855348587036,4.145747661590576,0.016639331355690956,0.047000229358673096,0.009745762683451176,0.03999719023704529,-0.2065783441066742,-0.04941588267683983,0.24144673347473145,0.33699312806129456,-0.48222458362579346,0.4715619385242462,-0.1480293720960617,-0.20136046409606934
1749041779.4105158,-5.793834332619802,-2.0000978908934535,1.5051592032061976,-3.124447008172506,2.9520275592803955,4.14558219909668,0.0170822162181139,0.04732872173190117,0.010991867631673813,0.04060092195868492,-0.21021799743175507,-0.04832543805241585,0.23601019382476807,0.3311370313167572,-0.5033235549926758,0.47703975439071655,-0.12711364030838013,-0.2075294703245163
1749041779.4105544,-5.79380697408785,-2.000012537042135,1.5051987806903284,-3.1243983707823695,2.951639175415039,4.145471096038818,0.016259772703051567,0.047693271189928055,0.010075287893414497,0.04145684093236923,-0.20967580378055573,-0.048910003155469894,0.2749418616294861,0.3330116868019104,-0.4899662733078003,0.4911661744117737,-0.13407739996910095,-0.22135314345359802
1749041779.4105918,-5.79380697408785,-2.000012537042135,1.5051987806903284,-3.1243983707823695,2.951639175415039,4.145471096038818,0.016259772703051567,0.047693271189928055,0.010075287893414497,0.04145684093236923,-0.20967580378055573,-0.048910003155469894,0.2749418616294861,0.3330116868019104,-0.4899662733078003,0.4911661744117737,-0.13407739996910095,-0.22135314345359802
1749041779.410629,-5.793727074061529,-1.9998208485045375,1.5052345434771937,-3.124195714990133,2.9507977962493896,4.145229816436768,0.01737157814204693,0.04996548965573311,0.010591823607683182,0.0411960668861866,-0.2069758027791977,-0.050713274627923965,0.2634478807449341,0.32679319381713867,-0.49549591541290283,0.48936349153518677,-0.17731334269046783,-0.21256527304649353
1749041779.4106667,-5.793725762759344,-1.9997645817198695,1.5052550474749964,-3.1241122684874476,2.950333595275879,4.145134449005127,0.01732376031577587,0.050933413207530975,0.010640233755111694,0.041273314505815506,-0.2098088264465332,-0.0519561767578125,0.2489416003227234,0.27499818801879883,-0.48690444231033325,0.49250471591949463,-0.18169695138931274,-0.20604601502418518
1749041779.4107041,-5.79365969101061,-1.9995933971800746,1.5052512327777308,-3.1239973507323207,2.949951648712158,4.145009994506836,0.017475463449954987,0.04874419793486595,0.010135593824088573,0.042893096804618835,-0.21100834012031555,-0.053745485842227936,0.2645779252052307,0.33351635932922363,-0.48426878452301025,0.4986438453197479,-0.17120148241519928,-0.1937008649110794
1749041779.4107413,-5.793653790150778,-1.9995013676085414,1.5052674452411097,-3.1239177189269007,2.949491262435913,4.144935131072998,0.01689399778842926,0.050575412809848785,0.009881029836833477,0.04306166619062424,-0.21560144424438477,-0.05377180129289627,0.2778993248939514,0.3238969147205353,-0.48848414421081543,0.49128609895706177,-0.17043161392211914,-0.1846742331981659
1749041779.4107864,-5.793653790150778,-1.9995013676085414,1.5052674452411097,-3.1239177189269007,2.949491262435913,4.144935131072998,0.01689399778842926,0.050575412809848785,0.009881029836833477,0.04306166619062424,-0.21560144424438477,-0.05377180129289627,0.2778993248939514,0.3238969147205353,-0.48848414421081543,0.49128609895706177,-0.17043161392211914,-0.1846742331981659
1749041779.4108508,-5.793603006993429,-1.9993053875365199,1.505303208027975,-3.1237498722472132,2.948621988296509,4.144739151000977,0.017219243571162224,0.050618309527635574,0.010429526679217815,0.04348149523139,-0.21868155896663666,-0.049656517803668976,0.2772158980369568,0.29203563928604126,-0.49138468503952026,0.5113716721534729,-0.12585347890853882,-0.20659182965755463
1749041779.4109113,-5.793603006993429,-1.9993053875365199,1.505303208027975,-3.1237498722472132,2.948621988296509,4.144739151000977,0.017219243571162224,0.050618309527635574,0.010429526679217815,0.04348149523139,-0.21868155896663666,-0.049656517803668976,0.2772158980369568,0.29203563928604126,-0.49138468503952026,0.5113716721534729,-0.12585347890853882,-0.20659182965755463
1749041779.410972,-5.793551299964086,-1.9992362461485804,1.5053423086749476,-3.1237007580199183,2.9481823444366455,4.144655227661133,0.01771574281156063,0.04985782876610756,0.010298244655132294,0.04452146962285042,-0.21722392737865448,-0.05051754415035248,0.27774202823638916,0.3151520788669586,-0.47627484798431396,0.5045627951622009,-0.1402948498725891,-0.21728099882602692
1749041779.411035,-5.7934525350676935,-1.9989773235716761,1.505378548298971,-3.1234942875304164,2.9473249912261963,4.144447326660156,0.018725499510765076,0.050400398671627045,0.010463585145771503,0.04552001878619194,-0.21613441407680511,-0.05323772504925728,0.28142327070236206,0.33761483430862427,-0.47506776452064514,0.48299169540405273,-0.14526717364788055,-0.1867767721414566
1749041779.4111,-5.793428544198171,-1.998939653436178,1.505371395741598,-3.1233793697752894,2.9468913078308105,4.144312858581543,0.01829291321337223,0.05132295563817024,0.010386533103883266,0.04670263081789017,-0.22070886194705963,-0.054368481040000916,0.26163697242736816,0.31823843717575073,-0.49446001648902893,0.48589298129081726,-0.13341474533081055,-0.18733228743076324
1749041779.411165,-5.793392155562536,-1.9987813434996546,1.505395237599508,-3.123303075829977,2.9464499950408936,4.144186973571777,0.017906446009874344,0.05057565122842789,0.010750113986432552,0.044952355325222015,-0.2184118777513504,-0.05299260467290878,0.25446817278862,0.32971835136413574,-0.4627879858016968,0.48852860927581787,-0.1690455675125122,-0.19644883275032043
1749041779.4112313,-5.793356541787283,-1.9986731014647425,1.505423370991842,-3.123219152490133,2.9459757804870605,4.144082069396973,0.01746848225593567,0.05086524784564972,0.01122083980590105,0.04488493502140045,-0.22387149930000305,-0.05234533175826073,0.27193498611450195,0.3407571613788605,-0.48907339572906494,0.4895874857902527,-0.1382356733083725,-0.1918957382440567
1749041779.4112964,-5.793356541787283,-1.9986731014647425,1.505423370991842,-3.123219152490133,2.9459757804870605,4.144082069396973,0.01746848225593567,0.05086524784564972,0.01122083980590105,0.04488493502140045,-0.22387149930000305,-0.05234533175826073,0.27193498611450195,0.3407571613788605,-0.48907339572906494,0.4895874857902527,-0.1382356733083725,-0.1918957382440567
1749041779.4114256,-5.793288562689916,-1.9984728298582972,1.5054710547076624,-3.123012205163473,2.9451255798339844,4.143876075744629,0.018701277673244476,0.050715669989585876,0.010627372190356255,0.04778400808572769,-0.22403348982334137,-0.052489280700683594,0.26791495084762573,0.3269366919994354,-0.48939862847328186,0.46579569578170776,-0.12969867885112762,-0.20254676043987274
1749041779.413081,-5.793288562689916,-1.9984728298582972,1.5054710547076624,-3.123012205163473,2.9451255798339844,4.143876075744629,0.018701277673244476,0.050715669989585876,0.010627372190356255,0.04778400808572769,-0.22403348982334137,-0.052489280700683594,0.26791495084762573,0.3269366919994354,-0.48939862847328186,0.46579569578170776,-0.12969867885112762,-0.20254676043987274
1749041779.458314,-5.793216530476705,-1.9982806644835414,1.5055072943316858,-3.1228138409056605,2.944248676300049,4.143671989440918,0.018243854865431786,0.051691289991140366,0.010309034027159214,0.04800420626997948,-0.22295795381069183,-0.052157212048769,0.28070729970932007,0.347131609916687,-0.4738687574863434,0.4611929655075073,-0.14704155921936035,-0.2025289237499237
1749041779.4583588,-5.793173674737112,-1.9981728992857875,1.5055154005633753,-3.1227251491942347,2.943781852722168,4.143564224243164,0.018079545348882675,0.05140311270952225,0.010791280306875706,0.04649209603667259,-0.22203189134597778,-0.05326656624674797,0.2741656005382538,0.34863123297691345,-0.4776149094104767,0.4725973606109619,-0.14521926641464233,-0.18265089392662048
1749041779.4584024,-5.793187890444891,-1.9980575046935023,1.5055702368365687,-3.122664590875143,2.943359613418579,4.143453121185303,0.01849355176091194,0.05222088843584061,0.011153234168887138,0.04480021446943283,-0.2232072651386261,-0.053705234080553055,0.27559372782707214,0.31259021162986755,-0.48459574580192566,0.4839456081390381,-0.1794910579919815,-0.19653546810150146
1749041779.4584484,-5.7930937747107905,-1.9979449711241664,1.5055983702289026,-3.1225458584227503,2.942909002304077,4.143342018127441,0.019384460523724556,0.053533099591732025,0.010564131662249565,0.04411597177386284,-0.224456787109375,-0.053877606987953186,0.26689761877059937,0.30696916580200195,-0.49145638942718506,0.4955736994743347,-0.1755373179912567,-0.1859491467475891
1749041779.4584875,-5.793077055607931,-1.9978534183897914,1.5056222120868128,-3.122453828851217,2.9424004554748535,4.143230438232422,0.0182845089584589,0.051640745252370834,0.010818599723279476,0.043731898069381714,-0.2278907150030136,-0.05213071033358574,0.28938359022140503,0.3146950602531433,-0.48019927740097046,0.4858015179634094,-0.1628301441669464,-0.2114795595407486
1749041779.458526,-5.793010507022039,-1.9977723560728968,1.5056303183185022,-3.1223818264403285,2.942026376724243,4.1431145668029785,0.018886014819145203,0.0513303168118,0.0105880843475461,0.04341660067439079,-0.23179370164871216,-0.05264417082071304,0.2852199375629425,0.35151204466819763,-0.4825183153152466,0.5122418999671936,-0.13013753294944763,-0.2098187804222107
1749041779.4585636,-5.793012593184606,-1.9976102314391078,1.505639378224508,-3.122282644311422,2.9415526390075684,4.1430158615112305,0.01918385736644268,0.05135925114154816,0.010578807443380356,0.04457291588187218,-0.23192045092582703,-0.05302831530570984,0.24325911700725555,0.3332284390926361,-0.4895605444908142,0.5019375681877136,-0.11578916013240814,-0.22092340886592865
1749041779.4586005,-5.792950127516882,-1.99755920986318,1.5056665579425257,-3.1222335300841273,2.9410531520843506,4.142911434173584,0.018303606659173965,0.05442577600479126,0.01075370330363512,0.04462067037820816,-0.23045487701892853,-0.05345267057418823,0.2777227461338043,0.3307430148124695,-0.4770781993865967,0.511103093624115,-0.1336495727300644,-0.20303021371364594
1749041779.4586372,-5.792918060217993,-1.9974295101561488,1.505655590687887,-3.122096200982565,2.940629243850708,4.142838954925537,0.018458858132362366,0.05367344617843628,0.010800077579915524,0.04544532299041748,-0.2288387268781662,-0.05387359857559204,0.26316705346107483,0.32084524631500244,-0.46707218885421753,0.49727270007133484,-0.15609419345855713,-0.20918670296669006
1749041779.4586744,-5.7928858439074915,-1.997364183465475,1.5056832472430628,-3.122019430200094,2.940150737762451,4.142719268798828,0.018784770742058754,0.052902281284332275,0.011192163452506065,0.046622540801763535,-0.23130235075950623,-0.05515473335981369,0.2694251537322998,0.3584967851638794,-0.4813874363899231,0.5089653730392456,-0.1379276067018509,-0.21146556735038757
1749041779.4587116,-5.792834583912985,-1.997232576409811,1.505707089100973,-3.1219240627684535,2.939711093902588,4.1426191329956055,0.019053108990192413,0.05480264127254486,0.011119917966425419,0.04722699150443077,-0.22949811816215515,-0.0581088662147522,0.28335338830947876,0.31093108654022217,-0.47693777084350586,0.509539783000946,-0.16015183925628662,-0.18033970892429352
1749041779.4587479,-5.79278272787203,-1.997106214562887,1.505754295979635,-3.1218282184996546,2.939276933670044,4.142442226409912,0.019690776243805885,0.055361054837703705,0.010839911177754402,0.04741315543651581,-0.23603130877017975,-0.05731648579239845,0.26938268542289734,0.30646470189094543,-0.47429120540618896,0.5137956738471985,-0.13062337040901184,-0.18685850501060486
1749041779.4587846,-5.792739842330114,-1.996993204156393,1.505759064351217,-3.121732374230856,2.938732147216797,4.142350196838379,0.019410433247685432,0.056081876158714294,0.011097504757344723,0.04851387441158295,-0.23736697435379028,-0.055343613028526306,0.27611929178237915,0.2936641573905945,-0.48115074634552,0.4953082501888275,-0.15049119293689728,-0.20674999058246613
1749041779.4588206,-5.792726818715231,-1.9969006977477015,1.505763355885641,-3.121594091454977,2.9382729530334473,4.142254829406738,0.019177177920937538,0.05580466240644455,0.010681422427296638,0.04818696156144142,-0.23882724344730377,-0.05538525804877281,0.28889742493629456,0.3216246962547302,-0.46871787309646606,0.4967820942401886,-0.11057402193546295,-0.20725052058696747
1749041779.4588575,-5.792726818715231,-1.9969006977477015,1.505763355885641,-3.121594091454977,2.9382729530334473,4.142254829406738,0.019177177920937538,0.05580466240644455,0.010681422427296638,0.04818696156144142,-0.23882724344730377,-0.05538525804877281,0.28889742493629456,0.3216246962547302,-0.46871787309646606,0.4967820942401886,-0.11057402193546295,-0.20725052058696747
1749041779.4588935,-5.792670790349142,-1.9966851673521937,1.5057995955096644,-3.1214376888670863,2.9373233318328857,4.1420464515686035,0.020173294469714165,0.056200169026851654,0.011944001540541649,0.04889954254031181,-0.23398612439632416,-0.05965082347393036,0.2845667004585266,0.32836928963661194,-0.4801352918148041,0.5025603175163269,-0.1592257022857666,-0.17513488233089447
1749041779.4589374,-5.792610708867208,-1.9965926609435023,1.5058191458331507,-3.121310373345846,2.9368600845336914,4.141909599304199,0.01994747295975685,0.055625442415475845,0.010968783870339394,0.048870984464883804,-0.23535266518592834,-0.05977856367826462,0.28749996423721313,0.3147076964378357,-0.4696105122566223,0.4958242177963257,-0.11393410712480545,-0.18307967483997345
1749041779.4589844,-5.792590443287985,-1.9964219532408656,1.5058472792254847,-3.121249338189596,2.936378240585327,4.141758918762207,0.019711347296833992,0.057289790362119675,0.011022860184311867,0.049423787742853165,-0.23538146913051605,-0.06011812761425972,0.2861725687980652,0.3295191526412964,-0.4577282667160034,0.49430710077285767,-0.17034022510051727,-0.19130480289459229
1749041779.4590218,-5.792532537375585,-1.996298452416891,1.5058592001544397,-3.121119638482565,2.9358527660369873,4.141672611236572,0.020052926614880562,0.05697597190737724,0.011256168596446514,0.0480957068502903,-0.24015311896800995,-0.060447562485933304,0.28689366579055786,0.3320833742618561,-0.47809386253356934,0.522467315196991,-0.12487847357988358,-0.17274783551692963
1749041779.4590585,-5.792532537375585,-1.996298452416891,1.5058592001544397,-3.121119638482565,2.9358527660369873,4.141672611236572,0.020052926614880562,0.05697597190737724,0.011256168596446514,0.0480957068502903,-0.24015311896800995,-0.060447562485933304,0.28689366579055786,0.3320833742618561,-0.47809386253356934,0.522467315196991,-0.12487847357988358,-0.17274783551692963
1749041779.4590952,-5.792479578648702,-1.9961205921568812,1.5059269110309046,-3.1209551296629847,2.934927463531494,4.141438007354736,0.01967013254761696,0.059284508228302,0.012403354048728943,0.048530954867601395,-0.24565336108207703,-0.06080467998981476,0.26948755979537964,0.29882895946502686,-0.44422659277915955,0.5222329497337341,-0.11334988474845886,-0.16424179077148438
1749041779.459132,-5.792378280554907,-1.9960204563536585,1.505935017262594,-3.1208325825133265,2.934424877166748,4.141317844390869,0.020339686423540115,0.05575977638363838,0.012120426632463932,0.050022710114717484,-0.24407483637332916,-0.06034446880221367,0.27966591715812683,0.318881630897522,-0.4592376947402954,0.5278404951095581,-0.1368149220943451,-0.16102969646453857
1749041779.459245,-5.792389009390966,-1.9958492718138636,1.5060022513019007,-3.120740076104635,2.933950185775757,4.141144752502441,0.02080281265079975,0.05624958872795105,0.012176482938230038,0.051990631967782974,-0.2425885647535324,-0.0598987340927124,0.2750999927520752,0.3715722858905792,-0.45503151416778564,0.5349360108375549,-0.12632180750370026,-0.16816316545009613
1749041779.4610455,-5.79234487215151,-1.9957691631712855,1.5060108343707483,-3.120625158349508,2.933472156524658,4.1410017013549805,0.02026771567761898,0.05781824141740799,0.01209203340113163,0.05210728570818901,-0.2448512613773346,-0.05983012914657593,0.30022841691970825,0.35176053643226624,-0.45804890990257263,0.5126304626464844,-0.16857050359249115,-0.15227147936820984
1749041779.502289,-5.79234487215151,-1.9957691631712855,1.5060108343707483,-3.120625158349508,2.933472156524658,4.1410017013549805,0.02026771567761898,0.05781824141740799,0.01209203340113163,0.05210728570818901,-0.2448512613773346,-0.05983012914657593,0.30022841691970825,0.35176053643226624,-0.45804890990257263,0.5126304626464844,-0.16857050359249115,-0.15227147936820984
1749041779.5023353,-5.792289588843481,-1.9956532917418421,1.5060308615313929,-3.1204902134337367,2.932950258255005,4.140884876251221,0.021187175065279007,0.06033679097890854,0.012547842226922512,0.05303975194692612,-0.24245135486125946,-0.058621056377887726,0.2719133794307709,0.28309887647628784,-0.4727870523929596,0.5231011509895325,-0.19280613958835602,-0.14441046118736267
1749041779.5023754,-5.792178754006521,-1.9954163036742152,1.5060671011554163,-3.1203214130797328,2.9319143295288086,4.140620708465576,0.02095019444823265,0.05904105305671692,0.012678315863013268,0.05382707715034485,-0.25242164731025696,-0.05638046935200691,0.3097797632217407,0.3401467204093933,-0.5017229318618774,0.5295456051826477,-0.16775837540626526,-0.16404710710048676
1749041779.5024142,-5.792178754006521,-1.9954163036742152,1.5060671011554163,-3.1203214130797328,2.9319143295288086,4.140620708465576,0.02095019444823265,0.05904105305671692,0.012678315863013268,0.05382707715034485,-0.25242164731025696,-0.05638046935200691,0.3097797632217407,0.3401467204093933,-0.5017229318618774,0.5295456051826477,-0.16775837540626526,-0.16404710710048676
1749041779.5024521,-5.79216388264765,-1.9951378307738246,1.506158177052633,-3.120106359521383,2.9308698177337646,4.140397071838379,0.021731432527303696,0.06046559661626816,0.0125992177054286,0.056831132620573044,-0.2566682696342468,-0.05684385821223259,0.27348652482032776,0.3472018241882324,-0.46994829177856445,0.4941554069519043,-0.15079282224178314,-0.178358256816864
1749041779.50249,-5.79216388264765,-1.9951378307738246,1.506158177052633,-3.120106359521383,2.9308698177337646,4.140397071838379,0.021731432527303696,0.06046559661626816,0.0125992177054286,0.056831132620573044,-0.2566682696342468,-0.05684385821223259,0.27348652482032776,0.3472018241882324,-0.46994829177856445,0.4941554069519043,-0.15079282224178314,-0.178358256816864
1749041779.5025272,-5.792070213948385,-1.9949051342406214,1.506155792866842,-3.1198483906187953,2.9297733306884766,4.140194892883301,0.021482054144144058,0.06174934655427933,0.01310025155544281,0.053872883319854736,-0.2543328106403351,-0.057354625314474106,0.2887782156467438,0.3015892505645752,-0.4681929349899292,0.5068331956863403,-0.1594475358724594,-0.2007206827402115
1749041779.502564,-5.791999403630392,-1.9947735271849574,1.5062459150897425,-3.1197716198363246,2.9292972087860107,4.140071392059326,0.021681420505046844,0.0612848661839962,0.012687909416854382,0.05202113091945648,-0.25509604811668396,-0.057796720415353775,0.2910991311073303,0.32200074195861816,-0.46266162395477295,0.5277041792869568,-0.19100728631019592,-0.19447067379951477
1749041779.502601,-5.791958902274267,-1.9946133098998011,1.5062421003924769,-3.1196676693358363,2.928755283355713,4.139959812164307,0.02200450375676155,0.06091642379760742,0.012815872207283974,0.05281997099518776,-0.2579233944416046,-0.05857396870851517,0.28682827949523926,0.33346402645111084,-0.46553704142570496,0.5198094844818115,-0.16506537795066833,-0.181863933801651
1749041779.502638,-5.791926685963766,-1.994540353814596,1.506277863179342,-3.1195441685118617,2.928205728530884,4.139786243438721,0.02179405465722084,0.06298654526472092,0.013007543981075287,0.053142938762903214,-0.26265573501586914,-0.05946039408445358,0.31328800320625305,0.31616315245628357,-0.4722308814525604,0.5365521311759949,-0.1696300506591797,-0.19948726892471313
1749041779.5026877,-5.791878406201498,-1.9944130382933558,1.506298844014303,-3.119455476800436,2.9277350902557373,4.139703750610352,0.0217421967536211,0.06301390379667282,0.013509750366210938,0.05428944155573845,-0.26534339785575867,-0.05997277796268463,0.31238970160484314,0.29789701104164124,-0.4880000054836273,0.5216919183731079,-0.14063113927841187,-0.21228690445423126
1749041779.5027285,-5.791878406201498,-1.9944130382933558,1.506298844014303,-3.119455476800436,2.9277350902557373,4.139703750610352,0.0217421967536211,0.06301390379667282,0.013509750366210938,0.05428944155573845,-0.26534339785575867,-0.05997277796268463,0.31238970160484314,0.29789701104164124,-0.4880000054836273,0.5216919183731079,-0.14063113927841187,-0.21228690445423126
1749041779.5027657,-5.791752193366186,-1.9941173992552699,1.5063346068011683,-3.1191822491087855,2.9266316890716553,4.139465808868408,0.02290245145559311,0.06274276226758957,0.013005807064473629,0.05792864412069321,-0.26314210891723633,-0.061000388115644455,0.29903092980384827,0.3264428377151489,-0.47166502475738525,0.5024943947792053,-0.16439932584762573,-0.22216960787773132
1749041779.502802,-5.791712884102957,-1.994032999078268,1.5063584486590784,-3.119058748284811,2.926128625869751,4.1393303871154785,0.023493194952607155,0.06333260238170624,0.013028421439230442,0.058077022433280945,-0.26374050974845886,-0.06326555460691452,0.3088811933994293,0.32256847620010376,-0.46961936354637146,0.49298912286758423,-0.19561828672885895,-0.19439804553985596
1749041779.5028389,-5.79166812101473,-1.99389710048818,1.5063789526568812,-3.118951459924215,2.9255709648132324,4.139181613922119,0.02365097589790821,0.06333968788385391,0.013377111405134201,0.056953977793455124,-0.26704803109169006,-0.06220852583646774,0.2880902886390686,0.3363106846809387,-0.4832201898097992,0.5005820989608765,-0.23817631602287292,-0.20757266879081726
1749041779.502875,-5.791652027760641,-1.993749280969137,1.5064218680011194,-3.118835588494772,2.9249978065490723,4.139079570770264,0.023580633103847504,0.06576831638813019,0.01231448259204626,0.05623815208673477,-0.2703012228012085,-0.0630149394273758,0.288533478975296,0.3260572850704193,-0.46109870076179504,0.5038241744041443,-0.24485230445861816,-0.20091351866722107
1749041779.5029116,-5.791600171719686,-1.9936415157713832,1.5064309279071253,-3.118712087670797,2.924482583999634,4.1389479637146,0.0228484645485878,0.06608521193265915,0.012935280799865723,0.05698275938630104,-0.27408909797668457,-0.0653766393661499,0.3160174489021301,0.28943291306495667,-0.4586665630340576,0.4850640296936035,-0.20800986886024475,-0.1974826157093048
1749041779.50296,-5.791583601628439,-1.993481775323385,1.5064895788775843,-3.1186233959593714,2.923941135406494,4.138794422149658,0.023102035745978355,0.06541454046964645,0.013034803792834282,0.057027459144592285,-0.27751410007476807,-0.0674859955906868,0.29220905900001526,0.33623090386390686,-0.46236932277679443,0.4941292703151703,-0.2059319019317627,-0.20047159492969513
1749041779.5030086,-5.791504953299658,-1.993396898309225,1.5065096060382288,-3.118500371972555,2.9233672618865967,4.138681888580322,0.02304736152291298,0.06677789986133575,0.014032007195055485,0.05707055330276489,-0.27740293741226196,-0.06576363742351532,0.31836801767349243,0.31818073987960815,-0.46501296758651733,0.5257705450057983,-0.22949989140033722,-0.21599417924880981
1749041779.5030472,-5.791438255702154,-1.9932614765562953,1.5065143744098108,-3.1183964214720667,2.9228427410125732,4.138585090637207,0.02297242358326912,0.06851450353860855,0.013650727458298206,0.056904226541519165,-0.2770657539367676,-0.06447706371545792,0.324604868888855,0.25899970531463623,-0.46246564388275146,0.5215772986412048,-0.18951353430747986,-0.20429444313049316
