nimar13/UR3e_dataset_trayectorias/trayectorias_ejecutadas/quintic_func/trayectoria_009_result.csv
timestamp,q1,q2,q3,q4,q5,q6,qd1,qd2,qd3,qd4,qd5,qd6,tau1,tau2,tau3,tau4,tau5,tau6
1749039593.8423002,4.982653617858887,-0.42347009599719243,1.2061980406390589,2.8166891771503906,4.749391555786133,-2.81285268465151,0.0222511924803257,0.0007216088706627488,-0.0007256782264448702,-0.0022281534038484097,0.014843162149190903,-0.013410750776529312,0.15321066975593567,-1.658581018447876,-1.1809557676315308,-0.8034913539886475,0.19089820981025696,-0.156087726354599
1749039593.8423455,4.982653617858887,-0.42347009599719243,1.2061980406390589,2.8166891771503906,4.749391555786133,-2.81285268465151,0.0222511924803257,0.0007216088706627488,-0.0007256782264448702,-0.0022281534038484097,0.014843162149190903,-0.013410750776529312,0.15321066975593567,-1.658581018447876,-1.1809557676315308,-0.8034913539886475,0.19089820981025696,-0.156087726354599
1749039593.8424664,4.9826579093933105,-0.423478440647461,1.2061484495746058,2.81667344152417,4.74940824508667,-2.8128488699542444,0.02011043205857277,0.0006106728687882423,-0.0006505997735075653,-0.0017005068948492408,0.01345264632254839,-0.012014330364763737,0.13880662620067596,-1.675355076789856,-1.202879786491394,-0.7874492406845093,0.18788303434848785,-0.1729743480682373
1749039593.842506,4.982741832733154,-0.4234510225108643,1.2061551252948206,2.816692515010498,4.749501705169678,-2.812901798878805,0.01607586070895195,0.00038446305552497506,-0.0006146474624983966,-0.0011484628776088357,0.01075852382928133,-0.008562331087887287,0.15813972055912018,-1.6960456371307373,-1.1796671152114868,-0.7775236368179321,0.1954953819513321,-0.1512274146080017
1749039593.8425438,4.982741832733154,-0.4234510225108643,1.2061551252948206,2.816692515010498,4.749501705169678,-2.812901798878805,0.01607586070895195,0.00038446305552497506,-0.0006146474624983966,-0.0011484628776088357,0.01075852382928133,-0.008562331087887287,0.15813972055912018,-1.6960456371307373,-1.1796671152114868,-0.7775236368179321,0.1954953819513321,-0.1512274146080017
1749039593.8425822,4.982812404632568,-0.4234629434398194,1.2061203161822718,2.8166767793842773,4.749480247497559,-2.812885586415426,0.012362015433609486,-0.0002559058484621346,-0.0005279890610836446,-0.0008685812936164439,0.005724584683775902,-0.004965700674802065,0.16708827018737793,-1.7114779949188232,-1.171020269393921,-0.7714857459068298,0.16416387259960175,-0.13017858564853668
1749039593.8426204,4.982812404632568,-0.4234629434398194,1.2061203161822718,2.8166767793842773,4.749480247497559,-2.812885586415426,0.012362015433609486,-0.0002559058484621346,-0.0005279890610836446,-0.0008685812936164439,0.005724584683775902,-0.004965700674802065,0.16708827018737793,-1.7114779949188232,-1.171020269393921,-0.7714857459068298,0.16416387259960175,-0.13017858564853668
1749039593.8426588,4.982822418212891,-0.4234747451594849,1.2061427275287073,2.8166767793842773,4.749491214752197,-2.8129103819476526,0.008454462513327599,-0.0003505778731778264,-0.0003902340540662408,-0.0006990179535932839,0.001700666849501431,-0.0022974282037466764,0.10522656887769699,-1.7234349250793457,-1.1645605564117432,-0.7649074792861938,0.13813166320323944,-0.09936341643333435
1749039593.842697,4.982822418212891,-0.4234747451594849,1.2061427275287073,2.8166767793842773,4.749491214752197,-2.8129103819476526,0.008454462513327599,-0.0003505778731778264,-0.0003902340540662408,-0.0006990179535932839,0.001700666849501431,-0.0022974282037466764,0.10522656887769699,-1.7234349250793457,-1.1645605564117432,-0.7649074792861938,0.13813166320323944,-0.09936341643333435
1749039593.8427346,4.982822418212891,-0.4234556716731568,1.2061427275287073,2.816692515010498,4.7494683265686035,-2.8128894011126917,0.005120526533573866,-0.0008648273069411516,-0.00042439636308699846,-0.0006369498441927135,0.0010447055101394653,-0.0016298178816214204,0.1148308739066124,-1.730311632156372,-1.1688982248306274,-0.7596412897109985,0.14755670726299286,-0.09125830233097076
1749039593.8427842,4.9828290939331055,-0.42347951353106694,1.206146542225973,2.8166610437580566,4.74948263168335,-2.8129215876208704,0.0009150626719929278,-0.0011541006388142705,-0.00044128336594440043,-0.0005409730365499854,0.00023377727484330535,-0.0004500745271798223,0.09728958457708359,-1.7571141719818115,-1.1671547889709473,-0.7394929528236389,0.10455821454524994,-0.07177180051803589
1749039593.8428257,4.9828290939331055,-0.42347951353106694,1.206146542225973,2.8166610437580566,4.74948263168335,-2.8129215876208704,0.0009150626719929278,-0.0011541006388142705,-0.00044128336594440043,-0.0005409730365499854,0.00023377727484330535,-0.0004500745271798223,0.09728958457708359,-1.7571141719818115,-1.1671547889709473,-0.7394929528236389,0.10455821454524994,-0.07177180051803589
1749039593.8428676,4.9827728271484375,-0.42348308980975347,1.2061274687396448,2.816657705897949,4.749467372894287,-2.8129285017596644,-0.004838311579078436,-0.00172686786390841,-0.0007693428196944296,-0.00047018277109600604,-0.000587376591283828,-4.9191196012543514e-05,0.10296972841024399,-1.7895159721374512,-1.153170108795166,-0.7397609949111938,0.09312526881694794,-0.06556817144155502
1749039593.8429265,4.982805252075195,-0.4235142034343262,1.2061155478106897,2.81667344152417,4.749459743499756,-2.812921110783712,-0.004643383901566267,-0.002974308328703046,-0.0007714704261161387,-0.0004413195129018277,-0.0014928552554920316,-8.692599294590764e-06,0.09989737719297409,-1.8066704273223877,-1.1523096561431885,-0.7318862676620483,0.07055868208408356,-0.07557037472724915
1749039593.8429685,4.9828104972839355,-0.4235297006419678,1.2061122099505823,2.816645784968994,4.749467372894287,-2.812878672276632,-0.0038628154434263706,-0.0035887849517166615,-0.0007597252842970192,-0.0004157992952968925,-0.0015188076067715883,0.0004920932115055621,0.04455336183309555,-1.8194139003753662,-1.1427886486053467,-0.720565676689148,0.07603605091571808,-0.04708987474441528
1749039593.843006,4.98276424407959,-0.4235423368266602,1.2061346212970179,2.8166424471088867,4.749480247497559,-2.8129172960864466,-0.0036418037489056587,-0.003670244012027979,-0.0007282815640792251,-0.00039307225961238146,-0.0013368625659495592,0.003181775566190481,0.04634808748960495,-1.827074646949768,-1.1380794048309326,-0.7347752451896667,0.07012005150318146,-0.06682431697845459
1749039593.843043,4.98276424407959,-0.4235423368266602,1.2061346212970179,2.8166424471088867,4.749480247497559,-2.8129172960864466,-0.0036418037489056587,-0.003670244012027979,-0.0007282815640792251,-0.00039307225961238146,-0.0013368625659495592,0.003181775566190481,0.04634808748960495,-1.827074646949768,-1.1380794048309326,-0.7347752451896667,0.07012005150318146,-0.06682431697845459
1749039593.8430796,4.982723236083984,-0.4235695165446778,1.2061155478106897,2.8166891771503906,4.749432563781738,-2.8129127661334437,-0.006656896788626909,-0.003528327913954854,-0.0006656217155978084,-0.0003543448692653328,-0.0012643368681892753,0.003622583346441388,0.05531005561351776,-1.8504276275634766,-1.1356778144836426,-0.7225630283355713,0.04953218996524811,-0.06540132313966751
1749039593.8431168,4.982723236083984,-0.4235695165446778,1.2061155478106897,2.8166891771503906,4.749432563781738,-2.8129127661334437,-0.006656896788626909,-0.003528327913954854,-0.0006656217155978084,-0.0003543448692653328,-0.0012643368681892753,0.003622583346441388,0.05531005561351776,-1.8504276275634766,-1.1356778144836426,-0.7225630283355713,0.04953218996524811,-0.06540132313966751
1749039593.8431675,4.982649803161621,-0.4235578340343018,1.2061427275287073,2.8166891771503906,4.7494707107543945,-2.8128655592547815,-0.008153527975082397,-0.0035740118473768234,-0.0005148861673660576,-0.0002995821414515376,-0.0036858655512332916,0.0018608510727062821,0.06425248086452484,-1.882308006286621,-1.1459629535675049,-0.7329763174057007,0.04744516313076019,-0.05277542397379875
1749039593.8432143,4.9826226234436035,-0.4235540193370362,1.2061308065997522,2.816692515010498,4.749380588531494,-2.8128846327411097,-0.00761610921472311,-0.003481215564534068,-0.0004619449900928885,-0.00027320077060721815,-0.003814197611063719,0.0013859185855835676,0.05277760326862335,-1.8926337957382202,-1.145000696182251,-0.7262265682220459,0.06048400700092316,-0.0435345433652401
1749039593.8432527,4.9826226234436035,-0.4235540193370362,1.2061308065997522,2.816692515010498,4.749380588531494,-2.8128846327411097,-0.00761610921472311,-0.003481215564534068,-0.0004619449900928885,-0.00027320077060721815,-0.003814197611063719,0.0013859185855835676,0.05277760326862335,-1.8926337957382202,-1.145000696182251,-0.7262265682220459,0.06048400700092316,-0.0435345433652401
1749039593.84337,4.982618808746338,-0.4235660594752808,1.2061122099505823,2.8166767793842773,4.749427795410156,-2.8128655592547815,-0.008245150558650494,-0.0024654080625623465,-0.0003831746580544859,-0.0002488848695065826,-0.002997355069965124,0.0011281948536634445,0.04590281844139099,-1.919716715812683,-1.1404004096984863,-0.7320104837417603,0.05390888452529907,-0.04574264585971832
1749039593.8443172,4.98258638381958,-0.4235578340343018,1.2061308065997522,2.816685839290283,4.749419212341309,-2.8128965536700647,-0.00796041265130043,-0.0020754083525389433,-0.0003530799876898527,-0.00023934971250128,-0.0024329388979822397,0.0009371712803840637,0.07104997336864471,-1.9205222129821777,-1.1501975059509277,-0.7265310287475586,0.05680696666240692,-0.034134697169065475
1749039593.8903081,4.98258638381958,-0.4235578340343018,1.2061308065997522,2.816685839290283,4.749419212341309,-2.8128965536700647,-0.00796041265130043,-0.0020754083525389433,-0.0003530799876898527,-0.00023934971250128,-0.0024329388979822397,0.0009371712803840637,0.07104997336864471,-1.9205222129821777,-1.1501975059509277,-0.7265310287475586,0.05680696666240692,-0.034134697169065475
1749039593.890358,4.982522487640381,-0.4235151571086426,1.2061274687396448,2.816703959102295,4.749407768249512,-2.812869135533468,-0.007387670688331127,-0.0014286900404840708,-0.000305158639093861,-0.0002224262716481462,-0.0019526464166119695,0.0008652006508782506,0.06315043568611145,-1.9239192008972168,-1.1412560939788818,-0.7376837730407715,0.04542669653892517,-0.027154147624969482
1749039593.890401,4.982573986053467,-0.4235385221293946,1.206146542225973,2.8166891771503906,4.749422550201416,-2.81285006204714,-0.007187474984675646,-0.0013639982789754868,-0.0002857682993635535,-0.00021483768068719655,-0.0018434958765283227,0.0016027833335101604,0.08974440395832062,-1.9358795881271362,-1.1493282318115234,-0.7334651947021484,0.05137421190738678,-0.05903541296720505
1749039593.8904414,4.9825568199157715,-0.42357786119494634,1.2061122099505823,2.8166891771503906,4.749372959136963,-2.8128846327411097,-0.006925600115209818,-0.0014901297399774194,-0.000294857076369226,-0.00020775051962118596,-0.00220431643538177,0.0016703130677342415,0.0814635306596756,-1.9379298686981201,-1.15451979637146,-0.7452969551086426,0.04688000679016113,-0.045023441314697266
1749039593.8904798,4.982519626617432,-0.4235587877086182,1.2061155478106897,2.816720171565674,4.749398708343506,-2.8128536383258265,-0.005964694544672966,-0.001418990665115416,-0.00030245850211940706,-0.00020111612684559077,-0.0023338771425187588,0.0016859348397701979,0.06169532239437103,-1.9442720413208008,-1.1485779285430908,-0.7383450269699097,0.07534348964691162,-0.05146763473749161
1749039593.890518,4.982519626617432,-0.4235587877086182,1.2061155478106897,2.816720171565674,4.749398708343506,-2.8128536383258265,-0.005964694544672966,-0.001418990665115416,-0.00030245850211940706,-0.00020111612684559077,-0.0023338771425187588,0.0016859348397701979,0.06169532239437103,-1.9442720413208008,-1.1485779285430908,-0.7383450269699097,0.07534348964691162,-0.05146763473749161
1749039593.8905551,4.982507705688477,-0.4235934776118775,1.2061308065997522,2.8167077737995605,4.749380111694336,-2.8128345648394983,-0.0048272935673594475,-0.00171966094058007,-0.0003070514358114451,-0.0001890427665784955,-0.0017124712467193604,0.0013493876904249191,0.09595711529254913,-1.900637149810791,-1.1507973670959473,-0.7421269416809082,0.06941565871238708,-0.037891935557127
1749039593.890593,4.982471942901611,-0.4235934776118775,1.2061155478106897,2.816703959102295,4.749367713928223,-2.8128345648394983,-0.004626888316124678,-0.00143749441485852,-0.00030284791137091815,-0.00018353394989389926,-0.0013646390289068222,0.0011297606397420168,0.0925377607345581,-1.9094961881637573,-1.1525177955627441,-0.740613579750061,0.06670963764190674,-0.01989317685365677
1749039593.8906312,4.982475280761719,-0.4236125510982056,1.2060845533954065,2.816685839290283,4.749387264251709,-2.8128345648394983,-0.0038607846945524216,-0.0011984414886683226,-0.00032545693102292717,-0.00017833721358329058,-0.001122304587624967,0.001034879358485341,0.11991594731807709,-1.9172406196594238,-1.1640615463256836,-0.7511577010154724,0.05930161476135254,-0.034116700291633606
1749039593.890668,4.982491970062256,-0.42357786119494634,1.2060845533954065,2.8166891771503906,4.749374866485596,-2.8128226439105433,-0.0032611554488539696,-0.0009282054961659014,-0.00027223548386245966,-0.00017342656792607158,-0.0009510490344837308,0.0009407225297763944,0.09055610001087189,-1.8943061828613281,-1.1542952060699463,-0.7514475584030151,0.08068722486495972,-0.04485471174120903
1749039593.890709,4.982490062713623,-0.4235742849162598,1.206069294606344,2.8166891771503906,4.749395370483398,-2.812857214604513,-0.002495254622772336,-0.0007677330286242068,-0.00031353640952147543,-0.00016877953021321446,-0.0008903497946448624,0.0008435844792984426,0.10804401338100433,-1.9048477411270142,-1.173398494720459,-0.7573059797286987,0.07143443822860718,-0.03474754840135574
1749039593.890746,4.982483386993408,-0.4235897821239014,1.2061036268817347,2.8166891771503906,4.749351978302002,-2.8128417173968714,-0.0020063507836312056,-0.0006557049928233027,-0.0003617469046730548,-0.00016437492740806192,-0.000824102433398366,0.0006314797792583704,0.07527662813663483,-1.88960599899292,-1.1527955532073975,-0.7404073476791382,0.07350468635559082,-0.038555845618247986
1749039593.8907845,4.982481956481934,-0.42355509222064214,1.206069294606344,2.816692515010498,4.74936056137085,-2.812838141118185,-0.001527052721939981,-0.0005722565110772848,-0.001483979169279337,-0.00016019436588976532,-0.0007447833195328712,0.0005383709794841707,0.07383142411708832,-1.8840620517730713,-1.1493589878082275,-0.7445186972618103,0.08333629369735718,-0.035599105060100555
1749039593.8908253,4.982481956481934,-0.42355509222064214,1.206069294606344,2.816692515010498,4.74936056137085,-2.812838141118185,-0.001527052721939981,-0.0005722565110772848,-0.001483979169279337,-0.00016019436588976532,-0.0007447833195328712,0.0005383709794841707,0.07383142411708832,-1.8840620517730713,-1.1493589878082275,-0.7445186972618103,0.08333629369735718,-0.035599105060100555
1749039593.8908634,4.982502460479736,-0.42358990133319097,1.2060917059527796,2.816703959102295,4.749332904815674,-2.812857214604513,-0.001027835183776915,-0.0004561654932331294,-0.001523900544270873,-0.0001524404506199062,-0.0006178875919431448,0.0004312480741646141,0.07914885878562927,-1.8762598037719727,-1.138460397720337,-0.737062931060791,0.08873036503791809,-0.0718342587351799
1749039593.8909032,4.98246955871582,-0.42361267030749516,1.2060883680926722,2.816703959102295,4.749391078948975,-2.812876288090841,-0.0008835382177494466,-0.00041416706517338753,-0.0014219393488019705,-0.0001488385023549199,-0.0005688774399459362,0.0003933234547730535,0.11007820069789886,-1.872008204460144,-1.1351726055145264,-0.7470446825027466,0.07220298051834106,-0.03398122265934944
1749039593.890941,4.98246955871582,-0.42361267030749516,1.2060883680926722,2.816703959102295,4.749391078948975,-2.812876288090841,-0.0008835382177494466,-0.00041416706517338753,-0.0014219393488019705,-0.0001488385023549199,-0.0005688774399459362,0.0003933234547730535,0.11007820069789886,-1.872008204460144,-1.1351726055145264,-0.7470446825027466,0.07220298051834106,-0.03398122265934944
1749039593.8909779,4.982486724853516,-0.42361731946978765,1.2060917059527796,2.816657705897949,4.749374866485596,-2.8128345648394983,-0.00012990194954909384,-0.0003497638099361211,-0.0012417430989444256,-0.00014918656961526722,-0.0004911758587695658,0.00033464652369730175,0.10732704401016235,-1.8531811237335205,-1.157104253768921,-0.7897859811782837,0.06208479404449463,-0.061908967792987823
1749039593.8910146,4.982486724853516,-0.42361731946978765,1.2060917059527796,2.816657705897949,4.749374866485596,-2.8128345648394983,-0.00012990194954909384,-0.0003497638099361211,-0.0012417430989444256,-0.00014918656961526722,-0.0004911758587695658,0.00033464652369730175,0.10732704401016235,-1.8531811237335205,-1.157104253768921,-0.7897859811782837,0.06208479404449463,-0.061908967792987823
1749039593.8910518,4.982483386993408,-0.4235897821239014,1.2060797850238245,2.8166891771503906,4.749398708343506,-2.8128536383258265,-1.071141326747238e-07,-0.00030270093702711165,-0.0011246445355936885,-0.00011417210043873638,-0.0004321163287386298,0.00029124110005795956,0.08740174770355225,-1.8493554592132568,-1.169710397720337,-0.7915105819702148,0.03556308150291443,-0.06570587307214737
1749039593.8910887,4.982541561126709,-0.4235670131495972,1.2060568968402308,2.8166729646870117,4.749371528625488,-2.8128655592547815,-1.045070474603449e-09,-0.0002836179337464273,-0.001110419980250299,-0.00012207520194351673,-0.0003637058543972671,0.00027351779863238335,0.05357837677001953,-1.8397538661956787,-1.1527435779571533,-0.8008317947387695,0.037813663482666016,-0.0595770999789238
1749039593.8911257,4.982541561126709,-0.4235670131495972,1.2060568968402308,2.8166729646870117,4.749371528625488,-2.8128655592547815,-1.045070474603449e-09,-0.0002836179337464273,-0.001110419980250299,-0.00012207520194351673,-0.0003637058543972671,0.00027351779863238335,0.05357837677001953,-1.8397538661956787,-1.1527435779571533,-0.8008317947387695,0.037813663482666016,-0.0595770999789238
1749039593.8912985,4.9825334548950195,-0.4235670131495972,1.206083122883932,2.8166610437580566,4.749391555786133,-2.812869135533468,-9.948169539661031e-14,-0.0002518669643905014,-0.001142287626862526,-0.0008393248426727951,-0.0003540310717653483,0.00024383496202062815,0.032281242311000824,-1.885023832321167,-1.1585209369659424,-0.798797607421875,0.010749101638793945,-0.0476953350007534
1749039593.8923857,4.98255729675293,-0.423536018734314,1.2060726324664515,2.816657705897949,4.749367713928223,-2.8128536383258265,-9.706037251930332e-16,-0.00023851482546888292,-0.001101418980397284,-0.0011822746600955725,-0.0014568314654752612,0.00023129353940021247,0.042538195848464966,-1.8754749298095703,-1.159411907196045,-0.7937277555465698,-0.004309356212615967,-0.04470956325531006
1749039593.9344115,4.982522964477539,-0.4235862058452149,1.2060797850238245,2.816664858455322,4.749380111694336,-2.81285006204714,-9.469799398981638e-18,-0.00022650847677141428,-0.000954213144723326,-0.0011364438105374575,-0.0027155212592333555,0.0002515256346669048,0.0012913495302200317,-1.8944350481033325,-1.1661522388458252,-0.8052261471748352,-0.015105098485946655,-0.039071112871170044
1749039593.9344592,4.982514381408691,-0.4235934776118775,1.206095043812887,2.816680594081543,4.749371528625488,-2.812857214604513,-9.239310174184683e-20,-0.00021565296628978103,-0.0009391261846758425,-0.0009874138049781322,-0.004004424903541803,0.000273346493486315,-0.008047021925449371,-1.91071617603302,-1.1674582958221436,-0.7890043258666992,-0.01864326000213623,-0.01705160178244114
1749039593.934499,4.982514381408691,-0.4235934776118775,1.206095043812887,2.816680594081543,4.749371528625488,-2.812857214604513,-9.239310174184683e-20,-0.00021565296628978103,-0.0009391261846758425,-0.0009874138049781322,-0.004004424903541803,0.000273346493486315,-0.008047021925449371,-1.91071617603302,-1.1674582958221436,-0.7890043258666992,-0.01864326000213623,-0.01705160178244114
1749039593.934538,4.982522964477539,-0.42355866849932866,1.2060797850238245,2.8166767793842773,4.749387264251709,-2.812864367161886,-8.79502522066626e-24,-0.00022364228789228946,-0.0007262072176672518,-0.0007548691355623305,-0.005023916717618704,0.00036581981112249196,-0.01738569140434265,-1.9196851253509521,-1.1748356819152832,-0.7886422872543335,-0.022902637720108032,-0.010767434723675251
1749039593.934576,4.982522964477539,-0.42355866849932866,1.2060797850238245,2.8166767793842773,4.749387264251709,-2.812864367161886,-8.79502522066626e-24,-0.00022364228789228946,-0.0007262072176672518,-0.0007548691355623305,-0.005023916717618704,0.00036581981112249196,-0.01738569140434265,-1.9196851253509521,-1.1748356819152832,-0.7886422872543335,-0.022902637720108032,-0.010767434723675251
1749039593.9346173,4.982546806335449,-0.42355509222064214,1.2060673872577112,2.8166767793842773,4.749309062957764,-2.812845293675558,-0.0022985509131103754,-0.0002261311892652884,-0.0006079726736061275,-0.0006738374358974397,-0.005457452032715082,0.0024568357039242983,-0.02205628901720047,-1.9424262046813965,-1.1565206050872803,-0.7866165637969971,-0.031863048672676086,-0.008095633238554
1749039593.9346557,4.982541561126709,-0.42358990133319097,1.206076447163717,2.8166767793842773,4.7492852210998535,-2.8127945105182093,-0.002798761473968625,-0.000252185738645494,-0.0005854519549757242,-0.0006084914202801883,-0.006326309405267239,0.004828309640288353,-0.010777026414871216,-1.9472934007644653,-1.1801536083221436,-0.8064088821411133,-0.029334455728530884,0.0020498959347605705
1749039593.934693,4.982553482055664,-0.4235934776118775,1.2060883680926722,2.81667344152417,4.749316215515137,-2.812805477772848,-0.0027543066535145044,-0.000278404273558408,-0.0005692442646250129,-0.0005547203472815454,-0.006883194670081139,0.005914946552366018,-0.050741977989673615,-1.9835479259490967,-1.1605188846588135,-0.7836318016052246,-0.04340276122093201,-0.009481479413807392
1749039593.9347305,4.982538223266602,-0.4235587877086182,1.206095043812887,2.8166424471088867,4.749262809753418,-2.8127899805652063,-0.00231499713845551,-0.0002721972996369004,-0.0005176131380721927,-0.0005097097018733621,-0.007826976478099823,0.005539035890251398,-0.045679930597543716,-1.9674654006958008,-1.160470724105835,-0.7910417318344116,-0.03705191612243652,0.022905506193637848
1749039593.9347677,4.982514381408691,-0.42361731946978765,1.2060797850238245,2.8166767793842773,4.749268531799316,-2.812770668660299,-0.0033902826253324747,-0.002464725635945797,-0.0005061262636445463,-0.0004385812790133059,-0.009343492798507214,0.00489681214094162,-0.07791120558977127,-1.9517908096313477,-1.1601173877716064,-0.7628341913223267,-0.059452518820762634,0.013825956732034683
1749039593.9348047,4.982514381408691,-0.42361731946978765,1.2060797850238245,2.8166767793842773,4.749268531799316,-2.812770668660299,-0.0033902826253324747,-0.002464725635945797,-0.0005061262636445463,-0.0004385812790133059,-0.009343492798507214,0.00489681214094162,-0.07791120558977127,-1.9517908096313477,-1.1601173877716064,-0.7628341913223267,-0.059452518820762634,0.013825956732034683
1749039593.9348419,4.982507705688477,-0.42361004770312505,1.2060917059527796,2.816699667567871,4.7492523193359375,-2.812754217778341,-0.00877135619521141,-0.0017858239589259028,-0.0004983047256246209,-0.00038490252336487174,-0.012332950718700886,0.010751516558229923,-0.10035321116447449,-1.9569532871246338,-1.1806190013885498,-0.7486364841461182,-0.08336630463600159,0.034330520778894424
1749039593.934878,4.982507705688477,-0.42361004770312505,1.2060917059527796,2.816699667567871,4.7492523193359375,-2.812754217778341,-0.00877135619521141,-0.0017858239589259028,-0.0004983047256246209,-0.00038490252336487174,-0.012332950718700886,0.010751516558229923,-0.10035321116447449,-1.9569532871246338,-1.1806190013885498,-0.7486364841461182,-0.08336630463600159,0.034330520778894424
1749039593.934915,4.982483386993408,-0.42361004770312505,1.2060640493976038,2.8166891771503906,4.7491536140441895,-2.8127220312701624,-0.01054147444665432,-0.001467552618123591,-0.00043929286766797304,-0.0003429455100558698,-0.014280562289059162,0.014048056676983833,-0.15770277380943298,-1.9850685596466064,-1.1710619926452637,-0.7284351587295532,-0.09042203426361084,0.059892117977142334
1749039593.9349525,4.982483386993408,-0.42361004770312505,1.2060640493976038,2.8166891771503906,4.7491536140441895,-2.8127220312701624,-0.01054147444665432,-0.001467552618123591,-0.00043929286766797304,-0.0003429455100558698,-0.014280562289059162,0.014048056676983833,-0.15770277380943298,-1.9850685596466064,-1.1710619926452637,-0.7284351587295532,-0.09042203426361084,0.059892117977142334
1749039593.9349885,4.982459545135498,-0.42361004770312505,1.2060640493976038,2.8166424471088867,4.749141693115234,-2.812678639088766,-0.011880652979016304,-0.002334369346499443,-0.00046008368371985853,-0.00032522351830266416,-0.015372511930763721,0.015062372200191021,-0.14631116390228271,-1.9958796501159668,-1.1975879669189453,-0.7340675592422485,-0.08710876107215881,0.05265340954065323
1749039593.9350255,4.982420444488525,-0.42361004770312505,1.2060602347003382,2.816657705897949,4.749117374420166,-2.8126147429095667,-0.013448159210383892,-0.0033593697007745504,-0.0004764230106957257,-0.00019267256720922887,-0.01658903807401657,0.017209511250257492,-0.17596590518951416,-1.998187780380249,-1.1658520698547363,-0.7104449272155762,-0.0791638046503067,0.03763722628355026
1749039593.9350617,4.982402801513672,-0.4236026567271729,1.206048313771383,2.816680594081543,4.74904727935791,-2.812570873891012,-0.01722443290054798,-0.004166638944298029,-0.0004977342905476689,-2.8682510674116202e-05,-0.016009360551834106,0.017142370343208313,-0.17791274189949036,-1.9832475185394287,-1.165755033493042,-0.6703963875770569,-0.10961470007896423,0.0647624209523201
1749039593.935098,4.982402801513672,-0.4236026567271729,1.206048313771383,2.816680594081543,4.74904727935791,-2.812570873891012,-0.01722443290054798,-0.004166638944298029,-0.0004977342905476689,-2.8682510674116202e-05,-0.016009360551834106,0.017142370343208313,-0.17791274189949036,-1.9832475185394287,-1.165755033493042,-0.6703963875770569,-0.10961470007896423,0.0647624209523201
1749039593.9351342,4.982351779937744,-0.4236181539348145,1.2060707251178187,2.8167006212421875,4.749063968658447,-2.812526528035299,-0.018205396831035614,-0.004817209206521511,-0.0007771753589622676,0.001631196471862495,-0.014248546212911606,0.01762683503329754,-0.17707815766334534,-2.017833948135376,-1.1539278030395508,-0.6493662595748901,-0.11533823609352112,0.05851362645626068
1749039593.9352472,4.982351779937744,-0.4236181539348145,1.2060707251178187,2.8167006212421875,4.749063968658447,-2.812526528035299,-0.018205396831035614,-0.004817209206521511,-0.0007771753589622676,0.001631196471862495,-0.014248546212911606,0.01762683503329754,-0.17707815766334534,-2.017833948135376,-1.1539278030395508,-0.6493662595748901,-0.11533823609352112,0.05851362645626068
1749039593.9363465,4.982289791107178,-0.4236660760692139,1.2060640493976038,2.816732092494629,4.748997211456299,-2.8124635855304163,-0.017668815329670906,-0.006482122931629419,-0.0007203709101304412,0.004491664469242096,-0.014142799191176891,0.0167408250272274,-0.1931222379207611,-2.0157511234283447,-1.1456670761108398,-0.6294169425964355,-0.12214741110801697,0.081436388194561
1749039593.9823022,4.982178688049316,-0.4236825269511719,1.2060554663287562,2.8167282777973632,4.748961448669434,-2.812439028416769,-0.018306011334061623,-0.006208523642271757,-0.0006472167442552745,0.004485528450459242,-0.014729844406247139,0.017746329307556152,-0.2006228119134903,-1.992529034614563,-1.1576533317565918,-0.6216682195663452,-0.15501758456230164,0.07659318298101425
1749039593.9823475,4.9821577072143555,-0.42367060602221684,1.2061055342303675,2.816724939937256,4.748902320861816,-2.8124106566058558,-0.01863716170191765,-0.006149399559944868,-0.0005869003944098949,0.004634121432900429,-0.01583780348300934,0.018854545429348946,-0.16876141726970673,-2.0171899795532227,-1.1359226703643799,-0.5984017848968506,-0.13374903798103333,0.08268563449382782
1749039593.9823883,4.9821577072143555,-0.42367060602221684,1.2061055342303675,2.816724939937256,4.748902320861816,-2.8124106566058558,-0.01863716170191765,-0.006149399559944868,-0.0005869003944098949,0.004634121432900429,-0.01583780348300934,0.018854545429348946,-0.16876141726970673,-2.0171899795532227,-1.1359226703643799,-0.5984017848968506,-0.13374903798103333,0.08268563449382782
1749039593.9824278,4.9821577072143555,-0.42367060602221684,1.2061055342303675,2.816724939937256,4.748902320861816,-2.8124106566058558,-0.01863716170191765,-0.006149399559944868,-0.0005869003944098949,0.004634121432900429,-0.01583780348300934,0.018854545429348946,-0.16876141726970673,-2.0171899795532227,-1.1359226703643799,-0.5984017848968506,-0.13374903798103333,0.08268563449382782
1749039593.9824662,4.982052326202393,-0.4237380784801026,1.206036392842428,2.816760702724121,4.7488298416137695,-2.8122718969928187,-0.020758725702762604,-0.007480064872652292,-0.0004586086724884808,0.007957647554576397,-0.018723849207162857,0.02227298729121685,-0.20301340520381927,-2.042520046234131,-1.1390221118927002,-0.5771610736846924,-0.1685739904642105,0.10727602243423462
1749039593.9825044,4.982020854949951,-0.42371519029650884,1.2060797850238245,2.8167807298847656,4.748769760131836,-2.8122273127185267,-0.02123703993856907,-0.007052273955196142,-0.0004274704260751605,0.008174296468496323,-0.01997230015695095,0.023303013294935226,-0.204182967543602,-2.0590384006500244,-1.123476505279541,-0.560742974281311,-0.15387719869613647,0.11156604439020157
1749039593.9825418,4.982020854949951,-0.42371519029650884,1.2060797850238245,2.8167807298847656,4.748769760131836,-2.8122273127185267,-0.02123703993856907,-0.007052273955196142,-0.0004274704260751605,0.008174296468496323,-0.01997230015695095,0.023303013294935226,-0.204182967543602,-2.0590384006500244,-1.123476505279541,-0.560742974281311,-0.15387719869613647,0.11156604439020157
1749039593.9825788,4.9818854331970215,-0.42376287401232915,1.206048313771383,2.816824122066162,4.74867057800293,-2.812143866215841,-0.02359478361904621,-0.007995056919753551,-0.00037636622437275946,0.010088151320815086,-0.023018676787614822,0.025871286168694496,-0.19501060247421265,-2.072220802307129,-1.1263885498046875,-0.5673589706420898,-0.18086230754852295,0.13057732582092285
1749039593.9826167,4.981875419616699,-0.4237819474986573,1.2060673872577112,2.816836042995117,4.748650074005127,-2.812072817479269,-0.025322118774056435,-0.00865855161100626,-0.0003551405679900199,0.010117358528077602,-0.023804159834980965,0.027871645987033844,-0.16869577765464783,-2.064471960067749,-1.1067070960998535,-0.5483473539352417,-0.16986815631389618,0.15829212963581085
1749039593.982654,4.981797218322754,-0.4237747949412842,1.2060673872577112,2.8168651300617675,4.748536586761475,-2.8119941393481653,-0.02554480917751789,-0.008963625878095627,-0.0003361823037266731,0.010625923052430153,-0.02597869001328945,0.028965497389435768,-0.19003553688526154,-2.0836243629455566,-1.105459451675415,-0.5435886383056641,-0.1816953867673874,0.15988893806934357
1749039593.982691,4.981797218322754,-0.4237747949412842,1.2060673872577112,2.8168651300617675,4.748536586761475,-2.8119941393481653,-0.02554480917751789,-0.008963625878095627,-0.0003361823037266731,0.010625923052430153,-0.02597869001328945,0.028965497389435768,-0.19003553688526154,-2.0836243629455566,-1.105459451675415,-0.5435886383056641,-0.1816953867673874,0.15988893806934357
1749039593.982728,4.98174524307251,-0.4237867158702393,1.206048313771383,2.8168808656879882,4.748492240905762,-2.8119221369372767,-0.02593412809073925,-0.009035298600792885,-0.00031914585269987583,0.01084977202117443,-0.02619946375489235,0.03161577507853508,-0.2007092535495758,-2.0823912620544434,-1.1245267391204834,-0.5464277267456055,-0.1783646047115326,0.15058192610740662
1749039593.9827642,4.9816789627075195,-0.42383845270190434,1.2060797850238245,2.8169008928486328,4.748471736907959,-2.8119128386126917,-0.026389451697468758,-0.009967035613954067,-0.0003037537098862231,0.011021058075129986,-0.027999991551041603,0.033298611640930176,-0.2019370198249817,-2.084714651107788,-1.0953130722045898,-0.5301938056945801,-0.16568222641944885,0.17186708748340607
1749039593.9828007,4.981656551361084,-0.423857645397522,1.2060707251178187,2.8169166284748535,4.748380661010742,-2.8118444124804896,-0.026915062218904495,-0.010637598112225533,-0.0002897780213970691,0.011352365836501122,-0.028407176956534386,0.035652291029691696,-0.1972922384738922,-2.0901710987091064,-1.0808131694793701,-0.5149170160293579,-0.1852206289768219,0.16482333838939667
1749039593.982837,4.98156213760376,-0.42389340818438725,1.2060521284686487,2.8169285494038085,4.7484025955200195,-2.811777655278341,-0.02772206813097,-0.01152910478413105,-0.00027703194064088166,0.011650077067315578,-0.029808342456817627,0.036787256598472595,-0.18987876176834106,-2.1029746532440186,-1.0880587100982666,-0.5137672424316406,-0.1994125247001648,0.15997770428657532
1749039593.9828734,4.981454372406006,-0.4239259523204346,1.206083122883932,2.8170315462299804,4.748284339904785,-2.81158692041506,-0.030683569610118866,-0.011285590939223766,-0.00010452330025145784,0.013032983988523483,-0.03464313596487045,0.04035152867436409,-0.21184572577476501,-2.1102938652038574,-1.078521490097046,-0.5084136724472046,-0.21432001888751984,0.19284705817699432
1749039593.9829094,4.981412887573242,-0.4239571851542969,1.2060640493976038,2.8170315462299804,4.748167037963867,-2.8115065733539026,-0.031212957575917244,-0.012097570113837719,-8.965183951659128e-05,0.01389290764927864,-0.034831877797842026,0.043637312948703766,-0.22373732924461365,-2.131516218185425,-1.077690601348877,-0.49751389026641846,-0.24346798658370972,0.21493004262447357
1749039593.9829457,4.981374263763428,-0.4239497941783448,1.2060869375811976,2.817079706782959,4.748129844665527,-2.811429802571432,-0.031128769740462303,-0.012549887411296368,-8.479408279526979e-05,0.015461589209735394,-0.036902546882629395,0.04733256623148918,-0.2206742763519287,-2.1280739307403564,-1.0605237483978271,-0.47866952419281006,-0.22702623903751373,0.18411168456077576
1749039593.9829822,4.981311798095703,-0.4239892524531861,1.206048313771383,2.8170997339436035,4.748057842254639,-2.8113392035113733,-0.032196272164583206,-0.012730085290968418,-8.093884389381856e-05,0.016764916479587555,-0.039013415575027466,0.049464669078588486,-0.23808568716049194,-2.1078970432281494,-1.0590524673461914,-0.5019651651382446,-0.24391043186187744,0.18460063636302948
1749039593.9830184,4.981260776519775,-0.42400677621875005,1.2060673872577112,2.8171393114277343,4.748013973236084,-2.811246935521261,-0.034229472279548645,-0.012974894605576992,-4.389515015645884e-05,0.018403612077236176,-0.04239915311336517,0.05073828622698784,-0.22889763116836548,-2.0946197509765625,-1.0408360958099365,-0.4908630847930908,-0.24429380893707275,0.18842662870883942
1749039593.9830546,4.981260776519775,-0.42400677621875005,1.2060673872577112,2.8171393114277343,4.748013973236084,-2.811246935521261,-0.034229472279548645,-0.012974894605576992,-4.389515015645884e-05,0.018403612077236176,-0.04239915311336517,0.05073828622698784,-0.22889763116836548,-2.0946197509765625,-1.0408360958099365,-0.4908630847930908,-0.24429380893707275,0.18842662870883942
1749039593.983091,4.981151103973389,-0.4240341943553467,1.2060707251178187,2.817194624538086,4.747941970825195,-2.811139170323507,-0.03423664718866348,-0.013056960888206959,-3.746575748664327e-05,0.019015491008758545,-0.04283594712615013,0.05080367252230644,-0.24199146032333374,-2.098897933959961,-1.0381569862365723,-0.47759339213371277,-0.2598772943019867,0.20623046159744263
1749039593.9832904,4.981118679046631,-0.4240498107722779,1.2060640493976038,2.817223234767578,4.747846603393555,-2.8110128084765833,-0.03554518148303032,-0.012510959059000015,-3.567898602341302e-05,0.01981438510119915,-0.045186031609773636,0.05176173150539398,-0.24326476454734802,-2.129659652709961,-1.0288300514221191,-0.4773964285850525,-0.27446603775024414,0.22098028659820557
1749039593.9842918,4.98103141784668,-0.4240552943995972,1.206048313771383,2.8173109728046875,4.74766731262207,-2.8107968012439173,-0.03628167137503624,-0.013167749159038067,-1.5210511605801003e-07,0.021037012338638306,-0.051291853189468384,0.057399433106184006,-0.3033851385116577,-2.122097969055176,-1.0073604583740234,-0.472436785697937,-0.2464541643857956,0.20407553017139435
1749039594.0262992,4.980934143066406,-0.4241348069957276,1.2060640493976038,2.8173586565205078,4.747531890869141,-2.8107200304614466,-0.037746235728263855,-0.01287718117237091,-9.93137749816242e-09,0.022205444052815437,-0.05224495753645897,0.06017066165804863,-0.338212788105011,-2.1368346214294434,-0.9949889779090881,-0.46539902687072754,-0.24161362648010254,0.21554693579673767
1749039594.0263488,4.980800151824951,-0.4241658014110108,1.2060588041888636,2.817382975215576,4.747443199157715,-2.810573403035299,-0.04005502536892891,-0.013739130459725857,-6.48447906481664e-10,0.022230874747037888,-0.05209242179989815,0.06439711153507233,-0.29787224531173706,-2.121906280517578,-0.9839033484458923,-0.4601106345653534,-0.24196526408195496,0.19617865979671478
1749039594.0264,4.980800151824951,-0.4241658014110108,1.2060588041888636,2.817382975215576,4.747443199157715,-2.810573403035299,-0.04005502536892891,-0.013739130459725857,-6.48447906481664e-10,0.022230874747037888,-0.05209242179989815,0.06439711153507233,-0.29787224531173706,-2.121906280517578,-0.9839033484458923,-0.4601106345653534,-0.24196526408195496,0.19617865979671478
1749039594.0264404,4.980648517608643,-0.4242020410350342,1.206083122883932,2.817443533534668,4.747291564941406,-2.810286823903219,-0.041683267802000046,-0.013672225177288055,0.0002714975562412292,0.023233192041516304,-0.0527246855199337,0.06602001935243607,-0.3243793249130249,-2.1301915645599365,-0.9668523669242859,-0.4626597464084625,-0.2734205424785614,0.19299495220184326
1749039594.026479,4.980581283569336,-0.42425699651751714,1.2060673872577112,2.81751458227124,4.74716329574585,-2.810178820286886,-0.043127454817295074,-0.01335200946778059,0.0012276554480195045,0.023436782881617546,-0.05451320484280586,0.06639134138822556,-0.30995041131973267,-2.137340545654297,-0.9728201031684875,-0.42889171838760376,-0.2780919373035431,0.19027969241142273
1749039594.0265183,4.980488300323486,-0.4243007463267823,1.206083122883932,2.817547007197998,4.74705696105957,-2.8100155035602015,-0.04342041537165642,-0.014340832829475403,0.0012166638625785708,0.024570932611823082,-0.055976442992687225,0.06864809989929199,-0.3126830458641052,-2.1459131240844727,-0.9718798995018005,-0.43633946776390076,-0.29157277941703796,0.20185081660747528
1749039594.0265567,4.980476379394531,-0.424274281864502,1.2060640493976038,2.8175946909138183,4.746945858001709,-2.8098791281329554,-0.04372573271393776,-0.014329107478260994,0.0011292172130197287,0.02546798810362816,-0.05699336528778076,0.07018022239208221,-0.3485615849494934,-2.141505718231201,-0.952260434627533,-0.41539955139160156,-0.30615976452827454,0.19646330177783966
1749039594.0265937,4.980476379394531,-0.424274281864502,1.2060640493976038,2.8175946909138183,4.746945858001709,-2.8098791281329554,-0.04372573271393776,-0.014329107478260994,0.0011292172130197287,0.02546798810362816,-0.05699336528778076,0.07018022239208221,-0.3485615849494934,-2.141505718231201,-0.952260434627533,-0.41539955139160156,-0.30615976452827454,0.19646330177783966
1749039594.0266314,4.980308532714844,-0.4243254226497193,1.2060988585101526,2.817661924953125,4.746853828430176,-2.8097196261035364,-0.04621583968400955,-0.014740345068275928,0.0010397110600024462,0.027247801423072815,-0.05901830643415451,0.07154688239097595,-0.31893691420555115,-2.122593641281128,-0.9467024207115173,-0.4158376157283783,-0.2884293794631958,0.2017117142677307
1749039594.0266688,4.980159759521484,-0.42439790189776616,1.2060917059527796,2.817774458522461,4.746562957763672,-2.809432570134298,-0.045910902321338654,-0.014426893554627895,0.001210911781527102,0.02936464175581932,-0.062884621322155,0.07366444915533066,-0.38208553194999695,-2.152820110321045,-0.9206745028495789,-0.4197198748588562,-0.27725088596343994,0.18667155504226685
1749039594.0267062,4.980159759521484,-0.42439790189776616,1.2060917059527796,2.817774458522461,4.746562957763672,-2.809432570134298,-0.045910902321338654,-0.014426893554627895,0.001210911781527102,0.02936464175581932,-0.062884621322155,0.07366444915533066,-0.38208553194999695,-2.152820110321045,-0.9206745028495789,-0.4197198748588562,-0.27725088596343994,0.18667155504226685
1749039594.0267437,4.979909896850586,-0.4244455856135865,1.2060917059527796,2.8178979593464355,4.746277332305908,-2.8090747038470667,-0.05103326588869095,-0.01569640263915062,0.0023497252259403467,0.031096667051315308,-0.06624450534582138,0.07474271208047867,-0.3786883056163788,-2.1198573112487793,-0.9241035580635071,-0.41439658403396606,-0.2879490852355957,0.18298079073429108
1749039594.0267804,4.979918003082275,-0.42444343984637456,1.2060883680926722,2.8179661470600585,4.74616813659668,-2.808934752141134,-0.05339386314153671,-0.015019325539469719,0.0020811893045902252,0.03144814446568489,-0.06687582284212112,0.0752488300204277,-0.36834716796875,-2.1384012699127197,-0.9096394181251526,-0.4075619578361511,-0.2769120931625366,0.18718168139457703
1749039594.0268183,4.979760646820068,-0.4244792026332398,1.2060917059527796,2.8180453020283203,4.746040344238281,-2.808802668248312,-0.05232076346874237,-0.015791624784469604,0.001891347928903997,0.032507315278053284,-0.06748597323894501,0.07589850574731827,-0.3652178645133972,-2.146312952041626,-0.8962494134902954,-0.40151381492614746,-0.27798256278038025,0.1814592331647873
1749039594.0268555,4.979760646820068,-0.4244792026332398,1.2060917059527796,2.8180453020283203,4.746040344238281,-2.808802668248312,-0.05232076346874237,-0.015791624784469604,0.001891347928903997,0.032507315278053284,-0.06748597323894501,0.07589850574731827,-0.3652178645133972,-2.146312952041626,-0.8962494134902954,-0.40151381492614746,-0.27798256278038025,0.1814592331647873
1749039594.026892,4.9796648025512695,-0.42453844965014653,1.2061002890216272,2.818094416255615,4.745928764343262,-2.808643166218893,-0.05426684767007828,-0.015507853589951992,0.002008888404816389,0.03279822692275047,-0.06657350808382034,0.07570824772119522,-0.3970161974430084,-2.1493263244628906,-0.8991352319717407,-0.3906325399875641,-0.2899496257305145,0.2000168263912201
1749039594.0269284,4.97952938079834,-0.4245273631862183,1.2061188856707972,2.818173571223877,4.745742321014404,-2.808490816746847,-0.055853139609098434,-0.01635606400668621,0.0027726334519684315,0.033051811158657074,-0.06639190763235092,0.07808039337396622,-0.3536735773086548,-2.1522774696350098,-0.8859679102897644,-0.4059867262840271,-0.305547297000885,0.2051714062690735
1749039594.026965,4.9793548583984375,-0.4246289295009156,1.2061308065997522,2.8182894426533203,4.745553493499756,-2.808160130177633,-0.05838790163397789,-0.016362739726901054,0.004310205578804016,0.03471509367227554,-0.0666346326470375,0.07931388169527054,-0.3876008689403534,-2.1495559215545654,-0.8967917561531067,-0.39402511715888977,-0.31864282488822937,0.21540385484695435
1749039594.0270016,4.979259014129639,-0.42463047922167974,1.2061274687396448,2.818361445064209,4.745394706726074,-2.808011833821432,-0.05906471237540245,-0.016275126487016678,0.004784772172570229,0.03572596237063408,-0.0675983801484108,0.08006605505943298,-0.4093535244464874,-2.167635917663574,-0.8943596482276917,-0.39639168977737427,-0.3492650091648102,0.2309122532606125
1749039594.0270376,4.979094982147217,-0.4246900838664551,1.2061427275287073,2.8184563356586914,4.745223522186279,-2.807821814213888,-0.06053454428911209,-0.01734771393239498,0.00502541521564126,0.03463342413306236,-0.06927375495433807,0.08138540387153625,-0.40391361713409424,-2.1476454734802246,-0.89347904920578,-0.37910231947898865,-0.3381754159927368,0.250027596950531
1749039594.0271454,4.979094982147217,-0.4246900838664551,1.2061427275287073,2.8184563356586914,4.745223522186279,-2.807821814213888,-0.06053454428911209,-0.01734771393239498,0.00502541521564126,0.03463342413306236,-0.06927375495433807,0.08138540387153625,-0.40391361713409424,-2.1476454734802246,-0.89347904920578,-0.37910231947898865,-0.3381754159927368,0.250027596950531
1749039594.0282722,4.978856563568115,-0.42471952856097417,1.2061875502215784,2.818596525783203,4.744894504547119,-2.807474676762716,-0.063869908452034,-0.01778906211256981,0.005244447384029627,0.03465718403458595,-0.07323525100946426,0.08946128189563751,-0.393000066280365,-2.150247812271118,-0.8881891369819641,-0.37395909428596497,-0.3594372272491455,0.2231847196817398
1749039594.0702946,4.978712558746338,-0.42480559766802983,1.2061637083636683,2.8186489778706054,4.744785785675049,-2.807344977055685,-0.06407400220632553,-0.0179975014179945,0.005227779969573021,0.0354384183883667,-0.07612285017967224,0.08848769962787628,-0.4261171221733093,-2.153843641281128,-0.8824499249458313,-0.36910736560821533,-0.33521169424057007,0.2200738489627838
1749039594.0703406,4.978712558746338,-0.42480559766802983,1.2061637083636683,2.8186489778706054,4.744785785675049,-2.807344977055685,-0.06407400220632553,-0.0179975014179945,0.005227779969573021,0.0354384183883667,-0.07612285017967224,0.08848769962787628,-0.4261171221733093,-2.153843641281128,-0.8824499249458313,-0.36910736560821533,-0.33521169424057007,0.2200738489627838
1749039594.0703814,4.978423118591309,-0.4248611491969605,1.2061994711505335,2.818812056178711,4.744467735290527,-2.80696684518923,-0.06664759665727615,-0.01842373237013817,0.00662287138402462,0.03815194219350815,-0.07869304716587067,0.09368851780891418,-0.42999085783958435,-2.1742818355560303,-0.8961985111236572,-0.3779255151748657,-0.33715593814849854,0.23608559370040894
1749039594.0704205,4.9783430099487305,-0.42492492616687016,1.2062080542193812,2.818868799800537,4.744323253631592,-2.8067756334887903,-0.06832601130008698,-0.019311774522066116,0.0063578593544662,0.0368804968893528,-0.08073247969150543,0.09628560394048691,-0.42385774850845337,-2.1594796180725098,-0.8920595645904541,-0.36427828669548035,-0.34289681911468506,0.22502565383911133
1749039594.070459,4.9781646728515625,-0.4249376815608521,1.206230942402975,2.818948431605957,4.7441864013671875,-2.8065648714648646,-0.06968068331480026,-0.019548073410987854,0.005597138311713934,0.03812640905380249,-0.08367254585027695,0.09971032291650772,-0.421714186668396,-2.171505928039551,-0.8849235773086548,-0.34572821855545044,-0.34124964475631714,0.20384149253368378
1749039594.0704968,4.977996826171875,-0.42495425165209966,1.2062385717975062,2.819051428432129,4.743965148925781,-2.806368414555685,-0.07055989652872086,-0.019808460026979446,0.005091566126793623,0.040134165436029434,-0.0881156250834465,0.10165464133024216,-0.4660392999649048,-2.175936698913574,-0.8826001882553101,-0.3466434180736542,-0.30668383836746216,0.22152850031852722
1749039594.0705347,4.977914810180664,-0.4250098031810303,1.2062352339373987,2.8191234308430175,4.743804931640625,-2.8061464468585413,-0.07253805547952652,-0.02012726292014122,0.005739037878811359,0.04118956997990608,-0.09190636873245239,0.10237395763397217,-0.44763898849487305,-2.1826910972595215,-0.8633748888969421,-0.36221542954444885,-0.2797331213951111,0.21613255143165588
1749039594.0705724,4.977738380432129,-0.4250543874553223,1.2062442938434046,2.819195433253906,4.743622303009033,-2.8059545199023646,-0.07274020463228226,-0.020875323563814163,0.006156321614980698,0.0410844124853611,-0.08922623842954636,0.10370627790689468,-0.4426894783973694,-2.174443244934082,-0.870212972164154,-0.3631611466407776,-0.26595640182495117,0.22279317677021027
1749039594.0706103,4.97761869430542,-0.4251215022853394,1.2062667051898401,2.81927935659375,4.743431568145752,-2.8057270685779017,-0.0739908218383789,-0.021230164915323257,0.00701588811352849,0.0425514355301857,-0.08875731378793716,0.10539944469928741,-0.4588996171951294,-2.174590587615967,-0.8878253698348999,-0.35470902919769287,-0.2969498634338379,0.21602019667625427
1749039594.0706475,4.97761869430542,-0.4251215022853394,1.2062667051898401,2.81927935659375,4.743431568145752,-2.8057270685779017,-0.0739908218383789,-0.021230164915323257,0.00701588811352849,0.0425514355301857,-0.08875731378793716,0.10539944469928741,-0.4588996171951294,-2.174590587615967,-0.8878253698348999,-0.35470902919769287,-0.2969498634338379,0.21602019667625427
1749039594.070685,4.977310657501221,-0.425178126697876,1.2062748114215296,2.8194586473652343,4.743095874786377,-2.8052695433246058,-0.07678717374801636,-0.02258967235684395,0.005764782428741455,0.04287246987223625,-0.09001420438289642,0.10630583018064499,-0.41496309638023376,-2.1867551803588867,-0.8730425834655762,-0.365117609500885,-0.2817828059196472,0.22025533020496368
1749039594.0707219,4.977114677429199,-0.42524953306231694,1.2062833944903772,2.8195082384296875,4.742935657501221,-2.8050885836230677,-0.0790952518582344,-0.02329307794570923,0.005898319650441408,0.04415149614214897,-0.08967266231775284,0.10736378282308578,-0.45207440853118896,-2.1882967948913574,-0.850927472114563,-0.36655163764953613,-0.3086739480495453,0.21604453027248383
1749039594.0707583,4.976923942565918,-0.4253050845912476,1.2062800566302698,2.8196427065083007,4.742740154266357,-2.8048890272723597,-0.08475947380065918,-0.023758430033922195,0.007008195389062166,0.04665810987353325,-0.08983572572469711,0.10760663449764252,-0.41760027408599854,-2.1868896484375,-0.8622274398803711,-0.3694671392440796,-0.30969324707984924,0.2357088327407837
1749039594.070795,4.9767913818359375,-0.425306038265564,1.20632249513735,2.8197380739399414,4.7425456047058105,-2.804661575947897,-0.08212725818157196,-0.02417350746691227,0.007577529177069664,0.04784896969795227,-0.09103397279977798,0.10860556364059448,-0.4556947946548462,-2.201786994934082,-0.885807991027832,-0.3596845269203186,-0.29192614555358887,0.24705439805984497
1749039594.070831,4.9767913818359375,-0.425306038265564,1.20632249513735,2.8197380739399414,4.7425456047058105,-2.804661575947897,-0.08212725818157196,-0.02417350746691227,0.007577529177069664,0.04784896969795227,-0.09103397279977798,0.10860556364059448,-0.4556947946548462,-2.201786994934082,-0.885807991027832,-0.3596845269203186,-0.29192614555358887,0.24705439805984497
1749039594.0708678,4.976439952850342,-0.4254651826671143,1.2063315550433558,2.8199145036884765,4.742187023162842,-2.804258648549215,-0.08596408367156982,-0.024784108623862267,0.006223166361451149,0.04874102398753166,-0.0899089053273201,0.10977625101804733,-0.42666077613830566,-2.1769375801086426,-0.8544267416000366,-0.37400609254837036,-0.3201342523097992,0.2534328103065491
1749039594.0709043,4.97627592086792,-0.42547793806109624,1.206315819417135,2.8200136858173828,4.742003440856934,-2.804011408482687,-0.0858544260263443,-0.025163467973470688,0.006268609315156937,0.049765463918447495,-0.09073064476251602,0.11203187704086304,-0.444564551115036,-2.191195487976074,-0.8443744778633118,-0.38102802634239197,-0.323468953371048,0.2900126874446869
1749039594.070941,4.97627592086792,-0.42547793806109624,1.206315819417135,2.8200136858173828,4.742003440856934,-2.804011408482687,-0.0858544260263443,-0.025163467973470688,0.006268609315156937,0.049765463918447495,-0.09073064476251602,0.11203187704086304,-0.444564551115036,-2.191195487976074,-0.8443744778633118,-0.38102802634239197,-0.323468953371048,0.2900126874446869
1749039594.0709774,4.975881099700928,-0.4256048959544678,1.206355396901266,2.820213957423828,4.74165678024292,-2.803533379231588,-0.08935964107513428,-0.026010997593402863,0.007095309905707836,0.05123385787010193,-0.09430357813835144,0.12111268937587738,-0.46094784140586853,-2.2120614051818848,-0.8280614018440247,-0.38956063985824585,-0.3807128667831421,0.2612948417663574
1749039594.0710142,4.975705146789551,-0.4256339830211182,1.2063944975482386,2.8203255373188476,4.741493225097656,-2.8032859007464808,-0.09364061802625656,-0.025754885748028755,0.0074101104401052,0.0514267161488533,-0.0996759831905365,0.12137866020202637,-0.4460146725177765,-2.221839427947998,-0.8415468335151672,-0.4065810441970825,-0.3576672077178955,0.30542898178100586
1749039594.0711193,4.975541114807129,-0.4256851238063355,1.2063944975482386,2.820429487819336,4.741296768188477,-2.803054396306173,-0.09192678332328796,-0.026458146050572395,0.0075868782587349415,0.05071323364973068,-0.09907256066799164,0.12445366382598877,-0.4294132590293884,-2.2236168384552,-0.8259677886962891,-0.39289891719818115,-0.37503179907798767,0.26493722200393677
1749039594.0722723,4.975376605987549,-0.4257541459849854,1.2063878218280237,2.8205339151569824,4.7410430908203125,-2.802772347127096,-0.0936257392168045,-0.026855267584323883,0.007833831012248993,0.04939225688576698,-0.102645143866539,0.12899315357208252,-0.4453246295452118,-2.2075841426849365,-0.8321337699890137,-0.3865898847579956,-0.3699445426464081,0.24250584840774536
1749039594.1143909,4.975176811218262,-0.4257825177958985,1.2064083258258265,2.8206369119831542,4.740827560424805,-2.802504841481344,-0.0952676385641098,-0.026801010593771935,0.007734168786555529,0.0491996631026268,-0.10580123215913773,0.1309257596731186,-0.4188762605190277,-2.222245216369629,-0.8374539613723755,-0.3702702224254608,-0.3659008741378784,0.26337459683418274
1749039594.114437,4.974953651428223,-0.42586548746142583,1.2064650694476526,2.820744677180908,4.740581512451172,-2.8022452036487024,-0.09586052596569061,-0.026403186842799187,0.008128635585308075,0.049938127398490906,-0.11230310052633286,0.13242925703525543,-0.4470694065093994,-2.2390482425689697,-0.8202725648880005,-0.3957245349884033,-0.3169569969177246,0.2556449770927429
1749039594.1144779,4.974953651428223,-0.42586548746142583,1.2064650694476526,2.820744677180908,4.740581512451172,-2.8022452036487024,-0.09586052596569061,-0.026403186842799187,0.008128635585308075,0.049938127398490906,-0.11230310052633286,0.13242925703525543,-0.4470694065093994,-2.2390482425689697,-0.8202725648880005,-0.3957245349884033,-0.3169569969177246,0.2556449770927429
1749039594.114518,4.974722385406494,-0.4258945745280762,1.206442658101217,2.8208491045185546,4.740374565124512,-2.8019664923297327,-0.09649211913347244,-0.02709021419286728,0.007915116846561432,0.04939863085746765,-0.11170020699501038,0.13328863680362701,-0.44264358282089233,-2.239474296569824,-0.81882643699646,-0.37676191329956055,-0.3280235230922699,0.2243867963552475
1749039594.1145563,4.974562168121338,-0.4259576362422486,1.206482235585348,2.820927782649658,4.740135192871094,-2.8016839663134974,-0.09876833111047745,-0.02799488604068756,0.008084593340754509,0.04970775917172432,-0.11339466273784637,0.13305887579917908,-0.4547868072986603,-2.2296907901763916,-0.8385280966758728,-0.3877524733543396,-0.3459717035293579,0.24608084559440613
1749039594.1145952,4.97420072555542,-0.4260743421367188,1.20648700395693,2.8211399751850585,4.739730358123779,-2.8011964003192347,-0.10132192075252533,-0.02764308638870716,0.009107336401939392,0.04956410825252533,-0.11653463542461395,0.1362152099609375,-0.4325806498527527,-2.248918056488037,-0.8180531859397888,-0.3609723448753357,-0.31408625841140747,0.2505417466163635
1749039594.1146333,4.973965167999268,-0.4261186879924317,1.2064994017230433,2.82123248159375,4.739487171173096,-2.800955835972921,-0.10191560536623001,-0.028073793277144432,0.008992988616228104,0.05108116194605827,-0.11677170544862747,0.1357695609331131,-0.47621846199035645,-2.2666985988616943,-0.8218736052513123,-0.33705711364746094,-0.3037978708744049,0.262008935213089
1749039594.1146715,4.973742961883545,-0.42620165765795903,1.2065113226519983,2.8213512140461425,4.739271640777588,-2.800664488469259,-0.10507594048976898,-0.028191452845931053,0.008520660921931267,0.0540333166718483,-0.11637773364782333,0.14104537665843964,-0.4494180977344513,-2.273696184158325,-0.8149014115333557,-0.3472369909286499,-0.31499212980270386,0.2967432737350464
1749039594.1147096,4.973742961883545,-0.42620165765795903,1.2065113226519983,2.8213512140461425,4.739271640777588,-2.800664488469259,-0.10507594048976898,-0.028191452845931053,0.008520660921931267,0.0540333166718483,-0.11637773364782333,0.14104537665843964,-0.4494180977344513,-2.273696184158325,-0.8149014115333557,-0.3472369909286499,-0.31499212980270386,0.2967432737350464
1749039594.1147478,4.973288536071777,-0.4263093036464234,1.2065542379962366,2.8215629297443847,4.73882532119751,-2.8000953833209437,-0.10765884071588516,-0.02915533445775509,0.008966933004558086,0.05569986253976822,-0.11520488560199738,0.14668451249599457,-0.44548842310905457,-2.2745375633239746,-0.8220710158348083,-0.3451402187347412,-0.34321942925453186,0.29246199131011963
1749039594.114785,4.973080158233643,-0.42640073717150884,1.2065709272967737,2.821624441737793,4.738582611083984,-2.7997847239123743,-0.10702431201934814,-0.028714187443256378,0.009397816844284534,0.05422178655862808,-0.11557140946388245,0.15042944252490997,-0.43377265334129333,-2.3004724979400635,-0.809468686580658,-0.3187723159790039,-0.3679838180541992,0.2864077687263489
1749039594.1148326,4.973080158233643,-0.42640073717150884,1.2065709272967737,2.821624441737793,4.738582611083984,-2.7997847239123743,-0.10702431201934814,-0.028714187443256378,0.009397816844284534,0.05422178655862808,-0.11557140946388245,0.15042944252490997,-0.43377265334129333,-2.3004724979400635,-0.809468686580658,-0.3187723159790039,-0.3679838180541992,0.2864077687263489
1749039594.114874,4.973080158233643,-0.42640073717150884,1.2065709272967737,2.821624441737793,4.738582611083984,-2.7997847239123743,-0.10702431201934814,-0.028714187443256378,0.009397816844284534,0.05422178655862808,-0.11557140946388245,0.15042944252490997,-0.43377265334129333,-2.3004724979400635,-0.809468686580658,-0.3187723159790039,-0.3679838180541992,0.2864077687263489
1749039594.1149116,4.972445487976074,-0.4265217346004029,1.2066105047809046,2.8219825464436035,4.737885475158691,-2.798883024846212,-0.10872208327054977,-0.0302896648645401,0.009481116198003292,0.0584355928003788,-0.12140347808599472,0.15855076909065247,-0.4973401427268982,-2.3178551197052,-0.8107597827911377,-0.3065882623195648,-0.394334077835083,0.26796865463256836
1749039594.1149485,4.972445487976074,-0.4265217346004029,1.2066105047809046,2.8219825464436035,4.737885475158691,-2.798883024846212,-0.10872208327054977,-0.0302896648645401,0.009481116198003292,0.0584355928003788,-0.12140347808599472,0.15855076909065247,-0.4973401427268982,-2.3178551197052,-0.8107597827911377,-0.3065882623195648,-0.394334077835083,0.26796865463256836
1749039594.1149855,4.972015857696533,-0.4266657394221802,1.2066620031939905,2.822206659907959,4.737379550933838,-2.798256222401754,-0.11141903698444366,-0.03119460865855217,0.009533856064081192,0.06152953580021858,-0.1260627657175064,0.15914645791053772,-0.49259626865386963,-2.321377992630005,-0.8117753863334656,-0.2977781295776367,-0.39249187707901,0.2582194209098816
1749039594.1150224,4.972015857696533,-0.4266657394221802,1.2066620031939905,2.822206659907959,4.737379550933838,-2.798256222401754,-0.11141903698444366,-0.03119460865855217,0.009533856064081192,0.06152953580021858,-0.1260627657175064,0.15914645791053772,-0.49259626865386963,-2.321377992630005,-0.8117753863334656,-0.2977781295776367,-0.39249187707901,0.2582194209098816
1749039594.115059,4.971533298492432,-0.4267769616893311,1.2066758314715784,2.822457953090332,4.736821174621582,-2.797633234654562,-0.11601868271827698,-0.03416186198592186,0.009535079821944237,0.061064787209033966,-0.13696661591529846,0.16244608163833618,-0.35317760705947876,-2.2825794219970703,-0.7843514084815979,-0.2972066402435303,-0.3084457218647003,0.2326831817626953
1749039594.1150959,4.971262454986572,-0.4268769782832642,1.2067063490497034,2.8225619035908203,4.736588954925537,-2.7972825209247034,-0.11107011139392853,-0.03191431611776352,0.00982964038848877,0.06194479018449783,-0.1366967111825943,0.15952908992767334,-0.3002023994922638,-2.3044097423553467,-0.7877054214477539,-0.31989073753356934,-0.2967725992202759,0.22991842031478882
1749039594.1151323,4.971262454986572,-0.4268769782832642,1.2067063490497034,2.8225619035908203,4.736588954925537,-2.7972825209247034,-0.11107011139392853,-0.03191431611776352,0.00982964038848877,0.06194479018449783,-0.1366967111825943,0.15952908992767334,-0.3002023994922638,-2.3044097423553467,-0.7877054214477539,-0.31989073753356934,-0.2967725992202759,0.22991842031478882
1749039594.11524,4.970869064331055,-0.4269811672023316,1.2067511717425745,2.822826071376465,4.736019611358643,-2.79665190378298,-0.11838368326425552,-0.0358152911067009,0.009679069742560387,0.06634940952062607,-0.13570426404476166,0.15953660011291504,-0.6350304484367371,-2.363393545150757,-0.7910622954368591,-0.3240998685359955,-0.36899709701538086,0.28652140498161316
1749039594.1163194,4.970631122589111,-0.42706866682086186,1.2067630926715296,2.822945757503174,4.735725402832031,-2.796297613774435,-0.12711286544799805,-0.0355677455663681,0.009454463608562946,0.06663180142641068,-0.1378200799226761,0.1627049446105957,-0.4547522962093353,-2.3297741413116455,-0.7972585558891296,-0.3195168972015381,-0.3389853239059448,0.30599117279052734
1749039594.158315,4.970631122589111,-0.42706866682086186,1.2067630926715296,2.822945757503174,4.735725402832031,-2.796297613774435,-0.12711286544799805,-0.0355677455663681,0.009454463608562946,0.06663180142641068,-0.1378200799226761,0.1627049446105957,-0.4547522962093353,-2.3297741413116455,-0.7972585558891296,-0.3195168972015381,-0.3389853239059448,0.30599117279052734
1749039594.1583624,4.970088005065918,-0.42719395578417974,1.2067988554583948,2.8232595163532714,4.735175132751465,-2.7956631819354456,-0.12545306980609894,-0.039060305804014206,0.009816828183829784,0.0681021586060524,-0.1343611776828766,0.16882289946079254,-0.5024392008781433,-2.3240344524383545,-0.7903711199760437,-0.32259154319763184,-0.3771509528160095,0.2853326201438904
1749039594.1584034,4.969865322113037,-0.4272853893092652,1.2068455854998987,2.823403521175049,4.734986305236816,-2.7953160444842737,-0.12701423466205597,-0.037601832300424576,0.009637434966862202,0.0703052431344986,-0.131826251745224,0.17097224295139313,-0.524858832359314,-2.3286681175231934,-0.8005526661872864,-0.31478509306907654,-0.4152398407459259,0.26962965726852417
1749039594.1584423,4.96958065032959,-0.42737288892779546,1.2068384329425257,2.82352797567334,4.734692096710205,-2.7949727217303675,-0.12912185490131378,-0.03898422420024872,0.00978192500770092,0.07195142656564713,-0.13588517904281616,0.17317244410514832,-0.39780816435813904,-2.3355956077575684,-0.7824772000312805,-0.3315560519695282,-0.4091377556324005,0.2582496404647827
1749039594.1584811,4.96958065032959,-0.42737288892779546,1.2068384329425257,2.82352797567334,4.734692096710205,-2.7949727217303675,-0.12912185490131378,-0.03898422420024872,0.00978192500770092,0.07195142656564713,-0.13588517904281616,0.17317244410514832,-0.39780816435813904,-2.3355956077575684,-0.7824772000312805,-0.3315560519695282,-0.4091377556324005,0.2582496404647827
1749039594.1585236,4.969324111938477,-0.427434043293335,1.206843678151266,2.823671503657959,4.7344255447387695,-2.79462176958193,-0.1259697675704956,-0.040659062564373016,0.010246794670820236,0.07311437278985977,-0.13509413599967957,0.17504183948040009,-0.4301304817199707,-2.3106935024261475,-0.7628251314163208,-0.32845449447631836,-0.4401788115501404,0.2909207344055176
1749039594.158566,4.968818664550781,-0.4276053470424195,1.2069137732135218,2.823983355159424,4.733885765075684,-2.793924156819479,-0.12958313524723053,-0.041385769844055176,0.01104714348912239,0.07569243013858795,-0.1434556543827057,0.17745068669319153,-0.555243730545044,-2.315992593765259,-0.7782723903656006,-0.34564781188964844,-0.4559785723686218,0.28675222396850586
1749039594.1586049,4.968598365783691,-0.42770476758990483,1.2069533506976526,2.824145956630371,4.733564376831055,-2.7935686747180384,-0.133450448513031,-0.04277729615569115,0.011678901500999928,0.07402195781469345,-0.14790737628936768,0.18402037024497986,-0.43708330392837524,-2.295289993286133,-0.7800695300102234,-0.36935853958129883,-0.4302510619163513,0.2629697322845459
1749039594.158643,4.968291759490967,-0.42778034627948003,1.2069276014911097,2.8242708879658203,4.7332305908203125,-2.7931886355029505,-0.13665622472763062,-0.043380748480558395,0.011521060019731522,0.07270309329032898,-0.15317969024181366,0.18407446146011353,-0.47201135754585266,-2.2964067459106445,-0.7814230918884277,-0.33553797006607056,-0.4236662983894348,0.28451794385910034
1749039594.1586807,4.9680280685424805,-0.4278422159007569,1.2069514433490198,2.8244144159504394,4.732931137084961,-2.7928152720080774,-0.1361742466688156,-0.043951213359832764,0.01100255362689495,0.07327490299940109,-0.15822617709636688,0.18616512417793274,-0.43781259655952454,-2.282174825668335,-0.7702165246009827,-0.34973496198654175,-0.3766804039478302,0.289422869682312
1749039594.1587183,4.9680280685424805,-0.4278422159007569,1.2069514433490198,2.8244144159504394,4.732931137084961,-2.7928152720080774,-0.1361742466688156,-0.043951213359832764,0.01100255362689495,0.07327490299940109,-0.15822617709636688,0.18616512417793274,-0.43781259655952454,-2.282174825668335,-0.7702165246009827,-0.34973496198654175,-0.3766804039478302,0.289422869682312
1749039594.1587553,4.967512130737305,-0.4280098241618653,1.207033936177389,2.824713869685791,4.732297420501709,-2.7920494715320032,-0.13399335741996765,-0.043669041246175766,0.011606946587562561,0.07327545434236526,-0.16087345778942108,0.18946804106235504,-0.4985424876213074,-2.317854642868042,-0.7835560441017151,-0.3354150056838989,-0.35389289259910583,0.27536606788635254
1749039594.1587958,4.967214584350586,-0.4281166356853028,1.2070234457599085,2.82483880102124,4.7320404052734375,-2.7917097250567835,-0.13797755539417267,-0.04350828379392624,0.011746080592274666,0.07144857197999954,-0.16018763184547424,0.18971635401248932,-0.5151796340942383,-2.3205699920654297,-0.7688880562782288,-0.33164599537849426,-0.37202709913253784,0.28259485960006714
1749039594.1588333,4.967214584350586,-0.4281166356853028,1.2070234457599085,2.82483880102124,4.7320404052734375,-2.7917097250567835,-0.13797755539417267,-0.04350828379392624,0.011746080592274666,0.07144857197999954,-0.16018763184547424,0.18971635401248932,-0.5151796340942383,-2.3205699920654297,-0.7688880562782288,-0.33164599537849426,-0.37202709913253784,0.28259485960006714
1749039594.158873,4.966991901397705,-0.42820222795520024,1.207038704548971,2.8249704080769042,4.731659889221191,-2.791319195424215,-0.13724423944950104,-0.04554840177297592,0.01243799552321434,0.07406371086835861,-0.1576712429523468,0.18998469412326813,-0.49561136960983276,-2.2959020137786865,-0.7793367505073547,-0.3199318051338196,-0.381949782371521,0.2806820273399353
1749039594.1589112,4.966403007507324,-0.42838914812121587,1.2070711294757288,2.8252617555805664,4.731010913848877,-2.7905336062060755,-0.1434696465730667,-0.04419688507914543,0.011159200221300125,0.0712130218744278,-0.1618328094482422,0.19389896094799042,-0.46030062437057495,-2.324467897415161,-0.7729573845863342,-0.28757283091545105,-0.4098964035511017,0.2837889790534973
1749039594.1589484,4.96616268157959,-0.42850418508563237,1.2071331183062952,2.8254281717487792,4.73069953918457,-2.790166441594259,-0.14407986402511597,-0.04521569237112999,0.01086149550974369,0.06961417198181152,-0.16148735582828522,0.1977013647556305,-0.49635791778564453,-2.32291841506958,-0.7762947678565979,-0.28157928586006165,-0.39436691999435425,0.2771587669849396
1749039594.158986,4.9658308029174805,-0.42855413377795415,1.2071226278888147,2.8255645471760253,4.730349063873291,-2.7897520701037806,-0.1454358994960785,-0.04574645310640335,0.010071837343275547,0.07216519862413406,-0.16378270089626312,0.19826140999794006,-0.46739208698272705,-2.312424659729004,-0.7529920935630798,-0.2898567020893097,-0.38035786151885986,0.28747907280921936
1749039594.1590233,4.9658308029174805,-0.42855413377795415,1.2071226278888147,2.8255645471760253,4.730349063873291,-2.7897520701037806,-0.1454358994960785,-0.04574645310640335,0.010071837343275547,0.07216519862413406,-0.16378270089626312,0.19826140999794006,-0.46739208698272705,-2.312424659729004,-0.7529920935630798,-0.2898567020893097,-0.38035786151885986,0.28747907280921936
1749039594.1590633,4.965282440185547,-0.4287538093379517,1.2071550528155726,2.8258249002644042,4.729694843292236,-2.788981262837545,-0.14695963263511658,-0.04719369113445282,0.010778122581541538,0.07841046154499054,-0.16911716759204865,0.20342129468917847,-0.47825533151626587,-2.2910985946655273,-0.7588497996330261,-0.2799014449119568,-0.3697832226753235,0.29162946343421936
1749039594.1591728,4.9649763107299805,-0.42885322988543706,1.2071741263019007,2.825996084804199,4.7293901443481445,-2.7885785738574427,-0.1479058712720871,-0.045267388224601746,0.010701478458940983,0.07796540856361389,-0.1693936139345169,0.2062569409608841,-0.490761399269104,-2.3186585903167725,-0.7329971790313721,-0.2956179678440094,-0.33820483088493347,0.28716200590133667
1749039594.1602993,4.964688301086426,-0.42898960531268315,1.2072137037860315,2.8261396127888183,4.729025363922119,-2.788139883671896,-0.1503133922815323,-0.04720744490623474,0.010478813201189041,0.07669633626937866,-0.16736233234405518,0.20751959085464478,-0.5061336755752563,-2.308387279510498,-0.7501130104064941,-0.25885245203971863,-0.37146174907684326,0.2650098502635956
1749039594.2022853,4.964688301086426,-0.42898960531268315,1.2072137037860315,2.8261396127888183,4.729025363922119,-2.788139883671896,-0.1503133922815323,-0.04720744490623474,0.010478813201189041,0.07669633626937866,-0.16736233234405518,0.20751959085464478,-0.5061336755752563,-2.308387279510498,-0.7501130104064941,-0.25885245203971863,-0.37146174907684326,0.2650098502635956
1749039594.2023313,4.964111328125,-0.42918117464099126,1.2072151342975062,2.8264433580585937,4.728322982788086,-2.78726035753359,-0.15207648277282715,-0.04781156778335571,0.010259756818413734,0.08210541307926178,-0.16598926484584808,0.20953674614429474,-0.5103450417518616,-2.2942512035369873,-0.7343875765800476,-0.26399463415145874,-0.3784770369529724,0.2529246211051941
1749039594.2023726,4.964111328125,-0.42918117464099126,1.2072151342975062,2.8264433580585937,4.728322982788086,-2.78726035753359,-0.15207648277282715,-0.04781156778335571,0.010259756818413734,0.08210541307926178,-0.16598926484584808,0.20953674614429474,-0.5103450417518616,-2.2942512035369873,-0.7343875765800476,-0.26399463415145874,-0.3784770369529724,0.2529246211051941
1749039594.2024126,4.963492393493652,-0.4293578428081055,1.2072976271258753,2.8267580705830078,4.727641582489014,-2.7864330450641077,-0.15466159582138062,-0.048503950238227844,0.011635697446763515,0.08696351945400238,-0.16821284592151642,0.21116086840629578,-0.49999481439590454,-2.304084062576294,-0.7533491849899292,-0.2778591513633728,-0.38078615069389343,0.2804662883281708
1749039594.202451,4.963492393493652,-0.4293578428081055,1.2072976271258753,2.8267580705830078,4.727641582489014,-2.7864330450641077,-0.15466159582138062,-0.048503950238227844,0.011635697446763515,0.08696351945400238,-0.16821284592151642,0.21116086840629578,-0.49999481439590454,-2.304084062576294,-0.7533491849899292,-0.2778591513633728,-0.38078615069389343,0.2804662883281708
1749039594.2025068,4.962873458862305,-0.4295458358577271,1.2073176542865198,2.82711045324292,4.726995944976807,-2.785567824040548,-0.1591193526983261,-0.05030259117484093,0.011517807841300964,0.090825654566288,-0.17615127563476562,0.21364960074424744,-0.4953581392765045,-2.278388023376465,-0.7448548674583435,-0.30478352308273315,-0.4052028954029083,0.2608502507209778
1749039594.2025478,4.962514877319336,-0.42967315137896733,1.2073610464679163,2.8273021417805175,4.726656913757324,-2.7851322332965296,-0.1606188416481018,-0.0511648915708065,0.011499355547130108,0.09116508811712265,-0.17614100873470306,0.21532472968101501,-0.5182209014892578,-2.281442403793335,-0.7334138751029968,-0.3172651529312134,-0.4109864830970764,0.26122480630874634
1749039594.2025864,4.962188243865967,-0.4297970098308106,1.2073777357684534,2.827497645015381,4.726294040679932,-2.784666363392965,-0.1607745885848999,-0.05234161764383316,0.012158089317381382,0.09216094017028809,-0.1788855493068695,0.2158569097518921,-0.494195818901062,-2.278482675552368,-0.74726402759552,-0.30543580651283264,-0.3814341127872467,0.2578186094760895
1749039594.202624,4.962188243865967,-0.4297970098308106,1.2073777357684534,2.827497645015381,4.726294040679932,-2.784666363392965,-0.1607745885848999,-0.05234161764383316,0.012158089317381382,0.09216094017028809,-0.1788855493068695,0.2158569097518921,-0.494195818901062,-2.278482675552368,-0.74726402759552,-0.30543580651283264,-0.3814341127872467,0.2578186094760895
1749039594.2026615,4.961883068084717,-0.4298965495875855,1.2074173132525843,2.8276893335529785,4.725929260253906,-2.7842348257647913,-0.15984337031841278,-0.05316825583577156,0.01245911419391632,0.09330930560827255,-0.18116581439971924,0.21624183654785156,-0.5718675255775452,-2.2614693641662598,-0.7444445490837097,-0.3223733603954315,-0.3968485891819,0.28195473551750183
1749039594.2026987,4.9615678787231445,-0.4299929899028321,1.207425896321432,2.8278724390217285,4.725596904754639,-2.7838473955737513,-0.16236884891986847,-0.0537143349647522,0.012881477363407612,0.09390345960855484,-0.18295073509216309,0.22216667234897614,-0.49711644649505615,-2.2285711765289307,-0.7331069111824036,-0.3340798616409302,-0.3835563063621521,0.23397868871688843
1749039594.202736,4.960902690887451,-0.43021662653002934,1.2075079123126429,2.828255816096924,4.7247772216796875,-2.782907549534933,-0.16435101628303528,-0.05530823767185211,0.013420185074210167,0.09412797540426254,-0.18521437048912048,0.22484803199768066,-0.4710647761821747,-2.2243781089782715,-0.7474035620689392,-0.32106590270996094,-0.378204882144928,0.26460906863212585
1749039594.202773,4.960603713989258,-0.43030937135729985,1.2075250784503382,2.8284284311481933,4.724432945251465,-2.782456700001852,-0.16713003814220428,-0.055030521005392075,0.013632584363222122,0.09370679408311844,-0.18665379285812378,0.22359132766723633,-0.5659751892089844,-2.2206947803497314,-0.7468464970588684,-0.34323203563690186,-0.3871932029724121,0.2764124274253845
1749039594.2028112,4.960268497467041,-0.4304170173457642,1.2075493971454065,2.828608198756836,4.724026203155518,-2.781973902379171,-0.16949808597564697,-0.055181682109832764,0.013017266988754272,0.08949197828769684,-0.18815454840660095,0.22505173087120056,-0.614660918712616,-2.249483108520508,-0.7556711435317993,-0.29785221815109253,-0.3990147113800049,0.28471821546554565
1749039594.2028484,4.960268497467041,-0.4304170173457642,1.2075493971454065,2.828608198756836,4.724026203155518,-2.781973902379171,-0.16949808597564697,-0.055181682109832764,0.013017266988754272,0.08949197828769684,-0.18815454840660095,0.22505173087120056,-0.614660918712616,-2.249483108520508,-0.7556711435317993,-0.29785221815109253,-0.3990147113800049,0.28471821546554565
1749039594.2028856,4.9595627784729,-0.4306411308101197,1.2076056639300745,2.8289992052265625,4.723268508911133,-2.7810290495501917,-0.1710876226425171,-0.05527656897902489,0.014889667741954327,0.08959726989269257,-0.1903635859489441,0.2274467945098877,-0.42177698016166687,-2.201382637023926,-0.7615289688110352,-0.3085471987724304,-0.35391420125961304,0.2681427597999573
1749039594.2029233,4.959261894226074,-0.43072958410296636,1.2076228300677698,2.8291660982319335,4.722867012023926,-2.780573908482687,-0.16667982935905457,-0.05238180235028267,0.015073934569954872,0.09176816046237946,-0.19296948611736298,0.22903315722942352,-0.4902014136314392,-2.245434045791626,-0.7671067714691162,-0.28928813338279724,-0.3192708194255829,0.24245886504650116
1749039594.2029605,4.959261894226074,-0.43072958410296636,1.2076228300677698,2.8291660982319335,4.722867012023926,-2.780573908482687,-0.16667982935905457,-0.05238180235028267,0.015073934569954872,0.09176816046237946,-0.19296948611736298,0.22903315722942352,-0.4902014136314392,-2.245434045791626,-0.7671067714691162,-0.28928813338279724,-0.3192708194255829,0.24245886504650116
1749039594.202997,4.958531856536865,-0.43094857156787114,1.207698170338766,2.829479380244873,4.722088813781738,-2.7796950976001185,-0.17088742554187775,-0.053631871938705444,0.013986561447381973,0.08824782073497772,-0.1920141726732254,0.23020039498806,-0.526745080947876,-2.252406597137451,-0.7675340175628662,-0.2688666582107544,-0.35905712842941284,0.271187424659729
1749039594.2030337,4.958183765411377,-0.4310531181148072,1.2077134291278284,2.829674406642578,4.721720218658447,-2.7792320887195032,-0.1732151359319687,-0.051075197756290436,0.01380071509629488,0.08912824094295502,-0.19178101420402527,0.23265010118484497,-0.46783527731895447,-2.289346694946289,-0.7572886347770691,-0.28478455543518066,-0.3336595594882965,0.2982128858566284
1749039594.2031398,4.957836151123047,-0.43115325391802983,1.2077530066119593,2.8298613268085937,4.721294403076172,-2.778754774724142,-0.1745087206363678,-0.05222624912858009,0.01373958121985197,0.09134885668754578,-0.1916547268629074,0.23518705368041992,-0.5326715111732483,-2.283522367477417,-0.7536652088165283,-0.2741044759750366,-0.34167712926864624,0.29093801975250244
1749039594.2042694,4.957423686981201,-0.4312656682780762,1.2077801863299769,2.8300530153461914,4.720887660980225,-2.7782681624041956,-0.1781821846961975,-0.055087268352508545,0.013185624033212662,0.09466039389371872,-0.19530315697193146,0.23818530142307281,-0.5540841221809387,-2.2764899730682373,-0.7547370791435242,-0.2733701467514038,-0.32405415177345276,0.29457229375839233
1749039594.246321,4.957423686981201,-0.4312656682780762,1.2077801863299769,2.8300530153461914,4.720887660980225,-2.7782681624041956,-0.1781821846961975,-0.055087268352508545,0.013185624033212662,0.09466039389371872,-0.19530315697193146,0.23818530142307281,-0.5540841221809387,-2.2764899730682373,-0.7547370791435242,-0.2733701467514038,-0.32405415177345276,0.29457229375839233
1749039594.246368,4.956760406494141,-0.43148167551074224,1.2077820936786097,2.8304521280476074,4.720087051391602,-2.7772789637195032,-0.1803053468465805,-0.05219921097159386,0.012110594660043716,0.09848009049892426,-0.1977367252111435,0.2418796420097351,-0.46532148122787476,-2.306701183319092,-0.7471555471420288,-0.29540207982063293,-0.34236639738082886,0.2825120985507965
1749039594.2464087,4.956760406494141,-0.43148167551074224,1.2077820936786097,2.8304521280476074,4.720087051391602,-2.7772789637195032,-0.1803053468465805,-0.05219921097159386,0.012110594660043716,0.09848009049892426,-0.1977367252111435,0.2418796420097351,-0.46532148122787476,-2.306701183319092,-0.7471555471420288,-0.29540207982063293,-0.34236639738082886,0.2825120985507965
1749039594.246448,4.95637321472168,-0.4316247266582032,1.2078059355365198,2.830624743098877,4.719777584075928,-2.7767449061023157,-0.18095752596855164,-0.054614681750535965,0.012261704541742802,0.10119929164648056,-0.19446170330047607,0.2467115819454193,-0.4662667512893677,-2.278643846511841,-0.734336256980896,-0.3088543713092804,-0.35589519143104553,0.2618256211280823
1749039594.2464871,4.955939769744873,-0.43171389520678716,1.2078264395343226,2.8308321672626953,4.719333171844482,-2.7763007322894495,-0.184110626578331,-0.053159914910793304,0.012023335322737694,0.10218585282564163,-0.1960553675889969,0.24319985508918762,-0.49482059478759766,-2.293797731399536,-0.74049973487854,-0.32434046268463135,-0.3531284034252167,0.2796782851219177
1749039594.2465248,4.955664157867432,-0.4318215411952515,1.2078850905047815,2.831023855800293,4.718931198120117,-2.775794569646017,-0.18573671579360962,-0.05566601827740669,0.012373654171824455,0.10244246572256088,-0.1952570527791977,0.24721132218837738,-0.5256047248840332,-2.29603910446167,-0.7344307899475098,-0.32372918725013733,-0.3779800832271576,0.28669804334640503
1749039594.246563,4.9552321434021,-0.431948260670044,1.2078898588763636,2.8312432008930664,4.7185516357421875,-2.775304381047384,-0.18772585690021515,-0.055895257741212845,0.012048008851706982,0.10352084040641785,-0.19796885550022125,0.24683350324630737,-0.4609244465827942,-2.255218267440796,-0.7268370389938354,-0.3406187891960144,-0.3857179880142212,0.2984233498573303
1749039594.2466004,4.954492092132568,-0.43216128767047124,1.2079227606402796,2.831634684199951,4.717665195465088,-2.774302069340841,-0.1883912980556488,-0.05676262825727463,0.01279674656689167,0.09971480816602707,-0.2023954689502716,0.24910451471805573,-0.4014125168323517,-2.2504937648773193,-0.7275731563568115,-0.3011605739593506,-0.38497626781463623,0.2946467995643616
1749039594.246638,4.954492092132568,-0.43216128767047124,1.2079227606402796,2.831634684199951,4.717665195465088,-2.774302069340841,-0.1883912980556488,-0.05676262825727463,0.01279674656689167,0.09971480816602707,-0.2023954689502716,0.24910451471805573,-0.4014125168323517,-2.2504937648773193,-0.7275731563568115,-0.3011605739593506,-0.38497626781463623,0.2946467995643616
1749039594.2466755,4.954111576080322,-0.43226905286822515,1.2079651991473597,2.8318540292927246,4.717280387878418,-2.773834768925802,-0.18673594295978546,-0.0571923553943634,0.012772091664373875,0.10325945168733597,-0.20596198737621307,0.2523308992385864,-0.5462619066238403,-2.272148370742798,-0.7234442234039307,-0.3185923993587494,-0.37862616777420044,0.2997598946094513
1749039594.2467132,4.953361988067627,-0.43249328554187016,1.2080047766314905,2.8322183328815917,4.716383934020996,-2.77281624475588,-0.19091063737869263,-0.06113886460661888,0.012637369334697723,0.09778425097465515,-0.20967695116996765,0.2535235583782196,-0.483917772769928,-2.2229490280151367,-0.7125176191329956,-0.2620287835597992,-0.35656145215034485,0.34545812010765076
1749039594.2467527,4.952989101409912,-0.4326217931560059,1.2080252806292933,2.832453413600586,4.715950012207031,-2.7723427454577845,-0.19073498249053955,-0.05936421826481819,0.013858485966920853,0.09776397049427032,-0.21455341577529907,0.25797879695892334,-0.43738579750061035,-2.2451834678649902,-0.7129971981048584,-0.2844851613044739,-0.3369768559932709,0.329019159078598
1749039594.2467904,4.952589988708496,-0.43276484430346684,1.208045784627096,2.8326565462299804,4.71554708480835,-2.7717812697040003,-0.19121599197387695,-0.06008207052946091,0.014040959998965263,0.10153979063034058,-0.2139415740966797,0.26169827580451965,-0.4444420635700226,-2.240583896636963,-0.7183464169502258,-0.26584216952323914,-0.30735504627227783,0.3560543358325958
1749039594.246828,4.952589988708496,-0.43276484430346684,1.208045784627096,2.8326565462299804,4.71554708480835,-2.7717812697040003,-0.19121599197387695,-0.06008207052946091,0.014040959998965263,0.10153979063034058,-0.2139415740966797,0.26169827580451965,-0.4444420635700226,-2.240583896636963,-0.7183464169502258,-0.26584216952323914,-0.30735504627227783,0.3560543358325958
1749039594.246865,4.951845645904541,-0.43300457418475347,1.2081368605243128,2.833051844234131,4.7147088050842285,-2.770677153264181,-0.1962900012731552,-0.06281089782714844,0.014920724555850029,0.09860466420650482,-0.21431070566177368,0.2700446546077728,-0.4357414245605469,-2.196974515914917,-0.7232409715652466,-0.24437209963798523,-0.33629879355430603,0.29559755325317383
1749039594.2469018,4.951435089111328,-0.4331367772868653,1.2081568876849573,2.8332363802143554,4.714248180389404,-2.7701850573169153,-0.19544099271297455,-0.06002485752105713,0.0157940573990345,0.102385513484478,-0.21431221067905426,0.27038586139678955,-0.43439820408821106,-2.2651424407958984,-0.7307789325714111,-0.25050681829452515,-0.337671160697937,0.30595022439956665
1749039594.246939,4.951043128967285,-0.43322213113818364,1.2082207838641565,2.833435221309326,4.713859558105469,-2.769639317189352,-0.19483144581317902,-0.06063511222600937,0.015622586011886597,0.10551660507917404,-0.21455833315849304,0.2728114724159241,-0.4516655504703522,-2.254337787628174,-0.7270893454551697,-0.27206480503082275,-0.3587895929813385,0.296161025762558
1749039594.2469754,4.950631141662598,-0.4333335918239136,1.208240811024801,2.83365981161084,4.713418483734131,-2.769068781529562,-0.19637444615364075,-0.06089602783322334,0.015834815800189972,0.10718885064125061,-0.21418046951293945,0.27095088362693787,-0.46757224202156067,-2.2413575649261475,-0.7235223650932312,-0.27116212248802185,-0.39005470275878906,0.3413837254047394
1749039594.2470121,4.950631141662598,-0.4333335918239136,1.208240811024801,2.83365981161084,4.713418483734131,-2.769068781529562,-0.19637444615364075,-0.06089602783322334,0.015834815800189972,0.10718885064125061,-0.21418046951293945,0.27095088362693787,-0.46757224202156067,-2.2413575649261475,-0.7235223650932312,-0.27116212248802185,-0.39005470275878906,0.3413837254047394
1749039594.2470486,4.949796199798584,-0.43363244951281743,1.2082784811602991,2.834113283748291,4.7125444412231445,-2.768027369176046,-0.2015114277601242,-0.06055104732513428,0.01516081765294075,0.11272698640823364,-0.2208171933889389,0.2753346860408783,-0.44352972507476807,-2.2627086639404297,-0.7144986391067505,-0.32140016555786133,-0.36964312195777893,0.3061928153038025
1749039594.2471588,4.949467182159424,-0.43370552480731206,1.2083247343646448,2.8343188005634765,4.7120866775512695,-2.7674532572375696,-0.19884264469146729,-0.06089315190911293,0.01455007679760456,0.11477930843830109,-0.22459034621715546,0.27803274989128113,-0.4927121102809906,-2.2665045261383057,-0.7287533283233643,-0.32034677267074585,-0.3485945165157318,0.31338152289390564
1749039594.2483191,4.949008464813232,-0.4338565629771729,1.2083528677569788,2.8345653253742675,4.711651802062988,-2.766895596181051,-0.2005428969860077,-0.06109137088060379,0.01475504320114851,0.11509963124990463,-0.22586064040660858,0.2806616425514221,-0.5083013772964478,-2.2717273235321045,-0.7268582582473755,-0.3345078229904175,-0.35882866382598877,0.30842968821525574
1749039594.2903523,4.948635101318359,-0.43396134794268804,1.208369557057516,2.83480088293042,4.711246490478516,-2.7663541475879114,-0.20177388191223145,-0.06090056896209717,0.014035224914550781,0.11447684466838837,-0.22540469467639923,0.28418684005737305,-0.46511396765708923,-2.279527425765991,-0.7089624404907227,-0.33393633365631104,-0.3848358392715454,0.30050957202911377
1749039594.2903972,4.948635101318359,-0.43396134794268804,1.208369557057516,2.83480088293042,4.711246490478516,-2.7663541475879114,-0.20177388191223145,-0.06090056896209717,0.014035224914550781,0.11447684466838837,-0.22540469467639923,0.28418684005737305,-0.46511396765708923,-2.279527425765991,-0.7089624404907227,-0.33393633365631104,-0.3848358392715454,0.30050957202911377
1749039594.2904425,4.947800636291504,-0.4342094224742432,1.2084053198443812,2.8352410036274414,4.710332870483398,-2.7651711145984095,-0.20536105334758759,-0.06134052202105522,0.013482313603162766,0.11255259811878204,-0.226349875330925,0.28317728638648987,-0.48713386058807373,-2.284839153289795,-0.6947629451751709,-0.34327709674835205,-0.4016587734222412,0.33710405230522156
1749039594.2904825,4.947385787963867,-0.43441470087084966,1.2084878126727503,2.835484190578125,4.709815502166748,-2.764596764241354,-0.20665979385375977,-0.06103414669632912,0.014814509078860283,0.11111486703157425,-0.23084723949432373,0.2854696214199066,-0.48775869607925415,-2.31069278717041,-0.7036933898925781,-0.3241159915924072,-0.4234161972999573,0.3240821957588196
1749039594.2905207,4.947385787963867,-0.43441470087084966,1.2084878126727503,2.835484190578125,4.709815502166748,-2.764596764241354,-0.20665979385375977,-0.06103414669632912,0.014814509078860283,0.11111486703157425,-0.23084723949432373,0.2854696214199066,-0.48775869607925415,-2.31069278717041,-0.7036933898925781,-0.3241159915924072,-0.4234161972999573,0.3240821957588196
1749039594.290558,4.946534633636475,-0.434597448711731,1.2085045019732874,2.835899992580078,4.708889007568359,-2.7634411493884485,-0.20998091995716095,-0.062198005616664886,0.014073886908590794,0.11401274800300598,-0.24233999848365784,0.2896105945110321,-0.6649152040481567,-2.3536670207977295,-0.7093216180801392,-0.29644593596458435,-0.4324401319026947,0.33307331800460815
1749039594.2905993,4.946534633636475,-0.434597448711731,1.2085045019732874,2.835899992580078,4.708889007568359,-2.7634411493884485,-0.20998091995716095,-0.062198005616664886,0.014073886908590794,0.11401274800300598,-0.24233999848365784,0.2896105945110321,-0.6649152040481567,-2.3536670207977295,-0.7093216180801392,-0.29644593596458435,-0.4324401319026947,0.33307331800460815
1749039594.290638,4.945694923400879,-0.4348372978023072,1.2085683981524866,2.8363277155109863,4.707946300506592,-2.7623029390918177,-0.21314896643161774,-0.06279376149177551,0.014816018752753735,0.11000222712755203,-0.24519222974777222,0.28830328583717346,-0.4399559795856476,-2.2983341217041016,-0.6822701692581177,-0.2740236520767212,-0.3619747757911682,0.33110013604164124
1749039594.290677,4.945282936096191,-0.4349340957454224,1.2085850874530237,2.836589975947998,4.7074360847473145,-2.7617111841784876,-0.2104368507862091,-0.0659220740199089,0.015473904088139534,0.11237720400094986,-0.24296024441719055,0.2921491861343384,-0.4912354350090027,-2.2913386821746826,-0.6807004809379578,-0.275490939617157,-0.38100337982177734,0.3349341154098511
1749039594.2907147,4.945282936096191,-0.4349340957454224,1.2085850874530237,2.836589975947998,4.7074360847473145,-2.7617111841784876,-0.2104368507862091,-0.0659220740199089,0.015473904088139534,0.11237720400094986,-0.24296024441719055,0.2921491861343384,-0.4912354350090027,-2.2913386821746826,-0.6807004809379578,-0.275490939617157,-0.38100337982177734,0.3349341154098511
1749039594.2907557,4.944385051727295,-0.4352409404567261,1.2086604277240198,2.8370296198078613,4.706515789031982,-2.760531727467672,-0.2148650884628296,-0.0665556862950325,0.015423458069562912,0.11692475527524948,-0.24236077070236206,0.29693910479545593,-0.4854760766029358,-2.3052825927734375,-0.6808746457099915,-0.3098331689834595,-0.42159730195999146,0.33849549293518066
1749039594.2907937,4.943968296051025,-0.4353688520244141,1.208696190510885,2.8372933107563476,4.7060370445251465,-2.7599907557116907,-0.21280908584594727,-0.07025834172964096,0.01636611856520176,0.12116539478302002,-0.24202115833759308,0.30064231157302856,-0.4688307046890259,-2.2534987926483154,-0.6830497980117798,-0.3135106563568115,-0.41313818097114563,0.31898826360702515
1749039594.2908309,4.9435715675354,-0.4355045121959229,1.2087395826922815,2.837517424220703,4.70553731918335,-2.759350124989645,-0.2119469791650772,-0.07066222280263901,0.016909155994653702,0.12430193275213242,-0.246261328458786,0.3030872941017151,-0.5616975426673889,-2.2090566158294678,-0.6957286596298218,-0.3470346927642822,-0.41372066736221313,0.31609344482421875
1749039594.290868,4.9430975914001465,-0.43563301981005864,1.2087753454791468,2.8377811151691894,4.704988956451416,-2.7587197462665003,-0.21766112744808197,-0.07049170881509781,0.017349330708384514,0.12473034858703613,-0.2514267861843109,0.301948219537735,-0.6098913550376892,-2.255032539367676,-0.7146748304367065,-0.38138797879219055,-0.3983035087585449,0.33387163281440735
1749039594.2909086,4.9430975914001465,-0.43563301981005864,1.2087753454791468,2.8377811151691894,4.704988956451416,-2.7587197462665003,-0.21766112744808197,-0.07049170881509781,0.017349330708384514,0.12473034858703613,-0.2514267861843109,0.301948219537735,-0.6098913550376892,-2.255032539367676,-0.7146748304367065,-0.38138797879219055,-0.3983035087585449,0.33387163281440735
1749039594.2909462,4.942221641540527,-0.4359211486629029,1.2088249365436,2.8383118349262695,4.70400333404541,-2.757505242024557,-0.22383132576942444,-0.07220252603292465,0.0176935326308012,0.12438523024320602,-0.2567771375179291,0.3107248842716217,-0.5229713916778564,-2.216078996658325,-0.7064759731292725,-0.3869512677192688,-0.3421245217323303,0.31825152039527893
1749039594.2909832,4.942221641540527,-0.4359211486629029,1.2088249365436,2.8383118349262695,4.70400333404541,-2.757505242024557,-0.22383132576942444,-0.07220252603292465,0.0176935326308012,0.12438523024320602,-0.2567771375179291,0.3107248842716217,-0.5229713916778564,-2.216078996658325,-0.7064759731292725,-0.3869512677192688,-0.3421245217323303,0.31825152039527893
1749039594.29102,4.94182825088501,-0.4360613387874146,1.2088921705829065,2.838583155269287,4.703536033630371,-2.75690728822817,-0.22100520133972168,-0.07095152139663696,0.01784287579357624,0.12305242568254471,-0.254717618227005,0.31387487053871155,-0.5330612063407898,-2.2247188091278076,-0.7142146825790405,-0.38885268568992615,-0.3677341043949127,0.2799762487411499
1749039594.2910607,4.940863609313965,-0.4363493484309693,1.2089675108539026,2.8390704828449707,4.70248556137085,-2.7556539217578333,-0.22255344688892365,-0.06985817104578018,0.017723163589835167,0.123263880610466,-0.25468459725379944,0.309739887714386,-0.5784098505973816,-2.2653801441192627,-0.7270588278770447,-0.411777138710022,-0.41241008043289185,0.3043791949748993
1749039594.291098,4.940438270568848,-0.43651612222705083,1.2089808622943323,2.8393136697956542,4.701973915100098,-2.7550247351275843,-0.22529307007789612,-0.06901280581951141,0.017932718619704247,0.11861652880907059,-0.2618308365345001,0.30936989188194275,-0.5364885330200195,-2.274618148803711,-0.7066580057144165,-0.3625665009021759,-0.3672933578491211,0.33090439438819885
1749039594.291208,4.939970970153809,-0.43664105356250005,1.2090204397784632,2.839549704188965,4.701500415802002,-2.7543512026416224,-0.2270633578300476,-0.067769356071949,0.017359139397740364,0.1159619465470314,-0.26190340518951416,0.3095404803752899,-0.5948728919029236,-2.3205008506774902,-0.7230125665664673,-0.32775959372520447,-0.3764299154281616,0.36789196729660034
1749039594.292291,4.939535140991211,-0.43674130857501225,1.2090752760516565,2.8397771555134277,4.700959205627441,-2.7537437121020716,-0.2303580790758133,-0.06947951763868332,0.017006978392601013,0.11834441125392914,-0.2628611624240875,0.3142995238304138,-0.4823203384876251,-2.2740771770477295,-0.7117469310760498,-0.3374342620372772,-0.34813135862350464,0.3240555226802826
1749039594.3342798,4.939075469970703,-0.4368662399104615,1.2090495268451136,2.840005083675049,4.700416564941406,-2.7530816237079065,-0.22870753705501556,-0.06594450771808624,0.015721602365374565,0.11574707180261612,-0.2609073519706726,0.3189184367656708,-0.5073114633560181,-2.356062412261963,-0.6974425315856934,-0.30718618631362915,-0.3749297261238098,0.2781217694282532
1749039594.3343291,4.938565254211426,-0.4370647233775635,1.2091038862811487,2.8402482706257324,4.69993257522583,-2.7524355093585413,-0.22700881958007812,-0.06778667122125626,0.01663331501185894,0.11750432848930359,-0.25578802824020386,0.3188989460468292,-0.5130053162574768,-2.3335437774658203,-0.6877658367156982,-0.3039214015007019,-0.3990025818347931,0.3217766284942627
1749039594.33437,4.938197612762451,-0.4371963304332276,1.209109131489889,2.8404599863239746,4.699385643005371,-2.751806084309713,-0.22729356586933136,-0.07082635909318924,0.017281273379921913,0.12020622938871384,-0.2586187720298767,0.31662774085998535,-0.5511565804481506,-2.2875561714172363,-0.6935983896255493,-0.3295305073261261,-0.40855103731155396,0.3239322006702423
1749039594.3344092,4.938197612762451,-0.4371963304332276,1.209109131489889,2.8404599863239746,4.699385643005371,-2.751806084309713,-0.22729356586933136,-0.07082635909318924,0.017281273379921913,0.12020622938871384,-0.2586187720298767,0.31662774085998535,-0.5511565804481506,-2.2875561714172363,-0.6935983896255493,-0.3295305073261261,-0.40855103731155396,0.3239322006702423
1749039594.334448,4.937220573425293,-0.43746860445056157,1.2091692129718226,2.840932531947754,4.698347091674805,-2.7505207697497767,-0.2339317351579666,-0.07130138576030731,0.01630988158285618,0.12586884200572968,-0.26477140188217163,0.32361075282096863,-0.579351007938385,-2.315448045730591,-0.6825305223464966,-0.3266162574291229,-0.3997363746166229,0.3218082785606384
1749039594.334487,4.936748504638672,-0.43759794652972417,1.2092121283160608,2.841219111079834,4.697847843170166,-2.7497885862933558,-0.23703926801681519,-0.07291874289512634,0.016311656683683395,0.12748762965202332,-0.26915454864501953,0.3273199200630188,-0.536416232585907,-2.302816867828369,-0.6654757261276245,-0.3478950262069702,-0.3897523581981659,0.2749063968658447
1749039594.3345253,4.936748504638672,-0.43759794652972417,1.2092121283160608,2.841219111079834,4.697847843170166,-2.7497885862933558,-0.23703926801681519,-0.07291874289512634,0.016311656683683395,0.12748762965202332,-0.26915454864501953,0.3273199200630188,-0.536416232585907,-2.302816867828369,-0.6654757261276245,-0.3478950262069702,-0.3897523581981659,0.2749063968658447
1749039594.3345635,4.935793876647949,-0.43790538728747563,1.2092998663531702,2.84174553930249,4.696760654449463,-2.7484472433673304,-0.23637622594833374,-0.07695456594228745,0.017680704593658447,0.12919141352176666,-0.2694094479084015,0.3199078440666199,-0.5575671195983887,-2.249703884124756,-0.702049732208252,-0.3531762361526489,-0.38154706358909607,0.3098772466182709
1749039594.3346019,4.935329437255859,-0.43807633340869145,1.2093198935138147,2.841982050532959,4.696177959442139,-2.7478507200824183,-0.23903745412826538,-0.0761752724647522,0.017551375553011894,0.13256607949733734,-0.27094852924346924,0.3209536075592041,-0.5721613168716431,-2.229011297225952,-0.6883416175842285,-0.36850666999816895,-0.4167008697986603,0.3122003972530365
1749039594.33464,4.934866905212402,-0.43822868288073735,1.2093527952777308,2.842273398036621,4.695689678192139,-2.7472172419177454,-0.242213636636734,-0.07840211689472198,0.017658986151218414,0.13005077838897705,-0.27180299162864685,0.3217332661151886,-0.5460196733474731,-2.23620343208313,-0.6855504512786865,-0.36761897802352905,-0.4016231596469879,0.3263095021247864
1749039594.3346777,4.934866905212402,-0.43822868288073735,1.2093527952777308,2.842273398036621,4.695689678192139,-2.7472172419177454,-0.242213636636734,-0.07840211689472198,0.017658986151218414,0.13005077838897705,-0.27180299162864685,0.3217332661151886,-0.5460196733474731,-2.23620343208313,-0.6855504512786865,-0.36761897802352905,-0.4016231596469879,0.3263095021247864
1749039594.3347151,4.934383869171143,-0.4383843702128907,1.209400478993551,2.84255234777417,4.695075988769531,-2.746528450642721,-0.2456205040216446,-0.07885049283504486,0.01800852082669735,0.1292538344860077,-0.28044429421424866,0.325909823179245,-0.5380623936653137,-2.2159368991851807,-0.6947509050369263,-0.33732926845550537,-0.3604351878166199,0.30845046043395996
1749039594.3347523,4.933941841125488,-0.43853314340625005,1.2094553152667444,2.8428003030964355,4.694518089294434,-2.74585730234255,-0.24679933488368988,-0.07760126143693924,0.018400801345705986,0.13387328386306763,-0.2803286612033844,0.32977956533432007,-0.5040978193283081,-2.240614891052246,-0.6767022013664246,-0.34587010741233826,-0.354051798582077,0.29024428129196167
1749039594.3347893,4.932939052581787,-0.43881745756182866,1.2095549742328089,2.8433396059223632,4.693422794342041,-2.7445126215564173,-0.2473134696483612,-0.07806036621332169,0.018963566049933434,0.13052938878536224,-0.2784314751625061,0.330248087644577,-0.5187707543373108,-2.2443900108337402,-0.6911163926124573,-0.354259729385376,-0.3638920187950134,0.33278805017471313
1749039594.3348262,4.932939052581787,-0.43881745756182866,1.2095549742328089,2.8433396059223632,4.693422794342041,-2.7445126215564173,-0.2473134696483612,-0.07806036621332169,0.018963566049933434,0.13052938878536224,-0.2784314751625061,0.330248087644577,-0.5187707543373108,-2.2443900108337402,-0.6911163926124573,-0.354259729385376,-0.3638920187950134,0.33278805017471313
