nimar13/UR3e_dataset_trayectorias/trayectorias_ejecutadas_filtradas/jtraj/trayectoria_064_result_filtrado.csv
timestamp,q1,q2,q3,q4,q5,q6,qd1,qd2,qd3,qd4,qd5,qd6,tau1,tau2,tau3,tau4,tau5,tau6
1749026957.6782992,4.470415744279817,-0.4904874988802023,-0.9453338041593999,-2.435020519512246,0.09057461422141296,0.03680188910649715,0.054742887031071955,0.013648361356198097,-0.029691832254519983,-0.030322086151087613,-0.01762545062551561,0.0006014184577046792,0.1883590370416641,-0.7564125657081604,-0.1139490976929664,0.1691791117191314,-0.5993823409080505,0.1615755707025528
1749026957.6783466,4.470510199911604,-0.49046418991275764,-0.945389056932138,-2.435066569774199,0.09053539086685228,0.03679817197315318,0.051458100243040684,0.01269851954099381,-0.02818303719249661,-0.028686160996462155,-0.016986519555311677,0.0006141704652221599,0.1729198396205902,-0.7700955867767334,-0.1087527200579643,0.1672430038452148,-0.6156368851661682,0.1541694402694702
1749026957.6783874,4.470603043317826,-0.49044121220276904,-0.9454432345982666,-2.4351121786607592,0.09049681945166184,0.03679481717294766,0.04823108810513028,0.011753147216997323,-0.02668884455383473,-0.027079010359469156,-0.01632562384356865,0.000625049408849883,0.1729198396205902,-0.7700955867767334,-0.1087527200579643,0.1672430038452148,-0.6156368851661682,0.1541694402694702
1749026957.6784265,4.470693169401732,-0.4904189735184717,-0.945495496522469,-2.435157032071479,0.0904594847992799,0.03679207660872056,0.045087592381171715,0.01080742705785856,-0.02520460389359696,-0.025506476082820986,-0.015619487529553552,0.0006324760526544438,0.1995638310909271,-0.7427315711975098,-0.1073382645845413,0.1401368230581283,-0.6088164448738098,0.1752355843782425
1749026957.6784637,4.470779594587146,-0.49039786887905534,-0.9455451055398315,-2.4352008123220723,0.0904239127099268,0.036790146764013876,0.04205002607688878,0.009858373015366437,-0.023725538284035095,-0.023971323132670495,-0.014848543363702517,0.0006351549730300038,0.1995638310909271,-0.7427315711975098,-0.1073382645845413,0.1401368230581283,-0.6088164448738098,0.1752355843782425
1749026957.678501,4.470861492688052,-0.4903782697836916,-0.9455914637219828,-2.4352431936203787,0.0903905533603997,0.03678915327140256,0.03913654505384004,0.008905660880005085,-0.022247538107400648,-0.02247307945572585,-0.013998674715011717,0.0006321874808337335,0.2025161683559417,-0.7866064310073853,-0.1027776002883911,0.1491619646549224,-0.5972492098808289,0.1595973968505859
1749026957.6785388,4.470938222417794,-0.4903605127786407,-0.9456341373098827,-2.4352838437471407,0.09035976913831233,0.03678914383621186,0.036360151787525406,0.007951990968229742,-0.02076774271538621,-0.021008221035442316,-0.013062609210617129,0.0006231476320546377,0.1819799393415451,-0.7825428247451782,-0.1073423326015472,0.1530028581619262,-0.6079846620559692,0.169718399643898
1749026957.6785762,4.471009344061226,-0.49034488733554804,-0.9456728686143995,-2.435322431320755,0.09033182830188798,0.03679008866254688,0.03372793655255519,0.00700292512713398,-0.01928491315826827,-0.019570743700723793,-0.012040839050666826,0.0006081127100831359,0.1846211552619934,-0.8103790879249573,-0.1126695647835731,0.1540550738573074,-0.6083082556724548,0.1681936830282211
1749026957.6786134,4.471074623967688,-0.490331623234981,-0.9457075743005422,-2.435358637246219,0.09030690513278286,0.03679188714723334,0.03124055132406576,0.0060662242491583114,-0.017799634324308995,-0.018153099434666038,-0.0109419521283823,0.0005876452844167816,0.2167014181613922,-0.8415843844413757,-0.1146762445569038,0.1458675861358642,-0.5869379043579102,0.1542351245880127
1749026957.678651,4.471134026228431,-0.4903208782209851,-0.9457383310182104,-2.4353921686219224,0.0902850861114933,0.03679437970848395,0.028892020557618484,0.005150811452549956,-0.016314410240740033,-0.016747409118880004,-0.009782287876490405,0.0005627301305116167,0.2167014181613922,-0.8415843844413757,-0.1146762445569038,0.1458675861358642,-0.5869379043579102,0.1542351245880127
1749026957.6786883,4.471187691429122,-0.4903127274183164,-0.94576535053117,-2.435422773290021,0.09026638054032228,0.036797363490235546,0.026670006948636592,0.004265567700744037,-0.01483372165734666,-0.015346807465016722,-0.008584885297378551,0.0005346741866986466,0.1775360703468322,-0.8405705094337463,-0.1300083100795745,0.1687911003828048,-0.5594894289970398,0.16476771235466
1749026957.6787262,4.471235903451322,-0.49030715649146495,-0.9457889473118314,-2.435450253281154,0.09025073335264992,0.036800610409217185,0.02455662573053508,0.003418198151930447,-0.013364089812905164,-0.013946741803270253,-0.00737776577926344,0.0005049806328867562,0.2035040408372879,-0.8711032271385193,-0.1354738026857376,0.1503319442272186,-0.5345091819763184,0.1345536410808563
1749026957.6787636,4.471279046922536,-0.49030406049578606,-0.9458095020312455,-2.435474475557765,0.090238037771236,0.036803886074739244,0.02252982821695599,0.0026143818908994144,-0.011914142070147916,-0.012546047656076267,-0.006191685304647583,0.0004752094611073677,0.2035040408372879,-0.8711032271385193,-0.1354738026857376,0.1503319442272186,-0.5345091819763184,0.1345536410808563
1749026957.678801,4.471317559344683,-0.4903032497198084,-0.9458274244390684,-2.435495378725308,0.09022814599544597,0.036806968512933746,0.020565284386444786,0.0018573499265445688,-0.010494623188120724,-0.011147658486864576,-0.005057584576881743,0.0004468370573947181,0.1880007684230804,-0.8750184178352356,-0.1369968652725219,0.1646494269371032,-0.5458718538284302,0.16157166659832
1749026957.6788435,4.471351882617199,-0.49030446262381167,-0.9458431187901759,-2.4355129749142796,0.09022087698941264,0.03680966587537842,0.018638614212569803,0.0011479450919827216,-0.009118256865429612,-0.00975885628388765,-0.004004031620585041,0.00042112642737566835,0.2060690224170684,-0.8864176869392395,-0.1364814639091491,0.1482675820589065,-0.5498712062835693,0.147750124335289
1749026957.6788816,4.4713824186621745,-0.49030738461004014,-0.945856954349094,-2.435527346849251,0.09021602131875116,0.03681183208093033,0.016727761079958367,0.0004851211580061363,-0.007799351076275622,-0.008391020537830056,-0.0030549623441718057,0.00039901790355550905,0.1801805198192596,-0.9081356525421144,-0.1258361339569091,0.1714044511318206,-0.5319283604621887,0.1388600617647171
1749026957.6789184,4.471409493452089,-0.49031167035353757,-0.9458692427777319,-2.435538640924979,0.09021334353078762,0.03681337878964375,0.014815275254639222,-0.00013324185057726534,-0.006553072383362293,-0.007058886463392775,-0.002227975629409332,0.0003810479244366498,0.2175963819026947,-0.919072449207306,-0.1108685359358787,0.1803909093141555,-0.5101890563964844,0.1550164371728897
1749026957.6789553,4.47143333305997,-0.49031696708645567,-0.945880223519003,-2.4355470575943983,0.09021258288331016,0.036814281735700005,0.012890278393289755,-0.0007093770579722274,-0.005394387823165432,-0.005779380369689314,-0.0015333460037039036,0.0003673011782659159,0.2234120517969131,-0.9314364790916444,-0.095254398882389,0.1916094422340393,-0.5165820717811584,0.1524854898452758
1749026957.678992,4.471454054263742,-0.49032293640349467,-0.9458900576486606,-2.4355528404327718,0.09021345362936672,0.03681457978652627,0.01094989807874163,-0.00124470738068983,-0.004336765692120211,-0.0045701559568446576,-0.0009738027662636403,0.00035739914904379423,0.192073717713356,-0.9546340107917786,-0.0959678217768669,0.2145816832780838,-0.4994336366653442,0.1530661582946777
1749026957.679029,4.4714716706094055,-0.4903292725050539,-0.945898830007392,-2.4355562649419387,0.09021564653144448,0.03681436634247178,0.008999988895475253,-0.001739122235557597,-0.0033908097965660963,-0.003448003250862009,-0.0005450156469717711,0.00035052591814893174,0.1840466409921646,-0.9454817175865172,-0.10043615847826,0.199032187461853,-0.492935836315155,0.1552529782056808
1749026957.6790664,4.471486112882254,-0.4903357152458716,-0.9459065586667486,-2.435557627678508,0.09021883330855807,0.03681377441622948,0.007055006228289194,-0.0021905738335189617,-0.0025630506883133532,-0.002427332467849449,-0.00023664470942923882,0.00034549016059342625,0.1516258418560028,-0.956957459449768,-0.0914861038327217,0.2211890369653701,-0.4724211692810058,0.1201080307364463
1749026957.679103,4.471497261153017,-0.4903420570719137,-0.9459132099962559,-2.435557235831988,0.09022267500613615,0.036812958070480274,0.005136988004611319,-0.0025950571966972774,-0.0018551129729605991,-0.0015189345533883865,-3.3766045248615864e-05,0.0003408208387790928,0.1131912916898727,-0.952509105205536,-0.0653176382184028,0.2241159230470657,-0.4583918452262878,0.1532869488000869
1749026957.6797082,4.471504984297609,-0.49034814391267617,-0.9459187170255579,-2.43555539709541,0.09022683414260282,0.03681207323145969,0.003273727110177136,-0.002946985706278393,-0.0012634160478219613,-0.0007291783379596949,8.152568958843536e-05,0.00033489304410931864,0.13555508852005,-1.0008065700531006,-0.0667898878455162,0.2139713317155838,-0.4557221531867981,0.1462099999189376
1749026957.681668,4.471509182140555,-0.49035387109588124,-0.9459229986518338,-2.435552409710349,0.09023098949778746,0.03681126038644839,0.0014963531471183398,-0.003239930262603888,-0.0007794664830421249,-5.972489729941214e-05,0.00012851806872765453,0.0003260793382456554,0.1100539863109588,-0.9709035158157348,-0.0600625649094581,0.2589386999607086,-0.4469600915908813,0.1484259814023971
1749026957.7222807,4.471509825111957,-0.49035917608969876,-0.9459259775721233,-2.435548552990431,0.09023485184005564,0.03681063095720403,-0.00016335698524132524,-0.003467641288222121,-0.0003906966860713218,0.0004922571729017877,0.00012642662272169987,0.00031292033833065386,0.1261090636253357,-0.967214584350586,-0.0286343470215797,0.2612939178943634,-0.4330956935882568,0.1366717666387558
1749026957.7223265,4.4715069866302235,-0.4903640301639511,-0.9459275954930126,-2.435544079194476,0.09023817866180704,0.03681025860870398,-0.0016755852960115933,-0.0036252052853860688,-8.172255384165028e-05,0.0009334771948894679,9.317990510900585e-05,0.0002943059587102093,0.1261090636253357,-0.967214584350586,-0.0286343470215797,0.2612939178943634,-0.4330956935882568,0.1366717666387558
1749026957.7223675,4.471500864345374,-0.4903684307197082,-0.9459278249393499,-2.435539207878751,0.0902407859974766,0.03681017622978251,-0.003014683639728321,-0.003710120302603609,0.00016415707155787563,0.0012736590594624813,4.449300656962559e-05,0.0002696557406678092,0.0864058136940002,-0.9680856466293336,-0.0211970582604408,0.2576652765274048,-0.4355737566947937,0.1339428275823593
1749026957.7224066,4.471491787709414,-0.49037239501945346,-0.9459266775786647,-2.4355341235276007,0.09024255572542654,0.03681037849721488,-0.004160791168425006,-0.003723055608546666,0.00036341485311902687,0.0015245813618387945,-6.758076390438779e-06,0.00023908339382446703,0.0627911612391471,-0.9799712896347046,-0.0279001966118812,0.2415304780006408,-0.4296970963478088,0.1535531133413314
1749026957.7224474,4.4714802108325955,-0.490375954775655,-0.9459242092271504,-2.4355289764859682,0.09024343749496845,0.03681082891384483,-0.005100809836864218,-0.0036681218871424345,0.0005308905504482069,0.0016991345974793329,-5.0875328367111615e-05,0.00020352759388265383,0.0344276465475559,-0.9945062398910522,-0.0083244740962982,0.2659373581409454,-0.4286940693855285,0.1492097228765487
1749026957.7224855,4.471466691135565,-0.49037915037560464,-0.9459205216264984,-2.435523886398954,0.0902434453602376,0.0368114694986393,-0.005828809659295154,-0.003552600015923906,0.0006786840914091832,0.001810453491588034,-8.142270148607544e-05,0.00016482893013002088,0.0580681785941123,-1.0406627655029297,0.0117159485816955,0.2613266408443451,-0.4219538569450378,0.1480437517166137
1749026957.722523,4.471451855939002,-0.4903820239828955,-0.9459157608834241,-2.435518946814655,0.09024264997020784,0.036812231267097865,-0.00634597522194015,-0.003386204777320634,0.0008154544254505194,0.0018711429132537449,-9.509747592286621e-05,0.0001257323330987913,0.0580681785941123,-1.0406627655029297,0.0117159485816955,0.2613266408443451,-0.4219538569450378,0.1480437517166137
1749026957.7225597,4.4714363607615395,-0.4903846119620912,-0.945910112401973,-2.435514229460668,0.09024116755445893,0.036813044148659824,-0.006660177195971257,-0.0031800476778661843,0.00094617433422106,0.0018926120775402994,-9.143513662059047e-05,8.979585515777214e-05,0.0731705129146575,-1.027902126312256,0.0051058009266853,0.2695625424385071,-0.4164574146270752,0.138100653886795
1749026957.722597,4.471420844418636,-0.4903869380584084,-0.9459037923624345,-2.4355097870665485,0.0902391469880635,0.03681384557222726,-0.006785220785545081,-0.0029454945138778516,0.001072330790248562,0.0018845548105989457,-7.239211364233222e-05,6.119072402773844e-05,0.0612508505582809,-1.0375957489013672,0.0020635202527046,0.2848069667816162,-0.4033918082714081,0.1501210331916809
1749026957.722634,4.471405886608436,-0.4903890089026374,-0.9458970362593992,-2.4355056544663984,0.09023675608048808,0.036814587179914246,-0.006739833961768281,-0.0026930987462634075,0.0011925037286348024,0.0018546359772019818,-4.1844934036138135e-05,4.438442936666306e-05,0.0612508505582809,-1.0375957489013672,0.0020635202527046,0.2848069667816162,-0.4033918082714081,0.1501210331916809
1749026957.7226706,4.471391973159247,-0.4903908127701686,-0.9458900854912239,-2.4355018486937494,0.09023416810205287,0.036815238978242674,-0.006546498387961736,-0.002431749807176955,0.001303209402216913,0.0018084430418245185,-5.036601166033663e-06,4.370829444217094e-05,0.0256043728441,-1.0417232513427734,0.0006050243973731,0.2730588018894195,-0.4058313965797424,0.1519724875688552
1749026957.7227073,4.471379472402092,-0.4903923216005051,-0.9458831733219923,-2.435498369266793,0.09023154953690815,0.03681579012327,-0.006230249458728248,-0.0021681212507986495,0.0013998656171480572,0.0017497302930249024,3.200671878663513e-05,6.282321787912742e-05,0.0730169564485549,-1.0678927898406982,0.0021731480956077,0.2734428644180298,-0.3957648277282715,0.1423730552196502
1749026957.7227442,4.471368623711404,-0.49039349559868584,-0.9458765116925881,-2.4354951996032246,0.09022905005216056,0.03681624588163812,-0.005817556797970007,-0.0019064485916068855,0.0014777312692813103,0.0016809285318993613,6.307184099426394e-05,0.00010411132823567743,0.0442284941673278,-1.0458319187164309,-0.0008519664406776,0.2669252753257751,-0.4211936593055725,0.1280415803194046
1749026957.7228007,4.47135953709805,-0.4903942894939432,-0.9458702802990714,-2.4354923098543657,0.09022679544517749,0.036816621128937126,-0.005335358697972979,-0.001648620532649075,0.0015326915579560528,0.001603831228095821,8.235431045957015e-05,0.00016803606657778058,0.0230513047426939,-1.075721263885498,-0.0023663863539695,0.2695273160934448,-0.4113517999649048,0.135279893875122
1749026957.7228646,4.471352201598321,-0.49039465954790823,-0.9458646189874911,-2.4354896609367116,0.09022488370652744,0.03681693170060881,-0.00481028691648966,-0.0013945353506095185,0.0015617971837893344,0.001520319940656296,8.50410220590573e-05,0.00025252718633961854,0.0324257239699363,-1.0607175827026367,-0.0077055990695953,0.2586417496204376,-0.4085848331451416,0.156525507569313
1749026957.7229283,4.471346500045854,-0.4903945704179027,-0.9458596239244705,-2.435487209339917,0.09022338356419314,0.03681718550690597,-0.004268087561008647,-0.0011426548960980984,0.0015635130229126085,0.0014329759262656017,6.786432522451045e-05,0.00035245846983967107,0.033957615494728,-1.0567291975021362,-0.0181205347180366,0.262252002954483,-0.4221303462982178,0.1504049003124237
1749026957.722997,4.471342228037869,-0.4903940009341572,-0.9458553474738405,-2.4354849121987066,0.09022233446985824,0.03681737512745443,-0.0037332123607096584,-0.0008906769454651774,0.0015376814891754301,0.0013454496116367548,2.960698926931269e-05,0.0004592925505856154,0.0360847823321819,-1.065443992614746,-0.0198298171162605,0.259610116481781,-0.4124642610549927,0.1309332847595214
1749026957.723064,4.471339115109968,-0.4903929478953204,-0.9458518013885527,-2.4354827319226144,0.09022174719401595,0.036817472667638025,-0.003228521174496762,-0.0006362396137569186,0.001485250301626266,0.0012625170105905721,-2.846931948872796e-05,0.0005609670711687366,0.0597504079341888,-1.0114896297454834,-0.0052989199757575,0.2826361656188965,-0.4110471606254577,0.1306462436914444
1749026957.7231312,4.4713368464710115,-0.4903914272623669,-0.9458489627167791,-2.435480639456777,0.0902216048861866,0.036817426681232925,-0.0027750130378999325,-0.000377570453156063,0.0014078464215488903,0.0011898217412908006,-0.00010230608263977044,0.0006420877379927946,0.0226873531937599,-0.9967365264892578,-0.0338164791464805,0.2854311168193817,-0.4271634221076965,0.1220128461718559
1749026957.7231977,4.471335084327378,-0.4903894726085106,-0.9458467816196144,-2.4354786152863714,0.09022186539377952,0.03681716060487435,-0.002391506140913323,-0.00011400043217792331,0.0013072926253301044,0.0011333614091744212,-0.00018487936679474672,0.0006844754423850729,0.0226873531937599,-0.9967365264892578,-0.0338164791464805,0.2854311168193817,-0.4271634221076965,0.1220128461718559
1749026957.7238536,4.4713334885585265,-0.49038713123807204,-0.945845190153078,-2.435476647787978,0.09022246639458675,0.03681657241797464,-0.002094222360322422,0.00015371973007511727,0.001185159654108114,0.0010988148366750843,-0.0002662206207243461,0.0006680861516190715,0.028168462216854,-0.9738662242889404,-0.013682521879673,0.3064816892147064,-0.4124892950057983,0.1055637225508689
1749026957.7257886,4.471331736753116,-0.49038445893165133,-0.9458441110685649,-2.4354747293342696,0.09022333484387711,0.0368155357320083,-0.0018962857148530842,0.00042333732580945464,0.0010424281088352275,0.0010908207203871884,-0.00033366242799793167,0.0005722845864900252,0.0128350928425788,-0.9256256818771362,-0.0397297218441963,0.2995487749576568,-0.4227076768875122,0.1128054931759834
1749026957.7662864,4.471329543126238,-0.4903815146601051,-0.9458434658871469,-2.4354728512617676,0.09022440110932164,0.036813902907329395,-0.0018071944211527512,0.0006912529345069165,0.000879305714210822,0.001112315515933988,-0.00037233366393635064,0.0003774081630396503,0.0367567837238311,-0.9218294620513916,-0.0369227156043052,0.3008391559123993,-0.4123298525810241,0.0983716249465942
1749026957.766333,4.471326674838564,-0.4903783565417796,-0.9458431819433214,-2.4354709990510424,0.0902256164747844,0.03681151094023564,-0.0018323588868217214,0.0009528791878440114,0.0006952134503828598,0.001164026333879234,-0.0003659099890772484,6.651033048817423e-05,0.0194509848952293,-0.9442647695541382,-0.063623659312725,0.3140721619129181,-0.4177285432815552,0.0633442401885986
1749026957.7663736,4.4713229633604685,-0.49037503969294804,-0.9458431986588538,-2.435469148814709,0.09022697120682342,0.03680819062945768,-0.001972809140389914,0.0012031323298596348,0.0004889234192642708,0.001244196859425996,-0.00029760011391926586,-0.00037287206351181604,0.0194509848952293,-0.9442647695541382,-0.063623659312725,0.3140721619129181,-0.4177285432815552,0.0633442401885986
1749026957.7664127,4.4713183085546495,-0.49037161577526545,-0.9458434736143719,-2.435467265711215,0.09022850958447244,0.03680377882212185,-0.0022251649465902627,0.001436961735930206,0.00025880542556947856,0.0013485997773762233,-0.00015131741440827708,-0.0009471172985938188,0.0097224693745374,-0.9237196445465088,-0.0801377370953559,0.2978751361370086,-0.407649278640747,0.0756893903017044
1749026957.7664504,4.471312674430631,-0.49036813339004287,-0.9458439887053492,-2.435465304507941,0.09023033844017754,0.036798132490764184,-0.002581930898588782,0.0016498264329120435,3.1205630289377645e-06,0.0014708554908033082,8.704668031297007e-05,-0.0016552890015120783,0.0011757537722587,-0.8966896533966064,-0.0900195017457008,0.300171285867691,-0.3776004910469055,0.0463819280266761
1749026957.766488,4.471306077469728,-0.49036463820525833,-0.9458447559452,-2.435463212319893,0.09023262686657024,0.03679114249017599,-0.00303212946995569,0.0018380628393480619,-0.0002797086518488472,0.0016030346897912698,0.00042836195485730253,-0.002488471033087973,-0.0021742731332778,-0.8936055898666382,-0.0974813774228096,0.293570339679718,-0.3715001940727234,0.0261785481125116
1749026957.7665255,4.471298569942667,-0.49036117192511913,-0.9458458218132155,-2.4354609334164525,0.09023559642455632,0.03678274461469514,-0.0035622242690407546,0.0019991346344667227,-0.0005909183455432906,0.00173647847108885,0.0008791480965114212,-0.0034298113025447606,0.0110384821891784,-0.8970212936401367,-0.1184908971190452,0.3053019940853119,-0.3591167330741882,0.0197587795555591
1749026957.7665632,4.471290221208565,-0.4903577698631389,-0.9458472688246842,-2.4354584156829455,0.09023950286586693,0.036772926129834745,-0.004157227380624652,0.002131785217346544,-0.0009313629299590349,0.001862735934430877,0.0014407557819557566,-0.004455339467165478,-0.0140684656798839,-0.8905484676361084,-0.12055154889822,0.3079199194908142,-0.3357875943183899,0.0300604961812496
1749026957.7666004,4.471281099892668,-0.49035445761161844,-0.9458492132885193,-2.4354556177751494,0.09024461173794933,0.03676172697011821,-0.004801845608347987,0.002236112466086421,-0.0013016319503059187,0.0019745054417897984,0.0021089651614103915,-0.005535535029131841,-0.042482029646635,-0.8956227898597717,-0.1439310014247894,0.3005265891551971,-0.3015525341033935,-0.0146595910191535
1749026957.766637,4.471271259374359,-0.49035124772678024,-0.9458517988908386,-2.4354525154336897,0.09025117123586933,0.03674923590495423,-0.005481511610853327,0.0023135651417090066,-0.0017022945991391019,0.0020664741592016323,0.0028740800570151515,-0.006637546544412294,-0.0485322438180446,-0.8686697483062744,-0.1251230537891388,0.3104247748851776,-0.2811749577522278,-0.0155383758246898
1749026957.7666745,4.47126072805194,-0.49034813731406995,-0.9458551866462241,-2.435449105200469,0.09025938626183265,0.0367355828392589,-0.006183168419680754,0.0023668442809384317,-0.0021341855913688994,0.002135974530491321,0.003721528180700014,-0.007727901436760336,-0.0485322438180446,-0.8686697483062744,-0.1251230537891388,0.3104247748851776,-0.2811749577522278,-0.0155383758246898
1749026957.7667112,4.471249504558125,-0.49034510700922795,-0.9458595426844822,-2.4354454041554328,0.09026939766739144,0.03672092864057215,-0.006895723970644465,0.0023996992143986433,-0.0025986050430039653,0.0021834045911036147,0.004632912220380681,-0.008775487500418764,-0.0480580180883407,-0.8590141534805298,-0.1378618776798248,0.3235663473606109,-0.2804927229881286,-0.0374601036310195
1749026957.766748,4.471237557175314,-0.4903421214271644,-0.9458650259640187,-2.4354414452290416,0.09028126990808057,0.036705453307018056,-0.007610154892003075,0.0024166335703278983,-0.0030973164990891052,0.002212381904696747,0.005587419358542465,-0.00975453023395853,-0.0597229674458503,-0.8463568687438965,-0.1573329269886016,0.3233977854251861,-0.2589685320854187,-0.0228029191493988
1749026957.766785,4.471224826550496,-0.49033913100469745,-0.9458717780454966,-2.4354372688233528,0.09029498893184526,0.03668934238849141,-0.008319299860334714,0.0024225624608561007,-0.0036323011055920977,0.002229616260666591,0.006563487638785659,-0.010647249922493945,-0.055219791829586,-0.8354498147964478,-0.1730167269706726,0.3181033134460449,-0.2244964092969894,-0.038082368671894
1749026957.766822,4.471211231089088,-0.49033607528111633,-0.9458799165025752,-2.435432912460059,0.09031047048663696,0.03667277120704155,-0.009017429634737693,0.0024224716087529324,-0.004205321230824433,0.00224449944037632,0.0075406175697282805,-0.011445877605068072,-0.0501916855573654,-0.8568971157073975,-0.1805700957775116,0.3165148496627807,-0.2278433144092559,-0.0371119603514671
1749026957.766859,4.471196674516481,-0.49033288771064365,-0.9458895325723637,-2.435428400602363,0.09032757760439786,0.03665588702619803,-0.00969971027480733,0.0024211217871386455,-0.004817403519455613,0.002268428062698891,0.008501181739861112,-0.012153751690699275,-0.0805557295680046,-0.8632650375366211,-0.1730353534221649,0.3147482275962829,-0.2147939801216125,-0.0346666797995567
1749026957.7668955,4.471181054875481,-0.49032950179944707,-0.9459006925601422,-2.4354237365391262,0.09034614493591535,0.03663879053170658,-0.010361688075599106,0.002422828677720564,-0.005468342499684183,0.0023139002849103317,0.009432034113996235,-0.012785308209321031,-0.0715409442782402,-0.8471415042877197,-0.1604336500167846,0.3222432136535644,-0.2209996879100799,-0.0487212315201759
1749026957.7669325,4.471164274041989,-0.4903258577614821,-0.945913441708935,-2.4354188974886437,0.09036600681343439,0.03662151905482379,-0.010998916419546223,0.0024313390280971984,-0.00615627539086624,0.0023934568116454956,0.010325692229675684,-0.013364907338967079,-0.103426806628704,-0.808488667011261,-0.1704101115465164,0.3470991551876068,-0.1940009146928787,-0.0564488545060157
1749026957.7669702,4.471146247016272,-0.49032190832440037,-0.9459278089740984,-2.435413833289245,0.0903870254033637,0.036604034281228826,-0.011606815657977151,0.0024498176988156507,-0.006877336282293169,0.002518565737258841,0.011180894676855891,-0.013924589904548043,-0.103426806628704,-0.808488667011261,-0.1704101115465164,0.3470991551876068,-0.1940009146928787,-0.0564488545060157
1749026957.7670069,4.471126910577153,-0.49031762215968927,-0.9459438113397803,-2.4354084684674437,0.09040911527979328,0.036586216518273935,-0.01218081325766641,0.0024809462366454163,-0.007625396758124835,0.002698570307405479,0.012002429832690183,-0.014501008371744575,-0.0995072051882743,-0.8166798949241638,-0.1802811473608017,0.3446967899799347,-0.2056826800107956,-0.0617398470640182
1749026957.767706,4.471106230880258,-0.49031298389819516,-0.9459614567768418,-2.4354027071132354,0.09043226143879582,0.0365678661690487,-0.012716758336525904,0.0025271046473380734,-0.00839193171489617,0.0029398185678408484,0.012800264588874802,-0.015131898196751675,-0.1148605272173881,-0.8347876667976379,-0.1804665774106979,0.3579022884368896,-0.1872106343507766,-0.0813729614019393
1749026957.769667,4.47108420909734,-0.49030799077428533,-0.9459807454807505,-2.4353964397761345,0.0904565290216861,0.036548711448311386,-0.013211545928097758,0.00259057305323079,-0.009166075603612106,0.0032450691418825436,0.013588131368760503,-0.01585251492003251,-0.1257651150226593,-0.82464998960495,-0.1825559586286544,0.3570641577243805,-0.1857327222824096,-0.0661888867616653
1749026957.810275,4.471060883656801,-0.49030264717901323,-0.9460016694539857,-2.4353895515495507,0.09048206425181197,0.036528420161048195,-0.013663832761192015,0.0026736729431919345,-0.009934925706460054,0.003613223750127829,0.01438181992681463,-0.016692442326104725,-0.1194832250475883,-0.8080731630325317,-0.1797366440296173,0.3441602885723114,-0.1876729875802993,-0.0755516737699508
1749026957.8103206,4.4710363276908875,-0.4902969591390382,-0.9460242107154384,-2.435381930650032,0.09050908697365186,0.03650661292768362,-0.014074697047395874,0.002778787831934348,-0.010684106343902445,0.00403938944417143,0.015197447134461304,-0.01767308859252891,-0.1291588991880417,-0.7850832343101501,-0.1644615232944488,0.3593511283397674,-0.1730205714702606,-0.0888910591602325
1749026957.8103611,4.471010641205256,-0.4902909304950054,-0.9460483384927139,-2.435373476975619,0.09053787585829413,0.03648287575471449,-0.014448102452191443,0.002908253672083487,-0.011398553782188304,0.004515237685753054,0.016049943260965677,-0.01880606521595631,-0.1563474386930465,-0.7939586639404297,-0.1677751243114471,0.3478181362152099,-0.172529935836792,-0.0896121114492416
1749026957.8103998,4.4709839388782875,-0.49028456141643084,-0.9460740057629773,-2.4353641101384467,0.09056874794020063,0.03645677121634923,-0.014791067817635357,0.003064160605350642,-0.012063438336958438,0.0050296100507413385,0.016951914463289933,-0.0200925224828322,-0.1603584736585617,-0.7722758650779724,-0.1571257412433624,0.3720401227474212,-0.1457830667495727,-0.0991581231355667
1749026957.8104377,4.470956335516592,-0.49027784861031337,-0.9461011454703917,-2.4353537762926796,0.09060203455199962,0.03642784913600668,-0.015113504261494694,0.0032481312482294353,-0.012665119207079916,0.005569315845302313,0.017912947514738205,-0.021523411749713724,-0.1719809025526046,-0.7588097453117371,-0.1568564474582672,0.3547293841838836,-0.1602311879396438,-0.1108399927616119
1749026957.8104763,4.470927931574405,-0.49027078601856283,-0.9461296667295747,-2.4353424529160286,0.0906380558496789,0.03639565867986948,-0.015427740477563972,0.0034611305639835653,-0.013192032200449599,0.006120065356260646,0.01893934273379675,-0.023080559569973156,-0.1773445457220077,-0.7696352005004883,-0.1608900725841522,0.3756377398967743,-0.1256455928087234,-0.1118621379137039
1749026957.8105142,4.470898800871704,-0.4902633651362248,-0.9461594514703171,-2.435330150731841,0.09067709611733939,0.036359763759405035,-0.01574779907394134,0.0037033347917488145,-0.013635437850850909,0.006667479314521531,0.020034208291531158,-0.02473837272151293,-0.1773445457220077,-0.7696352005004883,-0.1608900725841522,0.3756377398967743,-0.1256455928087234,-0.1118621379137039
1749026957.8105516,4.470868982014586,-0.49025557478386583,-0.9461903523139615,-2.435316912193805,0.0907193820738532,0.03631976271869671,-0.016088507134205805,0.0039740637027606135,-0.013989995052470295,0.007198110545349645,0.02119782271489933,-0.026465954850603834,-0.1616863757371902,-0.7728126645088196,-0.1701675504446029,0.3712336122989654,-0.1244011744856834,-0.1302964091300964
1749026957.8105884,4.470838474223163,-0.49024740062354816,-0.9462221927275787,-2.435302806338562,0.09076506640223055,0.036275311781218435,-0.016464529696040155,0.004271771514001929,-0.014254152460037748,0.007700405763186307,0.022428167369376018,-0.028229410991227267,-0.1756444722414016,-0.7644649744033813,-0.1853696554899215,0.3759718537330627,-0.114167183637619,-0.1132989972829818
1749026957.8106256,4.470807237436324,-0.490238824668978,-0.9462547703038796,-2.435287920340268,0.0908142184076708,0.036226150086959126,-0.01688941323875956,0.004594092730828283,-0.014430351214807492,0.008165522199252605,0.02372153964866649,-0.029994138831554197,-0.1931150108575821,-0.7552801370620728,-0.1612523347139358,0.3729076087474823,-0.1113147735595703,-0.1199787557125091
1749026957.810663,4.470775195845437,-0.49022982464196474,-0.9462878633282963,-2.4352723487664565,0.09086682293490421,0.03617212293561449,-0.01737472003561469,0.004937942542904114,-0.014525014025366502,0.008587902722647926,0.025073170147721383,-0.03172694255207799,-0.1897974461317062,-0.7485629320144653,-0.151105985045433,0.3803543448448181,-0.0942581743001937,-0.1208205074071884
1749026957.8106997,4.470742243558297,-0.49022037266570223,-0.9463212400082727,-2.435256182155632,0.09092278765848673,0.03611319947047066,-0.017929322974902615,0.005299674051043245,-0.014548282032419906,0.00896551957984692,0.026477777936312327,-0.03339785106891618,-0.187395766377449,-0.7333240509033203,-0.1445364952087402,0.3862398266792297,-0.1010665372014045,-0.1363188177347183
1749026957.810736,4.470708251003326,-0.49021043287368965,-0.9463546692075147,-2.435239496808473,0.09098195790398052,0.03604948159320429,-0.018558914434586862,0.00567529359202359,-0.014513474106966922,0.009299729787722888,0.027930011026923985,-0.03498157432326233,-0.1892198473215103,-0.7219338417053223,-0.1518913507461547,0.3898618221282959,-0.0930082201957702,-0.144831046462059
1749026957.8107724,4.470673070946167,-0.4901999581709607,-0.9463879312937453,-2.435222347459777,0.09104413725879242,0.03598120227029355,-0.019265763315055962,0.0060607246718704134,-0.014436283965162142,0.009594740426616243,0.029424739880133957,-0.03645857696642207,-0.2205654233694076,-0.7410509586334229,-0.145818293094635,0.4026219248771667,-0.071336455643177,-0.1552778482437133
1749026957.8108096,4.470636543484747,-0.49018888728521726,-0.9464208277421998,-2.4352047639086063,0.09110911134646674,0.03590871307314843,-0.02004873172443722,0.006452089270046007,-0.014333780594827941,0.009856748210069788,0.030957201355329485,-0.037815776981486235,-0.2205654233694076,-0.7410509586334229,-0.145818293094635,0.4026219248771667,-0.071336455643177,-0.1552778482437133
1749026957.810846,4.470598499936438,-0.49017714376776733,-0.94645318849551,-2.4351867519368873,0.09117667168929348,0.035832462020693116,-0.020903535977561893,0.006845954701130079,-0.0142233156265086,0.010092879620402761,0.03252302407884199,-0.039046888857391694,-0.2164318859577179,-0.7330113053321838,-0.149551048874855,0.404414415359497,-0.0832563564181327,-0.1532874554395675
1749026957.810882,4.470558765973551,-0.4901646382664289,-0.9464848767312342,-2.4351682980706615,0.09124663706709688,0.03575296333615317,-0.02182320739577546,0.007239493849651743,-0.014121454890583425,0.010310096849575899,0.03411819305656711,-0.04015243342343583,-0.2397567629814148,-0.7189971208572388,-0.1253630816936493,0.398990273475647,-0.0450043752789497,-0.1440358161926269
1749026957.8109195,4.4705171646113975,-0.4901512742911807,-0.9465157914027041,-2.435149377058025,0.09131887093501505,0.03567076118416327,-0.022798685388279744,0.007630533086261274,-0.014043039724706247,0.010514237385152544,0.03573901868715824,-0.041139430314727166,-0.2523153722286224,-0.7251110076904297,-0.1367792785167694,0.4135069549083709,-0.0607271939516067,-0.1395327895879745
1749026957.8109565,4.4704735196721925,-0.4901369564712358,-0.9465458684199967,-2.4351299605110333,0.09139329446159013,0.03558639032545117,-0.023819468659465586,0.008017498599348331,-0.014000455420744283,0.01070932367402913,0.03738215700827111,-0.04202077713262282,-0.2420694828033447,-0.7510446310043335,-0.127609834074974,0.4223484396934509,-0.0381592139601707,-0.1615373492240905
1749026957.810994,4.4704276601232085,-0.49012159958124074,-0.9465750814830634,-2.435110025070297,0.09146989517501851,0.03550033755312339,-0.024874262491166754,0.008399291783977894,-0.014003152071251636,0.010897227478228223,0.03904469150303688,-0.04281431473982166,-0.2420694828033447,-0.7510446310043335,-0.127609834074974,0.4223484396934509,-0.0381592139601707,-0.1615373492240905
1749026957.8116908,4.470379425286422,-0.49010513650920073,-0.9466034434093659,-2.435089558663254,0.09154873135001465,0.03541300791762321,-0.02595158307830304,0.008775120258584212,-0.014057435181044835,0.011077714316749936,0.040724249048068255,-0.04354159340069099,-0.255860686302185,-0.7427119016647339,-0.1560496985912323,0.412758469581604,-0.0225245524197816,-0.1422371864318847
1749026957.813748,4.4703286705637515,-0.49008752360891283,-0.9466310084120828,-2.4350685638568774,0.09162993245007903,0.03532469875117197,-0.027040302097474364,0.009144301907252057,-0.014166519689188566,0.011248836318012413,0.042419094664508376,-0.044226388878761874,-0.225814938545227,-0.718338131904602,-0.1341804563999176,0.4310141205787658,-0.0443130508065223,-0.1279774904251098
1749026957.8583033,4.47027527325896,-0.4900687424243894,-0.9466578751631168,-2.4350470578944226,0.09171369593101238,0.0352355830383838,-0.028130127128810675,0.009506063075328326,-0.014330818103780677,0.011407594988806346,0.04412812844951061,-0.04489305924366192,-0.255324512720108,-0.7001320123672485,-0.1463681161403656,0.4138727188110351,-0.0254779327660799,-0.1510000526905059
1749026957.8583498,4.470219138296366,-0.49004879771289944,-0.9466841895839451,-2.435025069682034,0.09180028007290232,0.03514570284452036,-0.029212014844421614,0.009859362670164948,-0.014548411554671195,0.01155076311093872,0.045850692343156564,-0.045564868782778774,-0.2803233861923218,-0.7413419485092163,-0.1579520255327224,0.4210965931415558,-0.0241217240691185,-0.1588826328516006
1749026957.8583903,4.47016020384088,-0.4900277129039143,-0.9467101454582202,-2.4350026346032876,0.09188999145690155,0.035054973479337025,-0.03027851062802004,0.010202775775223036,-0.014815636482888337,0.011675736979077094,0.04758610598497278,-0.04626242775816989,-0.2803233861923218,-0.7413419485092163,-0.1579520255327224,0.4210965931415558,-0.0241217240691185,-0.1588826328516006
1749026957.858429,4.47009844670831,-0.4900055250048224,-0.9467359808225168,-2.434979788422558,0.09198316531861059,0.03496319877234885,-0.03132400671119613,0.010534461565228545,-0.015127715026512119,0.011781287427900652,0.049332919233754144,-0.04700240406271236,-0.2684701383113861,-0.7299322485923767,-0.1483480781316757,0.4316263794898987,-0.0207537561655044,-0.1787695586681366
1749026957.858471,4.470033887006988,-0.48998228089532986,-0.9467619690481057,-2.4349565616377427,0.09208013825566033,0.03487009635640447,-0.03234490823817773,0.010852228736815987,-0.015479365906279116,0.011868095184212507,0.051087987828357634,-0.047796651145792235,-0.2550406455993652,-0.7012253999710083,-0.1636345833539962,0.4122790098190307,-0.0013949126005172,-0.1591579020023346
1749026957.8585105,4.469966590995348,-0.48995803595487564,-0.9467884051000215,-2.434932975497402,0.0921812153460426,0.0347753297839546,-0.03333968703989303,0.011153699925712097,-0.015865349257003437,0.011938995108592561,0.052845591572828005,-0.048651858246877726,-0.2548376321792602,-0.7329022884368896,-0.1580754965543747,0.422666996717453,0.0037732124328613,-0.1802264750003814
1749026957.858548,4.469896671063051,-0.48993285467129705,-0.9468155887212932,-2.4349090405230127,0.0922866362043292,0.0346785431087349,-0.034308792867089065,0.011436561935130292,-0.016280913252243494,0.011998908414016112,0.054596854730301056,-0.04956976373722131,-0.2673187851905823,-0.7373093366622925,-0.1642197668552398,0.4282010793685913,0.0119921714067459,-0.1488678753376007
1749026957.858586,4.469824282166377,-0.48990681201419867,-0.9468438067818206,-2.4348847577631534,0.09239654552905108,0.03457939387703055,-0.03525440102859764,0.011698870646790496,-0.016722118147868503,0.012054498489806956,0.0563296745018241,-0.05054789391196258,-0.3006552159786224,-0.7125128507614136,-0.1653789579868316,0.420475423336029,0.0050397813320159,-0.1856152117252349
1749026957.858623,4.46974961476961,-0.4898799942290851,-0.946873316940295,-2.434860122202206,0.09251097293658175,0.03447758154223981,-0.036180012346790455,0.011939361359803807,-0.017186020285057176,0.012113629346915802,0.05802924936262276,-0.051580716493174736,-0.323685348033905,-0.7277147769927979,-0.1684522777795791,0.427270233631134,0.0011365711688995,-0.1946205645799636
1749026957.858663,4.469672885008784,-0.4898524981064446,-0.9469043343906225,-2.4348351269344968,0.09262982488050624,0.0343728692335094,-0.037089964478753,0.01215770159502328,-0.017670711285858214,0.012184725011328522,0.059679174531735886,-0.05266104195611382,-0.2768988311290741,-0.7492105960845947,-0.1766906976699829,0.4291046559810638,0.0048465728759765,-0.2065590769052505
1749026957.8587022,4.469594323102393,-0.4898244283623403,-0.9469370229361607,-2.4348097662507424,0.09275288914550806,0.03426509748350572,-0.03798892962055412,0.012354620184522689,-0.01817522437406355,0.012276121936221109,0.06126296902538443,-0.05378146984902252,-0.2805063426494598,-0.7593811750411987,-0.1712135970592498,0.4504716694355011,-0.007628783583641,-0.1805577427148819
1749026957.8587396,4.46951416093473,-0.48979589335957174,-0.9469714910221665,-2.4347840360414406,0.09287985059352853,0.03415418929726562,-0.038881454691579845,0.012531860636772326,-0.018699333454678432,0.012395482149154221,0.06276583524813197,-0.05493566464808819,-0.2514123916625976,-0.7598166465759277,-0.1812196224927902,0.4245074689388275,-0.0127844214439392,-0.1732644140720367
1749026957.8587768,4.469432619426059,-0.4897669999101028,-0.9470077926988766,-2.4347579309179785,0.0930103157907169,0.034040146898904104,-0.03977157361155376,0.01269194119827648,-0.019243276858956108,0.012549303544733489,0.06417643850838574,-0.05611926569548881,-0.2847476601600647,-0.7601915597915649,-0.1749179810285568,0.4398360550403595,0.0031522810459136,-0.1791837960481643
1749026957.8588133,4.469349896002268,-0.4897378482548771,-0.9470459328062927,-2.4347314387124106,0.09314384355588344,0.033923041436717906,-0.04066251799586643,0.012837752074907048,-0.019807436553644604,0.012742536783582108,0.0654885181887271,-0.05733029659965693,-0.3035184741020202,-0.7435234785079956,-0.1827606707811355,0.4384054243564605,-0.000418797135353,-0.2047342360019683
1749026957.8588507,4.4692661523954245,-0.4897085284622872,-0.9470858750693456,-2.4347045339698217,0.09327997802662767,0.03380299772218991,-0.041556568303910635,0.012972065803761285,-0.02039199834912448,0.012978304821646849,0.06670216582562723,-0.05856903109040013,-0.2931378483772278,-0.7779362201690674,-0.1906259208917617,0.4505648016929626,-0.0079107098281383,-0.2005385160446167
1749026957.858888,4.469181503343057,-0.48967911928666846,-0.947127551522273,-2.43467717241948,0.09341828069181389,0.03368017658751898,-0.04245508551313129,0.013097060861812306,-0.02099661515818273,0.013257723800974442,0.06782460115603912,-0.059837365640415585,-0.2931378483772278,-0.7779362201690674,-0.1906259208917617,0.4505648016929626,-0.0079107098281383,-0.2005385160446167
1749026957.858925,4.46909600730823,-0.48964968984628954,-0.9471708719525901,-2.434649288183315,0.09355835850268775,0.03355475730529796,-0.04335872240945309,0.013213950978902768,-0.021620099413681072,0.013579835884687183,0.0688702705152863,-0.0611378218677955,-0.2869051098823547,-0.7757406234741211,-0.1924749910831451,0.4647619724273681,-0.0121058709919452,-0.2155584692955017
1749026957.8589623,4.469009660477757,-0.48962030347533625,-0.9472157326832101,-2.434620794772525,0.09369988683061177,0.033426921479644114,-0.044267757368934416,0.013322780404183892,-0.022260181693759807,0.013941671840893744,0.0698601384671013,-0.06247235474793049,-0.2985394299030304,-0.7615259885787964,-0.1849662214517593,0.4654145240783691,-0.0239479150623083,-0.2433940470218658
1749026957.8589988,4.46892239482724,-0.4895910222448716,-0.947262024514664,-2.4345915900412045,0.09384262785302294,0.03329683848192895,-0.045182459634893805,0.013422407175730946,-0.022913381047177907,0.014338452262759321,0.07082016235817462,-0.0638411790924638,-0.2784676551818847,-0.7640148401260376,-0.1772672981023788,0.4604223370552063,-0.015885978937149,-0.2065762132406234
1749026957.859038,4.4688340806153635,-0.489561910386189,-0.9473096397845259,-2.4345615645478595,0.09398644547604154,0.03316465199997658,-0.046103395121929756,0.0135106659418843,-0.023575027911704346,0.014763911374264797,0.07177908848195677,-0.0652418307107899,-0.2659198045730591,-0.7867449522018433,-0.1800250858068466,0.4655612409114837,0.0071411058306694,-0.2176576405763626
1749026957.8590755,4.468744533692355,-0.4895330353347031,-0.9473584784371332,-2.434530612282457,0.09413131660603818,0.033030467973906,-0.047031606616430015,0.01358468050285568,-0.024239461635929126,0.015210699400595353,0.07276582915681536,-0.06666863661379514,-0.2659198045730591,-0.7867449522018433,-0.1800250858068466,0.4655612409114837,0.0071411058306694,-0.2176576405763626
1749026957.8591125,4.468653527942889,-0.48950446602952336,-0.9474084529744864,-2.4344986423030583,0.0942773366627643,0.03289434525202578,-0.047968642180837726,0.013641279903431178,-0.024900399844294426,0.01567080614358715,0.0738067446998327,-0.06811269889237662,-0.2961224317550659,-0.76181960105896,-0.1801460087299347,0.4522185325622558,0.0078212097287178,-0.243198424577713
1749026957.8597455,4.468560812545209,-0.48947626886550816,-0.9474594921954607,-2.434465589515535,0.09442471643263414,0.03275629069088374,-0.048916450087324,0.013677459309574234,-0.025551453832424773,0.01613596034759988,0.07492316707550328,-0.06956243054271942,-0.3298472464084625,-0.7730718851089478,-0.1974122375249862,0.4797822833061218,0.0170694161206483,-0.2383913248777389
1749026957.861713,4.468466132903985,-0.48944850206951074,-0.9475115435868365,-2.434431422854364,0.09457376828265583,0.03261625995737933,-0.049877193704360064,0.013690821217080486,-0.026186743200002246,0.016597991992165412,0.07612947511718811,-0.07100462085492033,-0.3298472464084625,-0.7730718851089478,-0.1974122375249862,0.4797822833061218,0.0170694161206483,-0.2383913248777389
1749026957.9022863,4.468369253479696,-0.4894212095100644,-0.9475645741774472,-2.43439614955456,0.09472488186831646,0.03247416419154531,-0.05085305573919125,0.013679937325202413,-0.026801543704420085,0.017049179367572075,0.07743197037010759,-0.07242593498743635,-0.3292815089225769,-0.7700129747390747,-0.1684643328189849,0.472206175327301,0.0354433730244636,-0.2197822034358978
1749026957.902337,4.46826997997985,-0.4893944151174169,-0.9476185699349492,-2.4343598148315064,0.09487849204080764,0.03232988100459319,-0.051846095987689904,0.01364458561341231,-0.0273928907461518,0.017482618968085274,0.07882870589187892,-0.07381467129520938,-0.3093301653861999,-0.7706096172332764,-0.1896066665649414,0.4836952984333038,0.0408689156174659,-0.2243834137916565
1749026957.902411,4.46816817753992,-0.48936811899770166,-0.9476735343467844,-2.434322496953905,0.09503504358815189,0.032183266683996486,-0.05285820169133959,0.013585835815021005,-0.027960062010676204,0.01789264327967903,0.08031028710051738,-0.07516253970360504,-0.3549227118492126,-0.7859451174736023,-0.1899586617946624,0.4630525112152099,0.0273587442934513,-0.2063473016023636
1749026957.902485,4.468063781576198,-0.4893422961087889,-0.9477294870747572,-2.4342842984859265,0.09519495739643727,0.03203416649359312,-0.05389113070743791,0.01350597646490067,-0.028504870742313053,0.018275274596270322,0.08186150999049205,-0.07646620864683917,-0.3424667418003082,-0.7803974747657776,-0.1590963304042816,0.4703927934169769,0.0034587681293487,-0.2370013445615768
1749026957.9025545,4.467956799478545,-0.48931689827553165,-0.9477864631196642,-2.4342453353360973,0.09535860063982715,0.03188242203633725,-0.054946608781926344,0.013408298153583319,-0.02903170666154639,0.01862866026105358,0.08346356711688639,-0.07772840587454415,-0.3424667418003082,-0.7803974747657776,-0.1590963304042816,0.4703927934169769,0.0034587681293487,-0.2370013445615768
1749026957.9026256,4.4678473033212205,-0.48929186005551834,-0.947844512186613,-2.434205725704002,0.09552626166514717,0.03172787686560235,-0.056026419605183266,0.013296768831126588,-0.029547271490388344,0.018953407197367655,0.08509648072336541,-0.07895843834633218,-0.3628925085067749,-0.7656924724578857,-0.1738781332969665,0.4803490042686462,0.0277459993958473,-0.2277382314205169
1749026957.9026945,4.467735415047963,-0.48926710803669315,-0.9479036975567967,-2.434165580593824,0.09569813012744582,0.03157038168236011,-0.05713242784764461,0.01317565288214159,-0.03005999304422439,0.01925273225785502,0.08674143303835408,-0.08017207601779118,-0.3368467390537262,-0.7734808921813965,-0.1729558408260345,0.4660935997962951,0.0153334066271781,-0.2042371481657028
1749026957.9027646,4.46762128601257,-0.4892425718215863,-0.9479640939065874,-2.4341249965114455,0.09587428427362966,0.03140979880854245,-0.0582664956006368,0.013049132808665232,-0.03057917313722868,0.01953236600004979,0.08838273001293666,-0.08139078142041502,-0.3608610928058624,-0.7869725823402405,-0.1990183293819427,0.4686383903026581,0.023832269012928,-0.2216328680515289
1749026957.9028318,4.467505073065032,-0.48921819421295615,-0.9480257838955033,-2.4340840500806014,0.0960546882202645,0.031246004369445343,-0.05943028066467768,0.012920990787976407,-0.03111399969489782,0.019800180773046766,0.09000920930542075,-0.08264027131768342,-0.3647930324077606,-0.7925119996070862,-0.1850520819425583,0.4658132791519165,-0.0012165829539299,-0.2211878001689911
1749026957.9029016,4.467386913883292,-0.48919393860698307,-0.948088853757853,-2.434042794074516,0.09623920149204333,0.03107888705498551,-0.06062493468315689,0.01279439730156874,-0.03167258788367004,0.02006555302285284,0.09161496245216391,-0.08394841960756866,-0.3431119620800018,-0.7815420627593994,-0.1936371326446533,0.4936351478099823,-0.0120218992233276,-0.225376158952713
1749026957.9029715,4.467266904642529,-0.4891697928864568,-0.9481533885142642,-2.434001254593093,0.09642760124984107,0.03090834385209871,-0.06185074831022032,0.01267183527516963,-0.03226119292337248,0.020338511232844095,0.09319930523629169,-0.08534258451330376,-0.3815866708755493,-0.7728613615036011,-0.1792556345462799,0.4832051992416382,0.010336154140532,-0.2288075983524322
1749026957.9030404,4.467145083080522,-0.4891457701275852,-0.9482194676121493,-2.433959429449817,0.09661961534161431,0.03073427451300716,-0.06310681684685676,0.01255516312941183,-0.03288368082811453,0.020628759083724905,0.09476603098794512,-0.08684655597172641,-0.3732295036315918,-0.7729519605636597,-0.1935342401266098,0.4925084710121155,0.0065820068120956,-0.2281495928764343
1749026957.9031105,4.467021419397333,-0.489121906619953,-0.94828716161341,-2.4339172880114233,0.09681496215438518,0.030556577076126887,-0.06439081526940733,0.012445794444168054,-0.03354128435039303,0.020944690704845836,0.09632210797193433,-0.08847743494321583,-0.3883389830589294,-0.7613723874092102,-0.1921707391738891,0.4968894720077514,0.0192304551601409,-0.225059375166893
1749026957.9031806,4.466895816152602,-0.48909825744016805,-0.9483565300215694,-2.4338747726746583,0.09701339150248008,0.030375146579129517,-0.06569896034977275,0.012344952145556004,-0.03423262651518764,0.021292526915741235,0.09787607732037028,-0.0902428373783519,-0.359714150428772,-0.7939503192901611,-0.2080564498901367,0.5080645084381104,-0.0146411806344985,-0.232527807354927
1749026957.9032254,4.466768116778172,-0.48907488979905034,-0.9484276197499998,-2.433831801982872,0.09721471959640506,0.030189878680980758,-0.06702619087683392,0.012253944921697046,-0.03495396604011936,0.021675696690335783,0.09943643074476494,-0.0921388363614546,-0.3863690197467804,-0.7743232846260071,-0.1985208392143249,0.498888224363327,0.0490653663873672,-0.2611196041107178
1749026957.9032643,4.466638121160298,-0.48905187471171885,-0.948500463325718,-2.4337882752379647,0.09741885104674981,0.03000067936300166,-0.06836653493923524,0.012174411600591926,-0.035699604516916644,0.02209456510682749,0.10101021278313456,-0.09414901020450116,-0.3863690197467804,-0.7743232846260071,-0.1985208392143249,0.498888224363327,0.0490653663873672,-0.2611196041107178
1749026957.9033022,4.466505606052227,-0.4890292777624435,-0.9485750759167241,-2.4337440782947923,0.09762578299574676,0.029807480583897372,-0.06971359103614835,0.012108483287994042,-0.0364623896356347,0.022546567322585774,0.10260203687866135,-0.09624485501677423,-0.3910324275493622,-0.7647122144699097,-0.1862129420042038,0.5263503193855286,0.0229018777608871,-0.2572366595268249
1749026957.90334,4.466370347470743,-0.4890071495193459,-0.9486514508623165,-2.433699089880739,0.09783559126851292,0.02961025932624894,-0.07106104255988555,0.012058824937927325,-0.03723425130363193,0.023026750814455925,0.1042136354834737,-0.09838765250261003,-0.3777826130390167,-0.7658952474594116,-0.1798633188009262,0.5114969611167908,0.010169431567192,-0.2318602353334427
1749026957.903381,4.466232141831028,-0.4889855157555748,-0.9487295544267261,-2.4336531874326637,0.09804840405203057,0.02940905498427552,-0.07240314176144641,0.012028539415005835,-0.03800672223340544,0.023528660804755692,0.10584397166633266,-0.10053167982142056,-0.3902350068092346,-0.7774616479873657,-0.1912256926298141,0.5043622255325317,0.0131831616163253,-0.2559295892715454
1749026957.90342,4.466090822976625,-0.4889643676539657,-0.9488093214269667,-2.433606251518032,0.09826437184206602,0.02920397934173178,-0.07373512381121781,0.012020944112452218,-0.038771420698235776,0.024045435569332113,0.10748983904438303,-0.10262845563057303,-0.4289617836475372,-0.7657373547554016,-0.1946744918823242,0.5135074853897095,0.0256064906716346,-0.2528193295001983
1749026957.9037874,4.465946273468071,-0.4889436528889242,-0.9488906537275196,-2.4335581684714813,0.09848364171427093,0.02899521501167099,-0.07505353566738736,0.012039256253740896,-0.03952049959359143,0.024570925582123575,0.10914680657745146,-0.10463157527551419,-0.4558127522468567,-0.741789698600769,-0.1857002228498459,0.5187922716140747,0.0491739809513092,-0.2288673967123031
1749026957.90571,4.465798429674864,-0.4889232694342367,-0.9489734232283883,-2.4335088315096938,0.09870634069838667,0.02878300104339381,-0.0763564804584758,0.012086242894318472,-0.040247077647204844,0.025100631613055036,0.11081034019315694,-0.10650160082773397,-0.3637811541557312,-0.7407413125038147,-0.1931184232234954,0.5202211737632751,0.0034126490354537,-0.212670162320137
1749026957.946283,4.465647280676151,-0.488903064258122,-0.9490574800142252,-2.433458140997839,0.09893256949042388,0.028567607152432506,-0.07764377706839252,0.0121639001537426,-0.04094565958944753,0.025632280819262353,0.112476933132017,-0.10821042653383978,-0.4243410229682922,-0.7425253987312317,-0.1893035769462585,0.5200960040092468,-0.0078992694616317,-0.2132789045572281
1749026957.9463284,4.465492860955019,-0.48888283826130996,-0.9491426650931329,-2.4334060048223085,0.0991624053013742,0.028349300119631323,-0.07891701956139778,0.012273219401461359,-0.04161253229839038,0.026165922689500645,0.11414508186985302,-0.10974455356508672,-0.4134865701198578,-0.7420341372489929,-0.1854464709758758,0.5119051933288574,0.0129683762788772,-0.1860617995262146
1749026957.9463682,4.465335237199552,-0.4888623572935186,-0.9492288260734986,-2.433352339985008,0.09939591147748623,0.028128307187710477,-0.0801795074129998,0.012414078681766123,-0.04224610800985839,0.026703517323241402,0.11581595990948693,-0.11110681316642486,-0.4079082012176513,-0.7239267826080322,-0.1861155331134796,0.5274333953857422,0.0296667963266372,-0.2160659432411193
1749026957.9464064,4.465174490585952,-0.4888413676993859,-0.9493158334987309,-2.4332970763016846,0.09963315113947395,0.027904781682312932,-0.08143601487970543,0.012585273740541155,-0.042847175472744865,0.027248091912777186,0.11749367544531719,-0.11231627789364929,-0.4240802526473999,-0.7171807289123535,-0.1598052382469177,0.5238473415374756,-0.003005713224411,-0.1903339475393295
1749026957.9464445,4.46501069718024,-0.48881961413854047,-0.9494035954085098,-2.4332401623321056,0.09987420191907653,0.02767877566617226,-0.08269237792685244,0.01278468041201732,-0.04341900826277957,0.027802636580308987,0.11918504928905638,-0.1134063560384926,-0.4090452492237091,-0.7276416420936584,-0.1577844768762588,0.5169625282287598,0.0207195803523063,-0.2031270861625671
1749026957.9464822,4.46484390977917,-0.488796857393227,-0.9494920679017178,-2.4331815726503696,0.10011916881935023,0.027450223508728357,-0.0839549050130293,0.01300952061716271,-0.04396727062262781,0.028368971743044487,0.1208989203723634,-0.11442131766285488,-0.418048083782196,-0.7342070937156677,-0.1495241075754165,0.5380970239639282,0.0249853730201721,-0.1963379383087158
1749026957.9465215,4.464674144452811,-0.48877289021036374,-0.9495812599464047,-2.4331213146763893,0.10036819250354997,0.027218939122418823,-0.08522966374437359,0.013256689690013153,-0.04449967439374857,0.028946825992305518,0.12264507583076971,-0.1154117063295552,-0.431585282087326,-0.7336794137954712,-0.1924271583557129,0.5344022512435913,0.0269321389496326,-0.2287217825651168
1749026957.946559,4.464501374499418,-0.48874754961157973,-0.9496712314500413,-2.4330594328939794,0.10062145084888154,0.026984628270085888,-0.08652174160594205,0.013523095090772307,-0.045025385708946764,0.02953331609579741,0.12443298004858949,-0.11642922267987922,-0.4404822587966919,-0.7152724862098694,-0.1844950020313263,0.5595462322235107,0.0334017872810363,-0.2385185062885284
1749026957.946596,4.464325533477533,-0.4887207245256052,-0.9497620846778206,-2.4329960086776943,0.10087915214292861,0.026746915597760698,-0.08783460185306899,0.013805956112751653,-0.04555423620126784,0.030122935768186292,0.12627050473192158,-0.11752171529223726,-0.4295508861541748,-0.7225863337516785,-0.1717406213283538,0.5349470973014832,0.0336115285754203,-0.2476532012224197
1749026957.9466329,4.464146527368637,-0.48869235830769586,-0.949853950201365,-2.432931155155687,0.10114151905306581,0.02650538395892038,-0.08916964120757045,0.014103021295530463,-0.0460958263524358,0.030708056008287087,0.12816283574404536,-0.11872888136123264,-0.4452070891857147,-0.7318238019943237,-0.1637011766433715,0.5484528541564941,0.0478686913847923,-0.2856918573379516
1749026957.9466698,4.463964254129855,-0.4886624467167381,-0.9499469692718674,-2.4328650080765466,0.10140876384762515,0.026259621620780944,-0.09052600533777226,0.014412675258122305,-0.04665861147486139,0.03127983535712413,0.13011167633709306,-0.1200791695550894,-0.4290197193622589,-0.7095465660095215,-0.1726715564727783,0.5255193114280701,0.0340544283390045,-0.2541460394859314
1749026957.9467103,4.4637786275246025,-0.4886310327415482,-0.9500412747936345,-2.4327977148210547,0.10168105716127276,0.026009271600730164,-0.09190064874031757,0.014733927198606485,-0.04724905855199313,0.03182935734503374,0.1321148064491424,-0.12158819991913095,-0.3945205807685852,-0.71860271692276,-0.2108931243419647,0.5284936428070068,0.0341104753315448,-0.255722165107727
1749026957.946748,4.463589601437627,-0.4885981998712453,-0.9501369731816426,-2.4327294240473547,0.10195849431807212,0.025754076902186476,-0.09328856769864421,0.01506629455804162,-0.04787096930934359,0.032348778740998604,0.13416601083972102,-0.1232587904580341,-0.3960075378417969,-0.7025459408760071,-0.1821944266557693,0.5257102251052856,0.0490492731332778,-0.2900816202163696
1749026957.9467854,4.463397190775579,-0.4885640650286227,-0.9502341293872802,-2.432660277956278,0.10224106438143,0.025493915703549985,-0.0946831159954131,0.015409613433824064,-0.04852506271701977,0.03283229424708346,0.13625536003634642,-0.12508243663243626,-0.4200948774814605,-0.7139154076576233,-0.1794436275959015,0.5307906866073608,0.0338236466050148,-0.2989934086799621
1749026957.9468224,4.463201485347174,-0.48852877169473197,-0.9503327570800966,-2.4325904080974405,0.10252862742839489,0.025228821441050948,-0.09607633992274948,0.015763819779709767,-0.04920887740959741,0.03327678556474352,0.13836980846852542,-0.12704186135615372,-0.3925544619560241,-0.6975032687187195,-0.1874121576547622,0.5377405285835266,0.0417110696434974,-0.2482122033834457
1749026957.9468594,4.463002653835349,-0.48849248294692005,-0.9504328152950501,-2.4325199343964403,0.10282090486015269,0.024958984247106415,-0.09745932252702447,0.01612874885078194,-0.049917001124104465,0.03368209539054848,0.14049405299289863,-0.12911407661972021,-0.4393162727355957,-0.7030593156814575,-0.1880733966827392,0.5275170207023621,0.0374151766300201,-0.2814564108848572
1749026957.946896,4.462800936355149,-0.4884553734329697,-0.9505342119213458,-2.4324489660423594,0.10311748575818538,0.024684732496119275,-0.09882257157791288,0.016503992098309227,-0.05064158855525251,0.03405092504832062,0.14261157538480326,-0.13127332468050495,-0.3860378563404083,-0.686119556427002,-0.178132101893425,0.5149410367012024,0.038253016769886,-0.2353360056877136
1749026957.9469326,4.462596626257128,-0.48841761913839554,-0.9506368133930692,-2.432377602387142,0.10341784957485707,0.02440649626356797,-0.10015649012645593,0.0168888327585238,-0.051373105827926716,0.034388393497964305,0.1447057862109991,-0.13349334057927736,-0.4295001924037933,-0.6986123323440552,-0.1880317330360412,0.5252418518066406,0.0347264558076858,-0.2310556173324585
1749026957.9469686,4.462390044394038,-0.4883793846207045,-0.9507404590336614,-2.4323059323262597,0.1037214024891215,0.024124757993816005,-0.10145192825936138,0.017282258930016718,-0.052101232845127035,0.0347013275146026,0.14676119853867883,-0.13574859134582237,-0.407514214515686,-0.7168576717376709,-0.1868260651826858,0.523550271987915,0.0686782002449035,-0.2632476389408111
1749026957.947005,4.462181510935658,-0.4883408090179467,-0.9508449779825736,-2.4322340315979627,0.10402752271032216,0.02383999858939495,-0.10270076044578667,0.017683031562997387,-0.052815850858440865,0.03499738702071238,0.14876458094519096,-0.13801444162851156,-0.407514214515686,-0.7168576717376709,-0.1868260651826858,0.523550271987915,0.0686782002449035,-0.2632476389408111
1749026957.9476624,4.461971319624199,-0.4883019935108478,-0.9509502068031177,-2.432161958372818,0.10433561006119604,0.02355264774975416,-0.10389640837999282,0.018089771114184947,-0.05350803601173598,0.03528415843705528,0.1507060595971398,-0.140266497789376,-0.4175425171852112,-0.6905763149261475,-0.1833475977182388,0.5391272902488708,0.0483116954565048,-0.2790061831474304
1749026957.949719,4.461759716801953,-0.4882629928747854,-0.9510560067554594,-2.4320897477736163,0.10464513723503896,0.023263044770564418,-0.10503425387664152,0.018501026475159322,-0.05417097481664042,0.035568355565743386,0.1525801453503291,-0.14247962351837912,-0.4140016734600067,-0.691447913646698,-0.1808934062719345,0.5338013172149658,0.077381744980812,-0.2618623673915863
1749026957.9902785,4.461546884452727,-0.4882238123200587,-0.9511622806155513,-2.432017405785207,0.10495570191632395,0.02297141186702192,-0.10611193633430895,0.018915302569462396,-0.05480071825980394,0.03585524088413288,0.1543866383052241,-0.14462723748472098,-0.4061920642852783,-0.7197538614273071,-0.1718899458646774,0.5380275249481201,0.0533595532178878,-0.3070344626903534
1749026957.9903266,4.4613329255533305,-0.4881844092402095,-0.9512689887465564,-2.431944903225745,0.10526707782333436,0.022677839534820724,-0.10712955674419261,0.019331042261415236,-0.05539669452820399,0.036148323561032564,0.15613130436702902,-0.1466814601991999,-0.3766811490058899,-0.7146691679954529,-0.1807744652032852,0.5230175852775574,0.0237030498683452,-0.2746645212173462
1749026957.990371,4.461117851921553,-0.48814469892742535,-0.9513761627076345,-2.4318721713146725,0.10557925886593322,0.02238228353656935,-0.10808979186670241,0.019746577840309053,-0.05596190739630535,0.03644932187150542,0.15782614779232157,-0.14861447597638247,-0.3766811490058899,-0.7146691679954529,-0.1807744652032852,0.5230175852775574,0.0237030498683452,-0.2746645212173462
1749026957.990413,4.460901577467881,-0.4881045636818374,-0.9514839132924162,-2.431799101088866,0.10589248722091987,0.022084573831048566,-0.1089978879719674,0.020160082936531,-0.05650276965825964,0.03675832197600466,0.15948906587717498,-0.1504011615709147,-0.4082469940185547,-0.6922904253005981,-0.1797941923141479,0.527407169342041,0.0118142291903495,-0.2959867715835571
1749026957.9904516,4.460683921009212,-0.4880638650395175,-0.951592429928862,-2.4317255486206295,0.10620725602619133,0.021784435271951477,-0.10986150087642654,0.020569561577529476,-0.05702856671756596,0.03707404098620791,0.16114270914381343,-0.15202268073317693,-0.4327183663845062,-0.7258725166320801,-0.1783476322889328,0.52312171459198,0.0459822192788124,-0.2656289935111999
1749026957.99049,4.460464622129528,-0.48802245841422304,-0.951701969870295,-2.4316513467420515,0.1065242805678517,0.02148151869171963,-0.11069038171514926,0.02097290228844724,-0.057550605121911326,0.037394112908190565,0.16281249240934487,-0.1534704279923402,-0.4327183663845062,-0.7258725166320801,-0.1783476322889328,0.52312171459198,0.0459822192788124,-0.2656289935111999
1749026957.9905276,4.460243371453214,-0.48798020853314045,-0.9518128376311265,-2.4315763224419786,0.10684443697977385,0.02117544006382498,-0.1114959350882989,0.021368004137918915,-0.058081151690166644,0.0377153524815663,0.16452388490618772,-0.15474948743985417,-0.4372817575931549,-0.7124915719032288,-0.2128957211971283,0.526375412940979,0.0428977683186531,-0.2460246682167053
1749026957.9905653,4.460019853136161,-0.4879370033253231,-0.951925357038442,-2.4315003177279393,0.1071686739362517,0.020865824276767416,-0.1122906689908586,0.021752958495532573,-0.05863229132119509,0.03803400175493277,0.16629930810360524,-0.15588072064278716,-0.3850718140602112,-0.7234048247337341,-0.185042917728424,0.5462969541549683,0.052995778620243,-0.198773980140686
1749026957.990603,4.459793793112502,-0.4878927639393807,-0.9520398397416562,-2.4314232107640796,0.10749790929767408,0.020552348358083842,-0.11308752938034125,0.022126253876538573,-0.05921482312700288,0.03834601087532931,0.16815512672588848,-0.15690076652214857,-0.3733242154121399,-0.7288376092910767,-0.1820189952850341,0.5427283048629761,0.0770012065768241,-0.2309449017047882
1749026957.9906445,4.459565003983188,-0.4878474494721774,-0.9521565545600523,-2.4313449337819866,0.10783292746710468,0.020234778245897277,-0.11389910470737984,0.022486963344343823,-0.059837291435981856,0.038647424947040154,0.17009926250711563,-0.15785961342110186,-0.4111748039722442,-0.7237202525138855,-0.2202786207199096,0.5405147075653076,0.092778667807579,-0.2348169088363647
1749026957.9906826,4.459333418090181,-0.487801056475189,-0.9522757015032609,-2.431265484735256,0.10817429272172552,0.019912994580889336,-0.11473672433280728,0.022834873111575053,-0.06050522769225787,0.038934925699142094,0.1721298593039033,-0.15881590216427194,-0.4150007367134094,-0.7248350977897644,-0.2110971808433532,0.537184476852417,0.0887897536158561,-0.2424196600914001
1749026957.9907207,4.459099103616004,-0.4877536147705703,-0.9523973930907109,-2.4311849307636373,0.10852228977499796,0.019587005703105634,-0.11560955233166598,0.023170517645831334,-0.061220657923711286,0.03920651448230428,0.17423521661776822,-0.15983061220928682,-0.4032780528068542,-0.7186623811721802,-0.1896681189537048,0.5370673537254333,0.1150350868701934,-0.2812389433383941
1749026957.990758,4.458862262696269,-0.48770518190848894,-0.9525216440906229,-2.431103402995329,0.10887689682210311,0.019256948756543924,-0.11652385029567382,0.02349510178097195,-0.06198189598761796,0.03946224602870404,0.17639496048565897,-0.1609601446779992,-0.3977739214897156,-0.7303673028945923,-0.1997949779033661,0.5410193800926208,0.0809395015239715,-0.3255293369293213
1749026957.9907944,4.4586232141043824,-0.4876558383414509,-0.952648369263857,-2.4310210837049993,0.109237789937603,0.01892308169252892,-0.11748259605305532,0.02381031210768597,-0.06278360717579064,0.03970486059363658,0.17858220698611413,-0.16224995339901466,-0.3977739214897156,-0.7303673028945923,-0.1997949779033661,0.5410193800926208,0.0809395015239715,-0.3255293369293213
1749026957.9908316,4.458382364913074,-0.4876056842621374,-0.9527773878404949,-2.4309381878376315,0.10960437342757483,0.018585769079811028,-0.1184855790923995,0.02411804264032945,-0.06361711770191696,0.03994014026923304,0.18076634279742043,-0.16372975526109365,-0.4297643303871155,-0.7145758867263794,-0.2091543674468994,0.532048225402832,0.0915121734142303,-0.3307305872440338
1749026957.9908686,4.4581401750434075,-0.4875548377021081,-0.9529084339163448,-2.4308549411194944,0.10997583045243695,0.01824546246527183,-0.11952997289423405,0.024420077303496768,-0.06447096241835786,0.04017684356756795,0.18291601620926254,-0.16541100807148418,-0.4073411226272583,-0.7267764210700989,-0.1998694539070129,0.5453376770019531,0.0983990505337715,-0.302776038646698
1749026957.9909065,4.45789711688531,-0.48750343257880274,-0.9530411730822147,-2.4307715568168717,0.11035119024579755,0.017902673285434236,-0.1206112584955442,0.024717781088683135,-0.06533167208019644,0.040426142168753405,0.1850019795214631,-0.16728686437194334,-0.4153056144714355,-0.7280440330505371,-0.2096756994724273,0.5340698957443237,0.0752671509981155,-0.3072600364685058
1749026957.990946,4.45765363149842,-0.48745161523972436,-0.9531752258166087,-2.430688213264344,0.1107294085866132,0.017557936125955756,-0.12172428877916971,0.0250118526883617,-0.0661847778456249,0.040700577385364436,0.1869995101003344,-0.16933431062915846,-0.4391512274742126,-0.7273717522621155,-0.1866948008537292,0.5435245633125305,0.071581944823265,-0.2721493542194366
1749026957.9909828,4.457410084044834,-0.48739953857916657,-0.9533101969161322,-2.430605034434466,0.11110945570774731,0.017211763284964723,-0.12286426424055323,0.025302183782859415,-0.06701596345384919,0.04101265654159333,0.18889023766253774,-0.1715178108732308,-0.4391512274742126,-0.7273717522621155,-0.1866948008537292,0.5435245633125305,0.071581944823265,-0.2721493542194366
1749026957.9910192,4.457166722297224,-0.4873473535496623,-0.9534457086738729,-2.430522075374947,0.11149040384767304,0.016864595124257042,-0.12402743502183995,0.02558785153595854,-0.06781225241226257,0.041373304224475736,0.19066331184185734,-0.1737936031370541,-0.4348106384277344,-0.7343840003013611,-0.1789540946483612,0.565001368522644,0.0891175121068954,-0.2674717903137207
1749026957.9917665,4.456923641496076,-0.4872951984594217,-0.9535814349694931,-2.4304393131547433,0.1118715082404819,0.01651675123171629,-0.12521142765865106,0.025867239547042512,-0.06856309903681687,0.041790442724070884,0.1923159402567724,-0.17611389304195907,-0.4234103560447693,-0.7470480799674988,-0.1734987795352935,0.5738978385925293,0.0765366405248642,-0.2710915207862854
1749026957.9937072,4.456680757247215,-0.4872431868300385,-0.953717133719002,-2.430356642867545,0.11225227877949752,0.01616838547790302,-0.12641519017284705,0.02613824566735597,-0.06926125949591035,0.04226797137920487,0.19385338182442874,-0.17843049283269136,-0.449424147605896,-0.733405590057373,-0.1868990510702133,0.5870060920715332,0.0689815580844879,-0.2689326703548431
1749026958.034278,4.45643778786735,-0.48719139504913467,-0.9538526750225766,-2.430273878176347,0.11263254028197796,0.015819447240883768,-0.1276386331065581,0.02639851235553108,-0.06990334305933996,0.0428053360809228,0.19528847444802347,-0.1806978168650677,-0.4708666503429413,-0.7257220149040222,-0.1647127717733383,0.57073974609375,0.0653680637478828,-0.3256930708885193
1749026958.0343237,4.456194249228897,-0.4871398516770104,-0.9539880614415215,-2.43019075676012,0.11301247566007448,0.015469653158787303,-0.12888210007346454,0.02664562476753152,-0.07048997971799219,0.04339774690897516,0.19664073072158106,-0.18287540885779718,-0.4708666503429413,-0.7257220149040222,-0.1647127717733383,0.57073974609375,0.0653680637478828,-0.3256930708885193
1749026958.034367,4.455949466723136,-0.4870885306914066,-0.9541234361769005,-2.430106951758164,0.11339264194011824,0.015118476442501414,-0.13014581250297913,0.026877258561885897,-0.07102558728181065,0.04403695721425307,0.1979349991334645,-0.18493025576705677,-0.4476583302021026,-0.7421668767929077,-0.1674625873565673,0.5699926614761353,0.0610366910696029,-0.3361895680427551
1749026958.0344071,4.455702608391851,-0.4870373506505727,-0.9542590756341538,-2.4300220900562293,0.11377394839294398,0.014765161096328853,-0.13142939113744825,0.027091295971125237,-0.07151777471670898,0.04471240856507931,0.1991997008484503,-0.18683903245319988,-0.4301456212997436,-0.7100067138671875,-0.1787549406290054,0.5810573697090149,0.0537118092179298,-0.3029622435569763
1749026958.034445,4.4554527406615385,-0.48698618065829674,-0.9543953648884042,-2.429935777268408,0.11415758990550691,0.014408766155076814,-0.13273148458557163,0.027285941336352124,-0.0719764700405467,0.04541249752806839,0.2004647147116908,-0.1885901710272379,-0.4301456212997436,-0.7100067138671875,-0.1787549406290054,0.5810573697090149,0.0537118092179298,-0.3029622435569763
1749026958.0344832,4.455198904468537,-0.48693485262953545,-0.9545327572788032,-2.42984762817017,0.11454493576427019,0.014048241065445236,-0.13404948233983185,0.027459854370367937,-0.07241289855038623,0.0461257294894978,0.20175906635398463,-0.19018536549252835,-0.4729800224304199,-0.7364921569824219,-0.1677060723304748,0.5626577138900757,0.0552989467978477,-0.2310640215873718
1749026958.0345206,4.454940205015694,-0.48688317815154447,-0.9546717224469528,-2.4297573001797828,0.1149373836429432,0.013682527042866044,-0.13537929263129206,0.027612293637319815,-0.07283854974524508,0.0468415788756527,0.20310864815746243,-0.19163995617832696,-0.4996938407421112,-0.7783568501472473,-0.1741565465927124,0.5679256319999695,0.0867980271577835,-0.2444246113300323
1749026958.0345583,4.454675903253596,-0.4868309673739604,-0.9548126901370346,-2.429664526103331,0.1153361995705342,0.013310670887032538,-0.13671522003770065,0.027743238147684497,-0.07326425696336666,0.047550961723557966,0.2045342311441202,-0.19298170445278837,-0.4996938407421112,-0.7783568501472473,-0.1741565465927124,0.5679256319999695,0.0867980271577835,-0.2444246113300323
1749026958.0345953,4.454405493423984,-0.4867780469847265,-0.954955998922861,-2.429569141164283,0.11574237283493528,0.012931930793182216,-0.1380500425154996,0.02785344497357425,-0.07369947920692142,0.048246327672946045,0.206050010673501,-0.19424777002024793,-0.4222189486026764,-0.7709521055221558,-0.1762421727180481,0.5941725373268127,0.0687028765678405,-0.2230949401855468
1749026958.0346324,4.454128751434638,-0.48672427462210816,-0.9551018586323254,-2.429471099258146,0.11615651480792391,0.012545852751372507,-0.13937540464734394,0.027944415897915572,-0.0741518290863983,0.04892146649944831,0.20766284977080393,-0.19548014342529782,-0.4534810781478882,-0.7229195237159729,-0.1855471730232238,0.5840016603469849,0.0800459533929824,-0.2460555285215377
1749026958.0346696,4.453845745061142,-0.48666954804301127,-0.9552503321176978,-2.4293704752201175,0.11657881983845696,0.01215230361449128,-0.14068257662405176,0.02801828275020693,-0.07462684450577554,0.04957117042910352,0.20937226303400058,-0.19672022248330515,-0.4917547404766083,-0.7376686930656433,-0.1900935471057891,0.575726330280304,0.091550201177597,-0.3015568256378174
1749026958.0347066,4.4535568075466685,-0.48661380875946036,-0.955401336880294,-2.4292674535093433,0.11700908773042187,0.01175146076946482,-0.14196349899161026,0.028077657249658418,-0.07512796781651282,0.0501908858819104,0.21117106082227136,-0.19800350521374027,-0.4406096935272217,-0.7220480442047119,-0.1894387602806091,0.5851284265518188,0.0766665711998939,-0.3264186382293701
1749026958.034744,4.453262486166139,-0.4865570411731986,-0.9555546622147816,-2.429162307431029,0.11744678985634979,0.011343771579551288,-0.14321191194450797,0.02812550309182517,-0.07565668506291749,0.05077644416958599,0.21304649511362628,-0.19935539048922657,-0.4406096935272217,-0.7220480442047119,-0.1894387602806091,0.5851284265518188,0.0766665711998939,-0.3264186382293701
1749026958.0347812,4.452963481300617,-0.48649926889361983,-0.955709995556014,-2.4290553746224193,0.11789115377519016,0.0109299007321217,-0.14442431950686382,0.028165071632504486,-0.0762127870841722,0.05132391300053182,0.2149817346750253,-0.20078880969531768,-0.4459549188613891,-0.7331854104995728,-0.1948706954717636,0.57614666223526,0.069590538740158,-0.3143543303012848
1749026958.0348215,4.452660588006553,-0.48644054967786005,-0.9558669530408039,-2.428947033231353,0.11834124630455413,0.010510678532771184,-0.14560058208556267,0.02819991270989751,-0.07679472846481214,0.05182957915177022,0.2169575239391202,-0.20230395529784254,-0.4269392490386963,-0.743915855884552,-0.2021371126174926,0.5794731378555298,0.0926689952611923,-0.2783318758010864
1749026958.0348597,4.452354644535039,-0.4863809697078638,-0.9560251119551361,-2.428837680389309,0.11879604629049702,0.01008705352022495,-0.14674403378823125,0.02823394380883304,-0.07740006318334283,0.05229005181911782,0.2189539043373115,-0.20388989510806552,-0.4379186928272247,-0.7387048006057739,-0.1718718111515045,0.5786987543106079,0.101892352104187,-0.2577426135540008
1749026958.0348969,4.452046486113933,-0.48632063740274784,-0.9561840444859192,-2.4287277123306668,0.11925450784469234,0.009660045710394255,-0.14786112706175356,0.02827153962795461,-0.07802592175664558,0.05270245377699422,0.22095187433812336,-0.2055275231728381,-0.4530873894691467,-0.7236865758895874,-0.187131255865097,0.5673801302909851,0.0852660536766052,-0.249749019742012
1749026958.034937,4.451736900436002,-0.48625967693940875,-0.9563433523686379,-2.4286175048601106,0.11971561873290101,0.009230695129702917,-0.14896068150473535,0.028317592241782385,-0.07866947463289063,0.053064649382063137,0.22293484337739858,-0.20719318424476382,-0.4821898937225342,-0.7365394234657288,-0.212893396615982,0.5632175803184509,0.0596002712845802,-0.2374642789363861
1749026958.034974,4.451426583137226,-0.4861982218726603,-0.9565027011304751,-2.4285073935406403,0.12017845752512503,0.008800002579315664,-0.15005286057640138,0.028377491668065895,-0.07932831763940355,0.0533754651664172,0.22488972632648802,-0.20886240114596596,-0.4663333296775818,-0.7549091577529907,-0.1646599024534225,0.5670318603515625,0.0843050181865692,-0.2900592088699341
1749026958.0350103,4.451116095035404,-0.4861364092714561,-0.9566618512691848,-2.428397654270525,0.12064224910874326,0.008368863780922787,-0.1511480318209558,0.028456988211376696,-0.08000072202703304,0.05363489443756156,0.22680756145370343,-0.2105133286024356,-0.4619020223617553,-0.7101991772651672,-0.2007525712251663,0.5737841129302979,0.0724621713161468,-0.2855027318000793
1749026958.035697,4.45080582588051,-0.486074374380844,-0.9568206825934722,-2.4282884861467093,0.1211064136420964,0.007938002662072466,-0.15225567672194265,0.028561919672004506,-0.08068570862886323,0.05384431254377627,0.22868362290522423,-0.21212972344731104,-0.4619020223617553,-0.7101991772651672,-0.2007525712251663,0.5737841129302979,0.0724621713161468,-0.2855027318000793
1749026958.0377228,4.450495969902866,-0.48601224515527647,-0.9569792081555001,-2.428179998952046,0.12157060228726703,0.007507912092228082,-0.15338349259281042,0.02869781448130596,-0.08138293452416058,0.05400672803022907,0.23051710525531854,-0.2137032763337544,-0.4417437016963959,-0.708061695098877,-0.1999653279781341,0.5670313835144043,0.0983182787895202,-0.2773188948631286
1749026958.082308,4.450186515947774,-0.4859501356232981,-0.9571375761458855,-2.4280722069537934,0.1220347160727256,0.00707880900064586,-0.15453677147703496,0.028869408460563743,-0.08209242280411266,0.05412705302734395,0.23231052935385807,-0.21523509770305466,-0.4348787069320678,-0.7097026109695435,-0.1998211443424224,0.5572584867477417,0.0825411230325698,-0.2580518722534179
1749026958.082355,4.449877251534953,-0.48588813748762977,-0.9572960604676009,-2.4279650295968502,0.1224989092104785,0.0066506073955196485,-0.15571806733399657,0.02908012971297708,-0.08281420441598455,0.05421232465813849,0.23406902333516064,-0.21673607305616485,-0.4574767351150512,-0.7351427674293518,-0.1817417740821838,0.5520607233047485,0.070483461022377,-0.224859207868576
1749026958.0823953,4.449567778936022,-0.4858263106840206,-0.9574550415268158,-2.42785829906962,0.12296357968785261,0.006222911485001305,-0.15692710349787053,0.02933161286913095,-0.08354795283263626,0.054271782590250256,0.23579958186497293,-0.21822581387752332,-0.4281908273696899,-0.6964077949523926,-0.2095575481653213,0.5523120164871216,0.0840111523866653,-0.2298776358366012
1749026958.082435,4.449257542888665,-0.4857646750742525,-0.9576149779925863,-2.4277517746695816,0.12342934676637812,0.005795032653533327,-0.15816085594275367,0.02962331002214256,-0.08429267635222452,0.05431672214343679,0.23751034557460315,-0.21973010915938848,-0.4281908273696899,-0.6964077949523926,-0.2095575481653213,0.5523120164871216,0.0840111523866653,-0.2298776358366012
1749026958.082472,4.448945870945441,-0.4857032059015324,-0.957776369932402,-2.427645163523276,0.12389701217883699,0.005366034459203828,-0.15941377346054197,0.02995227474157831,-0.08504650826195567,0.054360094961659965,0.23920991179943107,-0.22127711072700143,-0.4357375800609588,-0.6854808330535889,-0.1758998334407806,0.5646691918373108,0.0546143278479576,-0.2613522410392761
1749026958.0825102,4.448632025837666,-0.48564183453215465,-0.9579397154456593,-2.4275381459779304,0.12436750412431674,0.004934805504916935,-0.1606781297807392,0.030313192911065524,-0.08580661823897194,0.05441590195572518,0.24090668546099445,-0.22289284432550463,-0.4798777401447296,-0.7249734401702881,-0.2155664563179016,0.598295271396637,0.0990020483732223,-0.3072438538074493
1749026958.082548,4.44831526539295,-0.48558045406096983,-0.9581054658122337,-2.427430402509874,0.12484180900966278,0.004500152795291161,-0.16194451376661334,0.030698702849765638,-0.08656926242646906,0.054498480505426904,0.24260827132699322,-0.22459687200750617,-0.4749177396297455,-0.7125232219696045,-0.2245674431324005,0.5727837681770325,0.0661707818508148,-0.3121115863323211
1749026958.082586,4.447994902775807,-0.4855189280253545,-0.9582739859087835,-2.4273216384084466,0.12532089969298343,0.004060903213447659,-0.1632024518427741,0.03109999145878114,-0.08732998793894962,0.05462179112967628,0.24432088165851365,-0.22639893175946724,-0.4356397092342376,-0.7377580404281616,-0.1938886940479278,0.5664717555046082,0.0585456937551498,-0.2940368056297302
1749026958.0826235,4.447670359978102,-0.4854571005175812,-0.9584455259363082,-2.427211603175799,0.1258056681422199,0.003616000648120105,-0.16444113599136342,0.031507594212596794,-0.08808399635172585,0.05479875353555644,0.24604871465375042,-0.2282971373391613,-0.4459175765514374,-0.7014756798744202,-0.2221946269273758,0.5699832439422607,0.0785384848713874,-0.3068377375602722
1749026958.082661,4.447341209665118,-0.48539480688630826,-0.958620207909425,-2.427100102999452,0.12629686707772939,0.0031645893162468076,-0.16565020570777503,0.03191228311030779,-0.08882663901140646,0.05504061390943327,0.2477932860431106,-0.2302779304801414,-0.4173739850521087,-0.7314150333404541,-0.2115504145622253,0.560247004032135,0.0766002312302589,-0.2617666125297546
1749026958.0826974,4.447007203025201,-0.48533188498800195,-0.9587980271566281,-2.4269870061196195,0.1267950623852332,0.002706077156979335,-0.16682050942316806,0.032305909171716336,-0.08955397142234246,0.055356299903184594,0.24955276927691905,-0.2323176025922269,-0.4502356052398681,-0.7189913988113403,-0.1892241835594177,0.5822300910949707,0.0700175613164901,-0.2862134277820587
1749026958.0827386,4.44666828333929,-0.48526818701963775,-0.958978866287434,-2.4268722420640754,0.12730059697394108,0.002240175641823315,-0.1679447706017139,0.03268208095233667,-0.09026325713666743,0.055751750399809445,0.2513214781849538,-0.2343849869319239,-0.4394830167293548,-0.7044525742530823,-0.1880455762147903,0.5900704264640808,0.0949425101280212,-0.2844711542129516
1749026958.0827763,4.446324586351407,-0.4852035912991271,-0.9591625173542487,-2.4267557964137088,0.12781356680173134,0.0017669141469217465,-0.16901811627526092,0.033036601709563164,-0.09095330520915049,0.056229264496725107,0.2530896646590412,-0.23644489452849488,-0.4188897013664245,-0.7428076863288879,-0.1874238401651382,0.5757110714912415,0.0761884152889251,-0.3242944180965423
1749026958.0828133,4.445976429032352,-0.48513801236278215,-0.9593487076099189,-2.426637702924492,0.1283338100810912,0.0012866286171794778,-0.17003846744522294,0.033367635907496265,-0.09162455698805098,0.05678696283342883,0.25484378596844925,-0.23846193412240332,-0.4527303576469421,-0.7315955758094788,-0.1978576779365539,0.5885522365570068,0.0644425004720687,-0.3128275275230407
1749026958.0828495,4.445624287993537,-0.4850714071704881,-0.9595371251905797,-2.4265180345198707,0.1288609106471138,0.0007999258451669838,-0.1710068061344569,0.03367561619442072,-0.09227889811245785,0.05741847580467455,0.25656733160591383,-0.24040439125928223,-0.4133011400699615,-0.7262279987335205,-0.2160360217094421,0.5998477339744568,0.0881185978651046,-0.2876242995262146
1749026958.0828855,4.445268768119106,-0.4850037756511739,-0.9597274425591169,-2.4263968940812726,0.12939421617965946,0.00030762635768076107,-0.17192731348014917,0.03396293387053944,-0.09291923832586094,0.058112961198925464,0.2582422112448655,-0.24224778806953037,-0.4272139966487884,-0.7123125195503235,-0.1984515339136123,0.5939603447914124,0.0865459740161895,-0.2649471163749695
1749026958.082922,4.444910561767102,-0.4849351551744832,-0.9599193367693375,-2.426274405386036,0.12993287184262123,-0.00018930940657891122,-0.1728073372620944,0.034233478090824394,-0.09354895175470625,0.05885550695078117,0.25985061838087153,-0.2439776511020633,-0.425945371389389,-0.7338870167732239,-0.2135213911533355,0.5870668292045593,0.0826143473386764,-0.2426538169384002
1749026958.0829582,4.444550399617869,-0.48486561012959434,-0.9601125061207637,-2.4261507042381627,0.13047586988166263,-0.0006898654793194856,-0.17365712414389461,0.03449209414418511,-0.09417128955438132,0.05962790455158246,0.26137720953305293,-0.24559099188132866,-0.426401287317276,-0.7409029603004456,-0.170143574476242,0.5758092403411865,0.0760238543152809,-0.2302750051021576
1749026958.0829952,4.444188995696317,-0.48479521900494926,-0.9603066827846611,-2.4260259299138958,0.13102211489229226,-0.001193058144430042,-0.1744892636749272,0.03474401769322866,-0.09478886635586813,0.06040971886387842,0.26281137296338025,-0.24709614858247386,-0.4460082054138183,-0.7291383147239685,-0.2285568416118621,0.5942768454551697,0.0909986644983291,-0.2464264035224914
1749026958.083032,4.443826990825732,-0.4847240618705285,-0.9605016409101655,-2.4259002173937985,0.1315705018002828,-0.001698019202940226,-0.1753178426847059,0.03499432039128799,-0.09540329320846265,0.06117956276034539,0.2641493052997775,-0.24851095164372922,-0.4492518603801727,-0.7153667211532593,-0.1788997501134872,0.6185045838356018,0.0578919649124145,-0.2858438193798065
1749026958.083068,4.443464900594189,-0.4846522108860049,-0.9606971997256465,-2.425773691308504,0.13211999913090866,-0.002204065841764912,-0.17615737962019648,0.0352473858786219,-0.09601499463317377,0.06191649911915167,0.26539558303761607,-0.24985956053765876,-0.4382039308547973,-0.7372392416000366,-0.1975803524255752,0.5887674689292908,0.0776546746492385,-0.3110999763011932
1749026958.0831048,4.44310307527456,-0.4845797255254106,-0.960893221403718,-2.4256464628554713,0.13266972588632486,-0.002710747600688869,-0.17702166690385707,0.03550643140921469,-0.0966232167632514,0.06260149052107149,0.26656392675626384,-0.2511686222967691,-0.4382039308547973,-0.7372392416000366,-0.1975803524255752,0.5887674689292908,0.0776546746492385,-0.3110999763011932
1749026958.083714,4.442741678366439,-0.48450665286608674,-0.9610896045030926,-2.4255186306238135,0.1332190100404993,-0.003217863015272715,-0.17792267792092678,0.03577310096085697,-0.09722621701304898,0.06321877619318544,0.26767693207608956,-0.2524635077419242,-0.4655662775039673,-0.7293065190315247,-0.1863128989934921,0.5722787380218506,0.0489955842494964,-0.2897078096866607
1749026958.0857227,4.442380686219169,-0.4844330318413352,-0.9612862757995796,-2.4253902848678828,0.13376742263452243,-0.0037254451046744705,-0.17886968980054918,0.036047175390613063,-0.09782161991808072,0.06375701155661401,0.2687646986219662,-0.2537652686690726,-0.4275870025157928,-0.7049968838691711,-0.2060333639383316,0.5611289739608765,0.0877905413508415,-0.2856789529323578
1749026958.126279,4.442019905173722,-0.48435889930212195,-0.9614831850127528,-2.4252615128822224,0.13431479063967564,-0.004233723587343293,-0.17986872902843917,0.03632646055626429,-0.09840690874605017,0.06421001044609999,0.269862495543188,-0.25508870823733004,-0.3979833424091339,-0.7044334411621094,-0.1897230893373489,0.5600811243057251,0.0914438515901565,-0.291288673877716
1749026958.1263237,4.441658998561926,-0.48428429555230185,-0.9616803065239975,-2.4251324021013723,0.13486119748211053,-0.004743077280724325,-0.18092236901596292,0.036606909497200156,-0.09897998578493214,0.06457700313727477,0.27100777864795783,-0.2564416880028333,-0.4254772961139679,-0.7316358089447021,-0.1784833073616027,0.5877811312675476,0.0619626939296722,-0.2817472815513611
1749026958.1263623,4.441297515857086,-0.4842092676403227,-0.961877649372093,-2.4250030381008707,0.13540697896419387,-0.005253989706477621,-0.18202982965838474,0.03688300311377582,-0.0995396922156392,0.06486244084283917,0.2722369539706111,-0.2578255934221052,-0.4517898857593536,-0.7094593048095703,-0.2078993618488311,0.5876171588897705,0.1003212556242942,-0.3195823431015014
1749026958.1264002,4.440934919549117,-0.48413386959812554,-0.9620752730619607,-2.4248734964399405,0.13595271649953683,-0.005767015652295605,-0.18318729157804495,0.03714836404157486,-0.1000861625655205,0.06507548319595724,0.2735822678422856,-0.2592367546434867,-0.4691686630249023,-0.7204091548919678,-0.1550402343273162,0.5780066847801208,0.1037724465131759,-0.3135369420051574
1749026958.1264377,4.440570610091788,-0.48405815971128385,-0.9622733036852111,-2.4247438295530594,0.13649922305838885,-0.006282758847695546,-0.1843883552218543,0.037396528318954306,-0.10062091580609345,0.065229339187588,0.2750691425229964,-0.2606685275575826,-0.4618712663650512,-0.7361672520637512,-0.164270207285881,0.5729042887687683,0.1342143267393112,-0.2800922989845276
1749026958.126475,4.440203953436318,-0.48398219571396184,-0.9624719435366783,-2.424614052000328,0.13704751292348524,-0.00680185367811177,-0.18562461852487816,0.03762176435534326,-0.10114664668320895,0.06534057777632202,0.2767142059011238,-0.262113649292852,-0.4618712663650512,-0.7361672520637512,-0.164270207285881,0.5729042887687683,0.1342143267393112,-0.2800922989845276
1749026958.1265123,4.439834316529157,-0.4839060292424741,-0.962671468482617,-2.42448412849084,0.13759874685109044,-0.007324940673075454,-0.1868863748161118,0.03781981717367737,-0.10166675538082148,0.06542842865367852,0.27852418525277345,-0.26356641792896773,-0.4940621256828308,-0.7276153564453125,-0.1883302628993988,0.5758360624313354,0.1004802957177162,-0.2684531211853027
1749026958.12655,4.439461112244711,-0.4838297006607869,-0.9628722108152881,-2.4243539685547444,0.13815415070288053,-0.007852629031115959,-0.18816342348313522,0.03798847011247617,-0.10218472088204265,0.06551402103829605,0.2804957372154937,-0.2650242716436888,-0.4766566455364227,-0.7204298973083496,-0.1611699163913726,0.5694189667701721,0.1279529184103012,-0.2633950114250183
1749026958.126588,4.4390838490412134,-0.4837532348171089,-0.9630745297445538,-2.424223429865892,0.1387149149060222,-0.00838544741856678,-0.18944594535705644,0.03812785052066795,-0.10270346557539296,0.06561948710035785,0.2826161735615824,-0.266488491582207,-0.5408712029457092,-0.7022346258163452,-0.1999143064022064,0.5822051763534546,0.1371911466121673,-0.2918865084648132
1749026958.1266253,4.438702176957186,-0.4836766380616275,-0.9632787748019072,-2.424092329993042,0.1392820884205273,-0.0089237908109172,-0.1907253452012419,0.038240448122077504,-0.10322486002176554,0.06576687763460597,0.2848649376659105,-0.26796398432957164,-0.4371294975280761,-0.7357482314109802,-0.1928337961435318,0.5656865835189819,0.1282587647438049,-0.3189679682254791
1749026958.1266625,4.438315922379529,-0.4835998970307302,-0.9634852482843578,-2.42396046444641,0.13985648175477328,-0.009467872933105973,-0.191994933484892,0.03833085357650458,-0.10374947479339447,0.06597688548769892,0.2872156124480865,-0.2694583226696075,-0.4891820549964905,-0.7090745568275452,-0.1866940855979919,0.5774822235107422,0.1566991657018661,-0.3127907514572143
1749026958.1266994,4.437925107098396,-0.4835229797599093,-0.9636941721300492,-2.423827627554655,0.1404385911804063,-0.010017692387302634,-0.19325033203536793,0.03840525795135132,-0.10427661989663078,0.06626743697810865,0.2896382106456758,-0.2709803572308272,-0.4714956879615783,-0.7337573766708374,-0.1986073851585388,0.5753868222236633,0.1602760553359985,-0.3021983504295349
1749026958.1267362,4.437529949659288,-0.48344583927768287,-0.9639056633212275,-2.423693632281774,0.14102855331960376,-0.010573018475092014,-0.19448954635755167,0.03847078498146797,-0.1048046482098688,0.06665227779527533,0.2921015171205531,-0.2725387283116077,-0.5309984087944031,-0.717853844165802,-0.1881150305271148,0.6052519679069519,0.1272814124822616,-0.2930027544498443
1749026958.1267726,4.437130848269611,-0.48336841913372053,-0.9641197205743153,-2.4235583256981776,0.14162613624226825,-0.01113340091748714,-0.1957127269715581,0.03853475608164563,-0.10533145054193832,0.06713972194623619,0.29457530425438727,-0.27414053575162173,-0.4585870206356048,-0.7148460149765015,-0.1793712973594665,0.5954003930091858,0.1403505653142929,-0.2924363911151886
1749026958.1268091,4.436728345545364,-0.4832906597554174,-0.964336223811027,-2.42342159804621,0.14223076964908357,-0.011698205675680355,-0.19692170404175643,0.03860400313094557,-0.10585503655710642,0.06773172867393165,0.29703228616658633,-0.27579032965747163,-0.4602564871311188,-0.7135396599769592,-0.1761442124843597,0.6134386658668518,0.1384313404560089,-0.3134486079216003
1749026958.1268454,4.436323077154689,-0.4832125043816175,-0.9645549466306176,-2.4232833846667314,0.14284161238334903,-0.012266676202298972,-0.19811940122803873,0.03868433604619094,-0.1063740828677915,0.06842342383371816,0.29944968870992505,-0.2774895171797376,-0.4880653023719787,-0.6986523270606995,-0.1912747472524643,0.6124663949012756,0.1308075189590454,-0.3056086897850036
1749026958.1268854,4.43591570904005,-0.48313390356201064,-0.9647755805660125,-2.4231436613871864,0.14345765033970806,-0.012838015302380415,-0.19930922936807305,0.038780239317855125,-0.1068883465534348,0.0692031120515388,0.30181030260759545,-0.2792362318212737,-0.4809061288833618,-0.7061793804168701,-0.2069579064846038,0.6165920495986938,0.1211879700422287,-0.3003100156784057
1749026958.1269214,4.43550687086595,-0.4830548177349613,-0.9649977681287708,-2.4230024355143627,0.14407781198371727,-0.013411477416138257,-0.20049455439911296,0.03889481901880124,-0.10739888370033611,0.07005276182580349,0.3041028872471312,-0.28102563070174835,-0.5063623189926147,-0.7289173007011414,-0.1901172995567321,0.598574161529541,0.1180829554796218,-0.3024519979953766
1749026958.126958,4.435097095508428,-0.48297521809445676,-0.9652211396957346,-2.422859736111911,0.14470108359830047,-0.01398645591682615,-0.20167832693613877,0.03902996148229822,-0.10790805430661704,0.07094890432979085,0.30632182800815044,-0.2828504602235397,-0.5063623189926147,-0.7289173007011414,-0.1901172995567321,0.598574161529541,0.1180829554796218,-0.3024519979953766
1749026958.126994,4.434686774048434,-0.48289508645493484,-0.9654453481872461,-2.4227156077803587,0.14532660516909243,-0.014562548233361812,-0.20286292988271581,0.03918662023324513,-0.1084193193307936,0.07186387049646716,0.3084660462144267,-0.2847016359785075,-0.4650716781616211,-0.6853753328323364,-0.1936636567115783,0.6027966141700745,0.1256294846534729,-0.2716377377510071
1749026958.127702,4.434276132163906,-0.48281441474721265,-0.9656700963523714,-2.4225701108009066,0.14595373254886648,-0.01513958595614417,-0.20405023540007636,0.03936514055442831,-0.10893685021761207,0.07276729283270725,0.3105373288062402,-0.28656861308903187,-0.4439181685447693,-0.6882264018058777,-0.2054012566804886,0.6021444201469421,0.1575069725513458,-0.3038321733474731
1749026958.12966,4.4338652288263445,-0.4827332043539365,-0.965895153978934,-2.4224233276866176,0.14658206011936648,-0.015717626084493806,-0.20524178728800843,0.03956555545508033,-0.10946499437615563,0.07362780610770289,0.3125384389383579,-0.2884394888551456,-0.4439181685447693,-0.6882264018058777,-0.2054012566804886,0.6021444201469421,0.1575069725513458,-0.3038321733474731
1749026958.170285,4.433453973913569,-0.4826514652379881,-0.9661203651580105,-2.4222753733375084,0.1472114070363879,-0.016296909201051455,-0.20643898582773199,0.039787811810127624,-0.1100076748983099,0.07441488332327847,0.3144714891433532,-0.2903009860951614,-0.4533882141113281,-0.6982833743095398,-0.2059347629547119,0.5977599024772644,0.1593575924634933,-0.3100306987762451
1749026958.1703303,4.433042157883806,-0.48256921480759907,-0.9663456481207693,-2.42212640421654,0.14784177798513706,-0.016877798038309473,-0.2076431825219791,0.040031892813553904,-0.11056783224226385,0.07510073706383069,0.31633701868160286,-0.29213858917036784,-0.4841216504573822,-0.7054269909858704,-0.1909469962120056,0.572772741317749,0.1120376661419868,-0.3215658366680145
1749026958.17037,4.432629484410487,-0.48248647650365195,-0.9665709915637369,-2.4219766217514533,0.1484733146240472,-0.017460713616983384,-0.20885567263633212,0.04029780801761344,-0.11114701751964867,0.07566220502168551,0.3181340070996043,-0.2939370792283899,-0.4919958412647247,-0.6955010890960693,-0.2208829075098037,0.5988705158233643,0.1144967377185821,-0.3143384754657745
1749026958.170409,4.432215598150362,-0.482403278209844,-0.9667964506994349,-2.421826266743031,0.1491062529017627,-0.01804608324628001,-0.21007763948536357,0.04058544831714843,-0.11174520869866242,0.076082525622109,0.31986075704895206,-0.29568156177572696,-0.4838594496250152,-0.6732482314109802,-0.1796282231807708,0.5813857316970825,0.1108051761984825,-0.2925223112106323
1749026958.170459,4.431800105131465,-0.4823196507904008,-0.9670221435354285,-2.4216756044063947,0.14974089365175264,-0.018634305945097126,-0.211310106525742,0.0408943465019082,-0.11236084998386597,0.07635289874501937,0.32151632033186084,-0.2973588792513983,-0.4838594496250152,-0.6732482314109802,-0.1796282231807708,0.5813857316970825,0.1108051761984825,-0.2925223112106323
1749026958.170514,4.431382588863524,-0.4822356270960835,-0.9672482452656881,-2.4215249023598124,0.15037758488271677,-0.019225732239236872,-0.21255390228887933,0.04122341488334859,-0.1129910447631086,0.0764737226386322,0.32310202470990645,-0.29895914518898203,-0.4682917892932892,-0.6724944710731506,-0.173985868692398,0.5788991451263428,0.1080717220902443,-0.3022471964359283
1749026958.1705675,4.430962627187958,-0.4821512414739564,-0.9674749782794498,-2.4213744052276303,0.15101670977381607,-0.019820652117489887,-0.21380959049692996,0.04157072715980789,-0.11363180789744909,0.0764554006529748,0.3246226957686172,-0.3004770782787252,-0.4870133399963379,-0.6562122106552124,-0.1940147280693054,0.5670633912086487,0.113502562046051,-0.3256992995738983
1749026958.1706204,4.4305398131603635,-0.48206652938220174,-0.9677025969210611,-2.4212243095832107,0.15165867475837796,-0.02041928656258116,-0.21507730502435418,0.04193337904825081,-0.11427831910925582,0.07631860862142344,0.32608728692219713,-0.3019128481002514,-0.4870133399963379,-0.6562122106552124,-0.1940147280693054,0.5670633912086487,0.113502562046051,-0.3256992995738983
1749026958.1706736,4.430113780143283,-0.4819815264294025,-0.9679313682197505,-2.421074742259546,0.1523038947489359,-0.02102178115985152,-0.21635646567675573,0.04230742855982365,-0.11492518446017859,0.0760938953144118,0.3275087619830411,-0.3032722355181155,-0.4629104733467102,-0.6851361393928528,-0.1962442845106125,0.5394836664199829,0.0897013396024704,-0.2963975667953491
1749026958.170726,4.4296842278011965,-0.48189626612034064,-0.9681615515403537,-2.4209257437924303,0.15295277663271037,-0.02162820359124539,-0.21764541910994092,0.0426879044253651,-0.11556675877898259,0.0758204701558839,0.3289032048265484,-0.30456604257589476,-0.4815439879894256,-0.6816879510879517,-0.2137070894241333,0.5557693839073181,0.0940763354301452,-0.2995769679546356
1749026958.1707792,4.429250942964407,-0.4818107759429866,-0.9683933809529337,-2.4207772574781408,0.1536057058846396,-0.022238549213958816,-0.21894111232832997,0.043068882073268644,-0.1161975790781401,0.0755440607344994,0.33028826529933747,-0.30580884978676753,-0.4655244648456573,-0.671205461025238,-0.1868780255317688,0.5504711866378784,0.1132809147238731,-0.3001022338867187
1749026958.1708317,4.428813809890959,-0.4817250722931266,-0.9686270530846899,-2.420629124353495,0.15426304042240613,-0.022852757349422256,-0.22023892018512375,0.043443645862227445,-0.11681290641920695,0.0753138379002181,0.33168116662209934,-0.3070173756938888,-0.4518634080886841,-0.6835052967071533,-0.1745080649852752,0.6029880046844482,0.1024284213781356,-0.3152816295623779
1749026958.170884,4.428372808712522,-0.48163915568877125,-0.9688627204526179,-2.420481085472431,0.15492511011889185,-0.023470735143470884,-0.22153270085827456,0.04380496672711948,-0.11740929843478179,0.07517859186638536,0.3330965660739577,-0.30820878664295115,-0.4518634080886841,-0.6835052967071533,-0.1745080649852752,0.6029880046844482,0.1024284213781356,-0.3152816295623779
1749026958.170941,4.427928005089627,-0.4815530079801599,-0.9691004880059563,-2.420332793566142,0.1555922155570935,-0.02409238131579182,-0.2228150839459587,0.044145517142605104,-0.11798508584017806,0.07518252176805185,0.33454457873640814,-0.30939929540210226,-0.4639737606048584,-0.673392653465271,-0.197310984134674,0.6004009246826172,0.1081467419862747,-0.3271063268184662
