nimar13/UR3e_dataset_trayectorias/trayectorias_ejecutadas_filtradas/jtraj/trayectoria_002_result_filtrado.csv
timestamp,q1,q2,q3,q4,q5,q6,qd1,qd2,qd3,qd4,qd5,qd6,tau1,tau2,tau3,tau4,tau5,tau6
1749024711.0863554,-1.947012298913482,-1.7304442097291475,2.5767264206410405,-3.8254145238162973,-1.1404762638519803,-5.271581700075645,0.0010077656374192676,-0.0005720734777561282,0.00020067481122829236,0.0024767778055016995,0.0011118133802136116,0.0033001192506473044,-0.0885363817214965,-0.733001172542572,-0.7053669691085815,-0.5505467057228088,-0.0360127463936805,-0.0736901313066482
1749024711.086403,-1.9470104580749685,-1.7304475575268286,2.5767269733549023,-3.8254114152359966,-1.1404815883860535,-5.271588446461631,0.0010393559728934163,-0.0006332955150977926,0.00019335434318622653,0.002357306576834664,0.0010548637110508754,0.0031931734814524414,-0.0765587985515594,-0.7261413931846619,-0.7092158794403076,-0.5301230549812317,-0.0360072702169418,-0.0594788119196891
1749024711.0864434,-1.9470087154781517,-1.7304509720598698,2.57672739045698,-3.8254084132579265,-1.1404867332821331,-5.271594802936851,0.0010654876645233768,-0.0006960843917815911,0.00018617027361870263,0.0022344227963830275,0.0009989543516259927,0.003082304739960026,-0.1210997402667999,-0.7382853627204895,-0.7104977965354919,-0.5392760634422302,-0.0243995785713195,-0.0674031004309654
1749024711.086491,-1.9470071424682294,-1.7304544347916169,2.576727605079109,-3.8254056046531404,-1.140491413376149,-5.27160042006708,0.001080908788888639,-0.0007604926508125976,0.0001791884458456673,0.002105107496516774,0.0009446513695028737,0.0029630664525213263,-0.0913799107074737,-0.7451884150505066,-0.7126032114028931,-0.5205769538879395,-0.0230914875864982,-0.0635685846209526
1749024711.0865457,-1.9470057981210995,-1.7304579145327863,2.576727570832328,-3.825403062648032,-1.1404953779006304,-5.2716050244225094,0.001081602122194901,-0.0008258031528324415,0.00017246086127423112,0.001967303640389906,0.0008923974271704002,0.002832151701419561,-0.0919694900512695,-0.7380865216255188,-0.7092232704162598,-0.5400431752204895,-0.0036808922886848,-0.0734128206968307
1749024711.086586,-1.9470047234236212,-1.7304613651071066,2.57672726692087,-3.8254008395122656,-1.1404984343078182,-5.271608440382187,0.001065179573609177,-0.0008903829051048501,0.00016602384220948575,0.0018202382483203789,0.0008424848017038121,0.002687730890907576,-0.094623178243637,-0.7476114630699158,-0.708549439907074,-0.5103397369384766,-0.0204982757568359,-0.0618035420775413
1749024711.0866234,-1.947003937173607,-1.7304647256058452,2.576726701067665,-3.8253989620632525,-1.1405004642214966,-5.27161059875842,0.001031042293957656,-0.000951700592830508,0.00015989768672062353,0.0016645656033455604,0.0007950502220408511,0.002529556226473726,-0.089007169008255,-0.7432052493095398,-0.6968939900398254,-0.5377378463745117,-0.0256705954670906,-0.051479272544384
1749024711.086661,-1.947003434012053,-1.73046792291316,2.5767259097823225,-3.8253974304436396,-1.1405014297315523,-5.271611532497391,0.0009803042142563344,-0.001006524577524727,0.00015408790640132166,0.0015023154617176367,0.0007500888469142195,0.0023588601439529576,-0.0889393091201782,-0.736881673336029,-0.6902913451194763,-0.5224794149398804,-0.0191970765590667,-0.0325977206230163
1749024711.0866983,-1.9470031846823588,-1.730470876042888,2.5767249557963305,-3.8253962200168186,-1.140501370126083,-5.271611361668995,0.000915516273067296,-0.0010512875961587048,0.00014858795247450678,0.0013366648864922917,0.0007074814961875302,0.002178104573779109,-0.0872280299663543,-0.7416508793830872,-0.6972960233688354,-0.5271360874176025,-0.0321492925286293,-0.0437526404857635
1749024711.0867352,-1.9470031385024267,-1.730473501894281,2.576723922682513,-3.825395285763026,-1.1405003909746538,-5.271610271208406,0.0008402543379693027,-0.0010825691783311192,0.00014338316492464788,0.0011715802944565993,0.0006670282191876412,0.0019906431354274586,-0.074479728937149,-0.718352735042572,-0.7055927515029907,-0.5179895758628845,-0.0386212617158889,-0.0530558601021766
1749024711.0867724,-1.9470032281989693,-1.7304757220429778,2.576722906812959,-3.8253945681631087,-1.1404986484912307,-5.271608485192292,0.0007586438751948621,-0.00109761619191628,0.00013845553826055738,0.0010113899172653278,0.0006284819949886004,0.0018003492992189655,-0.0814751237630844,-0.7347789406776428,-0.721575140953064,-0.5266018509864807,-0.016626201570034,-0.0399846956133842
1749024711.08681,-1.9470033772992001,-1.7304774700302272,2.576722007145329,-3.825393999459036,-1.1404963321677606,-5.271606241027301,0.0006748910112684612,-0.0010948083001459758,0.00013378879570437495,0.000860346240862635,0.0005915781912478827,0.0016112513901776911,-0.0946555584669113,-0.7262884974479675,-0.694534182548523,-0.5270368456840515,-0.0360424742102623,-0.0493082627654075
1749024711.0868473,-1.9470035098195935,-1.730478698444965,2.5767213138896947,-3.825393509581325,-1.140493648079628,-5.2716037662711415,0.0005928764928475815,-0.0010739853632766216,0.00012937320690026735,0.0007222283650155311,0.0005560578218392505,0.0014272054594397512,-0.1032640039920806,-0.6996237635612488,-0.697460412979126,-0.5232963562011719,-0.0282486230134964,-0.0298769995570182
1749024711.086885,-1.9470035611912118,-1.730479385135837,2.576720897537586,-3.825393031680538,-1.1404908043527857,-5.271601260165058,0.0005158504730163318,-0.0010365836136666774,0.00012520957598093107,0.0006000212600949257,0.0005216851150922287,0.0012516294073436252,-0.0674604922533035,-0.7150070667266846,-0.6822032928466797,-0.5226365923881531,-0.0243886038661003,-0.0451791658997535
1749024711.0869217,-1.9470034887089414,-1.730479538156583,2.5767207997724886,-3.825392507577041,-1.1404879993410784,-5.271598881283224,0.0004462460904790685,-0.0009855650077243599,0.00012131186861918571,0.0004956956955648907,0.00048826178032971115,0.001087314519631802,-0.1020987629890441,-0.7250384092330933,-0.7070816159248352,-0.5254141092300415,-0.0282692238688468,-0.0463289991021156
1749024711.086959,-1.9470032795848036,-1.7304791992357234,2.576721027574336,-3.825391893333815,-1.140485412357018,-5.271596741893988,0.00038561149729636387,-0.0009251582844510709,0.00011770803860288442,0.00041009975280273983,0.0004556410776493795,0.0009363231545057705,-0.0850162506103515,-0.7353477478027344,-0.6906991004943848,-0.5319744944572449,-0.0153393819928169,-0.0455297753214836
1749024711.0869966,-1.947002954947311,-1.7304784453180166,2.5767215515444226,-3.8253911647305845,-1.1404831963960753,-5.271594908723413,0.0003346453584835378,-0.0008604543691045737,0.00011443875479706608,0.00034296035243055757,0.00042374423638191067,0.000799974025377808,-0.0984557121992111,-0.7389463782310486,-0.682898223400116,-0.5426272749900818,-0.0243786498904228,-0.0311563685536384
1749024711.0870333,-1.947002568734249,-1.7304773871656174,2.576722309022426,-3.825390321908674,-1.140481472152894,-5.271593408955673,0.0002933111921726154,-0.0007969110684400486,0.0001115539139461643,0.000292982197627995,0.000392580254669162,0.0006789091993740414,-0.0952718257904052,-0.7456172704696655,-0.6839027404785156,-0.5301844477653503,-0.0386175215244293,-0.064412735402584
1749024711.0870707,-1.9470022011665233,-1.73047616383523,2.5767232118760637,-3.8253893920478963,-1.1404803228550002,-5.27159223960548,0.0002610015782767571,-0.000739824556799184,0.00010910704610282503,0.0002580235889224866,0.00036226813103247286,0.0005732288909186864,-0.1263042837381363,-0.7385984659194946,-0.6828692555427551,-0.5334649085998535,-0.0489595606923103,-0.053733542561531
1749024711.087108,-1.9470019473457838,-1.7304749326121343,2.5767241580528193,-3.8253884288429116,-1.1404797900615788,-5.27159137797788,0.00023672343779036995,-0.0006938219757416494,0.00010714796565307028,0.00023532452457263606,0.0003330585739428317,0.0004826716021151034,-0.1029843688011169,-0.7365927696228027,-0.6813267469406128,-0.5437520146369934,-0.0476530194282531,-0.0633507147431373
1749024711.0872245,-1.947001902652842,-1.7304738553149794,2.576725045276193,-3.8253875079253508,-1.1404798712316109,-5.271590790997257,0.0002192789069224871,-0.000662423769388613,0.00010571427476937019,0.00022176200629962407,0.00030535056439272426,0.00040681003880130984,-0.1211726367473602,-0.7466671466827393,-0.6853839159011841,-0.549249529838562,-0.0308491811156272,-0.0646538808941841
1749024711.0885808,-1.9470021477658344,-1.7304730828994255,2.5767257847892613,-3.8253867181949572,-1.1404805200646433,-5.271590441852564,0.00020742161620919373,-0.0006477167451716426,0.00010482256463928241,0.00021410954782231608,0.00027969708298327013,0.00034522991522318425,-0.1054159849882125,-0.7493526339530945,-0.6730624437332153,-0.5438804030418396,-0.0373331233859062,-0.0492981597781181
1749024711.1302626,-1.9470027364589877,-1.7304727405894904,2.5767263129554516,-3.8253861501053237,-1.1404816501721775,-5.271590293472516,0.00019997462837725017,-0.0006501681859789471,0.00010446035404452442,0.00020928148027191996,0.0002567940536126774,0.00029766042784670315,-0.1289345622062683,-0.7415866255760193,-0.6820250749588013,-0.5525102019309998,-0.0515521727502346,-0.0572441071271896
1749024711.1303074,-1.947003688456205,-1.7304729156059098,2.5767265989245964,-3.8253858830059113,-1.1404831418397074,-5.271590309376648,0.00019590321243110972,-0.0006685972742546188,0.00010457992054454419,0.00020454686185512267,0.00023744722086620546,0.000264031337948655,-0.1166121363639831,-0.7485427856445312,-0.6739027500152588,-0.5593419671058655,-0.0580236501991748,-0.0569727048277854
1749024711.130347,-1.9470049880025344,-1.7304736491764172,2.5767266473565007,-3.825385974188883,-1.1404848510457108,-5.271590453064754,0.00019434224626196797,-0.0007003040407492078,0.00010509517844112652,0.00019770195747178965,0.00022251330835908276,0.00024444096292486393,-0.1266247928142547,-0.7323720455169678,-0.6730605363845825,-0.5690633058547974,-0.0619014166295528,-0.0596828833222389
1749024711.1303885,-1.947006587349864,-1.7304749338521634,2.576726496116084,-3.825386451910823,-1.1404866198437469,-5.2715906872218135,0.00019458350496233162,-0.0007413403168085442,0.0001058825998512159,0.00018719394558967763,0.0002128143554843673,0.00023903071780268748,-0.1331518590450287,-0.7516013383865356,-0.6702799201011658,-0.5622608661651611,-0.0658001378178596,-0.0698830857872963
1749024711.1304262,-1.947008413522576,-1.7304767162244485,2.5767262097104844,-3.8253873134706047,-1.1404882875429863,-5.271590973779967,0.00019603187712514443,-0.0007868939434313929,0.00010678682707035383,0.00017219157594875302,0.00020902746299066832,0.0002477742005592745,-0.1115755140781402,-0.7558133602142334,-0.6679259538650513,-0.5737584233283997,-0.0411861017346382,-0.0773330256342887
1749024711.130464,-1.9470103765385567,-1.7304789042107063,2.5767258698696915,-3.8253885280398725,-1.140489702434188,-5.271591275437797,0.00019814167911006626,-0.0008317485367301808,0.00010763109121482131,0.00015260097770779824,0.00021155606002453358,0.000270201273268698,-0.1165700256824493,-0.7577242255210876,-0.6643337607383728,-0.5555866360664368,-0.0657674819231033,-0.0743148475885391
1749024711.1305013,-1.9470123775329815,-1.730481377515537,2.5767255649248066,-3.825390042932655,-1.1404907337844503,-5.271591558659169,0.00020034505686340393,-0.0008707770374856274,0.000108231928546617,0.00012902681542469193,0.00022039291134332584,0.0003050891947405914,-0.1165700256824493,-0.7577242255210876,-0.6643337607383728,-0.5555866360664368,-0.0657674819231033,-0.0743148475885391
1749024711.1305387,-1.9470143157964457,-1.7304839998180859,2.5767253795083707,-3.8253917915381908,-1.1404912834862242,-5.271591797568425,0.0002019842756358631,-0.0008994267879361413,0.0001084171469941148,0.00010268062827866005,0.0002349890215918102,0.00035016260952022785,-0.1387095302343368,-0.7510560750961304,-0.659211277961731,-0.5671285390853882,-0.0618897676467895,-0.0789041593670845
1749024711.1305757,-1.9470160943751431,-1.7304866314770218,2.576725385782979,-3.825393701125553,-1.1404912963624916,-5.2715919776927365,0.00020225864872401133,-0.0009141547587418751,0.00010804567498994881,7.523969691498262e-05,0.0002541459438789751,0.00040185112901379243,-0.1476547718048095,-0.7283908724784851,-0.6662590503692627,-0.5839347839355469,-0.0813332870602607,-0.0657125487923622
1749024711.1306129,-1.947017624362617,-1.7304891417064467,2.576725637074025,-3.825395699050329,-1.1404907678729737,-5.271592098341394,0.00020019502953618333,-0.0009127730501837796,0.00010702779607420554,4.866164721564605e-05,0.0002759513099598344,0.00045515642152068946,-0.1650282442569732,-0.6843785047531128,-0.6500455737113953,-0.5849918127059937,-0.0670705884695053,-0.0785723701119422
1749024711.1306503,-1.9470188282987435,-1.7304914191324656,2.5767261644135995,-3.825397716501352,-1.1404897478672555,-5.271592172660503,0.00019464822738289334,-0.0008946688119972332,0.00010534417958527287,2.4962829884568935e-05,0.00029777813070645776,0.0005036791655899579,-0.1496735215187072,-0.7012429237365723,-0.6472872495651245,-0.5723427534103394,-0.0670985430479049,-0.0790013596415519
1749024711.1306877,-1.9470196432462388,-1.7304933796099087,2.5767269759799776,-3.825399689713576,-1.140488339184377,-5.271592225007626,0.00018433441876617422,-0.000860872180554762,0.00010306191376404655,5.972670389721746e-06,0.0003163669709187938,0.0005398489220770123,-0.1474475264549255,-0.7169057130813599,-0.6594104766845703,-0.5929461717605591,-0.0722485184669494,-0.0870107039809227
1749024711.130725,-1.9470200240843902,-1.730494970446854,2.5767280588346173,-3.82540155932918,-1.1404866904029158,-5.271592286041034,0.00016789669862269334,-0.0008139617639909486,0.00010034540554860338,-6.918534478746792e-06,0.00032800600877934394,0.0005553863077972024,-0.1784415245056152,-0.7116254568099976,-0.6513184309005737,-0.5744598507881165,-0.0787170305848121,-0.0709752067923545
1749024711.1307616,-1.947019947268273,-1.730496170803142,2.576729382035922,-3.8254032690932784,-1.140484982807866,-5.271592386575047,0.00014399757479530297,-0.0007578171496836649,9.745965527526098e-05,-1.2995431348229592e-05,0.00032881708126700747,0.0005420068775244779,-0.1435213387012481,-0.7241263389587402,-0.6481786966323853,-0.5816739797592163,-0.0852109491825103,-0.0906589105725288
1749024711.1307986,-1.947019414817988,-1.7304969887891761,2.57673090030755,-3.8254047651863288,-1.1404834124445997,-5.2715925516232165,0.00011142873888131952,-0.0006972467683691661,9.476327767896131e-05,-1.2410080738510991e-05,0.000315146265824425,0.0004923506793896792,-0.1775252819061279,-0.7057480812072754,-0.6320430040359497,-0.5750983953475952,-0.0619201436638832,-0.0811722651124
1749024711.130835,-1.9470184577450973,-1.7304974564301132,2.576732557789648,-3.825405997199927,-1.1404821688475348,-5.271592795956644,6.922414743685161e-05,-0.0006375324457405553,9.268896370384917e-05,-6.303271563503733e-06,0.00028404582841181963,0.0004010920691046736,-0.1472091674804687,-0.7241102457046509,-0.6597098708152771,-0.5945143103599548,-0.0812786966562271,-0.0855869725346565
1749024711.1308715,-1.9470171376460035,-1.7304976239599745,2.5767342917694944,-3.8254069211724118,-1.1404814126573304,-5.271593121876248,1.6758790340945224e-05,-0.0005839373533897895,9.171000453450239e-05,3.170059059838422e-06,0.00023382125612508996,0.0002661532614641409,-0.1468257308006286,-0.7167274951934814,-0.6445119380950928,-0.5902932286262512,-0.085185669362545,-0.09199870377779
1749024711.1309085,-1.9470155451040683,-1.7304975546682733,2.576736036521579,-3.8254075044090117,-1.1404812548497028,-5.271593518951842,-4.61867094051656e-05,-0.0005412232119686049,9.229297755389054e-05,1.2929578675056149e-05,0.0001646036977073071,8.991517527572035e-05,-0.1855541169643402,-0.724729061126709,-0.640286386013031,-0.6047865748405457,-0.0903955549001693,-0.0892083123326301
1749024711.1309462,-1.9470137940814003,-1.7304973207642929,2.576737727361908,-3.8254077311596273,-1.1404817405251135,-5.271593964665675,-0.00011941536670098285,-0.0005132180117140424,9.483839247417962e-05,1.9182113087485293e-05,7.889588294565955e-05,-0.0001197060756448192,-0.1775059700012207,-0.7146866321563721,-0.6524099111557007,-0.6005454659461975,-0.0761365666985511,-0.0977136269211769
1749024711.1309826,-1.9470120124648955,-1.7304969999077542,2.5767393047558977,-3.825407607693417,-1.1404828398702378,-5.271594424584664,-0.0002023731848030922,-0.0005024691555234085,9.961255934090887e-05,1.7757777348148456e-05,-1.796984862859573e-05,-0.000348465227603549,-0.1775059700012207,-0.7146866321563721,-0.6524099111557007,-0.6005454659461975,-0.0761365666985511,-0.0977136269211769
1749024711.1310868,-1.9470103299703307,-1.7304966717048083,2.5767407180629625,-3.825407165056069,-1.1404844477830647,-5.2715948509691195,-0.00029428699252588537,-0.0005100097926593966,0.00010667500367597736,4.558912048954568e-06,-0.00011752761770856113,-0.0005754284491116924,-0.2037345468997955,-0.7293900847434998,-0.6785787343978882,-0.6060423851013184,-0.0567177087068557,-0.095744140446186
1749024711.1330328,-1.947008865507353,-1.7304964136766992,2.5767419284858364,-3.825406458120472,-1.140486391903243,-5.271595179485203,-0.00039437623957140855,-0.0005352584406416138,0.0001158066669135879,-2.3899964156171835e-05,-0.00020809288511453776,-0.0007731878506103953,-0.2153183817863464,-0.754940927028656,-0.695091724395752,-0.6005698442459106,-0.0437627509236335,-0.1265362203121185
1749024711.1782978,-1.9470077166977102,-1.7304962967338098,2.5767429109510034,-3.8254055605422046,-1.140488447084027,-5.271595324649293,-0.0005021162999830115,-0.0005760634660087352,0.0001264451337772362,-6.989424795120299e-05,-0.0002749515954883434,-0.0009087574540809434,-0.2235289812088012,-0.7560384273529053,-0.7105792760848999,-0.6098770499229431,-0.0450823828577995,-0.0981526151299476
1749024711.178343,-1.9470069540840842,-1.7304963807865104,2.576743654710507,-3.8254045564445596,-1.1404903535007649,-5.271595175387698,-0.000617510599892197,-0.0006288938819465322,0.0001376340871639926,-0.00013387757533179926,-0.0003008611997537533,-0.0009452057565770577,-0.1730556488037109,-0.7746279239654541,-0.7157678604125977,-0.6060988306999207,-0.0476897619664669,-0.100738950073719
1749024711.1783829,-1.9470066213460382,-1.7304967114658343,2.576744162351565,-3.825403530359409,-1.140491835803793,-5.2715945923140595,-0.0007413130715532061,-0.0006891653661130321,0.00014799469836740574,-0.0002139107249992702,-0.0002668748182779975,-0.0008440079232877175,-0.2153093814849853,-0.7567470073699951,-0.7060391902923584,-0.6006498336791992,-0.0269642099738121,-0.0862371698021888
1749024711.1784213,-1.947006740989375,-1.730497318619098,2.5767444469209044,-3.825402556876987,-1.1404926213454236,-5.271593408034016,-0.0008751406006561909,-0.0007516745872130197,0.00015572629156286494,-0.00030519334064185114,-0.0001534661459928735,-0.0005680123446119196,-0.2211534976959228,-0.7518458366394043,-0.7230228781700134,-0.6038994193077087,-0.0075517520308494,-0.0880358293652534
1749024711.1784594,-1.9470073235188396,-1.730498216413342,2.576744527303561,-3.8254016910016144,-1.1404924558446543,-5.271591431301267,-0.001021433416404939,-0.000811095512714764,0.00015864203401179936,-0.0003997645891689606,5.8105682427299105e-05,-8.481841890855754e-05,-0.2664124071598053,-0.726789653301239,-0.731764554977417,-0.5970523357391357,0.000202290713787,-0.0655548200011253
1749024711.1784976,-1.947008377663263,-1.7304994042565836,2.576744422672706,-3.825400959894007,-1.1404911149244434,-5.2715884553895425,-0.001183255993291578,-0.0008624711247968959,0.00015424238435637438,-0.0004864368275898989,0.00038429097315842333,0.0006297348898703298,-0.2289061248302459,-0.709174394607544,-0.7415593266487122,-0.6007160544395447,0.0079621598124504,-0.0520581603050231
1749024711.1785357,-1.9470099195142045,-1.7305008677624956,2.576744147260137,-3.8254003566421635,-1.1404884103018873,-5.27158427050911,-0.0013639693459010468,-0.0009016223273069064,0.00013982461219977347,-0.0005510166919276385,0.0008377372738600185,0.001588353160324895,-0.2570104002952575,-0.7395858764648438,-0.7628070116043091,-0.5843793749809265,0.0092729553580284,-0.0321100428700447
1749024711.1785734,-1.9470119789022176,-1.7305025793045925,2.57674370661662,-3.8253998367341873,-1.1404841903429612,-5.2715786793180195,-0.0015668337896766757,-0.0009254051676969294,0.00011262126447639886,-0.0005768496868689011,0.001425923268135135,0.002789778189950267,-0.2744864225387573,-0.7223156094551086,-0.743294894695282,-0.5789388418197632,0.0273506566882133,-0.0240718945860862
1749024711.1786113,-1.9470146018366004,-1.7305044979545217,2.5767430960679674,-3.8253993177675323,-1.1404783359913515,-5.271571513646342,-0.0017946107638790705,-0.0009317805012516126,6.995476163052234e-05,-0.0005456972396998547,0.0021500891171057955,0.004217421959278027,-0.2391870021820068,-0.7163223624229431,-0.7677738666534424,-0.5603427290916443,0.0299126133322715,-9.228289127349854e-05
1749024711.1786492,-1.947017848537937,-1.730506568860237,2.576742301469126,-3.8253986824671764,-1.1404707542573238,-5.271562649743741,-0.0020492213950029903,-0.0009197037337042887,9.39048647381919e-06,-0.00043892036328777907,0.0030045813706253283,0.005839504375280991,-0.2348930239677429,-0.6882005929946899,-0.772994875907898,-0.5594467520713806,0.0298541858792305,0.0252588968724012
1749024711.178686,-1.9470217875121525,-1.7305087225079165,2.5767413017747622,-3.825397784325821,-1.1404613720657453,-5.271552018961866,-0.0023314930642877756,-0.0008888780780950631,-7.113195161033649e-05,-0.0002389039893423382,0.003976673245595163,0.007610894044610455,-0.2430297434329986,-0.6927514672279358,-0.7709113359451294,-0.5342537760734558,0.0481819435954093,0.0140854865312576
1749024711.1787274,-1.9470264870208087,-1.7305108746227496,2.5767400725464,-3.8253964545175765,-1.1404501330316164,-5.271539611077114,-0.0026409960064780426,-0.000839433371297824,-0.00017320922580452939,6.938537650542203e-05,0.005046858093950904,0.009476606840083024,-0.2777120471000671,-0.6942166090011597,-0.7813771367073059,-0.5375617146492004,0.0660682544112205,0.0012628100812435
1749024711.1787658,-1.9470320058467212,-1.7305129274633368,2.576738589455235,-3.8253945087138432,-1.1404369986460827,-5.271525468592455,-0.002975956461053664,-0.0007715947721539362,-0.00029794273277549386,0.0004968532153826448,0.00618957011210838,0.011376638743690947,-0.2527977228164673,-0.6807900667190552,-0.8081526756286621,-0.5191831588745117,0.0597705468535423,0.0366040281951427
1749024711.1788063,-1.947038385204782,-1.7305147730035573,2.576736831070498,-3.825391753109698,-1.140421953799055,-5.2715096720579755,-0.003333238557732084,-0.0006853965658432881,-0.0004459733806093848,0.0010489120803136968,0.0073742746787057315,0.013251577945354904,-0.2903490364551544,-0.6766375303268433,-0.8109114170074463,-0.4959476888179779,0.0751428827643394,0.0303180012851953
1749024711.1788447,-1.9470456431385879,-1.7305162981817677,2.576734780552047,-3.8253879898037995,-1.1404050151748428,-5.271492318102156,-0.0037084035090277968,-0.0005804806651343611,-0.0006175780195018077,0.0017244741377853382,0.008566884748163469,0.015048320458524635,-0.2788199782371521,-0.649627149105072,-0.8138992190361023,-0.4780612289905548,0.0868359506130218,0.0563936941325664
1749024711.1788857,-1.9470537721212822,-1.730517392053454,2.5767324261950972,-3.825383022116333,-1.1403862403179144,-5.2714734929662175,-0.004095863610742251,-0.00045600118737367326,-0.0008128034000275147,0.002515453494160481,0.009731479383235828,0.016725209821042968,-0.2794378697872162,-0.6425033807754517,-0.7985656261444092,-0.4780320823192596,0.1122447550296783,0.0329936295747756
1749024711.1789236,-1.947062740027811,-1.7305179541555618,2.5767297610815794,-3.825376660447593,-1.140365735104687,-5.271453244804383,-0.004489142425710116,-0.00031063894176838747,-0.0010315922921439744,0.0034068740249030686,0.010832300899603223,0.018255999802458477,-0.2760916650295257,-0.6418033838272095,-0.8161080479621887,-0.4677332937717438,0.1021576076745987,0.0413284450769424
1749024711.1789603,-1.9470724941805162,-1.7305179027466175,2.5767267822401942,-3.825368729143123,-1.1403436576892665,-5.271431558059345,-0.004881238689388915,-0.0001427149948136158,-0.0012738467243415931,0.004377600437880192,0.011835970857672901,0.01963217434045052,-0.2593286335468292,-0.6395029425621033,-0.8227118253707886,-0.4525458812713623,0.1005026847124099,0.0323154404759407
1749024711.1789975,-1.9470829677897201,-1.7305171812508229,2.576723489570624,-3.8253590745751223,-1.1403202175176541,-5.271408332971242,-0.0052650794661784905,4.961886630201477e-05,-0.0015393899683384207,0.005401638303922355,0.012713798503104116,0.020863354279791805,-0.3119092881679535,-0.627281904220581,-0.8386694192886353,-0.4431799352169037,0.106793001294136,0.0431713126599788
1749024711.1790345,-1.9470940877600051,-1.730515761556829,2.576719884465232,-3.825347574086635,-1.140295668658651,-5.271383372665663,-0.005634037885720944,0.00026814388331758356,-0.0018278312311931174,0.006449904014945473,0.013443988900808307,0.02197577401501431,-0.2880422174930572,-0.6132848262786865,-0.8614532947540283,-0.418346643447876,0.0968476384878158,0.0496130399405956
1749024711.1790712,-1.9471057825110936,-1.730513643664446,2.576715967859294,-3.8253341446613094,-1.1402702972854064,-5.271356379298455,-0.005982476551057309,0.0005143296446208051,-0.002138383782631334,0.007492340715199995,0.014013521671553496,0.023009081738395543,-0.2735973596572876,-0.5845555663108826,-0.8524950742721558,-0.418956995010376,0.119827315211296,0.0584780238568782
1749024711.179108,-1.9471179884238068,-1.7305108520504506,2.576711737543095,-3.8253187496349157,-1.1402444035718022,-5.271326959676508,-0.006306259207613268,0.0007891182342488442,-0.0024697128592286893,0.008500225954675858,0.014419471506248548,0.024011936900854812,-0.2902491390705108,-0.5788084268569946,-0.8744120597839355,-0.3958641290664673,0.1216092854738235,0.0636399835348129
1749024711.1792183,-1.9471306540046451,-1.730507429651822,2.576707184921436,-3.825301401820494,-1.1402182789829458,-5.271294639883882,-0.006603158918427459,0.0010927627054877216,-0.0028198826429517757,0.00944847180859313,0.014669572653116168,0.025036997137847534,-0.2820306718349457,-0.565441370010376,-0.8716694116592407,-0.3869263529777527,0.1147624999284744,0.0815169513225555
1749024711.180539,-1.9471437416539839,-1.7305034304535998,2.5767022917795397,-3.8252821620525737,-1.1401921813013505,-5.271258887675554,-0.006873091451604983,0.0014247219026186384,-0.0031864375989605997,0.010317678395436078,0.014781894409493757,0.026135895802798983,-0.2878815829753876,-0.5726439356803894,-0.8881997466087341,-0.3824768662452698,0.1109224706888198,0.1018144413828849
1749024711.2222664,-1.9471572275237634,-1.730498911482132,2.576697027763922,-3.825261133080859,-1.1401663110765405,-5.2712191406439715,-0.007118122947336148,0.0017835914051333285,-0.003566608849394697,0.011095695741626352,0.014783599759514111,0.027354732313364032,-0.2861981689929962,-0.5487948656082153,-0.8712939620018005,-0.3828957080841064,0.1115507930517196,0.1152569726109504
1749024711.222312,-1.947171100132842,-1.7304939248588604,2.576691349112256,-3.8252384496115943,-1.140140793366146,-5.271174837590662,-0.00734223628007519,0.002167049868527747,-0.003957599947307184,0.011778489681850763,0.01470889254091931,0.02873046141321654,-0.2675120830535888,-0.5246533155441284,-0.8917545080184937,-0.3907584547996521,0.1300514489412307,0.108267568051815
1749024711.2223525,-1.947185358332424,-1.7304885106645553,2.5766851987661203,-3.825214265852252,-1.1401156673802095,-5.271125450392133,-0.007550879770958846,0.0025718274294873875,-0.0043568896636377126,0.01237018970897097,0.014596385925216768,0.03028840556935534,-0.2955936193466186,-0.5009878873825073,-0.9062601327896118,-0.3836772739887237,0.1321051865816116,0.1332639455795288
1749024711.2223945,-1.9472000090412944,-1.7304826915300608,2.5766785076134315,-3.8251887421183577,-1.1400908846922249,-5.271070513874959,-0.007750357867906428,0.0029937363846616813,-0.004762490041351648,0.012882308242392351,0.014486209245247617,0.03204095781990492,-0.2861923575401306,-0.51295006275177,-0.8908446431159973,-0.3830564022064209,0.1289768368005752,0.1315324306488037
1749024711.2224336,-1.9472150648994089,-1.7304764697797965,2.5766711964785127,-3.825162031980433,-1.1400663149223491,-5.271009651540455,-0.00794715330326696,0.0034278114988466756,-0.005173107335816564,0.013332245685592502,0.014417188100089504,0.03398741490005416,-0.2774068117141723,-0.490973949432373,-0.9030956625938416,-0.3655032217502594,0.1395804733037948,0.1384272277355194
1749024711.222473,-1.947230541719705,-1.7304698275184587,2.5766631786557745,-3.8251342710819687,-1.1400417567477088,-5.270942595253879,-0.00814728488059076,0.003868575730455372,-0.005588167766123474,0.013741308220882015,0.014424382138237412,0.03611479582423111,-0.2939049303531647,-0.5072131752967834,-0.9090847969055176,-0.3607861995697021,0.1412137895822525,0.1549369096755981
1749024711.2225103,-1.9472464556150089,-1.7304627294499946,2.5766543630361687,-3.825105568207372,-1.1400169518388568,-5.27086919730386,-0.0083557914688688,0.004310398424309169,-0.00600769132262922,0.014132533379713853,0.014537166201906006,0.03839946079521894,-0.2831840813159942,-0.4952113032341003,-0.9262473583221436,-0.3521497249603271,0.1454740613698959,0.16426482796669
1749024711.2225478,-1.9472628200355384,-1.730455127686761,2.5766446579341467,-3.8250759986632947,-1.1399915995905199,-5.2707894337034125,-0.00857639387221914,0.004747884825120663,-0.006432025374575351,0.014528620806101357,0.014777929247321126,0.040809338237017094,-0.2894318997859955,-0.4614951014518738,-0.9262481927871704,-0.3436903655529022,0.1467802971601486,0.1834325045347213
1749024711.2225857,-1.9472796434401387,-1.7304469675100214,2.5766339755691,-3.82504559978663,-1.1399653710848745,-5.270703398329789,-0.008811343496599322,0.005176244870298597,-0.006861479923545633,0.014950206679239093,0.015161374735052595,0.04330657362492965,-0.2826083898544311,-0.4568096995353699,-0.9445919990539552,-0.3285947442054748,0.1522852033376693,0.1908797323703766
1749024711.2226238,-1.9472969285540227,-1.7304381930400106,2.5766222369610214,-3.8250143684040974,-1.1399379217083416,-5.270611288421329,-0.0090614361470054,0.005591614332861216,-0.007295929827601935,0.015414627124784617,0.015694350551133596,0.04585041333642357,-0.288982480764389,-0.4493535161018371,-0.936887502670288,-0.3248950839042663,0.1572159677743911,0.181107148528099
1749024711.2226608,-1.947314673836614,-1.7304287520207529,2.576609376907056,-3.8249822601887513,-1.1399089032175975,-5.270513382897428,-0.00932614795541816,0.005991310941466113,-0.007734458708985805,0.015935221530097222,0.016376113572326052,0.04840012207579787,-0.2981913983821869,-0.461158812046051,-0.9646901488304138,-0.314560204744339,0.1724374294281005,0.1980250179767608
1749024711.222699,-1.9473328769399,-1.7304185993221624,2.576595348781817,-3.824949190936982,-1.1398779771277607,-5.270410015792309,-0.009603833140692712,0.006373997827195733,-0.008175109952612093,0.01652115178692257,0.017198936455959882,0.05091771188706808,-0.2598275244235992,-0.4645954966545105,-0.9527885317802428,-0.3146781921386719,0.1641247868537902,0.1754164099693298
1749024711.222737,-1.9473515390619063,-1.730407699183101,2.576580129113113,-3.8249150397291998,-1.1398448311382114,-5.270301547729379,-0.00989191755493466,0.006739718988474724,-0.008614784493663596,0.017177660598030997,0.018148983941102113,0.05337025499747729,-0.2757837772369385,-0.4412592649459839,-0.9374377727508544,-0.2889139056205749,0.1787776201963424,0.1961723715066909
1749024711.2227747,-1.9473706687347538,-1.7303960264987905,2.5765637219801323,-3.8248796537499286,-1.139809198661467,-5.270188338697642,-0.010187038268135488,0.007089785292081524,-0.009049294861921265,0.017906654292163697,0.019207411260512147,0.055731582039639536,-0.2622446417808532,-0.4341800808906555,-0.9509264826774596,-0.2883661389350891,0.1832773834466934,0.199332907795906
1749024711.2228122,-1.9473902838950699,-1.7303835674551746,2.5765461629686235,-3.8248428543463735,-1.1397708791581735,-5.270070725105405,-0.010485115528977062,0.007426521428422469,-0.009473564850818487,0.018707470790980462,0.020351655963505685,0.05798323927141364,-0.2622446417808532,-0.4341800808906555,-0.9509264826774596,-0.2883661389350891,0.1832773834466934,0.199332907795906
1749024711.2228491,-1.9474104118229727,-1.7303703195919682,2.5765275217672934,-3.824804443829493,-1.139729755240746,-5.269949002989823,-0.010781382965363014,0.007752915677284447,-0.00988195737117134,0.019577686939104957,0.02155689734282281,0.06011468307419239,-0.2776183485984802,-0.4023006856441498,-0.9603484272956848,-0.2901688814163208,0.206976979970932,0.1907256841659546
1749024711.222886,-1.9474310872574714,-1.7303562912272707,2.5765079020227755,-3.824764212643606,-1.139685802362,-5.269823417866456,-0.01107042562650855,0.00807222815619185,-0.010268707001832914,0.02051383528334059,0.022797638753930774,0.062122801105613704,-0.2652471661567688,-0.3845825493335724,-0.9730177521705629,-0.2783305644989013,0.2082546353340149,0.1955828368663787
1749024711.2229233,-1.9474523493167053,-1.7303415002893225,2.576487437280418,-3.8247219468104907,-1.1396390883219578,-5.269694160851088,-0.011346275474929226,0.008387604822524873,-0.010628416200958146,0.02151193357708424,0.024049331371364294,0.06401093724916106,-0.2834685146808624,-0.3786386549472809,-0.972236692905426,-0.2759090960025787,0.2106943130493164,0.1921643614768982
1749024711.2229595,-1.9474742376699137,-1.7303259727764229,2.576466282710921,-3.8246774357746247,-1.1395897619637483,-5.269561370442826,-0.011602597741867657,0.008701724160997572,-0.010956550640349297,0.022567771824344912,0.0252899230192766,0.06578764461297149,-0.2924132645130157,-0.3957448303699493,-0.9800936579704284,-0.2582830190658569,0.1960364282131195,0.2041418254375457
1749024711.222996,-1.9474967878682583,-1.7303097410154908,2.576444603426126,-3.824630480691429,-1.1395380324334912,-5.269425139045132,-0.01183298122082589,0.009016488103179872,-0.011249859010453275,0.023676947288720475,0.026501203629965237,0.06746539271820085,-0.292397528886795,-0.3667562901973724,-0.9906669855117798,-0.2420323938131332,0.2182302772998809,0.2031860053539276
1749024711.2231956,-1.9475200252376788,-1.73029284167871,2.5764225610815545,-3.824580902838867,-1.1394841418907105,-5.26928552267243,-0.012031326330401264,0.009332767534511052,-0.01150665898038419,0.024834687840861246,0.027669832767142244,0.06905941272893933,-0.2797755300998688,-0.380937784910202,-0.9784631729125975,-0.2348869144916534,0.2162704616785049,0.1914482116699218
1749024711.2245317,-1.9475439569221864,-1.7302753134494566,2.576400300882444,-3.824528551493042,-1.1394283354803327,-5.269142551798563,-0.012192305718982256,0.009650221448055482,-0.01172696691635299,0.026035554645214173,0.0287879638256138,0.07058679289507157,-0.2839607894420624,-0.3685608208179474,-0.9972481727600098,-0.2362018823623657,0.2227359116077423,0.1914011538028717
1749024711.2703412,-1.9475685628076373,-1.73025719443887,2.5763779409330314,-3.8244733105111677,-1.1393708325510385,-5.268996241280006,-0.012311852662441291,0.009967217144871669,-0.01191248322449369,0.02727315212217304,0.029853416012709764,0.07206586535607029,-0.2841780483722687,-0.3363931179046631,-0.9855432510375975,-0.2110704481601715,0.2209574878215789,0.2128100842237472
1749024711.2703898,-1.9475937874239617,-1.730238519817932,2.5763555651833396,-3.8244151029710265,-1.1393118024727116,-5.268846597670533,-0.01238761570643224,0.010280878874240992,-0.012066461529610814,0.02853997638335567,0.03086938700017718,0.07351587101660177,-0.2853126525878906,-0.3707755804061889,-0.9947748184204102,-0.2045783400535583,0.2362815588712692,0.2048237472772598
1749024711.2704349,-1.9476195354545827,-1.7302193204157366,2.576333220368335,-3.8243538933994965,-1.1392513472688406,-5.268693622980568,-0.012419309944604492,0.010587280047882827,-0.01219349012783047,0.029827493609234576,0.03184374182478139,0.07495683561790085,-0.277163565158844,-0.3343329429626465,-0.9973146915435792,-0.2001362740993499,0.2323927283287048,0.200621411204338
1749024711.2704766,-1.947645672851969,-1.7301996230159238,2.5763109166534472,-3.8242896873689456,-1.139189492125256,-5.268537314929237,-0.012408900685880353,0.010881771475221144,-0.0122992111237359,0.03112646968794579,0.03278794864177682,0.07640952211920225,-0.2661862373352051,-0.3509752750396728,-1.0032036304473877,-0.2114932239055633,0.2580678462982178,0.1892127394676208
1749024711.2705152,-1.9476720342021652,-1.730179452629854,2.5762886313059186,-3.8242225285888733,-1.139126184007111,-5.268377664568626,-0.012360574476746426,0.011159413466440843,-0.012390004327695544,0.03242749907066298,0.0337157541857009,0.07789526448549357,-0.2656387388706207,-0.3202319741249084,-1.013561487197876,-0.2210358530282974,0.2546950876712799,0.1934314668178558
1749024711.270553,-1.9476984354727294,-1.730158836202594,2.576266314542134,-3.8241524940014573,-1.1390612981226043,-5.2682146524250495,-0.012280482948370329,0.011415463149588748,-0.012472666521149428,0.0337216278922745,0.03464170204683056,0.07943548443745192,-0.2850396335124969,-0.3236803412437439,-1.003643274307251,-0.197288379073143,0.2431446760892868,0.1980641186237335
1749024711.270594,-1.9477246900396108,-1.7301378063066672,2.5762438967276102,-3.824079687649158,-1.1389946515471576,-5.268048244159586,-0.012176282759927801,0.011645863805863809,-0.012554114036321565,0.0350009431134594,0.03557959567581368,0.08105077194039675,-0.2715084850788116,-0.3288929462432861,-0.9938092231750488,-0.1975054293870926,0.2532448768615722,0.2072982192039489
1749024711.2706327,-1.947750625201312,-1.7301164028877196,2.576221296267634,-3.824004234148098,-1.1389260227406854,-5.267878386664944,-0.012056532618876186,0.011847685151151267,-0.012641122042737905,0.036259003079171216,0.0365409972236769,0.08275954126028104,-0.2654443979263305,-0.3072177171707153,-1.0062540769577026,-0.2205903232097625,0.2587494552135467,0.2287942171096801
1749024711.27067,-1.947776096446464,-1.7300946715398742,2.576198427651428,-3.823926272497961,-1.13885517504753,-5.267705005579114,-0.011930034402394648,0.012019464288922461,-0.012740090875987512,0.0374910085046431,0.03753384493134165,0.08457638868994904,-0.2479783594608307,-0.295082151889801,-1.0072975158691406,-0.198052704334259,0.2627420127391815,0.2046821117401123
1749024711.270707,-1.9478009976087631,-1.7300726581681647,2.57617520910054,-3.8238459507179225,-1.1387818818613364,-5.267528005127758,-0.011805210057048375,0.01216139745389991,-0.012856812586958812,0.03869365042681329,0.03856128215697736,0.08651033201935593,-0.2766093611717224,-0.2991438508033752,-1.0154576301574707,-0.2361741065979004,0.2824403941631317,0.2353366166353225
1749024711.2707472,-1.9478252664311861,-1.7300504015925047,2.576151569190119,-3.823763421511627,-1.1387059511173179,-5.26734727091194,-0.011689588915470577,0.01227534279006467,-0.012996214597275464,0.0398646215869796,0.039620820533153245,0.08856312000805043,-0.2830175161361694,-0.3183875679969787,-1.0207319259643557,-0.206032395362854,0.3044656217098236,0.2303327023983001
1749024711.2707846,-1.9478488862472845,-1.7300279266553915,2.5761274517670882,-3.8236788390191236,-1.1386272469843057,-5.267162675942534,-0.011589449988341386,0.012364620469396318,-0.013162082090351858,0.041001842612419265,0.04070398344468007,0.09072779989582008,-0.2697304487228393,-0.3086341917514801,-1.0390177965164185,-0.2044203281402588,0.2899572849273681,0.2560915350914001
1749024711.2708216,-1.9478718847872498,-1.7300052401507064,2.576102818583682,-3.823592356761204,-1.1385457068487332,-5.2669740899852355,-0.01150963089199094,0.012433633521932774,-0.013356790491850373,0.042102530526123734,0.04179655947223804,0.0929877355045286,-0.2502379715442657,-0.3044680655002594,-1.0400519371032717,-0.188338816165924,0.3086433708667755,0.251308262348175
1749024711.270858,-1.9478943305391136,-1.7299823307336932,2.5760776493921904,-3.82350412692682,-1.1384613519626343,-5.266781391966187,-0.011453486289862366,0.012487369284960173,-0.0135810961356366,0.04316230156151968,0.042879521827291565,0.09531626383489204,-0.2574909925460815,-0.2782639861106872,-1.038521409034729,-0.2100676745176315,0.2995338141918182,0.2346450984477996
1749024711.2708983,-1.9479163264219792,-1.7299591727052546,2.5760519397382358,-3.8234143010316877,-1.1383742906829188,-5.266584484757436,-0.011422958787650796,0.012530864999315265,-0.013834030500661596,0.044174515684316504,0.04393055672238381,0.09767714738907672,-0.2773346304893493,-0.2868596315383911,-1.0283619165420532,-0.2076490968465805,0.3061616420745849,0.2367941737174987
1749024711.2709365,-1.9479380005683244,-1.7299357326560267,2.57602569709566,-3.8233230317519107,-1.138284714111499,-5.266383311384275,-0.01141871838382879,0.012568723347878376,-0.014112927403826563,0.04513001573734748,0.04492603191212733,0.10002591788484204,-0.2722707390785217,-0.2892749309539795,-1.044851779937744,-0.2300962209701538,0.3005687594413757,0.2349625825881958
1749024711.270973,-1.9479594947582581,-1.729911977403592,2.5759989361761284,-3.8232304755516946,-1.1381928849791192,-5.266177871745059,-0.011440333958139518,0.012604744659708237,-0.014413592966715797,0.046017313142083044,0.045843161234139236,0.10231212116943288,-0.2775119543075561,-0.288960188627243,-1.0564738512039185,-0.2065540999174118,0.303109347820282,0.2522206604480743
1749024711.2710109,-1.9479809518212894,-1.7298878814520846,2.575971674323375,-3.8231367956161546,-1.1380991214815988,-5.265968238991108,-0.011486455869494512,0.012641709912527933,-0.014730608397678766,0.046823177616144344,0.04666209352992597,0.10448237289882267,-0.2955431640148163,-0.3338224589824676,-1.0542761087417605,-0.2233597934246063,0.2808892726898193,0.2381874471902847
1749024711.2710505,-1.9480025036974131,-1.729863432494691,2.5759439278845644,-3.823042164533765,-1.1380037781426984,-5.265754574298243,-0.011555001962592229,0.01268131416671776,-0.015057733157059954,0.047533536168194494,0.047367671438495004,0.10648402712600387,-0.3036669790744781,-0.2847484946250915,-1.0494959354400637,-0.2153279036283493,0.2806802093982696,0.2293328642845153
1749024711.271088,-1.9480242619123092,-1.7298386342348706,2.575915710159318,-3.8229467661464867,-1.137907225551382,-5.265537137884785,-0.011643343982585264,0.012724225493577112,-0.015388353809383406,0.04813457251576244,0.04795066443514506,0.1082691535140244,-0.2793476283550262,-0.2792134284973144,-1.05996572971344,-0.2376133054494857,0.2789226472377777,0.2303933203220367
1749024711.271125,-1.9480463119449516,-1.72981350666793,2.575887030948464,-3.822850796052801,-1.1378098303050161,-5.26531629342478,-0.011748490955388236,0.012770235714198452,-0.015715914557309075,0.04861392037824627,0.04840837588335583,0.10979842979768574,-0.283727765083313,-0.2665115594863891,-1.0635058879852295,-0.2297100126743316,0.2846275269985199,0.2136761844158172
1749024711.2711618,-1.9480687121131703,-1.729788084548555,2.575857897179386,-3.8227544604212964,-1.137711936156533,-5.265092503136702,-0.01186726824383544,0.012818471418402805,-0.01603427838653749,0.04896185095014933,0.04874463163828551,0.11104451039495317,-0.3158593773841858,-0.2943768799304962,-1.0626147985458374,-0.2260635495185852,0.2991707921028137,0.1999073326587677
1749024711.2712722,-1.9480914963618579,-1.7297624149061317,2.5758283138589197,-3.8226579729340933,-1.1376138473854644,-5.264866311894271,-0.01199649760011694,0.012867637268847524,-0.016337995615543704,0.049172362942913446,0.04896923813059763,0.11199445974947893,-0.2978810667991638,-0.2838893830776214,-1.069027543067932,-0.2579337060451507,0.3021708726882934,0.2214434444904327
1749024711.272544,-1.9481146793982826,-1.7297365542203404,2.5757982846648533,-3.8225615497102865,-1.137515815474325,-5.264638320338021,-0.01213318727413575,0.012916264921037693,-0.016622482314773913,0.04924408820983841,0.049097026553022415,0.11265095362729306,-0.3191467821598053,-0.2866175472736358,-1.0744853019714355,-0.2531213462352752,0.2878895998001098,0.2293030470609665
1749024711.3142917,-1.9481382624497414,-1.7297105654180975,2.5757678116634706,-3.822465402072507,-1.1374180299379748,-5.264409148857721,-0.012274734588793112,0.012962942348285707,-0.01688412359078652,0.04918092750395069,0.04914659108391305,0.1130321232821492,-0.3042900562286377,-0.2755807042121887,-1.0729708671569824,-0.2596296966075897,0.2876752018928528,0.2045817524194717
1749024711.3143375,-1.948162238369848,-1.7296845144488917,2.5757368939040672,-3.822369727309978,-1.137320613770324,-5.26417939623698,-0.012419128956836587,0.013006501551761286,-0.017120316804351075,0.048992340416063915,0.04913882037692747,0.11317008643885794,-0.3028801381587982,-0.2781164348125458,-1.0551879405975342,-0.2520220875740051,0.3000487983226776,0.1944839656352996
1749024711.3143778,-1.9481865954265367,-1.7296584661239471,2.57570552507762,-3.822274698207254,-1.1372236236982207,-5.263949598156917,-0.012565130726038739,0.013046147821685785,-0.01732946493408019,0.048693239470238965,0.049095335062653817,0.11310834326934913,-0.3068673014640808,-0.2782013416290283,-1.074785590171814,-0.2472911179065704,0.2859532535076141,0.2224971950054168
1749024711.314417,-1.948211319540787,-1.7296324793086686,2.5756736909989124,-3.822180452652466,-1.1371270550867734,-5.263720190997099,-0.012712396127343857,0.013081522973796661,-0.017510928072519357,0.0483034763324382,0.04903696832878809,0.11289832656849698,-0.2981743514537811,-0.2630813717842102,-1.0735496282577517,-0.2634316980838775,0.3043572008609772,0.2176131010055542
1749024711.3144555,-1.9482363950310517,-1.7296066021880707,2.575641368111276,-3.8220870847163755,-1.1370308507510096,-5.263491485367702,-0.012861520533246804,0.013112709439183594,-0.017664943218883573,0.047846950604946606,0.048982434038967994,0.11259548594522521,-0.3113622665405273,-0.2685695886611938,-1.065051794052124,-0.2534641921520233,0.3006647229194641,0.2190595120191574
1749024711.3144932,-1.94826180428629,-1.729580868621506,2.5756085241997915,-3.821994638232812,-1.136934912440357,-5.263263652104379,-0.013013980808068216,0.013140196632200875,-0.01779252439477443,0.04735041643364875,0.048947302091801044,0.11225532397764233,-0.3069088757038116,-0.2789674997329712,-1.0754371881484983,-0.2460384517908096,0.3010010421276092,0.2086304575204849
1749024711.314531,-1.948287527280365,-1.7295552962039547,2.5755751219636465,-3.821903103392861,-1.1368391136661935,-5.263036721676082,-0.01317197315919991,0.013164836784458562,-0.01789535181577558,0.04684210313307666,0.0489433518198253,0.11192976616750813,-0.3050824403762817,-0.2598220109939575,-1.0599781274795532,-0.2481255084276199,0.3122192025184631,0.2385657727718353
1749024711.3145697,-1.9483135421092714,-1.7295298858458035,2.5755411253184235,-3.821812416425796,-1.136743312641412,-5.2628105964122325,-0.013338162289029759,0.013187810136286084,-0.017975651530913586,0.04635028732293095,0.04897832088187663,0.1116641583142717,-0.3096993267536163,-0.2698879837989807,-1.0598571300506592,-0.245394229888916,0.3078282475471496,0.2417700588703155
1749024711.314608,-1.9483398273869448,-1.7295046221781103,2.5755065076068386,-3.821722462226711,-1.1366473642782788,-5.2625850736741135,-0.013515373594511913,0.013210603544077474,-0.01803606210620233,0.04590194359734907,0.04905602277306223,0.11149508192365833,-0.3018916845321655,-0.2716070711612701,-1.0668535232543943,-0.2450740486383438,0.2977931499481201,0.2407754957675933
1749024711.314649,-1.948366366401521,-1.7294794741995532,2.5754712603665473,-3.8216330798080165,-1.1365511306344411,-5.2623598769879605,-0.013706266704276446,0.013234991769490403,-0.018079488777947645,0.04552156462986124,0.04917677193968642,0.11144907744181386,-0.3123034238815307,-0.2583166062831878,-1.0551872253417969,-0.2368917763233184,0.303507536649704,0.2208113670349121
1749024711.3146875,-1.948393151923421,-1.7294543959845572,2.5754354008918385,-3.821544070488602,-1.1364544897640354,-5.262134691209996,-0.01391302526970865,0.013263003980557533,-0.01810895676199023,0.04523019848043932,0.049338029921250456,0.11154227201974753,-0.2936994433403015,-0.2779220342636108,-1.071329951286316,-0.2403706014156341,0.3081047534942627,0.2510978579521179
1749024711.3147252,-1.9484201900818774,-1.7294293276658115,2.575398976709623,-3.8214552085358315,-1.136357343079261,-5.261909197108589,-0.014137088801919415,0.013296859606090672,-0.018127483988369837,0.04504471918374525,0.04953517263524083,0.11178083815354323,-0.3081408739089966,-0.2434809207916259,-1.0527058839797974,-0.2282379567623138,0.308371365070343,0.2679589688777923
1749024711.3147626,-1.948447502042048,-1.729404197285228,2.5753620655842893,-3.8213662535318904,-1.136259620927269,-5.261683100531973,-0.014378942279649124,0.013338864105002695,-0.018137990996661166,0.04497733936170718,0.04976228164686551,0.1121621689740859,-0.3016965985298157,-0.2468132078647613,-1.0802024602890017,-0.2289590835571289,0.299469918012619,0.2463742941617965
1749024711.3148031,-1.9484751230582145,-1.7293789243512652,2.575324770752439,-3.8212769633098183,-1.1361612856540646,-5.2614561519448,-0.014637971435476996,0.01339126389091921,-0.018143255444502786,0.04503539118087476,0.05001287865332278,0.11267662243538852,-0.303576797246933,-0.2493856549263,-1.0740687847137451,-0.211000844836235,0.3095402717590332,0.2424799054861068
1749024711.3148415,-1.94850309929678,-1.729353425727731,2.57528721224175,-3.8211871060972697,-1.1360623314268514,-5.261228153833639,-0.014912388744997682,0.013456070229192388,-0.018145909994280826,0.04522142363498521,0.050280547441019806,0.1133096411381762,-0.2933805286884308,-0.2531976997852325,-1.069401741027832,-0.199095070362091,0.2928864955902099,0.2726415991783142
1749024711.3148885,-1.9485314832219576,-1.7293276237125945,2.575249515782282,-3.8210964704243113,-1.1359627805000871,-5.260998955969162,-0.015199238584862206,0.01353487438688094,-0.018148477805826034,0.04553365485359727,0.05055941767360291,0.11404401967509506,-0.2868479788303375,-0.2427010536193847,-1.0667623281478882,-0.2098879665136337,0.3033761978149414,0.2702198922634125
1749024711.314927,-1.9485603283998625,-1.729301455162116,2.575211800911131,-3.8210048713039817,-1.1358626761424606,-5.2607684409137105,-0.015494494945165974,0.01362868775293905,-0.018153434856936566,0.04596675850376477,0.0508445153629714,0.11486209729635931,-0.299971342086792,-0.2572476863861084,-1.0774167776107788,-0.1964596807956695,0.3038575947284698,0.2661889195442199
1749024711.3149643,-1.9485896846410786,-1.7292748797773743,2.575174169749128,-3.820912151419421,-1.1357620728182074,-5.260536503799941,-0.01579326083067823,0.013737844099633955,-0.018163281348466953,0.046512874138205,0.051132007423803506,0.11574769140708667,-0.2825909256935119,-0.2494807243347168,-1.072022557258606,-0.1891446262598037,0.3309620022773742,0.2655848562717438
1749024711.3150024,-1.948619594502432,-1.7292478855273108,2.575136697805549,-3.820818176829926,-1.1356610243963894,-5.260303031142797,-0.016090059980658086,0.013861991266230814,-0.018180600544673402,0.04716265851942666,0.05141937358032623,0.11668763075689363,-0.2914302349090576,-0.2273859083652496,-1.070346117019653,-0.1832288950681686,0.3276200294494629,0.2739033102989197
1749024711.315039,-1.9486500919851117,-1.7292204896562842,2.575099427926668,-3.8207228279529684,-1.135559571356281,-5.260067883398807,-0.016379187948289246,0.014000179284304082,-0.018208086290031626,0.047906169838533845,0.0517055254462096,0.11767279118234292,-0.3046327531337738,-0.2181699275970459,-1.0690720081329346,-0.2220167219638824,0.2959498167037964,0.2931250333786011
1749024711.3151462,-1.9486812036504224,-1.7291927346249114,2.575062368022332,-3.820625987921617,-1.135457728351907,-5.259830885173805,-0.01665507694686659,0.014151029827590306,-0.0182485275285243,0.04873340315632798,0.051990867642695726,0.11869858813959176,-0.279323548078537,-0.2353722751140594,-1.0654431581497192,-0.2140491902828216,0.3157587647438049,0.2561283111572265
1749024711.316537,-1.9487129515535038,-1.729164679358142,2.5750254926022014,-3.8205275314310287,-1.1353554740189877,-5.259591825326228,-0.016912635044988307,0.014312953742247479,-0.018304744750802092,0.04963436906019303,0.052277275560291714,0.11976493349135979,-0.3192416727542877,-0.2223720252513885,-1.0865691900253296,-0.1962903887033462,0.3086711764335632,0.2608532905578613
1749024711.3582928,-1.9487453566831348,-1.7291363870544796,2.574988747634307,-3.8204273174538916,-1.1352527451960013,-5.259350466881115,-0.01714753920647161,0.014484371619602842,-0.018379477796617593,0.050598721984033555,0.0525679637964604,0.12087570399068345,-0.2972085773944855,-0.2366579473018646,-1.078615665435791,-0.1805717945098877,0.3157998323440552,0.27313894033432
1749024711.3583395,-1.9487784412507894,-1.7291079114615462,2.5749520578823666,-3.820325188495052,-1.1351494373371545,-5.259106564362216,-0.017356480217828464,0.014663890119716463,-0.018475228795290427,0.05161507297985738,0.0528672408708273,0.12203778867721682,-0.2970815300941467,-0.2534070611000061,-1.0938585996627808,-0.1743993163108825,0.3237694799900055,0.2644247114658355
1749024711.3583798,-1.948812228402078,-1.729079283922699,2.574915335686331,-3.8202209775968288,-1.1350454117282767,-5.2588598847815415,-0.017537365209335316,0.014850397311530083,-0.01859407169333016,0.05267021454427666,0.053180177106324285,0.12325979206969394,-0.295087456703186,-0.2521306872367859,-1.1027681827545166,-0.195750743150711,0.3166350722312927,0.2622899413108825
1749024711.358419,-1.94884673872331,-1.7290505035047803,2.574878490137634,-3.820114522673765,-1.1349405086400426,-5.258610228409903,-0.017689476888308624,0.015043061801600179,-0.018737452207013887,0.053748503177866676,0.053512236381544405,0.12455048812764496,-0.3278588056564331,-0.2417373359203338,-1.0911569595336914,-0.1763790547847747,0.3298391103744507,0.2575623989105224
1749024711.358457,-1.948881984023107,-1.729021532011118,2.5748414357059004,-3.8200056863615157,-1.1348345642719075,-5.258357446001992,-0.017813572065788656,0.015241245391375821,-0.018906014458608306,0.05483159247634644,0.05386892909972429,0.12591715580939272,-0.2599275112152099,-0.2253167927265167,-1.1024434566497805,-0.1930916011333465,0.3165671229362488,0.2696473598480224
1749024711.3584952,-1.9489179599775133,-1.7289922947675613,2.5748040994010046,-3.8198943783576103,-1.134727428378039,-5.258101449577002,-0.01791188656003297,0.015444359398894226,-0.019099493218499693,0.055898624264758216,0.0542555318784438,0.1273639715611447,-0.2599275112152099,-0.2253167927265167,-1.1024434566497805,-0.1930916011333465,0.3165671229362488,0.2696473598480224
1749024711.358533,-1.948954639962035,-1.728962687011528,2.5747664254399543,-3.819780576154594,-1.1346189789498213,-5.257842214188544,-0.01798801322094622,0.01565170566115984,-0.019316696987027506,0.05692690100195806,0.05467688811092583,0.12889066443551117,-0.286356508731842,-0.2115353047847747,-1.1141265630722046,-0.2187983691692352,0.3305086493492126,0.267701506614685
1749024711.3585703,-1.9489919721885578,-1.7289325848210269,2.5747283764751474,-3.819664339698051,-1.134509130795656,-5.257579769378477,-0.018046643088728262,0.01586234267184843,-0.019555580881276565,0.05789298633883733,0.05513725498120237,0.130491630533326,-0.2859059870243072,-0.2205271422863006,-1.0934776067733765,-0.2179150432348251,0.3083244264125824,0.2686675488948822
1749024711.3586073,-1.94902988096312,-1.7289018590137217,2.5746899311194493,-3.8195458166171674,-1.134397836642819,-5.2573141818232925,-0.018093198016066386,0.016075006212218062,-0.019813382580722745,0.0587741114458548,0.055640120668626336,0.13215564142136957,-0.2769241333007812,-0.2134109139442443,-1.0952800512313845,-0.2145594954490661,0.3258680999279022,0.2617382705211639
1749024711.358645,-1.9490682713881067,-1.7288703903270142,2.5746510785716823,-3.8194252370560355,-1.1342850817379655,-5.257045533759418,-0.018133412306741217,0.016288096530629636,-0.020086784408606076,0.059549715651976746,0.05618792230156673,0.13386617836887796,-0.2773564457893371,-0.2093526422977447,-1.0952765941619873,-0.2256667912006378,0.3505023121833801,0.2600643038749695
1749024711.358682,-1.9491070362622982,-1.728838084240092,2.574611811916338,-3.8193028995397524,-1.1341708744961452,-5.25677390296917,-0.01817292319860391,0.01649972754337595,-0.0203720754885944,0.06020293725198568,0.05678166414709481,0.13560231956901295,-0.2840582728385925,-0.2117696106433868,-1.0997484922409058,-0.228594034910202,0.3391936719417572,0.2582203447818756
1749024711.3587184,-1.949146064213137,-1.7288048838089047,2.574572121735939,-3.819179150738144,-1.1340552359593508,-5.256499348971634,-0.01821691125780822,0.01670782375814507,-0.020665309326237013,0.060721891455746184,0.05742052006147785,0.1373400414487504,-0.3048886358737945,-0.2129511386156082,-1.113857626914978,-0.2350104600191116,0.3320554792881012,0.2713042497634887
1749024711.3587546,-1.9491852482842729,-1.7287707789221907,2.5745319912248754,-3.8190543623557542,-1.1339381901329335,-5.25622190793373,-0.018269811261482995,0.016910248329329323,-0.020962466742802627,0.06110061092239895,0.05810153903605647,0.13905377803176147,-0.3004584908485412,-0.2026066184043884,-1.122558355331421,-0.2547942399978637,0.3279739618301391,0.2615423202514648
1749024711.3587916,-1.949224493898095,-1.7287358107337134,2.5744913934104896,-3.8189289080456588,-1.1338197563561578,-5.255941596783196,-0.018335103377990006,0.01710494581739267,-0.021259633095376415,0.06133957019238805,0.05881953804265613,0.14071809361888804,-0.3056641817092895,-0.2057218253612518,-1.1063284873962402,-0.2458928078413009,0.3177675008773803,0.2651318311691284
1749024711.3588283,-1.9492637248298799,-1.728700070770152,2.5744502905669386,-3.818803142524559,-1.133699944137147,-5.255658425223284,-0.018415191562514855,0.01729008177450661,-0.021553186677109936,0.061445767534305015,0.059567196992985905,0.1423093416965845,-0.2792650461196899,-0.196425050497055,-1.106100082397461,-0.2519699335098266,0.3115694224834442,0.2367590069770813
1749024711.3588648,-1.9493028861755126,-1.7286636950359922,2.574408635528953,-3.818677384180571,-1.133578750540641,-5.255372412837736,-0.0185113743138416,0.017464160299256726,-0.021839984315922097,0.061432390927146745,0.060335317011786835,0.14380720215321638,-0.3047382235527038,-0.1931082606315612,-1.105392336845398,-0.2606275677680969,0.3389021754264831,0.2585373222827911
1749024711.3589015,-1.9493419442437163,-1.7286268539465215,2.5743663744347254,-3.8185519016458858,-1.1334561602501998,-5.255083607367285,-0.0186239073456905,0.01762610438676589,-0.0221175298816332,0.06131813617167617,0.06111319585287846,0.14519601699191284,-0.29324471950531,-0.2061244398355484,-1.1158325672149658,-0.2683876156806946,0.3454355895519256,0.2676388621330261
1749024711.3589385,-1.9493808842486504,-1.728589739085068,2.574323450392771,-3.8184269042421253,-1.1333321484825498,-5.254792099650606,-0.018752147457107193,0.01777529205760473,-0.022384116310449637,0.061126266105550435,0.061889105913594505,0.14646588438621141,-0.2891345620155334,-0.21636463701725,-1.107204794883728,-0.2612960636615753,0.3616757392883301,0.2810256779193878
1749024711.358975,-1.9494197070861523,-1.7285525478670436,2.574279807550321,-3.8183025359380585,-1.1332066866155344,-5.254498030949106,-0.01889475632832653,0.01791155025006261,-0.022638925402309603,0.06088350553190584,0.06265089036783247,0.1476135039823388,-0.3128260374069214,-0.2120454907417297,-1.0828717947006226,-0.2524271011352539,0.3648678064346313,0.2668983936309814
1749024711.3590114,-1.9494584263759864,-1.7285154673676373,2.574235395038835,-3.8181788723739185,-1.1330797498558216,-5.254201589721984,-0.019049937990162993,0.01803511604016983,-0.022882049715681654,0.060618864711247826,0.06338668072407676,0.1486427665775521,-0.321331262588501,-0.2194645851850509,-1.1041122674942017,-0.2328759878873825,0.3205392360687256,0.2901951670646667
1749024711.3590982,-1.9494970666480447,-1.728478658746557,2.57419017036959,-3.818055920427922,-1.1329513260771815,-5.253902997127825,-0.019215684430834115,0.018146580114521648,-0.02311439176384205,0.06036247036939077,0.06408568370339926,0.14956504762881298,-0.3003221154212951,-0.2079988420009613,-1.106872320175171,-0.249652475118637,0.3370530605316162,0.2639915943145752
1749024711.3605886,-1.9495356630882537,-1.7284422437581985,2.5741441020537685,-3.817933619685058,-1.132821425207452,-5.253602482903415,-0.019390005376224845,0.018246828638065305,-0.023337421063345846,0.060144445987989216,0.06473892976221156,0.15039912026871344,-0.3080273866653442,-0.2040322870016098,-1.1063532829284668,-0.2502292990684509,0.3306745290756225,0.2787443995475769
1749024711.4025283,-1.9495742625369932,-1.7284062947345264,2.5740971714853793,-3.81781184523607,-1.1326900886418376,-5.253300255324442,-0.019571119251312927,0.018336995168987437,-0.02355281866768468,0.059993828203306225,0.06533986609812861,0.15117057122616123,-0.3062145113945007,-0.2107335925102234,-1.0986666679382324,-0.2614321708679199,0.3298263549804687,0.2776815891265869
1749024711.4026058,-1.9496129246588394,-1.728370829146649,2.5740493744179034,-3.8176904116922734,-1.1325573976235994,-5.252996470429692,-0.019757587023335386,0.018418426647366492,-0.023762075547324304,0.059937461444901835,0.06588472120853685,0.15191059903240006,-0.316102921962738,-0.2026371955871582,-1.0934606790542605,-0.2561057209968567,0.3248029351234436,0.250864028930664
1749024711.402676,-1.9496517218142493,-1.7283358093977539,2.5740007225623067,-3.8175690789106236,-1.1324234786602632,-5.252691206140602,-0.019948382034914496,0.018492662494252403,-0.023966114305269775,0.0599988097809483,0.0663726354209887,0.1526541182650366,-0.3144344091415405,-0.178981602191925,-1.0960721969604492,-0.2727717757225036,0.3351545929908752,0.2603053450584411
1749024711.4027357,-1.9496907363738858,-1.7283011479384394,2.5739512457319127,-3.817447560172152,-1.1322885036507673,-5.2523844459142115,-0.02014290229802177,0.018561426447172118,-0.024164986013209506,0.06019667643216116,0.06680560559701938,0.15343719643562428,-0.3143374919891357,-0.1829421520233154,-1.113195776939392,-0.242779865860939,0.346338540315628,0.2543528378009796
1749024711.4027753,-1.9497300549434073,-1.7282667171152009,2.573900994498516,-3.817325533280898,-1.1321526830155817,-5.25207607441889,-0.02034093855897696,0.01862663327392389,-0.024357680675859562,0.06054391009307788,0.06718831418931863,0.15429399665323365,-0.290762186050415,-0.2063527852296829,-1.0994956493377686,-0.241098552942276,0.3430883288383484,0.2531399130821228
1749024711.4028149,-1.9497697600169601,-1.728232362368038,2.573850042727354,-3.817202654529663,-1.1320162515392898,-5.251765885370056,-0.020542609536603158,0.01869041050553195,-0.02454208802950877,0.061046256560562104,0.06752790367033064,0.15525355302432056,-0.3057570457458496,-0.1914882063865661,-1.1068150997161863,-0.2370026260614395,0.3349319696426391,0.2932004928588867
1749024711.402853,-1.9498099206546466,-1.7281979167664583,2.5737984889790075,-3.8170785749533334,-1.1318794481887748,-5.251453599881858,-0.02074827044646992,0.01875512689659874,-0.024715141043558896,0.06170153702573175,0.0678337265869521,0.15633681916740833,-0.296211302280426,-0.1821854710578918,-1.1033071279525757,-0.2298934608697891,0.3566359877586365,0.3023589253425598
1749024711.4028933,-1.9498505845064227,-1.7281632148134445,2.573746455780167,-3.816952957774381,-1.1317424923510635,-5.251138892595792,-0.02095839749091958,0.018823409206300563,-0.02487315385055893,0.06249929183609962,0.06811706557538462,0.15755445728280085,-0.326439619064331,-0.1496453434228897,-1.0849494934082031,-0.2158885896205902,0.3288644552230835,0.2910063564777374
1749024711.4029317,-1.949891773570691,-1.7281281039947212,2.573694086080367,-3.816825495542876,-1.1316055596118093,-5.250821422252613,-0.021173451343377597,0.01889812357280949,-0.025012329500884386,0.06342095485525498,0.06839080047401973,0.15890575329345324,-0.3109213709831238,-0.1686166524887085,-1.106062650680542,-0.2205977886915207,0.3299176692962646,0.3021426796913147
1749024711.4029691,-1.9499334853204457,-1.7280924533276518,2.573641536674868,-3.8166959254819885,-1.1314687603525797,-5.250500863223794,-0.0213937275087312,0.01898230057558395,-0.025129372481228453,0.06444056159123646,0.06866901330211678,0.16037887007925458,-0.2950126826763153,-0.1722060441970825,-1.0938999652862549,-0.2267323583364486,0.320028156042099,0.2978896498680115
1749024711.4030075,-1.9499756993519664,-1.7280561587984111,2.573588968893486,-3.8165640420731055,-1.1313321240718075,-5.2501769347958325,-0.02161920864061381,0.01907899433051752,-0.025222110940891447,0.06552596432154598,0.06896654388050738,0.16195243186830394,-0.3321937024593353,-0.2017461061477661,-1.0775668621063232,-0.2264906615018844,0.3253864645957947,0.2938883006572723
1749024711.403045,-1.9500183879735236,-1.7280191459603207,2.573536537304534,-3.8164297066147084,-1.1311955915890852,-5.249849425492429,-0.02184943719502506,0.01919108372516076,-0.025290025482650583,0.06664052106545326,0.06929850272054662,0.16359821454278475,-0.3050432801246643,-0.1724942475557327,-1.0771136283874512,-0.2114555388689041,0.3312642276287079,0.2784171402454376
1749024711.4030826,-1.9500615277973,-1.7279813701014344,2.5734843774308853,-3.8162928538932634,-1.1310590163620529,-5.249518210138668,-0.022083423069121786,0.01932104285887687,-0.02533459827769313,0.06774521387610544,0.06967971174730962,0.16528453733392018,-0.3198956549167633,-0.1340524107217788,-1.0788944959640503,-0.2296714782714843,0.3092856407165527,0.2751740217208862
1749024711.40312,-1.9501051088913572,-1.7279428143054587,2.5734325935841085,-3.8161534960405747,-1.130922174956052,-5.249183257699701,-0.022319596348137037,0.019470720063834664,-0.025359431622569685,0.06880111000031892,0.07012401817817296,0.16697984873577673,-0.2956423759460449,-0.1665347814559936,-1.0809019804000854,-0.249093011021614,0.3371014595031738,0.2513226270675659
1749024711.403158,-1.9501491385687875,-1.727903485637483,2.573381248105697,-3.8160117233054627,-1.1307847851910748,-5.248844628546525,-0.022555818501621715,0.0196411645225329,-0.02537012659489855,0.06977201221758073,0.07064345101388685,0.16865599773230325,-0.3148411512374878,-0.1758091300725937,-1.065418362617493,-0.2544649839401245,0.3311182260513305,0.2718944549560547
1749024711.403195,-1.9501936384269352,-1.7278634098602852,2.573330353596087,-3.8158677011423894,-1.1306465290794827,-5.248502461154043,-0.0227894748037487,0.01983252685583268,-0.025373948615175407,0.07062708540920234,0.0712472591032585,0.1702907782261173,-0.3119856119155884,-0.1576696783304214,-1.0792895555496216,-0.2259059250354766,0.3389224112033844,0.2456772029399871
1749024711.403233,-1.9502386354787313,-1.7278226255063072,2.57327986981269,-3.815721662946785,-1.1305070771262324,-5.248156950199102,-0.023017673870423055,0.020044042305526755,-0.02537933157199008,0.07134322174228037,0.0719409409012585,0.171869509319107,-0.3264601230621338,-0.1477377116680145,-1.087078094482422,-0.2737663984298706,0.3484094440937042,0.2508350610733032
1749024711.4032707,-1.9502841503121726,-1.7277811784941421,2.573229706454797,-3.8155738980265683,-1.1303661112174934,-5.2478083197132195,-0.023237565303805097,0.0202740891611276,-0.02539528460529052,0.07190691670783148,0.07272540486263761,0.17338562875597432,-0.2992663383483886,-0.1683136373758316,-1.1021870374679563,-0.2672677338123321,0.3501616716384887,0.2629640102386474
1749024711.4033074,-1.9503301861781672,-1.7277391185288145,2.5731797319520444,-3.8154247348753723,-1.1302233446228207,-5.247456795402678,-0.023446754122058926,0.02052030268465876,-0.025430765620955354,0.07231546232616809,0.07359637981697138,0.17484046883763046,-0.303950160741806,-0.1759864538908004,-1.0899468660354614,-0.2918756306171417,0.3480438590049743,0.2662305831909179
1749024711.4033442,-1.9503767223399602,-1.727696498109707,2.5731297869452234,-3.8152745203054814,-1.1300785386345316,-5.247102579412667,-0.023643754094384885,0.02077971943018265,-0.02549407567813754,0.07257732115666456,0.07454415582814176,0.17624248987863914,-0.3026198744773865,-0.1565596908330917,-1.087733507156372,-0.2593545317649841,0.3430784046649933,0.2787309288978576
1749024711.4034798,-1.9504237134241271,-1.727653374042259,2.573079699910668,-3.8151235954954767,-1.1299315155745482,-5.2467458295702984,-0.02382839695601822,0.021048935497758266,-0.025592317137193833,0.0727116267380392,0.07555370660921731,0.1776062380806917,-0.3362658619880676,-0.1252442598342895,-1.0916322469711304,-0.2733716070652008,0.3551877737045288,0.2620589137077331
1749024711.4045732,-1.9504710948184953,-1.7276098102083064,2.5730293018509225,-3.81497227066688,-1.1297821675933135,-5.246386644362511,-0.024002109451763707,0.021324281947142625,-0.02573095392649766,0.07274685082974405,0.07660522860576076,0.17895118752396208,-0.2848599255084991,-0.1214651465415954,-1.0836846828460691,-0.2780626118183136,0.3503119945526123,0.2451781034469604
1749024711.4462776,-1.9505187929590369,-1.7275658796060356,2.57297843744511,-3.8148208008494495,-1.1296304605490666,-5.246025054627306,-0.024167986725673166,0.021602033429422407,-0.025913510289961545,0.07271876338582405,0.07767511428361579,0.1803004671432536,-0.3254419565200805,-0.1627211272716522,-1.0986952781677246,-0.2641154527664184,0.3612358570098877,0.2445755302906036
1749024711.446323,-1.950566738610013,-1.7275216637391053,2.572926971335252,-3.8146693655854893,-1.1294764327032596,-5.2456610226663924,-0.024330626818603405,0.02187865647063366,-0.026141430891304756,0.07266787018565848,0.07873734263046507,0.18167933601463834,-0.3147275447845459,-0.1732417941093444,-1.1010769605636597,-0.2766149640083313,0.3477964401245117,0.2610400319099426
1749024711.4463625,-1.9506148807396433,-1.7274772482195622,2.572874789729455,-3.8145180550776594,-1.1293201887521822,-5.245294448947024,-0.02449573963023875,0.022151076004473982,-0.026414094114836733,0.07263654057161018,0.0797652177727221,0.18311323073983465,-0.3172228336334228,-0.1735791563987732,-1.088911056518555,-0.2739957571029663,0.377041608095169,0.2367502897977829
1749024711.4464014,-1.9506631984009006,-1.727432714564917,2.5728217986809354,-3.8143668642723507,-1.129161890257091,-5.24492518577416,-0.024669587688348434,0.02241691312743235,-0.026728935922343055,0.0726660444434139,0.08073333046350448,0.18462530735253718,-0.3309187889099121,-0.1489787697792053,-1.0831267833709717,-0.2487404942512512,0.3486579656600952,0.2351348549127578
1749024711.4464395,-1.9507117083704055,-1.7273881292976048,2.572767921001718,-3.814215695142631,-1.129001743522358,-5.2445530562983045,-0.02485833609691555,0.022674641153512903,-0.027081628634928395,0.07279372119173763,0.0816195717250371,0.18623361239561648,-0.3291920721530914,-0.143648162484169,-1.1172343492507937,-0.2406766265630722,0.351103127002716,0.2682490944862366
1749024711.4464767,-1.9507604671210987,-1.7273435323978357,2.5727130937095315,-3.8140643664508587,-1.1288399855007714,-5.2441778761297195,-0.02506738137532489,0.02292362258862448,-0.027466278524767112,0.07305050112392114,0.08240700090084857,0.18794825761688363,-0.3201480805873871,-0.1759801506996154,-1.109991192817688,-0.2320825755596161,0.3490260541439056,0.2623855471611023
1749024711.4465146,-1.9508095667749334,-1.7272989276407635,2.572657267250445,-3.813912629693602,-1.128676867742142,-5.243799474156105,-0.02530071224206828,0.02316401703757881,-0.02787564029511785,0.07345896209812071,0.08308536510438568,0.18976912959568784,-0.3290896713733673,-0.1531236469745636,-1.090702772140503,-0.2279186397790908,0.3278188705444336,0.2987817525863647
1749024711.4465518,-1.9508591258855799,-1.7272542770690216,2.5726004068389114,-3.8137601896500453,-1.128512638246046,-5.243417709386326,-0.02556035177642799,0.02339657952838532,-0.028301364692154152,0.07403201396912827,0.08365208707989757,0.19168466062704598,-0.3160936832427978,-0.1595452427864074,-1.0959724187850952,-0.2478353530168533,0.3201103806495666,0.3021064698696136
1749024711.4465892,-1.950909277007422,-1.7272095009292128,2.5725424955394547,-3.813606727808936,-1.1283475216576646,-5.243032481753396,-0.025845940175601267,0.023622393799182045,-0.02873428595968794,0.07477219643219696,0.08411258800411787,0.19367201115413077,-0.34173384308815,-0.1559425592422485,-1.098365306854248,-0.2454182356595993,0.3301467299461365,0.2960214912891388
1749024711.446627,-1.9509601534551784,-1.7271644833896909,2.5724835382799323,-3.8134519268394627,-1.1281816993553142,-5.242643736369295,-0.02615452100014745,0.023842599636488934,-0.02916473444614207,0.07567151749911949,0.08447988901150189,0.19569872353163265,-0.3278948366641998,-0.1487996280193328,-1.1069512367248535,-0.2203147113323211,0.3487664461135864,0.2983481287956238
1749024711.446664,-1.9510118770692195,-1.7271190835886174,2.57242356571294,-3.8132954941910566,-1.1280152919940385,-5.242251462221759,-0.026480577545575826,0.024058170783507745,-0.02958284758537751,0.07671178301330467,0.08477352502498432,0.19772559497384082,-0.3217820525169372,-0.1830273419618606,-1.079031229019165,-0.209555521607399,0.3596243560314178,0.2631508708000183
1749024711.4467013,-1.9510645475980621,-1.727073150834162,2.5723626367991224,-3.813137182955818,-1.1278483474476242,-5.241855687332347,-0.026816335673294996,0.02426977768522794,-0.029978858165697696,0.07786543531127528,0.08501788269735111,0.19971028370596552,-0.319951057434082,-0.1488113850355148,-1.0769834518432615,-0.2236506342887878,0.3245966136455536,0.2719801664352417
1749024711.4467382,-1.951118233452463,-1.72702654193941,2.572300839346663,-3.8129768083866873,-1.1276808366395379,-5.241456472656995,-0.0271523194944692,0.024477735719918486,-0.03034336045076479,0.07909695955268746,0.08524012577706273,0.20161108212817186,-0.3090087175369262,-0.1186694204807281,-1.0812395811080933,-0.2087652683258056,0.3271636366844177,0.2394712269306183
1749024711.446775,-1.9511729636332777,-1.7269791380700172,2.5722382883661448,-3.812814258874059,-1.1275126585175406,-5.241053906411624,-0.027478123923420666,0.02468201155033458,-0.03066758236245711,0.08036489559525155,0.08546790359942542,0.20339038129826661,-0.3432862162590027,-0.1650043725967407,-1.092962622642517,-0.2105051875114441,0.353958398103714,0.2502674162387848
1749024711.446812,-1.9512287212803383,-1.7269308585134018,2.572175122579499,-3.8126495006633747,-1.127343653691986,-5.2406480993993005,-0.0277833490501525,0.0248822489088987,-0.030943705360816053,0.08162443516259388,0.08572706835502372,0.20501755373588937,-0.3265153467655182,-0.1280310600996017,-1.063642144203186,-0.1990880221128463,0.3604758679866791,0.284482479095459
1749024711.4468489,-1.9512854398658945,-1.726881669368242,2.5721114995128214,-3.812482576158786,-1.127173624624899,-5.240239180972722,-0.02805861643216097,0.025077778814873834,-0.031165256800070654,0.0828305186377397,0.08603964629697339,0.20647118818027357,-0.3158676624298095,-0.1412219703197479,-1.0756419897079468,-0.2183017879724502,0.3578602969646454,0.2864082455635071
1749024711.4468846,-1.9513430032185874,-1.7268315859728498,2.5720475893991535,-3.812313596266828,-1.1270023592842076,-5.239827294822146,-0.0282965570592623,0.025267592914421416,-0.031327561482863114,0.08394127328373038,0.08642228079682487,0.2077407207313851,-0.2999320924282074,-0.1292744874954223,-1.063852310180664,-0.2098882645368576,0.3345011174678802,0.2742675840854645
1749024711.4469204,-1.951401250326177,-1.7267806688258394,2.5719835678398915,-3.8121427277421818,-1.126829654945112,-5.2394125936272316,-0.028492642395450702,0.02545028022477515,-0.03142820717488309,0.08492154692705864,0.0868852737635807,0.2088274820680395,-0.3239747285842895,-0.1459151804447174,-1.0622209310531616,-0.2350343614816665,0.3653622269630432,0.2902257442474365
1749024711.4469569,-1.9514599852860928,-1.7267290138421514,2.5719196070207566,-3.8119701767985377,-1.1266553391035106,-5.238995231634555,-0.028645741987622434,0.025623952591377078,-0.0314674685800607,0.08574620286966865,0.0874322356677191,0.20974505733442156,-0.3032147884368896,-0.1690322905778885,-1.074343204498291,-0.2260141521692276,0.3792007267475128,0.2561199367046356
1749024711.4469926,-1.9515189919251885,-1.7266767388355349,2.5718558654316275,-3.8117961703567973,-1.1264792851422765,-5.238575354698092,-0.02875833077830862,0.025786202911729082,-0.031448637399557014,0.08640278729417071,0.0880602764929615,0.21051872843906058,-0.2969099283218384,-0.1496103107929229,-1.0537903308868408,-0.2539963126182556,0.3830121755599975,0.2344496399164199
1749024711.4470985,-1.9515780517141021,-1.7266239686952645,2.571792476541762,-3.8116209363220315,-1.1263014214579377,-5.238153088382665,-0.028836318096530537,0.025934142737763986,-0.031378208221597086,0.08689319049146027,0.08876064926530379,0.2111837457481812,-0.3189093172550201,-0.1423481851816177,-1.0643160343170166,-0.2536319494247436,0.3836440443992615,0.2208032459020614
1749024711.4485445,-1.9516369629309487,-1.7265708216344284,2.5717295375082188,-3.8114446842823213,-1.1261217340893444,-5.237728526021585,-0.02888851657033057,0.026064548564360742,-0.03126586887251373,0.08723400854354285,0.08951975669351583,0.21178232290293073,-0.3111130595207214,-0.1680923253297805,-1.0509601831436155,-0.2317691296339035,0.3680175542831421,0.2598288059234619
1749024711.49029,-1.9516955587384095,-1.7265173983489142,2.5716670994182347,-3.8112675879377362,-1.1259402640572582,-5.237301719543998,-0.028925811566540848,0.02617411389999655,-0.0311242469237411,0.08745545748892887,0.09032041439563313,0.21235954421195957,-0.3154719769954681,-0.1754232197999954,-1.0572881698608398,-0.2498296499252319,0.3591228723526001,0.2405035346746444
1749024711.4903383,-1.951753721953703,-1.726463775199097,2.571605160607413,-3.8110897703594664,-1.1257571010619043,-5.236872675935476,-0.028960128052753362,0.026259769640539325,-0.03096837842770509,0.08759886300674333,0.09114324039989638,0.21295871087587634,-0.30222949385643,-0.1641121804714203,-1.060524821281433,-0.2398076951503753,0.3668163120746612,0.2960887253284454
1749024711.4903798,-1.9518113947545932,-1.726410001701001,2.5715436642773755,-3.8109112930586737,-1.1255723748037039,-5.236441361199873,-0.02900331575719412,0.026319015642794565,-0.030814894337384574,0.0877129111373948,0.09196804062607776,0.2136168835103922,-0.3052630722522735,-0.1350429952144622,-1.0657514333724976,-0.261344850063324,0.3683320581912994,0.2830410301685333
1749024711.4904232,-1.951868582294326,-1.726356101856543,2.5714825011178952,-3.810732150002382,-1.1253862445334009,-5.236007711971141,-0.02906608011575988,0.026350214673724053,-0.0306809626117615,0.08784898147075908,0.09277509444166997,0.21436139260703305,-0.3253787159919739,-0.1236260756850242,-1.074475646018982,-0.2365129590034485,0.3735575973987579,0.299241304397583
1749024711.4904633,-1.9519253501457399,-1.726302078461983,2.5714215170966046,-3.8105522679373705,-1.1251988870423129,-5.235571653058008,-0.02915707442427404,0.026352829657443576,-0.0305830691134969,0.08805598720450813,0.09354629263343656,0.21520787060765448,-0.3124139904975891,-0.1629494130611419,-1.0662453174591064,-0.2482193708419799,0.3707147240638733,0.295536607503891
1749024711.490502,-1.9519818164865916,-1.7262479195941276,2.5713605260582955,-3.8103715142049173,-1.1250104833202421,-5.235133117702671,-0.029282239959412905,0.026327610032091095,-0.030535753861781492,0.0883752136953152,0.09426611090181028,0.21615999989824874,-0.3226495385169983,-0.1968961954116821,-1.0767478942871094,-0.2322035133838653,0.3423278033733368,0.2808741331100464
1749024711.4905405,-1.952038140527669,-1.7261936066639423,2.571299326186941,-3.8101897123768325,-1.1248212044837873,-5.23469206659193,-0.02944444158637462,0.026276733034450304,-0.030550434357982152,0.08883568477821589,0.09492240538546445,0.21721081217435687,-0.3039709031581878,-0.1896278262138366,-1.0780353546142578,-0.1911946982145309,0.3392764031887054,0.2572003304958343
1749024711.4905818,-1.9520945085697277,-1.7261391233349048,2.5712377186946545,-3.8100066646990647,-1.1246311980772004,-5.234248501909015,-0.029643405510960445,0.026203888954977866,-0.030634446763028855,0.08945060089353064,0.09550701370628646,0.21834513340341788,-0.3121104836463928,-0.1762025952339172,-1.0900075435638428,-0.217012733221054,0.3620642423629761,0.252260148525238
1749024711.4906204,-1.9521511186413492,-1.7260844641796325,2.5711755264792298,-3.8098221790500233,-1.124440576073606,-5.2338024737777085,-0.029875931873575186,0.026114287089659315,-0.030790420259785373,0.09021535931613507,0.09601615551934403,0.21954269292165565,-0.3242757320404053,-0.183391660451889,-1.1009072065353394,-0.1772066056728363,0.3590311706066131,0.2826924920082092
1749024711.490658,-1.952208164645656,-1.7260296415597143,2.5711126102276314,-3.809636097395589,-1.124249405701501,-5.23335407775283,-0.030136332294714765,0.02601455901241456,-0.03101606737566246,0.09110753312535369,0.09645063686518754,0.22078147663211137,-0.3239566087722778,-0.161368116736412,-1.1030044555664062,-0.1904140710830688,0.3606770038604736,0.302909106016159
1749024711.490696,-1.9522658214478885,-1.725974689297382,2.5710488797232833,-3.8094483225424116,-1.1240577038007145,-5.232903443125134,-0.030417029695672622,0.02591254359421233,-0.03130442388694289,0.0920889423182661,0.0968158448610487,0.222041018040999,-0.3025646805763244,-0.1727384030818939,-1.1088014841079712,-0.2118914127349853,0.3327288031578064,0.3190195560455322
1749024711.4907367,-1.9523242326628756,-1.725919662407504,2.570984298858646,-3.809258840029819,-1.1238654349836643,-5.232450712878592,-0.030709250957782968,0.025816951945685576,-0.031644514741243114,0.09310966320972842,0.09712148137299,0.22330539376806696,-0.3037213087081909,-0.1504062116146087,-1.1078473329544067,-0.2131693214178085,0.3383963108062744,0.2985340654850006
1749024711.490776,-1.952383502414508,-1.7258646331837184,2.570918883830025,-3.809067732134313,-1.123672513548043,-5.231996017574581,-0.03100374536915945,0.025736927902977512,-0.032022369447173314,0.09411357270581505,0.09738097368350973,0.22456567756242246,-0.3086536228656769,-0.1408576667308807,-1.096890568733215,-0.2100600749254226,0.3385922312736511,0.2601606845855713
1749024711.490814,-1.9524436913031504,-1.7258096847347415,2.5708526950480106,-3.8088751813509996,-1.1234788089864451,-5.2315394472029775,-0.031291480750150494,0.025681532107231418,-0.0324222715394072,0.09504483957425731,0.09761054712034899,0.22582154461354118,-0.3366187810897827,-0.158972829580307,-1.0901286602020264,-0.2314168810844421,0.3318751454353332,0.2596361637115478
1749024711.4908514,-1.952504816051011,-1.7257549032700559,2.570785824332485,-3.8086814615678004,-1.1232841550383255,-5.231081026351133,-0.03156429746642097,0.02565917998162684,-0.0328281083817195,0.09585463925426278,0.0978280256308229,0.2270817028288768,-0.32106813788414,-0.1471408158540725,-1.0810149908065796,-0.2422153949737548,0.3610884249210357,0.256256639957428
1749024711.4908934,-1.9525668521885202,-1.725700370118212,2.5707183797178588,-3.808486916587592,-1.1230883622246421,-5.230620697963745,-0.03181551357071122,0.02567706475244099,-0.0332246918090775,0.09650728583317114,0.09805149453535217,0.22836294390409684,-0.2963850796222687,-0.1608448326587677,-1.1000564098358154,-0.268720418214798,0.369899570941925,0.2560078799724579
1749024711.4909325,-1.9526297393889087,-1.7256461540008379,2.5706504703226054,-3.808291927583083,-1.122891233477643,-5.230158319332827,-0.03204045854447718,0.02574060929604284,-0.03359894166401133,0.09698498733605401,0.09829798814605041,0.22968785398082112,-0.3165077865123749,-0.121458776295185,-1.1065459251403809,-0.2781625390052795,0.3539245724678039,0.3057081401348114
1749024711.49097,-1.9526933892171132,-1.7255923038470864,2.570582193163564,-3.808096873001053,-1.1226925819249067,-5.229693671430999,-0.03223688548600804,0.025853012778030315,-0.03394085071349279,0.09729057246349102,0.09858235114467818,0.23108151670031177,-0.297325849533081,-0.1250465214252472,-1.095557451248169,-0.2735581994056701,0.3586581945419311,0.2898350954055786
1749024711.4910078,-1.9527576950001693,-1.725538842590591,2.570513622902504,-3.807902085719017,-1.1224922492376022,-5.229226479990363,-0.03240520070343313,0.026014968980068293,-0.03424416862334828,0.09744779284006962,0.09891637737943589,0.23256777049746738,-0.2966950237751007,-0.1413811892271042,-1.0841656923294067,-0.2798835337162018,0.379909336566925,0.3227657377719879
1749024711.491048,-1.9528225432864639,-1.7254857627327644,2.5704448048291524,-3.807707812572453,-1.1222901222748451,-5.228756444264695,-0.03254846913794024,0.02622461537285813,-0.034506752886659824,0.09749912257153262,0.09930827274561672,0.23416566553014953,-0.3336457908153534,-0.1445020139217376,-1.0866291522979736,-0.284855306148529,0.3690990805625915,0.3232071697711944
1749024711.491153,-1.9528878259014772,-1.725433024460433,2.5703757511365852,-3.8075141808697257,-1.1220861453714595,-5.228283267763615,-0.03267219503129486,0.026477731660548842,-0.034730548849012104,0.09750130274788546,0.09976244088592572,0.235886681054748,-0.3215387165546417,-0.1188206374645233,-1.077519178390503,-0.2489090263843536,0.3833335041999817,0.31258225440979
1749024711.492528,-1.9529534509576156,-1.7253805565317828,2.57030644055996,-3.807321175601123,-1.1218803260111685,-5.227806685098928,-0.03278391364755691,0.026768165740854586,-0.034921196126047695,0.09751917271272499,0.10027956310223078,0.2377330573803049,-0.2988424897193908,-0.1222851052880287,-1.1140964031219482,-0.2428418397903442,0.3853977918624878,0.3185121119022369
1749024711.5345552,-1.9530193507675313,-1.725328259364211,2.5702368214219478,-3.807128630056507,-1.1216727328345413,-5.2273264805436535,-0.03289263819065912,0.027088437238173422,-0.03508731205820679,0.09761855691616159,0.10085693606033126,0.23969735803731868,-0.2757026553153991,-0.137598842382431,-1.1019885540008545,-0.2205997854471206,0.3700208067893982,0.3108726143836975
1749024711.5346348,-1.9530854850791823,-1.72527600928458,2.5701668179060833,-3.806936231504211,-1.1214634863686355,-5.226842496269819,-0.03300819253798449,0.02743045106580185,-0.035239545473513934,0.09785909445408512,0.10148903018379384,0.24176319128647702,-0.3163836598396301,-0.1347274780273437,-1.107162594795227,-0.2241285443305969,0.361366331577301,0.3301788568496704
1749024711.5347092,-1.9531518394692782,-1.7252236628870536,2.5700963390327267,-3.8067435421852904,-1.1212527439336861,-5.226354630596201,-0.03314045419890982,0.02778624020558705,-0.03538950074235128,0.09828787915009204,0.10216822156391542,0.24390692038698653,-0.3039826154708862,-0.1093224510550499,-1.0912840366363523,-0.2191816568374633,0.3797754943370819,0.3450467884540558
1749024711.5347831,-1.9532184203039336,-1.7251710607597897,2.5700252894611455,-3.806550033997075,-1.1210406807772677,-5.225862828406588,-0.03329854622592205,0.02814865032662244,-0.035548612875027676,0.09893463729989573,0.1028856263910663,0.2461001543160937,-0.3183463215827942,-0.0997103154659271,-1.088330626487732,-0.1881782412528991,0.3792043924331665,0.3232395946979522
1749024711.5348551,-1.9532852484454266,-1.7251180303628246,2.5699535809439236,-3.806355133202267,-1.1208274698208536,-5.225367066981094,-0.03349003736659921,0.028511884381716715,-0.035727043406350474,0.09980896033751047,0.1036319461671604,0.2483127756312217,-0.3221760094165802,-0.1362440288066864,-1.1122369766235352,-0.1512806713581085,0.3607955276966095,0.3175028562545776
1749024711.5349257,-1.9533523535747124,-1.7250643884505654,2.569881143128062,-3.806158269900122,-1.120613262568543,-5.224867340688202,-0.03372022160479852,0.028871843113000457,-0.035932683989466974,0.10089986796578801,0.10439823954654591,0.250516187480248,-0.3196611404418945,-0.1392614394426345,-1.1285161972045898,-0.1838457584381103,0.367303192615509,0.3028819561004638
1749024711.5349946,-1.9534197700465488,-1.7250099439191924,2.5698079325403658,-3.8059589262300038,-1.1203981735818405,-5.224363647349244,-0.03399155096645135,0.029226223068570912,-0.03617038448849957,0.10217770534971696,0.1051765796167311,0.25268636475603246,-0.3214856386184692,-0.1398918032646179,-1.121748447418213,-0.1957875788211822,0.3671226501464844,0.290982574224472
1749024711.5350678,-1.9534875342491815,-1.7249545021284816,2.5697339388471634,-3.8057566774240126,-1.120182270251919,-5.223855977960927,-0.034303291645019995,0.029574364022945148,-0.03644152815018136,0.10359808514892863,0.10596060490999669,0.2548062428332829,-0.3188598155975342,-0.118938997387886,-1.1057018041610718,-0.1745433658361435,0.3593450784683227,0.273537278175354
1749024711.5351384,-1.9535556829576342,-1.7248978716433885,2.569659187560924,-3.805551220840054,-1.119965568356106,-5.223344310302517,-0.034651460061705795,0.029916871180470494,-0.03674403525102012,0.10510732072225389,0.10674598362573208,0.25686703562718727,-0.3256237804889679,-0.1225363239645958,-1.124510407447815,-0.2096594274044037,0.3608893752098083,0.2868745326995849
1749024711.5351992,-1.953624252184188,-1.7248398740872934,2.5695837383815303,-3.805342389875741,-1.1197480324558002,-5.222828606079077,-0.035029068672748964,0.030255070245726632,-0.037072800375060035,0.10664861591723743,0.10753077369698925,0.2588682601179873,-0.3259899914264679,-0.1275766491889953,-1.1228570938110352,-0.1921657770872116,0.3852076232433319,0.2850560843944549
1749024711.5352397,-1.9536932762394157,-1.7247803572756746,2.5695076787211133,-3.8051301519250895,-1.1195295792808524,-5.222308810906555,-0.03542667277772217,0.030590378112352407,-0.03742048939736491,0.10816820131200373,0.10831561709894481,0.2608165142448179,-0.32286137342453,-0.1043713688850402,-1.1279524564743042,-0.2018656283617019,0.3774889707565307,0.3054550588130951
1749024711.5352776,-1.9537627868790926,-1.7247192107958174,2.569431112839746,-3.8049145919267295,-1.1193100822665942,-5.2217848567793235,-0.03583316710417542,0.030923683371823465,-0.03777856573047303,0.10962063591508718,0.10910369482789536,0.26272331962598955,-0.3235993683338165,-0.1298257708549499,-1.1172367334365845,-0.2108204662799835,0.3682165145874023,0.3105994760990143
1749024711.5353162,-1.9538328125345914,-1.7246563818888152,2.569354148118825,-3.804695885169746,-1.1190893761715155,-5.221256667394432,-0.036236745445369666,0.03125482947240392,-0.0381383899946594,0.11097262595862474,0.10990038553208052,0.26460251047014816,-0.3235733807086944,-0.0971132218837738,-1.1256046295166016,-0.2086334228515625,0.3545016050338745,0.2969370484352112
1749024711.5353532,-1.953903377763435,-1.7245918885294764,2.5692768807886455,-3.804474264450497,-1.1188672617581767,-5.2207241670751205,-0.0366259164346779,0.03158228144759058,-0.03849223975179851,0.11220494172113941,0.1107125969593252,0.26646768790960307,-0.3029361069202423,-0.0939779058098793,-1.110456466674805,-0.2122844755649566,0.3442981839179992,0.3361786901950836
1749024711.5353904,-1.95397450315536,-1.724525826645797,2.569199383524377,-3.8042499870977404,-1.1186435115134015,-5.220187293387986,-0.03699046623453132,0.03190303435708402,-0.03883411919534333,0.11331231205376979,0.11154778068451966,0.2683301829473139,-0.2986907064914703,-0.1172963231801986,-1.1095644235610962,-0.2040397524833679,0.3674741089344024,0.3217148780822754
1749024711.535442,-1.954046205872814,-1.7244583695183244,2.569121696742232,-3.8040233068172076,-1.1184178779677223,-5.21964601202241,-0.03732227293188839,0.032212787764151,-0.03916026772283016,0.11430149409214682,0.1124127088879773,0.2701978199065891,-0.303291380405426,-0.1018008589744567,-1.116140842437744,-0.2011346817016601,0.3705931305885315,0.315163254737854
1749024711.535484,-1.954118500744282,-1.7243897589279944,2.5690438244735363,-3.8037944540210784,-1.1181901059833028,-5.219100330994375,-0.03761590268436611,0.032506370811575244,-0.03946932755233378,0.11518798935308439,0.11331216960469569,0.2720745825390317,-0.3325470089912414,-0.0974861904978752,-1.103060007095337,-0.1682000905275344,0.3635367155075073,0.3331665396690368
1749024711.5355213,-1.954191401476226,-1.7243202889102722,2.568965734746061,-3.8035636265763353,-1.1179599493615808,-5.218550310645022,-0.03786894470494975,0.03277836445495963,-0.03976218659397172,0.11599205026337651,0.11424778521004861,0.27396109379096434,-0.2933208048343658,-0.1408810913562774,-1.1285570859909058,-0.1949342489242553,0.3846674263477325,0.3159281313419342
1749024711.5355582,-1.9542649213579715,-1.7242502838095515,2.5688873637648486,-3.8033309909487842,-1.1177271906989352,-5.217996066487223,-0.03808206388566463,0.0330238355156995,-0.04004156261715955,0.11673466541261508,0.11521715440583556,0.2758556649552851,-0.3079826831817627,-0.1247002407908439,-1.123769760131836,-0.19942207634449,0.3752484917640686,0.3187615871429443
1749024711.535595,-1.9543390729907637,-1.7241800728178178,2.568808622927207,-3.8030966917922013,-1.117491662174882,-5.217437763412507,-0.038258770815138364,0.03323907455875857,-0.040311428720609596,0.11743414181948325,0.1162134683171024,0.27775557633753956,-0.3054499328136444,-0.1297721862792968,-1.119600772857666,-0.1726916134357452,0.3853541612625122,0.31230229139328
1749024711.535723,-1.9544138669627715,-1.7241099634249146,2.5687294076213054,-3.802860866438787,-1.1172532643129385,-5.216875601620957,-0.03840493780551888,0.033422223027600347,-0.04057639154555423,0.11810375773746765,0.11722568044475751,0.27965823060321915,-0.2960674464702606,-0.1291472613811493,-1.1183316707611084,-0.1360026597976684,0.3889743089675903,0.2896899282932281
1749024711.536531,-1.9544893096920535,-1.7240402162277735,2.56864960665172,-3.8026236598002776,-1.117011979921517,-5.216309796405007,-0.0385281211940312,0.0335736908529908,-0.04084112101305565,0.11875076390947616,0.1182392308002841,0.2815618770297357,-0.2954121530056,-0.1441989988088607,-1.1230828762054443,-0.1866818815469741,0.3807947933673858,0.3156187236309051
1749024711.57828,-1.9545654007138442,-1.7239710234410253,2.56856911108724,-3.8023852351706537,-1.1167678813462192,-5.215740555249488,-0.038636768808579705,0.033696301153326384,-0.04110990306122796,0.11937676626962339,0.11923723411895781,0.2834657372537739,-0.3123142421245575,-0.1331382989883422,-1.1434024572372437,-0.2071047872304916,0.3708754777908325,0.3007146120071411
1749024711.5783322,-1.954642129656729,-1.7239024933887956,2.568487821558789,-3.802145777483248,-1.116521130431838,-5.215168056380275,-0.038739392134771115,0.03379514236683223,-0.041386358620597474,0.11997925768241102,0.12020195516159146,0.285369542027262,-0.2883956730365753,-0.1264404356479644,-1.1252983808517456,-0.2088101804256439,0.3720622658729553,0.3173302412033081
1749024711.5783737,-1.9547194732829476,-1.7238346431252014,2.5684056535813196,-3.801905487545006,-1.1162719716385139,-5.214592432685219,-0.038843777565868806,0.03387714899795318,-0.041673342210631674,0.12055385697782611,0.121116352577686,0.28727265378404443,-0.3043513596057892,-0.1317105889320373,-1.1356713771820068,-0.2162807583808899,0.3692104816436767,0.3064082860946655
1749024711.578416,-1.9547973933258878,-1.7237674006685546,2.5683225410508106,-3.801664568050824,-1.116020719261197,-5.214013763728216,-0.03895631282550412,0.03395046505569723,-0.04197299122038573,0.12109672314338545,0.1219654978055443,0.2891730390334753,-0.3402653634548187,-0.1455656290054321,-1.1114978790283203,-0.2292244881391525,0.3525656461715698,0.3128505051136017
1749024711.5784671,-1.9548758362267893,-1.7237006169530797,2.5682384383483567,-3.8014232040470137,-1.1157677397568384,-5.213432076702153,-0.03908150813768556,0.03402366949740122,-0.0422868501185613,0.12160663908606176,0.12273773560492218,0.29106634590193114,-0.3019114136695862,-0.126827597618103,-1.110505223274231,-0.2292126566171646,0.3500362038612366,0.2855268120765686
1749024711.578508,-1.9549547358974813,-1.7236340859771728,2.568153321426457,-3.801181541603281,-1.1155134301792737,-5.212847355327216,-0.0392217759955881,0.03410496119047072,-0.04261597404007991,0.12208636570399946,0.12342550472345735,0.2929452629861225,-0.3158032894134521,-0.09767946600914,-1.133979320526123,-0.2092871963977813,0.3480687439441681,0.2798310816287994
1749024711.5785463,-1.955034020082188,-1.7235675703771358,2.5680671880725816,-3.8009396687717283,-1.1152581940517095,-5.2122595544597585,-0.03937748806434746,0.034201407105528804,-0.04296094306537672,0.12254302299920589,0.12402577390931357,0.2947992359644793,-0.3309893608093261,-0.1004814207553863,-1.123031497001648,-0.2299581170082092,0.3619585335254669,0.3134539723396301
1749024711.578585,-1.9551136197623438,-1.7235008289670792,2.567980057456714,-3.800697602478853,-1.1150024166332397,-5.211668617663038,-0.03954727205387962,0.0343183428970312,-0.04332177144532632,0.12298743906447866,0.12454008945944124,0.29661454622868155,-0.3171707093715668,-0.1234082579612732,-1.1069037914276123,-0.2182341814041137,0.3522231578826904,0.3080335557460785
1749024711.5786226,-1.95519347961192,-1.7234336425830983,2.5678919691367206,-3.8004552838888492,-1.1147464418377442,-5.211074495062217,-0.039728474429102524,0.03445898147093978,-0.043697734539369225,0.12343260144410342,0.12497428387687594,0.29837473676805754,-0.3236963450908661,-0.1076648384332656,-1.110870599746704,-0.1924715340137481,0.3447137176990509,0.3067651391029358
1749024711.5786602,-1.955273566417078,-1.723365834916827,2.5678029818035393,-3.8002125833281672,-1.1144905525267876,-5.210477159227434,-0.03991770526897676,0.03462425166720163,-0.04408714596761779,0.12389152813465236,0.12533794521976652,0.3000613868045928,-0.3350214064121246,-0.090005338191986,-1.1152451038360596,-0.2122571170330047,0.3505795001983642,0.3101353049278259
1749024711.5786977,-1.9553538724915447,-1.723297286045488,2.567713172012602,-3.7999693144095894,-1.1142349549606354,-5.209876617410958,-0.04011138820044622,0.03481287141732908,-0.04448711975680481,0.12437500860336943,0.12564376932894544,0.3016552395436118,-0.3254536390304565,-0.0966290086507797,-1.1098939180374146,-0.1800127625465393,0.3400167226791382,0.2897756695747375
1749024711.578735,-1.9554344127600558,-1.7232279378362325,2.5676226329471956,-3.7997252556103542,-1.1139797678368686,-5.209272919210234,-0.0403062497674579,0.03502164810802843,-0.044893366433733546,0.12488970246662627,0.12590689855534362,0.3031376444025027,-0.3272348642349243,-0.0891034305095672,-1.1204041242599487,-0.1533777266740799,0.3350529670715332,0.2968999445438385
1749024711.5787723,-1.9555152165270497,-1.7231577917084717,2.5675314730668988,-3.799480176268168,-1.1137250168039257,-5.208666159658495,-0.04049969605387321,0.03524597333543976,-0.04530008911646695,0.1254370113319232,0.1261442973247615,0.3044922000581762,-0.33274045586586,-0.1015202403068542,-1.1207456588745115,-0.1562034487724304,0.3476493954658508,0.2948498129844665
1749024711.578814,-1.955596316683954,-1.7230868999645157,2.5674398143939974,-3.7992338629770956,-1.1134706357269375,-5.2080564785132255,-0.04069004105511677,0.035480439272767644,-0.045700045432176165,0.12601298026136162,0.1263741520221315,0.30570642026651584,-0.3262605667114258,-0.1233920082449913,-1.1184715032577517,-0.1448900401592254,0.34253591299057,0.2826908528804779
1749024711.5788522,-1.9556777395702292,-1.7230153522716953,2.5673477900674264,-3.798986141986026,-1.1132164753543945,-5.207444056595874,-0.04087657109413098,0.035719471919593085,-0.04608481814910443,0.12660926851432758,0.1266152346633955,0.30677322019894276,-0.3246356844902038,-0.1230673864483833,-1.115183711051941,-0.171333834528923,0.3169618248939514,0.2808915972709656
1749024711.5788894,-1.95575949803911,-1.7229432593331737,2.5672555406140214,-3.79873689365408,-1.112962318464123,-5.206829109447954,-0.04105945111285544,0.03595787801400632,-0.046445302941573036,0.12721499156456567,0.1268861443285537,0.30769203700781517,-0.3221953213214874,-0.1032890081405639,-1.0998406410217283,-0.1727279126644134,0.3514524698257446,0.2573255896568298
1749024711.5789263,-1.9558415889363125,-1.7228707362439868,2.5671632083392377,-3.7984860564081075,-1.112707899152634,-5.206211877997738,-0.041239501454136594,0.03619124356042382,-0.04677238825620304,0.1278190371645713,0.12720434289276242,0.308469444882264,-0.3300517797470093,-0.0932036861777305,-1.0914959907531738,-0.1864024102687835,0.3386372923851013,0.2801294922828674
