nimar13/UR3e_dataset_trayectorias/trayectorias_ejecutadas_filtradas/jtraj/trayectoria_129_result_filtrado.csv
timestamp,q1,q2,q3,q4,q5,q6,qd1,qd2,qd3,qd4,qd5,qd6,tau1,tau2,tau3,tau4,tau5,tau6
1749028595.4222791,4.659043325880579,0.10584370685530961,-0.30195353611754594,-4.918816292304604,0.20599791825207397,2.535969498849805,0.017325159968954368,0.0008367070594319817,-0.001976616251818755,-0.014283322643697692,-0.0011538064110323068,0.007699169991087091,0.1692510843276977,-1.5188997983932495,-0.9235616326332092,0.2057499140501022,-0.5609994530677795,0.100907415151596
1749028595.4223258,4.659055735027515,0.10584730020871236,-0.3019576385733236,-4.918834352886791,0.2059979379144146,2.535971957658183,0.015019687118681358,0.0005781955158625648,-0.0017272113186721537,-0.012611310375722204,-0.0010262199932263574,0.006365165323756475,0.1348294615745544,-1.542239546775818,-0.9020254015922546,0.2179296463727951,-0.5557549595832825,0.0957917273044586
1749028595.42237,4.659068096726769,0.10585060531760795,-0.3019616624092241,-4.918851686136172,0.2059979312458017,2.5359743518451388,0.012733710101294891,0.0003089176858936699,-0.001484808468911108,-0.010952857946102576,-0.0009019882197538778,0.005066354239718137,0.1436847746372223,-1.578971028327942,-0.9107964634895324,0.2148843705654144,-0.5626330971717834,0.0951022207736969
1749028595.4224098,4.659079893521117,0.10585330040210972,-0.30196545820756626,-4.91886759603589,0.20599788459233606,2.535976556033053,0.010483947887865705,2.0208148332743844e-05,-0.0012549097572531235,-0.009322520478083544,-0.0007831292526258098,0.003837053836247206,0.1123972162604332,-1.585715651512146,-0.8974918723106384,0.2291402220726013,-0.548447847366333,0.0877445042133331
1749028595.4224484,4.659090601361227,0.10585511092823337,-0.30196888649420256,-4.918881506985336,0.20599778186716647,2.5359784591213805,0.008287651072675683,-0.00029485604909039773,-0.0010420055414601048,-0.007736415526633242,-0.0006713357345147349,0.002706507125132427,0.0896373614668846,-1.6096709966659546,-0.8854033350944519,0.2611361742019653,-0.5377145409584045,0.0983536839485168
1749028595.4224868,4.659099704060741,0.10585582782932207,-0.3019718244270993,-4.918893003868229,0.20599760275061102,2.535979968490046,0.0061628526366951306,-0.0006406044118794569,-0.0008492697746407963,-0.006212292301254249,-0.0005678884636508343,0.0016970970573666946,0.0813033506274223,-1.6191139221191406,-0.8739489316940308,0.2634312212467193,-0.5230968594551086,0.0762856900691986
1749028595.4225285,4.659106710039447,0.10585531845151568,-0.30197417034695934,-4.918901852294318,0.2059973240837516,2.5359810104763536,0.004128236544677301,-0.0010180664164008621,-0.0006784126687414033,-0.00476908010572083,-0.00047360472856433313,0.000823392406418386,0.0813033506274223,-1.6191139221191406,-0.8739489316940308,0.2634312212467193,-0.5230968594551086,0.0762856900691986
1749028595.422567,4.6591111717825076,0.10585353031605298,-0.3019758464829171,-4.918907998589022,0.2059969239055154,2.535981528964584,0.0022026089255147317,-0.001424483362839172,-0.00052969448831333,-0.0034259376276602016,-0.0003888224945944129,9.204425673977151e-05,0.0821809992194175,-1.6362563371658323,-0.8425761461257935,0.2975563406944275,-0.513216495513916,0.0778226852416992
1749028595.422604,4.6591127073600545,0.1058504884002476,-0.3019768004881958,-4.918911552051706,0.20599638677764642,2.535981484332876,0.00040405309734991337,-0.0018531172083626883,-0.0004020822991271587,-0.0022009313332721605,-0.0003134181450114374,-0.0004975776225852103,0.0697056874632835,-1.641077995300293,-0.8518993854522705,0.2961593866348266,-0.5223378539085388,0.0639732182025909
1749028595.4226418,4.659111022015063,0.10584628680027884,-0.30197700656340154,-4.918912754019548,0.20599570873044096,2.5359808540618656,-0.0012510641884451855,-0.002293425503238403,-0.00029351685492166597,-0.001109545537486617,-0.0002468553912906209,-0.0009522105144012261,0.0722120925784111,-1.6786338090896606,-0.8288813829421997,0.320945531129837,-0.51324063539505,0.0564239919185638
1749028595.4226828,4.6591059269240676,0.10584107574994575,-0.3019764666994784,-4.918911939202709,0.20599490031198622,2.535979634869794,-0.002749021163720861,-0.0027316443523814748,-0.00020124907335601836,-0.00016324983142141546,-0.0001882649096666142,-0.0012832314839361701,0.0468229204416275,-1.7153819799423218,-0.8337071537971497,0.3207264542579651,-0.5111286044120789,0.0425541102886199
1749028595.4227216,4.659097352317737,0.1058350452201775,-0.30197521218951723,-4.918909494644526,0.2059939867556087,2.535977845401991,-0.004079410616290118,-0.003151774800110541,-0.0001222031819800718,0.0006316774675325283,-0.00013655496349942453,-0.0015051355190357182,0.0350295081734657,-1.7272311449050903,-0.8316381573677063,0.3416430354118347,-0.4967764317989349,0.038285344839096
1749028595.4227583,4.65908535329222,0.10582840664397523,-0.3019733051918622,-4.918905820785342,0.20599300522826638,2.5359755285402694,-0.005235447050431497,-0.0035369011481104252,-5.332563123375043e-05,0.0012749226086449128,-9.055047228716966e-05,-0.0016341477798115477,0.0247369185090065,-1.7294660806655884,-0.8112878203392029,0.3397263586521148,-0.5067220330238342,0.0540215373039245
1749028595.422799,4.659070108339617,0.10582137455360416,-0.30197083980621636,-4.9189012979276665,0.20599200021468375,2.535972752746977,-0.006213929123813833,-0.003870691799254025,8.11506614796676e-06,0.0017724050636694045,-4.915244567026277e-05,-0.0016870795088088032,0.025523729622364,-1.7351609468460083,-0.8097577691078186,0.3528673052787781,-0.497500330209732,0.0350593030452728
1749028595.4228368,4.659051912004418,0.10581414993897208,-0.30196794186615306,-4.918896260276077,0.20599101865378175,2.5359696120154513,-0.007014968305120479,-0.004138874018429733,6.430281537383481e-05,0.0021359763485333276,-1.1503933934132719e-05,-0.0016804530321512718,0.0396432802081108,-1.7516024112701416,-0.8121558427810669,0.3567860722541809,-0.4839501082897186,0.059310644865036
1749028595.4228735,4.659031163458913,0.10580690685668537,-0.30196476659952065,-4.918890978722126,0.2059901060776176,2.535966224009254,-0.0076416195544678645,-0.004330470667962914,0.00011673603476217617,0.00238253234220752,2.2855480213287616e-05,-0.001629861219665586,0.0421349629759788,-1.7969176769256592,-0.8039624094963074,0.3655034005641937,-0.4938487708568573,0.040835291147232
1749028595.4229126,4.659008352132125,0.1057997833364454,-0.3019614935740081,-4.918885652591104,0.20598930404913537,2.5359627260758675,-0.008099512221015969,-0.004438649789970686,0.00016617855693163255,0.0025325996670107196,5.386655888771796e-05,-0.0015495063552189035,0.038366787135601,-1.811005711555481,-0.7941537499427795,0.3720196783542633,-0.4918102920055389,0.0397855341434478
1749028595.4229815,4.658984040382147,0.10579287713282157,-0.3019583188176342,-4.918880409716087,0.20598864837557332,2.5359592690367623,-0.008396519786223505,-0.004461133126773636,0.00021269119162264515,0.002608548290657148,8.087835723718782e-05,-0.0014518740961928715,0.0415100529789924,-1.8050100803375244,-0.8046966195106506,0.3860830962657928,-0.491780012845993,0.0311971604824066
1749028595.4230464,4.658958842474073,0.10578624637512446,-0.30195544442468286,-4.918875313577062,0.20598816737983294,2.5359560088788435,-0.008542464565634506,-0.00440018685467883,0.000255731041763868,0.002632652791856183,0.00010264474880737262,-0.001347518394493125,0.0435769334435462,-1.8378398418426516,-0.797366201877594,0.3967559039592743,-0.4810480773448944,0.0202759206295013
1749028595.4231014,4.658933399466004,0.10577991458127296,-0.3019530661782623,-4.9188703758365335,0.2059878799376069,2.535953096692726,-0.008548841517351653,-0.004262252885469607,0.00029430453796404197,0.002625245845458609,0.00011740296878925947,-0.0012449462298313797,0.0602090284228324,-1.8290907144546509,-0.7886011004447937,0.4052753150463104,-0.4923277199268341,0.0266144573688507
1749028595.4232142,4.658908350795453,0.10577387888348208,-0.30195135984518046,-4.918865572336179,0.2059877936326477,2.535950667471421,-0.00842855326709511,-0.004057285393680487,0.0003271598592819138,0.0026031762268417446,0.00012304164588299618,-0.001150591915106695,0.0630129501223564,-1.8387856483459477,-0.7865146994590759,0.3978323638439178,-0.4969262778759002,0.0323374569416046
1749028595.4252014,4.658884304565983,0.10576811987308816,-0.3019504670173965,-4.918860860483207,0.20598790373321593,2.5359488286826504,-0.00819565665789457,-0.0037978609971699613,0.0003530025676123689,0.0025787173981679777,0.00011735784364201971,-0.0010688633962070279,0.0429784953594207,-1.8393340110778809,-0.7958438992500305,0.410295158624649,-0.4892637431621551,0.0279546082019805
1749028595.4662793,4.658861809184278,0.10576261141787849,-0.30195048172151273,-4.918856195991775,0.20598819348577027,2.535947649799947,-0.007865117103221346,-0.0034981449759028354,0.00037071456017463337,0.002558997265528743,9.839288119579335e-05,-0.001002235229621284,0.0527196377515792,-1.837294578552246,-0.7928043603897095,0.4048527181148529,-0.4907320439815521,0.0157219469547271
1749028595.4663253,4.658841329048945,0.1057573292569743,-0.3019514393509341,-4.91885154717182,0.2059886356759995,2.535947154193984,-0.007452554851117519,-0.00317281358642153,0.00037955300774804063,0.002545957053928344,6.482571670210479e-05,-0.0009513622019552917,0.0715991705656051,-1.830047845840454,-0.7865031957626343,0.4008916914463043,-0.4908695518970489,0.0409581959247589
1749028595.466366,4.658823226583583,0.1057522579431019,-0.3019533095676473,-4.918846905394296,0.20598919505764812,2.535947314891507,-0.00697396153067754,-0.002836039713091235,0.00037930627050800216,0.0025368063637385687,1.6391339330553463e-05,-0.0009151968739967247,0.0601423978805542,-1.817385196685791,-0.8004202842712402,0.4022857248783111,-0.4899372160434723,0.0256952941417694
1749028595.466405,4.65880775216129,0.10574739624710346,-0.30195599448167554,-4.918842291005641,0.20598983140703153,2.5359480555356875,-0.0064453735734595315,-0.0025006376205162105,0.0003703895119796086,0.0025249159918449226,-4.571896019062002e-05,-0.0008911111683537356,0.0384767204523086,-1.830026149749756,-0.7921222448348999,0.404281884431839,-0.4879105985164642,0.030685931444168
1749028595.4664433,4.658795042476796,0.10574276111376357,-0.3019593327025139,-4.918837754641163,0.2059905033455638,2.5359492572395324,-0.005882504439980471,-0.0021774351130144174,0.0003538717610917862,0.0025010660220720275,-0.00011852710498742126,-0.0008750405145281099,0.0746022909879684,-1.8087289333343504,-0.7954041957855225,0.4042037427425384,-0.5109834671020508,0.0421783030033111
1749028595.4664814,4.658785126720593,0.10573838986290897,-0.3019631091056928,-4.918833374287473,0.20599117313085943,2.5359507709377227,-0.0053003512753324504,-0.001874906683711924,0.00033143470569194604,0.0024549347286573625,-0.00019706431751748203,-0.0008616827065092362,0.0597468018531799,-1.819363594055176,-0.7978821992874146,0.3979673683643341,-0.5116186738014221,0.0438335239887237
1749028595.46652,4.658777938651346,0.10573433998985435,-0.3019670696463257,-4.918829248533052,0.20599181216077497,2.535952433650046,-0.004712803659606727,-0.001599067271226982,0.00030526929668435254,0.0023766787897398383,-0.0002743509016251846,-0.000844788272239293,0.0494285374879837,-1.8129961490631104,-0.7910705804824829,0.4015736877918243,-0.4975046217441559,0.0374850332736969
1749028595.466558,4.658773331814667,0.10573068586925428,-0.30197094022102794,-4.918825486617429,0.20599240631412963,2.535954086203242,-0.004132293982932149,-0.0013535978706859522,0.0002779193114824555,0.002258435945555931,-0.0003416112028308317,-0.0008175738836473377,0.0555742383003234,-1.812305212020874,-0.7989293336868286,0.4009083211421966,-0.4991209208965301,0.0417292714118957
1749028595.4665952,4.6587710951888495,0.1057275119603112,-0.30197444821080643,-4.918822196378016,0.2059929599626442,2.535955589651376,-0.003569535182646451,-0.001140153805001383,0.00025208238137016027,0.002095596812365302,-0.0003887627067363151,-0.0007732770519074072,0.0695588588714599,-1.8051989078521729,-0.8095468878746033,0.4163183867931366,-0.4959427416324615,0.0197953879833221
1749028595.4666324,4.658770967398002,0.105724902752317,-0.3019773448693529,-4.918819471638254,0.20599349772541203,2.5359568379155704,-0.003033385884242404,-0.0009587945247380033,0.0002303796445604939,0.0018877437615722732,-0.0004051984509427368,-0.0007058517717986314,0.0691006928682327,-1.8073294162750244,-0.7903885841369629,0.3922944962978363,-0.5074058175086975,0.0332563817501068
1749028595.466672,4.6587726488428425,0.1057229305624515,-0.30197942631918356,-4.91881738054758,0.20599406357901168,2.5359577649437135,-0.002530867074787346,-0.0008084700093773356,0.0002151058775275057,0.0016392193448998293,-0.0003808551772330888,-0.0006107828737844338,0.0458432286977767,-1.773470163345337,-0.7934560775756836,0.4041630923748016,-0.5036856532096863,0.0326541662216186
1749028595.4667108,4.6587758123058185,0.10572164305328914,-0.3019805508428574,-4.918815955951617,0.205994717413052,2.535958345724731,-0.002067335238333816,-0.00068750305398829,0.00020797309953118591,0.0013593371069418364,-0.0003075270759154401,-0.00048597305121254875,0.0576701909303665,-1.7812447547912598,-0.7903048992156982,0.4157186448574066,-0.5088469982147217,0.0438441932201385
1749028595.4667482,4.658780113514414,0.10572105259472246,-0.301980650571165,-4.918815188378855,0.20599552934613838,2.5359585914590754,-0.0016467987333525437,-0.000594018649166395,0.0002098623481912501,0.0010622707593099373,-0.00018034865423147158,-0.0003326327536599064,0.0934286564588546,-1.762803077697754,-0.7851529121398926,0.4030067026615143,-0.496852844953537,0.0349052846431732
1749028595.4667854,4.658785203232604,0.10572112933816488,-0.3019797364688907,-4.918815021814375,0.2059965721017202,2.5359585398810554,-0.0012723471786842543,-0.0005262891304341816,0.00022060041101198405,0.0007666577451385313,6.667547389735354e-07,-0.0001560820937070199,0.0643954575061798,-1.788954496383667,-0.8015197515487671,0.404679536819458,-0.4962178766727447,0.040498673915863
1749028595.4668226,4.658790741358616,0.10572179936428487,-0.3019778963795933,-4.918815352060632,0.20599791154124303,2.535958242070229,-0.0009466476102861951,-0.00048298256975646604,0.00023878035053682967,0.000494941280654453,0.00022918009764311034,3.364119131289367e-05,0.0659691244363784,-1.748704195022583,-0.7909824848175049,0.3942255079746246,-0.5208029747009277,0.0480665564537048
1749028595.466859,4.658796411849219,0.10572294855331274,-0.3019752865820498,-4.918816027181628,0.20599959518597513,2.5359577471286436,-0.0006724480692172603,-0.00046331764227269134,0.0002616460845230867,0.00027246104103887395,0.0004913444777674117,0.0002214795902681718,0.0601985305547714,-1.781252384185791,-0.8066205978393555,0.4149430394172668,-0.5086334347724915,0.0411237776279449
1749028595.4668963,4.658801936130099,0.1057244317539676,-0.3019721178675578,-4.918816849399996,0.20600163847181183,2.5359570861075134,-0.0004530214397192506,-0.00046713814748539046,0.00028506138237480627,0.0001262946031645504,0.0007650740243648148,0.00038746511389711215,0.0184902846813201,-1.821431398391724,-0.8122307658195496,0.4139243960380554,-0.532052218914032,0.0600235164165496
1749028595.4669335,4.6588070825058585,0.10572608558221781,-0.30196863767866494,-4.918817577984655,0.20600400881667752,2.535956256843293,-0.0002924814375063215,-0.0004949236300957753,0.00030358167031884154,8.385572800980059e-05,0.0010199453752317864,0.0005073250259778605,0.0225982964038848,-1.840494394302368,-0.8249261379241943,0.4103069603443146,-0.5232310891151428,0.0519938766956329
1749028595.4669704,4.658811669844603,0.10572774235002894,-0.3019651103013842,-4.918817933124206,0.20600660841958346,2.5359552118418383,-0.00019591030367078932,-0.0005477494044737052,0.00031064223811759197,0.00017127472560098087,0.0012178870575171373,0.0005536328074497273,0.025646761059761,-1.85247540473938,-0.8418154120445251,0.4174886047840118,-0.539322555065155,0.0438394844532012
1749028595.4670072,4.658815565190121,0.10572924260680693,-0.3019617973009415,-4.918817601298234,0.2060092578454997,2.535953851539149,-0.00016925557742067813,-0.0006272003066155924,0.0002988681950512224,0.0004116192984834863,0.001314761380187381,0.0004975018247650652,0.0178734362125396,-1.8496038913726809,-0.8530057668685913,0.4230927526950836,-0.531246542930603,0.0486790835857391
1749028595.467126,4.658818676511681,0.10573044442696414,-0.3019589402208497,-4.91881624290234,0.2060116833778834,2.535952024688377,-0.00021898150574047663,-0.0007352299460523111,0.00026049975275824536,0.0008230559223801277,0.0012628680874678187,0.00031075513680426926,0.0080970525741577,-1.858022689819336,-0.8554115891456604,0.4399056732654571,-0.5581427812576294,0.042022168636322
1749028595.4691508,4.658820942882589,0.10573122847907325,-0.30195674704111675,-4.918813502700342,0.20601351132678616,2.5359495362849414,-0.0003514968902399422,-0.0008739486325920091,0.0001879119041645037,0.0014170929771694827,0.001014301619604569,-3.156708252413456e-05,0.0042889267206192,-1.852494239807129,-0.8847658038139343,0.4353557229042053,-0.561140239238739,0.0290233790874481
1749028595.5102882,4.658822324454246,0.10573149881803791,-0.3019553831602658,-4.918809023198947,0.20601427179608162,2.5359461618742403,-0.0005724201468067047,-0.001045330034731376,7.419191278004013e-05,0.002197076163424566,0.0005249807373665039,-0.0005485735345772863,0.0129362940788269,-1.8673243522644043,-0.8872480392456055,0.4422331154346466,-0.5811291337013245,0.0260087251663208
1749028595.510337,4.658822793669322,0.10573118018611195,-0.30195496698436036,-4.91880246049539,0.20601341309937102,2.5359416658945517,-0.0008857765620371617,-0.001250854111686199,-8.6276673102365e-05,0.003157113509369081,-0.00024094893482764433,-0.001251035323582876,-0.0066685676574707,-1.884817600250244,-0.8898585438728333,0.443932443857193,-0.5888743996620178,0.0231325328350067
1749028595.5103788,4.658822327804451,0.10573021320901621,-0.3019555697718845,-4.9187935016769995,0.2060103265682036,2.535935821159472,-0.0012932448405164232,-0.0014911418021400797,-0.0002972860068769701,0.004281585981738205,-0.0013067471277807578,-0.002139362419783255,-0.0366217046976089,-1.8892033100128172,-0.9109254479408264,0.4625803828239441,-0.609840452671051,-0.0006033480167388
1749028595.510418,4.658820901985106,0.10572854895795004,-0.3019572191400053,-4.91878188251763,0.20600438031825913,2.5359284266470445,-0.0017935742491114327,-0.001765665311887057,-0.000560399344839243,0.005545352712747411,-0.0026792323438753524,-0.0032023632084094084,-0.0537697151303291,-1.9038188457489011,-0.9282590746879578,0.4640297889709472,-0.6349774599075317,-0.0136422365903854
1749028595.5104554,4.658818481900434,0.10572614390906515,-0.30195990542680123,-4.918767404083158,0.20599495969178058,2.5359193213634557,-0.002382275123204584,-0.002072620139525802,-0.0008747328336660652,0.006914694906345741,-0.0043459691599175045,-0.004417059688825738,-0.0521027073264122,-1.9010274410247805,-0.930576503276825,0.4626787602901459,-0.6497892737388611,-0.0130239874124526
1749028595.5104923,4.65881501649067,0.10572295568158067,-0.3019635899799552,-4.918749946945054,0.20598151141636345,2.535908393090286,-0.003051641314233589,-0.002409015297453207,-0.0012369702772914233,0.008348969496505399,-0.006273953422321362,-0.005749720250609828,-0.0597754158079624,-1.8964272737503047,-0.9394933581352234,0.4754402339458465,-0.6762304902076721,-0.0323152393102645
1749028595.5105302,4.658810432079082,0.10571893946234125,-0.3019682145574563,-4.918729481893845,0.20596358794566824,2.535895581981093,-0.003791098400935665,-0.002770982177046321,-0.0016416279921369725,0.009802875671044656,-0.008410124651750858,-0.007158106633345306,-0.0351702123880386,-1.9020029306411743,-0.930583655834198,0.4813106954097748,-0.6763502955436707,-0.0263913571834564
1749028595.510568,4.658804629871071,0.10571404503053233,-0.3019737112584767,-4.918706076168526,0.20594088811779976,2.535880879750533,-0.0045878061478893005,-0.003154239709657732,-0.002081547255076847,0.011229189439947334,-0.010683828996072755,-0.008594749143410508,-0.0767853111028671,-1.916315197944641,-0.9413310885429382,0.50225830078125,-0.6756414175033569,-0.0513223409652709
1749028595.510605,4.658797488128832,0.1057082147705583,-0.3019800124221659,-4.918679894240284,0.20591329030538258,2.5358643253397184,-0.005427406764492398,-0.0035546128994924345,-0.0025485515144553156,0.012581798778384341,-0.01301112141244839,-0.010010916356257261,-0.0619568452239036,-1.924495339393616,-0.9583919644355774,0.4978072047233581,-0.7204998135566711,-0.0495384633541107
1749028595.510645,4.6587888690153845,0.10570138348959959,-0.30198705962536765,-4.918651192314193,0.20588087453497575,2.535845997639445,-0.006294816426569867,-0.003968501413844222,-0.003034177270927292,0.013818860160094272,-0.01530058051289067,-0.011360864521275538,-0.0823908746242523,-1.9476042985916135,-0.9628921151161194,0.5204020738601685,-0.7160931825637817,-0.0640559792518615
1749028595.5106845,4.658778628780818,0.10569348067217714,-0.3019948105547138,-4.918620306171851,0.20584393044635846,2.535826005500574,-0.007174990622822448,-0.004393224229596453,-0.003530379469024512,0.014905874649543066,-0.017460138433148267,-0.012605933085894857,-0.0905132964253425,-1.9256707429885864,-0.9543660283088684,0.5097360014915466,-0.7296936511993408,-0.0724436193704605
1749028595.5107214,4.658766629256638,0.10568443509248585,-0.30200324255023725,-4.9185876326768705,0.20580294854009118,2.5358044751156066,-0.00805362508169581,-0.0048271982411548595,-0.004030122437139651,0.015818444538853,-0.01940430207406629,-0.013718073247216057,-0.0925564765930175,-1.9341460466384888,-0.9598204493522644,0.4961429834365845,-0.7172139883041382,-0.0636223405599594
1749028595.5107586,4.658752748737916,0.10567418109106248,-0.30201235222340017,-4.9185536058598025,0.20575859336811086,2.535781534975973,-0.008917768254223832,-0.005269927864831739,-0.004527788252418278,0.016544443366976715,-0.021061066332512795,-0.01468244328717276,-0.0971531271934509,-1.952170491218567,-0.961124062538147,0.5093029141426086,-0.6955810189247131,-0.0738277286291122
1749028595.510796,4.658736890979804,0.10566266568938285,-0.30202215155153983,-4.918518668877956,0.20571165948765963,2.535757298981858,-0.009756322731750942,-0.005721795632323359,-0.005019361702125253,0.017085346104452174,-0.02237781964467805,-0.015498782938521792,-0.1054210811853408,-1.9584665298461916,-0.957334041595459,0.5025492310523987,-0.6720480918884277,-0.0593602508306503
1749028595.5108333,4.658718991753414,0.10564985585809838,-0.3020326617895335,-4.918483243481161,0.20566301373184673,2.535731848861448,-0.01056041265222532,-0.006183664681434731,-0.005502385206867862,0.01745653935671601,-0.02332564171899228,-0.01618139986481844,-0.0907871723175048,-1.9629557132720947,-0.9643267393112184,0.5049382448196411,-0.6731069087982178,-0.0512085855007171
1749028595.5108702,4.6586990229306355,0.10563574527667148,-0.3020439069982508,-4.918447698949562,0.2056135296501472,2.535705217622009,-0.011323600210452266,-0.006656337126327177,-0.00597571591198042,0.01768655141861123,-0.023901586223629943,-0.016757761481830283,-0.1314642429351806,-1.988723993301392,-0.9832926988601683,0.4997919797897339,-0.6647393703460693,-0.0809739381074905
1749028595.5109074,4.658676994361669,0.10562035974515704,-0.3020559088054485,-4.918412322669219,0.20556402105171384,2.5356773759341267,-0.012041947676386932,-0.007139947729971074,-0.006439151532707001,0.017815273744256278,-0.024128785011688955,-0.01726585833304418,-0.1503485292196273,-1.9871563911437988,-0.9686259031295776,0.5092500448226929,-0.6541821956634521,-0.0534608513116836
1749028595.5109444,4.658652953887303,0.10560376029846524,-0.302068683326367,-4.9183772945452695,0.20551518134930982,2.5356482230425876,-0.01271393634368129,-0.007633395096721963,-0.006893009428117771,0.017891351481692772,-0.02405444941115664,-0.01775065258226823,-0.1489104330539703,-1.9916439056396484,-0.9720078706741332,0.5147891044616699,-0.6417914032936096,-0.085003525018692
1749028595.5109808,4.658626985658142,0.10558604325312712,-0.3020822403017373,-4.918342667372925,0.20546753421036174,2.535617583336593,-0.013340265355120163,-0.008133914093661928,-0.007337737772476717,0.01796898215733097,-0.02374603785927832,-0.018260019284795887,-0.1640346050262451,-1.9927351474761963,-0.9861221313476562,0.5165201425552368,-0.6473174095153809,-0.096824325621128
1749028595.511018,4.658599206541934,0.10556733680306135,-0.30209658379880316,-4.918308355023777,0.20542139930918935,2.535585209384909,-0.01392355954526714,-0.008636874572282344,-0.007773612643246199,0.018104382598945513,-0.023285995542933872,-0.018840621445493252,-0.176450565457344,-2.007073163986206,-0.9768637418746948,0.5350459814071655,-0.6465404629707336,-0.0835690647363662
1749028595.5111678,4.658569760044637,0.10554779417638606,-0.3021117134865696,-4.918274129730028,0.20537687511712982,2.535550791946023,-0.014468014129532079,-0.009135858189636869,-0.008200543272722453,0.01835217989582513,-0.022765557524861302,-0.01953413763078478,-0.1702257990837097,-2.019590139389038,-0.9780094623565674,0.524715781211853,-0.6485903859138489,-0.1146967336535453
1749028595.5131292,4.658538807266455,0.1055275837468896,-0.30212762556027745,-4.918239628906542,0.20533383894029242,2.53551397691737,-0.01497899387728735,-0.009623022965328515,-0.008617981478879416,0.018761966156067917,-0.022278153036449262,-0.020374193462632827,-0.1739531606435775,-2.0260040760040283,-0.969022810459137,0.5361912846565247,-0.657778263092041,-0.1088091358542442
1749028595.5582955,4.658506515194835,0.10550687693828165,-0.3021443127041327,-4.918204371060674,0.20529196290004773,2.535474388169009,-0.015462592457860013,-0.010089722135026577,-0.009024914149808504,0.019375238213290683,-0.02191296227917547,-0.021384247443024685,-0.1590932160615921,-2.0130271911621094,-0.974325954914093,0.5455663204193115,-0.653937578201294,-0.1335758864879608
1749028595.5583403,4.658473043855278,0.10548583517687951,-0.30216176289311136,-4.918167779578713,0.2052507431953851,2.535431653786129,-0.0159251579471034,-0.01052730971310171,-0.009419908540149374,0.02022292424983005,-0.021749156348816055,-0.0225765580499328,-0.1755871176719665,-2.0328290462493896,-0.9678815007209778,0.5493520498275757,-0.6904200911521912,-0.1482133120298385
1749028595.5583794,4.658438534764553,0.10546459728505551,-0.3021799572829282,-4.9181292125915395,0.20520953888460877,2.5353854320688796,-0.016372808721874618,-0.010928045267610837,-0.009801179797479076,0.021323670166886577,-0.021851284276184758,-0.023952227264707873,-0.165611132979393,-2.0463993549346924,-0.9814833998680116,0.5608513355255127,-0.7050820589065552,-0.1240750551223754
1749028595.5584176,4.658403103007116,0.10544326848919502,-0.30219886785296635,-4.918087996726802,0.2051676158715466,2.535335433530823,-0.016810987945907532,-0.011286001133487312,-0.010166659623888928,0.022683006742137513,-0.022266149510069288,-0.025502197992291902,-0.1773644238710403,-2.050976037979126,-0.9791762232780457,0.57533198595047,-0.7114279866218567,-0.1571227610111236
1749028595.558455,4.65836683407106,0.10542191193152581,-0.3022184557037684,-4.918043462369717,0.20512419192595385,2.535281436151612,-0.017244115061126518,-0.01159786784130324,-0.010514060158566735,0.024293442775503608,-0.0230213495176545,-0.027209000932827354,-0.1723568737506866,-2.04607892036438,-0.9678518176078796,0.5750939249992371,-0.7141343951225281,-0.1446525752544403
1749028595.558494,4.658329785192726,0.10540054350980595,-0.30223867088025547,-4.917994978064578,0.20507847923956982,2.535223292509517,-0.0176753808249059,-0.011863545143510443,-0.010840941721287583,0.02613544074201821,-0.024125462177656005,-0.029049006685686895,-0.1625746786594391,-2.0598480701446533,-0.9828807711601256,0.5852521061897278,-0.714192271232605,-0.1627357602119445
1749028595.5585315,4.658291990194801,0.10537913086937607,-0.30225945436730084,-4.91794198186772,0.20502972194857355,2.535160928540519,-0.01810670660831339,-0.012086409855319257,-0.011144804543594346,0.028179144742957605,-0.02556968480410016,-0.030994929547455027,-0.1790607869625091,-2.028210401535034,-0.9771648645401,0.6016449332237244,-0.718363881111145,-0.1754589080810547
1749028595.5585694,4.658253466683369,0.10535759701267576,-0.302280742571094,-4.9178840078057835,0.2049772270179178,2.535094334608366,-0.018538863301495567,-0.012273187959550005,-0.01142323164929227,0.030386660297486844,-0.027330598307929315,-0.03301833520793549,-0.1732623279094696,-2.0640203952789307,-0.9931453466415404,0.6179761290550232,-0.7363269925117493,-0.1694250553846359
1749028595.5586069,4.658214224531216,0.1053358281407,-0.3023024741088253,-4.917820706079235,0.20492038767000298,2.535023550557982,-0.018971728633769027,-0.012433428449560982,-0.011674107607214834,0.03271464641237308,-0.029373660076545318,-0.03509192257596952,-0.1817959994077682,-2.0728678703308105,-0.984200954437256,0.6093246936798096,-0.7463692426681519,-0.1779492795467376
1749028595.5586443,4.658174274510454,0.10531368442448596,-0.30232459804136924,-4.9177518561661895,0.20485869899466222,2.5349486473231306,-0.019404651833336273,-0.012578654764232674,-0.011895920448348878,0.035116983626673655,-0.03165702138651459,-0.03719138963323382,-0.1693677306175232,-2.0872132778167725,-0.9878696203231812,0.6180624961853027,-0.7559927105903625,-0.1845644861459732
1749028595.5586812,4.658133635732144,0.1052910120040999,-0.3023470819797334,-4.917677372380598,0.204791765528957,2.5348697080951115,-0.01983688359014663,-0.012721327405156661,-0.012088122578063118,0.03754732662459447,-0.03413529615074178,-0.03929675914315803,-0.160670131444931,-2.0853404998779297,-0.9911984205245972,0.6201612949371338,-0.7565458416938782,-0.1807015985250473
1749028595.5587184,4.658092340369684,0.10526765475439642,-0.3023699181258527,-4.917597301758817,0.20471930067774347,2.534786811845973,-0.02026801421893904,-0.01287377587279923,-0.012251492128729669,0.03996141793921809,-0.03676295538563558,-0.04139311892652793,-0.1704081296920776,-2.1210265159606934,-0.9872426390647888,0.613976001739502,-0.7668213248252869,-0.1878845542669296
1749028595.5587552,4.658050434226433,0.10524346488017583,-0.3023931255414665,-4.917511814594883,0.2046411181991992,2.5347000212012283,-0.020698351635615637,-0.013047248101225187,-0.012388414626652496,0.04231910163341536,-0.03949707975071149,-0.04347079926098319,-0.1714406907558441,-2.0910561084747314,-0.9833740592002868,0.6369374394416809,-0.77036052942276,-0.1989053636789322
1749028595.5587912,4.658007972274384,0.10521831186847956,-0.3024167477412455,-4.917421188519884,0.20455711683927674,2.5346093754645764,-0.021129176703023427,-0.01325118444528934,-0.012503005024787534,0.04458601244447483,-0.04229927707145097,-0.04552505495986646,-0.1575876176357269,-2.102569580078125,-0.966735541820526,0.6180599927902222,-0.7563781142234802,-0.1918146312236786
1749028595.558828,4.65796500944935,0.1051920896927564,-0.30244084573057,-4.917325787405329,0.20446726044698166,2.5345148883987334,-0.02156284232547181,-0.013492765847660055,-0.012601011748802892,0.04673492358907169,-0.04513666609058504,-0.047555353260621755,-0.1742909699678421,-2.1163599491119385,-0.973506510257721,0.6194359660148621,-0.7780816555023193,-0.1813644617795944
1749028595.5588644,4.65792158846457,0.10516472246403807,-0.30246548747122487,-4.917226036368901,0.20437155706080826,2.534416549672702,-0.022002723968315277,-0.013776736858364743,-0.012689485006393246,0.048746723351251575,-0.04798193342827354,-0.04956440548864754,-0.1928808689117431,-2.1091880798339844,-0.9750530123710632,0.5848929286003113,-0.7613978385925293,-0.1984657794237136
1749028595.558901,4.657877727424329,0.10513616878626339,-0.3024907353378507,-4.91712239401567,0.20427004101410307,2.5343143288666816,-0.022453062761973192,-0.014105478691629716,-0.012776246907837789,0.05061097335703307,-0.05081257374071326,-0.051557111274539894,-0.1933899819850921,-2.117056131362915,-0.9848002791404724,0.5881108045578003,-0.7693671584129333,-0.2147387862205505
1749028595.5589373,4.657833409978947,0.10510642466846991,-0.30251663353056796,-4.917015323124567,0.20416276182330215,2.534208181196145,-0.02291875317428209,-0.014479298830283802,-0.012869256502616526,0.052326006089919906,-0.05360951346005388,-0.053539579615932906,-0.2006108164787292,-2.1252455711364746,-0.9875909686088562,0.6056586503982544,-0.7716702222824097,-0.1952255070209503
1749028595.558975,4.657788579922866,0.10507552412946032,-0.3025431976761276,-4.916905261334793,0.20404978252227182,2.5340980542098213,-0.023405115518887607,-0.014896895644119156,-0.012975994743380686,0.05389856401181162,-0.056355391275100634,-0.05551833396765082,-0.2035651504993438,-2.147678136825561,-0.993215560913086,0.6136975288391113,-0.7715626955032349,-0.210987314581871
1749028595.559013,4.65774314122278,0.1050435361949985,-0.3025704087936735,-4.916792593704148,0.2039311883146646,2.533983894612517,-0.0239176701205531,-0.015355940885829976,-0.013102984564307332,0.055343050889990406,-0.059032815219655706,-0.057499716331451206,-0.2211981117725372,-2.146047592163086,-1.0044000148773191,0.6214497685432434,-0.7763084769248962,-0.226015418767929
1749028595.559054,4.657696963810049,0.10501055732141633,-0.30259821318817853,-4.916677629011828,0.20380710418633874,2.5338656543757305,-0.024461905400676207,-0.015853703305524488,-0.013255512064852903,0.056680509601225074,-0.06162292182049992,-0.059489421853114045,-0.2235317081212997,-2.1414406299591064,-0.9851759076118468,0.6215614676475525,-0.7768421769142151,-0.2112621366977691
1749028595.5591078,4.657649894856508,0.10497669929461158,-0.30262652869263434,-4.91656058138571,0.20367771795980366,2.533743295618718,-0.025043013005700828,-0.016387622763414225,-0.01343754853845578,0.057937423432995794,-0.06410451732834378,-0.06149206031739968,-0.2071741968393325,-2.136781692504883,-0.9807797074317932,0.6063621044158936,-0.7433783411979675,-0.208048403263092
1749028595.5593145,4.657601774331388,0.10494207381822354,-0.30265525634873724,-4.916441558471671,0.20354330374685062,2.5336167942688577,-0.02566555860679915,-0.01695574670650193,-0.013651818832457696,0.05914437036417702,-0.06645399629979916,-0.06351066432091909,-0.23551045358181,-2.144070863723755,-0.9855110049247742,0.5979735851287842,-0.7453498840332031,-0.2008018642663955
1749028595.5611303,4.657552452449706,0.10490677579612252,-0.3026842955343111,-4.916320557004234,0.20340424010477812,2.533486142952648,-0.026333081184402796,-0.01755696504822902,-0.01389993961630578,0.06033449032141223,-0.06864613967350891,-0.0655461275199912,-0.2508417963981628,-2.162932872772217,-0.987979769706726,0.57587069272995,-0.7340331077575684,-0.2109788358211517
1749028595.602286,4.657501805729924,0.10487086753211329,-0.3027135600508075,-4.916197466177073,0.2032610173951939,2.5333513536003913,-0.02704766774935369,-0.018191020361444682,-0.014182563684020665,0.06154170486079366,-0.07065581380819116,-0.06759663222451866,-0.2669398188591003,-2.1562740802764893,-0.9788100719451904,0.5784169435501099,-0.7394598722457886,-0.2207398563623428
1749028595.602332,4.657449748401286,0.10483436584475082,-0.3027429928657748,-4.916072078596309,0.20311422989212832,2.5332124597506986,-0.027809605329051922,-0.01885831539355814,-0.014499498655138957,0.06279868413358884,-0.07246050739725676,-0.06965718745314094,-0.254253089427948,-2.1770052909851074,-0.9991595149040222,0.6121922731399536,-0.7510564923286438,-0.2220992147922516
1749028595.602372,4.657396236914598,0.10479723366147559,-0.3027725778093727,-4.915944107881258,0.20296455011461684,2.5330695178387046,-0.028617225268585882,-0.01955957721763571,-0.014849799623687727,0.0641346736699373,-0.07404351887044577,-0.07171942188849674,-0.253289520740509,-2.162784576416016,-0.990529477596283,0.634431779384613,-0.7189881205558777,-0.2319041192531585
1749028595.6024103,4.657341266791409,0.10475937710632574,-0.30280234712280796,-4.915813211243301,0.20281268553889245,2.532922606447419,-0.029467012131390375,-0.020295458661180397,-0.015231850765535767,0.06557341108433426,-0.07539744057668205,-0.07377174640512611,-0.2738948464393616,-2.1787922382354736,-0.9928728342056274,0.6363428831100464,-0.6896148920059204,-0.21682870388031
1749028595.6024482,4.657284862356659,0.1047206483761982,-0.3028323841340811,-4.915679014801318,0.20265932098070036,2.5327718229185803,-0.03035397743588283,-0.021066158418096538,-0.015643448356060307,0.06713140180419079,-0.07652743472363828,-0.07579993067348677,-0.276951789855957,-2.197669267654419,-0.9920142889022828,0.6220483183860779,-0.6866500973701477,-0.2180150896310806
1749028595.6024857,4.657227060782993,0.10468085387124239,-0.3028628206306792,-4.915541139217124,0.20250505297584828,2.5326172775369638,-0.03127223442922157,-0.021871122721340345,-0.016081886203911506,0.06881675718398252,-0.0774537393185834,-0.07778806717075709,-0.263982892036438,-2.199668884277344,-0.9830834865570068,0.6338542699813843,-0.6939194202423096,-0.2189435362815857
1749028595.6025236,4.657167892519696,0.10463976638808364,-0.3028938289500099,-4.915399223521492,0.20235032459875288,2.5324590860741156,-0.03221567143081192,-0.02270886194636953,-0.01654403687600107,0.07062867942707879,-0.0782129172759191,-0.07971985880130399,-0.2957398593425751,-2.1916816234588623,-0.9937624931335448,0.6441174745559692,-0.6985030174255371,-0.2271212637424469
1749028595.6025612,4.657107360802703,0.10459713990673102,-0.3029256094781747,-4.915252945598936,0.2021953696759431,2.53229736151713,-0.03317860773050334,-0.02357688514352523,-0.017026424061016534,0.07255757974761855,-0.07885753111145065,-0.08158015998626461,-0.2910137176513672,-2.1804471015930176,-1.0042002201080322,0.6417121887207031,-0.7135888934135437,-0.2324498146772384
1749028595.6025991,4.657045423419354,0.10455272548049234,-0.30295837497586986,-4.91510203855031,0.20204017421632234,2.532132205595777,-0.03415632538379897,-0.02447173107867784,-0.017525288262907328,0.07458577330860383,-0.07945411464492294,-0.08335668770699439,-0.2945578396320343,-2.2028913497924805,-0.9784945845603944,0.6560354232788086,-0.6792085766792297,-0.2232234925031662
1749028595.6026363,4.656981979911266,0.10450628677183704,-0.302992333665303,-4.914946302967334,0.20188446054133413,2.531963700630753,-0.03514539985592919,-0.025389060968327437,-0.018036652197835727,0.07668869617405066,-0.08007947940609275,-0.08504177095036503,-0.2778225243091583,-2.2090320587158203,-0.9892551302909852,0.678957998752594,-0.7035855054855347,-0.2011375725269317
1749028595.602673,4.65691686685664,0.10445761391454722,-0.30302767309942774,-4.914785615844318,0.20172769662393433,2.5317919023530537,-0.0361437941979637,-0.026323779306205237,-0.018556392613641205,0.07883660633185129,-0.08081554575797083,-0.08663394225791622,-0.3131434619426727,-2.203965902328491,-1.0055111646652222,0.66460120677948,-0.72198486328125,-0.1909627020359039
1749028595.602711,4.6568498629929636,0.10440653474167517,-0.30306454649687015,-4.9146199370771155,0.20156913008355143,2.531616834625882,-0.0371507250402121,-0.027270161027726742,-0.01908032499799007,0.08099673137409483,-0.08174304421668821,-0.08813913855425454,-0.3130354881286621,-2.2249979972839355,-0.9881314635276794,0.664981484413147,-0.7298269271850586,-0.2223402857780456
1749028595.6027484,4.656780704792686,0.10435292289190327,-0.30310306265318643,-4.91444931402132,0.20140784365946834,2.5314384872610316,-0.0381663461867082,-0.028221974199308927,-0.0196043062149164,0.08313579361036078,-0.08293458457559157,-0.08957129401115443,-0.3289398849010467,-2.190229177474976,-0.9867717027664183,0.6823649406433105,-0.7589454650878906,-0.2169349789619445
1749028595.6027849,4.656709111447428,0.10429670273943133,-0.30314327993305656,-4.914273883565748,0.20124282700876972,2.5312568179669084,-0.03919131926558548,-0.029172590994184722,-0.02012435427706141,0.08522279110408355,-0.08444772056360493,-0.09095216120864154,-0.3306077420711517,-2.17635178565979,-0.9739707708358764,0.6846522688865662,-0.7684565782546997,-0.1889884173870086
1749028595.602822,4.656634816066265,0.10423785146308079,-0.30318520437873736,-4.914093870092033,0.2010730580219716,2.5310717585356115,-0.040226344534193006,-0.03011508388006697,-0.02063677766092871,0.08723185986100154,-0.08631872865574211,-0.09231026597487449,-0.3286247253417969,-2.1944684982299805,-0.9850903749465942,0.6630533337593079,-0.778653621673584,-0.1962855160236358
1749028595.602859,4.656557597934296,0.10417639872574672,-0.3032287917872356,-4.913909576919495,0.2008975852041969,2.530883223806814,-0.04127171332030073,-0.03104232012319871,-0.02113830763515648,0.0891449877510821,-0.08855784970509757,-0.09367898760702947,-0.3286247253417969,-2.1944684982299805,-0.9850903749465942,0.6630533337593079,-0.778653621673584,-0.1962855160236358
1749028595.6028965,4.656477309789575,0.10411242413381346,-0.3032739536513722,-4.9137213686636985,0.20071560164047386,2.530691120541997,-0.04232693421628378,-0.031947090223828856,-0.021626235927733505,0.09095428823402431,-0.0911466831063813,-0.09509387351557311,-0.3823547661304474,-2.2041211128234863,-0.9967185258865356,0.628781795501709,-0.8394812345504761,-0.2233821451663971
1749028595.6029336,4.6563938947341335,0.10404605216114583,-0.3033205667543748,-4.913529642924587,0.2005265020764461,2.530495353274145,-0.04339048906895956,-0.032822311902859135,-0.022098564220984735,0.09266348994909894,-0.09403825347882946,-0.09658943446384474,-0.3402470052242279,-2.174668312072754,-0.9963518977165222,0.6382406949996948,-0.8283652663230896,-0.2517777681350708
1749028595.60297,4.656307389553585,0.10397744428451594,-0.3033684856477322,-4.913334792292636,0.20032991824906213,2.5302958259874186,-0.04445977732006702,-0.033661327021108196,-0.022554163047529878,0.09428829818090854,-0.09715999232217984,-0.09819578210852656,-0.3559978902339935,-2.1838951110839844,-0.987166941165924,0.6471026539802551,-0.821008563041687,-0.2259643673896789
1749028595.6030073,4.656217914303004,0.10390678888813848,-0.3034175564497398,-4.913137161040086,0.20012573209298123,2.5300924410700296,-0.04553128260729157,-0.03445826729221171,-0.022992921997967056,0.0958553715875766,-0.10041953145287517,-0.0999355271448349,-0.3227293491363525,-2.1622419357299805,-0.976407527923584,0.6316055655479431,-0.8433564305305481,-0.2306963950395584
1749028595.6031368,4.656125651053794,0.10383429038380286,-0.3034676299668108,-4.912937003318207,0.19991406929222624,2.529885098516009,-0.046600943138931254,-0.03520843083903997,-0.023415860411519274,0.09739983409109494,-0.10371285290645943,-0.10182134437152007,-0.3744601905345917,-2.182927131652832,-0.990827739238739,0.6614298820495605,-0.8305225372314453,-0.25107342004776
1749028595.6051462,4.656030816817887,0.10376015926126515,-0.30351857241452046,-4.912734450163661,0.19969527616918373,2.5296736979615617,-0.047664657965382794,-0.035908600658120855,-0.023825160172253907,0.09896147061163621,-0.10693402347411446,-0.10385453882966848,-0.3574073016643524,-2.1992902755737305,-0.975803554058075,0.6538445949554443,-0.8107404112815857,-0.2623916566371918
1749028595.646278,4.655933636347554,0.10368460435874607,-0.3035702728224794,-4.912529491338088,0.19946988246499353,2.5294581443933914,-0.04871884117120009,-0.036557249568502585,-0.024224081281928517,0.10057998475967331,-0.10998547307801086,-0.10602482477745044,-0.340563416481018,-2.197805881500244,-0.9833829402923584,0.6543115377426147,-0.7685086727142334,-0.2562438547611236
1749028595.6463237,4.6558343194999665,0.10360782782108577,-0.3036226470591584,-4.9123219755713965,0.19923855251198272,2.529238356400543,-0.0497609390615151,-0.03715460542842796,-0.024616732182750324,0.10228988517828115,-0.11278758568276959,-0.10831136820538437,-0.3559606373310089,-2.16898775100708,-0.9975854158401488,0.6894412040710449,-0.7671008706092834,-0.2598808109760284
1749028595.646364,4.655733045482962,0.10353002225992894,-0.3036756389129342,-4.912111629627783,0.19900202794187147,2.5290142746276794,-0.05078983082259771,-0.03770257771513165,-0.025007691214681226,0.10411568512071835,-0.11528633792278362,-0.11068496688956275,-0.3830081820487976,-2.1976637840271,-0.9972536563873292,0.6947610974311829,-0.7619942426681519,-0.2520593404769897
1749028595.6464033,4.655629953733124,0.10345136884717814,-0.3037292187338287,-4.911898093400814,0.19876106623353487,2.5287858679633746,-0.051806037670266765,-0.03820455842639797,-0.025401503939891858,0.10606811990131813,-0.11745791241101282,-0.1131110827688713,-0.3579872548580169,-2.199835062026977,-0.9790055155754088,0.6899807453155518,-0.742418110370636,-0.2641034126281738
1749028595.6464417,4.655525139730734,0.10337203489389532,-0.30378337994632826,-4.911680965730774,0.19851638080486939,2.5285531356394464,-0.05281168336784833,-0.03866511257976846,-0.025802105711146398,0.10814198850939899,-0.11930961715644094,-0.11555332810552649,-0.3620864450931549,-2.184530019760132,-0.9772650599479676,0.7081541419029236,-0.7140366435050964,-0.2579928934574127
1749028595.6464827,4.6554186541043645,0.10329217008376106,-0.30383813354695877,-4.911459854278296,0.1982685894391968,2.5283161044571347,-0.05381018985495841,-0.03908958530733183,-0.02621224384960746,0.11031601512146769,-0.12087697693480523,-0.11797695487144445,-0.3687603175640106,-2.1807494163513184,-0.9951791167259216,0.7022840976715088,-0.722609281539917,-0.2290842235088348
1749028595.646521,4.655310504218832,0.10321190154679431,-0.3038935007458354,-4.911234422613506,0.19801817778779252,2.5280748217184317,-0.05480575050246887,-0.039483681760902195,-0.026633002102340826,0.11255484623475734,-0.12221743033737673,-0.12035191455639346,-0.3793715834617615,-2.208114624023437,-1.0075150728225708,0.7080968618392944,-0.7265622615814209,-0.2317137867212295
1749028595.6465592,4.655200658152372,0.10313132874099237,-0.30394950427002254,-4.91100442853949,0.1977654829080392,2.527829345881857,-0.055802682566030194,-0.03985310791498343,-0.027063544326332536,0.11481300458051757,-0.12340157838061962,-0.12265514524968321,-0.3861372470855713,-2.203324794769287,-0.9933948516845704,0.6875939965248108,-0.7470367550849915,-0.245270624756813
1749028595.6465974,4.655089051180506,0.10305051931098505,-0.30400615931755626,-4.910769749350717,0.19751069843446317,2.5275797377811995,-0.05680479595877855,-0.04020336955676931,-0.027501167912598486,0.11704034702099517,-0.12450330005435321,-0.1248718842066237,-0.4119817912578583,-2.201298952102661,-0.9955884218215942,0.6886903643608093,-0.7585078477859497,-0.2337616980075836
1749028595.6466353,4.654975594714215,0.10296950671713828,-0.3040634654614152,-4.910530391898468,0.19725389899443999,2.5273260548764767,-0.05781491076458425,-0.04053979779081407,-0.02794168735564631,0.11918833899597618,-0.12559020605276933,-0.1269959513906978,-0.3994243144989013,-2.208733558654785,-0.99993234872818,0.6639330387115479,-0.7567899823188782,-0.237785592675209
1749028595.646672,4.654860187261669,0.10288828974254169,-0.30412140084046135,-4.910286487592832,0.19699507806633676,2.5270683497045607,-0.05883461172644148,-0.04086780674268469,-0.028380082079072905,0.12121629205376674,-0.12671581476709384,-0.12902906605859493,-0.3947269320487976,-2.225980520248413,-0.9871538877487184,0.6630667448043823,-0.7671142816543579,-0.2428686022758484
1749028595.6467092,4.6547427265290535,0.10280683346026395,-0.3041799197216312,-4.910038274452501,0.19673419141916687,2.5268066723709097,-0.05986425909949488,-0.041193314472355455,-0.028811271779983,0.12309666076670346,-0.12791452726984548,-0.13097934424908383,-0.4054247438907623,-2.22756576538086,-0.9723732471466064,0.6564180850982666,-0.787924587726593,-0.2165455669164657
1749028595.6467466,4.65462312145089,0.10272507122207838,-0.30423895396217066,-4.909786069726477,0.19647119780018696,2.5265410762358393,-0.06090320245257654,-0.04152319784762913,-0.02923084747744797,0.12481860258175992,-0.1292000166510949,-0.13285919247010486,-0.3666233122348785,-2.2242393493652344,-0.9698779582977296,0.6581220030784607,-0.8016461730003357,-0.2295866161584854
1749028595.6467843,4.654501302908458,0.10264290759630514,-0.3042984181799273,-4.909530237299408,0.19620608950095933,2.526271625703834,-0.061950090056182815,-0.041865624488896906,-0.02963560280190599,0.12638927039572595,-0.13056711595083584,-0.13468286111618288,-0.3894908726215362,-2.2135634422302246,-1.0044893026351929,0.6609033346176147,-0.8041612505912781,-0.2312565743923187
1749028595.6468215,4.6543772321078,0.10256022254893267,-0.3043582178472958,-4.9092711541180165,0.19593890745315345,2.525998404650637,-0.06300315127812199,-0.042230116490974086,-0.03002378137707017,0.12783267579741234,-0.13199675807677413,-0.13646394942791817,-0.3973838090896606,-2.207056760787964,-0.9898963570594788,0.6284494996070862,-0.7809424996376038,-0.2187157571315765
1749028595.64686,4.654250905844838,0.10247687724818003,-0.30441825922966204,-4.909009179391105,0.19566973817708777,2.5257215235195503,-0.06406035908619416,-0.042627250053348935,-0.030395051697612054,0.12918634164505913,-0.13346303974437648,-0.1382131698470676,-0.4097618460655212,-2.2212533950805664,-0.990492820739746,0.6785485148429871,-0.7726755738258362,-0.2315205335617065
1749028595.6468968,4.6541223580853455,0.10239272155600858,-0.3044784600265291,-4.9087446293498855,0.19539869292189715,2.5254411230468197,-0.06511943909249386,-0.04306797514995334,-0.030750288301607403,0.13049628646216332,-0.13494111312250012,-0.13993668362870593,-0.4010379910469055,-2.2612059116363525,-0.9841971397399902,0.6663271188735962,-0.7452967166900635,-0.2388786375522613
1749028595.6469333,4.653991657598256,0.10230760257498371,-0.3045387596152591,-4.908477758910515,0.19512587236898057,2.5251573731924015,-0.06617775214937399,-0.04356263345440447,-0.031091252836235643,0.13181111335198856,-0.136414445401426,-0.14163529392021224,-0.381791740655899,-2.2990996837615967,-0.9994719624519348,0.6982163190841675,-0.7395535111427307,-0.2443209439516067
1749028595.6469717,4.653858901981127,0.1022213728632578,-0.304599127893461,-4.908208749971302,0.1948513229055505,2.5248704667802855,-0.06723211852174377,-0.04411982951945044,-0.03142025330195518,0.13317608248843693,-0.13788009248332583,-0.14330469763468415,-0.4622254967689514,-2.282449960708618,-0.9930746555328368,0.72267085313797,-0.7299594879150391,-0.2257044315338134
1749028595.6470084,4.653724209035605,0.1021338966179715,-0.3046595719183275,-4.90793770494943,0.19457499228726843,2.524580608059701,-0.06827866943402364,-0.04474533566806143,-0.031739846180549314,0.13462800586053716,-0.1393509947534241,-0.14493683671774157,-0.4180421829223633,-2.25844407081604,-0.9905890822410583,0.6836784482002258,-0.7180612683296204,-0.2187166959047317
1749028595.6471362,4.653587706538369,0.10204505252139746,-0.3047201399203933,-4.9076646439343286,0.19429669310615164,2.5242879967013874,-0.0693128083617193,-0.04544118296139986,-0.0320526399473514,0.13619162800394624,-0.14085485079478938,-0.14652217749418403,-0.3632804155349731,-2.254600048065185,-1.0077574253082275,0.7131164073944092,-0.7391855120658875,-0.2288547605276107
1749028595.64915,4.653449521000514,0.10195473287910248,-0.3047809227559878,-4.907389504290614,0.1940160816169134,2.5239928079519727,-0.07032934024684295,-0.04620504803976479,-0.03236124707603394,0.13787789180092425,-0.14242976996325968,-0.1480525399646524,-0.4664700627326965,-2.331594944000244,-1.0199791193008425,0.7094845771789551,-0.7771396636962891,-0.2227879166603088
1749028595.6903374,4.653309765692292,0.10186283974772901,-0.3048420532547796,-4.907112142217656,0.19373265722357477,2.5236951702895074,-0.07132278889239412,-0.04703002408104775,-0.032668406178093516,0.13968418347582387,-0.14411753423036877,-0.14952395121688897,-0.4234882295131683,-2.3025176525115967,-1.0152078866958618,0.727328360080719,-0.8178631663322449,-0.2054531574249267
1749028595.6903927,4.653168528497967,0.10176927953323509,-0.3049037040696776,-4.9068323364769695,0.19344578466949933,2.523395143085035,-0.07228788301797083,-0.04790485218247898,-0.0329772553692841,0.1415963467623517,-0.1459557733817627,-0.15093894945247072,-0.407866507768631,-2.305974245071411,-1.0306282043457031,0.7353163957595825,-0.8068137168884277,-0.1943352371454239
1749028595.6904345,4.6530258608187385,0.10167395782900177,-0.3049660845171934,-4.906549795227085,0.19315473731667285,2.5230926979869377,-0.07322015492681433,-0.0488146503956429,-0.033291687627079146,0.14359198970122106,-0.14797055046752258,-0.15230784459425356,-0.3486276268959045,-2.287266492843628,-1.0175114870071411,0.6875930428504944,-0.8576554656028748,-0.206350177526474
1749028595.690474,4.652881769262762,0.10157677615960982,-0.30502943649414654,-4.9062641675110985,0.19285875664283086,2.5227877082533814,-0.07411656711666217,-0.04974210375622248,-0.033616674830258104,0.14564441857543953,-0.15017072140352508,-0.153648643790633,-0.3890128135681152,-2.2877705097198486,-1.020330786705017,0.6854857802391052,-0.8686491250991821,-0.2161044776439666
1749028595.690513,4.652736211914781,0.10147763192797088,-0.30509402889497633,-4.905975061131692,0.1925571209263106,2.522479949627792,-0.07497607417369338,-0.05066900007152862,-0.03395843158519296,0.14772646937949643,-0.15254502922193217,-0.15498562785244915,-0.3983234465122223,-2.270264148712158,-1.0204756259918213,0.6918599009513855,-0.8583058714866638,-0.2180465757846832
1749028595.690551,4.652589100469778,0.10137642215148741,-0.305160149288897,-4.905682068128986,0.1922492151866083,2.5221691146813714,-0.07580004377330593,-0.051577941054157916,-0.034324314057483006,0.1498136037662797,-0.15506233208143214,-0.15634684211969202,-0.4368335604667663,-2.3032243251800537,-1.0314751863479614,0.6880025863647461,-0.8785738348960876,-0.2533001899719238
1749028595.6905892,4.6524403085863035,0.10127305056912715,-0.30522809145454455,-4.905384797629655,0.19193459444072666,2.521854840191689,-0.07659248386202636,-0.052454029591134925,-0.03472240493832386,0.15188587968066383,-0.15767476934041041,-0.15776096737366763,-0.3545203804969787,-2.2622263431549072,-1.0443769693374634,0.6836603879928589,-0.8451828956604004,-0.2366936355829239
1749028595.6906264,4.652289685648393,0.10116743680015704,-0.3052981381017851,-4.905082913432188,0.19161303272104258,2.5215367443951693,-0.07736003506273326,-0.053286326398753116,-0.035160804577530125,0.1539287239235447,-0.16032316625304774,-0.15925411228118383,-0.4101848602294922,-2.2647478580474854,-1.0520763397216797,0.6918367147445679,-0.821114182472229,-0.2424314171075821
1749028595.690663,4.652137073831405,0.10105952571346405,-0.30537053960478044,-4.904776170722273,0.1912845507883218,2.5212144681973006,-0.07811169379125099,-0.05406888866445212,-0.035646709434368255,0.15593272756654208,-0.16294367099586668,-0.1608470081619509,-0.4101848602294922,-2.2647478580474854,-1.0520763397216797,0.6918367147445679,-0.821114182472229,-0.2424314171075821
1749028595.6907003,4.65198232529993,0.1009492950091983,-0.3054454911666363,-4.9044644439635565,0.1909494166187465,2.520887712519072,-0.07885824925817736,-0.05480125750207587,-0.03618539548179173,0.15789287246526262,-0.1654745585937978,-0.1625529279843836,-0.3883808553218841,-2.2962608337402344,-1.071610689163208,0.7306805849075317,-0.8112283945083618,-0.2880615592002868
1749028595.6907375,4.651825316312656,0.10083675939715202,-0.3055231117357713,-4.90414773827185,0.1906081162162123,2.5205562644409167,-0.0796114448192972,-0.055488341024048704,-0.03677923133984648,0.1598076305509083,-0.1678622997005284,-0.16437646351248214,-0.396224707365036,-2.268937349319458,-1.0462701320648191,0.7312175035476685,-0.798704981803894,-0.2518855929374695
1749028595.690775,4.6516659564690075,0.10072197087503999,-0.3056034278120474,-4.90382618062184,0.19026129888783025,2.5202200085279407,-0.08038289857597855,-0.0561397220553879,-0.03742683485933961,0.161678258470421,-0.17006628862458092,-0.16631313500105674,-0.3744501173496246,-2.271392345428467,-1.0601643323898315,0.7295550107955933,-0.7981373071670532,-0.2622840404510498
1749028595.690812,4.6515041934763355,0.10060501589009019,-0.3056863643391455,-4.903499993310677,0.1899097081265943,2.51987892496412,-0.08118284932926206,-0.05676848894766495,-0.038122477429146547,0.16350839066471715,-0.17206194282752205,-0.16834970456851514,-0.4163462519645691,-2.2926745414733887,-1.0924806594848633,0.7187517285346985,-0.818135142326355,-0.2402865439653396
1749028595.6908493,4.651340015005923,0.10048601067243727,-0.3057717438260828,-4.903169456656416,0.18955411211101292,2.519533079564267,-0.08201885475754717,-0.057389743655947956,-0.03885584372028367,0.1653038004897422,-0.17384214023360947,-0.1704650320422617,-0.4067460596561432,-2.295951128005981,-1.0785820484161377,0.6820427179336548,-0.7892361879348755,-0.2570919096469879
1749028595.6908867,4.6511734488910355,0.10036509568198396,-0.3058592939712715,-4.902834869140829,0.1891952449167412,2.5191826108411783,-0.08289465064065495,-0.05801897886885906,-0.03961225604248342,0.16707204531706907,-0.17541711506777397,-0.1726313521003963,-0.3502610921859741,-2.2150471210479736,-1.0424363613128662,0.6497734785079956,-0.7767599821090698,-0.2491691708564758
1749028595.690925,4.6510045620512095,0.10024242957121852,-0.3059486632453903,-4.902496512044059,0.18883376339413688,2.5188277173667086,-0.08380943503036876,-0.05867052184968518,-0.040373439819911996,0.1688217079553406,-0.17681299403183737,-0.1748159359163373,-0.4774195551872253,-2.3232250213623047,-1.0822699069976809,0.6658505201339722,-0.7573906183242798,-0.2480877488851547
1749028595.6909647,4.650833457983375,0.10011818270171895,-0.3060394430405421,-4.902154623532828,0.1884702188572446,2.51846864650037,-0.08475781639296245,-0.059356205840582425,-0.041118827237089116,0.17056110595346535,-0.1780691569219365,-0.17698318239983343,-0.4764210879802704,-2.311382293701172,-1.0799952745437622,0.7110483646392822,-0.7884930968284607,-0.2716308236122131
1749028595.6910024,4.6506602724221295,0.09999253002884316,-0.3061311943051128,-4.901809384728313,0.18810503930952868,2.51810568384083,-0.08573053474512707,-0.06008435153708331,-0.04182729202766266,0.1722966019718111,-0.17923460352487014,-0.1790972188573606,-0.429557204246521,-2.235689878463745,-1.0402510166168213,0.7037301063537598,-0.7709575295448303,-0.2837131023406982
1749028595.691039,4.650485166625953,0.09986564312453108,-0.3062234762950941,-4.901460917630807,0.18773851740474898,2.517739141505909,-0.08671585464296201,-0.06085904475244455,-0.04247911375285028,0.17403090356824572,-0.18036355775381913,-0.18112504113530215,-0.3773695528507232,-2.272252082824707,-1.042618751525879,0.7041766047477722,-0.8006912469863892,-0.2967563271522522
1749028595.6910765,4.650308317783529,0.09973768134399927,-0.3063158751953112,-4.901109292286204,0.18737080106936518,2.517369342776921,-0.08770132230809564,-0.061679632877157546,-0.04305791327231784,0.1757618826085123,-0.18151065675886627,-0.183040071162179,-0.3909594714641571,-2.2981197834014893,-1.0428407192230225,0.7400489449501038,-0.8142083883285522,-0.2679184675216675
1749028595.691185,4.6501299063597665,0.09960878260842358,-0.30640803068941347,-4.900754538886098,0.18700188625236178,2.5169966011032163,-0.0886754781805239,-0.06254037547483507,-0.04355230325862495,0.17748241047222366,-0.18272620971421663,-0.18482578302833588,-0.4396714866161346,-2.2831227779388428,-1.0403586626052856,0.7472922205924988,-0.8263888359069824,-0.2618212699890136
1749028595.6931334,4.649950100767569,0.09947905475824259,-0.30649965890004316,-4.900396660123538,0.18663161322555888,2.5166211929957503,-0.08962916354220418,-0.06343026232611064,-0.043957057991786286,0.1791814902969108,-0.18405208556376332,-0.18647882558516612,-0.3409481346607208,-2.270974636077881,-1.0259841680526731,0.7178702354431152,-0.8076346516609192,-0.2308322489261627
1749028595.7344592,4.649769040552371,0.09934856867692307,-0.30659057046807514,-4.900035640091118,0.18625966870957253,2.5162433265502475,-0.09055621180658331,-0.06433310301895888,-0.0442736959827872,0.1808466172465532,-0.1855187342577358,-0.1880109479379397,-0.3905251622200012,-2.261361122131348,-1.0097318887710571,0.7112025022506714,-0.8221108317375183,-0.2141880095005035
1749028595.734507,4.649586820271328,0.09921735429754133,-0.30668068290107114,-4.899671447826888,0.18588559615950306,2.51586310954465,-0.09145349467549535,-0.06522805043333225,-0.04451045378307886,0.18246690385753775,-0.18714364990823573,-0.18944909085121198,-0.4113332033157348,-2.2930948734283447,-1.0297998189926147,0.6540340185165405,-0.8404514789581299,-0.2165975719690323
1749028595.734548,4.649403477001813,0.09908540029761363,-0.306770026563311,-4.899304035698558,0.18550881623098736,2.51548052247738,-0.09232044498913496,-0.06609071931944586,-0.04468169507086203,0.1840361997952874,-0.18893130412974485,-0.19083326612492016,-0.4111132323741913,-2.26714825630188,-1.0258053541183472,0.6538217067718506,-0.804802656173706,-0.2240623831748962
1749028595.734588,4.649218984265502,0.09895265788180393,-0.30685874369492666,-4.898933334688625,0.1851286587554279,2.5150954020011658,-0.0931582708858369,-0.06689498442991369,-0.0448068410033826,0.1855553446471213,-0.1908743120401623,-0.19221226224433,-0.4226862788200378,-2.257886409759521,-1.0270113945007324,0.6179341077804565,-0.8054255247116089,-0.2260789722204208
1749028595.7346268,4.64903325397638,0.098819048576968,-0.3069470798013744,-4.89855924984414,0.18474440624809443,2.514707438941682,-0.0939690956524888,-0.06761539963714187,-0.044908921127962,0.18703288682491817,-0.19295542715392755,-0.19363768072147386,-0.3853479921817779,-2.226732015609741,-1.006399631500244,0.654507577419281,-0.8014839887619019,-0.2607887387275696
1749028595.7346656,4.648846146422272,0.09868447547088471,-0.3070353669840593,-4.898181659303863,0.18435534709398657,2.5143161929825055,-0.09475521482962503,-0.06823001439519906,-0.04501283699806152,0.18848403470267114,-0.19514993106486056,-0.19515719041460755,-0.3987648785114288,-2.2023918628692627,-1.0154649019241333,0.6744023561477661,-0.8126504421234131,-0.2758222222328186
1749028595.734704,4.6486574869434785,0.09854883691452312,-0.3071239994722436,-4.897800419424283,0.18396083453585121,2.513921123822811,-0.09551859042667109,-0.06872323213873013,-0.045143428201747854,0.18992812209672785,-0.19742807253721908,-0.1968080781576827,-0.3989579677581787,-2.223614454269409,-1.0264403820037842,0.7003328800201416,-0.8171436786651611,-0.3308856189250946
1749028595.7347462,4.648467087134066,0.09841204142524414,-0.30721340266982566,-4.897415377035787,0.18356034598639062,2.5135216366006827,-0.09626063486865243,-0.06908829237969098,-0.045323451718455594,0.19138527621612464,-0.19975736189332383,-0.19861212341510392,-0.4196182787418365,-2.2035558223724365,-1.0245505571365356,0.7250145673751831,-0.8041256070137024,-0.2859117090702057
1749028595.734785,4.64827476805046,0.09827402233964354,-0.3073039981456245,-4.8970263882660126,0.18315353641622245,2.5131171377768524,-0.0969822850034585,-0.06932897359290659,-0.045571624489804174,0.1928731312934642,-0.20210466976453237,-0.20057255037223926,-0.4028116464614868,-2.1892900466918945,-1.0424573421478271,0.7421249151229858,-0.8195443153381348,-0.2844190597534179
1749028595.734823,4.648080382928461,0.09813475064544658,-0.307396167765144,-4.896633341983958,0.18274027974983756,2.512707096557622,-0.09768431928727771,-0.06946020259762342,-0.045900913519096205,0.19440430133243608,-0.20443815968592224,-0.20267339796076592,-0.4150604605674743,-2.231869697570801,-1.050471305847168,0.6954234838485718,-0.8512769937515259,-0.2878377139568329
1749028595.734861,4.647883837075601,0.09799424443618554,-0.30749022032787926,-4.89623618496689,0.18232069315149896,2.5122911062142133,-0.09836782169840777,-0.0695074030606942,-0.04631726595170022,0.1959849907185381,-0.20672908131974418,-0.20488122770608733,-0.4613867700099945,-2.266329050064087,-1.087130427360535,0.7312741875648499,-0.8531918525695801,-0.2945311069488525
1749028595.7348988,4.647685102860408,0.09785257364607568,-0.3075863637785734,-4.895834945489545,0.18189514048495833,2.5118689390758147,-0.09903465450250556,-0.06950458835150972,-0.04681894120596768,0.19761473674915167,-0.20895337770219238,-0.20714877827821726,-0.417592316865921,-2.2331037521362305,-1.056083083152771,0.6824936270713806,-0.8319246172904968,-0.3003188669681549
1749028595.7349365,4.6474842281324955,0.09770985908402342,-0.30768468562944645,-4.895429752042974,0.18146421289746786,2.511440588537317,-0.09968779154670075,-0.06949136443509911,-0.04739654152024853,0.19928700086565468,-0.21109295336310688,-0.20942002178304397,-0.3740135729312897,-2.226560115814209,-1.0443346500396729,0.6678712368011475,-0.7905408143997192,-0.2953779101371765
1749028595.734974,4.647281336957973,0.09756626520420511,-0.307785143755678,-4.895020843976617,0.18102868647489298,2.511006291596694,-0.10033140177074681,-0.06950914368049936,-0.048033756790685375,0.2009902435235212,-0.21313637419116047,-0.21163605551970538,-0.4322628974914551,-2.2914421558380127,-1.0617389678955078,0.6831849813461304,-0.7859486937522888,-0.3284443020820617
1749028595.735011,4.647076622196387,0.09742198654405206,-0.30788756906525827,-4.89460857083065,0.18058945933721995,2.5105665267358264,-0.10097065238131939,-0.06959698635518495,-0.04870876865515985,0.20270921918174284,-0.21507880260980408,-0.21374130886177084,-0.4641749560832977,-2.314598798751831,-1.0906082391738892,0.7180766463279724,-0.7819378972053528,-0.3046449422836303
1749028595.7350483,4.646870330228518,0.09727722841348788,-0.30799168056763027,-4.894193377252268,0.1801474731894332,2.5101219845027307,-0.10161128589831796,-0.06978756878662583,-0.04939620351201706,0.20442641965314648,-0.21692115077592947,-0.21568958020273102,-0.4204704761505127,-2.304395914077759,-1.0485544204711914,0.7176916003227234,-0.8360268473625183,-0.3172495365142822
1749028595.7350852,4.646662739110788,0.09713218324282799,-0.30809711204326024,-4.893775771336083,0.17970362674028761,2.5096735116142193,-0.10225907202133228,-0.07010378906068537,-0.05006947146981877,0.20612374955235105,-0.2186686979017308,-0.21744938801361025,-0.3688244223594665,-2.2829253673553467,-1.002735257148743,0.7366137504577637,-0.8072231411933899,-0.2998762130737304
1749028595.735123,4.646454132474873,0.09698700492379979,-0.30820344797561294,-4.893356276562635,0.1792586901355253,2.50922203321917,-0.10291923306333739,-0.07055644678995177,-0.050703274120303746,0.20778453568921643,-0.22032961880996685,-0.2190080367499976,-0.4393027722835541,-2.336489677429199,-1.0327508449554443,0.7096410989761353,-0.8249289393424988,-0.26234170794487
1749028595.73516,4.646244772351886,0.09684178444068448,-0.308310264981714,-4.892935371267128,0.17881323047713338,2.508768461721279,-0.1035959178919402,-0.07114329339592707,-0.05127602816594766,0.20939582604709203,-0.2219138753643351,-0.22037375906053094,-0.4686482846736908,-2.334268808364868,-1.0481969118118286,0.7265497446060181,-0.7955185174942017,-0.24165078997612
1749028595.7351964,4.646034874544621,0.09669653098360408,-0.308417173959329,-4.892513424183184,0.1783675586613161,2.5083136040259335,-0.10429178149282108,-0.07184957106045006,-0.05177194924777267,0.21095068623810603,-0.22343270465789572,-0.22157542286166407,-0.372586727142334,-2.277005434036255,-0.986624002456665,0.6685749292373657,-0.7745479345321655,-0.283117800951004
1749028595.7353072,4.645824590052043,0.09655116316146083,-0.30852385766492546,-4.892090638554963,0.17792170673402793,2.5078580813686413,-0.10500771582108501,-0.07264996208525043,-0.05218256058264987,0.21244998057877382,-0.22489860588595326,-0.22265963651058643,-0.372586727142334,-2.277005434036255,-0.986624002456665,0.6685749292373657,-0.7745479345321655,-0.283117800951004
1749028595.7371373,4.645613995073546,0.09640551396515107,-0.30863009875711483,-4.891667017852992,0.17747544123652848,2.5074022748434452,-0.10574276682673592,-0.07351168692515545,-0.05250743099037659,0.21390307066876632,-0.22632546991821023,-0.22368556857548533,-0.4523998200893402,-2.2882840633392334,-1.0074628591537476,0.6703677773475647,-0.7584446668624878,-0.2588932812213897
1749028595.7782807,4.6454030901387755,0.09625935006866175,-0.30873579493988784,-4.891242361249781,0.17702831069335195,2.5069463039502344,-0.10649426993589799,-0.07439835872444711,-0.052754030940677196,0.21532705571756972,-0.2277284660428472,-0.22471824982911093,-0.4188817143440246,-2.273767471313477,-0.9997001886367798,0.7001878619194031,-0.7823624014854431,-0.3132955431938171
1749028595.7783256,4.645191806731425,0.09611240182502283,-0.308840960383063,-4.89081628856702,0.176579716952033,2.506490037216501,-0.10725823692773663,-0.07527413857981913,-0.05293672851747061,0.2167445735592234,-0.2291235082191049,-0.22582138597392448,-0.4584285616874695,-2.239753484725952,-1.0051251649856567,0.722707986831665,-0.7910051941871643,-0.3008081018924713
1749028595.7783651,4.644980018687759,0.09596439722991473,-0.30894571487914363,-4.890388287184125,0.1761289951311741,2.506033127864561,-0.10803000138435342,-0.07610771922694011,-0.053075081732584725,0.2181806131342982,-0.2305264226571376,-0.22705071292001697,-0.3963090181350708,-2.241853713989258,-0.995402693748474,0.7547110319137573,-0.8171122074127197,-0.2921252846717834
1749028595.7784035,4.6447675558871895,0.09581509269470918,-0.30905026344183717,-4.889957770325438,0.17567548757209941,2.5055750657784053,-0.10880506478000575,-0.0768756801372266,-0.05319166698878714,0.21965905470889685,-0.23195213449985533,-0.22844870710119566,-0.4299491047859192,-2.230942249298096,-1.0088475942611694,0.7765746116638184,-0.8198578357696533,-0.2835380733013153
1749028595.7784414,4.64455421848944,0.09566429527271725,-0.3091548694986064,-4.889524136512526,0.17521860166778294,2.5051152380977544,-0.10958001088192089,-0.07756481612283041,-0.053309710872049776,0.22119963759944739,-0.23341416389258082,-0.23004113052332617,-0.4302176833152771,-2.224448204040528,-1.0080562829971311,0.7473974227905273,-0.8036500215530396,-0.2795221507549286
1749028595.778479,4.644339790614294,0.09551187373106458,-0.3092598249191011,-4.889086821993313,0.1747578470125985,2.504652992220022,-0.11035331281082524,-0.07817316205649662,-0.05345078655306707,0.2228157948547963,-0.23492449073417518,-0.23183557672340208,-0.4435605406761169,-2.2605531215667725,-1.0252288579940796,0.7369295358657837,-0.7547401189804077,-0.2791901528835296
1749028595.7785163,4.644124052813763,0.09535775856006953,-0.30936541997604294,-4.888645340694326,0.1742928522094496,2.504187695704493,-0.11112585922045672,-0.07870960927947777,-0.053632807743601824,0.22451344551141156,-0.236493558422699,-0.23382197760710305,-0.4613617658615112,-2.254267930984497,-1.007842779159546,0.7438935041427612,-0.7564882636070251,-0.3248476982116699
1749028595.7785542,4.643906792836839,0.0952019330861687,-0.3094719160375137,-4.888199309285106,0.1738233649018802,2.503718787609163,-0.11190106586283571,-0.07919219570394694,-0.05386850469722335,0.22629057292129612,-0.23813002891336676,-0.23597492610742765,-0.4212799072265625,-2.270331382751465,-1.017159938812256,0.736070454120636,-0.738520622253418,-0.3231406211853027
1749028595.7785916,4.643687813984937,0.0950444189931192,-0.30957952347434653,-4.88774845783332,0.1733492397969662,2.5032458158993265,-0.11268450894633943,-0.07964531464684621,-0.05416450983482183,0.22813734856596238,-0.2398399956959221,-0.23825757780080054,-0.4266468286514282,-2.2737319469451904,-1.0339176654815674,0.7028888463973999,-0.7810544967651367,-0.3384478092193603
1749028595.7786288,4.643466940176196,0.09488525976871764,-0.3096883868788054,-4.887292628627175,0.17287041909111936,2.5027684567620776,-0.11348311556450702,-0.08009621701368101,-0.054521125616535014,0.23003667779119685,-0.24162567855240144,-0.2406267238084088,-0.460411787033081,-2.261221647262573,-1.041453242301941,0.7669974565505981,-0.8085227012634277,-0.317363440990448
1749028595.7786665,4.643244017188279,0.09472450516574812,-0.30979857903329105,-4.886831766551503,0.17238690883012295,2.5022865144612254,-0.1143040600507771,-0.08057127431855401,-0.05493278643514554,0.23196523806384411,-0.24348398778122324,-0.24303837128415026,-0.4900208711624145,-2.305253267288208,-1.0277974605560305,0.7847110033035278,-0.857011616230011,-0.2803913354873657
1749028595.7787027,4.6430189104685065,0.09456219896959915,-0.3099101040717833,-4.886365904016176,0.1718987541282669,2.5017999041784953,-0.11515360174665264,-0.08109250655007867,-0.05538914897208279,0.23389520347130477,-0.24540553811740992,-0.2454529339094505,-0.4934034645557403,-2.325721025466919,-1.0591254234313965,0.7802244424819946,-0.8471404314041138,-0.2360655814409256
1749028595.7787392,4.642791500848673,0.09439837135121991,-0.3100229090408852,-4.885895142466698,0.17140601601592842,2.5013086236576934,-0.1160361071310483,-0.0816748381010187,-0.055876662241729956,0.2357967933402535,-0.24737459286347957,-0.24783908571524652,-0.4659807682037353,-2.348349571228028,-1.0626764297485352,0.7898213863372803,-0.8297256827354431,-0.2530893683433532
1749028595.7787762,4.642561679883608,0.09423303603777626,-0.3101369017784261,-4.88541963162782,0.17090875269380668,2.5008127210818314,-0.11695341112847342,-0.08232442731852158,-0.05638040049386462,0.23764153853408282,-0.2493700777696439,-0.25017558027073605,-0.4499579668045044,-2.2878081798553467,-1.0264052152633667,0.7388874888420105,-0.7817627191543579,-0.2360572963953018
1749028595.778812,4.642329346250237,0.09406619167125892,-0.31025197200322313,-4.884939547324057,0.17040700764893763,2.5003122661131756,-0.11790453864253872,-0.08303824668450109,-0.05688589982580653,0.23940583386689288,-0.2513674164742183,-0.25245085459563055,-0.4268947243690491,-2.304281949996948,-1.0144826173782349,0.7197837829589844,-0.7481459379196167,-0.2947071492671966
1749028595.778848,4.642094404159057,0.09389782620272558,-0.31036801210363546,-4.884455069206814,0.16990080598989815,2.4998073290066296,-0.11888571229104594,-0.08380491397017072,-0.05738073222093442,0.2410741201548066,-0.2533407268119389,-0.25466083955056085,-0.456787645816803,-2.3208248615264893,-1.0202646255493164,0.743916928768158,-0.7930598258972168,-0.3137368261814117
1749028595.7788844,4.641856764545591,0.09372792310750036,-0.31048493440693126,-4.883966360720952,0.16939015862187812,2.4992979700870186,-0.11989056194899946,-0.08460662496949928,-0.057855596265225614,0.24264105743551034,-0.25526498431514266,-0.25680584301707826,-0.455895721912384,-2.255091428756714,-1.007526993751526,0.7452667355537415,-0.8447783589363098,-0.3121771514415741
1749028595.778921,4.641616349810078,0.093556468538827,-0.31060268247455824,-4.883473554369422,0.16887507241691477,2.4987842394073185,-0.12091049959843722,-0.08542191814462434,-0.0583048041153425,0.2441123071441972,-0.2571180142253375,-0.2588874914137768,-0.505185604095459,-2.322265625,-1.0218706130981443,0.761778712272644,-0.898636519908905,-0.3357937932014465
1749028595.7789574,4.64137310239688,0.09338345885465922,-0.31072123498697146,-4.882976745073593,0.16835556413453426,2.498266184574243,-0.12193526839635034,-0.0862288947388792,-0.058726169489103225,0.2455038840875205,-0.2588823891387436,-0.2609065025724314,-0.3990539014339447,-2.2347500324249268,-1.0360718965530396,0.7636566758155823,-0.8528643250465393,-0.2883568406105041
1749028595.7789936,4.641126996374827,0.09320890788169166,-0.3108406019993601,-4.882475993210813,0.16783167621481468,2.497743863820406,-0.12295367876477895,-0.08700843011762874,-0.059120411125629595,0.24684029565110824,-0.2605472918180675,-0.2628616649478272,-0.4513151049613952,-2.2271177768707275,-1.0231246948242188,0.768886148929596,-0.8420838117599487,-0.276302307844162
1749028595.7791452,4.640878050193856,0.09303285296212148,-0.31096081463440384,-4.881971337360131,0.16730349283261098,2.4972173613831745,-0.12395450626244914,-0.08774687881082745,-0.059490256356077624,0.2481517862154833,-0.26211014755392437,-0.26475001488677086,-0.4736467003822326,-2.252922773361206,-1.05859112739563,0.751477062702179,-0.7873355150222778,-0.3009350299835205
1749028595.781129,4.6406263386435,0.09285535870800456,-0.3110819103470236,-4.881462815414332,0.16677115457087552,2.4966868026965887,-0.1249274689990289,-0.08843783160236389,-0.05983945455711944,0.2494709944389396,-0.26357754407497264,-0.26656796498996715,-0.4819322228431701,-2.256840467453003,-1.047257900238037,0.7628616094589233,-0.7713200449943542,-0.3081052899360657
1749028595.822287,4.640372002381171,0.0926765176882527,-0.31120391653465257,-4.880950491645029,0.16623487017035626,2.496152367256982,-0.12586415318891847,-0.08908263250632131,-0.060171893316362225,0.25082930165755385,-0.2649649031991156,-0.26831303982431975,-0.42363241314888,-2.214907646179199,-1.0315947532653809,0.7403693199157715,-0.7727369070053101,-0.3164257407188415
1749028595.822333,4.640115253532714,0.09249644788494028,-0.3113268354165095,-4.880434486480011,0.16569492409081696,2.4956142970643254,-0.12675873320658357,-0.08968957816678985,-0.06049096090611243,0.2522531784929307,-0.2662946563918939,-0.26998582984115965,-0.4216684997081756,-2.2733402252197266,-1.0495190620422363,0.7777546048164368,-0.8342435956001282,-0.3100666105747223
1749028595.822374,4.639856375719485,0.09231528740647628,-0.31145063281224006,-4.879915005018071,0.1651516786138767,2.4950728985319137,-0.12760834994887277,-0.09027195847378072,-0.0607992346035641,0.2537609382823326,-0.26759317564476726,-0.27159171464665627,-0.4034104347229004,-2.2557358741760254,-1.035298228263855,0.8027323484420776,-0.8435459733009338,-0.2590481638908386
1749028595.8224137,4.639595716935584,0.09213318729476999,-0.3115752328684804,-4.87939235947685,0.16460556877512114,2.4945285360777825,-0.12841307456301876,-0.09084531118619452,-0.06109851115655212,0.25536040218841666,-0.2688871534515798,-0.2731418677989553,-0.4638284146785736,-2.285045862197876,-1.0315959453582764,0.8071865439414978,-0.8762034177780151,-0.2579223811626434
1749028595.822452,4.639333674361863,0.09195030311184085,-0.3117005200294958,-4.878866979978885,0.16405708806619365,2.493981616343765,-0.12917547951534303,-0.09142441240749762,-0.06139013747143582,0.2570479513319544,-0.27020028611664787,-0.2746531357629236,-0.4037451148033142,-2.2883946895599365,-1.034379482269287,0.8262236714363098,-0.8693774938583374,-0.2537203431129455
1749028595.822499,4.639070671256323,0.09176678556268132,-0.31182634854204644,-4.878339407997213,0.16350676325034263,2.493432562864245,-0.12989992877006198,-0.09202057065013061,-0.06167554580879929,0.2588092310486955,-0.27155094013343384,-0.27614663541460177,-0.4213549792766571,-2.281625747680664,-1.0233975648880005,0.7890154719352722,-0.8350368738174438,-0.2832253873348236
1749028595.822539,4.63880712703195,0.09158277018787281,-0.3119525585056833,-4.877810268163135,0.1629551178492546,2.4928817817432853,-0.130591749123601,-0.09263971702753875,-0.061956854855461166,0.26062144182466557,-0.2729511019557494,-0.2776452692774068,-0.4308947026729584,-2.2791576385498047,-1.0326905250549316,0.768700122833252,-0.8088822960853577,-0.3087296485900879
1749028595.8225763,4.638543422366455,0.09139836635343367,-0.3120789962750727,-4.877280217168824,0.1624026254260319,2.492329619601963,-0.13125644773138406,-0.09328160602557695,-0.06223737810971648,0.26245682410740484,-0.2744065365291024,-0.2791706605014086,-0.4402470290660858,-2.3098201751708984,-1.0378226041793823,0.7496580481529236,-0.8398757576942444,-0.3104894757270813
1749028595.822614,4.638279861837724,0.09121364619140229,-0.31220553630277803,-4.876749872588187,0.16184965537672122,2.49177631619729,-0.1318991112403956,-0.0939402116090249,-0.0625218927049293,0.26428672575074097,-0.27591785539357117,-0.2807401282180032,-0.4422706961631775,-2.275397062301636,-1.0364359617233276,0.7669389247894287,-0.8627490401268005,-0.282917857170105
1749028595.822651,4.63801663727073,0.091028634547959,-0.31233210129302236,-4.876219728628643,0.16129641560737298,2.4912219559543924,-0.13252407511415515,-0.09460517906025298,-0.06281656601497522,0.26608558147121675,-0.2774821265983172,-0.2823642414211561,-0.416500985622406,-2.248830795288086,-1.0263456106185913,0.7656532526016235,-0.8425602316856384,-0.2911157310009002
1749028595.822688,4.637753795686077,0.09084330119581652,-0.31245867756760626,-4.875690069301563,0.16074289836082614,2.490666424753069,-0.13313489439341208,-0.09526401087757609,-0.06312850836537486,0.26783422488682146,-0.2790946560769688,-0.28404530526193517,-0.390850305557251,-2.212563991546631,-1.0506047010421753,0.7316655516624451,-0.8323664665222168,-0.2807921767234802
1749028595.8227253,4.637491216291116,0.09065755642123448,-0.31258532280935636,-4.87516089174044,0.1601888373806809,2.4901093797070812,-0.13373458685512882,-0.09590454553613577,-0.06346500630779564,0.2695221349930636,-0.28075056947107746,-0.28577696859832785,-0.4342187941074371,-2.203918695449829,-1.0568170547485352,0.7369856238365173,-0.7998319268226624,-0.3025674521923065
1749028595.8227627,4.637228601161863,0.09047125067849195,-0.3127121641719004,-4.87463185303025,0.15963368580946452,2.489550239619874,-0.13432606965834612,-0.09651724719738392,-0.06383257219327816,0.2711484126349139,-0.28244586119379067,-0.28754503379792723,-0.3887114226818084,-2.2323315143585205,-1.0353171825408936,0.7287470102310181,-0.8074252009391785,-0.3276844918727875
1749028595.8228006,4.63696548394444,0.0902841787454582,-0.3128393863103792,-4.874102252672284,0.1590766237325515,2.4889882023057557,-0.1349126763973221,-0.09709687141747762,-0.06423599621235819,0.27272144651501024,-0.284177734234804,-0.2893294417599796,-0.4296290576457977,-2.24987268447876,-1.0713735818862915,0.7154110670089722,-0.8193536996841431,-0.347145140171051
1749028595.8228376,4.63670125972163,0.09009608911346523,-0.3129672108071728,-4.873571059598058,0.15851660162698047,2.488422292524621,-0.13549861357642615,-0.0976432008881523,-0.06467759148384775,0.2742573647238477,-0.28594432761412103,-0.2911072259403563,-0.411692202091217,-2.201500415802002,-1.09692120552063,0.7255070209503174,-0.8885027766227722,-0.3013458251953125
1749028595.8228743,4.636435236761701,0.08990669996561576,-0.31309587003394856,-4.87303698748629,0.15795242145566657,2.4878514410616264,-0.13608919434657146,-0.09816073540576185,-0.06515678671700496,0.27577749020283526,-0.2877441864440031,-0.2928559836023787,-0.4204192161560058,-2.2822868824005127,-1.0958727598190308,0.7384890913963318,-0.8759159445762634,-0.2805079817771911
1749028595.8229113,4.6361667071946,0.0897157231082714,-0.31322557930970146,-4.872498615144201,0.15738285132166127,2.487274591093968,-0.13669070391217544,-0.09865743537889493,-0.06567015615831473,0.27730513603481827,-0.2895759023889919,-0.294557205475243,-0.3995786011219024,-2.1806650161743164,-1.0610435009002686,0.7662331461906433,-0.8726127743721008,-0.2584014236927032
1749028595.8229485,4.635895029254614,0.08952289566411856,-0.31335651142571835,-4.871954540237224,0.15680676268875288,2.486690822006214,-0.13730983784740416,-0.09914281233256869,-0.066211893160744,0.27886218807975155,-0.2914381753752255,-0.29619877914078685,-0.459930956363678,-2.252703189849853,-1.0706636905670166,0.7468035221099854,-0.833499014377594,-0.279039978981018
1749028595.8229852,4.6356197093835725,0.08932801606544162,-0.31348877760451577,-4.871403545503832,0.1562232713151369,2.4860994734963717,-0.1379527990945507,-0.09962579310081714,-0.06677465101440273,0.2804659950608402,-0.293330232117438,-0.29777620313929387,-0.459930956363678,-2.252703189849853,-1.0706636905670166,0.7468035221099854,-0.833499014377594,-0.279039978981018
1749028595.8230224,4.635340469426841,0.08913097709982315,-0.31362241883836217,-4.870844748867627,0.15563185587188777,2.4855002461358704,-0.13862427996183413,-0.10011283149199861,-0.06735061232479247,0.2821270624405422,-0.2952523016042087,-0.29929243489875884,-0.4299481511116028,-2.2600815296173096,-1.0639923810958862,0.758992075920105,-0.8032177090644836,-0.2919264435768127
1749028595.823137,4.635057284468166,0.08893178688877457,-0.3137574106276211,-4.870277707029666,0.155032426470171,2.4848932532149908,-0.13932661920143685,-0.10060668628090362,-0.06793260642734718,0.28384790379468305,-0.2972058434444396,-0.30075665887349734,-0.4384754598140716,-2.243957757949829,-1.0730730295181274,0.765347957611084,-0.8936257362365723,-0.3222155570983886
1749028595.8251224,4.634770382444338,0.08873057091429111,-0.3138936814326976,-4.869702450953262,0.15442532437293394,2.4842790076465824,-0.14005937230221216,-0.10110612564352485,-0.06851506632573899,0.28562318515232404,-0.29919341182390424,-0.30218244484190415,-0.4357084333896637,-2.2444684505462646,-1.0500718355178833,0.7946237921714783,-0.9203543663024902,-0.2989605665206909
1749028595.8662918,4.634480206380222,0.08852755407070356,-0.3140311409981048,-4.869119449960054,0.15381125306212218,2.4836583455877586,-0.14081938578982822,-0.10160658749803468,-0.0690946150921003,0.28744107209657943,-0.3012182321304942,-0.3035857470418545,-0.4421455562114715,-2.222754001617432,-1.0297253131866455,0.8047208189964294,-0.8774961829185486,-0.3200482130050659
1749028595.8663375,4.634187349097003,0.08832302769771011,-0.31416971123070475,-4.868529519745276,0.15319116002071778,2.48303230597282,-0.141601294219274,-0.10210158808886305,-0.06967012346293192,0.2892854991465808,-0.30328360963596546,-0.30498306418813476,-0.4087579548358917,-2.198064088821411,-1.0569095611572266,0.7839775085449219,-0.8455109000205994,-0.323789894580841
1749028595.866378,4.633892474386868,0.08811730933266511,-0.3143093515719256,-4.867933699171953,0.15256609822123546,2.482401993340114,-0.14239824530896078,-0.10258450067123992,-0.070242197844452,0.2911389414512,-0.3053921851055283,-0.3063899387466206,-0.2389523088932037,-2.0357542037963867,-0.9751716256141664,0.6990950703620911,-0.7575180530548096,-0.2815605103969574
1749028595.8664165,4.633596237924356,0.08791070234956422,-0.31445007296214,-4.867333119981035,0.15193709472499706,2.48176844934311,-0.14320265625043688,-0.10305027599542807,-0.07081221912341584,0.29298519612398183,-0.30754496415274946,-0.3078198612102152,-0.4850320518016815,-2.2300541400909424,-1.0661470890045166,0.7570595145225525,-0.85858553647995,-0.3229860067367553
1749028595.8664546,4.633299218150648,0.0877034607450469,-0.3145919381615466,-4.866728887587526,0.15130504574022388,2.481132551051107,-0.14400689868409555,-0.1034967509488992,-0.07138120267721124,0.29481169846690214,-0.3097401258168824,-0.3092835657093607,-0.5016739964485168,-2.22838830947876,-1.1068536043167114,0.7432761192321777,-0.8982805013656616,-0.304905354976654
1749028595.8664925,4.633001863893019,0.08749576263964452,-0.314735049780001,-4.8661219845001815,0.15067064782313067,2.48049494576666,-0.14480391968983447,-0.10392532993993399,-0.07194882170135959,0.2966110096269447,-0.3119718267505658,-0.31078866670589544,-0.4238114655017853,-2.240417003631592,-1.0920543670654297,0.7338980436325073,-0.907702088356018,-0.3231674134731293
1749028595.866531,4.632704462191126,0.08728769486336041,-0.3148795298981792,-4.865513202249718,0.15003436638198098,2.4798560244263954,-0.14558783885344453,-0.1043409483362138,-0.07251288565044128,0.29838128262990204,-0.3142293731338284,-0.31233959512293263,-0.4085777401924133,-2.1844582557678223,-1.0644056797027588,0.7433716654777527,-0.8731022477149963,-0.2940889596939087
1749028595.8665693,4.6324071269680624,0.08707924994416665,-0.3150254963097243,-4.864903103276031,0.14939643668545624,2.4792159296086087,-0.1463544994384515,-0.10475132615682013,-0.07306940918970474,0.30012570268194344,-0.3164970886385714,-0.3139378177774659,-0.4306939542293548,-2.255671501159668,-1.0786563158035278,0.7514117360115051,-0.8473400473594666,-0.3070632815361023
1749028595.8666065,4.632109807018693,0.08687033552356539,-0.3151730402596862,-4.864292011056879,0.14875688960479552,2.478574590298973,-0.14710186962187682,-0.10516563474920285,-0.07361322058717142,0.3018510801785296,-0.31875499707351374,-0.315582328318473,-0.4698660969734192,-2.3076751232147217,-1.086281657218933,0.7556694746017456,-0.8418011665344238,-0.3320340812206268
1749028595.8666446,4.631812310306189,0.08666079458361502,-0.3153222094207643,-4.863680024669796,0.14811559370756402,2.4779317738260915,-0.14783017044503532,-0.10559283337123569,-0.07413892222492477,0.30356592106920566,-0.32098022552992844,-0.31727036938678777,-0.409584105014801,-2.2662220001220703,-1.0679959058761597,0.7350082993507385,-0.8749294877052307,-0.3415826559066772
1749028595.866682,4.631514340616251,0.08645043321873615,-0.3154729982199663,-4.863067052517495,0.14747230593467844,2.477287145275976,-0.14854166542137476,-0.1060400283415018,-0.07464195888212374,0.3052783758057199,-0.32314894373347974,-0.31899830180969985,-0.3524282574653625,-2.2002058029174805,-1.0452373027801514,0.7499357461929321,-0.8974769115447998,-0.314051866531372
1749028595.866723,4.631215542041188,0.08623905156714616,-0.315625345968496,-4.8624528588175515,0.14682672407046643,2.4766403257391914,-0.14924014514982195,-0.1065112156128908,-0.07511955727657033,0.3069944708293181,-0.3252386577808375,-0.3207625014487243,-0.4745606184005737,-2.3120405673980717,-1.0573331117630005,0.7925094366073608,-0.8630325794219971,-0.3205043971538543
1749028595.866762,4.630915546408958,0.08602647330722314,-0.31577914183264216,-4.861837115753266,0.14617853528603034,2.4759909426957614,-0.14993023642265427,-0.10700669355969425,-0.07557135311576914,0.3087169665184027,-0.32723064322776957,-0.32256015503901847,-0.4564312100410461,-2.270139694213867,-1.0591959953308103,0.786811113357544,-0.7956216335296631,-0.3175609707832336
1749028595.8667996,4.630614018627007,0.0858125698074257,-0.31593423464967113,-4.861219454266743,0.14552745632269012,2.4753386684914855,-0.15061672385964942,-0.10752330014759305,-0.07599960037817903,0.31044505427846164,-0.329112183012551,-0.3243898441613592,-0.4605257511138916,-2.2920737266540527,-1.0360066890716553,0.7723074555397034,-0.7714177966117859,-0.3207737803459167
1749028595.8668363,4.630310695157052,0.08559727621111579,-0.3160904450898609,-4.860599507727946,0.14487326251736984,2.47468324569769,-0.15130406495259682,-0.10805544496647516,-0.07640893637234619,0.3121749030661448,-0.33087817588548946,-0.3262518313209183,-0.4542185962200165,-2.220824241638184,-1.030003786087036,0.7474228739738464,-0.8024948835372925,-0.301813930273056
1749028595.8668733,4.630005411643754,0.085380597979457,-0.3162475778342899,-4.8599769450960135,0.14421580464387837,2.4740245004154753,-0.15199620320221371,-0.10859669373573094,-0.07680573988149988,0.3139008441109864,-0.3325317430071015,-0.3281479804941958,-0.4872084558010101,-2.2523672580718994,-1.041135311126709,0.7301294207572937,-0.8370163440704346,-0.321077287197113
1749028595.8669102,4.6296981170340405,0.08516260751660577,-0.3164054322149905,-4.8593514928528725,0.14355501397173448,2.473362345681471,-0.1526966700558292,-0.1091414901922386,-0.07719717339485893,0.3156168224807925,-0.3340836964291341,-0.3300812803403284,-0.4145585298538208,-2.2027924060821533,-1.0286744832992554,0.724563717842102,-0.8558962941169739,-0.2970174551010132
1749028595.8669465,4.629388873126856,0.08494343157022974,-0.3165638108455524,-4.858722946673531,0.14289089679855602,2.4726967769942614,-0.1534088611923239,-0.10968654919337507,-0.07759005044088992,0.3173177048418053,-0.33555101295557177,-0.3320550227113962,-0.4585145711898803,-2.2790420055389404,-1.0527286529541016,0.7743251323699951,-0.8226078748703003,-0.3199691772460937
1749028595.8669832,4.62907784015676,0.08472323122200084,-0.3167225267946194,-4.8580911739332135,0.1422235201869378,2.472027861147519,-0.15413631370682185,-0.11023155420394652,-0.07798970758122731,0.319000129645894,-0.3369546419039474,-0.3340718032863691,-0.4409054219722748,-2.2562286853790283,-1.0644389390945437,0.7492318153381348,-0.7986021041870117,-0.323453813791275
1749028595.86702,4.628765250579328,0.08450217725261666,-0.316881410508436,-4.8574561074317835,0.14155299089867335,2.4713557188173128,-0.1548828169372412,-0.11077899820291104,-0.07839907169219534,0.3206627744578182,-0.3383170349614662,-0.33613258724921374,-0.4883163273334503,-2.27693510055542,-1.0591535568237305,0.7784807085990906,-0.858496367931366,-0.3435342013835907
1749028595.86719,4.628451374583962,0.08428042414615101,-0.31704031772247243,-4.856817730404073,0.14087942950043442,2.470680501164691,-0.1556522556261876,-0.1113332399753659,-0.07881808318439396,0.3223061006304758,-0.33965977977817813,-0.33823606548417967,-0.4373909533023834,-2.2460241317749023,-1.0390722751617432,0.7529047727584839,-0.8463305830955505,-0.3227763772010803
1749028595.8691492,4.628136481788341,0.08405808591688455,-0.31719913895455976,-4.856176053657894,0.14020294136988276,2.470002360928392,-0.15644818086995912,-0.1118990428495349,-0.07924356693198653,0.3239317468116774,-0.3410016841123491,-0.340378421435376,-0.4345215559005737,-2.287322521209717,-1.0436989068984983,0.7689913511276245,-0.8466665744781494,-0.3150455355644226
1749028595.9102786,4.627820803712947,0.08383521651962698,-0.31735781006945746,-4.855531087217583,0.1395235862151491,2.4693214188408485,-0.15727320024850508,-0.11247998586617944,-0.07966955930283123,0.3255417881474489,-0.34235755831822684,-0.3425534893052428,-0.4599354267120361,-2.2942917346954346,-1.0317418575286863,0.7943291664123535,-0.8229351043701172,-0.3208593130111694
1749028595.9103248,4.627504500920885,0.08361179695845959,-0.3175163222935469,-4.854882810317521,0.13884134812666496,2.4686377269840434,-0.15812835247604312,-0.11307716831917243,-0.08008802785401879,0.32713809397871013,-0.3437377555184899,-0.3447531655816948,-0.478176474571228,-2.313420295715332,-1.0250186920166016,0.7928714752197266,-0.7993722558021545,-0.346305787563324
1749028595.910365,4.627187637597142,0.08338773026853587,-0.3176747294324993,-4.854231144352585,0.13815610922184676,2.467951232413466,-0.15901266225365465,-0.11368855511047345,-0.08048986613055033,0.32872199294030435,-0.34514833189871225,-0.34696786988034006,-0.4821488261222839,-2.302031278610229,-1.0054383277893066,0.8101465702056885,-0.8595086932182312,-0.3213823139667511
1749028595.9104042,4.626870165368318,0.08316284444016178,-0.3178331501516711,-4.853575933400038,0.137467631253021,2.4672617468419475,-0.15992303622030174,-0.11430914186432291,-0.0808660078469712,0.33029435748828767,-0.3465916120628384,-0.3491868532818184,-0.4552091062068939,-2.22957706451416,-0.9641484022140504,0.7671873569488525,-0.8858413100242615,-0.3117751479148865
1749028595.9104416,4.626551917509982,0.08293690248056863,-0.3179917637881716,-4.852916936515355,0.13677555037685307,2.466568930290074,-0.16085456255291716,-0.11493189664979817,-0.08120849416102383,0.3318560661712226,-0.3480670065270054,-0.3513982303391102,-0.4668561220169067,-2.2640225887298584,-1.0148279666900637,0.7589663863182068,-0.8828592896461487,-0.3017383813858032
1749028595.9104805,4.626232614373163,0.08270961842697112,-0.31815079886236736,-4.852253835263366,0.1360793899756841,2.4658722969836666,-0.1618011503719606,-0.11554922329736045,-0.0815113618243579,0.3334086605340819,-0.34957200596242644,-0.3535887566232479,-0.4717661440372467,-2.22470498085022,-0.9968379139900208,0.7568386793136597,-0.8616208434104919,-0.3055011630058288
1749028595.9105186,4.625911880834376,0.08248067817614135,-0.31831051422132894,-4.851586258535238,0.13537859475357922,2.4651712495343387,-0.1627563444515188,-0.11615455442852643,-0.08177129266742526,0.33495494906727724,-0.3511032447065236,-0.35574354373579004,-0.452255368232727,-2.2309937477111816,-1.0134549140930176,0.8053769469261169,-0.8062742948532104,-0.3236503303050995
1749028595.910556,4.625589276373489,0.08224976424421447,-0.3184711738984749,-4.850913824463896,0.13467258635787321,2.464465142624921,-0.16371411908288314,-0.11674366242335919,-0.08198803914318088,0.3364993420900501,-0.3526574107989481,-0.35784601878736044,-0.4938599467277527,-2.285590171813965,-1.0332337617874146,0.8130397796630859,-0.8531699776649475,-0.3497528731822967
1749028595.910593,4.6252643372299715,0.08201658363024354,-0.318633018351264,-4.850236196477711,0.13396083663054728,2.4637533708487735,-0.16466950003795264,-0.11731537767350525,-0.08216467584150745,0.3380478009536865,-0.3542317332349112,-0.3598784239892361,-0.4595331251621246,-2.2363204956054688,-1.019392967224121,0.7552244663238525,-0.8871941566467285,-0.3341466188430786
1749028595.9106302,4.624936627549064,0.08178089731336212,-0.3187962362757199,-4.849553147261029,0.13324294952985458,2.4630354681034414,-0.16561895510980595,-0.11787159113176818,-0.0823077076722562,0.3396074021785303,-0.35582390294971644,-0.36182300670311063,-0.5058862566947937,-2.3359479904174805,-1.0306813716888428,0.7779181599617004,-0.885678231716156,-0.3266347646713257
1749028595.910667,4.624605792887996,0.08154254832952386,-0.3189609421185775,-4.848864620223208,0.1325187374759323,2.462311199298689,-0.16656058226084355,-0.1184166296744494,-0.08242700884005469,0.3411856153726189,-0.3574315257233521,-0.36366383446406186,-0.5058862566947937,-2.3359479904174805,-1.0306813716888428,0.7779181599617004,-0.885678231716156,-0.3266347646713257
1749028595.910704,4.624271606369246,0.08130148358968138,-0.31912716421310205,-4.8481707739629325,0.13178827440046914,2.461580621618866,-0.16749416234387157,-0.11895625540154972,-0.08253551259336968,0.34278946473608224,-0.3590514135110633,-0.36538896567597867,-0.4950557351112366,-2.3449866771698,-1.0120038986206057,0.8562068343162537,-0.8645645380020142,-0.3226474821567535
1749028595.910741,4.623933997515622,0.08105776436574584,-0.31929484659700136,-4.847471994912967,0.13105190982953555,2.460844096295042,-0.16842110791886317,-0.11949659670780372,-0.08264855814017638,0.3444247793612532,-0.36067909436796447,-0.3669925611447241,-0.4583466351032257,-2.297913789749145,-1.0136793851852417,0.8294385075569153,-0.8716946840286255,-0.2925541400909424
1749028595.910778,4.62359305783485,0.08081156280947968,-0.319463864044873,-4.846768870236717,0.13031023799319538,2.460102244706065,-0.16934425975708603,-0.12004325837317198,-0.08278284045402841,0.34609570367494114,-0.36230885815721686,-0.36847644891527714,-0.4253183603286743,-2.2826831340789795,-1.0001015663146973,0.7889575362205505,-0.9164005517959596,-0.2787335216999054
1749028595.9108152,4.6232490238719555,0.08056314571376695,-0.31963404615910995,-4.846062124721748,0.1295640292396818,2.4593558594452585,-0.17026742986154783,-0.1206007233766622,-0.08295498841225814,0.3478045155509572,-0.3639344955371571,-0.36985068482526634,-0.5852701663970947,-2.4146511554718018,-1.073691725730896,0.8160698413848877,-0.9647080302238464,-0.3009045124053955
1749028595.910853,4.622902243969286,0.08031284937983459,-0.31980520455702766,-4.845352534959757,0.12881414023837445,2.458605792457646,-0.17119461537669783,-0.12117201448413809,-0.08317989347578522,0.3495516403584524,-0.3655506570465498,-0.371132825823795,-0.3524688482284546,-2.164785385131836,-1.0063791275024414,0.7832566499710083,-0.843199610710144,-0.3006100058555603
1749028595.9108894,4.622553137024371,0.08006104982715645,-0.3199771577621426,-4.844640837343502,0.1280614209178058,2.4578528440225216,-0.17212890034559916,-0.12175847890984286,-0.08346899899869838,0.35133566589206255,-0.3671544976133185,-0.37234593843384084,-0.3932706415653229,-2.190507411956787,-0.9973669648170472,0.7947685122489929,-0.8038569688796997,-0.2988855838775635
1749028595.910926,4.622202150485783,0.07980813172483432,-0.32014975016876174,-4.843927644623797,0.12730663231344796,2.457097671150284,-0.17307118648790032,-0.1223595378039305,-0.08382881937070798,0.3531532219474593,-0.3687470875103258,-0.37351569875866997,-0.4519948065280914,-2.244523525238037,-1.0474003553390503,0.7998453378677368,-0.8345521688461304,-0.3086704611778259
1749028595.9109626,4.621849722317307,0.07955445875848545,-0.32032286326706577,-4.843213381909612,0.12655038439869773,2.4563407266257284,-0.17401902403030206,-0.12297233166608555,-0.0842599764170275,0.35499874317853675,-0.37033408927471656,-0.37466717241678515,-0.5013229846954346,-2.2849783897399902,-1.0670135021209717,0.7963559627532959,-0.8867568969726562,-0.283854991197586
1749028595.9109993,4.62149624919491,0.07930034806398854,-0.3204964189141488,-4.842498248738294,0.1257930983465924,2.455582232905455,-0.17496589573309484,-0.12359135233549597,-0.08475699885064213,0.3568642693623032,-0.37192543046300847,-0.37582191615395283,-0.4403214156627655,-2.2664871215820312,-1.0539296865463257,0.7787776589393616,-0.8754779100418091,-0.3141952157020569
