nimar13/UR3e_dataset_trayectorias/trayectorias_ejecutadas_filtradas/jtraj/trayectoria_156_result_filtrado.csv
timestamp,q1,q2,q3,q4,q5,q6,qd1,qd2,qd3,qd4,qd5,qd6,tau1,tau2,tau3,tau4,tau5,tau6
1749029433.1584551,6.04922880181414,-2.156431183870583,0.2525154517104479,1.3788169075228303,-1.9067865665243224,4.426059580577554,-0.005244838199922592,-0.0001290982675910922,-0.00030644126163964605,4.5160824046515304e-07,0.001461994895423251,-0.002367056099484247,0.0611120760440826,0.7634084224700928,0.2484945356845855,0.2252175062894821,-0.1209723055362701,0.0194933339953422
1749029433.1585271,6.049223956452518,-2.1564279977320813,0.25251738889356445,1.3788127864291455,-1.9067873140282006,4.426065956474513,-0.005335596683271254,-0.00014233558081200447,-0.0002985669165263968,-1.4666844334087462e-06,0.001438632652509654,-0.0024185939769154167,0.0512892454862594,0.7671631574630737,0.2476548850536346,0.2213487476110458,-0.1084558293223381,0.0231854617595672
1749029433.1585915,6.0492191448783394,-2.1564248648363846,0.2525193972357404,1.3788088214166494,-1.9067879122273996,4.426071947350147,-0.005406641008646914,-0.0001571599221140903,-0.000288313278822968,-3.739206646099175e-06,0.0014130587535695148,-0.002477730314367697,0.0873617827892303,0.768873929977417,0.2458503544330597,0.2109920531511306,-0.1174366995692253,0.0173248965293169
1749029433.1586542,6.049214367764977,-2.156421852138766,0.2525214764229113,1.3788051440238003,-1.9067882273352617,4.426077221066961,-0.005438870170955488,-0.00017168809522340737,-0.0002752071614569964,-6.211610587628125e-06,0.0013829246431841758,-0.0025465104737234672,0.0660279169678688,0.7571934461593628,0.2499289810657501,0.2213723510503769,-0.1307105422019958,0.0077515318989753
1749029433.1587172,6.049209635047885,-2.1564190263588334,0.2525236226164573,1.3788018613868862,-1.9067881529823765,4.426081518131876,-0.005416737215558455,-0.00018361719279390618,-0.0002589602337560705,-8.667548021874728e-06,0.0013463892319324226,-0.0026253862086947194,0.0717675313353538,0.7622436881065369,0.2430917918682098,0.2343199104070663,-0.1292792558670044,-0.0034272270277142
1749029433.158779,6.049204966698074,-2.1564164479320307,0.25252582814243074,1.3787990519270046,-1.906787619474048,4.426084671640472,-0.005329541989455853,-0.00019035668047335367,-0.0002395652050000067,-1.0836710626683934e-05,0.0013022801636256465,-0.002712767334771534,0.0681599974632263,0.7463688850402832,0.2481827139854431,0.2200807780027389,-0.114005409181118,-0.0186366848647594
1749029433.1588418,6.049200392177265,-2.156414164549899,0.25252807912768904,1.3787967648687478,-1.906786597805712,4.426086615826403,-0.005172164955480769,-0.0001892250308494564,-0.00021739310831731792,-1.2411231799211419e-05,0.0012501635072132995,-0.002804802910060485,0.0651366710662841,0.7767235040664673,0.2302777767181396,0.2213360220193863,-0.1134782284498214,0.0012282617390155
1749029433.1589043,6.049195949011655,-2.1564122054800854,0.25253035200421253,1.378795022512802,-1.9067850989907382,4.426087382802715,-0.004945213487330786,-0.00017770840549783166,-0.00019328166619246123,-1.3070924411215158e-05,0.0011903316330328882,-0.002895460829199932,0.06557497382164,0.7525626420974731,0.2312901318073272,0.2083847373723983,-0.1216337159276008,-0.028275191783905
1749029433.1589658,6.049191680579435,-2.156410577943983,0.25253261016298395,1.378793823734084,-1.9067831698853495,4.426087088611856,-0.0046546237032451705,-0.00015377167043876874,-0.00016860313244122034,-1.2516980752269025e-05,0.0011237258271552587,-0.0029769306761451312,0.0635183602571487,0.75906902551651,0.2213792204856872,0.2278569787740707,-0.1170743256807327,-0.0114815542474389
1749029433.159029,6.049187632874799,-2.156409266379138,0.25253480191531136,1.3787931474967894,-1.9067808868589096,4.426085911150363,-0.0043108118052650034,-0.00011620408117151096,-0.00014529944673655177,-1.0512723002258456e-05,0.0010518094848222736,-0.003040315445458608,0.0370849892497062,0.7508757710456848,0.2345203757286071,0.2356078773736953,-0.1273044347763061,-0.0308386422693729
1749029433.1590905,6.049183850237568,-2.1564082346771,0.2525368605410295,1.378792955809459,-1.906778348484383,4.426084063686298,-0.003927500702510907,-6.497405942437721e-05,-0.00012587330561647354,-6.928826244937315e-06,0.0009764063188196932,-0.0030765236879070133,0.0318651646375656,0.7465733289718628,0.2267837822437286,0.2278206199407577,-0.1142842471599578,-0.0091164447367191
1749029433.1591525,6.049180370598892,-2.1564074309735517,0.252538706777128,1.3787931960799795,-1.9067756681073156,4.426081768141249,-0.003520363087564229,-1.5604457395810925e-06,-0.0001133260493907747,-1.7892315864234527e-06,0.0008995194292037711,-0.003077242560056955,0.0383709669113159,0.7404407262802124,0.2392790615558624,0.2291256040334701,-0.1074118763208389,-0.0021656099706888
1749029433.1592135,6.0491772211274135,-2.156406794428691,0.2525402536826652,1.3787938032135085,-1.90677296677011,4.426079231820013,-0.0031056223782597136,7.077786971281189e-05,-0.00011103715019212692,4.687159049721403e-06,0.000823149698704547,-0.003035868748672647,0.0457587763667106,0.7366790771484375,0.2238770425319671,0.2356260269880294,-0.1138678938150405,-0.0224618874490261
1749029433.159275,6.0491744151727,-2.156406263345975,0.2525414134201577,1.3787947019871418,-1.906770366541715,4.42607663005978,-0.002698738873876608,0.00014683539610118953,-0.00012258548320289757,1.2054826289320423e-05,0.00074913226299514,-0.0029482898024290813,0.0324011966586113,0.7158791422843933,0.2179400324821472,0.2550190091133117,-0.1023053228855133,0.01237622089684
1749029433.159336,6.049171951356635,-2.156405783735173,0.2525421051569537,1.378795810103314,-1.906767984043185,4.426074095873397,-0.0023132829676692068,0.0002194383659895367,-0.00015151926996222133,1.9626386735145947e-05,0.0006790063003067542,-0.0028134336034930326,0.0324011966586113,0.7158791422843933,0.2179400324821472,0.2550190091133117,-0.1023053228855133,0.01237622089684
1749029433.1593986,6.049169815542612,-2.1564053172799102,0.25254226303067623,1.3787970419458304,-1.9067659241053856,4.426071716508454,-0.001960066111778582,0.0002796055861866472,-0.00020108916993866134,2.648018273186873e-05,0.0006139275629779925,-0.002633536950841759,0.029270764440298,0.7108455896377563,0.2176234424114227,0.2356082946062088,-0.142812043428421,-0.0275914222002029
1749029433.1594598,6.049167985850044,-2.1564048478668805,0.25254184298502547,1.37879831273984,-1.9067642739300543,4.426069536060072,-0.0016465700813176833,0.00031691936082612634,-0.0002739664452672756,3.149657826946601e-05,0.000554627300573376,-0.00241412634153513,0.0248117409646511,0.708943247795105,0.213445633649826,0.2291427701711654,-0.1147196292877197,-0.0043341629207134
1749029433.1595209,6.049166439795659,-2.1564043861862285,0.2525408273954279,1.3787995427739075,-1.9067630984526593,4.426067562756511,-0.0013766898991758934,0.00032011722270428077,-0.00037197351503577856,3.342759679698768e-05,0.0005014167694420073,-0.0021637483178249357,0.0125030986964702,0.7136892080307007,0.2072508037090301,0.2524011135101318,-0.1242265850305557,-0.0173949226737022
1749029433.1595817,6.049165161625469,-2.1564039720947323,0.2525392268353288,1.3788006615455712,-1.906762437508978,4.426065779139002,-0.0011507852060470291,0.000277892021795282,-0.0004958550678685966,3.100262713226392e-05,0.0004542332324136632,-0.001893519007337448,0.0466998815536499,0.7082065343856812,0.2029938399791717,0.2446906417608261,-0.1172918975353241,-0.0320051498711109
1749029433.159643,6.049164147655249,-2.1564036744607447,0.2525370789064751,1.3788016118620108,-1.9067623048872717,4.426064153076324,-0.0009660165116510492,0.0001798597245170995,-0.00064511238801164,2.3070430089598885e-05,0.00041272056874891075,-0.0016165714932056658,0.0274596475064754,0.6997146010398865,0.2129466831684112,0.2511096596717834,-0.1181585192680358,-0.0172118581831455
1749029433.159797,6.0491634080191625,-2.1564035883056816,0.2525344444751169,1.378802353773693,-1.9067626888068527,4.426062647530019,-0.0008169259083962669,1.762346812439571e-05,-0.0008179125644445248,8.774769098895513e-06,0.0003763351432334443,-0.0013474657900207465,0.0370528027415275,0.6871852874755859,0.2153986394405365,0.2498276084661483,-0.1368094086647033,-0.0332899242639541
1749029433.1611269,6.049162964203069,-2.156403829243233,0.2525314018079732,1.378802867811272,-1.90676355328896,4.426061227344322,-0.0006962078163418289,-0.0002141675556295758,-0.0010110732594855805,-1.224223249957611e-05,0.00034446577750015303,-0.0011015996951760625,0.0116048529744148,0.6882847547531128,0.2080225348472595,0.2498639076948166,-0.1338345110416412,-0.0264837518334388
1749029433.206306,6.049162842801502,-2.156404525395136,0.2525280391343505,1.3788031567538748,-1.9067648402544162,4.426059862076889,-0.0005956054958106112,-0.000516890448497026,-0.0012201206542470585,-3.9618609465009845e-05,0.00031655589842340636,-0.000894631781739773,0.0356184244155883,0.6660493612289429,0.2013425230979919,0.2614553570747375,-0.1346883177757263,-0.0109759382903575
1749029433.2063537,6.0491630668987355,-2.1564058072548367,0.2525244462877003,1.3788032453649723,-1.9067664725279232,4.42605852488612,-0.000506863772318083,-0.0008872921397510245,-0.0014394262966997981,-7.204705240644513e-05,0.0002922163015345577,-0.0007419088759310651,0.0653098225593566,0.6757900714874268,0.203970581293106,0.2692708373069763,-0.1281691938638687,-0.0246889628469944
1749029433.2063954,6.049163646999447,-2.1564077965767883,0.25252070634932205,1.3788031780520957,-1.9067683580034138,4.426057188499104,-0.0004226674794415686,-0.0013172411447140108,-0.0016624417385231048,-0.00010706457283464501,0.00027131837224560245,-0.0006578837087285244,0.0644250139594078,0.6487723588943481,0.2018207907676696,0.2744113802909851,-0.1279920190572738,-0.0243861563503742
1749029433.2064347,6.0491645732755055,-2.156410596069432,0.25251688843079095,1.378803014921455,-1.9067703951161656,4.426055819921566,-0.0003374982042228681,-0.0017939984054474091,-0.0018820566291209704,-0.00014088097025275603,0.00025405991601433286,-0.0006555148990360013,0.0531958490610122,0.6455134153366089,0.2024975717067718,0.2576603293418884,-0.1374377608299255,-0.0202361308038234
1749029433.2064738,6.049165810253541,-2.1564142818477405,0.25251304261184865,1.3788028270417625,-1.9067724794956498,4.426054375503445,-0.0002483487492369963,-0.002301062116599948,-0.002091096401186431,-0.0001682717783789891,0.00024099881199233416,-0.0007456590712624004,0.0585122890770435,0.5964300036430359,0.1990317702293396,0.2743930220603943,-0.1414481848478317,-0.0290134288370609
1749029433.206512,6.0491672944227695,-2.156418899909395,0.2525091975495409,1.3788026918683083,-1.9067745111743768,4.426052797329647,-0.0001552452776775812,-0.0028195511009827113,-0.0022829446406626742,-0.00018255956885287558,0.00023305336148150726,-0.0009364889521934453,0.1156767234206199,0.5763540863990784,0.1813700497150421,0.2731624245643616,-0.1231321692466735,-0.0256992876529693
1749029433.2065496,6.049168934878556,-2.1564244666655608,0.2525053606848261,1.378802689645939,-1.9067764011905914,4.426051011133007,-6.154144320836371e-05,-0.0033299720947807796,-0.002452225294739465,-0.00017570121186995661,0.00023147226296456845,-0.0012329946071068182,0.1061604395508766,0.659586489200592,0.2008287608623504,0.2744559645652771,-0.1194215342402458,-0.0187927223742008
1749029433.2065885,6.049170616951827,-2.156430972398643,0.2525015206150761,1.378802901213858,-1.9067780762898898,4.426048925439294,2.6033757592511145e-05,-0.003814098433304996,-0.0025954268752105174,-0.00013848809643516807,0.00023778136862327053,-0.0016366394716518682,0.101089559495449,0.6602022051811218,0.2137726843357086,0.2679920792579651,-0.1253693252801895,-0.0404629670083522
1749029433.2066274,6.049172208581927,-2.156438385840371,0.2524976510404675,1.3788034072143929,-1.9067794809005028,4.426046431552129,9.757454110755385e-05,-0.004256627315249176,-0.002711323717934041,-6.085234426312872e-05,0.0002537184428134953,-0.0021452408754026797,0.0798815339803695,0.6478342413902283,0.1931879222393036,0.2770763635635376,-0.106882706284523,-0.0375794619321823
1749029433.2066662,6.049173568812953,-2.1564466580936426,0.252493715491215,1.3788042885755507,-1.9067805762768644,4.426043404148308,0.0001404279962526532,-0.004646327747966124,-0.0028010748577512994,6.774348363826041e-05,0.0002811706216698677,-0.0027531202476299907,0.08685003221035,0.6406827569007874,0.1771381199359893,0.275689959526062,-0.0769113898277282,-0.054034449160099
1749029433.2067037,6.049174557222608,-2.1564557249168828,0.25248967186538956,1.3788056283635015,-1.9067813372334022,4.426039702484076,0.00013982836103613465,-0.004976532704286517,-0.002867959902250975,0.0002578701195944141,0.0003221316089030258,-0.0034515196339519228,0.0738673880696296,0.6388721466064453,0.1784225106239318,0.2874392867088318,-0.1072889417409896,-0.0317614078521728
1749029433.206741,6.049175042602885,-2.1564655075247745,0.2524854759755722,1.3788075154048989,-1.906781747191905,4.426035172381955,7.970069065988452e-05,-0.005244998740635032,-0.0029168105855799484,0.0005196955482066406,0.00037869618205027176,-0.004229218769516084,0.0471108481287956,0.6459006667137146,0.1845320463180542,0.2938496470451355,-0.0892747789621353,-0.0528524070978164
1749029433.2067783,6.049174909245585,-2.156475912860613,0.252481083809699,1.3788100500097626,-1.9067817924789356,4.426029649295622,-5.641039680192065e-05,-0.005453279583799704,-0.002953271262739369,0.0008625969668948003,0.00045310761758411954,-0.005073237090474602,0.031723529100418,0.6207370162010193,0.1767752766609192,0.3094608783721924,-0.0785760283470153,-0.0668402463197708
1749029433.206816,6.049174059798887,-2.156486834494953,0.2524764526688567,1.3788133514478724,-1.906781456855256,4.4260229627807055,-0.0002843407008518907,-0.005605806627957667,-0.002983044305852858,0.0012948558043866312,0.0005478682684954787,-0.005969498017141955,0.0214831382036209,0.6225572824478149,0.1856465637683868,0.2951526045799255,-0.0726078748703002,-0.0474801063537597
1749029433.2068532,6.049172414366143,-2.156498155033048,0.2524715415507019,1.3788175658250688,-1.9067807169770314,4.42601494237569,-0.0006182956911756632,-0.005708855160286931,-0.003011249399330722,0.0018234413357348601,0.0006659132938382337,-0.0069033770990737575,-0.0038110315799713,0.6474621295928955,0.1832435429096222,0.3081419467926025,-0.0614369213581085,-0.060065608471632
1749029433.2068903,6.049169905978819,-2.156509750322233,0.2524663112229952,1.3788228722903066,-1.9067795389686861,4.426005424220548,-0.001069890767961878,-0.005769533364784582,-0.003041970454187718,0.002453846347815307,0.0008108307841237736,-0.007860125026535146,0.0024342276155948,0.6402783989906311,0.1979786455631256,0.3140065670013428,-0.0667353570461273,-0.0833077728748321
1749029433.2069275,6.0491664730246075,-2.156521495076039,0.2524607244325654,1.3788294855006773,-1.9067778758813196,4.425994257254667,-0.0016472999196916272,-0.005794886981179508,-0.003078005825548287,0.0031898994175044034,0.0009870889076216435,-0.008825208641086393,0.0040662735700607,0.6190162897109985,0.1971283555030822,0.3022367358207702,-0.0513400733470916,-0.0678550004959106
1749029433.206965,6.049162049812169,-2.15653326913762,0.2524547465569253,1.3788376529254827,-1.9067756657765225,4.4259813080443715,-0.0023545607671812832,-0.005791176929640226,-0.003120796631819771,0.0040334640380655165,0.0012002088773759353,-0.009784623186462177,-0.0135607421398162,0.6434580087661743,0.1855737268924713,0.3178116083145141,-0.0721190273761749,-0.0719568580389022
1749029433.2070029,6.049156556799749,-2.1565449635952953,0.2524483468251104,1.378847646548591,-1.9067728303900202,4.4259664640870175,-0.0031910690960292773,-0.005763361061031895,-0.003170492730225245,0.004983957376670179,0.0014568132566038564,-0.010725207293072374,-0.0398690775036811,0.6582309007644653,0.2030384242534637,0.3103368282318115,-0.0521353483200073,-0.087596908211708
1749029433.2070408,6.049149891783769,-2.156556486053679,0.2524415001854449,1.3788597494792343,-1.9067692745364304,4.4259496363228745,-0.004151278795082506,-0.005714792108996503,-0.0032261213533658043,0.006037675660684479,0.0017644906034384592,-0.01163496875726253,-0.0282055437564849,0.636677622795105,0.1956634223461151,0.3218226432800293,-0.0309887826442718,-0.0860209614038467
1749029433.2070787,6.049141922916604,-2.1565677643421424,0.2524341899347449,1.3788742386496424,-1.9067648866303488,4.425930762075389,-0.005224612120432271,-0.00564713060796106,-0.0032858353983369827,0.007186981970124384,0.0021314459866374627,-0.012503424516940538,-0.0407503470778465,0.6497724652290344,0.1981984674930572,0.3281908631324768,-0.0367092937231063,-0.0783508867025375
1749029433.2071166,6.04913248434633,-2.156578747952621,0.2524264111738867,1.37889136507467,-1.906759540981367,4.425909809395115,-0.006395586268853366,-0.0055604625855856255,-0.0033472229856784472,0.008419475592115326,0.0025659387868093653,-0.013321968609068566,-0.0726501569151878,0.6442972421646118,0.181870549917221,0.3237292468547821,-0.0360103547573089,-0.091600090265274
1749029433.207223,6.049121375522491,-2.1565894067434295,0.2524181749815396,1.3789113331422975,-1.9067531025266249,4.425886782763821,-0.0076441719603936266,-0.005453603096624938,-0.0034076523846764844,0.009717301172812819,0.0030755314721522477,-0.014084289588079916,-0.0568103156983852,0.6485549807548523,0.2156814932823181,0.3339151442050934,-0.0359969139099121,-0.0972213372588157
1749029433.2091055,6.049108365339859,-2.1565997269422277,0.25240951293580655,1.3789342802564606,-1.9067454339930625,4.425861728788294,-0.00894641030379276,-0.005324553037486389,-0.0034646136175675796,0.011056758988763647,0.0036661835303534356,-0.014786850767762384,-0.0816073417663574,0.6633436679840088,0.2091084718704223,0.3255711793899536,-0.038468524813652,-0.1108420565724372
1749029433.2502763,6.0490932019751105,-2.1566097051702213,0.2524004812442882,1.3789602581132168,-1.9067364044151094,4.425834739603597,-0.010275320916203033,-0.005171057994779301,-0.0035160128472380117,0.012408350715650378,0.004341234157290657,-0.01542942243557671,-0.0816073417663574,0.6633436679840088,0.2091084718704223,0.3255711793899536,-0.038468524813652,-0.1108420565724372
1749029433.2503226,6.049075628512782,-2.1566193418943334,0.2523911633389963,1.3789892171588354,-1.9067258973146635,4.425805951609609,-0.011602131480750845,-0.004991201388189173,-0.003560386323677917,0.013737359871958371,0.005100339872536985,-0.0160156210505372,-0.1041677296161651,0.6788474917411804,0.2156010270118713,0.3300510942935943,-0.0140970349311828,-0.1034751236438751
1749029433.250363,6.049055403438001,-2.1566286359000384,0.2523816696263787,1.3790209961952584,-1.9067138171857887,4.425775537811631,-0.012897831550222557,-0.004783958726492586,-0.0035970239723603875,0.015005037901845956,0.005938471354809846,-0.016553370435549965,-0.1139895170927047,0.6731455326080322,0.2049305438995361,0.3259398341178894,-0.0137194693088531,-0.1265149116516113
1749029433.2504015,6.049032324061702,-2.1566375806783955,0.2523721334161528,1.3790553191436712,-1.9067000939120402,4.425743693198542,-0.014134986003591471,-0.0045496476294989785,-0.0036260158540415504,0.01617043543032637,0.006845112572688807,-0.01705516064334003,-0.1282160729169845,0.6747026443481445,0.2052281498908996,0.3365650773048401,0.0015650242567062,-0.1054990887641906
1749029433.2504425,6.049006250246986,-2.1566461624110067,0.2523627028549676,1.3790918003066073,-1.906684685707701,4.425710613956422,-0.015289647282951235,-0.004290223590256005,-0.00364824421984046,0.01719285882131043,0.007803823748423704,-0.01753796150475264,-0.115477442741394,0.6955828070640564,0.2184150516986847,0.3235732913017273,0.0066407620906829,-0.1088473051786422
1749029433.2504811,6.0489771255578235,-2.156654358498092,0.2523535296490366,1.3791299583377532,-1.9066675817003254,4.425676472493455,-0.01634312559051085,-0.004009387132812978,-0.0036653357340466256,0.018034834242421503,0.008792314938502317,-0.018022675714842805,-0.1260815411806106,0.6825649738311768,0.2204470038414001,0.3265296220779419,0.03720523416996,-0.1227637380361557
1749029433.25052,6.048944993007473,-2.156662135930457,0.25234475613369134,1.37916923809345,-1.9066488052407522,4.425641391074445,-0.017283359064523364,-0.0037124830592994247,-0.003679572739902557,0.01866534262958976,0.009783128322777031,-0.018533095794396763,-0.0961315929889679,0.7161595225334167,0.2145965695381164,0.3132718801498413,0.0192665755748748,-0.1251702755689621
1749029433.2505577,6.0489100028014375,-2.156669449893153,0.2523365026495066,1.3792090389124636,-1.9066284184489775,4.425605417385341,-0.018105683308381554,-0.0034061921969530526,-0.003693756035043315,0.019062984846555782,0.010744953792319144,-0.019094432462816797,-0.1262675672769546,0.6981895565986633,0.2062290906906128,0.3130057454109192,0.0265459716320037,-0.1212860494852066
1749029433.2505963,6.048872409999966,-2.156676243856094,0.2523288571369516,1.3792487476147637,-1.906606527652542,4.425568505505058,-0.018812908028849787,-0.0030980447158760753,-0.003711022689322744,0.019218681773856872,0.01164452031156965,-0.019731567559508723,-0.1356972157955169,0.6969304084777832,0.200868546962738,0.3014000058174133,0.0300261974334716,-0.1496205478906631
1749029433.2506356,6.048832561135953,-2.1566824523911214,0.25232186831396913,1.379287774423968,-1.906583288691054,4.425530505362774,-0.01941473018589561,-0.0027958181222996785,-0.0037346422436787636,0.019137530904662654,0.01244893331010739,-0.020467226674289643,-0.1553887575864792,0.6780264973640442,0.2135623693466186,0.2990978360176086,0.0390724092721939,-0.149136021733284
1749029433.250674,6.0487908704707065,-2.156688007135132,0.2523155428380402,1.379325589867216,-1.9065589106791825,4.425491162759357,-0.019926612568008262,-0.0025069110988397967,-0.003767825618900562,0.018839533036277983,0.01312827898591333,-0.021320264542451398,-0.1430731564760208,0.6842576861381531,0.2100487053394317,0.2767814993858337,0.0475048273801803,-0.1341946274042129
1749029433.250712,6.0487477882773835,-2.1566928452709133,0.2523098458480528,1.3793617604172292,-1.9065336565247128,4.425450130603983,-0.020368312847047817,-0.002237793029570726,-0.0038135731511841314,0.018359051659344504,0.01365828949758325,-0.02230422615867418,-0.1463300436735153,0.6805750727653503,0.2051704227924347,0.2795437574386596,0.0551742911338806,-0.1409207731485366
1749029433.250749,6.048703764717791,-2.156696919153842,0.25230470370201685,1.379395980385332,-1.9065078382403275,4.42540699046448,-0.02076226050410279,-0.001993610909318001,-0.0038745670892105085,0.01774303520077729,0.014022844948818858,-0.023426307567063386,-0.1311370134353637,0.689249575138092,0.2144561409950256,0.274703174829483,0.0487322509288787,-0.1485151499509811
1749029433.2507873,6.0486592132302786,-2.1567002054628737,0.2523000077643791,1.3794280974703756,-1.906481805203501,4.4253612821772546,-0.021131960998305006,-0.0017779953491215495,-0.003953094875664654,0.01704817522239556,0.014216066962313464,-0.024686802047799022,-0.120153859257698,0.6737896800041199,0.2163974940776825,0.2571767568588257,0.0459001958370208,-0.155243381857872
1749029433.2508245,6.048614477039944,-2.156702712396855,0.25229561860670224,1.379458129346329,-1.9064559243725603,4.425312538323183,-0.021500571323880852,-0.0015930611340393861,-0.004050984505694765,0.016337267017746758,0.01424374353252205,-0.026079075563820085,-0.1282347440719604,0.6836124062538147,0.1905044317245483,0.2687225341796875,0.0325576961040496,-0.1456003189086914
1749029433.2508616,6.048569801790798,-2.156704483771134,0.25229137068909424,1.3794862688505367,-1.9064305530445858,4.425260319907007,-0.021889746120488284,-0.0014395620116564457,-0.004169543024553003,0.015675086432927646,0.014123843926059981,-0.027590062877334214,-0.1346636712551117,0.6632089018821716,0.2066860496997833,0.2498020678758621,0.0265803635120391,-0.1445600986480713
1749029433.250898,6.048525316510742,-2.1567055992966613,0.2522870781595457,1.3795128761272606,-1.906406006548549,4.425204249548387,-0.022318804043223575,-0.0013171434518755723,-0.0043095050103807205,0.015124117911613614,0.013885957719559177,-0.02920121840425034,-0.1596212685108184,0.6904951930046082,0.1916883289813995,0.2748240828514099,0.0291602313518524,-0.168671578168869
1749029433.2509353,6.048481024115531,-2.1567061709089472,0.2522825425266119,1.3795384576243808,-1.906382524595707,4.425144038871095,-0.022804214838877443,-0.0012246404694422344,-0.004471009336932404,0.014740476446636109,0.013569618905595125,-0.030889810413869102,-0.1580221951007843,0.6752517819404602,0.1796055436134338,0.2836292386054992,0.0451635420322418,-0.147619366645813
1749029433.2509997,6.048436801661386,-2.1567063357762652,0.2522775625100404,1.379563633663453,-1.9063602404402216,4.42507950753948,-0.02335936329260104,-0.0011603820437579295,-0.004653624506876429,0.014570356501666326,0.013221626235090874,-0.032630426915274596,-0.1606419086456298,0.6604179739952087,0.1822851002216339,0.3090611696243286,0.0299493074417114,-0.1723095774650573
1749029433.251071,6.04839240992548,-2.1567062473544842,0.2522719455473029,1.37958909774591,-1.9063391566970362,4.4250105923888405,-0.02399451586894236,-0.00112247895856425,-0.0048564346018719435,0.014647303492888356,0.01289260879783795,-0.03439656708711377,-0.1538800299167633,0.6562736630439758,0.1800640523433685,0.2910646200180053,0.0547222346067428,-0.1732996106147766
1749029433.25129,6.048347511487276,-2.1567060662431885,0.25226551962549987,1.3796155714962366,-1.906319131104046,4.424937346053748,-0.024716910034111368,-0.001109081784252431,-0.005078180273606297,0.014990532080385654,0.012633180260725312,-0.036162213292615195,-0.1288622915744781,0.6519463658332825,0.1953805088996887,0.3076504468917846,0.0522850602865219,-0.1653394103050232
1749029433.253167,6.048301695816709,-2.1567059523563934,0.25225814372086486,1.3796437592301043,-1.9062998749661935,4.424859925323254,-0.02553090478809563,-0.0011185995563240585,-0.0053174279402353275,0.015604411689547236,0.01249006029921034,-0.03790330313305331,-0.1985401660203933,0.6381194591522217,0.1919280588626861,0.3090071082115173,0.064390555024147,-0.1629266589879989
1749029433.2942934,6.048254509022768,-2.156706059054425,0.2522497153658196,1.3796743058114949,-1.9062809662151756,4.42477857036506,-0.026438159619661773,-0.001149868969990233,-0.0055727274214828985,0.01647911413178342,0.012502524309249266,-0.039599040668947545,-0.1760577410459518,0.6500687003135681,0.2013325989246368,0.3082813024520874,0.0693448781967163,-0.1578236073255539
1749029433.2943406,6.048205485486137,-2.15670652884811,0.25224017454347164,1.3797077610284554,-1.9062618774174436,4.424693577153399,-0.027437832033409,-0.0012022596963390676,-0.005842723038579719,0.017592292821765783,0.012699494411226447,-0.04123299754448513,-0.1834428906440735,0.6471144556999207,0.183405339717865,0.3045090436935425,0.0844867229461669,-0.1830886751413345
1749029433.294382,6.048154178719328,-2.156707489700153,0.25222950377090203,1.3797445533177233,-1.9062420165524783,4.424605266670158,-0.028526794372122723,-0.0012756959874965165,-0.006126202958584349,0.01891156301360774,0.013097522196957924,-0.042793957899045644,-0.2113290876150131,0.6591317057609558,0.1710274517536163,0.3271868824958801,0.0758746191859245,-0.1467409580945968
1749029433.2944217,6.048100188997761,-2.1567090510803832,0.2522177245913776,1.3797849750661881,-1.9062207757229013,4.424513955070853,-0.029699871234842044,-0.0013705737703511526,-0.006422092742952116,0.020397492301368926,0.013699835606432348,-0.04427646174574823,-0.2072001695632934,0.6465362906455994,0.1594313085079193,0.3314445614814758,0.0922214165329933,-0.1506724506616592
1749029433.2944603,6.048043185468393,-2.1567112995999875,0.25220489089091114,1.3798291805355694,-1.9061975813086849,4.424419928482665,-0.030950095983225803,-0.0014875627876123018,-0.0067294079554808045,0.022006790086463616,0.014496522186912242,-0.04568101296318446,-0.2221916019916534,0.6534939408302307,0.1674698293209076,0.3295297622680664,0.0991991087794303,-0.15381520986557
1749029433.2945008,6.047982920965849,-2.1567142948393108,0.2521910797301829,1.3798771957254523,-1.9061719390635812,4.424323424594607,-0.032268984693165456,-0.0016273070470503347,-0.007047174428152397,0.02369539636442006,0.015465804736759667,-0.04701394685203682,-0.237355351448059,0.6206434369087219,0.187301367521286,0.3227282166481018,0.1184516921639442,-0.1703854948282241
1749029433.2945392,6.047919238727724,-2.156718066460043,0.2521763807159411,1.37992893775147,-1.9061434690034187,4.424224621428908,-0.03364682953642331,-0.0017900675721992999,-0.007374314296057485,0.025421208896776955,0.016576252840448513,-0.04828698754741793,-0.235563650727272,0.6381616592407227,0.1875419020652771,0.3139871954917907,0.1362637132406234,-0.1708755791187286
1749029433.2945771,6.047852071193792,-2.1567226136503335,0.2521608851308401,1.3799842402034173,-1.9061119269261713,4.424123632283866,-0.0350730167999685,-0.0019753769088572733,-0.0077094961530069965,0.027146253818441417,0.01778968465339966,-0.04951655007000199,-0.2460918426513672,0.6158179640769958,0.1811030507087707,0.3172057271003723,0.1268969923257827,-0.1740816533565521
1749029433.294615,6.047781431845022,-2.1567279074948704,0.2521446760028337,1.3800428807473857,-1.9060772114133766,4.424020505101883,-0.03653637372100132,-0.0021817825021014452,-0.008050962472641074,0.028838196125687828,0.019064457059321607,-0.0507228492229011,-0.2619234323501587,0.6214821934700012,0.1732797920703888,0.3310260772705078,0.125440776348114,-0.1874301880598068
1749029433.2946534,6.047707401568692,-2.1567338961515166,0.25212782009648765,1.3801046077750792,-1.9060393568931306,4.423915224462317,-0.03802554335218872,-0.0024067396439828065,-0.008396365489963649,0.030471187428454432,0.020358821240802315,-0.05192887248724361,-0.2721338868141174,0.6297788023948669,0.1820977479219436,0.342018187046051,0.1445611864328384,-0.1774802803993225
1749029433.2946918,6.04763011121309,-2.156740511895758,0.25211036257837194,1.3801691637901734,-1.9059985147791434,4.423807714790441,-0.03952937755454715,-0.002646678741807594,-0.00874265032917897,0.03202613029878026,0.021634034659080693,-0.05315926046950323,-0.3094218373298645,0.6283331513404846,0.1774865984916687,0.3091883063316345,0.1216800510883331,-0.1891007721424102
1749029433.2947288,6.047549721850732,-2.1567476785456607,0.25209232487341376,1.3802363041406618,-1.9059549259659299,4.42369784389842,-0.04103732218146814,-0.0028972297704523684,-0.009086017896094206,0.03349048011629621,0.02285696729685313,-0.054439118099959244,-0.2827169001102447,0.637718677520752,0.1644550561904907,0.3303816020488739,0.1243472844362258,-0.1802767962217331
1749029433.2947662,6.0474664041643535,-2.15675531797911,0.2520737059034483,1.3803058105012094,-1.9059088890415086,4.423585426550535,-0.04253975178675015,-0.0031535539440791073,-0.009421984041434345,0.03485771000313564,0.024002012759587587,-0.05579276007596672,-0.2780351638793945,0.6403599381446838,0.1827703714370727,0.3202462196350097,0.1304390132427215,-0.2187595814466476
1749029433.2948034,6.047380318559686,-2.1567633553864356,0.2520544865019181,1.3803774991313156,-1.9058607291013538,4.423470228454664,-0.044028212437972315,-0.0034107181048368095,-0.00974552971357257,0.03612655560664469,0.02505219929208288,-0.05724238791184737,-0.2954270541667938,0.6649248003959656,0.1821759641170501,0.3159190714359283,0.1199567094445228,-0.2033243179321289
1749029433.2948406,6.04729159797625,-2.1567717238839794,0.25203463646911917,1.380451224401981,-1.905810771523571,4.423351971818091,-0.04549555783881866,-0.003664051039546449,-0.010051315726589665,0.037300152727184586,0.02599947641210779,-0.058806710548931336,-0.3023837804794311,0.6199555993080139,0.1929652392864227,0.3220027685165405,0.133785530924797,-0.2349138408899307
1749029433.2948775,6.047200335563845,-2.156780369331346,0.25201412348169894,1.3805268784111748,-1.9057593233987666,4.423230344011903,-0.04693599533800074,-0.00390943456854817,-0.010333926883471374,0.03838517612203345,0.026844223893863064,-0.060499550010091156,-0.2756268978118896,0.6322712302207947,0.1893656253814697,0.332608699798584,0.143428772687912,-0.2162132561206817
1749029433.2949145,6.047106579035316,-2.156789255414832,0.2519929228252484,1.3806043876631306,-1.9057066630019495,4.423105010700583,-0.048345070848403594,-0.004143497294602042,-0.01058812015603765,0.03939106085267632,0.027594094802816098,-0.06232850564497371,-0.2779219150543213,0.6423513889312744,0.1879611909389495,0.3154250383377075,0.1046403497457504,-0.2205958664417266
1749029433.2949514,6.047010332486032,-2.1567983678815854,0.25197102677495437,1.3806837077855687,-1.9056530355767933,4.422975634074214,-0.04971962009532157,-0.0043636954436741615,-0.010809072956580013,0.04032933329567509,0.02826236338133046,-0.06429377688893693,-0.3285639882087707,0.6429764628410339,0.1762521862983703,0.3221670985221863,0.1131801754236221,-0.2037774622440338
1749029433.2949884,6.046911565009944,-2.156807716143268,0.25194845254055664,1.3807648172430254,-1.9055986524125095,4.422841895750155,-0.05105771954172043,-0.004568287896256267,-0.010992643989903345,0.0412130240043639,0.028865992840546754,-0.06638726367062926,-0.3327414393424988,0.6124135255813599,0.1780148595571518,0.3158543705940246,0.1360093057155609,-0.2170759290456771
1749029433.295025,6.046810223798234,-2.156817330750728,0.25192524790327453,1.3808477110879789,-1.905543689886619,4.422703522559873,-0.05235868456514083,-0.004756237486579163,-0.011135658661371409,0.04205611351808238,0.02942365600949238,-0.0685920754541717,-0.3327414393424988,0.6124135255813599,0.1780148595571518,0.3158543705940246,0.1360093057155609,-0.2170759290456771
1749029433.2951396,6.046706248058218,-2.1568272562455983,0.2519014937902416,1.3809323958741375,-1.905488285745136,4.422560312048446,-0.05362315881325329,-0.004927083879190203,-0.011236213538605187,0.0428729835533393,0.02995392568528528,-0.07088258306700111,-0.2762180864810943,0.6345617771148682,0.1978523731231689,0.324444055557251,0.1503065079450607,-0.2139884829521179
1749029433.297208,6.046599580014444,-2.156837540157682,0.25187730310926215,1.3810188866506112,-1.9054325314307783,4.422412153839422,-0.054853299093021446,-0.005080824623245659,-0.011293970073480469,0.043677886047721416,0.030473799771894294,-0.07322514014637169,-0.3260842859745025,0.6600631475448608,0.1834056228399276,0.3475943803787231,0.1403571516275406,-0.2316980510950088
1749029433.3382812,6.046490170927623,-2.1568482200525096,0.25185281546836497,1.3811072062817176,-1.9053764615519582,4.422259043709774,-0.05605300057106784,-0.0052178164836450686,-0.01131038891157571,0.04448446656379386,0.03099764803475094,-0.07557957536447107,-0.3295707404613495,0.6683095693588257,0.193257451057434,0.3333557546138763,0.1509532630443573,-0.2601206302642822
1749029433.3383324,6.046377982369159,-2.156859311215143,0.25182818803291024,1.3811973864563942,-1.9053200435984123,4.422101088859129,-0.05722806067333234,-0.005338687385324098,-0.011288850782531444,0.04530536815025566,0.031536585804025026,-0.07790149607820691,-0.3480504155158996,0.6699944734573364,0.2078131586313247,0.346331238746643,0.1569180339574813,-0.2568408250808716
1749029433.3383744,6.046262984293447,-2.156870797544609,0.25180358355505245,1.381289469209501,-1.9052631715180013,4.42193850432183,-0.058386166449728945,-0.005444245037147787,-0.011234620600154132,0.04615190975588231,0.032098221841435716,-0.08014533775178205,-0.3371707797050476,0.6260817050933838,0.1988214701414108,0.3471953272819519,0.1324594169855117,-0.2380668520927429
1749029433.3384137,6.046145151519665,-2.1568826274985082,0.25177915726290034,1.3813835077992114,-1.9052056656577587,4.421771601229152,-0.059536610313894935,-0.005535380084969698,-0.011154635222647296,0.047033811919678356,0.0326867040985494,-0.08226795434780279,-0.3060176968574524,0.6520634889602661,0.1894324272871017,0.3475895524024963,0.1622073054313659,-0.1964098066091537
1749029433.3384542,6.046024459947445,-2.1568947157126255,0.25175504455963377,1.381479566116562,-1.9051472799302098,4.421600767976723,-0.06068969127886611,-0.005612974838745081,-0.011057126011231709,0.047958949717198066,0.03330298839878546,-0.0842324136727215,-0.3886356949806213,0.6562920808792114,0.2066312432289123,0.3353145718574524,0.1802875995635986,-0.2153747677803039
1749029433.3384917,6.0459008836277475,-2.156906949721139,0.25173135123024276,1.3815777161901803,-1.905087715866345,4.4214264456449,-0.06185583935866222,-0.0056778306822085544,-0.010951116816781577,0.04893313559214968,0.033945262246056165,-0.08601158898095393,-0.3718147873878479,0.6564689874649048,0.1905429512262344,0.3727720975875854,0.1658521890640258,-0.2313895523548126
1749029433.33853,6.045774393509488,-2.156919200474092,0.2517081471739244,1.3816780337865646,-1.9050266425153426,4.421249099272968,-0.06304458502045858,-0.00573061936667859,-0.010845858043750649,0.049959948311392555,0.03460945715631157,-0.08759114590610609,-0.3815989196300506,0.6542483568191528,0.2040136009454727,0.3517511785030365,0.1736609041690826,-0.208432450890541
1749029433.3385682,6.045644958247269,-2.156931335085036,0.2516854638460813,1.381780592586642,-1.9049637206227024,4.42106918667474,-0.06426354295551973,-0.005771856158593898,-0.010750262462198113,0.05104061922769794,0.03528978046898792,-0.08897158394771856,-0.3596530854701996,0.6723558902740479,0.2026291638612747,0.3579792976379394,0.1531508266925811,-0.1986266523599624
1749029433.3386064,6.045512547048412,-2.1569432301212017,0.25166329496293127,1.3818854577645268,-1.9048986291280374,4.420887126462903,-0.06551757422669406,-0.0058018931632023985,-0.010672399186574578,0.05217397131254068,0.03597920253797108,-0.09016906368331422,-0.4215583801269531,0.6462031602859497,0.2046314477920532,0.3608709573745727,0.1641864031553268,-0.2067857384681701
1749029433.338644,6.045377134202723,-2.1569547837093572,0.251641599818929,1.3819926798624906,-1.9048310918839648,4.42070326709045,-0.06680825477282502,-0.00582093579956083,-0.01061908593952241,0.053356394226173005,0.036669856846751336,-0.09121483259562642,-0.3969107866287231,0.6672427654266357,0.2017510682344436,0.3445697426795959,0.1464712768793106,-0.2266990095376968
1749029433.3386817,6.0452387046844445,-2.156965924991651,0.25162030866606133,1.3821022897386637,-1.9047609024582401,4.420517859139461,-0.06813373031959627,-0.005829086364332943,-0.010595605109287979,0.054581840248611804,0.03735335007390039,-0.09215317847682201,-0.3772363662719726,0.6777458190917969,0.1960003525018692,0.3821573555469513,0.1731238663196563,-0.2047114819288253
1749029433.3387191,6.045097260054384,-2.1569766200328253,0.25159932966720133,1.382214295219259,-1.9046879446635525,4.420331033523674,-0.06948897503041057,-0.005826413383998301,-0.010605559186580356,0.05584184209407959,0.0380210262525235,-0.0930379935958453,-0.3909511566162109,0.6791909337043762,0.2014202326536178,0.3630781173706054,0.197388544678688,-0.2094885110855102
1749029433.338757,6.044952823746307,-2.1569868738840405,0.25157855681389246,1.3823286798981818,-1.9046122061827555,4.4201427882688,-0.07086640067062762,-0.005813040337895363,-0.010650871242185736,0.05712557655702835,0.03866426276902678,-0.09392820148411415,-0.3930118978023529,0.6717155575752258,0.2157641649246215,0.3738018870353699,0.1739223301410675,-0.2139038294553756
1749029433.3387945,6.044805444739273,-2.156996728960978,0.2515578780592899,1.3824454042111702,-1.9045337828785416,4.419952985866579,-0.07225671307306204,-0.005789248778103844,-0.010731921365446697,0.05842001662184393,0.03927487386463767,-0.09488245386088529,-0.3800574243068695,0.6685022115707397,0.186648279428482,0.3652160167694092,0.1890411674976349,-0.2280462086200714
1749029433.3388324,6.044655198803793,-2.1570062601785174,0.25153718295697747,1.3825644085297577,-1.9044528723984986,4.419761362092196,-0.0736499007395021,-0.0057555949824893825,-0.010847793707545407,0.0597102211266561,0.03984565430466066,-0.09595362409256575,-0.394895076751709,0.6649060249328613,0.1786203533411026,0.3526385128498077,0.1757114380598068,-0.2198976725339889
1749029433.3388736,6.044502186905974,-2.157015567441196,0.25151636925728327,1.3826856176954427,-1.9043697572119815,4.419567546055256,-0.0750362552945293,-0.005713035082339061,-0.010996598838349102,0.06097980211762776,0.040371032390013044,-0.09718368264873416,-0.4230110049247741,0.6554906368255615,0.175628587603569,0.3555945158004761,0.1997673064470291,-0.242693543434143
1749029433.3389122,6.044346530611992,-2.157024766197127,0.25149534796315226,1.3828089462240547,-1.9042847788539383,4.419371090277742,-0.07640734292226259,-0.005663038355233094,-0.011175834707111613,0.062211588511461226,0.04084774830935212,-0.09859952364025597,-0.4079159200191498,0.6771937608718872,0.2046663463115692,0.3382162451744079,0.1881268620491027,-0.2274366319179535
1749029433.3389516,6.044188364385865,-2.157033976896828,0.2514740462010812,1.382934303451367,-1.9041983066587649,4.419171508607519,-0.07775685553182297,-0.0056076551978603995,-0.011382751439644482,0.06338848301525307,0.04127544834831618,-0.1002102231379666,-0.4174963533878326,0.6699719429016113,0.1916614919900894,0.3557074666023254,0.1782961189746856,-0.2432785779237747
1749029433.3389888,6.044027824845464,-2.1570433143455023,0.2514524071282489,1.3830615981935737,-1.9041107051850936,4.418968318694886,-0.07908126816310763,-0.005549511569416646,-0.011614685874545675,0.06449450043299414,0.04165708742707644,-0.10200607507831354,-0.4021800756454468,0.6559091210365295,0.1867337524890899,0.3645201325416565,0.1805314868688583,-0.2620308697223663
1749029433.3390348,6.043865037563901,-2.1570528780043543,0.2514303863156185,1.3831907428550148,-1.9040223043769124,4.418761084776182,-0.0803802232464261,-0.005491725729986928,-0.011869331989407879,0.06551596902893611,0.04199905600484081,-0.10395959293468918,-0.358781486749649,0.6423625349998474,0.1941463649272918,0.3515060544013977,0.1815108954906463,-0.2724888324737549
1749029433.339157,6.043700102743805,-2.157062744172864,0.25140794479715406,1.3833216570928129,-1.9039333754727865,4.418549455979328,-0.08165656729836572,-0.005437768188219904,-0.012144916468355816,0.06644284084176325,0.04231098645164709,-0.10602847572683763,-0.40841144323349,0.6602718830108643,0.1666198670864105,0.3383405208587646,0.1909404993057251,-0.2611551284790039
1749029433.3412025,6.043533081699826,-2.157072960663733,0.25138504007868345,1.383454271149532,-1.9038441145430272,4.418333195571187,-0.08291599440220464,-0.005391293733075683,-0.012440256346446322,0.06726998420880588,0.04260523930138438,-0.10816029499554485,-0.4020751714706421,0.6620698571205139,0.1693904101848602,0.3239434957504272,0.1887560933828354,-0.2458894252777099
1749029433.3822913,6.04336398619317,-2.1570835442309217,0.2513616173395366,1.38358852886889,-1.9037546347751977,4.418112197592179,-0.08416630491133535,-0.005355963126074461,-0.012754688546630696,0.06799826412928234,0.042896111194042186,-0.11029839400526024,-0.3712558150291443,0.6488550305366516,0.1858793497085571,0.3279522359371185,0.1847937554121017,-0.2445063591003418
1749029433.3823383,6.043192772183658,-2.157094480825607,0.25133760328609767,1.3837243902032863,-1.9036649679561892,4.417886489062021,-0.08541635592789909,-0.005335255817535449,-0.01308787906609283,0.06863520758895711,0.04319883820631361,-0.11238828101696167,-0.4145233929157257,0.6493445634841919,0.174303263425827,0.3269971013069153,0.1964952051639557,-0.2366597801446914
1749029433.3823793,6.043019338918752,-2.1571057287930406,0.25131290448960797,1.3838618328221923,-1.9035750745112707,4.41765621808135,-0.086674846320294,-0.005332271013670452,-0.01343953990573755,0.06919511804055377,0.04352848941106207,-0.11438370603654018,-0.4599193632602691,0.6428229808807373,0.1900653541088104,0.3649049401283264,0.1979484856128692,-0.2254153490066528
1749029433.3824189,6.042843533998548,-2.157117225243244,0.25128741091174805,1.3840008524908827,-1.9034848600210044,4.417421630237483,-0.08794912434822166,-0.005349526429575568,-0.013809099840925107,0.06969861136997664,0.04389885539769362,-0.11625164100919047,-0.3702250123023987,0.6443845629692078,0.1603555381298065,0.3612458705902099,0.1932092308998108,-0.2228720337152481
1749029433.3824573,6.042665165034857,-2.1571288956711894,0.2512610041116435,1.3841414622340729,-1.9033941950216255,4.417183037295393,-0.0892442074748518,-0.005388779081906832,-0.014195386125929597,0.07017163150975264,0.044321434337298876,-0.11797552148889395,-0.4388447105884552,0.6500839591026306,0.1725641638040542,0.354356974363327,0.2025158703327179,-0.2148253172636032
1749029433.3824956,6.042484018039251,-2.1571406661195156,0.2512335685613635,1.384283690661112,-1.903302934721013,4.416940782938161,-0.0905621549948017,-0.005450894469579731,-0.014596374255102391,0.07064402516526475,0.04480460398976801,-0.11955634389476835,-0.4248411059379577,0.6468769907951355,0.1752641350030899,0.344929963350296,0.2127898782491684,-0.2164207398891449
1749029433.3825338,6.042299881352629,-2.157152475941272,0.25120500380854177,1.3844275799702388,-1.903210936051717,4.4166952103163535,-0.0919018594725334,-0.005535777608672806,-0.015009050156713877,0.07114773492407418,0.04535304515887329,-0.12101152333754793,-0.4016464948654175,0.6590816974639893,0.1872774362564087,0.3528705239295959,0.2160965502262115,-0.1890485286712646
1749029433.382573,6.04211257233638,-2.157164288312526,0.25117523523481877,1.3845731840283095,-1.9031180706867508,4.416446635523136,-0.09325925343228401,-0.005642364850918877,-0.01542940663286781,0.07171467363396013,0.04596745877462468,-0.12237174918608416,-0.4081969857215881,0.6404225826263428,0.1594645678997039,0.3498807549476623,0.2157385945320129,-0.2096050530672073
1749029433.3826108,6.041921963152604,-2.15717609579062,0.2511442219228133,1.384720566646324,-1.903024233578404,4.416195329853861,-0.09462787353838445,-0.00576867227564758,-0.015852571014587542,0.07237440219933935,0.04664460173937525,-0.12367636478991223,-0.3466415405273437,0.6406699419021606,0.1775158196687698,0.3584489822387695,0.2148401886224746,-0.2114555537700653
1749029433.382648,6.041728002201527,-2.157187919483792,0.25111196124958723,1.384869799913299,-1.9029293469569246,4.415941511820101,-0.09599968492912127,-0.005911903908880151,-0.016273042118788952,0.0731518117487069,0.04737764989401215,-0.12496799439314124,-0.3983446657657623,0.643628716468811,0.177601546049118,0.368158221244812,0.2236809283494949,-0.218875303864479
1749029433.382685,6.0415307287710025,-2.15719980229121,0.2510784906513088,1.3850209622885006,-1.9028333598240899,4.415685347716718,-0.09736604423906199,-0.006068627582918556,-0.0166850062720978,0.07406504947266486,0.04815686355401332,-0.12628721588282565,-0.3908960819244385,0.6393038034439087,0.1819678544998169,0.3752215802669525,0.2339187115430832,-0.2303748130798339
1749029433.3827224,6.041330279486692,-2.157211798449908,0.25104388712980374,1.3851741360332508,-1.9027362432254313,4.415426957774692,-0.09871867031598779,-0.006235015740374054,-0.017082702880239407,0.07512390166558403,0.04897047610744793,-0.1276680240046968,-0.4180051982402801,0.6466258764266968,0.1695387512445449,0.3815662562847137,0.2283156663179397,-0.2427942007780075
1749029433.3827596,6.04112688581053,-2.157223962512445,0.2510082645755027,1.3853294035604107,-1.9026379820883774,4.415166424054937,-0.10005049597592258,-0.0064071252370205955,-0.01746081317059725,0.07632878197594502,0.049805669172555044,-0.12913465918059203,-0.3904604017734527,0.6635993123054504,0.1684187203645706,0.3839437365531921,0.213622897863388,-0.2542555034160614
1749029433.3828006,6.040920862130885,-2.1572363404657233,0.2509717684439158,1.385486842583743,-1.9025385649802065,4.4149037962392566,-0.10135629763318038,-0.006581169729261664,-0.0178148449342931,0.07767040591038862,0.05064947327873009,-0.1307001266754465,-0.3767949044704437,0.6404811143875122,0.1743228733539581,0.3806152641773224,0.2132119834423065,-0.263310045003891
1749029433.382839,6.0407125842735,-2.1572489644044937,0.25093456731818853,1.385646520486086,-1.9024379735427523,4.414639092139814,-0.10263304696969508,-0.006753735672053108,-0.018141480827239684,0.07913018218843915,0.051489463191859944,-0.13236644002584347,-0.3804270923137665,0.665699303150177,0.1892334669828415,0.3834515810012817,0.2143431305885315,-0.226710632443428
1749029433.3828764,6.040502458960162,-2.1572618509044053,0.2508968414430615,1.3858084887418305,-1.902336173416075,4.414372290977439,-0.10387999238546634,-0.006921911736639738,-0.01843885337124798,0.08068131147457168,0.05231419679594469,-0.1341263341772977,-0.4276832938194275,0.6536117196083069,0.182968184351921,0.3956049382686615,0.2105102837085724,-0.2609869241714477
1749029433.3829134,6.040290885904315,-2.157275002462533,0.2508587690058515,1.3859727783384985,-1.9022331080674186,4.414103319262005,-0.10509853814121561,-0.007083331911619884,-0.01870671164207905,0.08229054207523584,0.053113446831468854,-0.1359659633709033,-0.4405246376991272,0.659770131111145,0.1913466602563858,0.397643893957138,0.2177369445562362,-0.2371312975883484
1749029433.38295,6.040078215481476,-2.157288410911478,0.2508205114040508,1.3861393970861822,-1.902128696220479,4.413832031339985,-0.10629202363058639,-0.0072361579658995765,-0.01894645363642999,0.08392048800972123,0.05387835387804313,-0.13786797936524864,-0.3764889538288116,0.665672242641449,0.1868935078382492,0.3804633617401123,0.2132179886102676,-0.2433920800685882
1749029433.3829873,6.039864705905455,-2.157302061467401,0.2507821989229292,1.3863083296954242,-1.902022832904297,4.41355818895606,-0.10746549887130821,-0.007379034525596687,-0.019161012042266067,0.08553237056846615,0.05460164857315206,-0.13981439305891652,-0.4136786460876465,0.6535981297492981,0.1970017701387405,0.3917217850685119,0.2336604297161102,-0.2294312268495559
1749029433.3830345,6.0396504845793,-2.1573159362897445,0.25074391830665943,1.3864795415372466,-1.9019153938179694,4.413281445796656,-0.10862554596699957,-0.0075110401504554095,-0.019354597596106745,0.0870890001471392,0.05527803776977961,-0.14178873830819308,-0.4102942943572998,0.6795758008956909,0.1933182328939438,0.3814360797405243,0.218180239200592,-0.2178784608840942
1749029433.383159,6.039435518858067,-2.1573300170973817,0.25070570375287254,1.3866529867351307,-1.9018062426541544,4.4130013433292525,-0.1097801319833491,-0.007631641486342855,-0.019532322630969923,0.08855776937600773,0.05590474422822902,-0.14377725528453972,-0.4109878540039062,0.6764999628067017,0.1829904615879058,0.3860429227352142,0.2157077193260193,-0.2252431213855743
1749029433.3851595,6.039219601613744,-2.15734428695315,0.2506675327987128,1.3868286202739473,-1.9016952409375336,4.412717323227585,-0.11093843010486877,-0.007740645199977132,-0.019699745955145332,0.08991339070836178,0.0564820774488181,-0.14576906076511378,-0.4350653290748596,0.669215202331543,0.1890480816364288,0.3708450198173523,0.2057442218065261,-0.2289251983165741
1749029433.426286,6.03900235618898,-2.1573587314050497,0.2506293282474535,1.3870064122272219,-1.9015822597479257,4.412428759530693,-0.11211053585188219,-0.00783813807784735,-0.01986239374820484,0.09114010648622815,0.057013845526201715,-0.1477555214762649,-0.3842706084251404,0.6693786382675171,0.1871232092380523,0.3742766082286834,0.2182658612728119,-0.219549685716629
1749029433.4263325,6.038783263237849,-2.157373339039429,0.25059096671687925,1.3871863607280686,-1.90146719255984,4.412135010621317,-0.11330703041344672,-0.007924409329401394,-0.02002531316179464,0.09223314325839055,0.05750743280461446,-0.14972923047152778,-0.4275464713573456,0.6692875623703003,0.2005560249090194,0.3761671483516693,0.2369694709777832,-0.2589519619941711
1749029433.4263735,6.038561708803577,-2.1573881015698264,0.250552293617139,1.387368499819097,-1.9013499682717752,4.411835487293591,-0.1145383837143828,-0.00799985846124405,-0.020192704829866716,0.09319925321939432,0.05797346427412311,-0.15168305940365778,-0.3810783624649048,0.6602519750595093,0.2055538743734359,0.3527340590953827,0.2004160284996032,-0.2679734230041504
1749029433.426418,6.038337049255643,-2.157403013778422,0.2505131432587234,1.3875528993221953,-1.9012305630389519,4.411529728924524,-0.11581422993456829,-0.008064902653297795,-0.02036766539762147,0.09405624602759868,0.05842510160506688,-0.15360970569079654,-0.4108972549438476,0.6477532386779785,0.1985000520944595,0.3499388396739959,0.233754500746727,-0.2537521123886108
1749029433.4264584,6.038108684730174,-2.157418073632144,0.25047336130654746,1.387739656369499,-1.9011090087351803,4.411217475510694,-0.11714258577404092,-0.008119904039884421,-0.02055205942481761,0.09483146570379385,0.058877097545827414,-0.15550198957370423,-0.4108972549438476,0.6477532386779785,0.1985000520944595,0.3499388396739959,0.233754500746727,-0.2537521123886108
1749029433.4264977,6.03787612909452,-2.1574332826637663,0.2504328254504636,1.3879288815586097,-1.900985395229035,4.410898720091543,-0.11852911836542054,-0.008165135929334762,-0.02074653056855655,0.09555925536104873,0.05934474459878527,-0.15735392836088707,-0.4486159682273865,0.6612175703048706,0.1911736130714416,0.3601513206958771,0.2305161952972412,-0.2780009806156158
1749029433.4265366,6.037639062976782,-2.1574486464443594,0.25039145991247624,1.3881206851459886,-1.9008598640525733,4.410573726315172,-0.11997659480152319,-0.008200797958758905,-0.020950648492939466,0.09627760087771133,0.05984281146269448,-0.15916237647980097,-0.4428915679454803,0.6787722110748291,0.1797820031642913,0.385244071483612,0.1987674236297607,-0.2292379438877105
1749029433.4265783,6.037397359302471,-2.1574641748107557,0.25034924083211213,1.3883151682089399,-1.9007325931755923,4.410243002363592,-0.12148463475488318,-0.00822707786423324,-0.02116316785107047,0.09702430816360877,0.060384508055508886,-0.1609288096631608,-0.4037807285785675,0.6940225958824158,0.1943201422691345,0.3722850680351257,0.1957798302173614,-0.2330613285303115
1749029433.4266174,6.037151077958637,-2.157479881442392,0.2503061921972471,1.3885124200848025,-1.9006037758168648,4.409907234296795,-0.12304982535894712,-0.00824424748298623,-0.021382353113977053,0.09783316900692911,0.06098049521160939,-0.16266069944197387,-0.4307937920093536,0.6940091252326965,0.1825020313262939,0.3864945471286773,0.2113708704710006,-0.2382564693689346
1749029433.4266553,6.036900434156122,-2.1574957824626866,0.2502623745340631,1.388712519312957,-1.9004735983720635,4.4095671933566765,-0.12466615924344887,-0.008252775462726004,-0.021606307430441254,0.09873056956024837,0.06163798056202473,-0.1643719432434035,-0.4455372095108032,0.6768136620521545,0.1853037178516388,0.3974939286708832,0.2501730918884277,-0.2303903996944427
1749029433.426693,6.036645750021087,-2.157511894043227,0.25021786988020045,1.3889155337037677,-1.9003422220898465,4.409223637036394,-0.12632566772894263,-0.008253437805126693,-0.021833245492822496,0.0997329183640594,0.06236000008544097,-0.16608202268610234,-0.3527905941009521,0.6604058742523193,0.198636770248413,0.3869240581989288,0.2332078665494918,-0.2239413261413574
1749029433.4267335,6.036387400070453,-2.1575282293424265,0.25017276642883784,1.3891215162853463,-1.9002097709106975,4.408877221778811,-0.12801908642838794,-0.008247407306621483,-0.022061673253961467,0.10084516127848057,0.06314501935948803,-0.16781389871013982,-0.4505401849746704,0.6603044271469116,0.183636724948883,0.3960539996623993,0.2327859997749328,-0.2424584031105041
1749029433.4267714,6.0361257597840705,-2.1575447952558795,0.250127145307867,1.3893304960325599,-1.900076325825195,4.408528439088476,-0.1297364230918966,-0.00823630343361505,-0.022290472834133435,0.10206052968766702,0.06398695893130792,-0.16959099132019576,-0.4618365168571472,0.6843950152397156,0.1809562295675277,0.4141511023044586,0.2499039322137832,-0.2372058480978012
1749029433.4268088,6.035861163738211,-2.157561589409744,0.2500810709591167,1.3895424642918897,-1.899941925031306,4.408177580073019,-0.13146736972564416,-0.008222187006447522,-0.022518922000572858,0.10336153875351586,0.06487567057087919,-0.17143382082233444,-0.4329005181789398,0.6715250015258789,0.1918184757232666,0.4105519950389862,0.246785506606102,-0.2656866908073425
1749029433.426847,6.035593876640418,-2.1575785977725404,0.2500345857046936,1.3897573595470403,-1.8998065685956556,4.407824728034209,-0.1332015673556833,-0.008207490542036061,-0.022746689044280448,0.10472211839342596,0.06579781156492791,-0.17335695119892483,-0.4444506466388702,0.6717060804367065,0.1942503601312637,0.3779593110084533,0.2275216281414032,-0.2709164917469024
1749029433.4268894,6.03532407799194,-2.157595793244638,0.24998770826685504,1.3899750544943834,-1.8996702258275684,4.407469775390311,-0.13492877006365878,-0.008194883804803129,-0.02297383200777089,0.10611063281050476,0.06673801127334732,-0.1753667784816616,-0.4386568665504455,0.6698964238166809,0.1783971935510635,0.4093998670578003,0.2476993203163147,-0.2744539082050323
1749029433.426928,6.035051859427507,-2.1576131355648003,0.24994043538944163,1.390195349796029,-1.8995328434753371,4.407112459537054,-0.13663897552227383,-0.008187084552810638,-0.023200805400820937,0.10749344827220837,0.06768020079418705,-0.17746049385140023,-0.5060127973556519,0.6774649024009705,0.1899085044860839,0.4071010649204254,0.2473970800638198,-0.2517009973526001
1749029433.4269657,6.034777232819689,-2.1576305728314633,0.24989274555929641,1.3904179779903298,-1.899394353476985,4.406752411417236,-0.138322599878683,-0.008186637933731013,-0.023428452768844296,0.10883866639775541,0.06860897530526124,-0.17962629239923264,-0.4313141405582428,0.6738007068634033,0.1774213910102844,0.4217458963394165,0.2602038979530334,-0.2625753283500671
1749029433.4270103,6.034500146585488,-2.1576480448156574,0.24984460410650336,1.3906426191089045,-1.8992546799008063,4.406389210118659,-0.13997075974256987,-0.00819569996448587,-0.0236579512920527,0.11011964221225888,0.06951086795875351,-0.18184466908030136,-0.3943383991718292,0.6945509314537048,0.187827780842781,0.3925260007381439,0.2485921382904052,-0.2728564441204071
1749029433.42706,6.034220507089139,-2.157665487971676,0.24979596929407866,1.3908689272293062,-1.8991137451933449,4.406022436855554,-0.14157567336848248,-0.008215860288657333,-0.02389068069180085,0.11131792040927672,0.07037542149694301,-0.18409050253275597,-0.4695245027542114,0.6702800393104553,0.181399792432785,0.4081563949584961,0.2142976820468902,-0.270883172750473
1749029433.4271753,6.033938201615641,-2.1576828417233425,0.24974679908443131,1.3910965650956553,-1.898971475836114,4.405651722386388,-0.1431311315835074,-0.008248024054423566,-0.024128013667583877,0.11242525094327634,0.07119594552708464,-0.18633559500689142,-0.4439330995082855,0.6596744656562805,0.179213672876358,0.4026993811130523,0.2195581048727035,-0.2591418623924255
1749029433.4291334,6.033653119329552,-2.157700055384002,0.24969705809236964,1.391325242411589,-1.8988278073666065,4.405276783203193,-0.14463295340741666,-0.00829235356048105,-0.02437106090888767,0.11344442431480263,0.0719698573805468,-0.1885513839557684,-0.4154690504074096,0.6666814684867859,0.1974123120307922,0.3805254697799682,0.2166382074356079,-0.2568354308605194
1749029433.470289,6.033365167236595,-2.1577170949082407,0.24964672393165813,1.3915547525703191,-1.8986826885915487,4.404897443472662,-0.1460793396910002,-0.008348259383440278,-0.024620432073484893,0.11438880706191815,0.07269854800422752,-0.19071161067814457,-0.4517229497432709,0.6854603886604309,0.1756530404090881,0.3762979209423065,0.2432910799980163,-0.2817229628562927
1749029433.4703352,6.0330742794701235,-2.157733948435867,0.24959579186668704,1.3917850025039924,-1.8985360846440746,4.404513641511536,-0.147471054098296,-0.008414429228739103,-0.02487607609250105,0.1152806209489892,0.07338680338825902,-0.19279477348710522,-0.4280620813369751,0.677804172039032,0.1720585376024246,0.3690013885498047,0.2482340782880783,-0.2823334336280823
1749029433.4703813,6.032780419863545,-2.1577506294209523,0.24954427665442205,1.3920160310952687,-1.8983879784384143,4.40412542137786,-0.14881138814431294,-0.008488886525027666,-0.02513723684995286,0.11614816169154157,0.07404191654869748,-0.19478618709130616,-0.4725312292575836,0.6644618511199951,0.1883800476789474,0.4100604653358459,0.2362140417098999,-0.2774149179458618
1749029433.4704218,6.032483579204654,-2.1577671763683974,0.24949221099483324,1.3922480130965518,-1.8982383703337835,4.403732911874315,-0.1501059090590062,-0.008569078254059724,-0.025402522362442195,0.11702228913284744,0.07467268298335035,-0.19667943238104296,-0.45292729139328,0.673863410949707,0.1818792521953582,0.3916030526161194,0.2479717135429382,-0.2663673460483551
1749029433.4704604,6.0321837694236935,-2.1577836489256152,0.24943964100331634,1.3924812473465924,-1.8980872763894998,4.403336296810436,-0.1513620330530459,-0.008651999993155456,-0.025670061365489234,0.11793263132687425,0.07528844710775644,-0.1984769566138469,-0.4389498829841614,0.6508734226226807,0.1692583858966827,0.3940120339393616,0.2190192341804504,-0.2625217139720917
1749029433.4704993,6.031881017096233,-2.157800121063113,0.24938662001315812,1.3927161298959105,-1.8979347259630701,4.402935781520832,-0.152588489472559,-0.008734367937068875,-0.02593771727966249,0.11890400084053379,0.07589828857028125,-0.20018962451941466,-0.4538319110870361,0.6534001231193542,0.20194673538208,0.4193828701972961,0.2200024574995041,-0.2571673989295959
1749029433.470538,6.0315753580347495,-2.1578166729073636,0.2493332022915278,1.3929531144196154,-1.897780759169406,4.402531561102619,-0.15379473787027334,-0.008812838066290934,-0.026203332597111655,0.11995349735173312,0.07651037494613919,-0.20183515398191335,-0.4696938395500183,0.6716048121452332,0.1833568811416626,0.4107043147087097,0.2482895255088806,-0.2383218705654144
1749029433.4705763,6.031266833677072,-2.1578333829847796,0.24927943789513216,1.3931926640494676,-1.8976254241838209,4.40212379547161,-0.15499038277787608,-0.008884256542872886,-0.026464975364110625,0.1210886661158583,0.07713150059222028,-0.2034355782392113,-0.4651892185211181,0.672309398651123,0.1831870675086975,0.4366174936294555,0.2656410336494446,-0.2444977462291717
1749029433.4706194,6.030955489077105,-2.157850321940376,0.24922536924955288,1.3934352002331873,-1.8974687741593699,4.4017125950518725,-0.15618461256961177,-0.008945911333151809,-0.0267211571618167,0.12230691784732893,0.0777668501574091,-0.2050140996484443,-0.4446517527103424,0.664415717124939,0.1851141154766082,0.4326663017272949,0.2489587962627411,-0.2452764064073562
1749029433.4706583,6.030641372020484,-2.157867547623293,0.24917102940385483,1.3936810549742746,-1.8973108636946392,4.401298018736905,-0.1573856776630613,-0.00899574856730679,-0.02697099588133633,0.12359622389292738,0.07842000604452251,-0.20659186388226752,-0.464423656463623,0.6581252217292786,0.1764306128025055,0.4178841114044189,0.2341374158859253,-0.2609665989875793
1749029433.4706962,6.030324532920265,-2.157885100750843,0.24911644143526315,1.3939304325587343,-1.8971517448850896,4.40088008314434,-0.1586004299993454,-0.009032520563777536,-0.027214305144761204,0.12493692263653879,0.07909314491165903,-0.20818523298721114,-0.446738600730896,0.6810646653175354,0.1813566982746124,0.4519246816635132,0.2419256716966629,-0.2894091010093689
1749029433.4707336,6.030005025132806,-2.157903000753465,0.24906161828273177,1.394183385721344,-1.8969914629589213,4.400458779835781,-0.1598339734418318,-0.009055844000466533,-0.027451599673240987,0.12630434593437126,0.07978729410975823,-0.20980405001865796,-0.5204135179519653,0.6738614439964294,0.1745435297489166,0.4620859324932098,0.2335849553346634,-0.2993744313716888
1749029433.4707706,6.029682905047622,-2.1579212424326633,0.24900656242917604,1.3944398094488812,-1.8968300516868843,4.400034095557244,-0.16108950112346299,-0.009066162134042292,-0.027684010019201035,0.1276719044953059,0.08050251074358866,-0.21145117975393343,-0.4751659035682678,0.6724430918693542,0.1888796985149383,0.4201506972312927,0.2427568286657333,-0.2908892035484314
1749029433.470808,6.029358231234982,-2.15793979479081,0.2489512652163162,1.394699453560132,-1.896667529124719,4.399606029904825,-0.16236838445266724,-0.009064622301405902,-0.02791310334442719,0.12901424187500413,0.08123791257384654,-0.2131233264670894,-0.4416769742965698,0.6631149649620056,0.1919310390949249,0.4412144422531128,0.2218332886695861,-0.2515126466751098
1749029433.470845,6.0290310624102625,-2.1579586032318088,0.2488957059857265,1.3949619529735098,-1.896503894351784,4.399174605428668,-0.16367051492642132,-0.009052896984979592,-0.028140616518869767,0.13031007696865302,0.08199158443881667,-0.2148128509171062,-0.4581826031208038,0.6641377806663513,0.1783429682254791,0.4406087696552276,0.2469695210456848,-0.2829656302928924
1749029433.4708817,6.028701454626422,-2.157977595373406,0.24883985154542923,1.3952268722206729,-1.896339125599743,4.398739867267014,-0.16499480804998967,-0.00903298587698798,-0.02836813160803155,0.13154441662909971,0.08276045428247793,-0.21651012210957438,-0.4930806159973144,0.6588913798332214,0.1681536138057708,0.4508394002914428,0.2455213367938995,-0.2578724324703216
1749029433.4709227,6.02836945840707,-2.1579966895096647,0.2487836564781502,1.3954937585560454,-1.8961731798626338,4.398301872574919,-0.1663397063299604,-0.009007031032618629,-0.02859675654880262,0.1327099203641343,0.08354025654470303,-0.2182058935820372,-0.4221791923046112,0.6560066342353821,0.1757627129554748,0.4282301664352417,0.2452897578477859,-0.2501846551895141
1749029433.470961,6.028035116420999,-2.158015803955481,0.24872706445962264,1.395762196552527,-1.8960059939631848,4.397860673166862,-0.1677035093627371,-0.008977161047651373,-0.028826892275048043,0.13380730526612736,0.08432568099839609,-0.2198932732132206,-0.4475570023059845,0.6778375506401062,0.1720315217971801,0.4301244616508484,0.2521432340145111,-0.2477808892726898
1749029433.4709992,6.027698461950887,-2.158034865454135,0.24867001036659678,1.3960318569495735,-1.8958374870064023,4.397416296653268,-0.16908442762485362,-0.008945364289282706,-0.02905815226687035,0.13484477899906153,0.08511075401440417,-0.22156900276301075,-0.4595967531204223,0.6429441571235657,0.1675100624561309,0.4295634627342224,0.2440799325704574,-0.2720077931880951
1749029433.471037,6.027359517880346,-2.158053815427344,0.2486124229929487,1.3963025338014403,-1.8956675640904805,4.396968731322126,-0.1704803771274721,-0.008913384768860852,-0.029289457032936065,0.13583659167908607,0.08588942852083545,-0.22323392110654422,-0.4572219252586365,0.6501288414001465,0.1655749529600143,0.4324837327003479,0.2364314645528793,-0.2765706777572632
1749029433.4711452,6.0270182953617315,-2.1580726136315866,0.2485542286317725,1.3965741661388813,-1.8954961211723138,4.396517918459001,-0.17188864938536458,-0.008882639334676312,-0.029519275774461146,0.13680090361087927,0.08665628386318129,-0.22489261830885673,-0.4688838422298431,0.6542862057685852,0.1924510449171066,0.4444260597229004,0.2132210433483123,-0.2819542288780212
1749029433.4731176,6.026674791142102,-2.158091239291556,0.24849535605560893,1.3968468426796103,-1.8953230511093238,4.396063753576158,-0.17330564476595156,-0.008854165377637726,-0.029745949296080102,0.13775725389111299,0.08740718065659706,-0.22655238773510614,-0.4404861032962799,0.6487761735916138,0.1805156916379928,0.410093754529953,0.2326381206512451,-0.2679133415222168
1749029433.514288,6.026328983057998,-2.158109689892418,0.24843574307850347,1.3971207900808646,-1.8951482508652169,4.395606095966613,-0.17472681630697845,-0.008828614202005747,-0.02996801706842684,0.13872396206842896,0.08813970386280728,-0.22822166144392927,-0.4275903701782226,0.6135237216949463,0.1567644923925399,0.4547635912895202,0.2276902496814727,-0.2622788250446319
1749029433.514333,6.025980824372872,-2.1581279777995626,0.24837534405258418,1.3973963466612984,-1.89497162951415,4.395144784644379,-0.1761468590621252,-0.008806300757179692,-0.030184493856227488,0.13971579286514393,0.08885327086287519,-0.22990818254995063,-0.4612567722797394,0.6306405067443848,0.152702048420906,0.4557330012321472,0.2399042844772339,-0.2850825190544128
1749029433.5143735,6.025630238885386,-2.1581461250855862,0.2483141369076685,1.3976739245358476,-1.894793116297953,4.39467965814474,-0.17756006260593635,-0.00878730673645834,-0.03039507886573276,0.14074216118693028,0.08954886490170626,-0.23161722251580066,-0.4299217462539673,0.6392089128494263,0.1725167334079742,0.4361373782157898,0.2446956634521484,-0.3012978434562683
1749029433.514414,6.0252771193634,-2.1581641573832604,0.24825212813712833,1.3979539638512253,-1.8946126680094888,4.394210575496671,-0.1789606846299364,-0.00877161640838562,-0.030600297301090137,0.14180605002681188,0.09022844356984035,-0.2333501680692041,-0.3951291739940643,0.6380933523178101,0.1763442754745483,0.4425082206726074,0.2159801423549652,-0.2902078330516815
1749029433.514452,6.02492133143466,-2.158182097888355,0.24818935447795218,1.398236883331173,-1.8944302753642175,4.393737435656487,-0.18034322368899408,-0.00875925094845441,-0.030801559612092466,0.14290367763883124,0.09089414000749259,-0.23510375546583373,-0.4487150907516479,0.6537226438522339,0.1869379431009292,0.4360236525535583,0.2348635196685791,-0.2802821099758148
1749029433.5144904,6.024562723809328,-2.1581999625319317,0.24812588064132518,1.3985230316787163,-1.8942459683432953,4.393260192922251,-0.1817025477026848,-0.008750366425323385,-0.03100110705735505,0.14402483835776564,0.0915474194725484,-0.2368701134541449,-0.466680645942688,0.6512163877487183,0.1815978437662124,0.4339245855808258,0.2303943634033203,-0.2916257977485657
1749029433.5145288,6.024201144223948,-2.1582177569467946,0.24806179305740103,1.398812644573222,-1.894059820429571,4.392778866560727,-0.1830339289966248,-0.008745296232512634,-0.03120182432504594,0.145153802825701,0.0921883798369543,-0.23863761794337837,-0.4509960412979126,0.6294139623641968,0.1618347913026809,0.4690933525562286,0.2197341918945312,-0.2860183715820312
1749029433.5145683,6.0238364591894955,-2.1582354754577557,0.2479971901313514,1.3991058118750481,-1.8938719512807787,4.392293543960845,-0.18433309943192638,-0.008744543423425673,-0.03140693592437129,0.14627069180646762,0.09281537152673631,-0.2403924089097529,-0.4438031315803528,0.6318458914756775,0.1675789207220077,0.4538260102272033,0.2385816127061844,-0.2712666094303131
1749029433.5146062,6.023468574626492,-2.1582531020431555,0.24793217002152676,1.3994024589129221,-1.8936825269972295,4.391804377695636,-0.18559643429203998,-0.008748747964076287,-0.03161963530180541,0.14735328323946506,0.09342503690886503,-0.24212031479040005,-0.4478084146976471,0.6615250110626221,0.1718396544456482,0.4652138948440552,0.2174329608678817,-0.2555617392063141
1749029433.5146444,6.023097453996359,-2.1582706129753397,0.2478668174350002,1.3997023443825947,-1.8934917570347445,4.39131157761732,-0.1868213003862858,-0.008758657200548412,-0.031842707049198116,0.14837922284654048,0.09401275737227027,-0.2438088907808325,-0.4741235673427582,0.6526626348495483,0.1593576967716217,0.460873544216156,0.2340462058782577,-0.2786900401115417
1749029433.5146823,6.022723130831036,-2.158287980647673,0.24780119126958072,1.4000050757764744,-1.8932998870540942,4.390815399349704,-0.18800650321424545,-0.008775115719259168,-0.03207819489942875,0.1493285555441373,0.09457341660384026,-0.24544930120028355,-0.4184585809707641,0.6169701814651489,0.1600971072912216,0.4813005924224853,0.2453777641057968,-0.2667396068572998
1749029433.514721,6.022345713402611,-2.158305178072548,0.2477353150194053,1.4003101416079091,-1.8931071874083059,4.390316130196037,-0.18915269330281823,-0.008799073978878223,-0.03232714988328295,0.15018638441372523,0.09510237276698734,-0.24703783437665935,-0.4961667060852051,0.630576491355896,0.1686442792415619,0.4742398262023926,0.2528316378593445,-0.303881973028183
1749029433.5147586,6.021965380165839,-2.158322183719034,0.24766917166908348,1.400616957950642,-1.892913937393902,4.38981407275724,-0.19026257784791084,-0.008831602388945736,-0.03258947196150545,0.15094533997678314,0.0955965400702702,-0.2485768859568789,-0.4289064705371856,0.6192571520805359,0.161406323313713,0.4524088203907013,0.2234760224819183,-0.273998498916626
1749029433.5147958,6.021582365507617,-2.158338986517088,0.24760270429505132,1.4009249251187113,-1.8927204059231995,4.389309525989301,-0.19134083504475247,-0.008873891829384339,-0.03286384272600114,0.15160746842732029,0.0960554618901971,-0.25007525358422245,-0.4284451603889465,0.6321743726730347,0.1734014004468917,0.4850004315376282,0.2144422531127929,-0.2668347060680389
1749029433.514833,6.021196936570825,-2.1583555907333873,0.24753582281270003,1.401233489087783,-1.89252682999855,4.388802763495783,-0.19239371759193666,-0.008927225179955988,-0.0331477420633824,0.15218517073906684,0.09648222178389701,-0.2515475788983959,-0.4638184309005737,0.6330751180648804,0.1743031293153762,0.4396938681602478,0.2241840958595276,-0.220585897564888
1749029433.5148697,6.020809363414497,-2.1583720200722696,0.24746841639822298,1.4015422017648818,-1.8923333929739439,4.388294009648008,-0.19342841522220777,-0.00899291667289885,-0.0334375461958381,0.1527009479649818,0.09688403185627768,-0.25301282668656466,-0.5098403692245483,0.6384724378585815,0.1574780941009521,0.4598015546798706,0.2366923391819,-0.2320625633001327
1749029433.5149071,6.020419886030366,-2.158388320132937,0.247400370186691,1.4018507743039832,-1.8921402046222195,4.387783415355928,-0.1944522937179242,-0.00907222863758042,-0.033728710074490534,0.1531858968712461,0.09727237873449698,-0.2544918591152577,-0.4443855285644531,0.6205795407295227,0.170558214187622,0.4563433527946472,0.2360429018735885,-0.2393763810396194
1749029433.5149443,6.020028682378687,-2.1584045585943405,0.24733158398752234,1.4021591180715207,-1.8919472845416276,4.387271036407729,-0.19547213741128244,-0.009166279907602732,-0.03401603593459295,0.15367710861749204,0.0976626680930185,-0.256004412407734,-0.4446821808815002,0.6217988133430481,0.1813322901725769,0.4746464490890503,0.2194805443286895,-0.2755319774150848
1749029433.514981,6.019635841483796,-2.158420823152681,0.247261990123622,1.4024673685205589,-1.8917545499658843,4.386756817708914,-0.19649350963417908,-0.009275956422812376,-0.03429402019936407,0.15421429949849402,0.09807335739264916,-0.2575660066029869,-0.4731318652629852,0.646648108959198,0.1773639619350433,0.4573986828327179,0.2244410216808319,-0.3089248538017273
1749029433.515018,6.019241344788579,-2.1584372179000133,0.24719156723408223,1.4027758882885644,-1.89156180894917,4.3862405863339164,-0.19752032718653598,-0.009401827292834578,-0.03455725813569042,0.15483609358390463,0.0985246049596944,-0.259185407759404,-0.5051374435424805,0.6115817427635193,0.1745994240045547,0.4735907316207886,0.241599291563034,-0.2996305525302887
1749029433.5151591,6.01884505790041,-2.1584538591098195,0.24712034708797728,1.4030852474569897,-1.891368760096216,4.385722055349195,-0.1985547201345221,-0.00954406386734328,-0.0348008775440488,0.1555763647251772,0.09903650815639918,-0.2608631730984358,-0.4844716489315033,0.6345593929290771,0.1641749143600464,0.4706580638885498,0.220151200890541,-0.2735263407230377
1749029433.5171294,6.018446734249208,-2.158470871112297,0.2470484123717764,1.4033961810869606,-1.891175000222739,4.38520083928526,-0.19959720204250037,-0.009702359448649577,-0.035020971790620595,0.15646096713125413,0.099627050584502,-0.2625915798285426,-0.4373068213462829,0.6165697574615479,0.1766086220741272,0.4953205585479736,0.2218728810548782,-0.2740951776504516
1749029433.558296,6.018046032009031,-2.15848838218955,0.24697588523391067,1.4037095266435875,-1.8909800413542996,4.384676481150447,-0.20064710638137764,-0.009875854428110406,-0.035215002756485196,0.1575050976281494,0.10030991933831104,-0.2643559525894809,-0.440421313047409,0.6152634620666504,0.1682630628347396,0.4749672412872314,0.2289205342531204,-0.2643223702907562
1749029433.5583467,6.017642545059388,-2.158506519640093,0.24690290872418102,1.4040261463432895,-1.8907833381710606,4.384148489999347,-0.201703179690781,-0.010063082432921715,-0.035382138593988685,0.1587114743710949,0.10109240342507142,-0.26613714897961266,-0.4370994865894317,0.6072351932525635,0.1855640113353729,0.5049055218696594,0.2695305347442627,-0.2789405584335327
1749029433.5583909,6.017235847033164,-2.158525402974582,0.24682962513490886,1.4043468413859153,-1.8905843261715722,4.38361638714259,-0.20276419492618541,-0.010261961351981016,-0.03552348105697442,0.1600694866667807,0.10197365354060146,-0.2679147895776114,-0.4671535789966583,0.5987117886543274,0.1871951222419738,0.4907964169979095,0.2766031920909881,-0.2935134470462799
1749029433.5584314,6.016825544682264,-2.158545134877486,0.24675615575823237,1.4046722663299653,-1.8903824691426176,4.383079757736179,-0.20382947043932573,-0.010469851722512842,-0.03564213338799513,0.16155544485934195,0.10294363175587594,-0.26967073270038877,-0.4760527014732361,0.6223844289779663,0.1838609278202057,0.4995836615562439,0.2852725088596344,-0.2927615642547607
1749029433.558474,6.016411333568815,-2.158565790739382,0.24668258570736437,1.4050028528285925,-1.890177311904945,4.382538302185087,-0.20489923288134856,-0.010683690755184933,-0.03574307180914108,0.16313401131012956,0.10398304582654073,-0.27139226642878045,-0.448321133852005,0.6098494529724121,0.1914079189300537,0.5194574594497681,0.2741056084632873,-0.2695630192756653
1749029433.558513,6.015993046318861,-2.1585874085853622,0.24660895579571923,1.4053387528228616,-1.8899685313345378,4.381991878536601,-0.2059748094768381,-0.010900190819969464,-0.03583281066867403,0.16476081282553154,0.10506443046573322,-0.2730744999193196,-0.448321133852005,0.6098494529724121,0.1914079189300537,0.5194574594497681,0.2741056084632873,-0.2695630192756653
1749029433.5585508,6.0155706825852615,-2.158609981648583,0.24653526161180542,1.4056798113218396,-1.8897559766669,4.381440524570016,-0.2070586480043595,-0.011116078889705557,-0.035918884612602,0.16638612340508224,0.10615434743933812,-0.27472150338921103,-0.4561099410057068,0.6077433228492737,0.1945551931858062,0.4985478818416595,0.2609019875526428,-0.2232975214719772
1749029433.5585916,6.015144412268462,-2.1586334555536233,0.2464614584493332,1.4060255761298848,-1.8895396907097712,4.3808844500865884,-0.20815414775930693,-0.01132835082256098,-0.03600920241499468,0.1679593645987514,0.10721648351728742,-0.2763459178047661,-0.4437993466854095,0.6264490485191345,0.1678014099597931,0.4823318421840668,0.2734811902046203,-0.24651600420475
1749029433.5586307,6.014714550183571,-2.1586577312350546,0.24638747019520638,1.4063753452551497,-1.8893199074304887,4.3803239977795325,-0.20926528054013085,-0.011534513315141699,-0.036111349828333285,0.16943400802587025,0.108215275111495,-0.27796704174834524,-0.4495640695095062,0.6295526027679443,0.1638184189796447,0.4503302276134491,0.2561166882514953,-0.2485289424657821
1749029433.5586684,6.014281508595147,-2.1586826736345746,0.24631320057804426,1.4067282444825127,-1.8890970268432916,4.379759581449136,-0.21039602433452317,-0.011732781329684179,-0.036231926559076276,0.17077231946230506,0.10911961375608825,-0.2796077382719512,-0.4781672954559326,0.5865494608879089,0.1811968833208084,0.4373961687088012,0.259943813085556,-0.2947717010974884
1749029433.5587063,6.013845739386931,-2.1587081252219753,0.24623854562308925,1.4070833218118461,-1.8888715724736231,4.379191616772973,-0.211549719414864,-0.011922194188329103,-0.0363759927900348,0.17194931655970364,0.1099061964573651,-0.2812907686829033,-0.5182180404663086,0.6123336553573608,0.1732083261013031,0.4429044723510742,0.2552942335605621,-0.3082764446735382
1749029433.5587482,6.013407678179967,-2.1587339226994855,0.24616340625028557,1.4074396441336086,-1.888644138629727,4.378620459611665,-0.21272852772452497,-0.012102618067001272,-0.03654667959686046,0.17295536665653646,0.11056215168139324,-0.28303525002203334,-0.4722988605499267,0.5980808138847351,0.1772445142269134,0.3891696035861969,0.2561081945896148,-0.2887965142726898
1749029433.558787,6.012967699947121,-2.158759914920909,0.2460876998654358,1.4077963835383267,-1.8884153348992776,4.37804636239253,-0.2139331618184208,-0.012274621396331046,-0.03674499362175122,0.17379703190750664,0.11108665410947358,-0.284853834855856,-0.4674432575702667,0.6122537851333618,0.1680082380771637,0.4185685217380523,0.2410627603530883,-0.2762684226036072
1749029433.5588248,6.012526091677307,-2.158785979937787,0.246011369868819,1.408152884166973,-1.8881857345510458,4.37746945389945,-0.21516294413926018,-0.012439240855567383,-0.036969821089094655,0.17449604806316033,0.11149132437964776,-0.28675100881767,-0.4629841446876526,0.6125501990318298,0.1939375102519989,0.445449560880661,0.2418639510869979,-0.2803009748458862
1749029433.5588615,6.012083043697172,-2.1588120390647547,0.24593439225366406,1.4085087043873685,-1.8879558320538095,4.376889743298967,-0.2164161364125407,-0.012597689019448946,-0.03721810866883278,0.1750866428147884,0.11179930956682366,-0.2887226958729595,-0.4304528534412384,0.626245379447937,0.1761440485715866,0.4277009963989258,0.2264845073223114,-0.3080723285675049
1749029433.558902,6.011638658153633,-2.1588380660357616,0.24585677872443215,1.40886363273999,-1.8877260129464322,4.376307145514165,-0.21769042293637889,-0.012751073581972054,-0.0374851778276406,0.17561166908392645,0.11204307091734432,-0.2907571878478992,-0.5056852698326111,0.6206951141357422,0.1686741113662719,0.4424431622028351,0.2372710704803466,-0.3534336686134338
1749029433.558941,6.011192971101482,-2.1588640897784344,0.2457785760174457,1.4092176791539868,-1.8874965374021262,4.375721522022373,-0.2189834494796662,-0.01290019009630467,-0.03776512967331454,0.1761181609026036,0.11226105935312676,-0.29283722839747556,-0.5068529844284058,0.6086755990982056,0.1510086357593536,0.4265282452106476,0.2094482183456421,-0.3010624051094055
1749029433.5589786,6.010745983311673,-2.1588901899518547,0.24569986145691736,1.4095710452418029,-1.8872675374549583,4.375132729100077,-0.22029335500297023,-0.013045418893570056,-0.03805131628416427,0.1766528913606036,0.1124936150139503,-0.2949428421151468,-0.4861118197441101,0.614321768283844,0.1827287673950195,0.4124375879764557,0.2417090684175491,-0.2817065417766571
1749029433.5590162,6.010297694115146,-2.1589164851347333,0.2456207352521002,1.4099240790889858,-1.887039026886587,4.374540664959198,-0.2216192318597097,-0.013186719586843403,-0.03833686843864805,0.1772583747431497,0.11277856348403727,-0.29705426563826415,-0.473816454410553,0.6221616864204407,0.1583367884159088,0.4173320233821869,0.2521961331367492,-0.2608484327793121
1749029433.559059,6.009848132342841,-2.158943114583884,0.2455413105598777,1.4102772209416268,-1.886810921917125,4.373945308175888,-0.22296141328704913,-0.013323691380419474,-0.03861526130273617,0.17796958896072151,0.1131470686318723,-0.2991542581871914,-0.4581198990345001,0.6251105666160583,0.1779708862304687,0.4304579496383667,0.238749548792839,-0.2777552306652069
1749029433.559172,6.00939737869978,-2.158970215816301,0.2454617027705025,1.4106309465767821,-1.8865830700276713,4.373346741688303,-0.22432146984439802,-0.013455662516568257,-0.03888087805009222,0.17881156344786997,0.11362029827186737,-0.3012292614995088,-0.4607094526290893,0.6189841628074646,0.2008057236671447,0.4109402298927307,0.2496951669454574,-0.3065781593322754
1749029433.5611422,6.008945574780292,-2.1589979014796428,0.24538201962825013,1.410985714954977,-1.886355283447987,4.372745158657848,-0.22570185043439198,-0.01358178353979364,-0.03912951906996585,0.17979790467831466,0.1142073471315998,-0.30326930671087693,-0.4890370666980743,0.6347888112068176,0.1623228788375854,0.4564660787582397,0.2788957357406616,-0.3346412181854248
1749029433.6023188,6.008492915560833,-2.1590262394866047,0.24530235348544077,1.4113419260591673,-1.8861273729552281,4.372140848399178,-0.22710521939060727,-0.013701114806219652,-0.03935881218478455,0.18093029390369103,0.11490467801868777,-0.3052670275972599,-0.5184724926948547,0.62562096118927,0.1734707653522491,0.4533198475837707,0.2758740484714508,-0.3398028910160064
1749029433.6023655,6.008039624560147,-2.159055239907791,0.24522277623269195,1.411699893627869,-1.8858991767500684,4.3715341626275634,-0.22853365101452763,-0.013812708210066813,-0.03956849482268464,0.1821989459524078,0.1156971380278421,-0.30721639818640667,-0.5241380333900452,0.6127688884735107,0.1867233514785766,0.4555606842041015,0.2616077959537506,-0.3151921927928924
1749029433.6024077,6.007585913572286,-2.1590848507842066,0.24514333659501364,1.4120598357542715,-1.885670578883141,4.370925464617083,-0.22998788088914954,-0.013915684338586821,-0.03976054220165008,0.18358394261074656,0.11656040375825207,-0.30911176674762225,-0.4750236570835113,0.6321667432785034,0.1919620335102081,0.4669483304023742,0.2681752443313598,-0.3054146468639374
1749029433.6024468,6.007131931494114,-2.1591149632442592,0.2450640589277033,1.412421884059652,-1.8854415126979829,4.370315066339091,-0.2314667724326757,-0.01400930423376944,-0.03993910692197878,0.18505727178871872,0.11746451635616612,-0.3109475074081231,-0.4689646959304809,0.6194870471954346,0.1856525093317031,0.448825478553772,0.2702459394931793,-0.3291566073894501
1749029433.6024857,6.006677708967757,-2.159145424557838,0.2449849424939509,1.4127861094954057,-1.8852119472794147,4.369703160809777,-0.23296708669130242,-0.014093034166421372,-0.040110237266969474,0.18658535257251374,0.11837800964899932,-0.3127183425772143,-0.4917388260364532,0.6093541383743286,0.1884431689977646,0.4428852796554565,0.2531112730503082,-0.3210960626602173
1749029433.6025238,6.006223107109607,-2.159176056443629,0.24490596037744916,1.413152560122406,-1.8849818585188851,4.369089758199723,-0.23448359070158611,-0.01416660227980352,-0.040281366809609497,0.18813181956723188,0.11927204693159318,-0.3144202058303572,-0.4920872151851654,0.6483988165855408,0.1887984573841095,0.4238514602184295,0.2338049113750457,-0.329050213098526
1749029433.602563,6.005767779112442,-2.1592066753702985,0.24482705767172178,1.413521303977866,-1.884751190219548,4.368474634627574,-0.23600950581232702,-0.01423004574962734,-0.040460604013806335,0.18966036113693793,0.12012398720573902,-0.3160513862159223,-0.5107995271682739,0.6340993642807007,0.1833657622337341,0.4401134848594665,0.2320839315652847,-0.2944942712783813
1749029433.602601,6.0053111526571215,-2.159237111842027,0.24474814935000724,1.413892468837115,-1.8845198136299006,4.367857302393405,-0.23753725287470934,-0.014283745998289726,-0.04065587875455234,0.19113743048814683,0.12091990209774842,-0.3176135737615903,-0.522451639175415,0.6334816217422485,0.1983267366886139,0.452871561050415,0.2634063363075256,-0.2689454555511474
1749029433.602639,6.0048524391082445,-2.1592672264852104,0.24466911898357188,1.4142662705393363,-1.8842874951296948,4.367237009959685,-0.23905938195451196,-0.014328448942395738,-0.0408740219849764,0.19253465963671265,0.12165573289677055,-0.31911236300251566,-0.4782125651836395,0.6611905694007874,0.1895897537469864,0.448598563671112,0.2033986449241638,-0.2580612897872925
1749029433.6026816,6.0043906730092305,-2.159296921676417,0.24458981992823683,1.4146430226315803,-1.884053881150006,4.36661277874784,-0.24056950336690955,-0.01436526849432129,-0.041119878861248335,0.19383080406007586,0.12233697273851295,-0.32055688065755733,-0.5524042844772339,0.6442524790763855,0.1591516882181167,0.4293991923332214,0.2452887445688247,-0.2849065959453583
1749029433.6027205,6.003924782546766,-2.1593261480913934,0.2445100806375499,1.415023122397176,-1.8838185067730209,4.365983480799926,-0.24206301220438833,-0.014395674053083398,-0.04139558549882374,0.19501304730274846,0.12297696661585297,-0.32195851619162186,-0.4681445956230163,0.6373239159584045,0.1621265262365341,0.4233385026454925,0.2418018281459808,-0.32129767537117
1749029433.602758,6.003453687744986,-2.1593549058968744,0.24442971535059937,1.4154070118349344,-1.883580830057586,4.365347955727402,-0.24353745369309607,-0.014421463876211255,-0.04170014698332201,0.19607752262009323,0.12359414184805241,-0.3233291163385965,-0.4986705183982849,0.6547697186470032,0.1632615327835083,0.401363730430603,0.2652170658111572,-0.3288425505161285
1749029433.6027956,6.002976417482767,-2.1593832406423448,0.24434854033920198,1.4157951168422618,-1.8833402886437396,4.364705156918731,-0.24499249378269197,-0.014444723395007528,-0.04202940901995691,0.1970289756028432,0.12420867698472733,-0.3246792441593364,-0.5110812187194824,0.6475865244865417,0.1796696484088897,0.4053477644920349,0.2674697637557983,-0.3072298765182495
1749029433.6028323,6.002492229368433,-2.159411234485242,0.24426639408349682,1.4161877736795845,-1.8830963696772327,4.364054306553482,-0.24642957620911454,-0.014467762137613091,-0.04237642755011613,0.19787959752696618,0.12483921715116215,-0.32601707851877176,-0.5110812187194824,0.6475865244865417,0.1796696484088897,0.4053477644920349,0.2674697637557983,-0.3072298765182495
1749029433.6028695,6.002000710251653,-2.1594389941041956,0.24418315772878654,1.416585157742034,-1.8828486798103403,4.3633950294385,-0.2478514078673369,-0.014493021427859572,-0.042732158298636906,0.19864719196024122,0.12550020772156445,-0.32734828949076566,-0.4996960163116455,0.6112334132194519,0.194498598575592,0.4197168052196502,0.2915791273117065,-0.3045495152473449
1749029433.602907,6.001501833975632,-2.1594666371543694,0.24409877116418155,1.4169872325856003,-1.882597000626415,4.362727432827451,-0.2492614077396279,-0.014522952782156574,-0.04308635293606374,0.19935296233899213,0.12620026127466172,-0.3286769063732306,-0.533004641532898,0.6554527878761292,0.1599221527576446,0.4442199766635895,0.2732830047607422,-0.311347484588623
1749029433.602944,6.000995961009681,-2.1594942791459877,0.24401324100971908,1.4173937332283892,-1.8823413179993762,4.362052109118843,-0.2506632072895465,-0.014559880512424512,-0.04342855859380848,0.20001927147955015,0.12694173810121082,-0.3300069009560464,-0.5256969332695007,0.6271767616271973,0.1714039295911789,0.4350705444812774,0.2912814915180206,-0.3246967494487762
1749029433.6029809,6.000483780626612,-2.159522022294502,0.24392663932857897,1.417804187154432,-1.8820818212659394,4.361370059451839,-0.25206023259461025,-0.014605870974193521,-0.043749137580038365,0.20066768760137554,0.12772145888136105,-0.3313439811153782,-0.5757074356079102,0.6373154520988464,0.1596076935529709,0.4734322428703308,0.2967373430728912,-0.2956315279006958
1749029433.6030178,5.9999662121161,-2.159549947463823,0.24383909441434326,1.4182179650734776,-1.8818188761115362,4.360682558153864,-0.25345534607985404,-0.014662628615853929,-0.044040226275026635,0.20131750728449035,0.12853223834711447,-0.33269696444676694,-0.5006582140922546,0.639074981212616,0.1754956096410751,0.4237596094608307,0.2545969784259796,-0.2665561735630035
1749029433.603054,5.999444288959865,-2.1595781099235407,0.24375077623125982,1.4186343475498544,-1.8815529797522978,4.35999098978658,-0.2548504911700045,-0.0147314295626795,-0.04429654090879272,0.2019847910431554,0.12936478617722272,-0.3340781446421236,-0.4884253740310669,0.6269703507423401,0.1760684251785278,0.4255723357200622,0.2498413026332855,-0.25102499127388
1749029433.60319,5.998919047916143,-2.1596065392723625,0.24366187901825076,1.4190525940510443,-1.88128470734306,4.359296690138664,-0.25624629232793156,-0.014813094744091683,-0.04451593519499073,0.20268183367310255,0.1302094970420094,-0.33550232571455957,-0.5000389218330383,0.6475244164466858,0.1796977370977401,0.4317513704299927,0.2738316059112549,-0.282483160495758
1749029433.6051326,5.998391438023131,-2.159635243456358,0.24357260301109804,1.419472004664166,-1.8810146565370238,4.358600814921234,-0.25764163201980167,-0.014907997668029076,-0.04469963285030972,0.20341696613537627,0.13105774285819122,-0.3369846276022997,-0.5400686264038086,0.629980206489563,0.1918942034244537,0.4229806661605835,0.2776115238666534,-0.3157548904418945
1749029433.646302,5.997862256751146,-2.1596642161162016,0.24348313676392178,1.4198919688105283,-1.8807433951980876,4.357904250119485,-0.259033319015832,-0.015016092999061622,-0.04485209555282135,0.2041946384464959,0.13190245191068067,-0.33853758734789324,-0.542219877243042,0.6356884241104126,0.1882149875164032,0.4407718181610107,0.2424352169036865,-0.3164307475090027
1749029433.6463487,5.997332113893635,-2.1596934455361425,0.24339364120895154,1.4203119986753392,-1.880471416445061,4.357207568378068,-0.2604160051636355,-0.015136942400146777,-0.04498053860507748,0.2050158016257394,0.13273795603676214,-0.3401683097787558,-0.5089195370674133,0.6688723564147949,0.180309772491455,0.4599120616912842,0.2636110484600067,-0.3246003091335296
1749029433.6463892,5.996801419355401,-2.1597229227609698,0.24330423628628625,1.4207317476644752,-1.880199104966801,4.356511027666682,-0.26178246377159864,-0.015269711905353513,-0.045094162616220304,0.20587862371574148,0.13355925846865932,-0.3418763969898112,-0.5198134183883667,0.6673349142074585,0.1666156351566314,0.4388378262519836,0.2538936138153076,-0.3363795280456543
1749029433.6464286,5.996270389128959,-2.1597526466071835,0.24321499077540878,1.421151016051827,-1.8799267178068246,4.355814602765454,-0.2631242482870583,-0.015413126664119564,-0.045203212594321696,0.2067795143115697,0.13436099360358467,-0.3436531725952343,-0.5569227933883667,0.652890682220459,0.1727496683597564,0.466153085231781,0.2567625343799591,-0.3647481799125671
1749029433.6464667,5.995739063696004,-2.159782624382837,0.2431259159587719,1.4215697469891544,-1.8796543810309148,4.355118037459785,-0.2644326624325616,-0.01556539096653792,-0.04531799157962039,0.2077143196504762,0.13513640305619906,-0.345482412403933,-0.5434237122535706,0.6305465698242188,0.1698389947414398,0.4133980870246887,0.2612322866916656,-0.3626128137111664
1749029433.646505,5.995207333728653,-2.1598128686354023,0.2430369638062165,1.4219880161148417,-1.8793821012267407,4.354420905689256,-0.2656999106970988,-0.015724103297247348,-0.04544794388963417,0.20867944691595403,0.13587663729945618,-0.34734245829938665,-0.5392590165138245,0.6611558794975281,0.1485015600919723,0.4301754832267761,0.2741851210594177,-0.3278352320194244
1749029433.646543,5.994674968841358,-2.1598433915538258,0.24294803022032696,1.4224060173284971,-1.8791097884770922,4.3537226724299725,-0.2669202499844636,-0.015886208490887323,-0.04560089282902811,0.2096726525109546,0.13657062317921326,-0.3492092773812959,-0.4607042968273163,0.6465976238250732,0.1772646456956863,0.4290582537651062,0.259889543056488,-0.261259377002716
1749029433.6465805,5.994141646380856,-2.1598741993647868,0.24285896341893942,1.4228240463777508,-1.8788372859979805,4.353022748557966,-0.2680909365488049,-0.01604802907543066,-0.04578248103419302,0.21069332557453427,0.1372056348664357,-0.3510598205793157,-0.4743842482566833,0.6565503478050232,0.1504503190517425,0.4578135311603546,0.2487360537052154,-0.2696395814418793
1749029433.6466174,5.993606978756194,-2.1599052889792407,0.24276957692358456,1.4232424830929695,-1.8785644013195821,4.352320537182514,-0.26921278966114687,-0.01620540522667107,-0.045995830099300875,0.21174228574925633,0.13776858107147819,-0.3528750218840752,-0.4629211723804474,0.6268016695976257,0.1487967669963836,0.4493251442909241,0.2579145729541778,-0.2844926714897156
1749029433.646655,5.993070539118421,-2.159936648235317,0.24267966613323802,1.4236617724554899,-1.8782909346135903,4.351615471130263,-0.2702902876478332,-0.01635394689624738,-0.046241418083742526,0.2128212973510682,0.13824788325331963,-0.35464196525855457,-0.4540625810623169,0.6643296480178833,0.151439219713211,0.4697740077972412,0.2565110027790069,-0.3332552015781402
1749029433.6466928,5.992531885899665,-2.1599682597091725,0.24258902713304742,1.4240824041772646,-1.8780167012393236,4.35090704209032,-0.2713312306003628,-0.01648936810107848,-0.04651716808983469,0.21393257531175683,0.138635681477194,-0.35635502843411265,-0.5510835647583008,0.673407256603241,0.1642633527517318,0.4654599726200104,0.2340465039014816,-0.329724371433258
1749029433.64673,5.99199058681395,-2.1600001069199695,0.24249747604916466,1.4245048902825974,-1.8777415473492889,4.350194821843938,-0.2723460751911346,-0.016607846299254315,-0.04681873956005061,0.2150784741007794,0.1389299882357904,-0.35801605521642366,-0.4715214967727661,0.6571353077888489,0.1451383233070373,0.4565982222557068,0.22909876704216,-0.3159198462963104
1749029433.6467671,5.991446242653897,-2.1600321812310717,0.24240486685620316,1.4249297405443941,-1.8774653588769035,4.349478475966269,-0.27334704003595983,-0.016706342091169432,-0.04714000887839785,0.2162613544042722,0.13913635217510303,-0.35963373598996345,-0.429483413696289,0.6485779285430908,0.1363307535648346,0.444906622171402,0.2425074875354766,-0.3104300796985626
1749029433.6468043,5.9908985108466855,-2.16006448761869,0.24231110528900024,1.4253574363995012,-1.8771880650744128,4.348757770951169,-0.27434704375274016,-0.016782826339486915,-0.047473716082049776,0.21748342733794868,0.1392686311192852,-0.3612224048415316,-0.4669172763824463,0.6839948892593384,0.138917788863182,0.4445908069610595,0.1981085538864135,-0.3412966132164001
1749029433.6468413,5.990347128356112,-2.1600970474764094,0.24221615673055327,1.4257884046197697,-1.876909638156396,4.348032576456848,-0.2753585458714331,-0.01683638249854132,-0.04781223919005393,0.21874629331057555,0.13934861795990805,-0.362800443759324,-0.524427056312561,0.6702143549919128,0.1537936180830001,0.4344757199287414,0.2288802862167358,-0.3485458195209503
1749029433.646878,5.98979193300542,-2.1601298969272675,0.24212004680639077,1.4262229921957685,-1.876630090721318,4.347302864572076,-0.27639241900032974,-0.016867172195971763,-0.04814843275410696,0.22004997196684928,0.1394044888260967,-0.3643884455980724,-0.5088909268379211,0.6686080694198608,0.1514735966920852,0.4384380578994751,0.2393566220998764,-0.3136909604072571
1749029433.6469147,5.9892328815475935,-2.1601630800178393,0.24202285476579005,1.4266614438136331,-1.8763494722120329,4.34656870755354,-0.27745702080481327,-0.016876272151263964,-0.04847643464906374,0.22139144100946082,0.13946829615039824,-0.3660072325637453,-0.4950537979602813,0.6835789084434509,0.1501865684986114,0.4614128768444061,0.2513118684291839,-0.2933335304260254
1749029433.6469514,5.9886700621049105,-2.1601966376241784,0.24192470116845882,1.4271038833862164,-1.8760678646445461,4.3458302747872555,-0.2785576039699944,-0.016865414895601564,-0.048792321313202935,0.22276299209046424,0.1395729327842729,-0.36767579021492675,-0.5181884765625,0.6395445466041565,0.1686069667339325,0.5027978420257568,0.2769635915756225,-0.2938433885574341
1749029433.6469884,5.988103698470736,-2.160230594402913,0.24182573243840438,1.4275503013868294,-1.8757853768007104,4.345087828906902,-0.27969612241554537,-0.01683669112339149,-0.049094498312659225,0.2241509579164075,0.13974907609650683,-0.3694092113249881,-0.5137988328933716,0.660081684589386,0.1639910787343979,0.5330077409744263,0.2745369672775268,-0.3111538887023926
1749029433.647025,5.987534144445863,-2.1602649468932165,0.24172610515385204,1.4280005499291957,-1.8755021357535528,4.344341719910214,-0.2808714125829061,-0.016792283863901986,-0.04938375847688096,0.22553543516475552,0.1400225620154986,-0.3712168452192196,-0.5524340867996216,0.6452155113220215,0.1325142085552215,0.5394744277000427,0.2869293093681335,-0.3613907992839813
1749029433.647164,5.986961867517806,-2.1602996554646903,0.2416259724715863,1.4284543474229117,-1.8752182750615496,4.343592374996824,-0.282079669107415,-0.016734292140403735,-0.049663009261598716,0.22689143407741552,0.1404124777810554,-0.373100935691678,-0.5296616554260254,0.6388461589813232,0.1472494155168533,0.499472051858902,0.2686604261398315,-0.3276958763599396
1749029433.649229,5.986387422211714,-2.160334641586174,0.24152547405755187,1.4289112941950632,-1.8749339198174693,4.342840281285397,-0.28331509387260295,-0.01666466740205028,-0.0499367329630709,0.22819145889126677,0.14093006935162256,-0.37505602289923795,-0.4788966178894043,0.6662001609802246,0.155037835240364,0.4585931897163391,0.2734038233757019,-0.3351435363292694
