nimar13/UR3e_dataset_trayectorias/trayectorias_ejecutadas_filtradas/jtraj/trayectoria_246_result_filtrado.csv
timestamp,q1,q2,q3,q4,q5,q6,qd1,qd2,qd3,qd4,qd5,qd6,tau1,tau2,tau3,tau4,tau5,tau6
1749031975.922279,2.990540181867059,-0.6030768400363635,-2.403791610707536,-2.6313868673433087,-0.49425521943494155,-0.6584593412392704,-0.003317512464982144,-0.0004048040230331602,0.0018467651809721908,0.0017126056319222707,0.0005146239861296033,-0.00018175618570577382,0.0462611615657806,-0.0391169637441635,1.1038970947265625,0.3856336176395416,-0.3343894481658935,-0.1421974450349807
1749031975.9223263,2.990550387055651,-0.6030729696673143,-2.4037976188193846,-2.631387779292077,-0.4942578773853522,-0.6584592088771124,-0.002956875103518541,-0.0003830726714817523,0.0016652602503798952,0.0015274489772535268,0.0005042736938866538,-0.00017344788953508057,0.0454830378293991,-0.0225065201520919,1.1155837774276731,0.3929119706153869,-0.3364385962486267,-0.135484978556633
1749031975.9223683,2.9905599734341766,-0.6030692829897127,-2.403803391495032,-2.6313886186310587,-0.4942603818298519,-0.6584590422916119,-0.0026044316970027103,-0.0003617849510098144,0.001485773544974419,0.0013468139063855748,0.0004938138741100629,-0.00016473929785213495,0.0557664409279823,-0.0079759508371353,1.1222913265228271,0.3960779011249542,-0.3376853466033935,-0.13339164853096
1749031975.9224072,2.9905684681478872,-0.6030659446919744,-2.403808718629787,-2.631389326895358,-0.4942626242718617,-0.6584588688172618,-0.002267551037443078,-0.00034120845781829664,0.0013113866844841476,0.0011750052863494747,0.0004829385549972363,-0.00015623136221488165,0.0409850664436817,-0.0307645052671432,1.127206802368164,0.3983172476291656,-0.3365277051925659,-0.1305183321237564
1749031975.9224465,2.9905754981100174,-0.6030630974628836,-2.403813418318155,-2.6313898580567177,-0.4942645404547057,-0.6584587269640066,-0.0019526652697652426,-0.0003215517316820859,0.0011451678789916404,0.0010158355191941602,0.0004713735636057014,-0.00014869798437479263,0.044902179390192,0.0032693296670913,1.127272605895996,0.3847375512123108,-0.3317274451255798,-0.1443057507276535
1749031975.9224844,2.9905808158825886,-0.6030608513398448,-2.403817345386519,-2.6313901827090986,-0.4942661200355151,-0.6584586648251534,-0.0016649595252331392,-0.0003029563161783789,0.000990085527185938,0.0008724076069078282,0.00045890247399757835,-0.0001430699853690119,0.0448930747807025,-0.033860296010971,1.1257977485656738,0.40229332447052,-0.3363602757453918,-0.1325864791870117
1749031975.9225223,2.9905843108866277,-0.6030592739949544,-2.403820396857553,-2.631390290789681,-0.49426740696538624,-0.6584587366663672,-0.001408172061502386,-0.0002854961476494111,0.0008488999714168154,0.0007469562466245143,0.0004453875571261854,-0.00014040506304686807,0.0477528274059295,-0.0117828547954559,1.1310691833496094,0.3967684805393219,-0.3317188024520874,-0.155488908290863
1749031975.9225607,2.9905860069599086,-0.6030583836823765,-2.4038225142560643,-2.6313901923173417,-0.49426849084730773,-0.658458998146919,-0.0011845045825933315,-0.00026918432330438777,0.0007240390512615536,0.0006407552726175027,0.00043078349330954497,-0.00014184408654741585,0.0569745637476444,-0.0048717856407165,1.1274763345718384,0.4001317024230957,-0.3299577832221985,-0.1566600799560547
1749031975.9225984,2.990586048605281,-0.6030581466856186,-2.40382368328507,-2.631389915802658,-0.4942694908568001,-0.6584595009610106,-0.0009946337476053162,-0.0002539863386544003,0.0006174684469189078,0.0005540924417998242,0.000415142367535184,-0.00014855551350566193,0.0294103194028139,-0.020728513598442,1.1391661167144775,0.4097353219985962,-0.3488578200340271,-0.129271313548088
1749031975.9226367,2.9905846786346917,-0.603058480573193,-2.403823931835754,-2.631389504447427,-0.49427053488949435,-0.6584602878125803,-0.0008378126876674469,-0.00023983805109168487,0.0005305704868267556,0.00048630661882319065,0.00039860979210073463,-0.00016167156139996574,0.0429035350680351,0.0048633068799972,1.1496806144714355,0.3949137330055237,-0.3367068171501159,-0.1559326946735382
1749031975.922675,2.990582209865835,-0.6030592635637221,-2.403823327239393,-2.6313890108115214,-0.49427173734439683,-0.6584613885062542,-0.0007120502305960581,-0.00022666599473730004,0.000464044604650492,0.0004358782829237673,0.0003814133957739166,-0.00018222196500338104,0.0316790789365768,0.0139927417039871,1.135067343711853,0.4018651247024536,-0.3439210057258606,-0.1570646166801452
1749031975.9227116,2.9905789934614613,-0.6030603490506559,-2.4038219730423833,-2.6313884909253504,-0.49427317918290287,-0.6584628174772126,-0.0006143517074988748,-0.0002144072862399922,0.0004178397862114853,0.0004005621218019554,0.0003638458440401693,-0.00021107341855160374,0.0247121285647153,0.0196537375450134,1.1338236331939695,0.3964220285415649,-0.3550884127616882,-0.1456499099731445
1749031975.922749,2.990575386498543,-0.6030615831236734,-2.403820004759851,-2.631387998732212,-0.49427489354499565,-0.6584645725505053,-0.0005409987991406198,-0.00020302624594535176,0.0003911257978583721,0.00037755017018841966,0.00034624478225324433,-0.0002488845415051996,0.0543318763375282,0.0196028351783752,1.1207901239395142,0.3961162269115448,-0.3426783084869385,-0.135718747973442
1749031975.9227858,2.990571721335314,-0.603062822144087,-2.403817583690621,-2.631387581434807,-0.494276859259502,-0.6584666346197876,-0.00048783975452897565,-0.00019252502395671113,0.00038230706176336474,0.0003636550303745338,0.00032897172244859607,-0.0002960864303336506,0.0603116676211357,0.0236869156360626,1.1388614177703855,0.3764807879924774,-0.3583102822303772,-0.1364405453205108
1749031975.9228232,2.9905682792793686,-0.6030639474504039,-2.403814888291959,-2.6313872760058237,-0.4942790030940064,-0.6584689683421945,-0.00045055887560510816,-0.00018294596967555234,0.0003890810182393429,0.00035550451758250895,0.0003123911675061569,-0.00035289623080014723,0.0603116676211357,0.0236869156360626,1.1388614177703855,0.3764807879924774,-0.3583102822303772,-0.1364405453205108
1749031975.92286,2.9905652709500057,-0.6030648751258981,-2.4038121035139772,-2.631387106885567,-0.49428120983844065,-0.6584715243473537,-0.00042489746825716214,-0.0001743642298389187,0.00040854113547063233,0.00034974095636857317,0.0002968504507744749,-0.00041936445592951927,0.0519261434674263,0.0173643082380294,1.141412377357483,0.3946079909801483,-0.3531502485275268,-0.1569505035877227
1749031975.9228969,2.9905628254234338,-0.603065560062092,-2.403809409261861,-2.6313870847349325,-0.4942833379346082,-0.6584742433646763,-0.0004068073925298058,-0.0001668701438618054,0.0004373226841672566,0.00034321986205586985,0.0002826601440416114,-0.0004954455973889665,0.0572068057954311,0.0122915655374526,1.131417751312256,0.4012124240398407,-0.3478692173957824,-0.1643165200948715
1749031975.9229343,2.990560989478042,-0.6030659947380771,-2.4038069693409243,-2.6313872060226164,-0.49428523783453066,-0.6584770620907932,-0.0003925309980300894,-0.0001605424510162325,0.00047178664267316433,0.0003332036085862661,0.0002700746812852053,-0.0005810677265923198,0.0563484951853752,0.0435679703950881,1.1467995643615725,0.391139954328537,-0.3677166700363159,-0.1569201350212097
1749031975.9229712,2.9905597368924917,-0.603066203853184,-2.4038049218074744,-2.631387453234276,-0.4942867704641284,-0.6584799199554842,-0.0003786149329341625,-0.00015541500193543998,0.0005082336863444207,0.00031754563142939165,0.0002592730894081719,-0.0006761659395082383,0.0770135223865509,0.0377888679504394,1.1336045265197754,0.3867778480052948,-0.3560718297958374,-0.1473071873188018
1749031975.923009,2.990558986004735,-0.6030662361832264,-2.4038033710032165,-2.631387795671439,-0.4942878236548047,-0.6584827656229876,-0.00036187755763638485,-0.00015144119122810715,0.0005431362203323228,0.000294859404011296,0.00025034020286971906,-0.0007806448432457935,0.0877779275178909,0.039189301431179,1.1298952102661133,0.3750124871730804,-0.365059494972229,-0.1662006974220276
1749031975.9236455,2.990558622142506,-0.6030661549585034,-2.403802381278203,-2.6313881910907657,-0.494288324952575,-0.6584855622054024,-0.00033935860258269945,-0.00014846121108938129,0.0005733716708067975,0.00026466378359286296,0.00024324922205206902,-0.0008942511313045161,0.0836232155561447,0.0384426862001419,1.1334776878356934,0.3868997991085052,-0.3694779872894287,-0.1605496853590011
1749031975.9256475,2.990558520710731,-0.6030660279064803,-2.403801972702505,-2.631388588570901,-0.4942882497526589,-0.658488290584938,-0.00030828373698871345,-0.00014617722252962178,0.0005964346992301218,0.00022749280898833776,0.00023784686517877476,-0.0010163644815306648,0.0780855938792228,0.0356928259134292,1.1196280717849731,0.3913659155368805,-0.3614886403083801,-0.1414057314395904
1749031975.9662826,2.9905585670284243,-0.6030659179829209,-2.4038021195034847,-2.6313889327991147,-0.4942876241898053,-0.6584909506958375,-0.00026607430432991,-0.0001441407931516077,0.0006106009037087784,0.00018495450360011572,0.00023384268163450386,-0.0011457442339547095,0.0843232572078704,0.0320530831813812,1.1195073127746582,0.3942599594593048,-0.3709848523139953,-0.1588846147060394
1749031975.966328,2.990558670266794,-0.6030658756578469,-2.4038027520158805,-2.6313891695105758,-0.4942865227194194,-0.6584935609298963,-0.0002104230800202021,-0.0001417557713998043,0.0006150135764531904,0.00013972062494229138,0.0002308043329442278,-0.001280292292494289,0.0929936543107032,0.0601997002959251,1.1295714378356934,0.380375474691391,-0.370815098285675,-0.1836767345666885
1749031975.9663684,2.9905587704376453,-0.6030659333134589,-2.403803762534399,-2.6313892513441606,-0.49428506093859204,-0.6584961559363022,-0.00013944235673260237,-0.00013829837189112236,0.0006096725779205966,9.542845199057322e-05,0.00022816073302956436,-0.0014169040556453788,0.0790204405784607,0.0737511366605758,1.1286611557006836,0.3817628920078277,-0.3677241206169128,-0.174959659576416
1749031975.966407,2.9905588387797986,-0.6030661019214245,-2.403805014917567,-2.631389143140507,-0.4942833847485746,-0.6584987830672712,-5.187465504467455e-05,-0.0001329547073668715,0.0005953208400349561,5.647733357123287e-05,0.00022521477776468645,-0.0015514752913251273,0.107165090739727,0.0519001483917236,1.1233686208724976,0.3811090290546417,-0.3700448870658874,-0.1638720780611038
1749031975.9664462,2.9905588730301007,-0.6030663698878114,-2.403806357322359,-2.6313888257641382,-0.49428165723156564,-0.6585014976925198,5.26575756302089e-05,-0.00012487435131325507,0.0005732439089643638,2.770737021141717e-05,0.00022116691058070954,-0.0016791115196482546,0.0746338292956352,0.054760605096817,1.1106789112091064,0.3812307715415954,-0.3742888569831848,-0.1498131304979324
1749031975.966484,2.990558890006126,-0.6030667038652018,-2.403807637017927,-2.6313882978039738,-0.49428004471651604,-0.6585043575960186,0.00017339652726165093,-0.00011323682110908196,0.0005450139228667584,1.395553193964455e-05,0.0002151499296819835,-0.0017945479361068332,0.0799144804477691,0.0741086602210998,1.1170035600662231,0.3811091780662536,-0.375223696231842,-0.1449466496706009
1749031975.9665215,2.990558918265652,-0.6030670513448227,-2.403808715772497,-2.631387574949275,-0.4942787036112557,-0.6585074167197421,0.0003082251814821818,-9.732626257142758e-05,0.0005122176456630546,1.9495631352085065e-05,0.0002062742593100474,-0.0018927371982367335,0.1220686584711074,0.068053588271141,1.1110002994537354,0.3811900913715362,-0.3810305595397949,-0.1390773653984069
1749031975.9665594,2.990558992805909,-0.6030673448560444,-2.4038094839365267,-2.6313866874299334,-0.4942777694055551,-0.6585107187150386,0.0004535096808765887,-7.660824549150929e-05,0.00047620904726866615,4.738235903981736e-05,0.00019368146282648264,-0.0019695112913218626,0.1122548803687095,0.0828354135155677,1.1053454875946045,0.385818600654602,-0.4014837741851806,-0.1858226209878921
1749031975.9665987,2.9905591520398382,-0.6030675076351284,-2.4038098712535874,-2.631385676474196,-0.494277348455745,-0.6585142910021096,0.0006040317203272745,-5.080156699962135e-05,0.0004379224856877401,9.87350782505251e-05,0.00017660221720822576,-0.002022189018055733,0.1392548829317093,0.0935199558734893,1.1026804447174072,0.3601282835006714,-0.4103691577911377,-0.1622024625539779
1749031975.9666371,2.990559435680488,-0.6030674607198198,-2.4038098527518295,-2.631384590981494,-0.49427751212996873,-0.6585181400555031,0.0007530144069230809,-1.9937427662699906e-05,0.00039777445715890187,0.00017201285793127296,0.00015441348419915955,-0.002049996431064993,0.1292121112346649,0.104786142706871,1.1007249355316162,0.3589664697647095,-0.419434130191803,-0.1672022640705108
1749031975.9666743,2.9905598816533443,-0.6030671314735268,-2.4038094488077566,-2.631383485428616,-0.4942782925190852,-0.6585222483492588,0.0008922174020042419,1.5601469522626093e-05,0.0003556710343324054,0.0002623465150979162,0.00012668837617943037,-0.002054195487988911,0.1211361065506935,0.0965140908956527,1.1015650033950806,0.3718127906322479,-0.4196172952651977,-0.1765017360448837
1749031975.9667115,2.990560520817671,-0.6030664633179936,-2.403808719481473,-2.6313824196253983,-0.49427967957512703,-0.6585265730056078,0.0010120533752562852,5.506820365139108e-05,0.00031112528298880084,0.0003610042121794473,9.323138647036975e-05,-0.0020378646087853636,0.1246047914028167,0.095607154071331,1.0936882495880127,0.352136492729187,-0.4363261461257934,-0.1645736843347549
1749031975.9667487,2.9905613693735633,-0.6030654258095499,-2.4038077542394265,-2.6313814605727313,-0.4942816206356128,-0.6585310459007825,0.0011016762037904134,9.736966257193469e-05,0.0002634753555867233,0.0004550723322633711,5.409144083702583e-05,-0.0020053280009818095,0.0940733924508094,0.1090470105409622,1.0764636993408203,0.3467729091644287,-0.4359659552574157,-0.1548608988523483
1749031975.9667864,2.99056241966271,-0.6030640232917376,-2.4038066589306495,-2.6313806864258997,-0.4942840238314507,-0.6585355748575313,0.0011490225127630583,0.00014111753544381056,0.00021218112187849567,0.0005274310306367562,9.545808342309454e-06,-0.0019612794479741858,0.0940733924508094,0.1090470105409622,1.0764636993408203,0.3467729091644287,-0.4359659552574157,-0.1548608988523483
1749031975.9668236,2.9905636305449423,-0.6030622997494886,-2.4038055421569062,-2.6313801923516293,-0.49428676634823343,-0.6585400455951015,0.001140841391572293,0.00018471256541126389,0.00015716641763707844,0.0005570925788907818,-3.995072413995734e-05,-0.0019096895003489895,0.1157953664660453,0.0640707314014434,1.0885944366455078,0.3220480680465698,-0.4558696746826172,-0.1587078124284744
1749031975.9668603,2.990564918829251,-0.6030603377859023,-2.4038045029473487,-2.6313800977897652,-0.49428970726390187,-0.6585443242935467,0.001062796585828515,0.0002264600949919676,9.916617858348573e-05,0.0005199497343225394,-9.385492374023122e-05,-0.0018526234022707738,0.1094295307993888,0.0919816195964813,1.0889098644256592,0.3288410305976867,-0.4535598754882812,-0.1588820368051529
1749031975.966898,2.990566153375441,-0.6030582509480631,-2.4038036210883806,-2.631380554228195,-0.4942927034509271,-0.6585482608943863,0.0008997476668139988,0.0002647110950416647,4.0033500276773385e-05,0.0003899514606483725,-0.00015166286622843683,-0.0017891276759308887,0.087176501750946,0.1174687519669532,1.0986249446868896,0.3027001917362213,-0.4588116407394409,-0.1505975574254989
1749031975.9669344,2.9905671534211433,-0.6030561704208487,-2.4038029507885414,-2.631381752098028,-0.49429562623672785,-0.6585516934552011,0.0006363008402074384,0.00029801650101329483,-1.7038545380421188e-05,0.00014068646495532216,-0.00021307202446934167,-0.001714358561020511,0.0772218406200409,0.1012649834156036,1.1003708839416504,0.2970442473888397,-0.474185049533844,-0.1548664420843124
1749031975.9669712,2.990567692394261,-0.6030542286604276,-2.403802517715334,-2.6313839249619457,-0.49429837622996015,-0.6585544538233696,0.00025766999838123215,0.0003252745554800436,-6.742140147506638e-05,-0.0002526854035629373,-0.0002781658520521003,-0.0016191172138462788,0.0522339530289173,0.1050961166620254,1.1157312393188477,0.2809516787528991,-0.4854586720466614,-0.1480846256017685
1749031975.9670084,2.990567507756001,-0.6030525433134971,-2.403802318917266,-2.6313873490531376,-0.4943008939993457,-0.6585563745795883,-0.0002491795340616163,0.0003458446190248965,-0.00010511422994279271,-0.0008112545230499085,-0.0003475979722919317,-0.0014899211273662794,0.0545091107487678,0.0927490964531898,1.1273486614227295,0.272378921508789,-0.4840201735496521,-0.1256166249513626
1749031975.9676416,2.990566316158862,-0.6030512045113097,-2.403802324840211,-2.631392336607294,-0.494303165149802,-0.6585572968518276,-0.0008941974238681407,0.00035960161959993237,-0.00012298489900619878,-0.001550077071345973,-0.00042273931417998345,-0.001309682014632953,0.0198268070816993,0.0918439403176307,1.1043882369995115,0.2855901420116424,-0.4650241136550903,-0.0989253669977188
1749031975.9696305,2.99056383175657,-0.6030502674392373,-2.40380248262885,-2.6313992223040183,-0.4943052195046555,-0.6585570784662282,-0.0016828630499720744,0.0003669147938650991,-0.00011319002076130483,-0.0024759711693437114,-0.0005057403674576844,-0.0010589854803884366,0.0056573823094367,0.09227005392313,1.1221765279769895,0.2644924819469452,-0.4778158664703369,-0.118040345609188
1749031976.014304,2.9905597846212695,-0.6030497504628685,-2.4038027200907304,-2.6314083432893423,-0.49430712518072345,-0.6585556020370055,-0.0026149040100260992,0.0003685487966199045,-6.775377267585799e-05,-0.0035856300557894627,-0.0005994617503809357,-0.0007178864669753005,0.0334183797240257,0.1050961017608642,1.1042739152908323,0.2509060502052307,-0.4818364381790161,-0.0974986031651496
1749031976.014351,2.990553936424695,-0.6030496377317804,-2.4038029498890325,-2.631420014414825,-0.4943089790766645,-0.6585527827986135,-0.0036832696677651807,0.00036549864956224304,2.0738464217786214e-05,-0.004864330795898994,-0.0007072465455355435,-0.0002680555938226101,-0.0121920257806777,0.096292957663536,1.12328839302063,0.2359200865030288,-0.4906039237976074,-0.0847566202282905
1749031976.014391,2.99054609162838,-0.6030498845934926,-2.4038030736147173,-2.63143450129304,-0.4943108955298712,-0.6585485758712466,-0.004873502460187432,0.0003587789667003494,0.0001583987858705971,-0.0062855227901976365,-0.0008325443176682448,0.0003049561518443645,-0.0129536166787147,0.0688072741031646,1.1508660316467283,0.2262026965618133,-0.4922288656234741,-0.084549680352211
1749031976.01443,2.99053610374304,-0.6030504244062942,-2.403802985464948,-2.6314519943917944,-0.4943129946475879,-0.658542982045496,-0.006163645388659998,0.00034919219050309107,0.00034933378853930754,-0.00781152257573329,-0.0009784375139794182,0.0010096141951517726,-0.0325027927756309,0.0857874676585197,1.1466047763824463,0.2114980518817901,-0.5035785436630249,-0.0445155128836631
1749031976.0144725,2.990523877261238,-0.603051176038824,-2.403802575449606,-2.6314725875609897,-0.4943153913395039,-0.6585360504635678,-0.0075248081921348445,0.0003371011948145529,0.000595076536245227,-0.009395414504031271,-0.0011471537065844218,0.001846755582003487,-0.0599892251193523,0.0519599914550781,1.1622411012649536,0.21542289853096,-0.5080723166465759,-0.0199018754065036
1749031976.0145118,2.9905093664643045,-0.6030520518377627,-2.4038017323457797,-2.6314962640652095,-0.49431818564399865,-0.6585278764638,-0.008922461906898816,0.0003222295626505095,0.0008942486876865826,-0.010984085162211206,-0.0013396643750409928,0.0028086766708639824,-0.0680268555879592,0.0532396882772445,1.17431640625,0.2046042084693908,-0.5002467632293701,-0.020124178379774
1749031976.01455,2.990492572376032,-0.6030529657569799,-2.403800346863357,-2.6315228924166743,-0.4943214547190559,-0.6585185936533319,-0.010318436664428169,0.0003035089391183178,0.001242531208216654,-0.012522145152481352,-0.001555469108455671,0.0038791562917879488,-0.0790501236915588,0.0320530384778976,1.1847590208053589,0.2039536535739898,-0.5090246796607971,-0.0243724212050437
1749031976.0145874,2.990473538731645,-0.6030538409554423,-2.403798315473325,-2.6315522331534513,-0.49432524700709635,-0.6585083606015998,-0.011673482977235047,0.000278987757633633,0.0016329864190866596,-0.013956352036733417,-0.001792641390552832,0.00503449820349289,-0.1173433512449264,0.0182336270809173,1.1973867416381836,0.1993683576583862,-0.5151128768920898,-0.0026467388961464
1749031976.014625,2.9904523472692013,-0.6030546160834918,-2.4037955449950372,-2.631583956341097,-0.49432957954886436,-0.6584973437368911,-0.012950155478245707,0.00024580990975065766,0.0020567181166604295,-0.015240061799672475,-0.0020481683409553754,0.0062455279292819,-0.1041445881128311,0.0567607134580612,1.1869430541992188,0.2091715037822723,-0.5338495373725891,0.0136458231136202
1749031976.0146637,2.9904291123119693,-0.6030552498878164,-2.403791957470554,-2.6316176682001333,-0.4943344398149848,-0.6584856986709455,-0.014115715221970575,0.0002002660371562488,0.0025037874223449675,-0.016337211059993816,-0.0023185550406586487,0.007480337204869835,-0.1235193833708763,0.0092346519231796,1.1777477264404297,0.2165752500295639,-0.525860607624054,0.0332902260124683
1749031976.014701,2.9904039746017452,-0.6030557243600481,-2.4037874943603095,-2.6316529440748364,-0.4943397931515453,-0.6584735522196119,-0.015144730752696072,0.00013791439247361865,0.002964242504976562,-0.017225375456788285,-0.0026005932898608784,0.00870746716449812,-0.1239885166287422,-0.0104116052389144,1.1969531774520874,0.2272946685552597,-0.5308998823165894,0.0524151511490345
1749031976.0147376,2.990377094469959,-0.6030560470251137,-2.4037821189522437,-2.631689364131902,-0.49434559566876296,-0.6584609868752667,-0.016021084690189508,5.376299601742117e-05,0.0034290997810510764,-0.017897563094570232,-0.0028921323459464242,0.009899166302013047,-0.0949928611516952,0.0118115991353988,1.203677535057068,0.23796147108078,-0.524294376373291,0.0453567542135715
1749031976.0147755,2.9903486444436624,-0.60305625288289,-2.4037758161964664,-2.6317265478629066,-0.49435181050516697,-0.6584480285409761,-0.016739156118653713,-5.7499169273894685e-05,0.00389114309745405,-0.01836257147155688,-0.0031926600467194434,0.011034339796996145,-0.0932332426309585,-0.0139171034097671,1.2135957479476929,0.2417485564947128,-0.5185008645057678,0.0339237824082374
1749031976.0148127,2.9903188012205892,-0.6030564060026958,-2.4037685898092214,-2.6317641837436803,-0.494358423888455,-0.6584346374350084,-0.017304049000566993,-0.00020123594688690623,0.004345462960795314,-0.018643930028438265,-0.003503527397945432,0.012100819007430427,-0.0943209752440452,-0.0304338186979293,1.2085906267166138,0.2288731932640075,-0.5263472199440002,0.0361310914158821
1749031976.01485,2.9902877368449485,-0.6030566001456148,-2.403760457128556,-2.631802051214463,-0.49436545721099723,-0.6584207018414415,-0.017730867214984125,-0.0003825758102658439,0.004789705370347032,-0.018777629567696744,-0.0038277285958575203,0.013096638180485887,-0.1073717698454856,-0.0129971951246261,1.2117124795913696,0.2136521786451339,-0.5435141921043396,0.0398976616561412
1749031976.014887,2.9902556091653327,-0.6030569574761925,-2.403751442638563,-2.631840033281866,-0.4943729724997286,-0.6584060348735093,-0.01804317366719218,-0.0006061112709109636,0.005224026225779971,-0.018808971652018804,-0.004169256187253631,0.014030125266873713,-0.0961478427052497,-0.0557823628187179,1.2072244882583618,0.2367993295192718,-0.5327343344688416,0.0593097619712352
1749031976.0149238,2.990222552169654,-0.6030576245892826,-2.4037415712764636,-2.631878119267122,-0.4943810704440337,-0.6583903750695469,-0.018270876992257785,-0.000875591034946644,0.00565076655110872,-0.01878893658338386,-0.00453215035833928,0.014918785091426481,-0.1194388568401336,-0.0233653336763381,1.225490689277649,0.2205468714237213,-0.5389589667320251,0.0583844110369682
1749031976.0149603,2.990188667119266,-0.6030587655706459,-2.403730862628711,-2.6319163983717564,-0.49438988171418724,-0.6583733919529868,-0.018447834966961122,-0.0011936086599313152,0.006073891018306203,-0.018770465266976507,-0.004919424263905724,0.0157871348161696,-0.099058598279953,-0.0347704589366912,1.240687608718872,0.2289395928382873,-0.5460153222084045,0.0745952799916267
1749031976.0149972,2.9901540153239137,-0.6030605523950765,-2.403719326920129,-2.6319550456772416,-0.4943995531968225,-0.6583546974835456,-0.0186094445019233,-0.0015612994858057187,0.006498262294083925,-0.018804991337599004,-0.005332065130484948,0.016663795854645683,-0.144237607717514,-0.0708257108926773,1.2442576885223389,0.2355872392654419,-0.5379225015640259,0.075470469892025
1749031976.0150344,2.990118613157466,-0.6030631534693969,-2.4037069633178856,-2.631994302783793,-0.4944102309976303,-0.6583338636151166,-0.01879042512702794,-0.0019780771333441126,0.006928839851764637,-0.01893946744866772,-0.0057682891278197646,0.017578226093234117,-0.1193549335002899,-0.1265746355056762,1.2276480197906494,0.229754164814949,-0.5533650517463684,0.0792813524603843
1749031976.0150714,2.9900824297904656,-0.6030667214783758,-2.4036937605829762,-2.6320344554915382,-0.4944220420508914,-0.6583104451550492,-0.019022926931125728,-0.002441462813111744,0.00736988927466646,-0.01921402770379732,-0.006223177977429254,0.018557489619914425,-0.1341936290264129,-0.1291075944900512,1.2378867864608765,0.2342198193073272,-0.5511001944541931,0.0833048224449157
1749031976.0151076,2.9900453880575455,-0.603071381910208,-2.403679699631658,-2.6320758109632894,-0.4944350764099361,-0.6582840061072527,-0.019335028456798624,-0.0029470687452586956,0.007824278353230192,-0.019660338835298698,-0.0066887601332267935,0.01962342208559055,-0.1341936290264129,-0.1291075944900512,1.2378867864608765,0.2342198193073272,-0.5511001944541931,0.0833048224449157
1749031976.0156436,2.99000736862557,-0.6030772236793599,-2.4036647572359553,-2.6321186768781675,-0.49444937271214684,-0.6582541468958791,-0.019749644675402574,-0.0034887793775272816,0.008292929490593692,-0.020300628633478663,-0.007154532694648921,0.020790478097943082,-0.1479891240596771,-0.1123122870922088,1.247591257095337,0.1968250274658203,-0.5381210446357727,0.1005302965641021
1749031976.017663,2.9899682171047046,-0.6030842930152772,-2.403648910009928,-2.632163344937263,-0.4944649093735688,-0.658220529460186,-0.02028383682358557,-0.004059131356146731,0.008774489566824875,-0.02114733788755822,-0.0076083616178019686,0.022064455580450844,-0.1544918864965438,-0.1138332784175872,1.2666879892349243,0.2195682823657989,-0.5413617491722107,0.1313485652208328
1749031976.0584166,2.9899277532845665,-0.6030925913781554,-2.403632138074544,-2.6322100802201764,-0.4944816033959425,-0.6581828973810216,-0.02094849528720972,-0.004649839603288205,0.009265257586501766,-0.022203309735985964,-0.008037649342069257,0.023442180761640802,-0.1720642149448394,-0.1451354920864105,1.2624104022979736,0.2104490399360656,-0.5376103520393372,0.1230113953351974
1749031976.0584683,2.989885781678732,-0.6031020778712155,-2.403614428252649,-2.632259116325095,-0.49449931735416985,-0.6581410889664763,-0.021748348242135267,-0.005252375823381739,0.009759376071860877,-0.023462405514989137,-0.008430619930201194,0.024912109646868644,-0.1628974974155426,-0.1470538973808288,1.2525659799575806,0.1887431442737579,-0.5424736142158508,0.137805625796318
1749031976.0585098,2.9898421028961626,-0.6031126763041527,-2.4035957770378475,-2.632310654744048,-0.49451787351143417,-0.6580950422662872,-0.02268223408268173,-0.005858495338622817,0.010249256842860202,-0.024910430117568817,-0.008777546884058133,0.02645568292054118,-0.166847750544548,-0.1270051598548889,1.254001259803772,0.2121068239212036,-0.5366777777671814,0.1301633864641189
1749031976.0585504,2.9897965254335457,-0.6031242863588047,-2.4035761937274818,-2.6323648663659687,-0.4945370725249264,-0.6580447919570047,-0.02374356962424056,-0.006460626933585873,0.010726189644069043,-0.0265262701820236,-0.00907174716268984,0.028049197300942158,-0.1823126375675201,-0.1338096857070922,1.2802473306655884,0.2017834186553955,-0.5421555638313293,0.1442275792360305
1749031976.0585887,2.9897488769637506,-0.6031367973719272,-2.4035557039653486,-2.632421893426873,-0.4945567133994219,-0.6579904588879784,-0.024920954079580462,-0.00705207430599495,0.011181075338307438,-0.02828318576626992,-0.00931019270330279,0.02966594326518487,-0.1822313368320465,-0.1500820517539978,1.2758949995040894,0.1895883679389953,-0.520350992679596,0.1533801108598709
1749031976.058628,2.9896990134980714,-0.6031501026419311,-2.4035343534643467,-2.6324818510595875,-0.49457661156193217,-0.657932233836504,-0.026198872686016835,-0.007627018341022923,0.011605224602369398,-0.030150230266155747,-0.009493647504782059,0.03127839006811541,-0.219900295138359,-0.1648658514022827,1.2839715480804443,0.1771590411663055,-0.5297991037368774,0.1573643386363983
1749031976.0586667,2.989646824689856,-0.6031641121323603,-2.4035122109752325,-2.6325448283269117,-0.4945966129094827,-0.6578703575718987,-0.027558493155067018,-0.008180354399277204,0.011991158160919576,-0.03209378648044155,-0.009626316875615866,0.03286024112945663,-0.2132062315940857,-0.1548634618520736,1.2901405096054075,0.205621063709259,-0.5328125953674316,0.167796328663826
1749031976.0587056,2.9895922343001633,-0.6031787618368546,-2.40348936903355,-2.632610889115533,-0.49461660273320507,-0.6578050995260684,-0.028978564443101696,-0.008707437520197344,0.0123333347197959,-0.034079192163415546,-0.00971507954933957,0.034388212743546066,-0.2198110520839691,-0.1712833493947982,1.3020626306533811,0.1996539086103439,-0.5274900197982788,0.1589915454387664
1749031976.0587437,2.989535196056927,-0.6031940186941028,-2.403465941106533,-2.6326800735491824,-0.4946365091225414,-0.6577367371605852,-0.03043642400384074,-0.009203823268946174,0.012628726235456291,-0.036072394390811995,-0.009768440594821714,0.035843407481574836,-0.2326282560825348,-0.1916741579771042,1.3079829216003418,0.2153197228908538,-0.5247210264205933,0.1753297746181488
1749031976.0587814,2.9894756862780762,-0.6032098806375107,-2.403442054593325,-2.632752400644384,-0.4946563009546052,-0.6576655375481636,-0.03190910672831449,-0.009665077775829218,0.012877166538562471,-0.03804153928088506,-0.009795376976779272,0.0372121803421863,-0.2568377554416656,-0.2051771134138107,1.2894737720489502,0.18128103017807,-0.5089504718780518,0.172959953546524
1749031976.0588193,2.989413695369574,-0.6032263720078426,-2.4034178403256727,-2.6328278727195507,-0.49467598115009315,-0.6575917419872206,-0.03337453370636256,-0.010086702213122386,0.01308142266520102,-0.039958393211165844,-0.009804247382638569,0.038486449206429775,-0.2934615015983581,-0.1773497462272644,1.2923345565795898,0.2018125802278518,-0.5244274139404297,0.1788356304168701
1749031976.058857,2.9893492203888887,-0.6032435351474311,-2.403393420133863,-2.632906481529468,-0.4946955765169524,-0.6575155540595893,-0.03481273557480117,-0.010464193092025759,0.013246976485763574,-0.04179951179311031,-0.009801914524964797,0.03966347914829857,-0.242196187376976,-0.2070819735527038,1.2941545248031616,0.2116783857345581,-0.5329275131225586,0.1841104924678802
1749031976.0588942,2.9892822601431623,-0.6032614195561778,-2.4033688943259586,-2.632988215396397,-0.4947151260277878,-0.6574371316606966,-0.03620702904073998,-0.010793244950411018,0.013381550085027043,-0.04354711372946787,-0.00979319222953429,0.04074524716605316,-0.2702217996120453,-0.2215346097946167,1.3005825281143188,0.1814100891351699,-0.5351523160934448,0.1794183254241943
1749031976.0589314,2.989212813096798,-0.6032800703319787,-2.403344330751743,-2.63307306615623,-0.494734669607343,-0.6573565839485205,-0.03754502894542736,-0.011070087349093231,0.013494449371596292,-0.04518965613148867,-0.00978068256663043,0.04173754061966464,-0.2505834698677063,-0.2287884056568145,1.3042253255844116,0.1754556745290756,-0.5109400749206543,0.1910357326269149
1749031976.0589807,2.989140877431744,-0.603299517466002,-2.4033197568462463,-2.633161034779541,-0.49475423927829926,-0.6572739743042317,-0.038819364157571576,-0.011291925324335277,0.013595823384384838,-0.04672212334339248,-0.009765005876705103,0.04264894862549535,-0.25521981716156,-0.2273130118846893,1.3095568418502808,0.1801017969846725,-0.5071308612823486,0.1917974352836609
1749031976.059029,2.989066452403114,-0.6033197670195412,-2.40329515580502,-2.633252134839766,-0.49477385380819194,-0.6571893297856543,-0.04002798750468634,-0.011457424709516877,0.013695936229682704,-0.048146024115797985,-0.009745353394626514,0.04348988266472846,-0.3048346638679504,-0.2306163609027862,1.3116161823272705,0.2013117223978042,-0.5200649499893188,0.1885838806629181
1749031976.0590675,2.9889895404463105,-0.6033407947275692,-2.403270467689782,-2.6333463932156747,-0.4947935170356896,-0.6571026562216734,-0.04117402510143575,-0.011567162541176686,0.013804529008904711,-0.049469057087988544,-0.009720229032121466,0.044271728917431995,-0.2665913701057434,-0.2460803389549255,1.3093104362487793,0.1710030287504196,-0.4877936542034149,0.1987255215644836
1749031976.0591044,2.988910149871607,-0.6033625423660574,-2.403245595586957,-2.633443847481009,-0.4948132191415591,-0.6570139566692097,-0.04226517991448365,-0.01162395821686326,0.013930318352722348,-0.05070438259261191,-0.009688217800642761,0.04500619961217841,-0.2750489711761474,-0.230855792760849,1.309813380241394,0.2081002444028854,-0.4987950026988983,0.200442224740982
1749031976.059142,2.9888282982187886,-0.6033849171085424,-2.403220415997846,-2.633544539639582,-0.49483293954810365,-0.6569232501200754,-0.0433127632435724,-0.011633016720094107,0.014080643847235534,-0.05186945195965731,-0.009648630328326472,0.04570491418444787,-0.2956151366233825,-0.2554576992988586,1.3118934631347656,0.200448676943779,-0.512071967124939,0.2103650867938995
1749031976.0591795,2.9887440162709558,-0.6034077939707777,-2.4031947918579633,-2.633648506540331,-0.4948526501081171,-0.656830587228939,-0.04433046467516398,-0.011601847095503303,0.014261249229055034,-0.05298439643193937,-0.00960191274356024,0.04637920312224002,-0.2956151366233825,-0.2554576992988586,1.3118934631347656,0.200448676943779,-0.512071967124939,0.2103650867938995
1749031976.059694,2.988657352177594,-0.603431021358969,-2.403168586342568,-2.633755768420246,-0.4948723177651276,-0.6567360600625545,-0.04533299262019803,-0.011539957297503987,0.014476172011980181,-0.05407006124029037,-0.009549761456959327,0.04704008934993509,-0.2869705557823181,-0.2718105912208557,1.3203197717666626,0.1837103068828582,-0.5176609754562378,0.1915162503719329
1749031976.0616531,2.9885683744203453,-0.6034544295948232,-2.403141675800759,-2.6338663179495696,-0.4948919065275344,-0.6566398032883567,-0.046334728554891666,-0.011458359419362591,0.014727722846780991,-0.0551458749508376,-0.00949493389784169,0.047698364107823264,-0.2869705557823181,-0.2718105912208557,1.3203197717666626,0.1837103068828582,-0.5176609754562378,0.1915162503719329
1749031976.1023068,2.988477172165236,-0.603477841920554,-2.403113960386867,-2.633980112117077,-0.49491137895988474,-0.6565419852824987,-0.047348532455927524,-0.011368940711059986,0.015016548246698265,-0.05622783459498049,-0.009440796932735787,0.04836464227556018,-0.3130249381065368,-0.2717373371124267,1.3426666259765625,0.1807334870100021,-0.5104308128356934,0.2028592228889465
1749031976.102353,2.988383852172429,-0.6035010870651346,-2.4030853711143,-2.634097068155858,-0.4949306974093047,-0.6564427897988211,-0.048384811853275575,-0.011283765469256484,0.015341777290117747,-0.057326910350780594,-0.009390703847539802,0.049049273043453696,-0.3167331218719482,-0.273653119802475,1.3503777980804443,0.1899172961711883,-0.5119909644126892,0.1933386176824569
1749031976.102394,2.9882885324724353,-0.603524012319714,-2.4030558724046696,-2.634217063148278,-0.49494982510224345,-0.6563423916231604,-0.04945092979097762,-0.01121437450232903,0.015701250221183353,-0.05844810591645892,-0.009347333621158594,0.0497620130907059,-0.3230805993080139,-0.2814574539661407,1.3450554609298706,0.1783030182123184,-0.5030146837234497,0.1938771605491638
1749031976.1024332,2.98819133383527,-0.6035464962094633,-2.403025459945504,-2.6343399358995865,-0.49496872726981095,-0.6562409316305742,-0.05055098555247827,-0.011171146324850728,0.016091816263695814,-0.05959028688003725,-0.009312150187759835,0.05051144321873646,-0.3289939165115356,-0.2828139364719391,1.3482515811920166,0.1772486567497253,-0.5101150870323181,0.2026117146015167
1749031976.1024716,2.988092370296177,-0.6035684599675747,-2.4029941545700138,-2.63446548969157,-0.4949873726109066,-0.65613849670631,-0.05168595825460639,-0.011162778407795063,0.0165096747571326,-0.060746768763647846,-0.009285129626841221,0.05130420773437677,-0.329922616481781,-0.2932803332805633,1.343861699104309,0.181411325931549,-0.5020726323127747,0.2123461961746215
1749031976.1025116,2.987991739723204,-0.6035898770117545,-2.402961993462232,-2.634593495521797,-0.49500573555609123,-0.6560351082360394,-0.05285415937368866,-0.011195935093460618,0.016950723172083803,-0.06190657013578226,-0.009264854845815098,0.052144242247822686,-0.3485891222953796,-0.2934984266757965,1.3392045497894287,0.1693396270275116,-0.5127211809158325,0.22152179479599
1749031976.1025498,2.9878895149104494,-0.6036107796708611,-2.402929020083426,-2.6347236968191985,-0.49502379981186084,-0.6559307204225843,-0.054051904530976434,-0.011275088230075668,0.01741087080347743,-0.06305617801565395,-0.009249000629855564,0.05303218984773573,-0.3392066359519958,-0.3014776408672333,1.3357648849487305,0.1854593604803085,-0.5116979479789734,0.2140583097934723
1749031976.102587,2.987785735225631,-0.6036312626255436,-2.4028952740508345,-2.6348558176764354,-0.49504156348215494,-0.6558252274927219,-0.05527429781117597,-0.011402548669347768,0.017886280519501183,-0.0641816283081973,-0.00923514548731483,0.05396517293630169,-0.3494032621383667,-0.2947640419006347,1.3540278673171997,0.1927998960018158,-0.512077271938324,0.2159368991851806
1749031976.1026237,2.9876803986810203,-0.6036514827025606,-2.4028607820764227,-2.6349895767113893,-0.495059045648068,-0.6557184772858662,-0.056516025107145644,-0.011578659089075825,0.018373514373699922,-0.06527067164092044,-0.009221768072729099,0.054937009621750285,-0.3405394852161407,-0.3057382702827453,1.3586140871047974,0.201616421341896,-0.4973818063735962,0.2197014987468719
1749031976.1026611,2.9875734545724795,-0.6036716545328719,-2.402825550967883,-2.6351247074922064,-0.4950762936358041,-0.6556102878896631,-0.05777206939484032,-0.011802100575484146,0.018869579042012922,-0.06631478266588695,-0.009209228937538283,0.05593887496069674,-0.3574161529541015,-0.3166078329086303,1.3527839183807373,0.1868002712726593,-0.4910154342651367,0.2279873043298721
1749031976.1026986,2.9874647973479687,-0.6036920413527652,-2.402789563346348,-2.6352609843883257,-0.49509338945220455,-0.6555004640716751,-0.05903828429793597,-0.012070261036123497,0.019371887223364567,-0.06731078539678644,-0.009200514202228918,0.05696033187454942,-0.3795839250087738,-0.3101743757724762,1.3570061922073364,0.2210749685764312,-0.4821194410324096,0.1992497891187667
1749031976.1027355,2.987354262818454,-0.6037129404383603,-2.402752776135407,-2.6353982505531643,-0.49511045331673054,-0.6553888112852873,-0.06031179028811507,-0.012379618192380525,0.019878166326486056,-0.06826190979424453,-0.009201535721935262,0.05799060075501771,-0.35410937666893,-0.3253746032714844,1.3413891792297363,0.1916625201702118,-0.4756193161010742,0.2109935581684112
1749031976.1027722,2.9872416281525718,-0.603734663478915,-2.4027151214381344,-2.6355364432904937,-0.49512764222909633,-0.6552751465521346,-0.061591185984328445,-0.01272609596608176,0.020386353034885892,-0.06917816108487791,-0.009220848276016571,0.05901990205966931,-0.3709092438220978,-0.3438765704631805,1.3621729612350464,0.199306383728981,-0.4960779547691345,0.1875757128000259
1749031976.1028092,2.987126617244939,-0.603757513222009,-2.402676509505489,-2.6356756117556923,-0.4951451422906778,-0.6551593067215422,-0.06287658834455266,-0.013105358279434536,0.02089450842276388,-0.07007596180160723,-0.009268754811076385,0.06004069734557302,-0.3641678988933563,-0.3251307904720306,1.3421311378479004,0.2037072479724884,-0.49452805519104,0.2133443653583526
1749031976.1028457,2.98700891266981,-0.6037817585506399,-2.402636833972919,-2.6358159228401714,-0.49516315484749357,-0.6550411549316663,-0.06416952641646768,-0.013513012040744201,0.021400772616079155,-0.07097710284064636,-0.009355905988500158,0.061048673859826715,-0.3868875503540039,-0.3500094711780548,1.3413071632385254,0.2014025896787643,-0.4907591342926025,0.2123907506465912
1749031976.102882,2.986888174283778,-0.603807610643033,-2.4025959798677077,-2.6359576529402435,-0.4951818778267499,-0.6549205856849067,-0.06547271408895151,-0.013944704430360989,0.021903357582608064,-0.07190710877846489,-0.009491625718045689,0.062043357312102074,-0.388758510351181,-0.3261407315731048,1.363535761833191,0.1898224204778671,-0.5059520602226257,0.1789115071296692
1749031976.1029184,2.986764062866328,-0.6038352030028181,-2.4025538345627635,-2.636101165836513,-0.49520148438847095,-0.6547975282819114,-0.06678971892294994,-0.01439611816889795,0.022400563575349808,-0.07289319144773379,-0.009682272722099216,0.06302828135144156,-0.3638531267642975,-0.3372794389724731,1.3716789484024048,0.1794368773698806,-0.5098921656608582,0.1941286325454712
1749031976.102955,2.986636265477034,-0.6038645779166956,-2.4025103008392446,-2.636246879848482,-0.49522210139850265,-0.6546719476975097,-0.06812453303513681,-0.014862888750348094,0.022890806232361463,-0.0739620322201058,-0.009929954390980794,0.06401068589830314,-0.3638531267642975,-0.3372794389724731,1.3716789484024048,0.1794368773698806,-0.5098921656608582,0.1941286325454712
1749031976.1029916,2.986504518059286,-0.6038956813369168,-2.402465310079681,-2.6363952302079605,-0.4952437907456617,-0.6545438414456072,-0.06948105602490631,-0.015340484092186574,0.023372652485895262,-0.07513766750739309,-0.010231841551535472,0.06500077087612402,-0.4332268834114074,-0.3578995168209076,1.3436506986618042,0.1689674258232116,-0.5050351023674011,0.2196030169725418
1749031976.1030288,2.986368621033592,-0.6039283673728675,-2.402418833052566,-2.6365466340763657,-0.4952665369940332,-0.6544132309847498,-0.07086253389569966,-0.015824094419166736,0.02384487265250277,-0.07643971765674162,-0.010580213064053563,0.06601060108084565,-0.4332268834114074,-0.3578995168209076,1.3436506986618042,0.1689674258232116,-0.5050351023674011,0.2196030169725418
1749031976.1036377,2.9862284456189445,-0.6039624125269185,-2.402370886039707,-2.6367014647433957,-0.49529024451604065,-0.6542801472982867,-0.07227104730281779,-0.016308575711579412,0.024306517422652087,-0.07788209652405043,-0.010963220866688748,0.06705281760610532,-0.4236975908279419,-0.3347389996051788,1.35711932182312,0.2012612372636795,-0.4913416504859924,0.2028128802776336
1749031976.1056545,2.9860839316021637,-0.6039975384815122,-2.4023215309501484,-2.636860038367732,-0.49531474578706,-0.6541446123996223,-0.07370716502004156,-0.016788475241206174,0.024757024348571244,-0.07947221214887217,-0.011366241578462334,0.06813932542938347,-0.4112351536750793,-0.3644379675388336,1.3573195934295654,0.1847093254327774,-0.4898040294647217,0.1981497406959533
1749031976.150309,2.9859350796265933,-0.6040334407403025,-2.402270869168667,-2.637022612585359,-0.49533982043670644,-0.6540066208068918,-0.07516984419183861,-0.017258150514915437,0.025196350473403278,-0.08121057669720921,-0.011773595166788192,0.06928008975225683,-0.3816452324390411,-0.3565028309822082,1.3488942384719849,0.1702482402324676,-0.4753950834274292,0.1958160698413849
1749031976.150356,2.9857819416311,-0.6040698192173711,-2.4022190299735797,-2.6371893932979513,-0.4953652226916336,-0.653866126195258,-0.07665658366300823,-0.01771198444888426,0.02562511432519316,-0.08309072065980641,-0.01217037835928043,0.07048212587583223,-0.4071300327777862,-0.3597556054592132,1.3545233011245728,0.1641572713851928,-0.4791216254234314,0.2079199403524398
1749031976.1503963,2.9856246118303593,-0.6041064066103078,-2.4021661553067704,-2.6373605451232756,-0.4953907135417774,-0.6537230373772299,-0.07816376814681707,-0.018144701922383665,0.026044716092268605,-0.08509934305385178,-0.012544177449765385,0.0717487557510546,-0.4071300327777862,-0.3597556054592132,1.3545233011245728,0.1641572713851928,-0.4791216254234314,0.2079199403524398
1749031976.1504357,2.985463218628073,-0.6041429912951236,-2.402112383314385,-2.6375362019925417,-0.4954160935299268,-0.6535772245876126,-0.07968711187727771,-0.018551791486666434,0.02645740007582452,-0.08721668589475043,-0.012886471964749548,0.0730792256173114,-0.3776443302631378,-0.3540158271789551,1.3543812036514282,0.1662152409553527,-0.4836044311523437,0.2349639534950256
1749031976.1504743,2.985297916570561,-0.6041794329706368,-2.402057833259584,-2.637716475626442,-0.4954412323429723,-0.6534285335036014,-0.08122211228429659,-0.018930012638872836,0.026866231415840547,-0.08941716172955048,-0.013193592159944225,0.07446878004559505,-0.4145543873310089,-0.352451741695404,1.3375202417373655,0.1769264787435531,-0.4840697944164276,0.2141753435134887
1749031976.1505127,2.985128877667682,-0.6042156705476325,-2.402002594168569,-2.637901459886269,-0.4954660918884605,-0.6532768026120872,-0.08276443101559654,-0.01927792543876812,0.02727497243923392,-0.09167028128184877,-0.013467134478590543,0.07590922883416545,-0.3876266479492187,-0.3500843346118927,1.342184066772461,0.1518521904945373,-0.4511678516864776,0.2287786900997162
1749031976.1505513,2.984956282393086,-0.6042517225325027,-2.40194671891461,-2.638091228865772,-0.49549073986218206,-0.6531218799516821,-0.0843101288988272,-0.019596341145563027,0.02768785898483063,-0.09394193988674088,-0.01371377217488659,0.07738994368935051,-0.4423125684261322,-0.3706936240196228,1.3570340871810913,0.1776786595582962,-0.4711365401744842,0.2230235785245895
1749031976.15059,2.9847803109485898,-0.6042876805921675,-2.4018902242570097,-2.6382858276923162,-0.4955153510939552,-0.65296363666135,-0.0858557168227214,-0.019888584958746056,0.028109296326630725,-0.09619613161649897,-0.01394443937117986,0.07889913210839514,-0.4423125684261322,-0.3706936240196228,1.3570340871810913,0.1776786595582962,-0.4711365401744842,0.2230235785245895
1749031976.150628,2.9846011346101258,-0.6043236972810829,-2.401833095852025,-2.6384852576667326,-0.4955401948643794,-0.6528019759111876,-0.08739805151356554,-0.020160487279205625,0.028543515935895783,-0.0983971410406243,-0.014172932882284203,0.0804251865390291,-0.3938253819942474,-0.3705837428569793,1.3470087051391602,0.1681194901466369,-0.4736376106739044,0.2200680375099182
1749031976.1506665,2.98441890652641,-0.6043599690852245,-2.4017752962059715,-2.6386894598214057,-0.4955656084473499,-0.6526368366864079,-0.0889341648220295,-0.02042006437969223,0.028994248869167343,-0.10051217493494757,-0.014414067084379307,0.08195789348905898,-0.4040736556053161,-0.3579658567905426,1.3721144199371338,0.1590791493654251,-0.4721361696720123,0.2097127437591552
1749031976.1507049,2.9842337524898874,-0.6043967160560463,-2.40171677348882,-2.6388983013560026,-0.49559195999538985,-0.6524681931662605,-0.0904611249419444,-0.020676899166447087,0.029464470047727523,-0.10251423927229036,-0.01468160760934324,0.08348929705172954,-0.4064698219299316,-0.3611604273319244,1.3617193698883057,0.1899420917034149,-0.4801641404628753,0.2090080678462982
1749031976.1507423,2.9840457642133984,-0.6044341595235991,-2.401657469682067,-2.639111567970375,-0.4956196062647658,-0.6522960518614541,-0.09197599395006102,-0.020941279563380585,0.029956247240614776,-0.10438490182149625,-0.014986265588999759,0.08501404965343223,-0.4422352313995361,-0.3696734011173248,1.3615154027938845,0.202897697687149,-0.4978770315647125,0.2031407654285431
1749031976.1507802,2.983854998339913,-0.6044724998069431,-2.4015973269514426,-2.639328963719785,-0.49564885143736365,-0.6521204490370349,-0.09347590558707812,-0.0212231917621903,0.030470695114784938,-0.10611649444709952,-0.015334039969878746,0.08652917063961456,-0.3726286888122558,-0.3729273080825805,1.3535804748535156,0.1936645358800888,-0.4854072630405426,0.2126212865114212
1749031976.150818,2.983661482548996,-0.6045118964085552,-2.4015362912900007,-2.6395501198033866,-0.495679912572448,-0.6519414495316932,-0.09495825953957465,-0.021531293621561504,0.031008004080238197,-0.10771334952475801,-0.015725157655470716,0.08803327622606447,-0.3726286888122558,-0.3729273080825805,1.3535804748535156,0.1936645358800888,-0.4854072630405426,0.2126212865114212
1749031976.150855,2.9834652267912385,-0.6045524535429688,-2.401474312827396,-2.639774613926398,-0.49571289599476714,-0.6517591457748994,-0.09642100981395609,-0.02187200207880233,0.03156750182073432,-0.10919180982881996,-0.016153787487835636,0.0895255011152123,-0.3825030624866485,-0.4264634251594543,1.37142014503479,0.2463283836841583,-0.5112254619598389,0.2205415219068527
1749031976.150893,2.9832662354072346,-0.6045942135015104,-2.401411343075746,-2.640002000884288,-0.4957477875728544,-0.6515736545104505,-0.09786301004059268,-0.022248812513391295,0.03214771328431185,-0.11057893684317471,-0.016608595953670327,0.0910044237406417,-0.3928521871566772,-0.4184355437755584,1.3656885623931885,0.2226640582084655,-0.5004114508628845,0.2249133139848709
1749031976.1509311,2.983064516372533,-0.6046371590645929,-2.401347330576065,-2.640231852071833,-0.49578445792043707,-0.6513851096251569,-0.09928436564368784,-0.022661932240084996,0.03274640009685261,-0.11191001701050401,-0.01707408238408118,0.09246727945127618,-0.4038817882537842,-0.4017240405082702,1.3590850830078125,0.2201861441135406,-0.5167372226715088,0.2133437544107437
1749031976.1509686,2.9828600863603514,-0.6046812243425068,-2.4012822172147135,-2.6404637981340913,-0.4958226810054454,-0.6511936516961296,-0.10068673004257597,-0.023108265343028327,0.03336057413525042,-0.11322511512569501,-0.01753250803807162,0.09390962532054441,-0.446996808052063,-0.4047614336013794,1.3698220252990725,0.1977836042642593,-0.502594530582428,0.2329657077789306
1749031976.1510055,2.982652972431716,-0.6047263117417616,-2.401215937225859,-2.640697567357475,-0.4958621623379303,-0.6509994164349745,-0.10207347048887509,-0.02358174074040625,0.033986493517685436,-0.11456505056223723,-0.017966143585660222,0.09532548976486553,-0.3578845858573913,-0.4325889945030212,1.3612418174743652,0.2143825441598892,-0.4818341135978699,0.2453742176294326
1749031976.1510427,2.982443211714114,-0.6047723116292772,-2.4011484197149606,-2.640933013520572,-0.495902571790793,-0.6508025241811608,-0.10344962542031774,-0.024073935362388083,0.03461966425552219,-0.11596726604233262,-0.018359513536275514,0.09670795785251107,-0.4116047024726867,-0.4213270545005798,1.3641036748886108,0.1935457289218902,-0.4883999824523926,0.2400846779346466
1749031976.1510794,2.982230849925194,-0.6048191208908863,-2.4010795943142007,-2.6411701296328456,-0.49594357636650227,-0.6506030716600676,-0.10482159467475652,-0.024574914125884362,0.035254882634482294,-0.11746210132516764,-0.01870131411941596,0.09805009990186499,-0.4075544476509094,-0.4063548445701599,1.3763377666473389,0.173267513513565,-0.4646943211555481,0.2398793399333953
1749031976.1511164,2.9820159388924687,-0.6048666571491715,-2.4010093989733874,-2.641409046842515,-0.4959848692837916,-0.6504011264520272,-0.10619656067053833,-0.025074190780644413,0.03588635373480793,-0.11906995423435225,-0.018985724427669975,0.09934611132212058,-0.4319116473197937,-0.4048937857151031,1.3599337339401243,0.1821625530719757,-0.4752921760082245,0.2478327751159668
1749031976.1516647,2.981798532697382,-0.6049148669015645,-2.4009377887452295,-2.641650020122926,-0.49602619297160394,-0.6501967244317116,-0.10758172099367302,-0.025561708448637567,0.03650790668939527,-0.12079969341577686,-0.01921292317707268,0.10059249114395653,-0.4150649905204773,-0.404973030090332,1.3377454280853271,0.1612552404403686,-0.4616535604000091,0.2322310507297516
1749031976.153646,2.9815786819701438,-0.6049637277330264,-2.4008647442786715,-2.641893403882543,-0.49606735469327934,-0.6499898705438504,-0.1089834811241035,-0.026028743822053783,0.03711330623043063,-0.12264849136621403,-0.019388760491744598,0.10178907044238175,-0.4379185438156128,-0.4262670278549194,1.3668681383132937,0.1809970289468765,-0.4736007452011108,0.2414752840995788
1749031976.1942904,2.9813564263857466,-0.6050132461784277,-2.4007902785336306,-2.642139621202066,-0.496108234559243,-0.6497805431968994,-0.11040677401021583,-0.026468652947082647,0.03769664725636827,-0.12460301559164105,-0.01952368925453501,0.10293972564306446,-0.4608123302459717,-0.420471727848053,1.3767492771148682,0.19218510389328,-0.4921346604824066,0.2451639175415039
1749031976.1943364,2.981131786400043,-0.605063453183828,-2.400714440301041,-2.642389130091375,-0.4961487864613532,-0.6495687020508438,-0.11185463481915107,-0.026877397913618588,0.038252812520227455,-0.12664170547477693,-0.019631188779409735,0.10405266557540081,-0.4113614857196808,-0.4168538451194763,1.3569347858428955,0.1686312407255172,-0.4931547045707702,0.2363620102405548
1749031976.1943765,2.980904756126762,-0.6051143986111791,-2.400637313654607,-2.6426423894328814,-0.49618903285333266,-0.6493542981877602,-0.11332808781669777,-0.027253819729019257,0.03877795274089032,-0.12873771698655279,-0.019725974839059128,0.10514024474808034,-0.428989827632904,-0.409001886844635,1.3456528186798096,0.1678390055894851,-0.4944060146808624,0.2146551012992859
1749031976.1944149,2.9806752993500374,-0.6051661454558451,-2.4005590133203003,-2.642899826610014,-0.49622905446668597,-0.6491372849030074,-0.11482633058963543,-0.02759964901680322,0.039269907929490935,-0.13086206078549067,-0.01982227297188145,0.10621831541219265,-0.4136075973510742,-0.4203726649284363,1.3240957260131836,0.1775331199169159,-0.4903525114059448,0.2285202890634536
1749031976.1944528,2.980443349809213,-0.6052187639047123,-2.40047967677156,-2.643161808434808,-0.49626897624150873,-0.6489176269020254,-0.11634714947750589,-0.027919270042276675,0.03972845883620748,-0.13298649453378225,-0.01993235906060034,0.10730518386623221,-0.419039636850357,-0.4357703328132629,1.3379888534545898,0.1629683375358581,-0.4817306101322174,0.2573053240776062
1749031976.1944914,2.9802088156054873,-0.6052723253135406,-2.4003994543386233,-2.6434286168541807,-0.4963089510393852,-0.6486953057357067,-0.11788747020442267,-0.028219273746484523,0.04015531716139002,-0.13508584197519824,-0.02006548483384528,0.10842028066078573,-0.4518130421638489,-0.4381692409515381,1.3709251880645752,0.137663334608078,-0.4981650710105896,0.2563143074512481
1749031976.1945295,2.979971586660009,-0.6053268965882703,-2.400318498685614,-2.643700430859374,-0.4963491429781258,-0.6484703200593362,-0.11944392911378125,-0.028507849245027042,0.040553836729850794,-0.1371395650816774,-0.020227241877030337,0.10958268397251257,-0.432864636182785,-0.4465223550796509,1.366726040840149,0.1878706365823745,-0.5143546462059021,0.2534955441951751
1749031976.1945672,2.979731543871769,-0.6053825358622135,-2.400236954801186,-2.643977315890953,-0.4963897122959029,-0.648242680682636,-0.12101334051377916,-0.028794066624935954,0.040928514309714344,-0.13913256578892305,-0.020419383534265704,0.11080964276568384,-0.3999837338924408,-0.4387441277503967,1.3484569787979126,0.1567843556404113,-0.5085536241531372,0.252941220998764
1749031976.1946046,2.9794885686311714,-0.6054392902282901,-2.4001549513350247,-2.6442592217561316,-0.496430803309706,-0.6480124017753114,-0.12259294968485328,-0.029087098362595758,0.04128439737104106,-0.14105531206046074,-0.020640101093678892,0.112115232422138,-0.4077933430671692,-0.449142575263977,1.347113013267517,0.1597388982772827,-0.5143036842346191,0.2628693878650665
1749031976.194642,2.9792425514232868,-0.6054971955541306,-2.4000725937552407,-2.6445459895951244,-0.49647253622278104,-0.6477794902567839,-0.1241804161815087,-0.029395421432483467,0.04162651285831225,-0.142903468011606,-0.02088471659499494,0.11350925175765611,-0.4415649175643921,-0.4818953275680542,1.364121437072754,0.157277300953865,-0.5084956884384155,0.247285783290863
1749031976.19468,2.9789933986563604,-0.605556277495471,-2.3999899594395186,-2.6448373676618275,-0.49651500261508635,-0.6475439352088415,-0.12577356020929387,-0.029726045106515397,0.04195940329319733,-0.14467725298597958,-0.0211467052497167,0.11499644663678535,-0.446524977684021,-0.480758786201477,1.3640389442443848,0.1499288827180862,-0.4953734278678894,0.2434314936399459
1749031976.194718,2.9787410376525694,-0.6056165522108314,-2.3999070945724856,-2.6451330346720012,-0.49655826397801406,-0.6473056987176166,-0.12736998738167485,-0.03008381902650231,0.04228683057063616,-0.14638073579144914,-0.02141891062396508,0.11657612259637408,-0.4255858361721039,-0.4778946042060852,1.369925856590271,0.1616139411926269,-0.4982223808765411,0.2759068608283996
1749031976.194755,2.9784854204097506,-0.6056780253499382,-2.3998240126781525,-2.6454326284813248,-0.4966023526771045,-0.6470647095097452,-0.12896674007944595,-0.030470884242199837,0.042611681059114205,-0.14802118493441013,-0.021694784162382765,0.11824218209318653,-0.3962158560752868,-0.4683832228183746,1.3686224222183228,0.1549292206764221,-0.4993948936462402,0.273010104894638
1749031976.1947932,2.9782265267795656,-0.6057406887945571,-2.399740694620346,-2.6457357771642664,-0.49664727473951614,-0.6468208610466596,-0.13056009344123895,-0.030886329934752273,0.04293606678597451,-0.1496084841455894,-0.02196947922905149,0.11998358263203542,-0.4408405423164367,-0.4857342541217804,1.352809190750122,0.179538756608963,-0.5146089196205139,0.2555435299873352
1749031976.1948311,2.977964367214474,-0.605804515986557,-2.3996570898231306,-2.6460421292880025,-0.4966930136718905,-0.6465740157115614,-0.132145548665169,-0.03132610848498352,0.04326157459634864,-0.15115454040875398,-0.022240659637033144,0.12178515622912632,-0.4367023110389709,-0.4749234616756439,1.3636398315429688,0.1456775963306427,-0.5157723426818848,0.2571951150894165
1749031976.194869,2.977698984597377,-0.6058694576699637,-2.399573118468885,-2.6463513803081495,-0.49673953454903236,-0.6463240158078035,-0.1337180163969591,-0.03178324192890072,0.043589589470364454,-0.15267259207211528,-0.022508930827812194,0.12362867581271081,-0.4430883824825287,-0.4702598750591278,1.3583438396453855,0.1883564591407776,-0.5230450630187988,0.265242338180542
1749031976.1949065,2.9774304541744456,-0.6059354399591309,-2.3994886747021456,-2.6466632925243085,-0.49678678817696253,-0.6460707004596077,-0.13527214637694063,-0.0322483257049702,0.04392161931770366,-0.15417636582538083,-0.022777849155204002,0.12549402856451208,-0.4246320128440857,-0.4808973670005798,1.371979594230652,0.1587211489677429,-0.5017152428627014,0.2475323677062988
1749031976.1949437,2.9771588805136986,-0.6060023659709772,-2.3994036311759737,-2.6469777069118883,-0.4968347158065036,-0.6458139259637443,-0.13680274381511742,-0.032710305095654146,0.04425956683684389,-0.15567910917795572,-0.023053502243006396,0.1273603650618791,-0.4517863094806671,-0.4651545584201813,1.375411033630371,0.1603942960500717,-0.5205544233322144,0.263291984796524
1749031976.1949818,2.976884390797266,-0.6060701213179247,-2.3993178452243997,-2.647294546380878,-0.4968832549596568,-0.6455535863805318,-0.1383052183453953,-0.03315747023476074,0.04460591501249692,-0.15719260324157203,-0.023343688892664645,0.12920711930503315,-0.4274781346321106,-0.4750011265277862,1.4058210849761963,0.1601864993572235,-0.5222228765487671,0.2658399045467376
1749031976.1950226,2.97660712439306,-0.6061385828606575,-2.3992311664585944,-2.6476138114149634,-0.4969323463142499,-0.6452896312467019,-0.13977603451039441,-0.033578588332179346,0.04496381127137287,-0.15872629568839106,-0.023656773166050016,0.13101483113958717,-0.4479508697986603,-0.480941504240036,1.3945757150650024,0.1708437800407409,-0.5176618695259094,0.2211240530014038
1749031976.1956923,2.9763272192622563,-0.6062076293300636,-2.399143444994417,-2.647935570163107,-0.4969819408368209,-0.6450220779574634,-0.14121315098495066,-0.033964066710449145,0.045337052653199025,-0.1602866637473582,-0.02400034549984323,0.13276575627242945,-0.4639879763126373,-0.4626479148864746,1.4054811000823977,0.1757838428020477,-0.5268104076385498,0.2438292354345321
1749031976.197653,2.9760447962650454,-0.6062771518504859,-2.399054539245546,-2.648259945509826,-0.49703200605331,-0.6447510173728306,-0.14261642863523305,-0.03430702157037403,0.045729989269286085,-0.16187685073611685,-0.024379878981990254,0.134444319744427,-0.4552125632762909,-0.4704138338565826,1.4157891273498535,0.1625917553901672,-0.5413516759872437,0.2572470307350158
1749031976.238279,2.97575994281414,-0.6063470623107955,-2.398964322425424,-2.648587101455823,-0.49708253065896113,-0.6444766122220372,-0.14398796187788157,-0.0346041244980457,0.04614736906689531,-0.1634965689115454,-0.02479759768264529,0.1360375367099981,-0.4404690265655517,-0.4536083936691284,1.4273970127105713,0.1825909465551376,-0.5383701324462891,0.2447429597377777
1749031976.2383263,2.97547269751487,-0.6064172981565568,-2.398872687364778,-2.6489172305143542,-0.49713352725774845,-0.64419908845607,-0.1453322635902307,-0.03485611734907617,0.04659413679651592,-0.16514224983063006,-0.025251757352868453,0.13753555303541035,-0.429336279630661,-0.4288078844547272,1.4102275371551514,0.1464895606040954,-0.5433658957481384,0.2589898109436035
1749031976.238368,2.9751830373835317,-0.6064878233242494,-2.3987795496372692,-2.649250542910679,-0.4971850333281868,-0.6439187198268747,-0.146656224128298,-0.035067922994581974,0.04707517785535993,-0.16680743791388297,-0.02573647417798222,0.13893241747736135,-0.4481732547283172,-0.4473771452903747,1.4193239212036133,0.1524499505758285,-0.5355883836746216,0.2611072063446045
1749031976.238408,2.9748908690483904,-0.6065586260758995,-2.398684849244716,-2.6495872573122146,-0.4972371103708332,-0.643635806185265,-0.1479687791671353,-0.03524832928288868,0.047594981997584884,-0.16848343620279593,-0.02624214157738203,0.14022709379622383,-0.4035986959934234,-0.4861904382705688,1.4407756328582764,0.1531133949756622,-0.5394688844680786,0.2413688600063324
1749031976.238448,2.974596025233674,-0.6066297148593705,-2.398588551349891,-2.649927591915605,-0.4972898410109829,-0.6433506466783079,-0.1492802652531185,-0.03540928184843128,0.04815721006906669,-0.17016020256150743,-0.026756374878636267,0.14142459022549755,-0.4437471330165863,-0.4715214371681213,1.4181082248687744,0.15824855864048,-0.5425297021865845,0.243688553571701
1749031976.2384863,2.974298267981307,-0.6067011130926561,-2.398490646657706,-2.6502717542936907,-0.4973433239179976,-0.6430635100942713,-0.15060151072883093,-0.03556487370943834,0.04876417470264293,-0.17182745694088236,-0.027265339416334893,0.1425369594598516,-0.4533161520957947,-0.4678495228290558,1.430207371711731,0.1252128183841705,-0.5342081189155579,0.2330009788274765
1749031976.2385242,2.973997300259548,-0.6067728535035112,-2.398391151835509,-2.6506199285657477,-0.49739766659023515,-0.6427746057239884,-0.1519427838144899,-0.03573014449239616,0.04941627717953631,-0.1734759128485872,-0.02775526030122176,0.14358383826351742,-0.4512163996696472,-0.4777316749095917,1.419461965560913,0.1602673530578613,-0.5411565899848938,0.2286296486854553
1749031976.238562,2.9736927872546572,-0.606844972662875,-2.3982901098693894,-2.6509722591054743,-0.49745297616296946,-0.6424840589426285,-0.15331276839116606,-0.035919794277859435,0.050111473570173225,-0.17509850626467635,-0.028213892089245848,0.14459219037984933,-0.4393238723278045,-0.4579676985740661,1.4734736680984497,0.1415796875953674,-0.548999547958374,0.2165932804346084
1749031976.238599,2.9733843873819,-0.6069175064541364,-2.398187589741846,-2.651328831119383,-0.497509348568159,-0.6421918959483089,-0.15471773288778096,-0.0361468979217318,0.05084487647864717,-0.17669147406043542,-0.028631751626006185,0.14559501136240074,-0.4199070036411285,-0.4671375751495361,1.4638724327087402,0.1581072509288787,-0.5353285074234009,0.2215328365564346
1749031976.2386365,2.9730717910715145,-0.6069904871533011,-2.3980836845477382,-2.651689650097556,-0.49756685678936347,-0.6418980414388648,-0.15616099925955873,-0.036421704139917674,0.0516086187075742,-0.17825514283746455,-0.029002980223487212,0.14662893682897674,-0.4881131649017334,-0.5018664002418518,1.4618653059005735,0.1422094255685806,-0.5361267328262329,0.2145084142684936
1749031976.238674,2.972754763007903,-0.607063942508457,-2.397978507239347,-2.652054624235085,-0.4976255395566114,-0.6416023311257769,-0.15764274255541952,-0.03675062608378419,0.05239208442673718,-0.17979432813618026,-0.029325779741241637,0.14773092725377387,-0.4313720464706421,-0.5117017030715942,1.446506142616272,0.1406740844249725,-0.5327500104904175,0.2189203202724456
1749031976.238711,2.9724331809694453,-0.607137896855153,-2.397872183491123,-2.6524235558799636,-0.4976853923768639,-0.6413045375961018,-0.15916009432118458,-0.037135550431194354,0.053182547836924866,-0.18131829302371874,-0.029602438519183656,0.1489344281794215,-0.4313720464706421,-0.5117017030715942,1.446506142616272,0.1406740844249725,-0.5327500104904175,0.2189203202724456
1749031976.2387488,2.97210706262627,-0.6072123740753903,-2.397764841530939,-2.652796148704348,-0.4977463630314677,-0.6410044038168502,-0.16070749403216783,-0.03757357781661505,0.05396617685719194,-0.18284025343463392,-0.02983901348249074,0.15026556527079563,-0.4182281196117401,-0.4983308017253876,1.4406145811080933,0.1302450299263,-0.5320783257484436,0.2685348987579345
1749031976.2387855,2.971776572557914,-0.6072874020182798,-2.3976565993013756,-2.653172034923647,-0.497808353365692,-0.6407016758508798,-0.16227721906044026,-0.03805725509529916,0.054729288076440015,-0.18437644088848493,-0.03004475553408679,0.15173998391035354,-0.448979765176773,-0.5068114399909973,1.4333466291427612,0.1421412825584411,-0.5403575301170349,0.2432661950588226
1749031976.2388227,2.971442006453373,-0.607363017590055,-2.397547550256699,-2.653550820926842,-0.4978712281959919,-0.6403961273681175,-0.16386001833349892,-0.03857529137337544,0.055459686922576516,-0.1859447510067779,-0.030231352639559013,0.15336086873160723,-0.4507922530174255,-0.4861238598823547,1.4361271858215332,0.1621987223625183,-0.5328566431999207,0.2731001377105713
1749031976.23886,2.9711037558378695,-0.6074392712500928,-2.3974377502341344,-2.6539321427595977,-0.4979348305724878,-0.6400875726173303,-0.16544578457956338,-0.03911368301630076,0.05614789675416098,-0.18756303888026787,-0.0304120281760484,0.1551184952014118,-0.501394510269165,-0.4900495111942291,1.4304598569869995,0.1192632615566253,-0.5291281342506409,0.2854784727096557
1749031976.2388968,2.970762260987432,-0.6075162296082143,-2.3973272083378574,-2.654315719293726,-0.4979990009675565,-0.6397758685776166,-0.16702422363690747,-0.03965711387087693,0.05678808332271794,-0.18924718696624512,-0.03060049916492713,0.15699140725127497,-0.4470665156841278,-0.4755400419235229,1.429773211479187,0.1398915946483612,-0.5384348034858704,0.2776164710521698
1749031976.2389338,2.970417960592267,-0.6075939752412091,-2.3972158841390967,-2.6547013922208142,-0.49806359692359364,-0.6394609091160393,-0.16858549684374102,-0.040190452063559104,0.05737852476562088,-0.19100915794316858,-0.030809803340378222,0.15894902841653327,-0.4667917788028717,-0.4931778013706207,1.424497365951538,0.1208897083997726,-0.540277361869812,0.2729072570800781
1749031976.2389705,2.9700712457290903,-0.6076726033419703,-2.3971036920837627,-2.655089146197355,-0.49812850970692163,-0.639142614712337,-0.17012081248109526,-0.04070014527632249,0.05792155543177846,-0.192855319066362,-0.031051055985723212,0.16095525805712638,-0.477830171585083,-0.4541974067687988,1.4370815753936768,0.1062955111265182,-0.5594666600227356,0.2460546940565109
1749031976.2390077,2.969722424213362,-0.6077522152529758,-2.396990512490374,-2.6554791069897434,-0.4981936754144464,-0.6388209216497995,-0.17162294022430852,-0.04117533185066303,0.05842300578934717,-0.19478535324069082,-0.031332268225575145,0.16297244206588293,-0.4740258753299713,-0.4435678720474243,1.4480048418045044,0.1016055420041084,-0.5448020100593567,0.2579750716686249
1749031976.239659,2.969371699396817,-0.6078329094565836,-2.3968762073488428,-2.6558715193221487,-0.498259079240715,-0.6384957743798186,-0.1730866327164843,-0.04160853733645412,0.058891247895803356,-0.19679203430376146,-0.031657400351173245,0.16496508326326476,-0.4108368158340454,-0.50162672996521,1.4214234352111816,0.0863292962312698,-0.539882242679596,0.2362366914749145
1749031976.2416368,2.9690191646894166,-0.6079147711942091,-2.3967606384476077,-2.6562667093789236,-0.49832475284225297,-0.6381671234844968,-0.17450894804627082,-0.04199590500584896,0.05933601833698252,-0.1988620252017803,-0.03202581020975694,0.16690277620783522,-0.4437566101551056,-0.4602977335453033,1.4276444911956787,0.0643177032470703,-0.5359489917755127,0.2188149988651275
1749031976.286302,2.9686648118663537,-0.6079978624041199,-2.3966436850643853,-2.6566650397370264,-0.49839076579943437,-0.6378349292766803,-0.1758894631633309,-0.042336989814254634,0.0597672216926911,-0.2009776603208925,-0.03243219859681326,0.1687620776689142,-0.454608142375946,-0.4653673768043518,1.4572651386260986,0.109059989452362,-0.5466426610946655,0.2409598678350448
1749031976.2863486,2.9683085481559965,-0.6080822139184304,-2.3965252582818777,-2.6570668666923596,-0.49845721303743873,-0.6374991681803908,-0.17723036490955849,-0.04263420315544805,0.06019391835182274,-0.2031194378490339,-0.03286707952398119,0.17052729077640566,-0.454608142375946,-0.4653673768043518,1.4572651386260986,0.109059989452362,-0.5466426610946655,0.2409598678350448
1749031976.2863927,2.9679502150304544,-0.6081678216234166,-2.3964053089753414,-2.6574725104098507,-0.4985242006765442,-0.6371598366992599,-0.17853641785434768,-0.04289202762818109,0.06062366425252385,-0.205268752412505,-0.033317731606561804,0.17219037192024494,-0.4639624357223511,-0.4795392453670501,1.424647569656372,0.1097326725721359,-0.5464285612106323,0.2414995282888412
1749031976.2864325,2.9675896021297885,-0.6082546474025943,-2.3962838273407847,-2.6578822452274307,-0.49859183291500886,-0.636816947697234,-0.17981482304586374,-0.043116141847553656,0.061062287085144294,-0.2074103216018356,-0.03376951911106366,0.17375029729381491,-0.4492507576942444,-0.4949456453323364,1.4461851119995115,0.0997440665960311,-0.5294781923294067,0.2553516030311584
1749031976.286471,2.9672264538755693,-0.6083426243305537,-2.3961608339823397,-2.6582963101989403,-0.4986602018668216,-0.636470517098344,-0.1810749743872406,-0.04331260726742949,0.06151406854160441,-0.20953383612944826,-0.03420740710445927,0.1752122145415442,-0.453999400138855,-0.4769689440727234,1.4426449537277222,0.1174879074096679,-0.5099401473999023,0.2572266459465027
1749031976.286509,2.966860472152289,-0.6084316643680296,-2.396036365251242,-2.6587149315105494,-0.49872938084824553,-0.6361205445893688,-0.182328090226661,-0.04348725275986638,0.06198219718463292,-0.2116345627099407,-0.03461744854099351,0.17658657561929036,-0.4255503416061401,-0.4852655529975891,1.4156378507614136,0.1058013141155242,-0.5142000913619995,0.2485754787921905
1749031976.2865467,2.966491322154226,-0.608521666275211,-2.3959104571709924,-2.659138343509811,-0.4987994201172355,-0.6357669960379848,-0.1835866776272503,-0.043645335840173834,0.062469296038322415,-0.21371288024711263,-0.034988017012818506,0.1778882717940693,-0.4165957570075989,-0.4750959873199463,1.4007246494293213,0.1078769490122795,-0.4987935423851013,0.2395819872617721
1749031976.2865844,2.966118648300474,-0.6086125216486773,-2.3957831322222254,-2.659566795893107,-0.4988703433226574,-0.6354097959357415,-0.18486380638793562,-0.04379148050381427,0.06297782418891655,-0.21577295772028218,-0.03531061213377921,0.1791356522795256,-0.4504884779453277,-0.4782793819904327,1.4330661296844482,0.1096353530883789,-0.505969226360321,0.2385365664958953
1749031976.2866223,2.965742104070294,-0.6087041176963643,-2.3956543920611435,-2.6600005396299373,-0.4989421433115919,-0.6350488356881621,-0.18617222718932216,-0.043929826333830094,0.0635102032420936,-0.21782093358803026,-0.0355801644163747,0.18034925978330194,-0.4820218682289123,-0.4991098940372467,1.4228302240371704,0.0895679891109466,-0.5147562623023987,0.2242820858955383
1749031976.2866592,2.9653613951411026,-0.6087963365643633,-2.3955242176561233,-2.6604397911592317,-0.49901477725708926,-0.6346839992985732,-0.18752342624677165,-0.04406429190349474,0.06406861684888225,-0.21986300900562628,-0.035794882991637016,0.18155017550922806,-0.4655501842498779,-0.4800415933132171,1.4346861839294434,0.0784310847520828,-0.5061312913894653,0.2193499058485031
1749031976.286697,2.964976329973269,-0.6088890525858565,-2.3953925766076876,-2.6608846817386467,-0.49908816254845134,-0.6343152027433109,-0.18892673052880593,-0.04419885340058831,0.06465454166341625,-0.22190382200941697,-0.03595578704224285,0.18275801042744952,-0.4655501842498779,-0.4800415933132171,1.4346861839294434,0.0784310847520828,-0.5061312913894653,0.2193499058485031
1749031976.286734,2.9645868672618274,-0.6089821300843529,-2.3952594356963535,-2.661335204791457,-0.49916217566926446,-0.6339424382834762,-0.19038855964910323,-0.04433775587977819,0.06526814874267502,-0.22394535052969486,-0.036066108813537466,0.18398875710024915,-0.4361647069454193,-0.4727701544761657,1.43464195728302,0.0765686258673667,-0.5005760788917542,0.2390429377555847
1749031976.2867715,2.9641931482677037,-0.6090754244391778,-2.3951247755293155,-2.661791175946637,-0.49923665591845007,-0.6335658125225034,-0.1919118856273919,-0.044485602577736164,0.06590773996047923,-0.2259864414263254,-0.03613073772555834,0.1852528614943952,-0.4434873163700104,-0.4591818153858185,1.427493453025818,0.0640719681978225,-0.4972726106643677,0.2635499238967895
1749031976.2868147,2.9637955059193994,-0.6091687877325389,-2.394988604180834,-2.6622522164878917,-0.49931141450029154,-0.6331855691864778,-0.19349592942868585,-0.04464730012045296,0.06656935554530452,-0.22802292475050384,-0.03615580457946978,0.18655392409173477,-0.4676993489265442,-0.4751893877983093,1.4422650337219238,0.0604978948831558,-0.4919423460960388,0.257716566324234
1749031976.2868605,2.9633944497211266,-0.6092620782795843,-2.3948509677652807,-2.6627177632003187,-0.4993862479786232,-0.6328020931065386,-0.19513610161334388,-0.04482786522438358,0.06724662897412792,-0.23004817209678868,-0.0361484170634505,0.18788835433895332,-0.5046606063842773,-0.4869607985019684,1.4277408123016355,0.0852392017841339,-0.4754083752632141,0.2653742432594299
1749031976.2869003,2.962990631269989,-0.6093551719735365,-2.3947119569740742,-2.6631871008008723,-0.4994609541321273,-0.632415896951301,-0.1968241854540845,-0.045032116389768326,0.06793090507692996,-0.2320539002772938,-0.036116489787705555,0.18924609421624455,-0.4769768118858337,-0.4671550989151001,1.4206606149673462,0.0643856823444366,-0.4875192642211914,0.2627920806407928
1749031976.2869377,2.962584796998532,-0.6094479731790227,-2.3945717091136576,-2.6636594100270035,-0.4995353480597626,-0.6320275945499768,-0.19854875904049216,-0.045264284310855496,0.06861159624365744,-0.234031008572392,-0.036068585995630544,0.19061227064444086,-0.4613633751869201,-0.4801018238067627,1.4073479175567627,0.1003811731934547,-0.4836058318614959,0.2410640716552734
1749031976.286975,2.9621777336836668,-0.6095404234490985,-2.394430405291963,-2.6641338244081894,-0.49960927667391436,-0.6316378646850981,-0.2002958477221789,-0.04552758428057897,0.06927673071196645,-0.23597027716204438,-0.03601370414844226,0.19196943191420862,-0.4806905388832092,-0.4988259077072143,1.4281679391860962,0.0919276624917984,-0.4967532753944397,0.237845093011856
1749031976.2870116,2.961770210576964,-0.6096325070698569,-2.3942882625512922,-2.664609490120558,-0.49968263019521114,-0.6312474083884638,-0.2020497853871041,-0.04582380727519852,0.06991363825597524,-0.23786284401849703,-0.035960983240090685,0.19329993751941985,-0.485567182302475,-0.4944149255752563,1.418280005455017,0.0881199687719345,-0.4860591888427734,0.2317048609256744
1749031976.2870483,2.9613629210394747,-0.6097242531630376,-2.3941455211615716,-2.665085625097591,-0.4997553498537041,-0.6308569017895033,-0.2037942475459461,-0.04615299948302032,0.07050971578831758,-0.23970048921410889,-0.035919343004821934,0.19458811929493303,-0.4771551191806793,-0.5108256340026855,1.3705962896347046,0.0814585983753204,-0.496405154466629,0.2463577836751938
1749031976.287086,2.960956426428172,-0.6098157347427492,-2.3940024279764085,-2.6655615750260004,-0.49982743167078464,-0.630466945856587,-0.20551340556094727,-0.046513301969715155,0.07105321485222336,-0.24147584388031082,-0.035897103629161875,0.19582198477850574,-0.4403842985630035,-0.5150785446166992,1.4104737043380735,0.0706469714641571,-0.4915563464164734,0.2740189135074615
1749031976.2871234,2.960551105231816,-0.6099070655592087,-2.3938592175021443,-2.6660368644442034,-0.49989892672564007,-0.6300780144167168,-0.20719313679440735,-0.04690100482138725,0.07153399545646741,-0.24318266875177816,-0.035901639479878414,0.19699442094393027,-0.4853637218475342,-0.4916867613792419,1.4035508632659912,0.1028034389019012,-0.4892644882202148,0.259008914232254
1749031976.287665,2.9601471107134003,-0.6099983956279785,-2.39371609279462,-2.6665112408528757,-0.4999699384622734,-0.6296904029526434,-0.20882220401791796,-0.04731083464352116,0.07194419627090956,-0.24481630569892998,-0.03593911398344859,0.19810398989534084,-0.48012176156044,-0.4846794903278351,1.3758364915847778,0.0834231004118919,-0.4913424253463745,0.2814270853996277
1749031976.2896411,2.9597443404397277,-0.610089906124684,-2.3935732083021324,-2.666984709055996,-0.5000406175108051,-0.6293041825645429,-0.21039328884824357,-0.04773645000175566,0.07227877516443165,-0.2463743185414944,-0.03601432387675244,0.19915543030264285,-0.4924923479557037,-0.5138919949531555,1.3686784505844116,0.0831942483782768,-0.5125347375869751,0.2756624519824981
1749031976.3302865,2.9593424208016508,-0.6101818040912349,-2.3934306564312684,-2.667457552559734,-0.5001111545803534,-0.6289191650360587,-0.2119037425898344,-0.04817107832687553,0.07253587904463754,-0.2478572462570509,-0.03613066133441548,0.20015989603427126,-0.4605911672115326,-0.4902588427066803,1.3985978364944458,0.0935757532715797,-0.5211364030838013,0.2387425005435943
1749031976.3303332,2.958940708371446,-0.6102743173227749,-2.3932884591092254,-2.6679303393683984,-0.5001817723081203,-0.6285348847164202,-0.21335593144716083,-0.04860820000344397,0.07271702059249603,-0.24926932845260805,-0.036290191049854134,0.20113483894462184,-0.4417454898357391,-0.4846133887767792,1.3642274141311646,0.0961991101503372,-0.527927041053772,0.227835327386856
1749031976.3303742,2.958538307482533,-0.610367689768973,-2.393146564963447,-2.668403911267506,-0.5002527171511453,-0.6281506003358338,-0.21475711660319888,-0.04904217582517811,0.07282707280151232,-0.250619051536876,-0.03649383414091116,0.202103357879053,-0.4417454898357391,-0.4846133887767792,1.3642274141311646,0.0961991101503372,-0.527927041053772,0.227835327386856
1749031976.330415,2.9581341010319884,-0.6104621774822595,-2.3930048519497458,-2.6688793579336214,-0.5003242520872286,-0.6277653162970134,-0.21611889659316688,-0.049468721660716614,0.07287412187259516,-0.2519193964429559,-0.036741638273396354,0.20309284997242708,-0.4842230677604675,-0.5043075680732727,1.3853005170822144,0.130028411746025,-0.5121139883995056,0.2149170935153961
1749031976.330454,2.957726791742654,-0.6105580443477098,-2.3928631347365465,-2.6693579776341037,-0.5003966499330946,-0.6273778213373205,-0.21745629823288368,-0.04988515600476116,0.07286922719656473,-0.25318770138732416,-0.03703308299955459,0.20413291897720873,-0.4795699715614319,-0.4856353998184204,1.3954901695251465,0.1132462993264198,-0.5073777437210083,0.2193805128335952
1749031976.3304942,2.9573149548449362,-0.6106555557487287,-2.3927211763250993,-2.6698412234237265,-0.5004701858436451,-0.6269867441802166,-0.21878660938523894,-0.050290384219811204,0.07282612025476007,-0.25444505016261215,-0.0373673317690586,0.20525267274494155,-0.5058767199516296,-0.528359055519104,1.361973524093628,0.1041853204369545,-0.5161648392677307,0.2793584764003753
1749031976.330533,2.956897107038911,-0.6107549678248819,-2.392578703806977,-2.6703306303870575,-0.5005451269209116,-0.6265906282281766,-0.22012802736041961,-0.05068463940206087,0.07276083985470283,-0.2557150839196564,-0.03774332890890611,0.20647771474577897,-0.5058767199516296,-0.528359055519104,1.361973524093628,0.1041853204369545,-0.5161648392677307,0.2793584764003753
1749031976.330572,2.95647179622214,-0.6108565108719464,-2.3924354279613858,-2.6708277201439024,-0.50062171753675,-0.626188026431463,-0.2214981894885112,-0.05106905636173203,0.07269126590406746,-0.2570221785774662,-0.03815967661733122,0.20782724692648988,-0.442745953798294,-0.5031455159187317,1.4104013442993164,0.1255713552236557,-0.5383249521255493,0.2850794792175293
1749031976.330609,2.9560377117165304,-0.610960367360327,-2.3922910657533754,-2.6713338836418723,-0.5007001605251435,-0.6257776131946448,-0.22291266963708659,-0.051445179647579976,0.07263649899234047,-0.25838905996400563,-0.038614307409111995,0.20931170728711904,-0.4445445239543915,-0.4779625535011291,1.375882267951965,0.1016777902841568,-0.5398058295249939,0.2937655746936798
1749031976.3306472,2.955593808851257,-0.611066646858908,-2.3921453645102675,-2.6718502487495934,-0.5007805958508211,-0.6253583058078762,-0.22438355375858823,-0.05181449167328915,0.07261604920112105,-0.2598341055012679,-0.03910405600170471,0.21093125186244271,-0.4709915816783905,-0.5259270668029785,1.409037947654724,0.096328929066658,-0.5248326659202576,0.2918207049369812
1749031976.3306854,2.955139435520602,-0.6111753614648041,-2.391998126185238,-2.672377544919035,-0.5008630795902187,-0.6249293839935278,-0.22591823561690713,-0.05217802704897811,0.0726488395960165,-0.26136873407262906,-0.0396242919865875,0.2126752120651185,-0.4709915816783905,-0.5259270668029785,1.409037947654724,0.096328929066658,-0.5248326659202576,0.2918207049369812
1749031976.3307226,2.954674440469457,-0.6112864066133854,-2.391849228494583,-2.6729159852506332,-0.5009475675014329,-0.6244905907199408,-0.22751859039949213,-0.05253614158347591,0.07275208499751265,-0.26299535404056906,-0.04016877980761547,0.2145225095372434,-0.4709915816783905,-0.5259270668029785,1.409037947654724,0.096328929066658,-0.5248326659202576,0.2918207049369812
1749031976.3307605,2.9541992370804104,-0.6113995530460935,-2.3916986376601996,-2.6734651932336453,-0.5010339085077128,-0.6240421926538331,-0.22918066812694804,-0.052888505929797255,0.0729401572954339,-0.26470628840722704,-0.040729885810479934,0.2164429433026602,-0.4356938302516937,-0.5026695728302002,1.4662126302719116,0.0915021896362304,-0.5374509692192078,0.2741914987564087
1749031976.330798,2.9537148006900784,-0.611514454676904,-2.391546407957357,-2.6740241979094272,-0.5011218524545047,-0.6235849818715048,-0.23089497937501852,-0.05323435311677395,0.07322357393859819,-0.2664839262719024,-0.04129916406745894,0.21839925119554993,-0.4833043813705444,-0.5231449604034424,1.4381446838378906,0.0955908596515655,-0.5377857685089111,0.269705057144165
1749031976.330835,2.9532225945386164,-0.6116306732967136,-2.391392667577773,-2.6745915036860257,-0.5012110729732652,-0.6231202147313138,-0.2326473393357362,-0.053572927445717906,0.07360823697310927,-0.26830210988070996,-0.041868239150274836,0.2203498353322534,-0.5467079877853394,-0.4881829619407654,1.4423233270645142,0.0974054187536239,-0.5245766639709473,0.3024890720844269
1749031976.330873,2.952724439812035,-0.6117477161446261,-2.391237595660755,-2.675165219407578,-0.5013012019078619,-0.6226495012401871,-0.2344201475848271,-0.05390400647042671,0.07409501744265794,-0.2701285430760018,-0.04242979333639063,0.22225200758723213,-0.5467813014984131,-0.4946613609790802,1.4655659198760986,0.0789275467395782,-0.5015360116958618,0.3125709295272827
1749031976.330911,2.952222356306977,-0.6118650792391616,-2.391081397627093,-2.6757432193718524,-0.5013918689107206,-0.6221746676907741,-0.23619394284213135,-0.05422834055536496,0.07467974356536726,-0.27192787344398633,-0.04297840070642829,0.22406555883829885,-0.4796292185783386,-0.4715661108493805,1.4685897827148438,0.0964012891054153,-0.5059765577316284,0.3138723969459533
1749031976.3309488,2.951718398970737,-0.6119822893765285,-2.3909242841606613,-2.67632331050082,-0.5014827393708164,-0.6216976138243945,-0.2379490643377682,-0.05454787983505753,0.0753536200278776,-0.2736650724993377,-0.0435109689798448,0.22575638178922677,-0.470958262681961,-0.4472124278545379,1.4858660697937012,0.0751752257347107,-0.4999541938304901,0.2893128395080566
1749031976.3309867,2.9512145079359824,-0.6120989399375789,-2.3907664555901644,-2.676903388268408,-0.5015735451612031,-0.6212201785558256,-0.23966725030247701,-0.05486571680390525,0.07610407325937567,-0.27530877726261854,-0.0440266546992183,0.22729978581426577,-0.4801710247993469,-0.4920837879180908,1.496671199798584,0.1015370339155197,-0.5170323252677917,0.2886558771133423
1749031976.3310244,2.9507123818905794,-0.6122147182985843,-2.3906080905453893,-2.6774815721890515,-0.5016641049221284,-0.620744021238173,-0.24133302024258982,-0.055185746228985845,0.07691597059118822,-0.27683430863910385,-0.0445262665210229,0.2286830773985093,-0.4872149527072906,-0.508967399597168,1.4962406158447266,0.0865880250930786,-0.5286614894866943,0.2896653115749359
1749031976.3316455,2.950213378989946,-0.6123294244791604,-2.3904493365377566,-2.6780563170580645,-0.5017543330437539,-0.6202705210107642,-0.24293473421268258,-0.05551211231758855,0.07777309474860217,-0.27822611897935784,-0.04501130270344784,0.22990700301341158,-0.4941589832305908,-0.505411684513092,1.490204095840454,0.1293616294860839,-0.5321730375289917,0.2556953430175781
1749031976.3336167,2.9497184459734758,-0.6124429813409923,-2.3902903003127935,-2.6786264989859876,-0.5018442384291426,-0.61980069494863,-0.24446528159496267,-0.055848550408709174,0.0786596818945629,-0.27947945567431476,-0.04548283850170378,0.230985786329012,-0.4951315522193908,-0.4848849773406982,1.4499685764312744,0.1189793497323989,-0.520168662071228,0.2651421725749969
1749031976.3743036,2.9492280741591657,-0.6125554364993647,-2.3901310369369857,-2.67919147639424,-0.5019339149096861,-0.6193351356671831,-0.24592239250115713,-0.05619773186720972,0.07956178231262372,-0.28060108677018675,-0.04594047991990939,0.2319457048122471,-0.4745123982429504,-0.5017149448394775,1.4494580030441284,0.1201755180954933,-0.4976229071617126,0.2695367634296417
1749031976.3743548,2.948742280184884,-0.6126669558519399,-2.3899715381371944,-2.679751126105694,-0.5020235249942192,-0.6188739699360527,-0.2473085761124795,-0.05656071025531504,0.08046821006018282,-0.28160902495063145,-0.04638155493515376,0.23282237738999617,-0.4618962407112121,-0.4914509057998657,1.437259078025818,0.1106973141431808,-0.5023987889289856,0.2844074368476867
1749031976.3743973,2.9482606095861175,-0.6127778088851936,-2.3898117218804895,-2.6803058538788194,-0.502113278313594,-0.6184168411532991,-0.24863069347931963,-0.05693655898508783,0.0813709209237464,-0.2825312872456702,-0.0468006576552613,0.23365711380216514,-0.4688789844512939,-0.4877583086490631,1.4586254358291626,0.0998564064502716,-0.5124257206916809,0.289049744606018
1749031976.3744416,2.9477821623918965,-0.6128883466394489,-2.389651426024652,-2.6808565776546787,-0.5022034063857942,-0.6179629195416692,-0.2498991990434368,-0.05732227041116562,0.08226477999898817,-0.28340381140285364,-0.04718962131705211,0.23449277436629276,-0.4666913747787475,-0.50048828125,1.4739141464233398,0.1041833236813545,-0.5265368223190308,0.2857239246368408
1749031976.3744824,2.9473056413834726,-0.6129989738588799,-2.3894904087925695,-2.6814046809952803,-0.5022941360275585,-0.6175109438856164,-0.25112713899066447,-0.0577129416422315,0.0831468197271691,-0.2842677064027624,-0.047537970555576854,0.23536961126619316,-0.4789158999919891,-0.4849377274513244,1.4722340106964111,0.1078357547521591,-0.5195757150650024,0.2872749865055084
1749031976.374521,2.9468294245682127,-0.6131101172055144,-2.3893283579962743,-2.68195193435173,-0.5023856641720615,-0.617059297195608,-0.2523290390693887,-0.05810221889885741,0.08401520277177815,-0.28516606094342384,-0.047833865208068836,0.23632153465432698,-0.4990402460098266,-0.4774688184261322,1.4752187728881836,0.0865150690078735,-0.5028223991394043,0.2662029862403869
1749031976.3745604,2.946351662752678,-0.6132221917941288,-2.389164909794945,-2.6825003835562966,-0.5024781366158254,-0.6166061159630359,-0.25351980956626263,-0.05848293219455061,0.08486815022097116,-0.28614058937530984,-0.04806547237085192,0.23737318183733738,-0.4931605756282806,-0.4741329252719879,1.4511420726776123,0.1052303463220596,-0.4994430541992187,0.2952509522438049
1749031976.3746014,2.9458704002141247,-0.613335568881314,-2.3889996764999046,-2.6830522087734727,-0.5025716325450902,-0.6161494286588212,-0.25471374387948503,-0.05884783201143219,0.08570306435957672,-0.2872284491889551,-0.048222595040580095,0.2385380633718099,-0.4824163317680359,-0.4673174917697906,1.4477890729904177,0.075937770307064,-0.4650031626224518,0.3005087375640869
1749031976.3746407,2.945383711514964,-0.6134505479620752,-2.3888322813056324,-2.6836095630504184,-0.5026661560080549,-0.6156873138061744,-0.25592363664614093,-0.059190336581013754,0.0865159911211359,-0.28845957519129345,-0.04829828654514207,0.2398179270929274,-0.4824163317680359,-0.4673174917697906,1.4477890729904177,0.075937770307064,-0.4650031626224518,0.3005087375640869
1749031976.374681,2.9448898419236933,-0.6135673363071474,-2.388662395800911,-2.684174406201374,-0.5027616349103696,-0.6152180622765543,-0.2571600392028378,-0.05950520922435715,0.0873014646958416,-0.28985480537539765,-0.0482901502223113,0.24120335079424268,-0.4894459843635559,-0.4959465265274048,1.4144153594970703,0.061377827078104,-0.4726667404174804,0.3279618918895721
1749031976.3747227,2.9443873355365477,-0.6136860379204347,-2.3884897745548934,-2.6847483538436028,-0.5028579273999526,-0.6147403249487323,-0.2584306965413051,-0.05978910447578762,0.08805268577541708,-0.29142492791879077,-0.04820109662225015,0.24267546790615221,-0.4894459843635559,-0.4959465265274048,1.4144153594970703,0.061377827078104,-0.4726667404174804,0.3279618918895721
1749031976.3747778,2.943875136556836,-0.6138066522655758,-2.3883142812538463,-2.685332559793321,-0.5029548345620838,-0.6142532280529551,-0.259740222142514,-0.06004094191786491,0.08876192935637543,-0.29317060728210675,-0.04803947402832281,0.2442086426953238,-0.492686003446579,-0.4927464723587036,1.422388792037964,0.0839228481054306,-0.4791103005409241,0.3159390687942505
1749031976.3748186,2.9433526548775393,-0.6139290815987473,-2.3881359031201113,-2.685927642866601,-0.5030521175015479,-0.6137564441983309,-0.2610900270839426,-0.06026208376926604,0.08942106945463785,-0.2950830150094233,-0.04781862275479297,0.2457738266428266,-0.481576919555664,-0.445077121257782,1.398805856704712,0.0639152228832244,-0.4592068195343017,0.2979758977890014
1749031976.3748567,2.9428197935488747,-0.614053145036576,-2.387954753423531,-2.686533660658172,-0.5031495167117083,-0.6132502139858373,-0.2624784470829099,-0.06045630641375642,0.09002213755432231,-0.29714494698426436,-0.047555972154269884,0.24734224429431495,-0.481576919555664,-0.445077121257782,1.398805856704712,0.0639152228832244,-0.4592068195343017,0.2979758977890014
1749031976.3748984,2.942276939090789,-0.6141785976934756,-2.387771063829015,-2.6871501281094026,-0.5032467722816707,-0.6127353177431853,-0.26390097025332876,-0.06062956832478554,0.09055787288776364,-0.29933226157295073,-0.04727181293432136,0.24888899653569882,-0.5458968877792358,-0.4671701788902282,1.400387167930603,0.0204392746090888,-0.4734487235546112,0.3082189261913299
1749031976.374937,2.94172491550067,-0.614305153812855,-2.3875851681945472,-2.6877760786310856,-0.503343644355792,-0.6122129988593832,-0.2653504972832326,-0.060789588729166136,0.09102225186532319,-0.3016155748181475,-0.04698788478957015,0.25039616187237507,-0.5458968877792358,-0.4671701788902282,1.400387167930603,0.0204392746090888,-0.4734487235546112,0.3082189261913299
1749031976.3749745,2.941164902766745,-0.6144325129927165,-2.3873974783862377,-2.688410165999069,-0.5034399334376068,-0.6116848423713387,-0.26681763165856565,-0.0609452651033363,0.09141099488975574,-0.30396221458257605,-0.0467259404748122,0.25185503132293446,-0.4685402512550354,-0.483488917350769,1.4025249481201172,0.0478651523590087,-0.4887004494667053,0.2946519553661346
1749031976.3750117,2.940598324449826,-0.614560387886162,-2.3872084527215907,-2.6890508014526002,-0.5035354994114276,-0.6111526175729248,-0.2682910423036445,-0.06110597362160922,0.09172204599971569,-0.30633840240175003,-0.04650645564315501,0.2532672097764275,-0.5049855709075928,-0.4870740175247192,1.4120327234268188,0.0594570487737655,-0.4814526438713074,0.2971089780330658
1749031976.3750525,2.940026716070249,-0.6146885305000774,-2.3870185594284354,-2.6896963125393385,-0.5036302772022945,-0.6106181007083459,-0.26975794891460814,-0.06128081077141084,0.09195600555746716,-0.30871152241762634,-0.046347619007359946,0.2546444304320606,-0.4943065345287323,-0.4457579255104065,1.3873366117477417,0.0668069124221801,-0.4913628101348877,0.2936073243618011
1749031976.3750908,2.9394515922525346,-0.6148167534850372,-2.3868282396830813,-2.690345103167769,-0.5037242865795013,-0.610082899688527,-0.27120477360413964,-0.06147784151534323,0.0921164661822327,-0.31105225002623793,-0.04626466716477475,0.25600705051400724,-0.5181764364242554,-0.5059270858764648,1.3830249309539795,0.0226278454065322,-0.4824168682098388,0.2959582209587097
1749031976.375681,2.938874331450101,-0.6149449434319747,-2.386637875608098,-2.6909957929259654,-0.503817634064805,-0.609548303943136,-0.2726179866494308,-0.06170342118768231,0.09221016500209882,-0.3133363238063127,-0.04626955848495131,0.25738132745568676,-0.5298930406570435,-0.4788379669189453,1.3555302619934082,0.0199647322297096,-0.5105233192443848,0.2677263617515564
1749031976.377637,2.9382960920724885,-0.6150730648937588,-2.386447767581248,-2.691647318674561,-0.5039105062396901,-0.609015178363868,-0.2739851280838071,-0.06196165793030219,0.09224684682257855,-0.31554582388662206,-0.04637093832660082,0.2587957141127222,-0.5130347013473511,-0.479756236076355,1.3698803186416626,0.0121119618415832,-0.5114822387695312,0.2992187142372131
1749031976.4182973,2.937717766165014,-0.6152011555974225,-2.386258123178718,-2.6922989895347746,-0.5040031556887874,-0.6084839126476802,-0.2752959121674685,-0.06225407451831989,0.0922387623611229,-0.3176698837597946,-0.046574333069862896,0.2602765576930342,-0.43429696559906,-0.4701202511787414,1.3652756214141846,0.0776989758014679,-0.5207775831222534,0.2881646752357483
1749031976.418343,2.937139969808165,-0.6153293144305348,-2.386069058062979,-2.6929504942538243,-0.5040958826035272,-0.6079544286160546,-0.2765432643843199,-0.06257950900118088,0.09219980984644849,-0.3197047775114174,-0.0468825019527856,0.26184373108672665,-0.5047436952590942,-0.5158329606056213,1.3789968490600586,0.0810851007699966,-0.5217722058296204,0.2883331179618835
1749031976.4183836,2.936563064373856,-0.615457684350974,-2.3858806075371324,-2.6936018660766843,-0.5041890156856006,-0.6074262399866613,-0.2777241439197399,-0.06293427091192448,0.09214444014906256,-0.3216533330571651,-0.047295854014182806,0.26350682956265054,-0.5191389322280884,-0.4972187280654907,1.4196399450302124,0.076393648982048,-0.5341504216194153,0.3158761262893677
1749031976.4184265,2.935987199630663,-0.6155864326564237,-2.3856927462492563,-2.694253414545801,-0.5042828950609624,-0.606898552614278,-0.2788400559696889,-0.06331254784691934,0.09208653708821886,-0.3235236812314114,-0.0478128048359555,0.2652625718980263,-0.4784618616104126,-0.523642897605896,1.39448082447052,0.0304475650191307,-0.5294346809387207,0.3144623041152954
1749031976.418466,2.935412368338512,-0.6157157310509863,-2.3855054125453994,-2.6949056361466983,-0.50437785809534,-0.6063703890617365,-0.2798972044985655,-0.06370702780620167,0.09203850918379369,-0.32532746856951045,-0.048429928610195544,0.2670939118053107,-0.4753000736236572,-0.4968783259391784,1.4281790256500244,0.0360838510096073,-0.519838273525238,0.3163602948188782
1749031976.4185042,2.93483846247844,-0.6158457374683507,-2.3853185333870326,-2.6955591164114137,-0.5044742272818704,-0.6058407199974251,-0.2809062550225154,-0.06410966640482267,0.09201076850079519,-0.3270777842384243,-0.04914178015513195,0.2689710949645647,-0.4404785931110382,-0.51126629114151,1.4126912355422974,0.0380596965551376,-0.5239008069038391,0.3235127627849579
1749031976.418543,2.9342653233962066,-0.6159765807057687,-2.3851320458119756,-2.696214435169308,-0.5045722983667769,-0.6053085863151558,-0.28188170273242097,-0.06451250165607252,0.09201165163924933,-0.3287871086476849,-0.049940326116260585,0.27085454370302475,-0.4968968033790588,-0.4979398846626282,1.3926676511764526,0.0723506957292556,-0.510821521282196,0.2907783091068268
1749031976.418584,2.933692781106043,-0.6161083481369534,-2.3849459116445617,-2.696872084645959,-0.5046723268432247,-0.6047731992696419,-0.28284089840737753,-0.06490841733583248,0.09204771108656012,-0.33046556021936746,-0.05081403014828259,0.27269911517449036,-0.4815861880779266,-0.4908203482627868,1.401257872581482,0.0535123199224472,-0.508683979511261,0.2976808845996856
1749031976.4186225,2.933120680758759,-0.6162410767319476,-2.384760123320553,-2.697532407770321,-0.5047745119525993,-0.6042340103545923,-0.2838028381527648,-0.06529177886279675,0.09212422207295694,-0.3321196338449012,-0.05174677497761814,0.27445905722558284,-0.4603435695171356,-0.5022007822990417,1.4173012971878052,0.0409557968378067,-0.5271663069725037,0.2888010740280151
1749031976.4186602,2.932548896216496,-0.6163747482868676,-2.3845747000824256,-2.698195561785791,-0.5048789791242738,-0.6036907474163298,-0.2847868290797281,-0.06565889937337724,0.09224573664185992,-0.33375153508617733,-0.05271694736767731,0.27609292078961334,-0.4061118364334106,-0.5516927242279053,1.4337122440338137,0.0480403006076812,-0.5685317516326904,0.271304726600647
1749031976.4186983,2.9319773318351405,-0.6165092903498746,-2.384389675326985,-2.6988615099786335,-0.5049857636187868,-0.6031434178636076,-0.2858111174049558,-0.06600832140056777,0.09241656701125184,-0.33535912998471235,-0.05369709890030822,0.27756776355722795,-0.4454580247402191,-0.5276391506195068,1.4391990900039673,0.0473690330982208,-0.5774521827697754,0.2559177577495575
1749031976.4187384,2.9314059141638724,-0.6166445840022816,-2.384205077311352,-2.6995300416805894,-0.5050947991436812,-0.6025922829353889,-0.2868915612484252,-0.06634091206726292,0.09264115746676224,-0.33693644806221035,-0.0546545563381349,0.27886215854207763,-0.5101615190505981,-0.4889741539955139,1.4814002513885498,0.0634946972131729,-0.5525542497634888,0.2469906210899353
1749031976.4187758,2.9308345754521095,-0.6167804784144285,-2.384020906310776,-2.7002008175458654,-0.5052059148861614,-0.6020378084885699,-0.2880404583889413,-0.06665976669980511,0.09292435680658807,-0.3384746163791327,-0.05555316590783669,0.2799677595487604,-0.4915771186351776,-0.4944958388805389,1.4164471626281738,0.0620872154831886,-0.5417643189430237,0.2757967710494995
1749031976.4188137,2.9302632308437637,-0.6169168106883854,-2.3838371114486705,-2.700873433861215,-0.5053188428319273,-0.6014805983278749,-0.2892656513881238,-0.06696990756572503,0.0932715982492461,-0.33996309326432955,-0.056356068474490116,0.28088942466240746,-0.485160082578659,-0.4987310469150543,1.4767314195632937,0.0557502657175064,-0.5256831645965576,0.273167073726654
1749031976.4188511,2.9296917513687415,-0.6170534285479463,-2.383653570043219,-2.7015474971144484,-0.5054332350776073,-0.6009213167136027,-0.2905699951363395,-0.06727776886154699,0.09368894153430703,-0.3413910939940351,-0.057029122061546596,0.2816441072212531,-0.4671878814697265,-0.497439295053482,1.4605655670166016,0.0671296119689941,-0.5175256729125977,0.278428316116333
