nimar13/UR3e_dataset_trayectorias/trayectorias_ejecutadas_filtradas/jtraj/trayectoria_070_result_filtrado.csv
timestamp,q1,q2,q3,q4,q5,q6,qd1,qd2,qd3,qd4,qd5,qd6,tau1,tau2,tau3,tau4,tau5,tau6
1749027131.8142908,-2.8049687263271155,-1.8201879362049547,-0.9945704354555437,6.2780251902903155,-2.9521798479061117,-3.954019440108863,0.0021341156487610104,-0.00036460919054049626,0.000302264995568991,-0.003905313650999246,0.0016494060281378189,0.002760108930344515,-0.0839590355753898,0.6462677121162415,0.7620491981506348,-0.1834452301263809,-0.2215920537710189,-0.0298554748296737
1749027131.814338,-2.8049627324445683,-1.8201776222462123,-0.994570248566395,6.27802182722187,-2.952169704090519,-3.954026213330418,0.0020552157069495497,-0.0003356745082100258,0.0003755999488428327,-0.003714445722784273,0.0016757615317727788,0.0025687326022881107,-0.1054909452795982,0.653318464756012,0.7690823078155518,-0.1803481876850128,-0.2063689976930618,-0.0183921009302139
1749027131.814379,-2.8049566242997925,-1.8201676748867721,-0.9945701385545946,6.278018302239363,-2.952159839248127,-3.9540326256770593,0.0019752761620612934,-0.00031716250679870826,0.00044282886457084675,-0.0035250010347460474,0.0016947484163537551,0.002382618354616759,-0.0743754729628562,0.637811005115509,0.7651448845863342,-0.1833304464817047,-0.193899318575859,-0.0237797945737838
1749027131.8144183,-2.804950442224588,-1.8201585411292502,-0.9945701867422734,6.278014499735797,-2.9521505455020725,-3.9540383470312936,0.0018922035085739421,-0.0003160788674992953,0.0004996316863916283,-0.0033391253045796853,0.00170029373473316,0.002205791217926667,-0.0853325203061103,0.6467805504798889,0.7636398673057556,-0.2029317617416381,-0.1957477182149887,-0.007295623421669
1749027131.8144565,-2.804944243229441,-1.8201506182665752,-0.9945704655860251,6.278010342543898,-2.9521420828531637,-3.9540431222459045,0.001804490627660708,-0.0003379294333112412,0.0005426424830138572,-0.003158301967725086,0.0016875652264395698,0.0020413205563934245,-0.0657725110650062,0.6742271780967712,0.7623453736305237,-0.2082623541355133,-0.1945969015359878,-0.0040509551763534
1749027131.814495,-2.804938097760371,-1.8201442318864116,-0.9945710327886778,6.278005803003196,-2.952134661786317,-3.9540467942112576,0.0017113805154926436,-0.00038625985834937055,0.0005697533319566644,-0.0029832081117117924,0.001653450183757459,0.0018910467118244138,-0.0771253034472465,0.6434762477874756,0.7639539837837219,-0.2098491936922073,-0.2033587843179702,0.0002467483282089
1749027131.8145328,-2.8049320875157435,-1.820139619884867,-0.9945719250144182,6.278000907891484,-2.952128430342224,-3.9540493129857515,0.001612874406067018,-0.00046233891676620306,0.0005802741788501187,-0.002813741177319109,0.001596872258288112,0.00175548672455328,-0.0908585414290428,0.6611884832382202,0.7744351029396057,-0.2146801799535751,-0.2011399716138839,-0.0040600150823593
1749027131.8145704,-2.8049263036894865,-1.8201369226008612,-0.9945731523789128,6.277995736558098,-2.9521234663856797,-3.9540507306364856,0.0015096180407532008,-0.0005650245256175972,0.0005749427892139382,-0.002649217207593868,0.00151888996069898,0.0016339292110248813,-0.0908585414290428,0.6611884832382202,0.7744351029396057,-0.2146801799535751,-0.2011399716138839,-0.0040600150823593
1749027131.814608,-2.8049208447738785,-1.8201361789568782,-0.9945746950993682,6.2779904125462505,-2.952119775392321,-3.9540511838141668,0.0014027210212865947,-0.0006908461514615866,0.0005557960122226254,-0.002488697989330635,0.0014225484425657597,0.0015246924107685277,-0.0893434360623359,0.611780047416687,0.7849131226539612,-0.2145797908306121,-0.1856879442930221,-0.0159209817647933
1749027131.8146455,-2.8049158132982943,-1.8201373287476532,-0.9945765034192369,6.277985090003569,-2.9521172937150153,-3.954050867867603,0.0012935638827340401,-0.0008343262246071161,0.0005259248021843836,-0.002331370661064839,0.0013124992590841645,0.0014254881183222998,-0.0893434360623359,0.611780047416687,0.7849131226539612,-0.2145797908306121,-0.1856879442930221,-0.0159209817647933
1749027131.8146837,-2.804911311229559,-1.820140221360977,-0.99457850121176,6.277979936953491,-2.9521158968751644,-3.9540500072177114,0.0011836337221993458,-0.0009885437127351076,0.0004891420579299113,-0.0021768896398733704,0.0011944444871789758,0.0013338170706065546,-0.0684070736169815,0.6279090046882629,0.7796697020530701,-0.2012580335140228,-0.1899947077035904,0.004684567451477
1749027131.8147216,-2.804907433970247,-1.8201446306775895,-0.9945805927222248,6.277975117800253,-2.9521154118928092,-3.954048826695441,0.0010744104212930517,-0.0011459127602077349,0.0004495956083650529,-0.0020255979551796685,0.0010744869665367113,0.0012473236445219042,-0.1002434939146041,0.6386220455169678,0.7814201712608337,-0.2108624577522277,-0.1763835102319717,-0.0048164725303649
1749027131.8147595,-2.804904263024911,-1.8201502747377036,-0.994582671091255,6.2779707772574005,-2.9521156321281823,-3.9540475277086826,0.000967307528554337,-0.0012991095312322102,0.00041135947745113405,-0.0018785687511595646,0.0009584731075054522,0.0011640578375029917,-0.1002434939146041,0.6386220455169678,0.7814201712608337,-0.2108624577522277,-0.1763835102319717,-0.0048164725303649
1749027131.8147974,-2.8049018577120166,-1.8201568377196355,-0.9945846270124202,6.277967027417256,-2.952116332868321,-3.954046271676388,0.0008636583627743895,-0.0014420397573964635,0.00037803542459929196,-0.0017374419597131208,0.000851403760368552,0.0010826219297265084,-0.1164676398038864,0.6611467599868774,0.7694814205169678,-0.1973863542079925,-0.1839631646871566,-0.0210349261760711
1749027131.8148346,-2.8049002469368007,-1.8201639916289354,-0.9945863562696557,6.277963939128548,-2.9521172862030722,-3.954045171493949,0.0007647307914658475,-0.0015707127891826111,0.0003523940791244299,-0.001604070094960267,0.0007569698881282483,0.0010022068456328214,-0.0888672024011612,0.6510475277900696,0.7751578092575073,-0.1949465274810791,-0.1865460723638534,-0.01310695707798
1749027131.8148737,-2.8048994228094357,-1.8201714159357307,-0.994587765678048,6.277961538326404,-2.9521182744494565,-3.9540442902966038,0.0006717532117426787,-0.0016838877576807402,0.000336081405910275,-0.001480025250885485,0.0006772489788764226,0.0009225418756729028,-0.1295417100191116,0.6592071652412415,0.7799648642539978,-0.2180866003036499,-0.2029707580804824,-0.007096529006958
1749027131.8149104,-2.8048993382722043,-1.8201788146199058,-0.9945887776269341,6.2779598074831,-2.95211910201003,-3.9540436458291284,0.000585937195590463,-0.0017833856927803242,0.00032941253981572766,-0.0013660510428191589,0.0006125788240345378,0.0008437901938447797,-0.1087488532066345,0.6691611409187317,0.7761848568916321,-0.1904975175857544,-0.1929840594530105,-0.0081486701965332
1749027131.8149483,-2.8048999103925625,-1.8201859310172515,-0.9945893337547829,6.277958691883929,-2.9521196056768266,-3.9540432183880467,0.000508485975888291,-0.0018740085231405944,0.00033127156576894494,-0.0012615621842938778,0.0005616096028128633,0.0007664236655869582,-0.1087488532066345,0.6691611409187317,0.7761848568916321,-0.1904975175857544,-0.1929840594530105,-0.0081486701965332
1749027131.8149853,-2.804901029532788,-1.8201925611783785,-0.9945893983126237,6.277958109930207,-2.9521196630835953,-3.9540429604277585,0.00044058039701394335,-0.001963057480970687,0.00033913225914475195,-0.0011642957629170488,0.000521523596349457,0.0006911057464356941,-0.1165377348661422,0.6562161445617676,0.7821424603462219,-0.197920873761177,-0.1904849857091903,-0.0117704570293426
1749027131.815022,-2.804902572745406,-1.8201985660742663,-0.994588961552443,6.277957966151611,-2.9521191987183544,-3.954042806381821,0.0003833349956393701,-0.002059489846248833,0.0003492104718904139,-0.0010702018239391222,0.000488403348504508,0.0006186025144035892,-0.1206050813198089,0.6643989086151123,0.783741295337677,-0.195790633559227,-0.2044702619314193,-0.0204389840364456
1749027131.8157003,-2.8049044182586442,-1.8202038820195765,-0.994588043041749,6.277958165177055,-2.952118186903039,-3.9540426818958694,0.00033771774829920295,-0.002172793558224622,0.0003567531982449178,-0.0009736313293295677,0.0004577224569224639,0.0005497312321833098,-0.1206050813198089,0.6643989086151123,0.783741295337677,-0.195790633559227,-0.2044702619314193,-0.0204389840364456
1749027131.8176985,-2.804906457448354,-1.8202085276202427,-0.9945866943159166,6.27795862469887,-2.9521166511887387,-3.954042512206915,0.00030442905583443885,-0.002311697767708106,0.00035646200811511,-0.0008678432970108875,0.0004249275744590548,0.0004853454836992611,-0.1356090009212494,0.6659479141235352,0.7780677676200867,-0.1900095790624618,-0.1855200380086898,-0.013479858636856
1749027131.8585365,-2.8049086015235103,-1.8202126050973486,-0.9945849999516543,6.277959285584431,-2.9521146594243772,-3.954042229625723,0.00028373928260485117,-0.002482873391909098,0.0003430392668388791,-0.0007458146725832708,0.00038607513594228325,0.00042634727985202994,-0.1348329484462738,0.6502522826194763,0.7747234106063843,-0.1951431334018707,-0.2046107202768325,-0.0171872824430465
1749027131.8586197,-2.804910782041268,-1.820216294376543,-0.9945830760566601,6.277960117747234,-2.9521123136555283,-3.954041780092519,0.0002752895101263678,-0.0026898027767172134,0.0003118344170518851,-0.0006012991972638434,0.00033848165880508325,0.00037371032090328325,-0.1250450164079666,0.6651665568351746,0.7677337527275085,-0.1916154325008392,-0.1972982734441757,-0.0191786587238311
1749027131.858688,-2.8049129465173417,-1.8202198396043667,-0.9945810652860602,6.2779611210013755,-2.952109734725971,-3.9540411287724657,0.0002778667085292095,-0.002931999293914279,0.00025955507521736886,-0.0004300477240029234,0.0002813425079196209,0.0003284953419567134,-0.1165274381637573,0.6316457986831665,0.7722504734992981,-0.1802694350481033,-0.205256387591362,-0.0220653414726257
1749027131.858755,-2.804915051899889,-1.8202235291368254,-0.9945791278094124,6.277962320660857,-2.952107043142233,-3.954040264590483,0.0002891714877341838,-0.0032047265954956434,0.0001849947122858073,-0.00023107453451987812,0.00021627133046173694,0.00029183832179814314,-0.1165274381637573,0.6316457986831665,0.7722504734992981,-0.1802694350481033,-0.205256387591362,-0.0220653414726257
1749027131.8588195,-2.804917059063407,-1.8202276710148282,-0.9945774282060631,6.277963758064241,-2.952104339509851,-3.9540392033292098,0.0003056025628151395,-0.003499301508287592,8.971652837777291e-05,-7.834416656122495e-06,0.00014771157320736544,0.0002648949723129655,-0.1230458170175552,0.6198991537094116,0.7499778866767883,-0.160637766122818,-0.2028528302907943,-0.0203882157802581
1749027131.8588865,-2.804918930796835,-1.8202325663220555,-0.9945761190541411,6.277965476617289,-2.952101688470019,-3.954037988522488,0.00032208546592026694,-0.0038039706968758624,-2.137653609699847e-05,0.00023083429042087712,8.317335703282146e-05,0.000248729811045155,-0.1182065159082412,0.6093375086784363,0.7415410876274109,-0.1638897806406021,-0.1908945888280868,-0.0366145074367523
1749027131.8589418,-2.8049206343448443,-1.8202384827585167,-0.9945753228365247,6.277967504422931,-2.9520991091945206,-3.9540366892219487,0.00033197290289558624,-0.004105243558534454,-0.00013966086690275314,0.0004701429284922907,3.3254483857980575e-05,0.00024414484719627576,-0.087180271744728,0.6470333337783813,0.7231937050819397,-0.149415984749794,-0.1770638972520828,-0.0350374579429626
1749027131.8589816,-2.804922147925045,-1.820245630489103,-0.9945751143962506,6.2779698350905875,-2.9520965737091753,-3.9540353940897677,0.00032704048369654285,-0.004389467291909938,-0.000252674048467058,0.0006892888565843777,1.14144245245101e-05,0.00025145111465729156,-0.1238302290439605,0.6395276188850403,0.7342596054077148,-0.1379578709602356,-0.1813774853944778,-0.0379241108894348
1749027131.8590453,-2.804923469383448,-1.8202541419861933,-0.9945755062626093,6.2779724088249536,-2.9520940124169326,-3.9540342021045984,0.00029759489492773975,-0.004644379233542022,-0.00034432327125186044,0.0008619937050875425,3.348525194589439e-05,0.0002701953445705556,-0.1369011998176574,0.6303569078445435,0.7528911232948303,-0.144080251455307,-0.176384761929512,-0.0425953865051269
1749027131.8591006,-2.8049246247117208,-1.820264057300068,-0.9945764387542229,6.27797509626464,-2.9520913247067897,-3.954033211080733,0.00023270263289903455,-0.004860391512437918,-0.00039546422330646234,0.0009577017272571978,0.00011692333006098827,0.0002988630496259069,-0.1360281556844711,0.6522420048713684,0.7437114715576172,-0.1426323354244232,-0.1776943355798721,-0.0338762402534484
1749027131.8591647,-2.804925674528201,-1.8202753161055096,-0.9945777761027387,6.277977687604797,-2.952088391702969,-3.9540325058843457,0.00012053712227432524,-0.005031444018091909,-0.0003848644963300979,0.0009434421190568785,0.00027982871463878107,0.00033458712413763237,-0.1675401628017425,0.6422179937362671,0.7646861672401428,-0.1509890556335449,-0.1671625226736068,-0.0511703789234161
1749027131.8592262,-2.804926717397913,-1.8202877579496917,-0.9945793091565647,6.277979889213601,-2.952085088100187,-3.954032148601551,-5.116840983725218e-05,-0.005155362604214948,-0.0002905263519279753,0.0007862905952497996,0.0005397826214705206,0.0003728966912888596,-0.1675401628017425,0.6422179937362671,0.7646861672401428,-0.1509890556335449,-0.1671625226736068,-0.0511703789234161
1749027131.8592849,-2.8049278896366334,-1.8203011320055529,-0.9945807645547449,6.277981329304579,-2.9520812905535014,-3.9540321728678753,-0.0002945844711176847,-0.005233744043953757,-9.129768555659751e-05,0.0004562849065679752,0.0009125721806609862,0.0004075433651641502,-0.1859607100486755,0.6556072235107422,0.7875322699546814,-0.1711805909872055,-0.1505240350961685,-0.0472720265388488
1749027131.859345,-2.8049293618881657,-1.8203151168857428,-0.9945818195288549,6.27798157334521,-2.95207688103008,-3.9540325839133357,-0.0006211947158958629,-0.0052714486331728065,0.00023134856330723352,-7.043723102746345e-05,0.001410881091672731,0.00043044054194582896,-0.1815459430217743,0.648985743522644,0.7974367737770081,-0.1824376285076141,-0.14724662899971,-0.0553302019834518
1749027131.859408,-2.804931333251313,-1.8203293495501396,-0.9945821207416791,6.277980148778548,-2.9520717447070606,-3.9540333646513,-0.0010411832356939875,-0.005275820648693118,0.0006915313418535811,-0.0008085906475481358,0.0020430237669080507,0.0004317453397564473,-0.2013727128505706,0.6412160396575928,0.8041231036186218,-0.1954775750637054,-0.1486756205558776,-0.0699478238821029
1749027131.8594697,-2.8049340239838934,-1.8203434603284412,-0.9945813050932921,6.277976577353487,-2.9520657633461966,-3.9540344867746713,-0.0015628274711779527,-0.0052557756601124845,0.0012973729638665486,-0.0017611609516343355,0.0028117958279075053,0.00040010231516637314,-0.1851700544357299,0.6501452326774597,0.8621898889541626,-0.2246848344802856,-0.1274451315402984,-0.0808210223913192
1749027131.8595314,-2.8049376677559503,-1.8203571092605508,-0.9945790204783564,6.277970412145748,-2.952058806449317,-3.954035924820918,-0.002191916773357916,-0.005220886702082249,0.002049815187386619,-0.002917690426087856,0.003713517087594406,0.000323053488364837,-0.1851700544357299,0.6501452326774597,0.8621898889541626,-0.2246848344802856,-0.1274451315402984,-0.0808210223913192
1749027131.8595948,-2.8049425040481286,-1.8203700181774445,-0.9945749449509703,6.277961275516009,-2.9520507234799203,-3.954037670733328,-0.002931213916938926,-0.005180570527255172,0.002942028552122279,-0.0042538053932943375,0.004737360280976898,0.00018760165965468414,-0.1851700544357299,0.6501452326774597,0.8621898889541626,-0.2246848344802856,-0.1274451315402984,-0.0808210223913192
1749027131.859651,-2.8049487706920613,-1.8203819937121077,-0.9945688032622954,6.277948893844242,-2.952041340500593,-3.9540397464815196,-0.0037799821192988485,-0.005143433894749247,0.003959538369817138,-0.005732257537350712,0.005865079738377608,-1.9104186696219243e-05,-0.2537585198879242,0.6571378707885742,0.8435558080673218,-0.2834022641181946,-0.0988150611519813,-0.0897203832864761
1749027131.8597033,-2.804956696021053,-1.8203929385095015,-0.9945603800326209,6.277933124754238,-2.9520304635493897,-3.9540422126647115,-0.004733605447324002,-0.005116803583859464,0.005081083734195415,-0.007305569945952861,0.007071257281020807,-0.00030900804201274733,-0.2537585198879242,0.6571378707885742,0.8435558080673218,-0.2834022641181946,-0.0988150611519813,-0.0897203832864761
1749027131.8598452,-2.804966490082795,-1.8204028504791991,-0.9945495289525654,6.277913972775166,-2.952017889332943,-3.9540451717456944,-0.00578333024727282,-0.005106439374414543,0.006280108557442297,-0.008920136723317325,0.008324153533864748,-0.0006923661193910496,-0.2712225317955017,0.6576802134513855,0.8812682628631592,-0.2748819589614868,-0.0932857617735862,-0.1224068701267242
1749027131.8617346,-2.8049783351339923,-1.8204118121680282,-0.9945361775294058,6.277891590306225,-2.9520034220001294,-3.954048765755629,-0.006916157156866727,-0.005116414607126698,0.007526706418292637,-0.010521372501804946,0.009587195798627875,-0.0011769999207617494,-0.2886434197425842,0.6774465441703796,0.9050960540771484,-0.2948042452335357,-0.0831429585814476,-0.1069576293230056
1749027131.9023104,-2.8049923768176708,-1.82041997371061,-0.9945203270466396,6.277866262445261,-2.951986893448521,-3.9540531696689074,-0.008114925580457422,-0.005149140195948869,0.008789826439016157,-0.012059302412184137,0.010821061043863952,-0.0017676209880377993,-0.3111066222190857,0.6563267111778259,0.91115802526474,-0.2978081703186035,-0.0934929177165031,-0.136308804154396
1749027131.902356,-2.805008718060085,-1.8204275331331774,-0.9945020475604268,6.277838376316601,-2.95196818405296,-3.9540585823840004,-0.00935864711291445,-0.005205502809160259,0.01003956549199992,-0.013493868051360167,0.011986233878938725,-0.0024652381329427144,-0.3041462898254394,0.6621475219726562,0.9094563126564026,-0.2709985971450805,-0.0780299976468086,-0.1323529481887817
1749027131.9023964,-2.8050274171565395,-1.8204347171200272,-0.9944814679866818,6.277808377521538,-2.9519472407067027,-3.9540652168505734,-0.01062314296945581,-0.005285085140184623,0.011249380410617639,-0.01479922729108086,0.013045845905253378,-0.003266636152014279,-0.2766125798225403,0.6523281931877136,0.9161415696144104,-0.2797560691833496,-0.0813298597931861,-0.1140875741839408
1749027131.9024353,-2.8050484900233914,-1.8204417641256843,-0.9944587617835721,6.277776718120062,-2.9519240893087395,-3.9540732898005184,-0.011882013303992264,-0.005386435645313972,0.012398045530734349,-0.01596645445500863,0.01396855159714109,-0.004163922133758462,-0.2905789613723755,0.6555176973342896,0.9238343238830566,-0.2815871834754944,-0.0500882342457771,-0.1373821496963501
1749027131.9024727,-2.805071915025333,-1.8204489105495782,-0.9944341293900104,6.277743802102534,-2.9518988393272334,-3.9540830107226053,-0.013107920085535237,-0.005507358590534144,0.01347117773612029,-0.017004287194878422,0.014731178644555013,-0.005144178327068426,-0.3151260614395141,0.6539304852485657,0.9588120579719543,-0.2913824915885925,-0.0410518907010555,-0.1622159779071808
1749027131.902511,-2.805097637914032,-1.8204563800425273,-0.9944077791562759,6.2777099351950545,-2.951871679057771,-3.9540945696651923,-0.014274114962262932,-0.005645204209611748,0.014462171089719754,-0.017937870586853127,0.015320903972386895,-0.006189315439781371,-0.3151260614395141,0.6539304852485657,0.9588120579719543,-0.2913824915885925,-0.0410518907010555,-0.1622159779071808
1749027131.9025488,-2.8051255746707424,-1.8204643758917256,-0.994379908647527,6.277675285401892,-2.951842861570232,-3.954108123947812,-0.01535610090981296,-0.005797150001432202,0.015372429464831952,-0.018805746354191147,0.0157367380415741,-0.0072762511411696255,-0.3160368800163269,0.6798800230026245,0.9299449920654296,-0.2980808317661285,-0.0730571746826171,-0.1538828313350677
1749027131.902587,-2.805155611395719,-1.8204730764420312,-0.994350687821469,6.277639858750906,-2.951812682584492,-3.954123784476549,-0.016333285503437673,-0.0059604696732784785,0.016210855321260553,-0.019655559037787308,0.01599014354806385,-0.008377525827611256,-0.3058523535728454,0.6685887575149536,0.9418689608573914,-0.3185783326625824,-0.0583713799715042,-0.1672332882881164
1749027131.9026246,-2.8051876022034983,-1.8204826332667101,-0.9943202449669648,6.277603491966372,-2.951781452338736,-3.9541416028873027,-0.01719046308732446,-0.00613278070050421,0.016992639472118126,-0.02053906981889534,0.016104676128002034,-0.00946241565623587,-0.3357384204864502,0.6664952039718628,0.9496117830276488,-0.3267753422260284,-0.0457654893398284,-0.1670461893081665
1749027131.9026618,-2.8052213674461597,-1.820493171299277,-0.9942886558337902,6.277565861290681,-2.95174946416452,-3.9541615612038266,-0.017918952897596208,-0.0063122493285645825,0.017737488275636128,-0.021507088866910568,0.016114620961971183,-0.010498528904438099,-0.2722937762737274,0.6536798477172852,0.9713730216026306,-0.3603321313858032,-0.0457268133759498,-0.1727129220962524
1749027131.9027,-2.8052566949428615,-1.8205047897464515,-0.9942559361808896,6.277526504947499,-2.9517169632110227,-3.954183566012619,-0.018517229928481455,-0.006497723855736541,0.018467504128795623,-0.02260488220408716,0.016062703563530876,-0.011453795848268465,-0.2722937762737274,0.6536798477172852,0.9713730216026306,-0.3603321313858032,-0.0457268133759498,-0.1727129220962524
1749027131.9027374,-2.805293346306634,-1.8205175626301147,-0.9942220378689781,6.277484855649099,-2.951684119251697,-3.95420744900796,-0.01899093171399693,-0.006688770692934068,0.019204984063317856,-0.023868503623985748,0.015997055256877783,-0.012298700778838663,-0.2792899906635284,0.6479312181472778,0.9756011962890624,-0.3592357933521271,-0.0506949760019779,-0.1743363142013549
1749027131.9027746,-2.805331069234206,-1.8205315382035487,-0.9941868485921104,6.277440278908903,-2.951651007191255,-3.954232974902577,-0.019352213265446283,-0.006885602576298545,0.019970405837537116,-0.02532236594388163,0.01596769480299038,-0.013008564577357946,-0.2990864813327789,0.6630713939666748,0.9837183356285096,-0.3690282702445984,-0.0607279948890209,-0.1435348689556121
1749027131.902812,-2.805369614982883,-1.8205467370366888,-0.9941501954828221,6.27739211291337,-2.9516175977029695,-3.954259856302132,-0.01961853461004872,-0.007088908551499728,0.02078082799027582,-0.026978210085552977,0.01602283936838179,-0.013565663635503664,-0.2994482815265655,0.6596801280975342,0.9847920536994934,-0.3856491446495056,-0.031764842569828,-0.1634625196456909
1749027131.9028497,-2.8054087584943037,-1.8205631491360241,-0.9941118530440488,6.277339706580025,-2.9515837589217058,-3.9542877737190283,-0.019811062324020284,-0.007299613632942779,0.021648849617164036,-0.028835460266424164,0.01620537871227976,-0.013960960431345757,-0.2950413823127746,0.6494869589805603,0.9933498501777648,-0.4119948744773865,-0.0019996315240859,-0.1593490988016128
1749027131.902887,-2.805448317373598,-1.820580730943004,-0.9940715558207114,6.277282453871766,-2.9515492688377587,-3.9543163979919163,-0.019952915430193424,-0.0075186065684274845,0.022582178146577148,-0.03088278182193183,0.016549833840570984,-0.014195228947208002,-0.2950413823127746,0.6494869589805603,0.9933498501777648,-0.4119948744773865,-0.0019996315240859,-0.1593490988016128
1749027131.9029243,-2.805488165943223,-1.8205994032857344,-0.9940290156633464,6.277219823547271,-2.951513836990915,-3.954345412317942,-0.02006747905514192,-0.0077464750453467065,0.023583764429828884,-0.03310051470220846,0.017080074067086625,-0.014279397746722678,-0.3249663114547729,0.6467157602310181,1.001022458076477,-0.399441123008728,-0.0094922073185443,-0.1538324058055877
1749027131.9029624,-2.805528242006635,-1.820619051263034,-0.9939839424681132,6.277151383624574,-2.9514771329763154,-3.9543745318513515,-0.020176960798639634,-0.00798328144717884,0.0246524011868801,-0.03546357363943899,0.017807987308060488,-0.014234007617408713,-0.280504435300827,0.6256295442581177,1.0054558515548706,-0.4193046987056732,-0.0047254748642444,-0.1572282910346985
1749027131.903,-2.805568545977551,-1.8206395266687971,-0.9939360663439615,6.277076819265417,-2.9514388182142888,-3.9544035198437597,-0.02030129719711881,-0.008228403308083611,0.02578364518211783,-0.03794439721452069,0.018733196890299255,-0.014087778573225495,-0.2869757413864136,0.6354244351387024,1.0270408391952517,-0.4434910118579864,-0.005099169909954,-0.1532359421253204
1749027131.9030366,-2.8056091335951945,-1.820660653120115,-0.9938851586336684,6.276995942538553,-2.9513985769197113,-3.9544321999274805,-0.020457450320338952,-0.0084804540418822,0.026970909835940866,-0.04051557866887315,0.019843809676803124,-0.013875391101870325,-0.2900128066539764,0.653744637966156,1.0247756242752075,-0.4323178827762604,0.0201664343476295,-0.1423203200101852
1749027131.9037428,-2.8056501041784374,-1.8206822337968487,-0.993831049147206,6.276908693065009,-2.951356142552986,-3.9544604642142365,-0.020659079231268654,-0.008737291215817502,0.028206581228754933,-0.0431518997472262,0.021118078805046087,-0.013634696998331879,-0.3042760193347931,0.6599259972572327,1.0208098888397217,-0.4537070691585541,0.026974506676197,-0.1483021229505539
1749027131.9056802,-2.805691586628164,-1.8207040616188996,-0.9937736373019767,6.276815129499107,-2.9513113169741487,-3.954488276819263,-0.02091653113529425,-0.008996108950471586,0.029483035891843593,-0.04583159742701263,0.022526775728833486,-0.013403663825712167,-0.2904050052165985,0.6493510603904724,1.035202145576477,-0.4569596946239471,0.0154200494289398,-0.1438381075859069
1749027131.9463322,-2.8057337255126917,-1.8207259314361264,-0.9937128956384188,6.276715412660321,-2.95126398061345,-3.954515672582391,-0.021237071526005017,-0.009253597395174895,0.030793475568109976,-0.048536806425975694,0.02403599710735128,-0.01321739701187045,-0.3019930720329284,0.6523656845092773,1.0534660816192627,-0.4473082721233368,0.0242412239313125,-0.158442348241806
1749027131.9463782,-2.8057766694211153,-1.8207476532343874,-0.9936488652689142,6.27660978191468,-2.951214093089336,-3.9545427510931224,-0.02162526042409078,-0.00950614060083701,0.03213252868334698,-0.05125322597033109,0.02561009889385865,-0.013105563891374558,-0.2748050987720489,0.6533830761909485,1.0558143854141235,-0.4528568983078003,0.0104702115058898,-0.1523495614528656
1749027131.94642,-2.8058205630235507,-1.8207690647881534,-0.9935816439030375,6.276498527346229,-2.951161684902304,-3.954569666510752,-0.02208338077239262,-0.009750020787712414,0.03349659070726484,-0.05396915407382395,0.027214467522439015,-0.013090477494555618,-0.3238152861595154,0.6405217051506042,1.0591681003570557,-0.4968211948871612,0.0494962185621261,-0.1627104878425598
1749027131.94646,-2.8058655430487036,-1.8207900420077594,-0.9935113679676374,6.276381961160936,-2.9511068419540303,-3.954596614110407,-0.02261183280633497,-0.009981603189927083,0.03488388733313036,-0.05667411706581158,0.02881790214400135,-0.013186005836715562,-0.3238152861595154,0.6405217051506042,1.0591681003570557,-0.4968211948871612,0.0494962185621261,-0.1627104878425598
1749027131.9464996,-2.805911737334202,-1.820810505610117,-0.9934381908920361,6.276260391857932,-2.951049685227371,-3.95462381492293,-0.023209428185675108,-0.010197487354861038,0.036294258336229644,-0.05935738748637728,0.030394471145329137,-0.0133973684326553,-0.3170130550861358,0.640937089920044,1.067832589149475,-0.4844656884670257,0.062543511390686,-0.1700856685638427
1749027131.9465394,-2.8059592658198884,-1.8208304236774888,-0.9933622596942515,6.276134103448368,-2.9509903476910657,-3.954651500083731,-0.0238735559286981,-0.01039462264103753,0.03772868806812593,-0.06200670537100511,0.031924793630042435,-0.013721773532910963,-0.2930719256401062,0.6408742666244507,1.0741580724716189,-0.4860522747039795,0.0580116659402847,-0.1647814065217971
1749027131.946578,-2.806008242699451,-1.8208498107975104,-0.9932836917573238,6.276003340122354,-2.9509289498362303,-3.9546798964448966,-0.024600242250418156,-0.010570393497539755,0.03918864579528118,-0.06460747333293046,0.03339675538632344,-0.014149749406881101,-0.3132497370243072,0.6385242938995361,1.0680681467056274,-0.5028022527694702,0.0507164448499679,-0.1603862345218658
1749027131.946617,-2.8060587792026195,-1.8208687250825861,-0.9932025537745618,6.275868295886314,-2.9508655752908877,-3.9547092146838696,-0.025384166414941102,-0.010722682820258385,0.04067532723795553,-0.06714259067887648,0.03480568405989062,-0.014666948191466418,-0.3722319900989532,0.6240443587303162,1.093535304069519,-0.4824283123016357,0.0764622390270233,-0.1554428189992904
1749027131.9466546,-2.8061109862396916,-1.820887264098213,-0.9931188455418026,6.2757291094775205,-2.9508002490349248,-3.954739640662718,-0.026218707056231246,-0.010849922070840349,0.042188898015132266,-0.06959296421374024,0.036153993245120114,-0.015256164860411382,-0.3722319900989532,0.6240443587303162,1.093535304069519,-0.4824283123016357,0.0764622390270233,-0.1554428189992904
1749027131.946692,-2.8061649757308764,-1.8209055600563995,-0.9930324918429755,6.27558586603029,-2.9507329217393026,-3.9547713302140184,-0.027096079717320563,-0.010951137626457847,0.04372783621422203,-0.07193862674231599,0.037450298303169455,-0.015899319723579247,-0.3446541130542755,0.6343787908554077,1.096890926361084,-0.4907242655754089,0.0651629418134689,-0.1837078183889389
1749027131.9467297,-2.8062208593774356,-1.8209237741681292,-0.9929433451531278,6.275438606851556,-2.9506634633713182,-3.954804406917812,-0.02800759844674263,-0.011026002089916507,0.04528846092835598,-0.07416032901854178,0.03870803835809737,-0.016579192772241687,-0.3166532814502716,0.6134963631629944,1.1041722297668457,-0.4817545115947723,0.0720623582601547,-0.1631208211183548
1749027131.946767,-2.80627874401091,-1.8209420898498334,-0.9928512002139903,6.275287347116803,-2.950591667480029,-3.954838961927588,-0.028944061126379324,-0.011074893555692345,0.04686471424141403,-0.07624143666529803,0.039943702898730615,-0.01728075802982281,-0.3166532814502716,0.6134963631629944,1.1041722297668457,-0.4817545115947723,0.0720623582601547,-0.1631208211183548
1749027131.9468043,-2.806338723345101,-1.8209607043538973,-0.9927558193599233,6.275132099222768,-2.950517265587285,-3.954875054713008,-0.02989622832813859,-0.01109895583009945,0.048448237918321424,-0.0781699369379747,0.04117482364560371,-0.017992033368067945,-0.3293439447879791,0.5950989127159119,1.0990452766418457,-0.4675695896148681,0.0952312499284744,-0.1902295500040054
1749027131.9468412,-2.8064008669189824,-1.8209798184401658,-0.9926569653062016,6.274972897503026,-2.950439949675371,-3.954912713863091,-0.030855349337549194,-0.011100142086292869,0.050028762947857686,-0.07994033231580877,0.04241792323288,-0.018704430289668835,-0.361284077167511,0.6173412203788757,1.105060577392578,-0.45561683177948,0.0931081920862197,-0.1841896325349807
1749027131.946879,-2.8064652081122468,-1.8209996240655526,-0.9925544363962064,6.2748098185965935,-2.950359400037585,-3.954951937702372,-0.03181368746740619,-0.011081216703336165,0.05159480941639294,-0.08155518179643904,0.043686604552896004,-0.019412654431312116,-0.340840607881546,0.6064819097518921,1.0870952606201172,-0.4533815383911133,0.0925256013870239,-0.2000849992036819
1749027131.946916,-2.8065317339151283,-1.8210202905693003,-0.9924480985969042,6.274642991999882,-2.9502753156191868,-3.954992695070385,-0.03276499780566106,-0.011045688993744012,0.0531346595887684,-0.08302606638337248,0.0449899304529754,-0.020114259913110742,-0.3240827620029449,0.6089971661567688,1.0886229276657104,-0.4655481576919555,0.0942348092794418,-0.1673841178417205
1749027131.9469533,-2.8066003792950616,-1.8210419502423867,-0.9923379090439531,6.274472597605162,-2.950187444169544,-3.955034927004346,-0.033704905898846255,-0.010997662201131627,0.05463751125938178,-0.08437380902524114,0.04633120601417745,-0.02080898635892999,-0.3275692760944366,0.6002333164215088,1.0981557369232178,-0.4609599709510803,0.0885780900716781,-0.203068196773529
1749027131.9469905,-2.8066710284969716,-1.8210646844772271,-0.9922239273434339,6.274298850344274,-2.9500956097347424,-3.9550785502335097,-0.03463113237270417,-0.01094160080371242,0.05609465911571757,-0.08562784966478142,0.04770725569932977,-0.021498003973142908,-0.3549167811870575,0.6117072701454163,1.0900171995162964,-0.4717223644256592,0.1105485558509826,-0.1735599637031555
1749027131.947027,-2.80674352456991,-1.8210885119372349,-0.9921063127292963,6.274121975019343,-2.9499997351056244,-3.9551234632530403,-0.035543515561905034,-0.010882041710923426,0.0575005178437886,-0.08682473130647543,0.04910828520779898,-0.022183169016753632,-0.3283552229404449,0.6070935130119324,1.0857300758361816,-0.430171936750412,0.1117679998278617,-0.1742725074291229
1749027131.9470634,-2.8068176869371535,-1.8211133803192296,-0.9919853073401957,6.2739421762319605,-2.949899856956916,-3.9551695551631694,-0.03644380178915297,-0.010823291561581462,0.058853311528446105,-0.08800569704798616,0.05051840654922454,-0.022866361221608292,-0.3075817823410034,0.5911519527435303,1.0778260231018066,-0.4511734843254089,0.131490409374237,-0.1712924689054489
1749027131.9477131,-2.806893335024712,-1.821139163230847,-0.9918612081759298,6.2737596090241565,-2.949796131850897,-3.9552167165238896,-0.037335200784314196,-0.010769157111618854,0.06015530753178995,-0.0892134775608082,0.0519168523460164,-0.023548944120450107,-0.3618808090686798,0.6220459938049316,1.0681114196777344,-0.4783525466918945,0.1214406490325927,-0.1924844235181808
1749027131.9497445,-2.8069703142083866,-1.8211656633950357,-0.9917343323844907,6.2735743557258905,-2.949688832090089,-3.9552648505530263,-0.03822174804923472,-0.010722747331678266,0.061412547220018876,-0.09048849381560518,0.053279806255831334,-0.024231365427320448,-0.3618808090686798,0.6220459938049316,1.0681114196777344,-0.4783525466918945,0.1214406490325927,-0.1924844235181808
1749027131.9903,-2.807048519393034,-1.8211926227774753,-0.9916049816880905,6.273386413469245,-2.9495783312718844,-3.955313882591631,-0.03910756897155078,-0.010686367934489176,0.06263409970198897,-0.09186487383909497,0.05458266821201958,-0.02491290284817083,-0.3364110589027405,0.6038833260536194,1.09517502784729,-0.4777799844741821,0.1369343698024749,-0.1802121549844741
1749027131.9903464,-2.8071279119214916,-1.8212197393351335,-0.9914734113684122,6.273195694625786,-2.949465080082441,-3.955363766249506,-0.03999616853525274,-0.010661508618688295,0.06383093369062379,-0.09336680700604176,0.05580251275688524,-0.02559155957560052,-0.332867681980133,0.5997536182403564,1.0839146375656128,-0.5076094269752502,0.1399829089641571,-0.1843899935483932
1749027131.990395,-2.80720852689352,-1.8212466890345362,-0.9913398076671613,6.273002039618322,-2.9493495736018427,-3.955414485889524,-0.04088985325535105,-0.010648906976572382,0.06501456289325733,-0.09500578269934806,0.05692051061039261,-0.026264113283895586,-0.332867681980133,0.5997536182403564,1.0839146375656128,-0.5076094269752502,0.1399829089641571,-0.1843899935483932
1749027131.99044,-2.807290469731867,-1.8212731508910573,-0.9912042756768912,6.272805239208426,-2.9492323123646322,-3.955466056401082,-0.04178935064326762,-0.010648664507108935,0.06619565605283263,-0.09677918077048649,0.0579241331896075,-0.026926313596674963,-0.3254275918006897,0.6080591678619385,1.0901721715927124,-0.4883582293987274,0.1286718100309372,-0.1792513132095337
1749027131.9904802,-2.8073739027596614,-1.8212988323893593,-0.9910668382253914,6.272605061954718,-2.9491137603244564,-3.9555185217284223,-0.04269366529260064,-0.010660390488638025,0.06738280107831723,-0.09867052024490183,0.058808985762429024,-0.027573207112465054,-0.3712559342384338,0.6193835735321045,1.0898659229278564,-0.5104753971099854,0.1164390817284584,-0.173253521323204
1749027131.9905183,-2.8074590243601465,-1.8213234927913275,-0.9909274450435905,6.272401282362664,-2.94899430361905,-3.955571952991935,-0.043600201439274955,-0.010683356977272062,0.06858157449103566,-0.10065144858306668,0.05958008890672322,-0.02819955507227356,-0.3344504833221435,0.5989508628845215,1.053882718086243,-0.5183418989181519,0.1041384115815162,-0.1992264091968536
1749027131.990556,-2.8075460442049076,-1.8213469622040022,-0.9907859910683766,6.272193706639065,-2.9488742149726503,-3.95562644567392,-0.044505153643747575,-0.010716658557732201,0.06979400387293211,-0.10268529164682372,0.06025238184507696,-0.02880030255156457,-0.3307247757911682,0.6030516624450684,1.0759587287902832,-0.5212736129760742,0.0904945507645607,-0.1888250559568405
1749027131.990593,-2.807635157794259,-1.8213691546601118,-0.9906423427851219,6.271982194956642,-2.9487536292710197,-3.9556821142822107,-0.045404103331754445,-0.010759378197829739,0.07101844656939553,-0.10473173241271076,0.060850219590154554,-0.029371057260115307,-0.3307247757911682,0.6030516624450684,1.0759587287902832,-0.5212736129760742,0.0904945507645607,-0.1888250559568405
1749027131.9906309,-2.8077265229389656,-1.821390073969071,-0.9904963707663305,6.271766679635551,-2.9486325349051326,-3.955739083075123,-0.046292694761228,-0.010810761695894105,0.07224986809858842,-0.1067520019063682,0.06140572522409881,-0.02990853395138809,-0.346899926662445,0.5899444222450256,1.092280387878418,-0.5183380842208862,0.0851214155554771,-0.1873335242271423
1749027131.9906688,-2.8078202404946753,-1.8214098118236555,-0.9903479845903393,6.271547177261798,-2.9485107825218324,-3.9557974727347145,-0.047167246303633475,-0.01087039718738295,0.0734804826313472,-0.10871387982974075,0.061956037294085296,-0.030410913112185283,-0.3540744483470917,0.5999067425727844,1.049782156944275,-0.4989076256752014,0.1392014324665069,-0.1615068614482879
1749027131.9907062,-2.8079163413753507,-1.8214285384748077,-0.9901971645219371,6.271323791572382,-2.9483881093826403,-3.9558573843331217,-0.048025184991595,-0.010938386197580714,0.07470068587429099,-0.1105958107751992,0.0625397101758866,-0.030878052765426142,-0.3540744483470917,0.5999067425727844,1.049782156944275,-0.4989076256752014,0.1392014324665069,-0.1615068614482879
1749027131.9907598,-2.8080147813204963,-1.821446487128199,-0.9900439839910223,6.2710967044614145,-2.9482641751895886,-3.9559188828164213,-0.04886524298452685,-0.01101548418042309,0.07590016483494177,-0.1123895394024657,0.06319270606371115,-0.031311491365052645,-0.3450819253921509,0.5967788100242615,1.0405811071395874,-0.4827553033828735,0.1296471804380417,-0.1671855449676513
1749027131.9908044,-2.8081154443486476,-1.8214639341061978,-0.9898886177568823,6.270866153997919,-2.9481386040829674,-3.95598198260946,-0.049687403943011,-0.011103185435379286,0.07706904093566073,-0.11410086193306078,0.06394449878830885,-0.03171420399289325,-0.3526174426078796,0.5723639726638794,1.0307832956314087,-0.5126461386680603,0.131010502576828,-0.1523419767618179
1749027131.9908433,-2.8082181553250765,-1.8214811775427289,-0.9897313322836905,6.270632400185645,-2.9480110271703994,-3.9560466380348798,-0.05049263529919401,-0.011203730174665865,0.07819891340802826,-0.11574836534459108,0.0648147817610129,-0.03209012873324855,-0.3640172481536865,0.6079908013343811,1.0417927503585815,-0.4710632562637329,0.1411594599485397,-0.1688036322593689
1749027131.9908838,-2.808322701011386,-1.8214985174503182,-0.9895724578146523,6.270395681917363,-2.9478811205800146,-3.9561127408442474,-0.051282486459992276,-0.011320019349541261,0.07928370778401236,-0.11736032440523093,0.06581117401649561,-0.03244354954123096,-0.3485381305217743,0.5405293107032776,1.0517637729644775,-0.5138749480247498,0.1578162610530853,-0.1672646105289459
1749027131.990924,-2.8084288570871703,-1.8215162392636848,-0.9894123459475923,6.270156172145553,-2.9477486356374625,-3.9561801261053087,-0.05205866076845783,-0.011455437063397174,0.0803202781097823,-0.11897019604343265,0.0669281928326391,-0.03277847763154988,-0.3485381305217743,0.5405293107032776,1.0517637729644775,-0.5138749480247498,0.1578162610530853,-0.1672646105289459
1749027131.9909704,-2.8085364167278764,-1.821534601835237,-0.9892513204740686,6.269913940828386,-2.9476134195386843,-3.956248586255965,-0.05282266882236932,-0.011613602088919461,0.08130874764632852,-0.12061135928548967,0.06814762315726891,-0.03309818783011844,-0.351585179567337,0.5490944385528564,1.038087248802185,-0.5141110420227051,0.1591394543647766,-0.1756265461444854
1749027131.9910326,-2.808645215656161,-1.8215538298292437,-0.9890896307086683,6.269668934586887,-2.947475425928043,-3.9563178917964485,-0.05357563836168764,-0.011798092090849662,0.08225259741232419,-0.12231186959906415,0.06944026228526515,-0.03340502546084022,-0.351585179567337,0.5490944385528564,1.038087248802185,-0.5141110420227051,0.1591394543647766,-0.1756265461444854
1749027131.9910913,-2.8087551497119407,-1.821574109767247,-0.9889274150004741,6.269420977999829,-2.947334714995009,-3.956387816096843,-0.054318298965902644,-0.012012192663037241,0.08315852641603702,-0.12409000841632176,0.07076886346889265,-0.03370051537783824,-0.3152272403240204,0.5572778582572937,1.0534285306930542,-0.5369728803634644,0.1653908491134643,-0.1731333136558532
1749027131.9911313,-2.808866183190797,-1.8215955887197075,-0.988764679041674,6.269169796044857,-2.9471914427741783,-3.9564581610936242,-0.05505110074196619,-0.012258710261737658,0.08403611255887813,-0.12595131854094524,0.07209196493586288,-0.033985712836938825,-0.370811402797699,0.5343858003616333,1.0447605848312378,-0.5604323744773865,0.1584096699953079,-0.1774667650461197
1749027131.9917517,-2.8089783481343353,-1.8216183748463628,-0.9886012908528709,6.268915052866289,-2.947045840018808,-3.956528780130937,-0.05577439389586779,-0.012539859608716382,0.08489729899986283,-0.1278876376729691,0.0733681855824347,-0.034261671291097515,-0.370811402797699,0.5343858003616333,1.0447605848312378,-0.5604323744773865,0.1584096699953079,-0.1774667650461197
1749027131.993676,-2.809091735631826,-1.82164253945174,-0.988436992512086,6.2686563998329,-2.946898182335458,-3.9565995940992393,-0.05648860323103746,-0.012857206521888256,0.08575572293953061,-0.12987837041512557,0.07456050524101628,-0.03452988265845113,-0.3383934795856476,0.5448724627494812,1.044013500213623,-0.5668972730636597,0.1542936712503433,-0.1694674491882324
1749027132.038298,-2.8092064802564303,-1.8216681205010192,-0.9882714270678965,6.2683935251858784,-2.946748754670222,-3.956670597812509,-0.05719436067939375,-0.013211628821606423,0.08662590253723629,-0.1318938778610309,0.07564004070544077,-0.0347925707604317,-0.336063951253891,0.5343496799468994,1.0473337173461914,-0.5572493672370911,0.1335190832614898,-0.1766836792230606
1749027132.038344,-2.8093227387599864,-1.821695127336445,-0.9881041771601773,6.268126197920444,-2.946597814410299,-3.9567418552700606,-0.057892581570682895,-0.013603256899847455,0.08752230927684297,-0.13390046644183948,0.07658888969538284,-0.03505277447827368,-0.336063951253891,0.5343496799468994,1.0473337173461914,-0.5572493672370911,0.1335190832614898,-0.1766836792230606
1749027132.0383842,-2.8094406647433705,-1.8217235458945356,-0.9879348100282684,6.267854299713557,-2.9464455580564626,-3.956813484515171,-0.05858447955099992,-0.014031372438822135,0.0884583802858117,-0.13586612156087455,0.0774017370651353,-0.03531422117559637,-0.326665312051773,0.5461557507514954,1.0743424892425537,-0.5163301229476929,0.1309788674116134,-0.1488743871450424
1749027132.038423,-2.809560382367461,-1.821753343648173,-0.9877629221577443,6.2675778401315965,-2.946292095955677,-3.9568856347969867,-0.059271524188375106,-0.014494273856784807,0.08944556828831629,-0.13776595506419237,0.0780860781553131,-0.03558104217575694,-0.3226034045219421,0.524561882019043,1.0828707218170166,-0.4960028827190399,0.1229551881551742,-0.1679935604333877
1749027132.0384617,-2.8096819635177726,-1.8217844740038598,-0.9875881761495355,6.267296951803115,-2.9461374378384995,-3.9569584604731713,-0.059955360603622464,-0.014989148531690756,0.09049256985091468,-0.1395863730661289,0.0786610826360077,-0.035857412196689004,-0.3097944259643554,0.5309906601905823,1.0965251922607422,-0.5256011486053467,0.1129597127437591,-0.188098520040512
1749027132.038504,-2.809805412991399,-1.8218168805195079,-0.9874103233061086,6.267011864523763,-2.945981489995183,-3.9570320971375184,-0.06063772397652162,-0.015512010780841353,0.09160488057233936,-0.1413272143887115,0.07915527144687037,-0.03614720621758748,-0.3369693458080292,0.5159980058670044,1.110481023788452,-0.4796035289764404,0.0940814018249511,-0.1952455341815948
1749027132.0385427,-2.8099306648817497,-1.821850501507656,-0.9872292083514027,6.2667228608423295,-2.9458240638188715,-3.9571066452782757,-0.06132038586755272,-0.01605776293421227,0.09278477549626288,-0.1430015035210579,0.07960329949650727,-0.03645376043847339,-0.347784161567688,0.5244690179824829,1.09348726272583,-0.4873238801956177,0.1227879598736763,-0.194136768579483
1749027132.038581,-2.810057591030658,-1.8218852752638937,-0.9870447569361475,6.266430219867241,-2.945664894983279,-3.957182165134469,-0.06200516189712804,-0.016620413726455757,0.09403171331144716,-0.14463292739272687,0.08004222826677104,-0.03677979288756354,-0.3359176516532898,0.5089391469955444,1.080699443817139,-0.5241663455963135,0.1291219145059585,-0.1955812275409698
1749027132.0386183,-2.8101860198596076,-1.8219211455763418,-0.9868569509087568,6.266134159817591,-2.945503672205787,-3.95725868347224,-0.06269398836494466,-0.017193447736880786,0.09534304382138559,-0.1462515962242724,0.0805077251128032,-0.037127486598125724,-0.3598092198371887,0.5506633520126343,1.105060338973999,-0.5624492168426514,0.1513438373804092,-0.1954343169927597
1749027132.0386558,-2.8103157615062395,-1.8219580665684714,-0.9866657995925492,6.265834792187425,-2.9453400741079645,-3.957336209384527,-0.06338903694608695,-0.017770292980248247,0.09671479825816283,-0.1478889848078299,0.08103061886003395,-0.03749868563558504,-0.3598092198371887,0.5506633520126343,1.105060338973999,-0.5624492168426514,0.1513438373804092,-0.1954343169927597
1749027132.038694,-2.8104466336517655,-1.8219960055263726,-0.9864713163540076,6.2655320998165,-2.9451738117539477,-3.9574147532193313,-0.06409279429052617,-0.01834479973417012,0.09814230484079371,-0.14957307545812515,0.0816341672332317,-0.03789512831382126,-0.3228404819965362,0.5073528289794922,1.100007176399231,-0.5640921592712402,0.1305113732814788,-0.2010740935802459
1749027132.038731,-2.810578482520897,-1.8220349424520004,-0.9862735077939105,6.265225946424466,-2.945004672678555,-3.9574943418389537,-0.06480801519586049,-0.01891163787466356,0.09962042759509106,-0.15132460356959326,0.0823322731360569,-0.03831865137048578,-0.3228404819965362,0.5073528289794922,1.100007176399231,-0.5640921592712402,0.1305113732814788,-0.2010740935802459
1749027132.0387683,-2.8107111954516024,-1.8220748657833645,-0.9860723782780262,6.264916116801079,-2.9448325599805973,-3.9575750251642754,-0.06553748525979382,-0.019466541888720986,0.10114336370230217,-0.15315499331561797,0.08312876468308933,-0.03877132807291038,-0.331445962190628,0.5364513993263245,1.101870059967041,-0.5522804260253906,0.1713501811027526,-0.2122421562671661
1749027132.0388055,-2.8108447044842153,-1.8221157648065172,-0.9858679468204417,6.264602377533916,-2.944657518561427,-3.9576568725245598,-0.06628359593278216,-0.020006368286218535,0.10270409833300354,-0.15506615779442795,0.08401775749713945,-0.03925552853531484,-0.3588315844535827,0.5595192909240723,1.1255139112472534,-0.5359522700309753,0.1694269776344299,-0.2056031078100204
1749027132.0388424,-2.8109789834280257,-1.8221576203380954,-0.9856602687298139,6.264284541525783,-2.944479741212825,-3.9577399610728463,-0.06704781206304453,-0.02052896749635008,0.1042937366268205,-0.15705191412729658,0.08498503803342262,-0.03977389981458533,-0.307542085647583,0.5408433675765991,1.1053526401519775,-0.5287779569625854,0.1873864084482193,-0.2044592648744583
1749027132.038879,-2.811114042680836,-1.822200395914658,-0.98544945270355,6.26396251833449,-2.944299550574501,-3.9578243609585293,-0.0678301656711539,-0.02103290909441868,0.10590096435022908,-0.15910041662398852,0.08601030786547424,-0.040329261145726075,-0.3689116537570953,0.5518565773963928,1.1036797761917114,-0.5088515281677246,0.1523540169000625,-0.1803919225931167
1749027132.038916,-2.811249926103693,-1.8222440318233746,-0.9852356655644665,6.263636336838966,-2.9441173581215856,-3.9579101224482005,-0.06862892309054429,-0.021517132762321665,0.10751183183016047,-0.1611968315314091,0.08707000223311585,-0.04092440867362958,-0.3892094790935516,0.5330272912979126,1.0923218727111816,-0.4963580071926117,0.123200312256813,-0.1991912871599197
1749027132.038953,-2.811386712676916,-1.8222884438686928,-0.9850191206049917,6.26330613485064,-2.9439336064737724,-3.957997269030489,-0.06944054635912619,-0.02198061638738483,0.1091099498913594,-0.16332552706842038,0.08814029089671609,-0.04156183430899269,-0.3580745160579681,0.5372524857521057,1.0815597772598269,-0.4853631556034088,0.1213974803686142,-0.2134147733449936
1749027132.03899,-2.811524523207119,-1.822333527852642,-0.9848000503390991,6.262972119380405,-2.94374870492173,-3.958085798342484,-0.07026000594313922,-0.022422144834618025,0.11067708153766415,-0.16547132021008942,0.08919985007136735,-0.04224338547327556,-0.4092006683349609,0.5524935126304626,1.0636415481567385,-0.4945262372493744,0.1371086239814758,-0.2416814714670181
1749027132.039027,-2.8116635298416277,-1.8223791694463753,-0.9845786693480757,6.262634509129347,-2.9435629695975307,-3.95817569010577,-0.07108141050196022,-0.022840228202729917,0.11219404215756101,-0.16761971416543842,0.09023207297904752,-0.042969914564830985,-0.4092006683349609,0.5524935126304626,1.0636415481567385,-0.4945262372493744,0.1371086239814758,-0.2416814714670181
1749027132.0390675,-2.8118039641961805,-1.822425257705777,-0.9843551365505243,6.2622934754630695,-2.943376579186284,-3.9582669179189818,-0.07189883354849505,-0.023233170851400753,0.11364179475135953,-0.1697564366977249,0.0912265151620331,-0.04374096936438851,-0.3906386196613312,0.5656998157501221,1.09168541431427,-0.5511620044708252,0.1450599730014801,-0.2320490181446075
1749027132.0391057,-2.811946118845334,-1.8224716993630983,-0.9841295273008506,6.261949098262212,-2.9431895545859,-3.9583594605957377,-0.07270716984630723,-0.023599250724289915,0.11500263793689602,-0.17186681561886072,0.0921794960762022,-0.044554548115360686,-0.389943778514862,0.5693848133087158,1.077746033668518,-0.547596275806427,0.1439640372991562,-0.2149782180786132
1749027132.039657,-2.8120903371470405,-1.8225184306652864,-0.9839018236261838,6.261601348461297,-2.943001766668938,-3.9584533092153364,-0.07350285306448594,-0.023936945250529328,0.1162614132384084,-0.17393553737727416,0.09309388238336613,-0.04540690142444313,-0.389943778514862,0.5693848133087158,1.077746033668518,-0.547596275806427,0.1439640372991562,-0.2149782180786132
1749027132.0417194,-2.8122369885651226,-1.8225654242101699,-0.9836719259227689,6.261250100805933,-2.9428129706626294,-3.9585484679494827,-0.07428430410653855,-0.02424513914152496,0.11740667825985553,-0.17594715059474672,0.09397816243561756,-0.04629234062643262,-0.3608682751655578,0.5968696475028992,1.047934889793396,-0.5313490629196167,0.1420463174581527,-0.212510660290718
1749027132.0822878,-2.812386430862783,-1.8226126897313752,-0.9834396829625355,6.260895170810837,-2.9426228596143913,-3.95864494924247,-0.07505204763205149,-0.024523268122705704,0.11843178480076572,-0.17788737848054414,0.09484498109501291,-0.047203027172262504,-0.3713570237159729,0.5864980220794678,1.0408973693847656,-0.5277547240257263,0.1311941593885421,-0.216917797923088
1749027132.082334,-2.8125389650731747,-1.822660269290611,-0.9832049319331618,6.260536363303359,-2.942431125065777,-3.958742765805608,-0.07580851034744578,-0.024771383104022535,0.1193357728094169,-0.1797449840421131,0.09570933226073662,-0.04812875731378947,-0.3924683332443237,0.5887743830680847,1.0311812162399292,-0.4636212885379791,0.1569080650806427,-0.2132701277732849
1749027132.0823748,-2.8126947916697804,-1.8227082281414566,-0.9829675389029742,6.260173519657381,-2.942237512568496,-3.9588419221349924,-0.07655757261444947,-0.024990148039971946,0.1201239767522757,-0.18151367798668308,0.09658661398981125,-0.049056799676575516,-0.4147880971431732,0.5700428485870361,1.0331735610961914,-0.4374111294746399,0.1676819622516632,-0.2224571257829666
1749027132.0824146,-2.8128539761557487,-1.8227566427478028,-0.9827274321032168,6.259806555528273,-2.942041862856715,-3.9589424071430654,-0.07730397845930138,-0.02518079887678924,0.12080826653253651,-0.183193455362987,0.09749076219465914,-0.0499718833407173,-0.4147880971431732,0.5700428485870361,1.0331735610961914,-0.4374111294746399,0.1676819622516632,-0.2224571257829666
1749027132.0824533,-2.813016430609182,-1.8228055876775906,-0.9824846229087474,6.259435485415493,-2.941844133590014,-3.9590441884127396,-0.07805272502607885,-0.025345087722406623,0.12140689383423955,-0.18479085479921717,0.09843269565631078,-0.05085646506649935,-0.4147880971431732,0.5700428485870361,1.0331735610961914,-0.4374111294746399,0.1676819622516632,-0.2224571257829666
1749027132.0824924,-2.813181915646961,-1.8228551235035402,-0.9822392106852186,6.259060431523867,-2.941644399350229,-3.9591472084791675,-0.07880854488870756,-0.025485223909116277,0.12194394425088231,-0.18631795181871247,0.09941929169807584,-0.05169140116835787,-0.3857316076755523,0.5847151875495911,1.042375564575195,-0.5045011639595032,0.1900856047868728,-0.2132124006748199
1749027132.0825305,-2.8133500642165283,-1.8229052878902816,-0.981991369274832,6.258681614634419,-2.941442829790617,-3.959251383785147,-0.07957554827022367,-0.025603811837008383,0.1224483849565984,-0.1877903269837159,0.10045303308508971,-0.05245708398654788,-0.3857316076755523,0.5847151875495911,1.042375564575195,-0.5045011639595032,0.1900856047868728,-0.2132124006748199
1749027132.0825686,-2.8135204240050258,-1.8229560912788836,-0.9817413167809864,6.258299327901308,-2.941239649314652,-3.959356606474935,-0.08035701789368845,-0.02570377931358164,0.12295267366026115,-0.18922461121327733,0.10153233266446575,-0.05313498118198665,-0.3691976368427276,0.5810002088546753,1.0396068096160889,-0.4831424951553345,0.1611557006835937,-0.1855693310499191
1749027132.0826108,-2.8136925108128015,-1.8230075173513862,-0.981489275048329,6.257913899486874,-2.941035085632758,-3.9594627482937423,-0.081155291579279,-0.025788291111490086,0.12349091149393014,-0.19063633210403508,0.10265240446059491,-0.05370938601896598,-0.3691976368427276,0.5810002088546753,1.0396068096160889,-0.4831424951553345,0.1611557006835937,-0.1855693310499191
1749027132.0826492,-2.8138658635908063,-1.8230595275319315,-0.9812354274197773,6.257525652154251,-2.940829316423531,-3.959569665733422,-0.08197166287264886,-0.0258606494897536,0.12409660956259735,-0.19203861496153868,0.10380646123297928,-0.05416910450232483,-0.3940722346305847,0.5685938596725464,1.0912950038909912,-0.4993263781070709,0.1770806163549423,-0.1850433945655822
1749027132.0826874,-2.8140400931958935,-1.8231120683950368,-0.9809798822124995,6.257134866229892,-2.9406224224512205,-3.9596772063416457,-0.08280626897458393,-0.025924190643384384,0.12480026560144475,-0.19344193052767378,0.10498700015414344,-0.05450879996175264,-0.3860017955303192,0.5676145553588867,1.119220495223999,-0.4600931704044342,0.1695311069488525,-0.177224114537239
1749027132.082724,-2.8142149192261185,-1.8231650806409354,-0.9807226471745265,6.256741749951329,-2.9404143536345044,-3.959785216679187,-0.08365798003267748,-0.025982186734386917,0.1256270450594069,-0.194854698535522,0.10618697454460525,-0.05472978023007652,-0.3860017955303192,0.5676145553588867,1.119220495223999,-0.4600931704044342,0.1695311069488525,-0.177224114537239
1749027132.0827615,-2.8143901911789624,-1.8232185080412309,-0.9804636186081582,6.256346420393337,-2.940204913049297,-3.959893552015607,-0.08452432757528167,-0.02603775657067173,0.12659487501808206,-0.19628430146518522,0.10740070640682423,-0.05484011635228424,-0.3890280425548553,0.5940873622894287,1.1407982110977173,-0.4423370659351349,0.1711595952510833,-0.1530514359474182
1749027132.0827985,-2.8145658920714642,-1.8232723047122015,-0.9802025871113766,6.255948897569431,-2.9399937620830774,-3.960002086967112,-0.08540151290035979,-0.026093779921420868,0.1277131812974019,-0.19773801980103103,0.10862444620033947,-0.05485409243078576,-0.3890280425548553,0.5940873622894287,1.1407982110977173,-0.4423370659351349,0.1711595952510833,-0.1530514359474182
1749027132.0828362,-2.8147421252983715,-1.8233264394481654,-0.9799392589541052,6.255549111961642,-2.939780446922124,-3.9601107257620614,-0.08628453059893859,-0.02615280756848482,0.12898236377256384,-0.19922355814475856,0.1098565283206185,-0.05479108223549863,-0.3942912220954895,0.5813538432121277,1.1233367919921875,-0.4725275039672851,0.1686927676200866,-0.1871755421161651
1749027132.082874,-2.8149190883906083,-1.823380896371948,-0.9796732888350375,6.255146922315002,-2.9395644426205005,-3.960219410839155,-0.08716743235279029,-0.026216963960614702,0.13039396426727431,-0.20074908663434235,0.11109711006890713,-0.05467401735697357,-0.4034030139446258,0.5649205446243286,1.1128897666931152,-0.4931271076202392,0.1765124499797821,-0.1673644483089447
1749027132.0829113,-2.815097039143449,-1.8234356715217637,-0.9794043180275361,6.254742138481849,-2.9393452077833886,-3.9603281285968057,-0.08804373871746152,-0.026287848762424307,0.13193138320600134,-0.2023229359696525,0.11234752339717177,-0.05452764792707604,-0.4034030139446258,0.5649205446243286,1.1128897666931152,-0.4931271076202392,0.1765124499797821,-0.1673644483089447
1749027132.0829487,-2.81527625967399,-1.8234907654536747,-0.9791320122827932,6.254334544399599,-2.939122241623535,-3.9604369111758886,-0.08890698237605023,-0.02636645177842068,0.13357097806927842,-0.20395315882222106,0.11360931423203555,-0.05437680125196785,-0.3760656714439392,0.5809810161590576,1.1297369003295898,-0.5011722445487976,0.1848965287208557,-0.1632043123245239
1749027132.082986,-2.815457022943478,-1.8235461729537694,-0.9788560953038045,6.25392391773484,-2.938895135758368,-3.9605458335717225,-0.08975133783526663,-0.026453098347504114,0.13528342640272562,-0.20564708885368413,0.11488309517671572,-0.05424482270788988,-0.3283850848674774,0.6065438985824585,1.1218341588974,-0.4531146287918091,0.2088294476270675,-0.1713464558124542
1749027132.0830228,-2.8156395648852004,-1.8236018722190543,-0.9785763752608351,6.253510044320842,-2.9386636149820684,-3.9606550062678334,-0.0905722581856763,-0.02654743930749768,0.13703531122785625,-0.20741086325599248,0.11616738809272735,-0.054152344481788905,-0.3283850848674774,0.6065438985824585,1.1218341588974,-0.4531146287918091,0.2088294476270675,-0.1713464558124542
1749027132.08366,-2.815824063804987,-1.8236578163815274,-0.9782927633480933,6.253092727261132,-2.9384275636974695,-3.960764564560319,-0.09136700659908174,-0.02664849461381954,0.13879092837101897,-0.20924875864523645,0.11745766689956574,-0.054116476179077076,-0.3906706869602203,0.5713576078414917,1.1550973653793335,-0.4660227000713348,0.2300498783588409,-0.1612650454044342
1749027132.0856495,-2.8160106275230663,-1.8237139294971183,-0.9780052842705499,6.252671792187611,-2.938187036874758,-3.960874656477812,-0.09213496392161581,-0.026754756390435813,0.14051429931592319,-0.21116223532424133,0.11874580934248398,-0.05415045042825659,-0.3777527809143066,0.554964005947113,1.105391025543213,-0.4918293952941894,0.2290845364332199,-0.1844803690910339
1749027132.126275,-2.816199287914025,-1.823770107635303,-0.9777140788440956,6.252247091372398,-2.937942255995687,-3.960985431478504,-0.09287763029801874,-0.02686435508611908,0.14217131487625678,-0.21314878404679802,0.12002011651602565,-0.05426369169544646,-0.3777527809143066,0.554964005947113,1.105391025543213,-0.4918293952941894,0.2290845364332199,-0.1844803690910339
1749027132.1263216,-2.8163900016849395,-1.823826224435254,-0.9774193993984418,6.251818510173437,-2.9376935918756035,-3.961097031607602,-0.09359830332633619,-0.02697528714392931,0.14373187108086002,-0.2152008914855609,0.12126595927422734,-0.05446221509245144,-0.3954045474529266,0.5893563628196716,1.1145238876342771,-0.5203714966773987,0.2107670754194259,-0.1951880156993866
1749027132.126362,-2.8165826555598583,-1.8238821399510408,-0.9771215993273091,6.251385978640093,-2.9374415374926977,-3.9612095856994545,-0.09430148529347185,-0.027085692509277084,0.1451718312501507,-0.21730554402476782,0.12246698304573427,-0.054749212583610075,-0.3954045474529266,0.5893563628196716,1.1145238876342771,-0.5203714966773987,0.2107670754194259,-0.1951880156993866
1749027132.126401,-2.816777074242813,-1.8239377116330713,-0.9768211179636941,6.250949488101873,-2.937186674344125,-3.9613232062812873,-0.09499213763248344,-0.027194159321879637,0.14647467028403177,-0.21944461454897174,0.12360669131036459,-0.05512565819592257,-0.4184888303279876,0.5708459615707397,1.101264476776123,-0.531650722026825,0.2040963321924209,-0.179298534989357
1749027132.12644,-2.816973030475123,-1.823992806455815,-0.9765184610300209,6.250509108827551,-2.9369296354496788,-3.9614379885398026,-0.09567494725956974,-0.02730002509396384,0.1476326917589359,-0.22159623948641416,0.12467017381909537,-0.055590774436835744,-0.3630191385746002,0.5575977563858032,1.0696446895599363,-0.4725092053413391,0.2127508968114853,-0.2199986726045608
1749027132.126479,-2.8171702570512753,-1.8240473132641388,-0.9762141766261025,6.250065003443534,-2.9366710678853445,-3.9615540107447234,-0.09635377111880183,-0.027403638519505,0.14864771479221972,-0.22373696784998465,0.12564575457436603,-0.05614225169749898,-0.3630191385746002,0.5575977563858032,1.0696446895599363,-0.4725092053413391,0.2127508968114853,-0.2199986726045608
1749027132.1265168,-2.817368460320114,-1.8241011544033383,-0.9759088277632642,6.249617432491386,-2.9364115980234557,-3.9616713354294446,-0.09703137177632344,-0.02750654484859469,0.1495311202448778,-0.2258441946092383,0.1265263764699588,-0.056776185355148744,-0.3898211419582367,0.5566608905792236,1.059755802154541,-0.5020647048950195,0.1795540004968643,-0.214285671710968
1749027132.126555,-2.8175673344106733,-1.8241542957498147,-0.9756029635174209,6.249166750611275,-2.936151802481739,-3.9617900104428365,-0.09770947060626667,-0.027611566469452252,0.1503031754663719,-0.22789833408349858,0.12731058144028012,-0.05748676716427917,-0.3898211419582367,0.5566608905792236,1.059755802154541,-0.5020647048950195,0.1795540004968643,-0.214285671710968
1749027132.1265924,-2.81776657616955,-1.824206754449935,-0.9752970903213608,6.248713391782315,-2.9358921861800695,-3.961910069093749,-0.09838906304375797,-0.027722772185173543,0.15099163952479028,-0.2298843791210979,0.12800298186924242,-0.05826582122658981,-0.3674534261226654,0.5356501340866089,1.0844733715057373,-0.5310817360877991,0.1828378140926361,-0.2081080228090286
1749027132.12663,-2.8179659020892642,-1.8242586039568947,-0.9749916431655328,6.248257840782404,-2.935633166580956,-3.962031529181098,-0.09907088708885776,-0.02784535397549588,0.1516297476528456,-0.2317927927367783,0.1286141668100679,-0.059102307228086085,-0.3617131114006042,0.5251373052597046,1.0711236000061035,-0.545343816280365,0.16091188788414,-0.2134237736463546
1749027132.126668,-2.818165068885209,-1.8243099761370234,-0.9746869555679044,6.247800588521696,-2.935375061756081,-3.9621543914579047,-0.0997559176515198,-0.027985440584680856,0.15225374183436674,-0.2336199029768837,0.12916005330628405,-0.05998193187913551,-0.3617131114006042,0.5251373052597046,1.0711236000061035,-0.545343816280365,0.16091188788414,-0.2134237736463546
1749027132.1267052,-2.818363898121897,-1.8243610601374192,-0.9743832281962157,6.247342072065055,-2.9351180798271903,-3.9622786386140594,-0.10044577112141594,-0.028149864315417345,0.15290014946234298,-0.23536801908582652,0.12966076675701427,-0.06088702028080772,-0.3653950095176697,0.5062589049339294,1.085659146308899,-0.5437965989112854,0.1921842098236084,-0.2285207509994506
1749027132.1267424,-2.818562302971916,-1.82441209749327,-0.9740804981952996,6.2468826042870615,-2.9348623078161546,-3.9624042359701748,-0.10114293583991993,-0.02834587190004089,0.15360302961340808,-0.23704537327836092,0.13013919318654593,-0.06179679424930074,-0.3597607910633087,0.5285283923149109,1.0617010593414309,-0.5015736818313599,0.171648308634758,-0.2396693974733352
1749027132.1267786,-2.818760312807896,-1.824463372954396,-0.9737786135263535,6.246422301980126,-2.9346076989533074,-3.962531134631872,-0.10185078226577698,-0.028580752299742673,0.15439141147190863,-0.2386658035362528,0.13061936981692732,-0.06268816076995858,-0.3597607910633087,0.5285283923149109,1.0617010593414309,-0.5015736818313599,0.171648308634758,-0.2396693974733352
1749027132.1268153,-2.8189580898662197,-1.8245152010297179,-0.9734772182971476,6.245961024613164,-2.9343540597304347,-3.9626592769106272,-0.10257334924157183,-0.02886135802812383,0.15528713440192446,-0.24024794606355349,0.13112486218519345,-0.06353701671395706,-0.4233125746250152,0.4919377267360687,1.1032267808914185,-0.5090338587760925,0.1972315460443496,-0.2021825313568115
1749027132.1268525,-2.819155932708387,-1.8245679093197922,-0.9731757550239238,6.245498337164852,-2.9341010407940593,-3.962788602875844,-0.10331495452072384,-0.029193526688325686,0.15630325873919623,-0.24181370869358182,0.1316772396690366,-0.06431994862470604,-0.4233125746250152,0.4919377267360687,1.1032267808914185,-0.5090338587760925,0.1972315460443496,-0.2021825313568115
1749027132.12689,-2.819354263792298,-1.8246218208105824,-0.9728734872775473,6.245033507480974,-2.933848137182149,-3.9629190564939845,-0.10407972496637721,-0.029581455261855124,0.1574431558311712,-0.24338597756166158,0.132294740861811,-0.06501610175697167,-0.3644910454750061,0.5067113637924194,1.0889617204666138,-0.5560771822929382,0.1677134186029434,-0.1958699822425842
1749027132.126927,-2.819553601777767,-1.8246772374960505,-0.9725695424970792,6.244565542298799,-2.9335947025143922,-3.9630505898654986,-0.10487115003599337,-0.030027111931920487,0.15870032137815016,-0.2449857863744042,0.13299121922107218,-0.0656089583799269,-0.3596771359443664,0.5099002122879028,1.093919277191162,-0.5879473090171814,0.1839002072811126,-0.2201766669750213
1749027132.126964,-2.8197545216291617,-1.8247344265996974,-0.9722629720166154,6.24409325964052,-2.933339979503795,-3.9631831642445903,-0.10569171846088729,-0.030529762974648902,0.16005890536263478,-0.2466294146453874,0.13377545196891258,-0.06608781267342087,-0.3596771359443664,0.5099002122879028,1.093919277191162,-0.5879473090171814,0.1839002072811126,-0.2201766669750213
1749027132.1270013,-2.819957606969262,-1.8247936091400996,-0.9719528238170159,6.243615390341447,-2.9330831465371454,-3.9633167469935184,-0.10654264086705784,-0.031085652970779067,0.16149492148330225,-0.24832597481688384,0.13465086378518146,-0.06644882404009084,-0.4365424513816833,0.507326602935791,1.0879300832748413,-0.6043503284454346,0.1809871345758438,-0.2135167419910431
1749027132.127685,-2.820163400276144,-1.8248549499348918,-0.971638221705631,6.243130697157774,-2.9328233769148397,-3.9634513048784292,-0.1074236415721834,-0.03168783962923339,0.16297807873824072,-0.2500759676013855,0.1356156654835865,-0.06669561423101206,-0.3785874247550964,0.5127910375595093,1.0764621496200562,-0.570069432258606,0.1783525496721267,-0.1936831623315811
1749027132.1296844,-2.8203723572708026,-1.8249185487177078,-0.9713184423102867,6.242638096227319,-2.932559903875822,-3.9635867958520112,-0.10833282550510256,-0.03232617508717304,0.16447414531571494,-0.2518710725073289,0.13666335010495234,-0.06683940885910593,-0.3971586227416992,0.5191177129745483,1.0825307369232178,-0.6011853218078613,0.1911986023187637,-0.1873413175344467
1749027132.1742992,-2.82058481110886,-1.824984433106092,-0.9709929802885613,6.242136764950282,-2.9322920824464873,-3.9637231624883342,-0.10926665325920276,-0.03298744094607223,0.16594769914101792,-0.2536951901971289,0.13778344085807348,-0.0668987212503946,-0.4007038474082947,0.5502213835716248,1.0806089639663696,-0.564511239528656,0.1862276792526245,-0.1960866749286651
1749027132.174346,-2.8208009496765127,-1.8250525548170249,-0.9706615936336216,6.241626223656902,-2.932019439739256,-3.96386032979194,-0.110220059636225,-0.03365566724541083,0.16736506119270142,-0.2555265590118775,0.13896236253716646,-0.06689857315136834,-0.4271167814731598,0.5181825160980225,1.0840725898742676,-0.5686482787132263,0.1886683106422424,-0.1886339783668518
1749027132.1743865,-2.821020806789919,-1.8251227904201444,-0.9703243239334567,6.241106383629836,-2.9317417079136288,-3.9639982086026877,-0.11118672699839634,-0.03431268178434371,0.16869717724110012,-0.25734066188958227,0.14018431803802164,-0.06686926446408308,-0.4520156979560852,0.5361252427101135,1.121404767036438,-0.6162567734718323,0.2200562357902526,-0.1999421268701553
1749027132.1744254,-2.8212442665748023,-1.8251949472155955,-0.9699814895613077,6.2405775585928955,-2.931458837023504,-3.964136704185521,-0.11215948420372937,-0.034938934968950876,0.16992220971758148,-0.259113581739545,0.14143209134921206,-0.06684473821443422,-0.3804262280464172,0.5358195900917053,1.0533905029296875,-0.5825128555297852,0.1710783243179321,-0.1970953345298767
1749027132.174464,-2.8214710797222997,-1.8252687739509716,-0.9696336526136454,6.240040439945107,-2.9311709874486676,-3.964275728562339,-0.11313076490345987,-0.03551461489938762,0.17102760080461313,-0.2608253997808919,0.14268775735134995,-0.06686062371277561,-0.406528115272522,0.5343174338340759,1.0530238151550293,-0.5825455784797668,0.2031731307506561,-0.2129379957914352
1749027132.1745045,-2.8217008899992084,-1.825343975400333,-0.9692815630344035,6.239496038462167,-2.9308785034991134,-3.9644152148693106,-0.11409305522346216,-0.03602100498449685,0.17201136896498803,-0.26246316319595103,0.14393334266908359,-0.06695207148415072,-0.4287929236888885,0.5399331450462341,1.0481996536254885,-0.5628141164779663,0.2223685532808303,-0.2157317996025085
1749027132.1745431,-2.8219332688273444,-1.8254202294627146,-0.9689260857424388,6.238945597736721,-2.930581871572837,-3.9645551320280097,-0.11503930086260886,-0.03644196344304824,0.1728824303032491,-0.26402294037157237,0.14515152922167926,-0.06715151290134247,-0.4235152304172516,0.5437743067741394,1.062982439994812,-0.5479198694229126,0.2009249925613403,-0.2203230559825897
1749027132.1745806,-2.8221677549062862,-1.8254972054113165,-0.9685681186024145,6.238390487714653,-2.9302816682945125,-3.9646954977150775,-0.11596329632880724,-0.03676535544650705,0.17365981764429161,-0.2655106051859657,0.14632648870727447,-0.0674864807387724,-0.3932847678661346,0.5581942200660706,1.052120566368103,-0.5627216100692749,0.20652636885643,-0.2182599902153015
1749027132.174618,-2.822403894950267,-1.8255745820572695,-0.9682085106843097,6.2378320901172835,-2.9299785059902423,-3.9648363869587704,-0.11686009463821694,-0.03698426149075494,0.17437080640000757,-0.2669412449667311,0.14744486002117257,-0.06797761242822972,-0.3805986940860748,0.564116358757019,1.0731182098388672,-0.5970257520675659,0.1897692382335662,-0.2127398699522018
1749027132.174656,-2.82264128101581,-1.8256520645689438,-0.9678479909494789,6.237271689937094,-2.929672983551478,-3.964977933306993,-0.1177264344056254,-0.03709781023322194,0.1750481234450466,-0.2683373735624122,0.1484967642193029,-0.06863693293335758,-0.3805986940860748,0.564116358757019,1.0731182098388672,-0.5970257520675659,0.1897692382335662,-0.2127398699522018
1749027132.1746936,-2.8228795804006586,-1.8257293985283947,-0.9674871159011474,6.236710385884487,-2.9293656489724307,-3.9651203203319256,-0.11856111493946091,-0.03711152463552131,0.17572656655020288,-0.2697263258524604,0.14947666382944352,-0.06946649748007798,-0.4026356339454651,0.5771359801292419,1.0930739641189575,-0.5872204899787903,0.1963649988174438,-0.225587248802185
1749027132.174731,-2.823118556191534,-1.8258063799796829,-0.9671262400694067,6.236149026393487,-2.9290569755770623,-3.9652637636507797,-0.11936521172172712,-0.03703712049910021,0.1764394478951452,-0.27113725144213585,0.15038386236621515,-0.07045748649212483,-0.4165109395980835,0.5640753507614136,1.0750010013580322,-0.5890603065490723,0.1917903274297714,-0.2418821305036544
1749027132.1747692,-2.823358079019947,-1.8258828609540299,-0.9667655075886099,6.235588170087139,-2.928747349473256,-3.9654084866109462,-0.12014203704508135,-0.03689175524181669,0.1772152764026574,-0.2725980548274452,0.15122250180655827,-0.07158988452257262,-0.3999986052513122,0.5623809695243835,1.1139622926712036,-0.5567207336425781,0.2132770121097564,-0.2433209419250488
1749027132.174807,-2.8235981312351943,-1.8259587507737687,-0.9664048603368601,6.235028066346385,-2.928437064163051,-3.965554694392436,-0.12089679468162509,-0.0366967869339673,0.17807503452803455,-0.2741325481658278,0.15200101625792467,-0.07283290343085778,-0.3664883077144623,0.5533187389373779,1.136151909828186,-0.5971834659576416,0.1832431852817535,-0.2294270098209381
1749027132.1748445,-2.823838803102304,-1.8260340137645967,-0.9660440591997534,6.234468654226597,-2.928126319952715,-3.9657025506833627,-0.12163592991285013,-0.03647615949044152,0.17903032601554733,-0.27575805804930914,0.1527311024544738,-0.07414627838358194,-0.3664883077144623,0.5533187389373779,1.136151909828186,-0.5971834659576416,0.1832431852817535,-0.2294270098209381
1749027132.174883,-2.824080279041738,-1.826108663890209,-0.9656827170957321,6.233909581680419,-2.9278152280561183,-3.965852159358409,-0.12236623496454078,-0.036254571411153354,0.1800825858562216,-0.27748373111220787,0.1534263501747343,-0.07548246193650648,-0.4135066568851471,0.5323296785354614,1.1473578214645386,-0.6057586073875427,0.1812506914138794,-0.2494677305221557
1749027132.1749194,-2.8243228125885187,-1.8261827566880788,-0.9653203425088965,6.233350247165691,-2.9275038195166587,-3.9660035522028867,-0.12309383400348015,-0.036055610432646774,0.18122343653597986,-0.27930972936925896,0.15410073451820178,-0.07678960590957425,-0.4029819667339325,0.5195292234420776,1.1090924739837646,-0.5804566740989685,0.2118022292852401,-0.2253764420747757
1749027132.1749568,-2.8245666913763974,-1.826256378828986,-0.9649563906657422,6.232789862611107,-2.927192057697099,-3.9661566829968993,-0.12382322029395841,-0.0359000442142167,0.18243613837260747,-0.28122735074101585,0.15476720913041273,-0.078015107368431,-0.4029819667339325,0.5195292234420776,1.1090924739837646,-0.5804566740989685,0.2118022292852401,-0.2253764420747757
1749027132.1749957,-2.8248121964237876,-1.826329635578943,-0.9645903177277875,6.232227532928048,-2.926879851770497,-3.9663114279570486,-0.12455652582635277,-0.03580444064056745,0.18369794231936776,-0.28321990693922533,0.15543664498395454,-0.07910943307686262,-0.3990585803985595,0.5150135159492493,1.128166913986206,-0.5358109474182129,0.2017886042594909,-0.2218725085258484
1749027132.175052,-2.8250595624662176,-1.8264026367384345,-0.9642216316999594,6.231662343369402,-2.92656706786831,-3.966467592747124,-0.12529316467522558,-0.035780242874575985,0.1849830500791963,-0.2852640541835826,0.1561173091316875,-0.08002991957303826,-0.422482281923294,0.5345990061759949,1.1196147203445437,-0.5459444522857666,0.1932713389396667,-0.2125903666019439
1749027132.1751094,-2.82530894725639,-1.8264754824996188,-0.9638499326526461,6.231093442885849,-2.926253534621971,-3.966624926723018,-0.12602991716022724,-0.03583335413606041,0.1862658329756949,-0.2873312855746938,0.15681495710794374,-0.0807442462796406,-0.4346109330654144,0.5238407850265503,1.1158260107040403,-0.5372992157936096,0.1901661157608032,-0.1822063624858856
1749027132.175167,-2.8255604161426615,-1.8265482514736044,-0.9634749363385209,6.230520112309034,-2.92593904195248,-3.966783144581542,-0.12676143316658073,-0.03596422269119039,0.18752394256296084,-0.289389446476473,0.15753344507144534,-0.0812332789667606,-0.3925555050373077,0.5045352578163147,1.0712789297103882,-0.5775805711746216,0.173871636390686,-0.1767148822546005
1749027132.1757283,-2.82581394381474,-1.8266209930768185,-0.9630964798212804,6.22994181144827,-2.9256233359030355,-3.9669419536482176,-0.12748105605939716,-0.03616837535424563,0.18874095112749387,-0.2914043324166954,0.15827561482329214,-0.08149299135026594,-0.3925555050373077,0.5045352578163147,1.0712789297103882,-0.5775805711746216,0.173871636390686,-0.1767148822546005
1749027132.177695,-2.8260694306013496,-1.8266937256472973,-0.9627145121614167,6.229358204550726,-2.925306115180051,-3.967101083039652,-0.12818182502924813,-0.036437320074801785,0.18990820041841466,-0.29334155860326916,0.1590441309071095,-0.08153522082363857,-0.4307305812835693,0.4935162663459778,1.0873942375183103,-0.5909368991851807,0.1769372224807739,-0.1717054396867752
1749027132.2182825,-2.8263267287850353,-1.8267664408459299,-0.9623290742680428,6.228769164788311,-2.9249870342951247,-3.9672603105910444,-0.1288575050615754,-0.036759712665435935,0.19102562335592235,-0.2951688772031103,0.15984198298716384,-0.08138711672373589,-0.4280303716659546,0.5123164057731628,1.0956356525421145,-0.5748574137687683,0.1777864098548889,-0.1656959056854248
1749027132.2183287,-2.8265856745487117,-1.826839114249605,-0.9619402707533863,6.228174757412979,-2.924665714894806,-3.967419484630744,-0.1295035059865439,-0.037122660082612384,0.19210142445378517,-0.29685895844141696,0.16067248679746546,-0.08108928644547533,-0.3778709471225738,0.519165575504303,1.0782337188720703,-0.5508323311805725,0.1823442727327346,-0.1687928736209869
1749027132.21837,-2.826846120915017,-1.826911721017553,-0.9615482369645845,6.22757520328721,-2.9243417646285508,-3.967578538769295,-0.13011757801446916,-0.03751302093303254,0.19315064043894967,-0.29839240908661363,0.1615387717254519,-0.0806928025447159,-0.3969771862030029,0.4965682327747345,1.0968530178070068,-0.5196670293807983,0.1750212907791137,-0.2021624892950058
1749027132.2184088,-2.8271079657041565,-1.8269842539831795,-0.9611531076314781,6.226970830603466,-2.92401480336551,-3.9677374980343014,-0.1307002151143789,-0.037918569748134234,0.19419274676552367,-0.29976058730108524,0.16244288995170517,-0.08025536122375786,-0.3969771862030029,0.4965682327747345,1.0968530178070068,-0.5196670293807983,0.1750212907791137,-0.2021624892950058
1749027132.2184634,-2.82737116805526,-1.8270567402657187,-0.9607549963874868,6.22636202765312,-2.923684497583333,-3.967896474875216,-0.13125475261535668,-0.038328915283421326,0.19524861936441976,-0.3009676830254832,0.16338479401905084,-0.07983695028341173,-0.4372941851615906,0.5133580565452576,1.0983643531799316,-0.5183484554290771,0.1892092525959015,-0.1739477515220642
1749027132.2185273,-2.8276357489617054,-1.8271292523303753,-0.9603539940330207,6.225749208902612,-2.923350602618772,-3.9680556547964385,-0.13178718534542064,-0.03873609561406714,0.19633726690585931,-0.3020315888329828,0.1643614759692961,-0.07949538938283833,-0.3609162271022796,0.5042339563369751,1.096838116645813,-0.4655309915542602,0.1943418830633163,-0.2019881904125213
1749027132.2185948,-2.827901774682011,-1.8272019104567954,-0.9599501880999038,6.225132801354772,-2.9230130092968225,-3.9682152731853773,-0.13230574108814944,-0.03913480602431871,0.1974727767611,-0.30298324174619423,0.1653665232378554,-0.0792820691695237,-0.3609162271022796,0.5042339563369751,1.096838116645813,-0.4655309915542602,0.1943418830633163,-0.2019881904125213
1749027132.2186642,-2.8281693254338305,-1.827274875455954,-0.9595436998760356,6.224513251448849,-2.922671787973034,-3.9683755862855485,-0.13282023850706903,-0.03952225431116233,0.1986618718956421,-0.3038643308368552,0.16639024943750153,-0.07923816952850417,-0.4391006529331207,0.5106468200683594,1.1217118501663208,-0.4796041250228882,0.205251932144165,-0.2051167339086532
1749027132.2187328,-2.8284384554239095,-1.8273483328165048,-0.9591347293923339,6.223891045751269,-2.9223272202078463,-3.9685368401266783,-0.13334126981498037,-0.039897689145518216,0.19990239616438302,-0.3047235290425164,0.16742044508347306,-0.07939159974554172,-0.4212426543235779,0.5107581615447998,1.1303437948226929,-0.4856898188591003,0.2316063344478607,-0.2349756509065628
1749027132.2188022,-2.828709153541662,-1.8274224716559184,-0.9587235953405837,6.223266732924153,-2.9219798073593215,-3.9686992417287903,-0.13387928229562376,-0.04026170196320594,0.20118295256516203,-0.30561169228309093,0.1684436798079601,-0.07975487353509286,-0.4184556901454925,0.5062357187271118,1.1358102560043335,-0.5180063247680664,0.1945905685424804,-0.2191458642482757
1749027132.218871,-2.8289813148276215,-1.8274974630616037,-0.9583107576076321,6.22264093372504,-2.9216302484874763,-3.9688629365546992,-0.1344436661348607,-0.040615442258384905,0.20248379818455967,-0.30657669202144167,0.16944697234014877,-0.08032409557971389,-0.4473454654216766,0.4957584142684936,1.0931681394577026,-0.5363814830780029,0.1965571641921997,-0.2061391472816467
1749027132.2189405,-2.829254729978406,-1.8275734421860488,-0.9578968152943375,6.222014331231549,-2.9212793871233105,-3.9690279947846117,-0.1350419661485698,-0.04095989838802013,0.20377894283358794,-0.30765861909023806,0.17041954595993855,-0.0810791813228666,-0.4473454654216766,0.4957584142684936,1.0931681394577026,-0.5363814830780029,0.1965571641921997,-0.2061391472816467
1749027132.219023,-2.829529095431903,-1.8276504971590777,-0.9574824794059571,6.221387640527034,-2.9209281339112687,-3.969194407361807,-0.13567931501173316,-0.04129538036854963,0.2050392315896002,-0.30888600019144496,0.17135434537063662,-0.0819853601331762,-0.4051721394062042,0.4902203977108001,1.1071022748947144,-0.5430806279182434,0.1905002295970916,-0.2348867952823639
1749027132.219093,-2.8298040424182624,-1.8277286662375116,-0.9570685235216624,6.220761560872884,-2.920577376107691,-3.9693620916129064,-0.13635813691401474,-0.04162130027977709,0.20623604687714722,-0.31027347348597506,0.17224903355374158,-0.08299593092562542,-0.4510203897953033,0.4924023449420929,1.0341248512268066,-0.545505702495575,0.1677452772855758,-0.2641184628009796
1749027132.2191622,-2.830079180315355,-1.8278079431054786,-0.9566557178413325,6.220136714424694,-2.9202278854361094,-3.969530905165548,-0.13707810763472017,-0.041936285326125346,0.20734515494992706,-0.3118211561445752,0.17310629680265105,-0.08405614065665518,-0.4510203897953033,0.4924023449420929,1.0341248512268066,-0.545505702495575,0.1677452772855758,-0.2641184628009796
1749027132.2192302,-2.8303541473912146,-1.8278882890345054,-0.9562447537201096,6.219513576818802,-2.919880234984121,-3.969700665497772,-0.13783631266282378,-0.042238590579077445,0.20835015839624815,-0.3135157274620757,0.17393341295287004,-0.08510792499004845,-0.422583520412445,0.4982341527938843,1.044998288154602,-0.5781129598617554,0.1785514652729034,-0.2036992311477661
1749027132.2192988,-2.8306286611973426,-1.82796964986366,-0.9558361667831691,6.2188924063984246,-2.9195347342113225,-3.9698711716412434,-0.13862754113237108,-0.04252671747434355,0.2092450387036892,-0.3153330328882769,0.17474114741631758,-0.08609510315626227,-0.422583520412445,0.4982341527938843,1.044998288154602,-0.5781129598617554,0.1785514652729034,-0.2036992311477661
1749027132.2193682,-2.830902562151951,-1.8280519754577762,-0.955430265768038,6.218273178567805,-2.9191913880858675,-3.9700422253084184,-0.1394446745526809,-0.042800099771850356,0.21003540546253655,-0.3172417963176195,0.1755421317045097,-0.08696851105749082,-0.4063413739204407,0.5170839428901672,1.046290397644043,-0.5415925979614258,0.1638400852680206,-0.2259013652801513
1749027132.219439,-2.8311758462071333,-1.8281352390356433,-0.9550270723470843,6.217655530540771,-2.9188498826598064,-3.970213650452571,-0.1402791464584679,-0.04305969769595446,0.21073827820627358,-0.3192078558808742,0.1763489511926215,-0.08769053859478897,-0.4009813964366913,0.5204273462295532,1.038989782333374,-0.5262924432754517,0.174174427986145,-0.2136094570159912
1749027132.2195086,-2.8314486841030173,-1.8282194531819032,-0.9546262766704614,6.2170387223437205,-2.918509596917566,-3.970385311468006,-0.1411214557866038,-0.04330835304655196,0.21138044721490712,-0.32119826809730906,0.17717221114890594,-0.08823860864889448,-0.4009813964366913,0.5204273462295532,1.038989782333374,-0.5262924432754517,0.174174427986145,-0.2136094570159912
1749027132.2199235,-2.8317214251066645,-1.8283046788796384,-0.9542272146133476,6.216421622590438,-2.9181696399901758,-3.970557130153916,-0.14196172659770365,-0.043550806613722785,0.2119956453201112,-0.3231846914527112,0.17801885145795787,-0.08860725389719508,-0.3962336182594299,0.5272374749183655,1.0746090412139893,-0.5495058298110962,0.1788742244243621,-0.1927658319473266
1749027132.2217505,-2.831994583359407,-1.8283910244211046,-0.9538288737361434,6.215802729511272,-2.917828912571524,-3.970729100528745,-0.14279032526287966,-0.0437933466604834,0.21262089845402152,-0.32514564711084254,0.17889094281846196,-0.08880858105453433,-0.4697200655937195,0.539801836013794,1.0837655067443848,-0.5510028004646301,0.1817985624074936,-0.1939804553985595
1749027132.2663052,-2.8322688056647407,-1.8284786328173408,-0.9534299343796907,6.215180237272449,-2.9174861906936638,-3.970901299029483,-0.14359855751539757,-0.04404311742404931,0.2132925042823594,-0.3270674895356789,0.17978513108357191,-0.08887105981408258,-0.4697200655937195,0.539801836013794,1.0837655067443848,-0.5510028004646301,0.1817985624074936,-0.1939804553985595
1749027132.266352,-2.832544820581076,-1.8285676586011712,-0.9530288500628763,6.2145521546702644,-2.9171402287498074,-3.9710738861531873,-0.1443794465285239,-0.04430716507320597,0.21404211956374883,-0.3289441303631759,0.18069281540059917,-0.08883673964010887,-0.3961037993431091,0.518832802772522,1.10420560836792,-0.5322620272636414,0.1799362897872924,-0.1938040256500244
1749027132.2663925,-2.8328233705932915,-1.8286582369220759,-0.9526239665871792,6.213916476117893,-2.916789875899606,-3.9712470955731525,-0.1451285291771194,-0.04459134907029444,0.21489343127780575,-0.3307757302113052,0.18160106438961268,-0.08875716432527073,-0.3961037993431091,0.518832802772522,1.10420560836792,-0.5322620272636414,0.1799362897872924,-0.1938040256500244
1749027132.266431,-2.8331051330800343,-1.828750449432293,-0.9522136707655806,6.2132713913404976,-2.9164341948714654,-3.971421209380783,-0.14584452680994447,-0.04489929372417608,0.21585984695333077,-0.33256672467398624,0.18249420284902967,-0.08868839098447817,-0.3740365505218506,0.5071163773536682,1.1403601169586182,-0.5912980437278748,0.2006456106901168,-0.195754125714302
1749027132.266469,-2.833390641544999,-1.8288442928258608,-0.9517965487702876,6.212615502621002,-2.9160725660065707,-3.971596522828214,-0.14652970455796585,-0.04523156537374279,0.2169435429454764,-0.3343236685732147,0.18335593829157804,-0.08868560221691546,-0.3740365505218506,0.5071163773536682,1.1403601169586182,-0.5912980437278748,0.2006456106901168,-0.195754125714302
1749027132.266508,-2.8336802233798157,-1.8289396567111436,-0.9513715255661671,6.21194800480744,-2.915704755860408,-3.97177330651667,-0.14718976900990474,-0.04558521779955377,0.21813603230402115,-0.3360534085727918,0.1841718293980976,-0.08879782082458415,-0.4049955308437347,0.5422682762145996,1.1049447059631348,-0.6105773448944092,0.1869529336690902,-0.200647547841072
1749027132.2665458,-2.8339739699214244,-1.8290363167758426,-0.9509379571604349,6.2112687839855205,-2.915330933136499,-3.9719517755890834,-0.1478332560846973,-0.045953776212988094,0.21942016880043752,-0.3377619755555104,0.18493181417891946,-0.08906320549097493,-0.4457031488418579,0.5429537296295166,1.1494920253753662,-0.5885277390480042,0.1756426393985748,-0.2165478765964508
1749027132.2665834,-2.834271746354664,-1.829133946232752,-0.9504956594580779,6.21057841067267,-2.9149516268053417,-3.9721320725887224,-0.14847048241772576,-0.04632766433748999,0.22077324204643178,-0.3394543337145366,0.18563242361150922,-0.08950533902272885,-0.4457031488418579,0.5429537296295166,1.1494920253753662,-0.5885277390480042,0.1756426393985748,-0.2165478765964508
1749027132.2666204,-2.8345732363894744,-1.829232144203602,-0.9500448762209533,6.209878034424249,-2.914567637278373,-3.972314264727383,-0.14911222712148692,-0.04669503168057187,0.22217061123554008,-0.34113482788774224,0.18627825317473007,-0.09013083336988316,-0.4373727440834045,0.5364246964454651,1.1405010223388672,-0.6234418153762817,0.1709225177764892,-0.2387259006500244
1749027132.2666574,-2.8348780068127235,-1.8293304760479634,-0.9495862036864581,6.209169211998569,-2.914179922682152,-3.9724983511517897,-0.1497683447992786,-0.04704290115683122,0.22358923520638457,-0.34280796285877096,0.18688231131204433,-0.0909284782679926,-0.4123790264129638,0.531989574432373,1.0946053266525269,-0.6079469323158264,0.1847246885299682,-0.2301884740591049
1749027132.2666943,-2.8351855743602363,-1.829428518869264,-0.9491204947791948,6.208453710371833,-2.913789483861273,-3.9726842739906685,-0.15044648564430285,-0.04735852178267457,0.22501050898708963,-0.344479091352191,0.18746503930683672,-0.09187004971518348,-0.4123790264129638,0.531989574432373,1.0946053266525269,-0.6079469323158264,0.1847246885299682,-0.2301884740591049
1749027132.2667315,-2.8354954607031133,-1.8295259052281592,-0.9486487631611064,6.2077333212345245,-2.9133972662715046,-3.97287192809178,-0.15115105213927493,-0.047630774951629894,0.22642198536560798,-0.34615465757226266,0.18805206902609875,-0.09291275665443866,-0.3973940312862396,0.5464280843734741,1.1128720045089722,-0.5567135214805603,0.1696763336658477,-0.2208552807569503
1749027132.2667685,-2.8358072274637056,-1.8296223588866034,-0.9481721007884917,6.207009712103922,-2.913004089197346,-3.973061166667415,-0.15188249281463342,-0.04785145266480616,0.22781778613528156,-0.34784180366501977,0.18867106987374416,-0.09400314125989691,-0.436187744140625,0.5655902624130249,1.1134798526763916,-0.6050853729248047,0.2181662321090698,-0.2177563309669494
1749027132.266805,-2.836120489659265,-1.8297177179932718,-0.9476916152430986,6.206284326020347,-2.912610605551058,-3.973251802370032,-0.15263702143062055,-0.04801621647180278,0.22919773528398552,-0.34954737577578904,0.18934823770301248,-0.09508209227160902,-0.436187744140625,0.5655902624130249,1.1134798526763916,-0.6050853729248047,0.2181662321090698,-0.2177563309669494
1749027132.2668447,-2.8364349115230434,-1.829811943351041,-0.947208386543145,6.2055583296729475,-2.912217289638677,-3.9734436054763345,-0.1534068284671399,-0.04812507175174933,0.23056544510199897,-0.35127660354521,0.19010503283828026,-0.0960905171041192,-0.4324799478054046,0.5829294323921204,1.1005587577819824,-0.6360232830047607,0.2158266603946685,-0.2075369656085968
1749027132.2668834,-2.836750192927346,-1.8299051120283316,-0.9467234377243734,6.20483259941461,-2.9118244454103515,-3.9736363031562303,-0.154180805220982,-0.04818226133945289,0.231925745986535,-0.3530318621410707,0.19095567720696793,-0.09697515152855911,-0.4305324852466583,0.5788581371307373,1.141693115234375,-0.6282755136489868,0.2298364043235778,-0.2259603142738342
1749027132.2669208,-2.8370660569605763,-1.8299973990776774,-0.9462377100449734,6.204107727720736,-2.9114322244971675,-3.973829585457838,-0.15494573284279772,-0.048195588749674736,0.2332819588462265,-0.35481188311152245,0.19190571989244481,-0.09769394710714846,-0.4558215141296386,0.5954456329345703,1.156070113182068,-0.5744470357894897,0.2141259312629699,-0.1923381686210632
1749027132.2669585,-2.837382247970483,-1.8300890517009574,-0.9457520345264845,6.2033840332719645,-2.911040643926311,-3.9740231227732687,-0.15568781264007767,-0.04817529981713079,0.23463354257477512,-0.3566115928501791,0.19295174771034965,-0.09822046360135153,-0.4341474175453186,0.5511019825935364,1.155137300491333,-0.5827761888504028,0.1987268924713134,-0.1681631505489349
1749027132.266996,-2.837698544298614,-1.8301803604080191,-0.9452670969474269,6.2026615664707565,-2.9106495981130687,-3.974216595716345,-0.15639434856376813,-0.04813274759400315,0.23597458944608124,-0.35842254692385833,0.19408211745502782,-0.0985467350748102,-0.4341474175453186,0.5511019825935364,1.155137300491333,-0.5827761888504028,0.1987268924713134,-0.1681631505489349
1749027132.2670364,-2.838014783620932,-1.830271630943538,-0.9447833995082701,6.20194011232934,-2.9102588652305066,-3.974409733807114,-0.15705535491702766,-0.04807910605773077,0.23729348978315906,-0.36023379980242143,0.19527846202120808,-0.09868420642467017,-0.4568627178668976,0.5478433966636658,1.1452699899673462,-0.598867654800415,0.2279559522867202,-0.1928062438964843
1749027132.2670784,-2.8383308943739345,-1.8303631596681829,-0.9443012254464459,6.201219197649154,-2.9098681110754683,-3.974602356664879,-0.15766485792165497,-0.04802436628330515,0.23857386802561203,-0.3620330083713833,0.1965176872501821,-0.09866255184072256,-0.3849860429763794,0.5380051732063293,1.0779701471328735,-0.5614994764328003,0.2162725031375885,-0.1828707754611969
1749027132.2671196,-2.838646924830359,-1.8304552139177126,-0.9438206133461974,6.200498109621058,-2.909476894352093,-3.974794410719583,-0.15822169023924607,-0.04797675673868953,0.23979664672246626,-0.36380756006656756,0.19777420786962466,-0.09852645171425731,-0.3849860429763794,0.5380051732063293,1.0779701471328735,-0.5614994764328003,0.2162725031375885,-0.1828707754611969
1749027132.2676997,-2.8389630611380174,-1.83054801770531,-0.9433413478648554,6.199775932280271,-2.909084677654045,-3.974985994525741,-0.15872964804572487,-0.04794261788081398,0.240942878693572,-0.36554553435241377,0.1990222258044159,-0.09833066947291946,-0.4030269682407379,0.5595561265945435,1.065318584442139,-0.602240264415741,0.2288924008607864,-0.1898259371519088
1749027132.2697892,-2.8392796271868352,-1.8306417423837695,-0.9428629726260846,6.199051605782536,-2.9086908481493086,-3.9751773665360117,-0.15919698630220122,-0.04792667091959205,0.24199685734282647,-0.36723639332422464,0.20023790203783237,-0.09813399318839744,-0.4030269682407379,0.5595561265945435,1.065318584442139,-0.602240264415741,0.2288924008607864,-0.1898259371519088
1749027132.3102868,-2.8395970630788865,-1.8307365018521284,-0.9423848274928127,6.198324008824058,-2.9082947498723595,-3.9753689315302356,-0.1596353448733249,-0.047932564375735724,0.24294899350803953,-0.36887144410397804,0.20140130692257865,-0.09799275887126828,-0.3878177404403686,0.5381224751472473,1.059029459953308,-0.5938770174980164,0.2584937810897827,-0.2130254060029983
1749027132.310333,-2.8399158841329943,-1.8308323521901886,-0.9419061072854236,6.197592057606746,-2.9078957262967116,-3.9755612055667715,-0.16005829875721947,-0.047963547540989214,0.24379800745482957,-0.3704442253980285,0.20249804928744614,-0.09795473053232626,-0.4535576403141022,0.5722426176071167,1.0401279926300049,-0.5694727897644043,0.2165096402168274,-0.2143915295600891
1749027132.3103738,-2.8402366265073744,-1.8309292956149792,-0.9414259350795992,6.196854809559647,-2.9074931695398205,-3.9757547629611416,-0.16047979248914432,-0.048023096235961044,0.24455208521079727,-0.3719509653822288,0.2035204768560301,-0.09805406797789731,-0.4535576403141022,0.5722426176071167,1.0401279926300049,-0.5694727897644043,0.2165096402168274,-0.2143915295600891
1749027132.3104186,-2.8405597877128006,-1.831027288340863,-0.9409434414148522,6.196111558215615,-2.9070865715815803,-3.9759501716540964,-0.16091273139401915,-0.048115314827755405,0.24522877314727407,-0.3733911632474791,0.20446832430949935,-0.0983079814936498,-0.3804849088191986,0.5577621459960938,1.0375882387161257,-0.5575029253959656,0.2347110211849212,-0.2402222752571106
1749027132.310458,-2.84088577126682,-1.831126251663738,-0.9404578396146381,6.195361905222408,-2.906675571754984,-3.9761479256299066,-0.16136793868539318,-0.0482449829191747,0.24585354000671406,-0.3747682330978978,0.20534869330532846,-0.09871547971420382,-0.4335326552391052,0.5256978273391724,1.0220105648040771,-0.5617416501045227,0.2082171440124511,-0.2465384155511856
1749027132.3104966,-2.841214844601334,-1.831226085358178,-0.9399684870048707,6.194605796305001,-2.9062599933764823,-3.9763483844345946,-0.1618535594621,-0.04841720505399605,0.24645712368059564,-0.37609004905599874,0.20617529525160325,-0.09925837981991634,-0.428038090467453,0.5391383171081543,1.04839026927948,-0.5476868152618408,0.1909754425287246,-0.2301375269889831
1749027132.3105342,-2.841547116693758,-1.831326681916966,-0.9394749247011703,6.193843513778973,-2.905839863135467,-3.976551729029273,-0.16237486173186938,-0.04863671903977175,0.24707198365398478,-0.37736915585339476,0.20696696173503326,-0.0999044723545897,-0.4126583039760589,0.5464171767234802,1.060665249824524,-0.5105133056640625,0.2188637852668762,-0.236253559589386
1749027132.3105714,-2.841882536649838,-1.8314279394384787,-0.9389768952062997,6.19307562956936,-2.905415410863608,-3.976757939874096,-0.16293431340210662,-0.04890698474134011,0.24772836203209986,-0.37862240069300646,0.20774552699250706,-0.10061243532147668,-0.4126583039760589,0.5464171767234802,1.060665249824524,-0.5105133056640625,0.2188637852668762,-0.236253559589386
1749027132.310609,-2.8422209093993747,-1.8315297708344858,-0.9384743430671877,6.192302933024064,-2.904987051966751,-3.976966798897232,-0.1635318122792241,-0.049229209292449214,0.24845056686208616,-0.379869839193945,0.20853331592251534,-0.10133782505491486,-0.399129182100296,0.5276914834976196,1.1323570013046265,-0.5539866089820862,0.232908546924591,-0.2409022748470306
1749027132.3106468,-2.8425619224884233,-1.8316321078796656,-0.9379674052166312,6.191526350334707,-2.904555357132976,-3.9771779136527274,-0.16416497943415873,-0.04960148477380066,0.24925408718774153,-0.38113294180645235,0.20935059830762182,-0.10203929397121506,-0.459546834230423,0.5299992561340332,1.126158595085144,-0.5471413135528564,0.2582208216190338,-0.1978387385606765
1749027132.3106847,-2.8429051783118,-1.8317348999962102,-0.9374563952385182,6.190746867933885,-2.904121013983414,-3.977390759747238,-0.16482946535831194,-0.05001821991038908,0.2501440156293856,-0.3824322968991059,0.21021343008427784,-0.10268413186314461,-0.459546834230423,0.5299992561340332,1.126158595085144,-0.5471413135528564,0.2582208216190338,-0.1978387385606765
1749027132.3107224,-2.843250227181328,-1.831838108914488,-0.9369417829817095,6.189965466249948,-2.90368478459978,-3.9776047359533115,-0.16551925513091503,-0.05047001918743499,0.251115019196539,-0.38378512508565044,0.21113224472343772,-0.10325231178010691,-0.4304292798042297,0.5337051153182983,1.1265549659729004,-0.5193396806716919,0.2287031412124633,-0.1963017880916595
1749027132.31076,-2.8435965977221507,-1.8319417011669323,-0.9364241691450923,6.189183065712644,-2.903247461790171,-3.9778192252080857,-0.16622698721166917,-0.050944091039857364,0.2521528225805501,-0.38520299520861584,0.212111377948672,-0.10373845012861686,-0.4142504930496216,0.5576087236404419,1.1115617752075195,-0.5703255534172058,0.2119764983654022,-0.2116352468729019
1749027132.3107972,-2.8439438221841824,-1.8320456405139252,-0.9359042539359587,6.188400484631795,-2.9028098259701105,-3.9780336539816874,-0.16694431086407197,-0.05142516304529894,0.25323691364592554,-0.3866901697090348,0.21314946367007473,-0.10415144056548893,-0.4142504930496216,0.5576087236404419,1.1115617752075195,-0.5703255534172058,0.2119764983654022,-0.2116352468729019
1749027132.3108354,-2.844291455143,-1.8321498818212516,-0.935382800016335,6.187618408536505,-2.9023726044340887,-3.978247542440997,-0.16766230427434567,-0.05189677111254205,0.254343991042443,-0.38824296348926307,0.2142404357380672,-0.10451191928367612,-0.4707443118095398,0.6084900498390198,1.1020805835723877,-0.5844565629959106,0.2443471997976303,-0.2080574333667755
1749027132.3108728,-2.8446390854427763,-1.8322543672656058,-0.9348605914059012,6.186837370486495,-2.9019364348296945,-3.978460539199786,-0.1683719749074154,-0.052342700919832535,0.2554515698999434,-0.38985033286191906,0.2153748004209886,-0.10484806853983383,-0.4707443118095398,0.6084900498390198,1.1020805835723877,-0.5844565629959106,0.2443471997976303,-0.2080574333667755
1749027132.31091,-2.844986343819424,-1.8323590257365723,-0.9343383897340694,6.186057739196038,-2.9015018334116056,-3.9786724377546454,-0.16906486447809863,-0.05274832548967028,0.2565411522247352,-0.3914956482260621,0.21654090504965856,-0.10519049555561696,-0.4660744965076446,0.5812739133834839,1.0989941358566284,-0.5923205018043518,0.2816105484962463,-0.2442620396614074
