nimar13/UR3e_dataset_trayectorias/trayectorias_ejecutadas_filtradas/jtraj/trayectoria_240_result_filtrado.csv
timestamp,q1,q2,q3,q4,q5,q6,qd1,qd2,qd3,qd4,qd5,qd6,tau1,tau2,tau3,tau4,tau5,tau6
1749031782.9308512,5.779174985449214,0.1570602257132071,-2.3007805888120725,5.351980003714944,0.1853950760398464,-4.4358796584470435,0.037177625343146586,0.010648654141156367,-0.023864252058377278,0.034475238954958014,-0.009139982989189159,-0.027821439132955376,0.217311605811119,-0.5003463625907898,0.3921993374824524,0.2262203246355056,-0.2136953771114349,-0.1301266252994537
1749031782.9308984,5.779229770262029,0.15707654814997848,-2.3008184785142176,5.352036548731066,0.185383534846842,-4.435925483697975,0.03475441466767477,0.00927303603286661,-0.022264202541615093,0.03235222314443079,-0.007760829293775109,-0.025927703753473762,0.1918551623821258,-0.4852734208106994,0.3807624578475952,0.2271580845117569,-0.2014222145080566,-0.1294019818305969
1749031782.9309392,5.7792838719457915,0.1570922356472233,-2.3008555516191267,5.352092259457562,0.18537228805577347,-4.43597065169753,0.03236622454265231,0.007928292970272336,-0.020665815385713524,0.030245210080890962,-0.006423528408393898,-0.024051892979490275,0.2190071940422058,-0.5079948902130127,0.3648861646652221,0.2417751997709274,-0.2062813937664032,-0.1266985833644867
1749031782.930978,5.779336598675715,0.15710668347705845,-2.300891099441416,5.352146239040482,0.18536166104107937,-4.436014447099232,0.03002171104360061,0.006641089284568798,-0.019067833438291038,0.028151492309349574,-0.005166057309672163,-0.0222001348068858,0.2073274701833725,-0.519108772277832,0.3927184045314789,0.2304549068212509,-0.2087199389934539,-0.1339643597602844
1749031782.9310207,5.779387309186906,0.15711938477233323,-2.300924506128528,5.352197655370742,0.1853519435576559,-4.436056208520105,0.027725437749587165,0.005435536069021725,-0.017470574241016085,0.026066373067335315,-0.0040206801522844945,-0.020377452370837604,0.207198366522789,-0.5310109257698059,0.3940067589282989,0.2482003420591354,-0.1890173256397247,-0.1392228305339813
1749031782.93106,5.779435429627865,0.1571299674933135,-2.3009552774963384,5.352245771699202,0.18534337304910775,-4.436095349558473,0.02547769489837914,0.004332011540731247,-0.01587665159939687,0.023983785284000015,-0.0030119041502403477,-0.018587795357480574,0.2191256582736969,-0.5393558740615845,0.3823146820068359,0.2290525436401367,-0.1986045837402343,-0.1287181079387664
1749031782.9310975,5.779480464392462,0.15713821863151758,-2.3009830579215595,5.3522899696030075,0.18533612396499818,-4.436131373256001,0.02327487254562257,0.0033461007886471383,-0.014291486081712042,0.021897335137631934,-0.0021552231490812005,-0.01683426514877355,0.2140756398439407,-0.5352829694747925,0.3660195469856262,0.2198067009449005,-0.195520669221878,-0.1475703418254852
1749031782.9311366,5.779522001345949,0.15714409204605317,-2.301007635024421,5.352329763848389,0.18533030265864578,-4.436163880541375,0.02111040696660647,0.0024877740938684745,-0.012723557445473894,0.01980170900873714,-0.0014567350505951151,-0.015119543753506671,0.2356112003326416,-0.5411022901535034,0.3698784708976745,0.2230003327131271,-0.182497888803482,-0.1272947490215301
1749031782.931174,5.779559712854311,0.15714769839377069,-2.3010289332909815,5.352364809884259,0.18532594674855749,-4.4361925741992625,0.01897623304242353,0.0017609259236571354,-0.011184361470597126,0.017694289724965482,-0.0009136044283075264,-0.013446474546945777,0.2157831192016601,-0.5691198110580444,0.3645142316818237,0.2235894501209259,-0.1672247350215912,-0.1255813241004943
1749031782.931212,5.779593354514337,0.15714927871709644,-2.3010469986212425,5.35239490536189,0.1853230278130572,-4.436217260126617,0.01686459128799763,0.0011633638597512211,-0.009688037215260252,0.015576752404443612,-0.0005152418956450855,-0.011818679956281828,0.2157831192016601,-0.5691198110580444,0.3645142316818237,0.2235894501209259,-0.1672247350215912,-0.1255813241004943
1749031782.93125,5.779622763333454,0.15714916625936398,-2.3010619762648195,5.352419987116124,0.18532145652792667,-4.436237847112885,0.014769968768091675,0.0006872774646394936,-0.008250638326555558,0.01345636993683953,-0.0002450026572191731,-0.010241063951275267,0.2538576424121856,-0.6088131070137024,0.3860843479633331,0.223041296005249,-0.1413362920284271,-0.1310393810272216
1749031782.9312875,5.779647856510326,0.15714774287008915,-2.3010740848507756,5.352440124704072,0.18532108964048633,-4.436254345481939,0.01269091127058357,0.00032014806120522294,-0.006889052064194731,0.011346771216749384,-8.21740589987703e-05,-0.008720058962802136,0.2429110407829284,-0.6158149838447571,0.390561044216156,0.2069571018218994,-0.1530015170574188,-0.1053155064582824
1749031782.9313254,5.779668631146187,0.15714539656549184,-2.3010835891834405,5.352455511124832,0.18532173859184198,-4.436266864115469,0.010631439434826142,4.600020005191778e-05,-0.005619632353646268,0.009267965817589933,-4.0236901045998965e-06,-0.007263539884315155,0.2304736077785492,-0.6239888668060303,0.40852752327919,0.2158669233322143,-0.1467151343822479,-0.0921947360038757
1749031782.931363,5.7796851643410205,0.1571424857492884,-2.301090774150344,5.3524664508331465,0.18532318005242351,-4.436275604979989,0.00860183590484139,-0.00015314240982473496,-0.004456695267662406,0.007245556603284008,1.2291863650386876e-05,-0.005880416863064111,0.1821682453155517,-0.6426688432693481,0.4081419110298157,0.1797372698783874,-0.125540941953659,-0.0884035229682922
1749031782.9314003,5.779697612427034,0.15713931379186682,-2.3010959216280917,5.352473344694475,0.1853251686571459,-4.436280854458394,0.006618640099008127,-0.00029574632418381797,-0.0034110923515682694,0.005309176864976224,-1.1888122220614816e-05,-0.004579998877754281,0.1523674875497818,-0.6527702808380127,0.4220255017280578,0.1493611931800842,-0.1326870620250702,-0.0892643928527832
1749031782.931438,5.779706207762103,0.15713611552140383,-2.301099291895364,5.352476671296942,0.18532745161211556,-4.436282971415732,0.004703790150519413,-0.0003993444768202252,-0.0024890948749357847,0.0034902958316181164,-5.794978095043599e-05,-0.0033712686388369453,0.1526646018028259,-0.6372150182723999,0.4240002632141113,0.1568392068147659,-0.1219283044338226,-0.0829925537109375
1749031782.931476,5.779711251615983,0.15713305509547235,-2.301101110825916,5.352476964302001,0.18532978409247272,-4.436282372576619,0.0028829827162553125,-0.00047931785043284805,-0.0016917783733257233,0.0018196322001233927,-0.0001107875073863762,-0.002262216497560661,0.1466795802116394,-0.6776911616325378,0.4378668963909149,0.1352313160896301,-0.1156080663204193,-0.0720187425613403
1749031782.9315138,5.779713102262498,0.15713023312359134,-2.3011015638294077,5.352474786413141,0.18533194400970376,-4.436279516041649,0.0011834548956489689,-0.0005479727556013276,-0.0010150073731303604,0.000324487048452355,-0.0001591555674060267,-0.001259345449289984,0.1288231462240219,-0.6607403755187988,0.463165283203125,0.1404946744441986,-0.1098324656486511,-0.042758285999298
1749031782.93156,5.77971215840143,0.15712770000732712,-2.3011007968723463,5.352470701773588,0.1853337447316867,-4.436274883566964,-0.00036851238670084543,-0.000613974243676488,-0.00045001611277507457,-0.0009736646866176175,-0.0001956377894627584,-0.00036739272615600644,0.092218168079853,-0.6823457479476929,0.4653055369853973,0.1439979076385498,-0.1029733717441558,-0.0377095639705657
1749031782.931616,5.7797088392178875,0.15712547213071182,-2.3010989239240867,5.35246524951101,0.18533504443670695,-4.436268961855251,-0.001750037305629866,-0.0006821668958854446,1.551026167174738e-05,-0.002061011386050142,-0.00021631296941712917,0.0004107581969858242,0.1043882519006729,-0.7015975713729858,0.4637818932533264,0.1311547011137008,-0.1061325371265411,-0.0420978963375091
1749031782.9318335,5.779703563337805,0.15712354763632766,-2.3010960390932365,5.352458921211117,0.18533575109904146,-4.436262222964701,-0.002943715936788602,-0.0007537827457301605,0.0003960156105160717,-0.002932437949314947,-0.00022020696426848488,0.0010740518696999983,0.1101688295602798,-0.7166260480880737,0.4940503239631653,0.1315093338489532,-0.1059327721595764,-0.0301060080528259
1749031782.9337451,5.779696729333221,0.15712191917973709,-2.3010922309631643,5.352452144316946,0.18533582282578928,-4.4362551043154665,-0.003939087441097421,-0.0008270005644175398,0.0007065144203424868,-0.0035916501049004968,-0.00020862302771816857,0.001623213786091421,0.078091874718666,-0.7003229260444641,0.4981340765953064,0.1150355041027069,-0.0817092359066009,-0.0162296891212463
1749031782.974279,5.779688700166957,0.15712058230539713,-2.3010875965355817,5.352445272231706,0.1853352641537227,-4.436247989525158,-0.004733331844802651,-0.0008977821467003052,0.0009611074741039281,-0.0040504391934489195,-0.0001844333930093579,0.002060752691341678,0.050313651561737,-0.721386194229126,0.4875925183296203,0.0981971472501754,-0.1040307581424713,-0.0261964797973632
1749031782.9743268,5.779679793111833,0.15711953940724954,-2.301082252682398,5.352438580760144,0.18533411949607467,-4.436241191940675,-0.005331168840102799,-0.0009608739168434276,0.0011717670590227138,-0.004327275657804371,-0.00015140076782777545,0.0023910290178940905,0.0639969110488891,-0.6914359331130981,0.5155961513519287,0.0751233100891113,-0.0855825394392013,-0.0325842797756195
1749031782.974368,5.779670275464854,0.15711879985841246,-2.3010763436565638,5.352432269782632,0.18533246497777942,-4.436234942885632,-0.005744046413032885,-0.0010108350935657967,0.0013475417141942756,-0.004445499309681518,-0.00011358092585676474,0.0026203398609331535,0.0347330011427402,-0.7096725106239319,0.511139452457428,0.0807543322443962,-0.0826389491558075,-0.0283794701099395
1749031782.9744084,5.7796603653170315,0.15711837677090953,-2.3010700437026474,5.352426468758504,0.1853303995940957,-4.436229386318336,-0.005988793033079549,-0.001042949876089591,0.001494259359870579,-0.004431378182314354,-7.483924083538429e-05,0.0027569285639811323,0.0651221871376037,-0.7187370657920837,0.5043742060661316,0.078275665640831,-0.0871819257736206,-0.0225725769996643
1749031782.9744468,5.779650236288395,0.1571182808309672,-2.301063554234939,5.352421244679852,0.18532803634829448,-4.436224580904004,-0.006085942898813771,-0.001053909695743392,0.0016147193020793324,-0.004312252274098734,-3.8496774365935556e-05,0.0028108364145845704,0.0492185540497303,-0.7401893138885498,0.5007264614105225,0.0704145953059196,-0.0832899063825607,-0.0157572329044342
1749031782.9744866,5.779640025378672,0.15711851234835497,-2.3010570957016516,5.352416611354973,0.18532549398460252,-4.436220509476301,-0.006057941808362927,-0.0010422058757173019,0.0017092774168064285,-0.004114898398232129,-7.106831552794656e-06,0.0027935673150826803,0.0685604885220527,-0.7353508472442627,0.4901485443115234,0.0792427211999893,-0.093488723039627,0.007618635892868
1749031782.9745414,5.779629843107876,0.15711905353056724,-2.301050895159319,5.352412539330757,0.18532288998768912,-4.436217094684645,-0.005927423548043529,-0.0010082315947717638,0.0017766726949717464,-0.003864179636677082,1.7648469418180844e-05,0.0027175980016454927,0.0293910577893257,-0.7530115842819214,0.5076541304588318,0.0801992118358612,-0.0861127376556396,-0.0062206089496612
1749031782.9745836,5.779619784528011,0.15711986312167744,-2.3010451713784583,5.352408966201952,0.18532033534987186,-4.436214218713801,-0.0057157263516456076,-0.0009541352246092621,0.0018149355730944989,-0.0035819960044751204,3.495986356610245e-05,0.0025958049301755062,0.0393171720206737,-0.7408583760261536,0.5037610530853271,0.0662720054388046,-0.0862373411655426,-0.0055383443832397
1749031782.9746225,5.779609939115295,0.1571208748154707,-2.3010401195839028,5.3524058073036835,0.18531793106766545,-4.4362117445848455,-0.0054417910579655174,-0.000883489604275724,0.001822250972297399,-0.0032865352828184806,4.4813462326303285e-05,0.0024408852551745497,0.023895189166069,-0.7476825714111328,0.5149814486503601,0.0636141821742057,-0.0745471119880676,8.538365364074707e-05
1749031782.9746614,5.779600397797829,0.1571219999039127,-2.30103589765633,5.352402966774796,0.1853157656541533,-4.4362095366028695,-0.00512153355646535,-0.0008008487025439451,0.0017976944287871317,-0.0029918256411153015,4.785811495163187e-05,0.0022648323609812376,0.0220774598419666,-0.7593819499015808,0.5147130489349365,0.0510292947292327,-0.0832646787166595,0.000385969877243
1749031782.9747,5.779591256329877,0.1571231339078766,-2.3010326150681495,5.352400348739794,0.18531391265398034,-4.436207477827089,-0.004767711188821998,-0.0007112604890136968,0.0017417947184928785,-0.0027075993406172143,4.524052493972039e-05,0.002078501183552758,0.02710897102952,-0.7437240481376648,0.5153777599334717,0.0540541931986808,-0.083071082830429,-0.0017952024936676
1749031782.9747384,5.779582615074536,0.157124166398229,-2.301030325293468,5.352397867946307,0.18531242754022362,-4.436205482955605,-0.004390222748779451,-0.0006197962904907433,0.001656894889882261,-0.002439476258395887,3.8428225245628395e-05,0.0018912769557248264,0.0493857264518737,-0.7439546585083008,0.5182931423187256,0.059036511927843,-0.0817935764789581,0.0113870501518249
1749031782.9747767,5.779574575494446,0.1571249927573581,-2.301029022053064,5.352395458809438,0.18531134419265644,-4.436203505695933,-0.0039967207704866125,-0.0005311441929160199,0.0015472933299740099,-0.002189462021595998,2.903664440051552e-05,0.0017108477009334154,0.0455501303076744,-0.7453702688217163,0.4992728531360626,0.0610184855759143,-0.0942245125770568,0.0065058171749114
1749031782.974815,5.77956723359433,0.15712552632883117,-2.301028639509343,5.352393081733964,0.18531067183856006,-4.436201540375215,-0.0035933907529184183,-0.0004492980548102017,0.0014191582862361986,-0.0019567311860178866,1.8672205738510785e-05,0.0015430746170514143,0.066040351986885,-0.7311469316482544,0.507661759853363,0.0639755427837371,-0.0914035141468048,-0.0047673881053924
1749031782.9748533,5.779560670854736,0.15712570926983185,-2.301029056304702,5.352390725876681,0.18531039356767592,-4.436199618080134,-0.0031857639720953125,-0.00037735580135413296,0.0012802284580106667,-0.0017386381909447134,8.799235103727354e-06,0.0013919523246422561,0.0488150045275688,-0.7529733180999756,0.5164923071861267,0.0538279190659523,-0.0783461332321167,0.0130777955055236
1749031782.9748907,5.779554943988842,0.1571255204487758,-2.301030103092568,5.35238840795828,0.18531046732113798,-4.436197798053196,-0.002779462486367274,-0.00031742363735685317,0.0011393354228388555,-0.0015318745194326869,6.348183385003563e-07,0.0012596503958145812,0.0456210672855377,-0.7396746873855591,0.4966242611408233,0.0624516792595386,-0.0818186104297638,0.0074588060379028
1749031782.9749284,5.7795500755645355,0.15712497903403327,-2.3010315730349786,5.352386167125038,0.1853108296957118,-4.436196155603244,-0.0023808088760656474,-0.00027060986951309607,0.0010058022595041145,-0.001333673630684964,-4.927089946717533e-06,0.0011466274732069158,0.0611253604292869,-0.7296782732009888,0.505822479724884,0.0513296425342559,-0.089381992816925,0.0093398988246917
1749031782.974966,5.779546047472082,0.1571241430238454,-2.3010332346934024,5.352384056172002,0.18531140222098533,-4.436194768407742,-0.0019972604179910427,-0.00023708500106047842,0.0008887805661755047,-0.0011429570423337376,-7.362938365396375e-06,0.001051809446782348,0.0427600070834159,-0.7092704772949219,0.5016771554946899,0.0522815361618995,-0.0960407555103302,-0.007425844669342
1749031782.9750032,5.779542798379013,0.15712310266957405,-2.3010348467126414,5.35238212974678,0.1853120993515857,-4.436193703408603,-0.001637648111518546,-0.00021618347650523094,0.000796585662986459,-0.0009613150576645586,-6.539916698822331e-06,0.0009728237909083558,0.0483672469854354,-0.745602548122406,0.507582426071167,0.0648794993758201,-0.1002252250909805,0.0060236155986785
1749031782.97504,5.779540225363583,0.1571219693901829,-2.3010361735562546,5.352380430534746,0.18531283744060006,-4.436193006186434,-0.0013122175160681848,-0.0002065255184762576,0.0007360823451059865,-0.0007937232556292737,-2.7113592618520892e-06,0.000906283148946174,0.0463742353022098,-0.7175908088684082,0.5209503173828125,0.0685443803668022,-0.0806539356708526,0.0033385157585144
1749031782.9756815,5.779538189383281,0.15712086143262238,-2.301037001294179,5.352378974872357,0.18531354408169284,-4.436192693927743,-0.001032480628765999,-0.0002061433396538633,0.0007121661312541266,-0.0006489105436108931,3.510984119280457e-06,0.0008481119634559964,0.0451250001788139,-0.6938060522079468,0.5096396803855896,0.0599502623081207,-0.085612878203392,-0.0128121972084045
1749031782.9776497,5.779536524040835,0.1571198882505703,-2.301037152224031,5.352377739555089,0.1853141669817508,-4.436192752373411,-0.000810895475106022,-0.00021260330938794426,0.0007273794385727635,-0.0005393167442377243,1.1206437918759678e-05,0.0007939098952447567,0.0588191486895084,-0.686010479927063,0.5186127424240112,0.0638092085719108,-0.0794960409402847,-0.0165269970893859
1749031783.018311,5.779535046855285,0.15711913614986017,-2.3010364971402506,5.352376651584966,0.1853146810087135,-4.436193136674059,-0.0006603948881933157,-0.00022312323765396228,0.0007816975682638285,-0.0004806081545812397,1.9215651707360832e-05,0.0007393449263096644,0.0399104170501232,-0.6415210962295532,0.5316939949989319,0.0856862813234329,-0.0790801048278808,-0.0192227661609649
1749031783.0183575,5.779533571690411,0.15711865780425407,-2.301034964371296,5.352375582232224,0.1853150917887338,-4.436193775725561,-0.0005937921700455912,-0.0002346905901421829,0.0008725136904462354,-0.0004907579373131481,2.623065593514505e-05,0.0006805672979570702,0.0676370188593864,-0.6462903618812561,0.5164795517921448,0.0702786594629287,-0.0589538365602493,-0.0173532664775848
1749031783.018397,5.779531920426014,0.1571184675185273,-2.3010325450224736,5.352374346193355,0.1853154346361232,-4.436194579146524,-0.000623101409299181,-0.0002441919762459176,0.0009948429402644148,-0.0005887421855083388,3.09032703777991e-05,0.0006146322464495252,0.0605715103447437,-0.6213648319244385,0.5289958119392395,0.0522566884756088,-0.067067265510559,-0.0165188014507293
1749031783.018437,5.77952993198536,0.15711854278945386,-2.301029293964382,5.352372705947363,0.18531576859001894,-4.436195445652761,-0.0007588234368734412,-0.0002485658362575695,0.0011417507905585604,-0.0007929479354863244,3.196925057305105e-05,0.0005399144489479247,0.0605715103447437,-0.6213648319244385,0.5289958119392395,0.0522566884756088,-0.067067265510559,-0.0165188014507293
1749031783.018475,5.779527467589457,0.15711883138521096,-2.301025326115079,5.352370380863341,0.18531616647812144,-4.436196271401763,-0.001009261572021201,-0.00024498862563705184,0.0013049875853256053,-0.00111943099794181,2.838371176539176e-05,0.0004564906830800223,0.0267808064818382,-0.6142096519470215,0.5236391425132751,0.0573958456516265,-0.0617896616458892,-0.0276972353458404
1749031783.0185132,5.779524412058783,0.1571192622785944,-2.301020807791962,5.352367060422362,0.1853167028823857,-4.436196957036897,-0.0013799395517191965,-0.00023110009935931188,0.001475780061572121,-0.0015801929996127253,1.946094489154818e-05,0.0003664608918228294,-0.0020164102315902,-0.5940093994140625,0.5476706027984619,0.0475418269634246,-0.0538046956062316,-0.0243857204914093
1749031783.018551,5.779520671631241,0.15711975825689767,-2.301015943450952,5.352362420994011,0.1853174423740122,-4.436197412532754,-0.0018731906128311296,-0.00020526603032684602,0.0016456998351594575,-0.0021816613076313814,5.008963517964855e-06,0.00027417337895370637,-0.0039902552962303,-0.6456655859947205,0.5307710766792297,0.0408704727888107,-0.0561177134513855,-0.0206581056118011
1749031783.0185888,5.77951616910019,0.15712024769805852,-2.3010109587453975,5.3523561455238085,0.18531843017392455,-4.436197559380891,-0.002487963852577329,-0.00016686775533661431,0.0018075123129206838,-0.0029235447713067283,-1.455366237232382e-05,0.000186318599108197,-0.0480706393718719,-0.620802640914917,0.5452988147735596,0.0412740409374237,-0.0566564202308654,-0.0272826254367828
1749031783.0186262,5.779510837299145,0.15712067305228195,-2.301006081255685,5.352347944945879,0.1853196866059871,-4.436197330220747,-0.003219848738942736,-0.00011659854010624202,0.0019559164912959317,-0.0037981973279371172,-3.811348488930075e-05,0.00011185885031945795,-0.0134246796369552,-0.6327338814735413,0.5518921613693237,0.0293020233511924,-0.0546434819698333,-0.0231463015079498
1749031783.0186636,5.779504612173588,0.1571209943953294,-2.301001520428992,5.352337579363938,0.18532120586150133,-4.436196666744261,-0.004061264193884451,-5.673818804582883e-05,0.0020881105167055687,-0.004790555952263497,-6.382660355165815e-05,6.176888471468923e-05,-0.0212185308337211,-0.6375136971473694,0.5494264364242554,0.017184168100357,-0.0551754236221313,-0.0105193257331848
1749031783.018701,5.779497426806696,0.15712118795183552,-2.300997448363992,5.352324876586642,0.18532295896269438,-4.436195517219554,-0.005001727292679409,8.629136227345058e-06,0.0022041436716592738,-0.0058786502118976245,-8.914808771795879e-05,4.857560219518736e-05,-0.0213857665657997,-0.6524852514266968,0.5616376399993896,-0.0053538978099823,-0.0458930432796478,-0.0107316076755523
1749031783.0187385,5.779489207586194,0.157121240980601,-2.300993983151647,5.352309745793976,0.18532490023003784,-4.436193834830488,-0.006028136428812346,7.349201288503465e-05,0.0023070327812628882,-0.007034633303520033,-0.00011094079316753566,8.570349241874811e-05,-0.0375311374664306,-0.6652697324752808,0.5474749803543091,0.0125755816698074,-0.0607400834560394,-0.0161055028438568
1749031783.0187757,5.779479873047513,0.15712114505904656,-2.300991176404965,5.352292184872059,0.18532697593385367,-4.436191577265488,-0.007125065921708638,0.00012992063255954834,0.0024026339343463936,-0.008226266781320577,-0.0001256739138831053,0.0001866551865758783,-0.0520808547735214,-0.6703236103057861,0.5371434092521667,-0.0166086852550506,-0.0654995143413543,-0.0082495510578155
1749031783.018813,5.779469334880383,0.1571208895044804,-2.3009890061703375,5.352272280963831,0.1853291333227157,-4.436188707090424,-0.008275128715718264,0.00016823768518607125,0.0024992787677668225,-0.009418786916617633,-0.00012971520117848552,0.00036408102425069774,-0.0687376707792282,-0.6728697419166565,0.5638290047645569,0.0064967796206474,-0.068538874387741,0.0130853801965713
1749031783.0188498,5.7794574995202685,0.1571204560329014,-2.3009873756409274,5.352250204672317,0.18533132803884758,-4.4361851918039505,-0.009459481398713209,0.00017736932332470558,0.002607211324792268,-0.010577068267654003,-0.00011971211684880573,0.000628814382226725,-0.1066472977399826,-0.6962193250656128,0.5793802738189697,0.0090047121047973,-0.0674880743026733,0.0149183869361877
1749031783.0188866,5.779444268297817,0.1571198153055218,-2.300986117310692,5.352226198837391,0.1853335281633931,-4.436181002322566,-0.01065851907336819,0.00014537663358999849,0.002737887834526673,-0.011667973733030882,-9.304665913686778e-05,0.0009889659213383672,-0.1009344607591629,-0.7073643207550049,0.5811168551445007,-0.0198617875576019,-0.0820351541042327,0.0163847804069519
1749031783.0189235,5.779429534808542,0.15711892568908306,-2.3009850017296527,5.352200562825559,0.18533571382868044,-4.4361761091295,-0.011852760646030846,6.0146196102916725e-05,0.0029032133596574032,-0.0126627492005722,-4.8336932657878505e-05,0.0014491739119476446,-0.1073868721723556,-0.7289766073226929,0.5793001651763916,-0.007495954632759,-0.0789825469255447,0.0221676081418991
1749031783.0189602,5.779413179758273,0.1571177340372832,-2.300983749898501,5.352173633030218,0.18533787232392138,-4.436170476321822,-0.013023878255288718,-8.980534750997639e-05,0.003114777760378783,-0.013539294308009778,1.4053221170286322e-05,0.0020100925951546987,-0.1232509911060333,-0.7325713634490967,0.5835249423980713,-0.0308769047260284,-0.0997249484062194,0.0306048989295959
1749031783.018997,5.779395065050059,0.15711617756193452,-2.300982048423926,5.352145760081568,0.1853399895973235,-4.436164054821655,-0.014155785329185832,-0.00031447956372222563,0.0033831240186349377,-0.014284121217697456,9.154571057274122e-05,0.0026681621011494273,-0.1331124007701873,-0.7392065525054932,0.6030889749526978,-0.012476697564125,-0.102485716342926,0.038771778345108
1749031783.019034,5.779375029508134,0.15711418533209018,-2.3009795666616926,5.35211728330482,0.18534203978474023,-4.4361567766065875,-0.015235669592312227,-0.0006215795999198643,0.003717052258874327,-0.01489380295185536,0.00017897764375236598,0.0034156487521508727,-0.1503853946924209,-0.7610378265380859,0.5973333120346069,-0.0192570984363555,-0.110451802611351,0.0319869220256805
1749031783.0197277,5.779352888429136,0.157111678157437,-2.3009759750418577,5.352088503333913,0.18534397474152012,-4.43614855179227,-0.01625484475574367,-0.0010158152498853205,0.004122952483635568,-0.015375723004494423,0.000268388781551966,0.004240896154356106,-0.1089671105146408,-0.7907519340515137,0.6093729138374329,0.0139209628105163,-0.118572860956192,0.0348642170429229
1749031783.0217085,5.77932843850998,0.15710856668329212,-2.3009709635417424,5.352059654542738,0.18534571546413922,-4.436139269874205,-0.01720930341641937,-0.0014984045339785344,0.0046041749560607245,-0.0157479853221811,0.0003490241724397162,0.005128711898673345,-0.1347327679395675,-0.791245698928833,0.6252524256706238,-0.0163550227880477,-0.1169836819171905,0.0335215926170349
1749031783.0622978,5.77930146873129,0.15710474888765272,-2.300964259020361,5.352030879945383,0.18534714688171594,-4.436128805657047,-0.018099890000176845,-0.002066815158866329,0.005160476836761572,-0.01603843394054483,0.0004075989665238136,0.006060840403189835,-0.1497901082038879,-0.8066698312759399,0.6245391368865967,-0.0186285525560379,-0.1274100244045257,0.0467108041048049
1749031783.0623455,5.77927177647635,0.15710010896976478,-2.300955640132258,5.35200221192647,0.185348117124959,-4.43611702957014,-0.018932073940063476,-0.0027147425286522934,0.0057876074834751125,-0.016282847054198513,0.0004288541650036547,0.0070165207341447875,-0.1441197544336319,-0.7657886743545532,0.6253159642219543,-0.0336859226226806,-0.1387069523334503,0.0496663749217987
1749031783.0623896,5.779239186867514,0.15709451937426444,-2.3009449488471905,5.351973561989638,0.18534844222538518,-4.436103821249615,-0.01971537057637646,-0.0034322792664328457,0.006477104049279106,-0.016522478854642985,0.0003964058369798923,0.007973168091529165,-0.1579026877880096,-0.8169572353363037,0.6441484093666077,-0.0214451849460601,-0.14889457821846,0.0673118084669113
1749031783.0624294,5.779203572420423,0.15708784664821648,-2.300932097975891,5.3519447214266656,0.18534791678820556,-4.436089084567338,-0.020462505951367626,-0.004206223197688738,0.007216367667969563,-0.016801197818228655,0.00029385726211389636,0.008907228189406813,-0.1552054733037948,-0.8425861597061157,0.6536675095558167,-0.0366463959217071,-0.169231116771698,0.0707864463329315
1749031783.062469,5.779164869691553,0.15707996063915497,-2.3009170743381477,5.351915372720736,0.185346329877768,-4.436072761914216,-0.021188441346541513,-0.005020505577012538,0.007989080822614885,-0.0171625021413368,0.00010610596087449452,0.0097952338246034,-0.1552054733037948,-0.8425861597061157,0.6536675095558167,-0.0366463959217071,-0.169231116771698,0.0707864463329315
1749031783.062508,5.77912308954916,0.15707074569391555,-2.3008999373648606,5.3518851093330975,0.1853434834957672,-4.436054845565196,-0.021909369113435124,-0.005856768644852772,0.008775999098126803,-0.01764668301797629,-0.00017926045832639877,0.010615053520915598,-0.1676101386547088,-0.8494827151298523,0.6495749354362488,-0.0459371507167816,-0.1859921216964721,0.0708522945642471
1749031783.0625465,5.779078318330962,0.15706011208524975,-2.3008808131947185,5.351853460172766,0.18533920996122055,-4.436035384260572,-0.022641770278713547,-0.006695133927665446,0.009556094539680421,-0.018288361216548456,-0.0005706188289138087,0.011347274679412827,-0.167108952999115,-0.8397117853164673,0.6566146612167358,-0.0426564142107963,-0.2065108716487884,0.066340759396553
1749031783.0625856,5.779030708755924,0.15704800578540168,-2.300859884807222,5.351819915086638,0.1853333851260631,-4.436014483741678,-0.02340159243449424,-0.007515163412951301,0.010307952984347321,-0.019114553535443172,-0.0010711757602523857,0.011976617932655715,-0.1858873069286346,-0.8672300577163696,0.6562776565551758,-0.0533242896199226,-0.2175840735435485,0.0815697014331817
1749031783.0626235,5.778980461619874,0.15703441493972853,-2.3008373793185934,5.351783948915871,0.18532593611043197,-4.435992300985575,-0.024203574018151517,-0.008296956232516976,0.011011268554064625,-0.02014334966348083,-0.0016782053441774809,0.012493246712437555,-0.1854114234447479,-0.889680027961731,0.6474191546440125,-0.068557359278202,-0.2245174944400787,0.0865755081176757
1749031783.062662,5.778927801184427,0.157019372043431,-2.3008135539982675,5.351745043174953,0.1853168437456815,-4.435969033080162,-0.02506071937782867,-0.009022288106639317,0.011648265457099967,-0.02138321363226384,-0.0023827937789483483,0.012893823744999889,-0.2060323357582092,-0.9010322093963624,0.6528793573379517,-0.0751441419124603,-0.2272597849369049,0.0867366343736648
1749031783.0626998,5.7788729482451275,0.15700295177470586,-2.3007886826151553,5.3517027054307444,0.18530614047812802,-4.43594490247089,-0.025983919255696396,-0.009675702798835823,0.012204908052806544,-0.0228328771537203,-0.003170166603565628,0.013182171893984676,-0.1971828341484069,-0.899337887763977,0.6654531359672546,-0.081476479768753,-0.2336979061365127,0.0941573083400726
1749031783.062738,5.778816095017088,0.15698526527386217,-2.300763043338381,5.351656486797429,0.1852939045128662,-4.435920140320575,-0.02698170610268445,-0.010245483555600308,0.012671807913646823,-0.024481764424522483,-0.004020591310149436,0.013369417978538271,-0.2256553173065185,-0.9254817962646484,0.6593136191368103,-0.0859962627291679,-0.240144744515419,0.0822801440954208
1749031783.06278,5.778757385267833,0.15696645194151532,-2.300736908708997,5.351605997877919,0.18528025105725365,-4.435894969246622,-0.02806012752035809,-0.010724445014497586,0.013044777735896532,-0.026310874491668936,-0.004910762165761394,0.013473541543129207,-0.2125326544046402,-0.924828052520752,0.6624027490615845,-0.10613564401865,-0.2417677491903305,0.0993346124887466
1749031783.062818,5.77869690187147,0.15694666958266332,-2.30071053742754,5.351550923224321,0.18526532172917815,-4.435869586326809,-0.029222714785750115,-0.011110488130491775,0.013325009406785061,-0.028294044397192786,-0.0058155084442705765,0.013518320588821207,-0.2231793999671936,-0.9149825572967528,0.651081383228302,-0.1060273498296737,-0.2384643703699112,0.0956329554319381
1749031783.0628562,5.778634662622952,0.15692608345028305,-2.300684167228892,5.351491033981733,0.18524927328601312,-4.4358441472973835,-0.030470520166685274,-0.01140685994137852,0.01351887343931738,-0.030399521188411775,-0.006709633058075078,0.013531750326194789,-0.2078652679920196,-0.926859438419342,0.6432664394378662,-0.1152465194463729,-0.2475216537714004,0.1149986684322357
1749031783.0628932,5.778570623933743,0.156904854807347,-2.300658008162325,5.3514261977905,0.18523226666603662,-4.435818753181779,-0.03180219971549744,-0.011622064700128946,0.013637359552735059,-0.032591776771237424,-0.007569684046995322,0.013544084479129121,-0.2234771102666854,-0.9278604388237,0.6504848599433899,-0.1290960013866424,-0.2417808920145034,0.0932307094335556
1749031783.0629303,5.778504690809646,0.15688312990140912,-2.300632236014058,5.351356384442968,0.1852144569673223,-4.43579344084996,-0.03321412887210727,-0.011769390988811523,0.013695208920072782,-0.03483349662164937,-0.00837548159624996,0.01358569289827708,-0.2214104533195495,-0.9457740187644958,0.6583229303359985,-0.1238899379968643,-0.2401313036680221,0.0869272798299789
1749031783.0629685,5.778436730392004,0.15686103043771982,-2.30060698604152,5.3512816655871065,0.18519598455749847,-4.435768178940524,-0.034700553367966375,-0.011866056387764829,0.01370982352387307,-0.037087656858591285,-0.009111262957905628,0.013684940104654356,-0.2540027797222137,-0.9531726837158204,0.6609625220298767,-0.147470012307167,-0.2574159502983093,0.1160877496004104
1749031783.0630052,5.778366585912703,0.15683864655855703,-2.300582347397523,5.3512022071585115,0.185176967187304,-4.435742870094046,-0.036253790045984426,-0.011932022643236262,0.013700064866355588,-0.03931957887716118,-0.009766357074625788,0.013866273422540785,-0.2467619031667709,-0.9483300447463988,0.6771156787872314,-0.1309486478567123,-0.2445075511932373,0.1092577204108238
1749031783.0630424,5.778294088602816,0.15681603285204546,-2.3005583586159166,5.351118254122578,0.1851574930612579,-4.435717359567133,-0.03786449530658937,-0.011988585370585846,0.013685060281922866,-0.0414988244787469,-0.010335348094168672,0.014148677537242872,-0.2419921606779098,-0.9785199761390686,0.6717182397842407,-0.1143271550536155,-0.2184155583381652,0.1237720176577568
1749031783.0636685,5.77821906649314,0.1567932070724861,-2.300535004461798,5.3510301082871745,0.18513761545712765,-4.43569144911334,-0.0395220127265518,-0.012056877671577275,0.013683117914422333,-0.04360077456491177,-0.010817728831397951,0.014544613998914406,-0.2612583637237549,-0.971598207950592,0.6807215213775635,-0.1182586699724197,-0.2282918095588684,0.1262505948543548
1749031783.0656593,5.778141350260552,0.15677015051025764,-2.3005122144437156,5.3509381011291985,0.18511735020863834,-4.435664913870346,-0.041214799070772315,-0.012156437461654016,0.013710821087687437,-0.04560773427602844,-0.011217089400612602,0.015059521017721397,-0.2760042548179626,-1.005805253982544,0.6804670691490173,-0.1343285888433456,-0.2284229397773742,0.1324198544025421
1749031783.1062877,5.7780607768513175,0.15674680889475878,-2.3004898632830124,5.350842564426218,0.18509667739645977,-4.435637519439798,-0.04293091295072264,-0.012303971129511166,0.013782341857192236,-0.04750944511003376,-0.011539939697181242,0.01569189602529595,-0.2910409867763519,-0.9790486693382264,0.6926152110099792,-0.1227298229932785,-0.2436471581459045,0.1235530450940132
1749031783.1063442,5.777977191724511,0.1567230934643094,-2.3004677734885055,5.350743801728513,0.18507554787224287,-4.435609036675127,-0.0446585366720313,-0.012512406470915203,0.013908987936171084,-0.04930296542120526,-0.01179431953760032,0.01643392148118353,-0.2779990434646606,-0.9781484007835388,0.6937070488929749,-0.1382382214069366,-0.2458904385566711,0.1085570231080055
1749031783.106391,5.77789045045822,0.15669888279152588,-2.3004457199488786,5.350642063384194,0.18505389444484494,-4.4355792526303,-0.046386492709583574,-0.012790280918615785,0.014098977076122867,-0.05099198370142537,-0.011988387372828199,0.017272537100645736,-0.2483700811862945,-1.0064427852630615,0.7159746289253235,-0.122189775109291,-0.2395163923501968,0.1442701369524002
1749031783.106435,5.777800420219896,0.15667402634226596,-2.300423436402989,5.350537527216824,0.18503164702947805,-4.4355479771842745,-0.04810471446023135,-0.01314147519328641,0.014357416964133354,-0.05258571487680559,-0.012129182478205316,0.01819082528600222,-0.311894416809082,-1.0151512622833252,0.7011972069740295,-0.1361220777034759,-0.2392532080411911,0.1626500487327575
1749031783.1064758,5.777706981347488,0.15664835045436928,-2.300400623909969,5.350430286314332,0.18500875050730461,-4.435515045737206,-0.04980463982768603,-0.013565284038414659,0.014686455200404486,-0.054097563651134654,-0.01222172793651418,0.019169562184967074,-0.2993783056735992,-1.0205299854278564,0.7246798872947693,-0.1249879747629165,-0.2285962700843811,0.1426225453615188
1749031783.1065147,5.777610029250523,0.15662166698365423,-2.3003769617868564,5.350320344896425,0.1849851833172246,-4.435480318949357,-0.051479514160468566,-0.01405680456480885,0.015085552330757873,-0.055543711993222555,-0.012268595605014114,0.020188782997605795,-0.3282382786273956,-1.049065113067627,0.7065587043762207,-0.1238790675997734,-0.2682665586471557,0.1525809019804
1749031783.106553,5.7775094770566175,0.15659378460135825,-2.3003521215269944,5.350207622953594,0.1849609741911406,-4.435443680767517,-0.053124603640133376,-0.014607604706471522,0.01555182421829863,-0.056941724297887845,-0.012269998542559135,0.021229213071746657,-0.2929794192314148,-1.078067660331726,0.741262674331665,-0.1325279474258422,-0.2514592409133911,0.1770965754985809
1749031783.1065912,5.7774052595982734,0.15656452237777146,-2.300325783772801,5.350091970131253,0.18493621418926565,-4.435405036059959,-0.0547373214679915,-0.015206606189412414,0.016080403504710367,-0.058309204313330115,-0.012224408310132554,0.022273435858488132,-0.3321465849876404,-1.0545167922973633,0.7355747818946838,-0.1013332083821296,-0.2657676339149475,0.1630110442638397
1749031783.1066291,5.777297339066152,0.15653372461846873,-2.3002976576585175,5.349973188825222,0.18491106136773494,-4.435364309072823,-0.05631726618277035,-0.015841088915353067,0.0166647846210471,-0.05966251690377811,-0.012129610239331599,0.023306711418691135,-0.342833936214447,-1.055586814880371,0.7562878727912903,-0.1256220638751983,-0.2370885610580444,0.1642630696296692
1749031783.1066668,5.777185711859429,0.1565012752029252,-2.300267501096932,5.349851065419009,0.1848857361477038,-4.435321443487755,-0.05786617742192136,-0.01649771179947935,0.017297136507494214,-0.06101561979527465,-0.011984021898011928,0.024317415082035602,-0.3000354170799255,-1.073107123374939,0.7343475818634033,-0.1513868570327758,-0.2342898696660995,0.1552473306655883
1749031783.1067066,5.777070415196511,0.1564671093811773,-2.3002351400466288,5.349725407061831,0.18486050678993673,-4.43527640405166,-0.05938782172766589,-0.017163455999456227,0.017968583391586888,-0.06237911764898201,-0.011788040001694857,0.025297117349022197,-0.3165467083454132,-1.0805628299713137,0.7504657506942749,-0.1369622349739074,-0.2423310130834579,0.168629303574562
1749031783.1067443,5.776951531408949,0.1564312212903682,-2.3002004844442325,5.349596079629358,0.1848356661093932,-4.435229178859846,-0.060887814005067264,-0.017826424927224464,0.018669463188302832,-0.0637596973572401,-0.01154517713301779,0.026240362597074775,-0.329519510269165,-1.063668131828308,0.7332369685173035,-0.1499300748109817,-0.2415623515844345,0.1734575480222702
1749031783.1067824,5.776829187706516,0.1563936661271167,-2.3001635383201484,5.349463040985419,0.18481150235807234,-4.435179780921589,-0.06237336554867771,-0.018476469721466666,0.01938957822766155,-0.06516007418207857,-0.011262801898608786,0.027144225968845845,-0.329519510269165,-1.063668131828308,0.7332369685173035,-0.1499300748109817,-0.2415623515844345,0.1734575480222702
1749031783.1068208,5.7767035494466885,0.1563545566005132,-2.300124401824623,5.349326363027004,0.18478826852055846,-4.435128247850734,-0.06385294603085213,-0.0191056378626226,0.02011845740980709,-0.06657947450412714,-0.010952377258371901,0.028007739396847343,-0.3346898555755615,-1.0678863525390625,0.7363436818122864,-0.1499251872301101,-0.2245041728019714,0.1499173492193222
1749031783.1068587,5.77657480568476,0.1563140538532927,-2.3000832637440305,5.349186236984395,0.1847661544730799,-4.435074639123482,-0.06533585387915498,-0.019708458541627442,0.020845650183824425,-0.0680145577180897,-0.010629172422452357,0.028831281013954674,-0.3700324892997741,-1.08157479763031,0.7502006888389587,-0.1374729126691818,-0.234315276145935,0.180738478899002
1749031783.1068966,5.776443147358823,0.1562723535039681,-2.3000403845811714,5.349042959311217,0.18474526544947217,-4.435019030993898,-0.0668316919199918,-0.02028207920571138,0.021561065787702543,-0.06946059159539329,-0.010311491660900927,0.029616015299278545,-0.3433138132095337,-1.084197759628296,0.7461934685707092,-0.1512817591428756,-0.220768928527832,0.1795747429132461
1749031783.106938,5.776308740598716,0.1562296678161688,-2.2999960718834185,5.348896899371205,0.18472560864755083,-4.434961509758684,-0.06834974564886023,-0.020826259688994174,0.022255356493527906,-0.07091266407863513,-0.010019517275405902,0.030363450153848698,-0.3647711873054504,-1.0899615287780762,0.7469262480735779,-0.1438827961683273,-0.2475414276123047,0.1848221570253372
1749031783.1069767,5.776171699383212,0.15618620529456245,-2.2999506505573413,5.348748453563179,0.18470708834953872,-4.434902164495007,-0.06989828302863953,-0.021343224013789925,0.022920328799116426,-0.07236673569599436,-0.009773900006730195,0.031075141054342375,-0.3803227841854095,-1.098645806312561,0.7469549775123596,-0.1675758957862854,-0.2331862449645996,0.1868194043636322
1749031783.1070173,5.776032062469264,0.15614214948139116,-2.2999044312432493,5.348597992816358,0.18468950905515827,-4.43484108049753,-0.07148384339983348,-0.021837370650253974,0.023549359773574235,-0.07382039124278014,-0.009594244369426758,0.03175253136081514,-0.3157879710197449,-1.0531995296478271,0.7448243498802185,-0.128165453672409,-0.2231815010309219,0.1679267585277557
1749031783.1071272,5.775889779238246,0.15609763944887609,-2.2998576797975425,5.3484458117157585,0.1846725859118137,-4.434778334540933,-0.073110626984148,-0.022314848844339152,0.024137799842707065,-0.07527321618272935,-0.00949763545226042,0.032396890854673795,-0.4370738267898559,-1.096510887145996,0.7660648226737976,-0.1306455135345459,-0.2537980675697326,0.1907704025506973
1749031783.107661,5.775744707986991,0.1560527549920932,-2.299810590857272,5.34829208780279,0.18465596184961583,-4.434713992978709,-0.07478010088719973,-0.02278302340086788,0.024683352025416043,-0.07672679646520991,-0.009497349983933033,0.033009315807429225,-0.4370738267898559,-1.096510887145996,0.7660648226737976,-0.1306455135345459,-0.2537980675697326,0.1907704025506973
1749031783.1503077,5.775596628080104,0.1560075091739422,-2.2997632682572906,5.348136858041668,0.18463923064567034,-4.434648113310802,-0.07649090277676841,-0.02324987564247643,0.025186416237326766,-0.0781844210450321,-0.00960188643672567,0.03359077735529669,-0.4181504249572754,-1.0908726453781128,0.7813724875450134,-0.1628754287958145,-0.2479780167341232,0.1784506440162658
1749031783.150355,5.775445264349571,0.15596184947313213,-2.2997157144524705,5.347980015656532,0.1846219643020028,-4.43458074892761,-0.0782390658715395,-0.023723412352463634,0.025650362497590035,-0.0796506322900893,-0.009814416633820832,0.034142227171075304,-0.3812873065471649,-1.0891832113265991,0.7566695213317871,-0.1505544632673263,-0.2376958578824997,0.1751435995101928
1749031783.1503966,5.775290319226534,0.1559156668568768,-2.29966782999747,5.347821325740526,0.184603742150513,-4.434511955689784,-0.08001851742233715,-0.02421115462265383,0.026081654268753737,-0.08113077597547871,-0.010132692385193078,0.03466477045931624,-0.3559181094169616,-1.0982906818389893,0.7418025135993958,-0.1496696025133133,-0.2379780262708664,0.1923388838768005
1749031783.1504362,5.775131506793017,0.15586881043610384,-2.299619422853178,5.347660454390886,0.18458417889255999,-4.434441798554147,-0.081821739396056,-0.024719746960451018,0.026489713294286187,-0.0826306290428285,-0.010549356964321821,0.035159896301506004,-0.4031211137771606,-1.0968685150146484,0.7659942507743835,-0.1222223341464996,-0.2470207810401916,0.1691169142723083
1749031783.150475,5.774968583602577,0.15582110446909528,-2.299570226220217,5.347497004889026,0.18456294946725058,-4.434370356651104,-0.08364046138022407,-0.02525468043477906,0.026886434440801254,-0.08415607041386397,-0.011052557358559515,0.035629728913797676,-0.4149579405784607,-1.0979477167129517,0.7643521428108215,-0.1263652741909027,-0.2407963871955871,0.1844721287488937
1749031783.1505136,5.774801372743749,0.15577236455521382,-2.2995199229119674,5.347330555232881,0.18453980940949985,-4.434297725578971,-0.08546629074275845,-0.02582008658909514,0.02728532805854654,-0.08571268710233773,-0.011626756035341738,0.03607724345125845,-0.3946699500083923,-1.1016179323196411,0.7582764625549316,-0.1527469456195831,-0.2639362812042236,0.1691350936889648
1749031783.150551,5.774629779163898,0.15572241093629527,-2.2994681738781533,5.347160693008498,0.18451460949109438,-4.434224016048369,-0.08729124133707003,-0.02641854979931609,0.027700358287901527,-0.08730522564626324,-0.012253683875551712,0.03650638271600403,-0.4172142446041107,-1.123827338218689,0.7769361734390259,-0.1428052484989166,-0.2734208703041076,0.1578497886657714
1749031783.150591,5.774453795384759,0.15567107848274778,-2.299414648244674,5.34698704527638,0.18448730317468062,-4.43414934859329,-0.08910816281251117,-0.02705091136248271,0.028144622579069693,-0.08893688461453227,-0.012913413020029447,0.036922020320587536,-0.4405432343482971,-1.1165443658828735,0.7837684154510498,-0.1249962002038955,-0.2512790560722351,0.1767163723707199
1749031783.150629,5.774273497550003,0.15561822423613916,-2.2993590521333815,5.346809302450437,0.18445794564589862,-4.434073844913012,-0.0909110836955887,-0.02771608562383856,0.02862906131139093,-0.09060853030593423,-0.01358552409017548,0.03732974361350076,-0.4240255355834961,-1.1322163343429563,0.8164532780647278,-0.1495224088430404,-0.2562755346298218,0.15318663418293
1749031783.1506667,5.774089032587173,0.15556373358241757,-2.2993011536141386,5.3466272359425595,0.18442668437702994,-4.433997617299413,-0.0926954655484678,-0.02841094618811155,0.029161389600389387,-0.09231796550395525,-0.014250300589193037,0.03773547183124622,-0.4337960481643677,-1.1129213571548462,0.814213216304779,-0.1424729079008102,-0.2678669393062591,0.1610871851444244
1749031783.1507044,5.773900598376713,0.15550752541404214,-2.2992408014811665,5.346440709613845,0.18439374270263323,-4.433920758236941,-0.09445833631364108,-0.029130344030820737,0.029745403597246374,-0.09405940180366125,-0.014889840981191201,0.0381449702860746,-0.4068619608879089,-1.104684829711914,0.8135449886322021,-0.1367715746164322,-0.2530072033405304,0.1714946925640106
1749031783.1507416,5.773708419956003,0.1554495557724432,-2.2991779362298344,5.34624968494651,0.18435939878206198,-4.433843332355456,-0.09619825545197563,-0.02986729126043746,0.03038074027755925,-0.09582329751238955,-0.015488971945148264,0.03856335662153233,-0.3889339566230774,-1.1272958517074585,0.810602068901062,-0.1641305834054947,-0.2494100630283355,0.1783830374479293
1749031783.1507783,5.773512725399139,0.15538981907470262,-2.299112592610509,5.346054219646062,0.18432396239043883,-4.433765372360694,-0.09791509013639463,-0.03061330611289008,0.031063087150396632,-0.09759671620132868,-0.01603588285631531,0.038994709361721884,-0.4797957241535187,-1.0985640287399292,0.8203368782997131,-0.1701220721006393,-0.2469118237495422,0.1715654134750366
1749031783.1508155,5.7733137247989506,0.15532834628973566,-2.2990448941478925,5.345854459374651,0.18428775174352208,-4.433686879562521,-0.09960965121509831,-0.031358885811477014,0.031784771230556216,-0.0993643146038251,-0.016522462425055433,0.03944187482695453,-0.4345384240150451,-1.0751702785491943,0.7894234657287598,-0.1609099954366684,-0.2581075727939605,0.1814523190259933
1749031783.1508524,5.773111594812194,0.1552652001024674,-2.2989750407027425,5.345650622525217,0.18425107231326265,-4.433607828523573,-0.1012833092119035,-0.03209406282743575,0.03253561627988709,-0.10110997478495108,-0.01694437604536513,0.03990652543854052,-0.4207141995429992,-1.1210857629776,0.8058690428733826,-0.1779851913452148,-0.2587604224681854,0.1697205156087875
1749031783.1508892,5.772906469786763,0.15520046776247257,-2.2989032905089064,5.345442978322741,0.18421419914661072,-4.4335281744487345,-0.10293773116162067,-0.032809006735957484,0.03330394348242826,-0.10281896509308894,-0.017300956041970968,0.04038946156797656,-0.4126501083374023,-1.1426403522491455,0.7924165725708008,-0.1667403876781463,-0.2538912892341614,0.1688055843114853
1749031783.1509264,5.772698439029371,0.1551342526821865,-2.298829938364386,5.345231819201735,0.18417736347692318,-4.433447861389384,-0.10457483071937547,-0.03349464566050348,0.03407759982135487,-0.10448037261477401,-0.0175949758884992,0.04089109105005392,-0.4202625751495361,-1.1280592679977417,0.8112943768501282,-0.1582064926624298,-0.2461700588464737,0.1638373434543609
1749031783.1509628,5.772487548803612,0.15506666595604268,-2.2987552919065566,5.345017429445979,0.18414074365374344,-4.433366829197719,-0.10619693865343563,-0.034143278914461075,0.03484492372258638,-0.1060894323716529,-0.017832346277147443,0.04141198502968478,-0.4715865850448608,-1.087135672569275,0.8182142972946167,-0.1570549756288528,-0.2517752647399902,0.1587202250957489
1749031783.1510007,5.772273807297218,0.15499781885762015,-2.298679648082203,5.344800053220796,0.18410445989325175,-4.433285017410981,-0.10780712547580577,-0.034749133931383965,0.03559558610857483,-0.10764932376225203,-0.01802172656940806,0.04195340273147025,-0.431685209274292,-1.0990376472473145,0.8003600835800171,-0.1652030050754547,-0.2370903939008712,0.1895075291395187
1749031783.151038,5.77205719077814,0.15492781693817043,-2.2986032718929876,5.344579865835592,0.18406857221147888,-4.4332023648078716,-0.10940956303888089,-0.035308806808407,0.03632126400986984,-0.1091720392989539,-0.01817401860373276,0.04251769078907618,-0.4148374795913696,-1.1156693696975708,0.7821630239486694,-0.1505237221717834,-0.256226509809494,0.1790272891521453
1749031783.1510754,5.771837649347563,0.15485675572839663,-2.2985263791866,5.344356951924126,0.18403308112339456,-4.4331188042134215,-0.11100979214541304,-0.03582153216829091,0.03701611122810085,-0.11067805567681299,-0.018301717289526898,0.043108479120200695,-0.4171071350574493,-1.106215000152588,0.8230000734329224,-0.1618189364671707,-0.2536377310752868,0.1885314881801605
1749031783.1519098,5.771615111307158,0.15478471772293054,-2.2984491247506362,5.3441312932533025,0.1839979310284544,-4.433034253249871,-0.11261476635279084,-0.03628924720915887,0.0376769953895321,-0.11219472665652161,-0.018418128926459297,0.04373061089501686,-0.4581314623355865,-1.0938842296600342,0.801321804523468,-0.1830432265996933,-0.2259536534547805,0.1707910001277923
1749031783.1536975,5.7713894861386414,0.15471177056987262,-2.298371596388609,5.34390276749637,0.1839630162711848,-4.4329486030836325,-0.11423257638519156,-0.03671643485988786,0.03830348279139865,-0.1137535279821011,-0.018536514147257467,0.04438976941978281,-0.4303515553474426,-1.074590802192688,0.77677983045578,-0.1655505001544952,-0.2558746933937073,0.1712795197963714
1749031783.1942976,5.771160666838327,0.15463796683854822,-2.2982938150499215,5.343671157966002,0.1839281895354385,-4.432861708426819,-0.11587182688499038,-0.0371097530078846,0.038897575933001506,-0.11538647385294629,-0.018669244461858685,0.04509181115053521,-0.4004526734352112,-1.1110135316848757,0.7847694158554077,-0.2055288255214691,-0.2443629801273346,0.1748605370521545
1749031783.1943443,5.770928532377303,0.15456334579811867,-2.2982157404305004,5.343436173175305,0.18389327189011975,-4.432773382462005,-0.11754072344297328,-0.03747748549167156,0.03946324507680778,-0.11712216371781088,-0.01882706564388375,0.04584187992050769,-0.4592726230621338,-1.093140959739685,0.8144064545631409,-0.2331160306930542,-0.2627273499965668,0.1768197268247604
1749031783.194389,5.770692950641151,0.1544879370904486,-2.298137280868431,5.343197474215288,0.18385806385693482,-4.4326833995104,-0.11924600787068396,-0.037828880315957,0.040005837973339384,-0.11898198658739138,-0.019018539866623795,0.04664344368206069,-0.4486983120441437,-1.1113519668579102,0.8005630373954773,-0.2025928795337677,-0.2573130130767822,0.1917322874069214
1749031783.194429,5.770453781918132,0.15441176535298687,-2.298058306024987,5.342954707332964,0.1838223570897418,-4.43259150637469,-0.12099192825169443,-0.03817345929323275,0.04053147698588821,-0.12097698893278186,-0.019249702604976788,0.04749743129765333,-0.4293851554393768,-1.1356343030929563,0.8021548986434937,-0.2013541162014007,-0.2765186429023742,0.2003297209739685
1749031783.1944675,5.770210882956888,0.15433485428890978,-2.2979786608241026,5.3427075387108465,0.18378594612755067,-4.432497441166021,-0.1227794315122845,-0.03852038340854448,0.04104653661649516,-0.12310580894699238,-0.019523931562171436,0.048401629828448214,-0.4370639622211456,-1.127932071685791,0.7752548456192017,-0.2290097028017044,-0.2572634816169739,0.20424385368824
1749031783.1945057,5.769964111482349,0.15425722876794723,-2.2978981792673827,5.342455688159437,0.18374863929400434,-4.432400956818456,-0.12460572169986354,-0.03887794034866575,0.04155724563682434,-0.12535393939165332,-0.019841994713056126,0.04935043630643429,-0.448822945356369,-1.1239159107208252,0.7896144390106201,-0.2254347205162048,-0.2617238461971283,0.2121065855026245
1749031783.1945438,5.769713330757562,0.1541789142908382,-2.2978166968637934,5.3421989583090195,0.1837102678109559,-4.432301845651036,-0.12646425591254468,-0.039253193281811156,0.04206941325354029,-0.12769444065754296,-0.02020223116456207,0.050334973271882376,-0.4336524605751037,-1.152191162109375,0.8013991713523865,-0.2425548881292343,-0.2755773961544037,0.1885035634040832
1749031783.194582,5.769458413720047,0.15409993418592205,-2.297734060523918,5.3419372562300005,0.18367069283966142,-4.432199961222151,-0.12834517493123698,-0.03965180474512522,0.04258826140211566,-0.13009007873360173,-0.020600822830400156,0.05134350897820522,-0.4881810545921325,-1.1354020833969116,0.8027704954147339,-0.2024444192647934,-0.2578777372837066,0.1980479806661605
1749031783.1946204,5.769199246699908,0.15402030562697458,-2.2976501350200755,5.341670605323044,0.18362981089645872,-4.432095234338976,-0.13023610374340466,-0.040078031454096316,0.043118343770689335,-0.13249669498610708,-0.021032132621412205,0.05236208944050258,-0.4090307056903839,-1.149338960647583,0.7832509279251099,-0.2181949764490127,-0.2838881313800812,0.1993008702993393
1749031783.194658,5.768935733297,0.15394003557671593,-2.2975648055555524,5.341399146491295,0.1835875581495181,-4.431987681347125,-0.1321232179498193,-0.040534869616320884,0.0436635241395341,-0.13486744642387435,-0.021489108858545148,0.0533752935710601,-0.5246312022209167,-1.1708022356033323,0.8187171220779419,-0.2347718477249145,-0.2940978407859802,0.2045652419328689
1749031783.1946962,5.768667798908679,0.15385911719366951,-2.2974779765150877,5.341123128723535,0.18354391340526777,-4.431877404298419,-0.13399245368187576,-0.04102430904774436,0.04422697160138061,-0.1371574287892808,-0.021963774200288548,0.054367056249083966,-0.4386427104473114,-1.1411713361740112,0.7973138093948364,-0.206270083785057,-0.2859866619110107,0.2034728378057479
1749031783.1947334,5.7683953955775555,0.15377752656910806,-2.297389566980946,5.340842890241567,0.1834988987885633,-4.431764583700719,-0.13583073133562087,-0.04154763075162932,0.04481112563030262,-0.1393281424729917,-0.022447814690553215,0.05532154360793585,-0.4455164968967438,-1.1414555311203003,0.7873775959014893,-0.2147216647863388,-0.2764343023300171,0.2043927013874054
1749031783.1947706,5.768118505991124,0.153695219369425,-2.297299504070923,5.340558832291338,0.1834525768638472,-4.43164946509805,-0.13762706942346625,-0.04210567001447674,0.045417599052402134,-0.1413512930836856,-0.022933250650396822,0.05622407817302417,-0.4794417917728424,-1.1633380651474,0.7959279417991638,-0.1811657547950744,-0.2719652056694031,0.1932740211486816
1749031783.194808,5.767837145411716,0.1536121273041808,-2.297207715599331,5.34027138834052,0.18340504338437186,-4.431532341053454,-0.13937349725944886,-0.042698977915576565,0.04604701561373456,-0.1432115241297422,-0.023413116515040005,0.05706208438729919,-0.5177318453788757,-1.1581335067749023,0.7847362756729126,-0.1947089284658432,-0.2758055925369262,0.1992778480052948
1749031783.1948454,5.767551361175869,0.15352815515993698,-2.2971141239490964,5.33998099175078,0.18335641582082077,-4.431413530564052,-0.14106572506381784,-0.043327845182282505,0.046698808107486924,-0.14490783884092062,-0.02388203216057213,0.05782597788576537,-0.4601626992225647,-1.1624090671539309,0.8014044761657715,-0.1820829957723617,-0.2753730416297912,0.1873108148574829
1749031783.194883,5.767261230454796,0.15344317983449382,-2.2970186432056696,5.339688044874669,0.18330681905895108,-4.431293358358886,-0.14270355939053275,-0.043992186106322426,0.047371018668476296,-0.146453658742603,-0.02433654439382516,0.058509893357398084,-0.4660484492778778,-1.1792069673538208,0.7668688297271729,-0.1897365748882293,-0.2744879126548767,0.1829497367143631
1749031783.1949244,5.766966857340215,0.15335705279424913,-2.296921181250906,5.339392892006234,0.1832563707570905,-4.431172136438756,-0.14429103820392847,-0.04469130302415188,0.048060140913542986,-0.14787564966976213,-0.024775163188093342,0.059112158069339484,-0.4267195761203766,-1.161454439163208,0.7819038033485413,-0.1751189976930618,-0.276111751794815,0.1772728860378265
1749031783.1949627,5.766668369909941,0.15326960664699607,-2.296821647492416,5.339095797797658,0.18320516927208208,-4.431050149444714,-0.14583623026143416,-0.04542356368839171,0.04876104056378962,-0.14921157256764803,-0.025198095760309326,0.059635461949173775,-0.4917214512825012,-1.170657992362976,0.8220922946929932,-0.1941117048263549,-0.2813517451286316,0.1763354241847992
1749031783.1949997,5.766365917287471,0.1531806655553856,-2.2967199654649253,5.338796931788778,0.18315328646342505,-4.430927644302688,-0.14735064296299938,-0.0461860314592536,0.04946700063678544,-0.15050746196631978,-0.025606759420788796,0.060086726333123126,-0.4386435151100158,-1.145244002342224,0.8074048757553101,-0.2303221970796585,-0.2810637354850769,0.1697748005390167
1749031783.1950366,5.766059666256259,0.15309005845165152,-2.296616088245438,5.338496358744548,0.18310076622648244,-4.430804823541951,-0.14884822718683435,-0.04697409768199034,0.05016993937717905,-0.15181440916998976,-0.026003198395420497,0.06047671296060263,-0.4374023675918579,-1.1569736003875732,0.7696210145950317,-0.2216324061155319,-0.2700248062610626,0.1685807406902313
1749031783.1956563,5.765749796868628,0.15299763357783133,-2.296510013960829,5.338194033792093,0.1830476278896585,-4.430681841025963,-0.15034404293761158,-0.04778118219106167,0.05086081618142083,-0.15318515194734328,-0.026389524560122824,0.06081943394272561,-0.4309729933738708,-1.2066242694854736,0.7559785842895508,-0.2228769063949585,-0.2612777352333069,0.1695546209812164
1749031783.1976397,5.765436496860927,0.15290327271014825,-2.29640179877172,5.337889801123503,0.1829938724228934,-4.430558798727483,-0.15185273583966996,-0.04859858916289387,0.05153018845651252,-0.1546705741842277,-0.02676745743203166,0.06113142248964232,-0.4809091091156006,-1.1710313558578491,0.7863397002220154,-0.2138508707284927,-0.2836428582668304,0.1630691885948181
1749031783.238279,5.765119955452589,0.15280690344572592,-2.2962915653319076,5.337583395375097,0.1829394892654793,-4.430435743683035,-0.1533870429011911,-0.04941561093754303,0.05216885330975494,-0.15631613676713618,-0.027137984151728575,0.06143091074896847,-0.4380271434783935,-1.168997287750244,0.7677167654037476,-0.2142654508352279,-0.2610184848308563,0.1738813072443008
1749031783.2383273,5.764800357578305,0.15270850808125433,-2.296179505414243,5.337274445633465,0.18288446235846706,-4.430312665206137,-0.15495655545967316,-0.05021994063055053,0.05276850986964616,-0.1581582410359945,-0.027501123202106882,0.06173694711293376,-0.4658892750740051,-1.1388462781906128,0.7504593133926392,-0.2159774601459503,-0.2803390622138977,0.1622863262891769
1749031783.2383726,5.764477879115856,0.15260812792947684,-2.296065875963565,5.336962483039404,0.18282877502473682,-4.43018949338659,-0.1565668980270406,-0.05099839750109028,0.05332238072137123,-0.16022060008009156,-0.02785576653120052,0.062068480611112274,-0.4398567080497741,-1.1735451221466064,0.7525581121444702,-0.2242474853992462,-0.264408528804779,0.1692637205123901
1749031783.2384143,5.764152682524639,0.1525058624485227,-2.295950988479765,5.336646953659391,0.18277241406791905,-4.430066100332106,-0.15821936866897224,-0.05173792305914428,0.053825722214488635,-0.1625108569596143,-0.028199589004144755,0.06244344606926371,-0.4351497888565063,-1.1544122695922852,0.7475633025169373,-0.2581321597099304,-0.2600738704204559,0.1565201878547668
1749031783.238453,5.763824911587675,0.15240186316889404,-2.295835192558892,5.336327238310245,0.1827153736046097,-4.429942305231602,-0.1599109942181738,-0.05242678070492974,0.05427615601260643,-0.16501788990412716,-0.02852904258371732,0.06287789463424459,-0.4669738113880157,-1.159876585006714,0.7723476886749268,-0.2425457239151001,-0.2714045941829681,0.169757068157196
1749031783.238496,5.763494684407642,0.15229632285575825,-2.29571885543171,5.336002680361298,0.18265765880235196,-4.429817883359743,-0.16163491930618454,-0.0530558614005872,0.05467378416021942,-0.1677103900212965,-0.028839483962381077,0.06338522211966836,-0.4625207781791687,-1.1524571180343628,0.7512050867080688,-0.2758399248123169,-0.2739282548427582,0.1786139160394668
1749031783.238536,5.763162085187553,0.15218946067533606,-2.295602339973696,5.335672621457102,0.1825992891771112,-4.429692578195896,-0.16338106191012117,-0.05361994809739167,0.05502109129331313,-0.17053729822999467,-0.029125501451733347,0.06397554447146206,-0.4124683141708374,-1.1328458786010742,0.7365729212760925,-0.2872165441513061,-0.2691342234611511,0.192284345626831
1749031783.238574,5.762827156687965,0.15208150463769954,-2.2954859836543324,5.335336443869578,0.18254030073825456,-4.429566115301672,-0.16513699803427176,-0.0541187475381196,0.05532266764736994,-0.17343050680390526,-0.029381490929575087,0.06465524980219554,-0.4768723249435425,-1.125680923461914,0.7461398243904114,-0.2823818922042846,-0.2898471355438232,0.1915407031774521
1749031783.2386165,5.7624898957759365,0.15197267323380007,-2.295370080347709,5.334993616900835,0.18248074629158312,-4.429438216441968,-0.16688905612003505,-0.05455749414290485,0.05558480251705241,-0.1763098853165846,-0.029602474041442874,0.06542672483030125,-0.49857097864151,-1.135117530822754,0.7526517510414124,-0.2849829792976379,-0.2590572237968445,0.195078045129776
1749031783.2386563,5.762150253967196,0.15186315844792117,-2.29525486613018,5.334643743437608,0.18242069368500433,-4.4293086125108,-0.16862358821103723,-0.05494697456263653,0.055815008877199854,-0.17909024293942183,-0.029785068155324397,0.06628822738771538,-0.4528954029083252,-1.1404728889465332,0.7632840275764465,-0.2631406188011169,-0.2693521976470947,0.2087642699480056
1749031783.238695,5.761808143608017,0.15175311188794685,-2.295140509452178,5.334286601618301,0.18236022243265668,-4.4291770542265745,-0.17032833163710545,-0.05530289759147134,0.056021546808719305,-0.18168939706012757,-0.02992843764852075,0.06723387175661887,-0.406667560338974,-1.0982704162597656,0.7489184141159058,-0.2048493027687072,-0.2384393662214279,0.2115176320075988
1749031783.2387326,5.761463448839405,0.15164263498061886,-2.295027105577186,5.333922176051353,0.18229941947067715,-4.429043320409699,-0.17199370060899077,-0.05564462695598572,0.05621301009244217,-0.18403622007183015,-0.030035014764649336,0.06825371068419893,-0.4463529884815216,-1.1485543251037598,0.7577846050262451,-0.2313654273748397,-0.227428525686264,0.2061299383640289
1749031783.23877,5.761116039302842,0.15153177354025224,-2.2949146748826093,5.333550673545306,0.18223837462205444,-4.4289072247156795,-0.17361380225064302,-0.05599339479308751,0.05639802639106271,-0.18607749054144274,-0.030110800235745524,0.06933392292692357,-0.4491796195507049,-1.1720434427261353,0.7756789326667786,-0.1610945910215377,-0.2384341061115265,0.1866440922021865
1749031783.238807,5.760765784160721,0.15142051664378248,-2.294803164386747,5.333172520045683,0.18217717607008915,-4.428768622352182,-0.17518700505170082,-0.05637020468102237,0.05658510037877125,-0.18778260498877322,-0.03016514128763093,0.07045713285751784,-0.4470037221908569,-1.1507304906845093,0.7666240930557251,-0.2077308446168899,-0.2446294575929641,0.2034321129322052
1749031783.2388442,5.760412564518249,0.15130879946453496,-2.2946924517752976,5.332788338100393,0.18211590606064013,-4.428627418031119,-0.17671599876874305,-0.056793685161362684,0.05678259987091209,-0.18914564415360233,-0.030210007731885372,0.07160289934915497,-0.4140483140945434,-1.136307716369629,0.7583059668540955,-0.1972841918468475,-0.2349553853273391,0.202607125043869
1749031783.238881,5.760056283369467,0.15119650948453586,-2.294582351402995,5.33239890686685,0.18205463701686272,-4.428483575242736,-0.17820741900366485,-0.05727815033321969,0.05699884650181046,-0.19018480464489979,-0.030258893557152958,0.07274842698682897,-0.4631957709789276,-1.162296175956726,0.775101900100708,-0.2149320840835571,-0.2388095557689666,0.2247877717018127
1749031783.2389183,5.759696873066046,0.15108349541991678,-2.2944726221019627,5.332005108615117,0.18199342805662516,-4.4283371254151955,-0.17967120327233543,-0.0578320817619592,0.05724223487058567,-0.19093965271732946,-0.03032552319183995,0.07386956769341381,-0.45614954829216,-1.154344081878662,0.7706296443939209,-0.2238062918186187,-0.2397185713052749,0.2249970734119415
1749031783.238959,5.759334300420188,0.15096957826460927,-2.294362976795538,5.331607866677938,0.18193232160588507,-4.428188174264292,-0.18111986439872166,-0.058457194199307186,0.057521284375281055,-0.19146690897101712,-0.030422541081973606,0.07494215950794883,-0.4796116054058075,-1.1531212329864502,0.7653961181640625,-0.2262654155492782,-0.2342598587274551,0.2131169289350509
1749031783.2389965,5.758968568861498,0.1508545639718526,-2.2942530938175505,5.331208080224215,0.18187133960099378,-4.428036902246036,-0.18256781056900145,-0.059148186995344326,0.05784453539885441,-0.1918354906110841,-0.030560340724935894,0.07594366529993932,-0.4128661751747131,-1.1591150760650637,0.7555134892463684,-0.2063331604003906,-0.2570867240428924,0.1995887160301208
1749031783.2390337,5.7585997163170335,0.15073825736393048,-2.2941426297220167,5.330806561438423,0.18181047890865415,-4.427883556940719,-0.18403073513747972,-0.05989320131885068,0.05822023366843067,-0.19212137270629934,-0.030746166501142883,0.07685495525150254,-0.4647013247013092,-1.1740694046020508,0.7909501194953918,-0.1929657459259033,-0.2661312520503998,0.1823403239250183
1749031783.2396622,5.758227807670266,0.15062047682580162,-2.2940312333890103,5.330403980655964,0.1817497061904384,-4.427728437205856,-0.18552499739805445,-0.06067491158957849,0.058655797748390005,-0.1924025839130379,-0.030983592940033167,0.07766199339623936,-0.4742990434169769,-1.1600050926208496,0.8152610063552856,-0.1845550239086151,-0.2578802704811096,0.1979475617408752
1749031783.2416458,5.757852922011346,0.15050106911361208,-2.2939185612152153,5.33000082452304,0.18168895328286655,-4.4275718710258385,-0.18706688001952274,-0.061472105735641366,0.05915712568967774,-0.19275443809130705,-0.03127243170349231,0.0783571932013603,-0.449919044971466,-1.125939965248108,0.8061005473136902,-0.1681027859449386,-0.2582195401191711,0.1839539408683776
1749031783.2822783,5.757475136565726,0.1503799231887129,-2.2938042928993556,5.329597371173479,0.18162811473674448,-4.427414190140258,-0.18867166234626495,-0.06226156877275892,0.059727848496468255,-0.193245015364972,-0.031609032752336376,0.07894028752030145,-0.4875340163707733,-1.1202616691589355,0.7917306423187256,-0.1753032803535461,-0.2254151403903961,0.1908896416425705
1749031783.2823253,5.757094510108468,0.15025698156204892,-2.293688146885947,5.329193684686425,0.18156704904099796,-4.427255704560555,-0.190352553327461,-0.06302007645116281,0.06036866236565515,-0.1939309807082693,-0.03198686178162386,0.07941865271532798,-0.5505032539367676,-1.1464693546295166,0.8486593961715698,-0.1813763976097107,-0.2386944591999054,0.1956872344017028
1749031783.282365,5.7567110685363065,0.1501322475034961,-2.2935698942402762,5.32878962879022,0.1815055842800922,-4.427096679457865,-0.1921196149066843,-0.06372632147247376,0.0610768710126696,-0.1948540112949648,-0.03239719639011589,0.07980708694744175,-0.5214881896972656,-1.135289430618286,0.847211480140686,-0.2187981158494949,-0.2496275603771209,0.1878283470869064
1749031783.2824044,5.756324794511479,0.15000578679837745,-2.293449369731499,5.328384897281999,0.18144352798887434,-4.426937316057553,-0.19397882565832977,-0.06436262116893669,0.06184625362697393,-0.19603827038242255,-0.03282981370094853,0.08012706695131881,-0.4607029557228088,-1.1053307056427002,0.8467101454734802,-0.232539415359497,-0.2496040314435959,0.1716111451387405
1749031783.2824433,5.75593562215664,0.14987772347725484,-2.29332647903698,5.327979056512774,0.18138068027625845,-4.4267777373519595,-0.19593138985248768,-0.06491628122023874,0.06266733710058126,-0.19748938711551028,-0.03327362212329332,0.08040551855137242,-0.4803150296211242,-1.0916457176208496,0.8460588455200195,-0.2301853597164154,-0.2699301540851593,0.2016676366329193
1749031783.282482,5.755543436840346,0.14974822997847467,-2.2932012011071374,5.327571594021187,0.18131684903827222,-4.4266179789639235,-0.1979733482223508,-0.0653805158566394,0.06352808596022953,-0.19919522036078063,-0.0337172646918897,0.08067314922005758,-0.5627501606941223,-1.0846381187438965,0.8525891304016113,-0.2392425239086151,-0.270601749420166,0.1848929971456527
1749031783.2825203,5.755148079331009,0.1496175132192097,-2.2930735849254504,5.327161967233608,0.18125186599292445,-4.426457985570223,-0.20009554464213278,-0.06575486246042934,0.06441494455637765,-0.20112834737258264,-0.03414974286882667,0.08096241113233055,-0.5270037055015564,-1.119823694229126,0.8617787957191467,-0.2075149565935135,-0.2663584053516388,0.1971972584724426
1749031783.2825582,5.754749353299326,0.14948579852698313,-2.2929437403136976,5.326749647125033,0.18118560205592324,-4.426297613598516,-0.2022840234668269,-0.06604508082549806,0.06531409533239123,-0.20324985254783892,-0.03456107293775944,0.08130519256741887,-0.5095199346542358,-1.0751581192016602,0.8272480964660645,-0.1931516826152801,-0.2600184082984924,0.1826277077198028
1749031783.282596,5.754347035350239,0.1493533130897889,-2.2928118231230568,5.326334153595524,0.18111798027442252,-4.426136640864013,-0.20452090455421285,-0.06626258008223591,0.06621274400670941,-0.20551374068403802,-0.034942928852139475,0.0817303735065259,-0.5232728719711304,-1.0948224067687988,0.818843424320221,-0.161465510725975,-0.2469202429056167,0.1958226263523101
1749031783.282633,5.753940887075387,0.1492202699627782,-2.292678016047012,5.325915081399109,0.18104898434779093,-4.42597478324304,-0.20678568476296194,-0.06642345356905696,0.06710021751909674,-0.20787125561917708,-0.035289191502895764,0.08226142094413731,-0.5076920390129089,-1.097877025604248,0.8073755502700806,-0.1806639432907104,-0.2717297971248626,0.1711264550685882
1749031783.2826707,5.753530668612491,0.14908685337612518,-2.292542507173665,5.325492117001742,0.1809786608950875,-4.425811717629268,-0.20905680133270527,-0.06654722326642179,0.06796868594598617,-0.21027455711852994,-0.035596336955898714,0.08291423029722259,-0.5218198299407959,-1.1315758228302002,0.8527855277061462,-0.1877754628658294,-0.2738047838211059,0.2059798538684845
1749031783.282708,5.753116152903838,0.148953206288697,-2.2924054689282736,5.325065047428141,0.1809071143023254,-4.425647109504307,-0.211313233798098,-0.06665540709123523,0.06881340518615575,-0.21267951850794845,-0.03586364131434421,0.0836954362253769,-0.4874800443649292,-1.0644510984420776,0.8189113140106201,-0.1955848485231399,-0.2633881866931915,0.2218972593545913
1749031783.2827454,5.752697139633206,0.14881942136848839,-2.292267039994616,5.324633762199685,0.18083449423310727,-4.425480642583798,-0.21353594437727988,-0.06677002452400518,0.0696324950560558,-0.21504771613134732,-0.03609322095801065,0.0846014165221017,-0.4970093071460724,-1.1162729263305664,0.8122723698616028,-0.215457871556282,-0.2651625573635101,0.2194366604089737
1749031783.2827826,5.752273467863585,0.1486855362711249,-2.2921273121931534,5.324198249171412,0.180760977322868,-4.425312047318378,-0.2157090421144215,-0.06691214715439936,0.07042637181677032,-0.2173478510322512,-0.03628993634111567,0.08561817947753303,-0.5663982033729553,-1.1430455446243286,0.8652848601341248,-0.2176709473133087,-0.2599360644817352,0.2318252027034759
1749031783.282823,5.751845026505429,0.14855153324454798,-2.291986323424065,5.323758584650245,0.18068674562596748,-4.425141124790177,-0.21782064756943198,-0.06710058151151009,0.07119701778816642,-0.21955681529840348,-0.0364611700148965,0.08672223355934534,-0.5575056672096252,-1.0930938720703125,0.8643163442611694,-0.2113668173551559,-0.2807059288024902,0.2097140848636627
1749031783.2828617,5.751411761750594,0.1484173423806081,-2.291844056925649,5.32331491795557,0.18061196479496988,-4.42496776299601,-0.21986346762784215,-0.06735074381457193,0.07194728296990245,-0.221660446672765,-0.03661646986011021,0.0878823953891682,-0.5193769931793213,-1.1397154331207275,0.8434552550315857,-0.14520363509655,-0.2901161611080169,0.2125784009695053
1749031783.2828994,5.750973680627017,0.1482828477777275,-2.291700446353126,5.322867451010231,0.180536764917094,-4.424791943633657,-0.22183504921446812,-0.06767376082937554,0.07268036694228591,-0.22365383454344256,-0.036767039025413256,0.08906235033212478,-0.4781013131141662,-1.1325807571411133,0.8382298350334167,-0.1422003507614135,-0.2712202072143554,0.2357599437236786
1749031783.2829366,5.750530850071366,0.1481478962792755,-2.291555385568293,5.322416414688851,0.1804612265995747,-4.424613739024188,-0.2237376317303866,-0.06807582366849121,0.07339953479382452,-0.22554097167534073,-0.03692504946585714,0.09022369244204373,-0.5594708919525146,-1.1260167360305786,0.8370963335037231,-0.1407813727855682,-0.264780044555664,0.2066507339477539
1749031783.2829735,5.750083391488358,0.14801230875834506,-2.291408741601831,5.321962044892552,0.1803853741989612,-4.4244333004069825,-0.22557754167400143,-0.06855782986104778,0.07410801771511508,-0.22733363886727206,-0.03710275921164824,0.09132914177994778,-0.5160187482833862,-1.134185552597046,0.8249090909957886,-0.1527334600687027,-0.2734564542770386,0.21132792532444
1749031783.2830107,5.749631471661231,0.14787589380417274,-2.291260369072301,5.321504561786854,0.18030917695097876,-4.4242508401984475,-0.2273641720018539,-0.06911535536986646,0.07480897906145131,-0.2290496131686463,-0.037311446198532106,0.09234563737802916,-0.5221577286720276,-1.1519042253494265,0.8227827548980713,-0.1913684010505676,-0.2769205272197723,0.1966556757688522
1749031783.283644,5.749175291864745,0.14773846319673786,-2.29111012447006,5.321044154935018,0.18023255742629524,-4.424066611413798,-0.22910868983397806,-0.06973899414387291,0.07550540964951194,-0.23071048442194858,-0.03756024664293521,0.09324701790530746,-0.4914875626564026,-1.1856439113616943,0.8080167174339294,-0.184217095375061,-0.2904407978057861,0.1829891502857208
1749031783.285629,5.7487150775556435,0.1475998479944594,-2.290957879180683,5.32058097554549,0.1801554055999992,-4.423880887013509,-0.23082265733190516,-0.0704150875275096,0.07619985024904202,-0.23233943708215804,-0.037855078107892674,0.09401604068096212,-0.5430341362953186,-1.156677007675171,0.8139655590057373,-0.1677923053503036,-0.3077684938907623,0.2006969600915908
1749031783.3262787,5.748251070539745,0.14745991364565927,-2.2908035308260315,5.3201151354296785,0.18007759607867463,-4.423693940802646,-0.232516732648539,-0.07112683222745553,0.07689391006266594,-0.2339592703552818,-0.03819788062565226,0.09464556249877537,-0.5636537075042725,-1.1894375085830688,0.8206705451011658,-0.1517937928438186,-0.3027013540267944,0.181966483592987
1749031783.3263254,5.74778352404602,0.14731857243038077,-2.2906470130970606,5.319646711048669,0.17999900572702304,-4.423506030441497,-0.2341995722175885,-0.07185570182202547,0.07758763267506158,-0.23559075436045357,-0.03858637625820722,0.0951388009060943,-0.5027198195457458,-1.1610108613967896,0.8190621733665466,-0.195048987865448,-0.3154185712337494,0.1809601187705993
1749031783.3263657,5.74731269931757,0.1471757917531464,-2.2904883043705797,5.319175750350893,0.17991952908669967,-4.423317382641419,-0.23587700600188388,-0.07258305774082549,0.07827882929993346,-0.23725127260939766,-0.03901442602733534,0.09550868881925706,-0.4960705637931824,-1.114108920097351,0.7869454026222229,-0.1457929760217666,-0.2820962369441986,0.1774085462093353
1749031783.3264053,5.746838861030513,0.14703159717706804,-2.290327434958087,5.318702279800917,0.17983908952976704,-4.423128180699821,-0.23755151952359976,-0.07329178104563559,0.07896253956520033,-0.23895367112146382,-0.03947290284381966,0.09577641505710482,-0.5656602382659912,-1.1901144981384275,0.8167333006858826,-0.1718688011169433,-0.2976897358894348,0.2071391940116882
1749031783.3264449,5.746362268704134,0.1468860695064993,-2.2901644921032984,5.318226308920148,0.1797576449845371,-4.422938554770622,-0.2392220602191566,-0.07396774121512267,0.07963079005483456,-0.24070531799795342,-0.03995087047879838,0.09596931002187939,-0.5259490609169006,-1.1269197463989258,0.7980414628982544,-0.2120111584663391,-0.277151495218277,0.1781940758228302
1749031783.326484,5.745883162427517,0.1467393357272017,-2.28999962129932,5.31774782999065,0.1796751882443222,-4.422748575303964,-0.24088417993424244,-0.07460093888578363,0.08027279426296553,-0.2425074899611355,-0.0404368079929767,0.09611828941490255,-0.4935063123703003,-1.1324957609176636,0.8042289614677429,-0.210359588265419,-0.2825455665588379,0.1732509732246399
1749031783.3265226,5.745401743361183,0.14659155416857594,-2.289833022566442,5.317266811653955,0.17959174300822497,-4.422558249902093,-0.2425305047898709,-0.07518620704444809,0.0808756666394117,-0.24435524903211275,-0.04091964934495417,0.09625510001560109,-0.4859514534473419,-1.1347931623458862,0.7986925840377808,-0.2203952372074127,-0.2805071473121643,0.187215119600296
1749031783.3265605,5.744918151765103,0.14644289475697372,-2.2896649411771732,5.316783186911712,0.1795073574615015,-4.422367523608231,-0.24415148231703282,-0.07572340985842689,0.08142561465896794,-0.246237904964668,-0.04138949323953997,0.09640961563961503,-0.5646420121192932,-1.171347737312317,0.7556454539299011,-0.2171244621276855,-0.2945529818534851,0.2044422328472137
1749031783.3265982,5.744432446705119,0.14629351578339456,-2.2894956536806976,5.316296837940421,0.17942209726045372,-4.422176282484622,-0.2457363155957878,-0.07621712650663152,0.08190945172244936,-0.2481400001002608,-0.04183794497496904,0.09660741529240512,-0.5284658074378967,-1.149929761886597,0.7795560359954834,-0.2080903798341751,-0.2977318465709686,0.2140524387359619
1749031783.3266363,5.743944591465597,0.14614353942686595,-2.2893254513284407,5.315807581559986,0.17933603944377308,-4.4219843603219084,-0.2472739713036025,-0.07667584737748055,0.08231617914925216,-0.2500425924213451,-0.04225815070872334,0.09686784622241884,-0.5250004529953003,-1.1651663780212402,0.7638995051383972,-0.1710721999406814,-0.2960170209407806,0.2170548886060714
1749031783.3266735,5.743454447412619,0.14599302921081478,-2.2891546234948263,5.315315159841357,0.17924926816119124,-4.421791548502099,-0.24875413918852451,-0.07711074726130553,0.08263835879769132,-0.2519245573278703,-0.0426446528051421,0.0972027372890241,-0.4190764725208282,-1.1286954879760742,0.7390141487121582,-0.1804543137550354,-0.2894372940063476,0.2454107999801635
1749031783.3267112,5.742961777711539,0.14584197305284263,-2.288983443303023,5.314819240142951,0.1791618722878476,-4.421597609256231,-0.2501680271629528,-0.07753414225917234,0.08287305605670596,-0.25376372783385365,-0.042993214725069624,0.09761588785949378,-0.4850504994392395,-1.1766082048416138,0.783135712146759,-0.2135133147239685,-0.3003607094287872,0.2379424422979354
1749031783.3267498,5.742466261765902,0.1456902751377301,-2.2888121568582926,5.3143194278781225,0.17907394440316146,-4.421402292518871,-0.2515089178191724,-0.07795778704660546,0.08302225168652363,-0.25553789258957327,-0.04330072823073725,0.09810340362532913,-0.4560106098651886,-1.1528058052062988,0.7454031705856323,-0.2354779541492462,-0.2813447117805481,0.2188791632652282
1749031783.3267865,5.741967521312099,0.14553775860540635,-2.2886409767490914,5.313815293649862,0.17898558067504788,-4.4212053561165,-0.25277249593399936,-0.07839121786176087,0.08309275075334606,-0.25722584173806584,-0.04356524464494343,0.09865485872437371,-0.465686947107315,-1.1658374071121216,0.7615830302238464,-0.2499195337295532,-0.2637325227260589,0.2250087261199951
1749031783.326824,5.741465158652133,0.1453841795164248,-2.2884700799003364,5.313306414194812,0.178896881681216,-4.4210065881786225,-0.2539570555236896,-0.07884037526460663,0.0830957128701258,-0.25880867342090363,-0.04378610684607768,0.09925513838370417,-0.5228586196899414,-1.174053192138672,0.742330014705658,-0.2206697165966034,-0.2602726221084595,0.2158202528953552
1749031783.326861,5.740958805567953,0.1452292511202092,-2.288299609284844,5.3127924239726685,0.1788079544101882,-4.42080582960989,-0.25506375541038123,-0.07930673281228233,0.08304596758324785,-0.26027143340746267,-0.043964127308118994,0.09988671050479862,-0.5302403569221497,-1.1778571605682373,0.7691243886947632,-0.2303527891635894,-0.2793639600276947,0.2272289991378784
1749031783.3268986,5.740448178028801,0.14507267606502003,-2.2881296782451224,5.312273071168271,0.1787189151534532,-4.420602993453271,-0.25609706621176703,-0.07978710706154134,0.08296126240473971,-0.26160496066493943,-0.044101753588711316,0.10053203421231917,-0.4651306867599487,-1.183802604675293,0.7828545570373535,-0.2280814796686172,-0.2604033946990967,0.2272389233112335
1749031783.3269367,5.739933127610159,0.1449141826440054,-2.287960375233596,5.311748268330381,0.1786298919090193,-4.420398077239459,-0.25706543914788765,-0.08027423254905558,0.08286153185564565,-0.26280768565385665,-0.044203165064627334,0.10117582902897204,-0.4651306867599487,-1.183802604675293,0.7828545570373535,-0.2280814796686172,-0.2604033946990967,0.2272389233112335
1749031783.3269742,5.739413677202601,0.1447535596584154,-2.287791766054574,5.311218124963846,0.17854102401344724,-4.42019116431845,-0.2579820833406438,-0.08075806131594657,0.08276819528775688,-0.26388712450771185,-0.04427424728356816,0.10180696271033103,-0.5044063329696655,-1.1459351778030396,0.7728685140609741,-0.2478669434785843,-0.2430862486362457,0.2093413770198822
1749031783.327012,5.738890029135034,0.14459068389199226,-2.2876238910817093,5.310682950047109,0.17845245686085082,-4.419982411445933,-0.25886562560035553,-0.08122760968570727,0.08270342049334095,-0.2648608720323174,-0.044322406567722246,0.10241975272273969,-0.476741224527359,-1.1736828088760376,0.7808235287666321,-0.2537633776664734,-0.2469994127750396,0.228928342461586
1749031783.327685,5.738362540413207,0.14442553545224987,-2.2874567569068422,5.310143218980365,0.17836433094812798,-4.419772023034529,-0.25974036657183125,-0.08167305564729266,0.08268925864889189,-0.2657569305002881,-0.044356227261321386,0.10301452416964987,-0.4929161965847015,-1.163205623626709,0.7868673205375671,-0.2834052443504333,-0.2708148956298828,0.206527754664421
1749031783.3296995,5.737831669732918,0.14425819907273862,-2.2872903244808294,5.3095995097508855,0.17827676632862052,-4.419560216446735,-0.26063583295693005,-0.08208772139486997,0.08274657310050691,-0.266613188081188,-0.04438502239923194,0.10359733665445059,-0.4663147032260895,-1.170110106468201,0.7768592834472656,-0.2430175989866256,-0.261102557182312,0.2216323316097259
1749031783.3702931,5.737297908309678,0.1440888524689846,-2.2871244973747897,5.309052421550781,0.17818984486366266,-4.419347185326404,-0.26158536714247727,-0.08246958115698996,0.08289374179346279,-0.26747582998515085,-0.04441835595964033,0.1041788855457099,-0.5194359421730042,-1.1898012161254885,0.8155335783958435,-0.2697905302047729,-0.267797589302063,0.2316371500492096
1749031783.3703392,5.736761708257399,0.14391774486420172,-2.286959113729254,5.308502492107278,0.1781035930928731,-4.419133068060434,-0.2626236306049447,-0.08282201737446382,0.08314520055342682,-0.2683965165948048,-0.04446560693083994,0.1047726870065661,-0.3348695039749145,-1.1521981954574585,0.7562247514724731,-0.2353469431400299,-0.2330939769744873,0.2105127573013305
1749031783.3703823,5.73622341994094,0.14374516971602372,-2.286793944418713,5.307950128211488,0.17801796832801026,-4.418917926740495,-0.26378315377637035,-0.08315368733974658,0.08351000036501986,-0.26942835405893556,-0.04453561654459365,0.10539275249145016,-0.4211276471614837,-1.167189121246338,0.7815821170806885,-0.2378789782524109,-0.2510888576507568,0.1830656975507736
1749031783.3704216,5.735683246322389,0.1435714358163196,-2.2866286985959805,5.307395559627455,0.17793285002170675,-4.418701739727406,-0.2650904009118131,-0.08347752131796744,0.08399065397964547,-0.27062098196943773,-0.04463643651044397,0.10605104268434883,-0.4919392764568329,-1.123693823814392,0.8176056742668152,-0.2688098549842834,-0.2571440935134887,0.2184741199016571
1749031783.3704598,5.735141219138929,0.14339684054241017,-2.286463036235221,5.306838821407864,0.17784803788526238,-4.418484408700009,-0.2665620983196873,-0.08380901572554743,0.08458260587056778,-0.27201539217006776,-0.04477518982285678,0.1067550693029433,-0.4463885426521301,-1.1662622690200806,0.8293667435646057,-0.2745601832866668,-0.2719512581825256,0.2166144996881485
1749031783.370498,5.734597198803237,0.14322164815128552,-2.2862965856864963,5.306279764611752,0.17776325784623712,-4.418265778897945,-0.26820264271953254,-0.08416408966241384,0.08527462413715386,-0.2736392439385267,-0.04495805166483967,0.10750606408799503,-0.4339559674263,-1.1690499782562256,0.8081401586532593,-0.2442694306373596,-0.2509763836860657,0.2277702689170837
1749031783.370536,5.734050896947455,0.1430460746853365,-2.286128963048971,5.305718091110017,0.17767817655899348,-4.418045669130645,-0.2700032119140003,-0.08455683694066686,0.08605025373251052,-0.2755033981195858,-0.04519032765711545,0.10829809891816852,-0.6311100125312805,-1.1566272974014282,0.8981805443763733,-0.2763293981552124,-0.2709974348545074,0.2262450456619262
1749031783.370573,5.733501917557953,0.14287027967164562,-2.2859597899188855,5.305153404963831,0.17759242435211137,-4.417823906316677,-0.27194281913302476,-0.08499752775925176,0.0868902114183621,-0.2776001975812216,-0.04547654198861828,0.10911838649981642,-0.62994384765625,-1.2135599851608276,0.8613056540489197,-0.278474897146225,-0.2784458994865417,0.2532285153865814
1749031783.37061,5.732949810135117,0.14269436386767034,-2.2857887069917293,5.3045852710891666,0.17750562503147466,-4.417600358402756,-0.2739911040869615,-0.08549118271110044,0.08777531762378955,-0.27990376377605947,-0.04582038195945523,0.1099487619777685,-0.5345637798309326,-1.1824827194213867,0.8389484882354736,-0.2850890755653381,-0.2572410404682159,0.2350174635648727
1749031783.3706486,5.732394126895034,0.14251837194761452,-2.285615382769303,5.304013271783223,0.17741742918498266,-4.417374959931998,-0.276112252860041,-0.08603694960376769,0.08868934435029474,-0.2823723218830454,-0.04622433550217047,0.11076812149640826,-0.4806418418884277,-1.211093783378601,0.8035614490509033,-0.3134817779064178,-0.2649074196815491,0.240768015384674
1749031783.3706856,5.731834475964587,0.14234229886854438,-2.285439518460029,5.3034370531310095,0.1773275461986746,-4.417147726188344,-0.2782692152352097,-0.08662837509929479,0.08962110511329775,-0.2849523122799774,-0.04668894543736441,0.11155542099396049,-0.5606377720832825,-1.205376148223877,0.8311874866485596,-0.3101365268230438,-0.2866556048393249,0.2148965895175933
1749031783.3707232,5.731270563672676,0.14216609839288555,-2.2852608512527106,5.302856356029048,0.1772357697339231,-4.416918754179767,-0.2804274378016092,-0.08725450789991775,0.09056527512075639,-0.287583782631302,-0.0472117809870662,0.11229273501301017,-0.5694546103477478,-1.2008394002914429,0.8391061425209045,-0.2884709239006042,-0.3058792650699615,0.1905554085969925
1749031783.3707604,5.730702221317347,0.1419896920102398,-2.285079158189817,5.302271030048137,0.17714199225193164,-4.416688211156497,-0.2825576130074022,-0.08790162722972107,0.09152176608118753,-0.29020632223908627,-0.047786428728455364,0.11296786321689213,-0.526374340057373,-1.1594557762145996,0.8266239762306213,-0.2297389805316925,-0.3289784789085388,0.20927694439888
1749031783.3707974,5.730129414918265,0.14181297669645382,-2.284894262162602,5.301681031809809,0.17704620615938188,-4.416456313498588,-0.2846372911413583,-0.08855528309606418,0.0924938573185316,-0.29276468372040104,-0.04840193143680583,0.11357606667174426,-0.5217027068138123,-1.1394423246383667,0.8479464054107666,-0.2178870439529419,-0.3526118397712707,0.2192100286483764
1749031783.3708344,5.729552239465761,0.1416358307478903,-2.2847060405392767,5.30108641204457,0.1769484918125478,-4.416223300293348,-0.2866514572023707,-0.08920228237125524,0.09348556290115438,-0.29521330458284467,-0.049043066095941,0.11412069435450499,-0.5710160732269287,-1.1661200523376465,0.8894459009170532,-0.2432902455329895,-0.359251469373703,0.2023754566907882
1749031783.370871,5.728970900944027,0.14145811801122493,-2.284514435882255,5.300487296498996,0.17684899530940543,-4.415989406332069,-0.2885922851227966,-0.08983227189723605,0.09449882730684513,-0.2975191936321811,-0.04969162791254342,0.11461266790119398,-0.5003445148468018,-1.1469756364822388,0.8724307417869568,-0.2496714293956756,-0.306221067905426,0.2187236845493316
1749031783.370908,5.728385689822621,0.14127969159556644,-2.2843194672748988,5.299883865470394,0.17674790095763843,-4.415754838385677,-0.2904582813330716,-0.09043866089454006,0.09553110127907756,-0.2996630053600154,-0.05032854198504185,0.11506897367650329,-0.5201365351676941,-1.1685959100723269,0.8518068790435791,-0.2679002285003662,-0.2920804023742676,0.2364015728235244
1749031783.3709452,5.727796949594252,0.14110039822476347,-2.2841212401504336,5.299276335499462,0.17664540390145814,-4.415519756935705,-0.2922529814370548,-0.09101877255962904,0.0965737045715407,-0.30163846176141623,-0.05093629690236457,0.11551043198683107,-0.504346489906311,-1.177071452140808,0.8452049493789673,-0.250940591096878,-0.2608741819858551,0.2235267013311386
1749031783.370982,5.727205043933249,0.1409200838718158,-2.283919952391756,5.29866494528936,0.17654168754716434,-4.415284263975266,-0.2939833226092913,-0.09157327794344998,0.09761119615177678,-0.3034504957356946,-0.05150103418366476,0.11595906463877029,-0.4743145704269409,-1.196041226387024,0.8675288558006287,-0.2343514561653137,-0.2495189756155014,0.1988489776849746
1749031783.3710184,5.726610326066096,0.14073860062801843,-2.2837158949527026,5.298049946665273,0.17643690874582887,-4.415048396634513,-0.29565780949126325,-0.09210509820844427,0.09862180001428131,-0.3051125720172567,-0.05201371623967023,0.11643537765586234,-0.4878020882606506,-1.1907676458358765,0.8218182921409607,-0.2293446213006973,-0.2715449035167694,0.2188300490379333
1749031783.371668,5.7260131135681505,0.1405558142307038,-2.283509446187687,5.297431600310426,0.1763311919617669,-4.4148121261395215,-0.29728462784965065,-0.09261803634908991,0.09957879821410817,-0.30664364309407843,-0.052470100247095336,0.11695584906202648,-0.5013692378997803,-1.1450766324996948,0.810222864151001,-0.2512219548225403,-0.2750033736228943,0.2376655638217926
1749031783.3736498,5.725413670813123,0.14037161137807247,-2.2833010600417945,5.296810174946997,0.1762246321807304,-4.414575361697202,-0.29886992053343686,-0.09311541312652151,0.10045269674377531,-0.3080651630210695,-0.05286963464669643,0.11753089031592844,-0.5615700483322144,-1.2389260530471802,0.800540566444397,-0.2531882524490356,-0.2877915501594543,0.2616406381130218
1749031783.4143426,5.724812199861793,0.1401859058655118,-2.2830912488324278,5.296185947765564,0.17611730490468502,-4.414337959103724,-0.30041647800515037,-0.09359894823587196,0.10121389021263898,-0.3093985111862184,-0.053213713110323184,0.11816352201795183,-0.523665726184845,-1.1700167655944824,0.7809324264526367,-0.258134126663208,-0.3088840246200561,0.2266056835651397
1749031783.4143903,5.724208839161223,0.13999864275760135,-2.282880561503055,5.295559203694488,0.17600928022131562,-4.414099733946875,-0.3019230577700873,-0.09406806682219923,0.10183550416893054,-0.3106630507923372,-0.05350386408413131,0.11884893294901795,-0.5481693148612976,-1.232386589050293,0.7925610542297363,-0.2583059668540954,-0.298440158367157,0.234279990196228
1749031783.4144318,5.723603668511863,0.1398098003336752,-2.282669558299227,5.294930231733454,0.17590063707368367,-4.413860478982999,-0.30338442825175305,-0.09451973912285502,0.10229608486683821,-0.31187487479775644,-0.0537404023690829,0.1195749732799904,-0.4870330989360809,-1.225979566574097,0.7593615055084229,-0.2280438989400863,-0.2856262028217315,0.2368280887603759
1749031783.414482,5.72299671847993,0.13961939020006958,-2.282458783136858,5.2942993177772,0.1757914740245102,-4.413619984647905,-0.304792090240791,-0.09494888098293812,0.10258183610308051,-0.3130461406168016,-0.05392187186039129,0.12032350611309639,-0.5118102431297302,-1.2092530727386477,0.7524011135101318,-0.2203169912099838,-0.2856528759002685,0.2256403565406799
1749031783.4145231,5.722387982623877,0.13942745630213874,-2.2822487354403043,5.29366673461547,0.17568191414581602,-4.413378060989558,-0.30613552212458317,-0.09534924976759065,0.10268817042804208,-0.3141848343660044,-0.05404534923410233,0.12107243496635862,-0.5439599752426147,-1.2128044366836548,0.7604816555976868,-0.2437111735343933,-0.2818254232406616,0.2417665272951126
1749031783.4145622,5.721777431307565,0.13923407332016155,-2.282039843621348,5.293032730676287,0.17557210366412931,-4.413134558855059,-0.3074037318454529,-0.09571466786322907,0.10262043979870789,-0.3152948385045757,-0.05410743904018439,0.12179814275921524,-0.4811601638793945,-1.1798148155212402,0.7541652917861938,-0.2742487788200378,-0.262347936630249,0.2281641960144043
1749031783.4146063,5.721165026182477,0.1390393443127695,-2.281832442475651,5.292397519382687,0.1754622057062407,-4.412889388011919,-0.30858686315444467,-0.09604032362147447,0.10239381763938653,-0.3163762376988391,-0.054105628664850525,0.12247803074419523,-0.4448456168174743,-1.1768755912780762,0.7296023368835449,-0.2484495490789413,-0.2310461848974228,0.2344634681940078
1749031783.4146466,5.72055073440446,0.13884339707425952,-2.2816267565542137,5.291761270797391,0.1753523911632622,-4.412642530033377,-0.3096776061811928,-0.09632387393242965,0.10203239557246084,-0.3174258250258559,-0.05403961877957536,0.12309285112575945,-0.5145711302757263,-1.1567155122756958,0.751955509185791,-0.2246627807617187,-0.241259753704071,0.2164916694164276
1749031783.4146852,5.719934541366401,0.13864637893354972,-2.2814228909823955,5.29112410679232,0.17524282829715304,-4.412394044254656,-0.31067222039255643,-0.09656611708683922,0.10156762279672138,-0.318437756133663,-0.053912310856060734,0.1236285821847479,-0.5611244440078735,-1.2306292057037354,0.7565141320228577,-0.2290456891059875,-0.2637839913368225,0.2269304096698761
1749031783.4147236,5.719316460501854,0.13844845043539428,-2.28122083030921,5.290486100487442,0.17513367191570858,-4.4121440659191355,-0.31157106581931626,-0.09677110452757137,0.10103625706686703,-0.31940427397834825,-0.053730289243164336,0.12407767602892723,-0.4501336812973022,-1.199330449104309,0.7757314443588257,-0.2030601501464843,-0.2705392241477966,0.2354150712490081
1749031783.4147654,5.718696538823457,0.13824977886350306,-2.2810204450390623,5.2898472801380185,0.17502505254151113,-4.41189279669688,-0.31237860502588893,-0.09694568445729271,0.10047801518978262,-0.3203164251183505,-0.0535038023349948,0.124439593483648,-0.463502287864685,-1.1986490488052368,0.7623553276062012,-0.233219102025032,-0.2661288976669311,0.2068835496902465
1749031783.414804,5.718074857316776,0.13805053252110566,-2.280821504811983,5.289207637028598,0.17491706631331744,-4.411640488860493,-0.3131028790176758,-0.09709858205011193,0.09993310625750534,-0.32116471997814283,-0.053246337132977564,0.12472061525194861,-0.4818601608276367,-1.2309975624084473,0.7690332531929016,-0.2500472068786621,-0.2499590665102005,0.2204634547233581
1749031783.414842,5.717451525992307,0.13785087627319328,-2.2806236968680054,5.288567136512298,0.17480976695327044,-4.4113874252280025,-0.3137545154909866,-0.09723919376159548,0.09943980779655028,-0.3219397330095575,-0.052973866855450025,0.12493298070413829,-0.5311304330825806,-1.2228926420211792,0.7878308892250061,-0.2355669438838958,-0.2478284388780594,0.2257819324731826
1749031783.4148796,5.716826674241201,0.1376509684194569,-2.2804266483842026,5.287925731237932,0.17470316126693292,-4.411133897330049,-0.31434540226932395,-0.09737630285677884,0.09903221698269361,-0.3226326640982206,-0.05270378767240736,0.1250934600700612,-0.5245499014854431,-1.2142460346221924,0.781363308429718,-0.2273739278316497,-0.2395029067993164,0.2278664112091064
1749031783.4149196,5.716200438076085,0.1374509586024937,-2.2802299513449507,5.287283375530397,0.17459720909416399,-4.410880184236788,-0.3148872064380971,-0.09751691797892187,0.09873828973346874,-0.323235882605821,-0.05245353386688249,0.1252215132101748,-0.4738292694091797,-1.2102301120758057,0.8062987923622131,-0.1893292516469955,-0.2452866435050964,0.2177150845527649
1749031783.4149578,5.715572946619804,0.13725098615404002,-2.2800331886803367,5.286640039659177,0.17449182788431486,-4.410626534247117,-0.31538992558106654,-0.09766540345041529,0.09857827839307773,-0.3237434684557003,-0.05223892100084241,0.12533722435372327,-0.4662756025791168,-1.228933572769165,0.7781957387924194,-0.2107149511575698,-0.2401021867990493,0.2325014322996139
1749031783.4149954,5.714944310438848,0.137051178207543,-2.279835960467439,5.285995722730959,0.17438690155340844,-4.410373151087186,-0.31586066549927944,-0.09782301645768637,0.09856369274630387,-0.32415176258719147,-0.05207240322511448,0.12545922991898142,-0.3650345802307129,-1.194430589675903,0.810798704624176,-0.1968154907226562,-0.2655072510242462,0.2208057641983032
1749031783.4150362,5.714314613763884,0.13685164721676032,-2.27963790900651,5.285350463378704,0.1742822928499627,-4.4101201852681955,-0.3163028711461197,-0.09798790255372171,0.09869692220597648,-0.3244599282232552,-0.051961577571227276,0.12560287689251723,-0.5902435183525085,-1.2188814878463743,0.8582416772842407,-0.2078828811645507,-0.2954447269439697,0.2169923484325409
1749031783.415078,5.713683911475306,0.13665248800178406,-2.2794387414505515,5.284704347695587,0.1741778578995062,-4.409867730096483,-0.31671623791520864,-0.09815553365867465,0.09897163379624281,-0.3246704896670268,-0.051908327141023364,0.12577884301209558,-0.5242460370063782,-1.2010573148727417,0.8531450629234314,-0.1987171918153762,-0.2966459393501282,0.2310952097177505
1749031783.4151156,5.713052230520079,0.13645377465766972,-2.279238248314067,5.284057513433004,0.17407346111821173,-4.409615821012772,-0.3170974175840228,-0.09831950439973963,0.09937396406574711,-0.3247897704258119,-0.05190889426506167,0.12599239268643403,-0.5457120537757874,-1.1711593866348269,0.8569058179855347,-0.2112176120281219,-0.2908682823181152,0.2594287395477295
1749031783.415656,5.712419574746349,0.13625555748867407,-2.279036315784045,5.283410148813495,0.17396898854176188,-4.409364436800779,-0.3174413994779793,-0.09847254328585728,0.0998843558642886,-0.3248281290549351,-0.051954931514620835,0.12624333558209613,-0.4983528852462768,-1.225455403327942,0.8188413977622986,-0.1952789276838302,-0.2654099464416504,0.2318670451641082
1749031783.4176414,5.7117859320661015,0.1360578598959239,-2.2788329297350547,5.282762484311667,0.1738643577645896,-4.409113501813375,-0.31774319290820846,-0.09860756529591325,0.10047971958194683,-0.324799903694648,-0.05203530052071398,0.12652662716781263,-0.4519306421279907,-1.169805884361267,0.8411288261413574,-0.2194671183824539,-0.2872682809829712,0.2200481295585632
1749031783.4623315,5.711151282892838,0.1358606751794146,-2.278628170114852,5.282114776700866,0.1737595230885841,-4.408862889407086,-0.31799930316527036,-0.09871860439378531,0.10113551598180737,-0.3247230093572262,-0.05213819845297769,0.12683343929308968,-0.4545071125030517,-1.1884472370147705,0.8339067101478577,-0.2372311949729919,-0.26620614528656,0.2271515727043151
