nimar13/UR3e_dataset_trayectorias/trayectorias_ejecutadas_filtradas/jtraj/trayectoria_072_result_filtrado.csv
timestamp,q1,q2,q3,q4,q5,q6,qd1,qd2,qd3,qd4,qd5,qd6,tau1,tau2,tau3,tau4,tau5,tau6
1749027222.5703118,5.892744783159309,-2.054274323893704,-0.003279720177880655,-4.345839738966651,1.2264667009947026,4.440071892426788,-0.0009706263937655305,0.0002575576169388221,-0.00012586526852562815,0.00020868019916171757,0.0003901373847025223,0.0004814436917254064,0.1128550916910171,1.0368990898132324,0.1149857416749,-0.5479344725608826,0.1981368064880371,0.0531870797276496
1749027222.5703578,5.892740680829679,-2.054268533578552,-0.003281430089743156,-4.345832685787348,1.2264694119083597,4.440058114305055,-0.0019315382915870963,0.00025313559188902714,-0.00011888002934108619,0.0006398050669219384,0.0003769766587355944,-0.00010342528025799149,0.1468151062726974,1.0606794357299805,0.1305252909660339,-0.5399376153945923,0.2147733122110366,0.0465015619993209
1749027222.5703974,5.892736313894887,-2.054262968549366,-0.003283031396394998,-4.345825701929747,1.2264719863055953,4.440044740942396,-0.0028627079030657102,0.0002474749442898548,-0.00011192880437741559,0.001050180216839843,0.0003629424550458557,-0.0006682321613456719,0.1185955256223678,1.0296850204467771,0.1357399523258209,-0.5465870499610901,0.2072020769119262,0.029183117672801
1749027222.5704384,5.892731387596207,-2.054257779275723,-0.0032844387359523865,-4.345818867920744,1.2264743181410147,4.440032089555251,-0.003730385170356223,0.00024086659431476999,-0.00010513132209676577,0.0014200143923821123,0.0003477273631291223,-0.001192908357757984,0.1109432429075241,1.0468738079071045,0.1411825716495514,-0.5416976809501648,0.2004294991493225,0.0162418652325868
1749027222.5704768,5.8927256791893585,-2.0542530779588564,-0.003285584770514065,-4.345812264552145,1.226476326446002,4.44002043509877,-0.004504504828314223,0.00023373387734768535,-9.860900693546376e-05,0.001733082710030875,0.00033104835131860514,-0.0016595669985169095,0.0791183859109878,1.0350680351257324,0.1307227611541748,-0.5124539732933044,0.1949217617511749,0.0119579397141933
1749027222.5705144,5.892719065261113,-2.054248929996374,-0.003286426212034109,-4.345805973433068,1.226477959874363,4.440009998294497,-0.005160308837636957,0.0002266462937039228,-9.24803877704056e-05,0.001977852631310901,0.00031270224249070036,-0.002053592727030214,0.0662765204906463,1.0347812175750732,0.112819992005825,-0.513083279132843,0.2103726267814636,0.022058006376028
1749027222.5705714,5.892711533853478,-2.0542453512165797,-0.003286947159900889,-4.345800077328269,1.2264791976164038,4.440000937938526,-0.0056795384488738014,0.00022032353719484264,-8.685618891070847e-05,0.002147971969401583,0.00029262815170463244,-0.0023645905260771647,0.0655563026666641,1.0389412641525269,0.1161595657467842,-0.505279004573822,0.1999977678060531,0.0262935608625412
1749027222.5706158,5.8927031808524175,-2.0542423112205097,-0.003287159172166225,-4.345794659461633,1.2264800472738453,4.439993346973583,-0.006051144038305317,0.00021562653623973007,-8.183406005567555e-05,0.0022421707292340333,0.00027097108616918334,-0.0025870609379053766,0.0624849870800972,1.0477490425109863,0.1394208073616027,-0.4980647265911102,0.2207614779472351,0.0268279053270816
1749027222.570654,5.8926941925682765,-2.0542397422766205,-0.0032870981232063826,-4.345789801122796,1.226480540431121,4.4399872516928065,-0.006271487857078491,0.0002135330523106595,-7.749288799904323e-05,0.002263721029505973,0.00024813920495123353,-0.0027206709043464923,0.0717149600386619,1.050623893737793,0.1274900734424591,-0.4961393475532532,0.1963602006435394,0.0102084428071975
1749027222.570692,5.892684818317806,-2.05423755217561,-0.0032868185740530255,-4.3457855772639995,1.2264807268339204,4.439982613737987,-0.006344046488156047,0.0002150961578495146,-7.38867045783977e-05,0.0022196289599300547,0.00022484607215541658,-0.0027700455563921737,0.0770616605877876,1.032557487487793,0.1321800053119659,-0.5067741274833679,0.222575306892395,0.0221521668136119
1749027222.57073,5.892675338081507,-2.054235638523757,-0.003286386758748395,-4.345782050207733,1.2264806683227605,4.439979334768288,-0.006278660753725111,0.0002213847390310739,-7.103836517807802e-05,0.002119708166693274,0.0002021288741368788,-0.002744096020442496,0.0536315068602561,1.034630537033081,0.1159759983420372,-0.510211169719696,0.2254214882850647,-0.0064920969307422
1749027222.5707674,5.892666030691956,-2.0542339016473736,-0.003285873236551183,-4.34577926212502,1.22648043369509,4.439977263645016,-0.0060904224646989346,0.00023340631139673237,-6.8933405836994e-05,0.001975632947695768,0.0001813342373085489,-0.002654984334162505,0.0547388419508934,1.0251717567443848,0.1187875941395759,-0.5135400891304016,0.208140343427658,-0.0019779708236455
1749027222.5708055,5.892657147229056,-2.054232253857787,-0.0032853459249561397,-4.345777227527675,1.2264800952674024,4.4399762059686365,-0.0057983186541707265,0.0002520141603023705,-6.751476701220099e-05,0.0018000202378806098,0.000164065151015436,-0.0025168796872630747,0.0505740121006965,1.0397405624389648,0.1230333372950553,-0.4960330128669739,0.2284519970417022,0.0112140737473964
1749027222.5708427,5.89264889250886,-2.0542306240841803,-0.0032848639298447935,-4.345775927399391,1.2264797271898935,4.439975935921477,-0.00542376807665025,0.0002778032106657807,-6.667935978310514e-05,0.0016055666145853127,0.0001520856568457601,-0.0023446719276622625,0.034884475171566,1.0195119380950928,0.1277948021888733,-0.4997361302375793,0.2089343219995498,0.0062263682484626
1749027222.5708797,5.892641415294555,-2.0542289583567745,-0.003284472550862212,-4.345775306533265,1.2264794049139995,4.439976210337339,-0.004989180679977213,0.0003110019752155629,-6.627769665792193e-05,0.0014042678874724927,0.00014718437400587701,-0.0021527873051675884,0.034884475171566,1.0195119380950928,0.1277948021888733,-0.4997361302375793,0.2089343219995498,0.0062263682484626
1749027222.5709171,5.892634805860626,-2.0542272177470062,-0.003284199969543309,-4.345775275103439,1.2264792049334123,4.439976784524303,-0.00451665134297145,0.0003513711106615668,-6.611795702568414e-05,0.0012067580232484531,0.0001510033958960619,-0.00195421304572792,0.0431581959128379,1.0370187759399414,0.0994948521256446,-0.5036407113075256,0.2265464663505554,-0.0128380022943019
1749027222.570966,5.892629098546409,-2.0542253756857987,-0.003284056131897351,-4.345775714631633,1.2264792040024197,4.439977428712055,-0.004026869176177707,0.00039812190053307143,-6.59758572472095e-05,0.0010218053926030078,0.00016484527641450012,-0.0017597949190783762,0.0358811244368553,1.0420255661010742,0.1202445700764656,-0.4798036813735962,0.2105104029178619,0.0071101505309343
1749027222.57102,5.892624277215153,-2.0542234161186594,-0.003284034071897938,-4.345776487602295,1.226479477232935,4.439977943398957,-0.0035382886466503883,0.000449869358329007,-6.561152613074182e-05,0.0008559937933085467,0.00018947725917662224,-0.0015778336240856046,0.0298791453242301,1.0499967336654663,0.1168145313858985,-0.4889842867851257,0.236268937587738,-0.0011925427243113
1749027222.5710585,5.892620282543891,-2.0542213332144583,-0.0032841135148761226,-4.345777449312931,1.226480094596808,4.439978171726727,-0.0030665740874481536,0.0005046334968275471,-6.479425223989164e-05,0.0007135980697757872,0.00022495788638070998,-0.0014139744345763661,0.0204108580946922,1.0354559421539309,0.1153482869267463,-0.4882418513298034,0.2333241403102874,0.0050035868771374
1749027222.5711071,5.892617020934744,-2.054219132681038,-0.0032842662363665016,-4.345778460256364,1.2264811155657325,4.439978007460567,-0.00262429932344555,0.0005598982970932979,-6.333547789199776e-05,0.0005966451299736526,0.00027051550659159363,-0.0012713591602395188,0.0312507674098014,1.031696915626526,0.1018977835774421,-0.4899163842201233,0.2396376132965088,-0.004797023255378
1749027222.5711453,5.892614375153376,-2.054216834103106,-0.003284462371711855,-4.34577939741924,1.22648258222317,4.439977397898577,-0.0022208632973985416,0.0006127322413581865,-6.112977265579746e-05,0.00050513458706345,0.0003245094313320197,-0.0011509878776564866,0.0629626139998436,1.0281620025634766,0.0973337516188621,-0.484584242105484,0.2442653179168701,-0.0107406107708811
1749027222.5711815,5.892612216673306,-2.0542144731084644,-0.0032846766379298884,-4.345780163263628,1.2264845121253762,4.439976341688206,-0.0018625736938885364,0.0006599691134678102,-5.820274923219805e-05,0.00043738127514256827,0.0003845011563953314,-0.001052219297502166,0.0385898575186729,1.0169484615325928,0.1111790314316749,-0.5048426985740662,0.2497140169143676,0.0019959416240453
1749027222.5717397,5.892610419220796,-2.0542121019657356,-0.0032848933216950726,-4.345780691669887,1.2264868929215873,4.439974882055246,-0.0015528526982551976,0.000698444099895903,-5.476403464480712e-05,0.0003904352745804898,0.0004474544636841473,-0.0009733251978356191,0.0359178856015205,1.0338928699493408,0.107605256140232,-0.5072721838951111,0.2504865229129791,0.0131613388657569
1749027222.5737069,5.892608872174655,-2.054209787727347,-0.0032851090739928275,-4.345780950546932,1.2264896807303503,4.439973096513334,-0.001292526710154831,0.0007252766717873832,-5.126254604569356e-05,0.00036053372671869673,0.0005100693249323432,-0.0009120107446019576,0.0416149273514747,1.038899064064026,0.1008128002285957,-0.4886378049850464,0.2615720927715301,0.0009440428111702
1749027222.6183326,5.892607491662243,-2.054207607945436,-0.0032853330783016925,-4.345780941062856,1.2264928034457812,4.4399710846416385,-0.0010801693120790932,0.0007381863574547187,-4.844051996395344e-05,0.00034354221477590427,0.0005692355794291639,-0.0008658232715958862,0.0247550681233406,1.0400673151016235,0.09250358492136,-0.4932214021682739,0.2687532007694244,0.0218166001141071
1749027222.6183808,5.892606227071616,-2.054205644656368,-0.003285584877475752,-4.345780693661006,1.2264961688754816,4.439968955667145,-0.0009124726775336804,0.0007358203303742578,-4.738210618326016e-05,0.00033535098340716537,0.0006225691303651157,-0.0008323977874072642,0.0464629307389259,1.0182108879089355,0.0832496955990791,-0.5024940967559814,0.2641554474830627,0.0174506865441799
1749027222.618422,5.892605061451939,-2.0542039774882714,-0.0032858908057904162,-4.345780261419295,1.2264996763796867,4.439966817213606,-0.0007846288742698086,0.0007180647693928186,-4.95520194126457e-05,0.0003322011731230595,0.0006689684353011455,-0.000809522956063219,0.0451984480023384,1.0345613956451416,0.0817162171006202,-0.4969410300254822,0.2574069797992706,0.0153903802856802
1749027222.6184602,5.892604005522611,-2.0542026766084485,-0.00328628032199014,-4.3457797117916925,1.2265032298907192,4.439964765966253,-0.000690709783752029,0.0006863072642165296,-5.681993994660459e-05,0.0003309266657995364,0.0007091073282624817,-0.0007950477854899434,0.0399165675044059,1.032105565071106,0.0855208411812782,-0.4953166246414184,0.2453488409519195,-0.0038502214010804
1749027222.6184978,5.892603086534482,-2.054201796034551,-0.003286783432091303,-4.345779117956115,1.2265067500436648,4.439962880571336,-0.0006240403252375438,0.000643615689626034,-7.146715341114936e-05,0.0003291066089863635,0.0007457680976473787,-0.0007866785187868625,0.0620146766304969,1.0459762811660769,0.0754272416234016,-0.511090099811554,0.2610325813293457,0.0058778701350092
1749027222.6185358,5.8926023348937795,-2.0542013676528543,-0.003287429868233581,-4.345778550721274,1.226510183584592,4.439961216939985,-0.0005775624622690559,0.0005947994899209231,-9.617310010040472e-05,0.0003251314291185752,0.0007839226029227148,-0.0007817325738195351,0.0525198653340339,1.042506456375122,0.0736503079533577,-0.4974831938743591,0.2533772885799408,0.0024746600538492
1749027222.6185734,5.892601772464579,-2.0542013961033354,-0.0032882499227552095,-4.34577807153617,1.226513508999812,4.439959806043945,-0.0005441881133057263,0.0005463226326726682,-0.0001339805155251754,0.00031819088740840564,0.0008304936684264266,-0.0007769213637742204,0.0694428458809852,1.034397006034851,0.079359658062458,-0.4882503747940063,0.2665807902812958,0.017679326236248
1749027222.618611,5.892601405782728,-2.0542018545604215,-0.0032892760914352745,-4.345777726982088,1.2265167381521673,4.439958654149784,-0.00051713968257917,0.0005060456185575156,-0.00018823795780664311,0.00030819651493979203,0.0008937733697005364,-0.0007682289236024275,0.0438060387969017,1.039210319519043,0.0927512273192405,-0.5068010687828064,0.2611717879772186,0.0138874193653464
1749027222.6186488,5.892601225250397,-2.0542026815564376,-0.0032905443050439973,-4.345777545197699,1.2265199143315886,4.439957745347689,-0.0004902779174173526,0.0004827885900731703,-0.0002625169431266648,0.0002956528206181278,0.0009825305093619473,-0.000750941504178012,0.0609566494822502,1.0250715017318726,0.067863680422306,-0.5088264346122742,0.2674596011638641,0.0088713066652417
1749027222.618686,5.892601209181726,-2.054203779412132,-0.0032920937552702134,-4.3457775346740855,1.226523107271219,4.439957046247101,-0.00045841710885255455,0.00048572805647238904,-0.00036049670860906625,0.00028149235662495824,0.0011048936553237478,-0.0007198665714996551,0.0583409741520881,1.0214680433273315,0.0674119368195533,-0.5088412165641785,0.2599403858184814,0.0002557788975536
1749027222.618723,5.892601330394935,-2.0542050151964606,-0.003293965048373513,-4.345777685505832,1.2265264054099052,4.439956512635539,-0.00041762634324965026,0.0005236631226740317,-0.00048580207955038084,0.00026688946270345744,0.0012671385474637114,-0.0006697587225246431,0.0868428722023963,1.0380836725234983,0.0825683251023292,-0.5149104595184326,0.2682514488697052,0.0030236807651817
1749027222.6187592,5.892601562813235,-2.054206225047933,-0.0032961972465545097,-4.345777972574847,1.2265299055180818,4.439956097558398,-0.0003655124051166106,0.0006042100684230207,-0.0006417710972064802,0.0002530666789274196,0.0014725349679499402,-0.0005959455212994353,0.0868428722023963,1.0380836725234983,0.0825683251023292,-0.5149104595184326,0.2682514488697052,0.0030236807651817
1749027222.6187968,5.892601885909414,-2.0542072221772045,-0.00329882480606802,-4.345778359676842,1.2265337002494952,4.43995575982084,-0.0003014752351480745,0.0007330039559649656,-0.0008311273098708836,0.00024110671703032966,0.0017204164071525797,-0.0004951193313897063,0.0738886669278144,1.0366908311843872,0.0768811330199241,-0.5172568559646606,0.26963672041893,0.0095345051959156
1749027222.618834,5.892602285808223,-2.0542078081684005,-0.0033018752799025804,-4.345778803659554,1.2265378651298793,4.439955471586218,-0.00022692103077163388,0.0009130000284522469,-0.0010555486130043943,0.00023178173944093865,0.002005623840603741,-0.0003662337479873069,0.0861244276165962,1.0322548151016235,0.0797873213887214,-0.5082847476005554,0.2703466117382049,0.0049560787156224
1749027222.6188707,5.892602753221965,-2.054207786491625,-0.0033053681810129194,-4.345779258195089,1.2265424473134725,4.439955223592531,-0.0001454122077396269,0.0011439728476620884,-0.001315163425167809,0.0002254107142231171,0.0023184407207251104,-0.00021141779148409914,0.1185469701886177,1.0323139429092407,0.0781852677464485,-0.5077037215232849,0.2813670635223388,0.0134007344022393
1749027222.6189072,5.892603279403963,-2.0542069766624467,-0.0033093150267221273,-4.345779677410157,1.2265474585060907,4.4399550264686765,-6.272924361934163e-05,0.0014223038368914327,-0.0016080530229740625,0.00022175493365337294,0.0026450803506942113,-3.6800648203971496e-05,0.0776558294892311,1.0400084257125854,0.0688670948147773,-0.5193127989768982,0.2786180675029754,0.0046086609363555
1749027222.6189437,5.89260385143708,-2.0542052273894242,-0.0033137204087379285,-4.345780019775226,1.2265528734946685,4.43995490681086,1.3181345428364448e-05,0.0017411246150067104,-0.0019298748826101204,0.00021996138142101412,0.002968713226523775,0.00014687253098878583,0.0672815218567848,1.0980520248413086,0.042348563671112,-0.5379170775413513,0.2852557599544525,0.0270283743739128
1749027222.6189804,5.892604447676515,-2.054202427197342,-0.0033185837586070873,-4.345780252293763,1.226558633959347,4.439954897311381,7.239495692530206e-05,0.0020908415060810043,-0.002273729284765323,0.00021856330943593067,0.0032709393231185767,0.0003239547207473503,0.0672815218567848,1.0980520248413086,0.042348563671112,-0.5379170775413513,0.2852557599544525,0.0270283743739128
1749027222.6190171,5.892605033674308,-2.0541985112335026,-0.00332390123823072,-4.345780354454744,1.2265646554915983,4.439955021352851,0.00010334665916626882,0.002460005591632414,-0.0026303631360782872,0.00021554684284940838,0.0035335330422519703,0.00047405031066003324,0.066306285560131,1.1222726106643677,0.041745588183403,-0.5444700717926025,0.2813129723072052,0.0294568501412868
1749027222.6190536,5.892605558769132,-2.054193463363645,-0.003329667071350007,-4.345780321068553,1.226570835076216,4.439955273803658,9.332046951993379e-05,0.00283641859439984,-0.0029887422713363574,0.00020849124553577711,0.0037402343669475707,0.0005726905193769892,0.0680771693587303,1.078743577003479,0.0715777724981308,-0.5430143475532532,0.2852349281311035,0.0075941337272524
1749027222.6190898,5.892605953575881,-2.0541873133655484,-0.0033358737926548086,-4.345780163203343,1.2265770571875534,4.43995560093986,2.907631021986193e-05,0.0032082967879150095,-0.0033369379118430693,0.0001947878970368108,0.003878342788617829,0.0005925720437813028,0.0540673211216926,1.0454498529434204,0.0741702914237976,-0.546419084072113,0.2733652591705322,0.02032932639122
1749027222.619126,5.8926061285588,-2.054180129845943,-0.00334251122770823,-4.345779906871289,1.2265831984285342,4.439955883234119,-0.00010241734696549913,0.0035652866898215458,-0.003663191006640586,0.00017193802051445624,0.003939896662025911,0.0005053436376656835,0.0481579229235649,1.069625973701477,0.0759101808071136,-0.5501477718353271,0.2813792824745178,0.0141619173809885
1749027222.6197162,5.892605973703213,-2.054172010156336,-0.0033495643269641495,-4.345779589658786,1.226589132005065,4.439955924861834,-0.00031319594783596466,0.0038991666562347327,-0.0039569759896467115,0.00013792113258758257,0.003922286175222066,0.00028385722033750864,0.0121311619877815,1.0732344388961792,0.0634138584136962,-0.5524119734764099,0.2751182913780212,0.0249527394771575
1749027222.6217225,5.892605359215495,-2.0541630690215773,-0.0033570101818156868,-4.345779255897282,1.2265947334150409,4.439955452870466,-0.0006135231356573658,0.004204170267177183,-0.00420990397648115,9.161564922735137e-05,0.003828236989209191,-9.527424343024555e-05,0.0511729344725608,1.0981132984161377,0.0671909600496292,-0.5484197735786438,0.2824050486087799,0.0167296342551708
1749027222.6663027,5.892604137178813,-2.054153427858308,-0.003364814749913361,-4.345778951007861,1.226599887662074,4.439954127223368,-0.0010112013322715694,0.00447698041530641,-0.004416368884608637,3.3241787461417066e-05,0.003665187655887791,-0.0006490424301897228,-0.0238563641905784,1.098913550376892,0.0530501939356327,-0.5499605536460876,0.2652798295021057,-0.0128242578357458
1749027222.6663494,5.892602143955007,-2.0541432066505747,-0.0033729301027385825,-4.345778715337238,1.2266044968986756,4.439951561002049,-0.001511036569374196,0.004716510134078065,-0.0045739081445107825,-3.5213220134211264e-05,0.0034441469497770213,-0.0013856233824310815,-0.0256555527448654,1.0872306823730469,0.0677562952041626,-0.5382606387138367,0.2426367402076721,-0.0048266858793795
1749027222.6663888,5.892599202878325,-2.0541325195111595,-0.003381293233062624,-4.345778577431153,1.2266084865404296,4.439947348448484,-0.0021145004045245133,0.0049235855569754105,-0.0046832914681591425,-0.00010963503094629563,0.0031781574971538203,-0.0023024963127498887,-0.0024894848465919,1.0768966674804688,0.0689387917518615,-0.5474550724029541,0.2626802027225494,-0.0251351557672023
1749027222.6664271,5.892595126818246,-2.0541214737847397,-0.0033898273231719495,-4.345778546578872,1.2266118080199677,4.439941097433679,-0.0028195920695180763,0.005100600510034594,-0.004748362913762626,-0.000183538290641136,0.0028805239555618253,-0.0033854204247782665,-0.0018470361828804,1.0619888305664062,0.0763875246047973,-0.5233765244483948,0.2285085618495941,-0.0589941889047622
1749027222.6664653,5.892589720698584,-2.0541101712172,-0.0033984457771854943,-4.345778604729447,1.226614437310865,4.4399324624168335,-0.0036208653767980216,0.005251163692476286,-0.004775660697205168,-0.0002479887563287425,0.0025629960772018496,-0.004608526427593156,-0.01646039634943,1.0789706707000732,0.068209633231163,-0.5277925729751587,0.2245219349861145,-0.0695550739765167
1749027222.666503,5.8925827846907195,-2.0540987089324174,-0.003407058554010584,-4.345778698444808,1.2266163695547383,4.439921174022396,-0.00450956705876509,0.005379738500484118,-0.004773847078005905,-0.00029173414005257233,0.0022341214222735242,-0.005935652090256944,-0.043759562075138,1.0973663330078125,0.0702399164438247,-0.5258827209472656,0.2146158814430236,-0.0600182339549064
1749027222.6665404,5.892574119005524,-2.0540871782031966,-0.0034155798905208517,-4.345778732178726,1.2266176109522846,4.439907061933655,-0.005473845332023236,0.00549128377991628,-0.004753004410418886,-0.00030157269248945646,0.00189798238795687,-0.007322871999648036,-0.0312476083636283,1.0876219272613523,0.046063158661127,-0.5294618606567383,0.2175211310386657,-0.0488480404019355
1749027222.6665776,5.892563530833618,-2.0540756602645422,-0.00342393660435307,-4.345778564545254,1.2266181692710079,4.439890068805108,-0.006499020344986417,0.005590921044313667,-0.00472387948343875,-0.00026296841486807455,0.001553496440047376,-0.008721986881879095,-0.0521979071199893,1.0839613676071167,0.0622625611722469,-0.5096089243888855,0.2097059488296508,-0.0556875355541706
1749027222.666615,5.892550843303916,-2.0540642200258663,-0.0034320764747164906,-4.345778009140097,1.2266180440857608,4.439870254184471,-0.007567940654633613,0.005683659081358595,-0.004697164967506438,-0.0001608962114501969,0.001194389633287451,-0.01008460752651976,-0.0618095099925994,1.0634853839874268,0.0491747967898845,-0.5026155114173889,0.1937498152256012,-0.0702148526906967
1749027222.6666555,5.892535905737818,-2.0540528996111784,-0.0034399761558226247,-4.3457768408466855,1.2266172176626977,4.439847788637272,-0.008661464818473536,0.005774194906465854,-0.004682885455609987,1.912864859166303e-05,0.0008098651485896719,-0.011366423267660868,-0.0456041768193244,1.0710341930389404,0.0668239742517471,-0.4933899641036987,0.1742010414600372,-0.0678223371505737
1749027222.666694,5.892518604238379,-2.054041713714179,-0.003447647625837001,-4.345774807515575,1.2266156475579646,4.439822939014328,-0.009759102332751212,0.005866790645005983,-0.004689918078992531,0.00028991137039510544,0.0003858969274232093,-0.012531265768637551,-0.0759809911251068,1.0618208646774292,0.0624874047935009,-0.4863315224647522,0.1539983749389648,-0.0930361449718475
1749027222.6667302,5.892498871764077,-2.0540306479142285,-0.003455141898100175,-4.345771645783108,1.2266132624289519,4.439796046138381,-0.01083983086028265,0.00596521251431959,-0.004725645608404393,0.0006614276292866984,-9.300271464156962e-05,-0.013554621441538767,-0.0967186614871025,1.086725115776062,0.0420032255351543,-0.4804432690143585,0.1452655494213104,-0.1127632483839988
1749027222.666767,5.892476697015832,-2.0540196599210168,-0.0034625490979423553,-4.3457670990467,1.2266099627072005,4.439767496488631,-0.011883080696874467,0.006072716379746136,-0.0047957280371155615,0.0011397749061189618,-0.0006417532902436164,-0.014426282132825574,-0.0644792169332504,1.092671513557434,0.0513703934848308,-0.4563404619693756,0.1208033412694931,-0.0806061476469039
1749027222.666803,5.892452131486974,-2.054008682901488,-0.0034699948291934744,-4.345760935496915,1.226605627110831,4.439737689937105,-0.012869842503450017,0.0061920698544288355,-0.004903985131435716,0.001726333019725729,-0.0012726595417814428,-0.015151860681345185,-0.0800506100058555,1.073072075843811,0.0520749650895595,-0.4677484929561615,0.1272552013397216,-0.0765877217054367
1749027222.6668398,5.892425293940775,-2.053997629960183,-0.003477633446715294,-4.345752964461589,1.2266001244766505,4.439707006049416,-0.013783818036816794,0.006325604638042872,-0.005052392059572342,0.0024172161874187314,-0.001993597132653774,-0.015752966479893982,-0.1325936317443847,1.068991780281067,0.0540300570428371,-0.4629376828670501,0.0884312614798545,-0.0990617424249649
1749027222.6668763,5.892396371480434,-2.0539863992357477,-0.0034856390993627884,-4.3457430497734135,1.2265933286822064,4.439675771591878,-0.014612510247013329,0.006475290826557097,-0.005241187448116384,0.0032030588512927823,-0.0028066551686108387,-0.016265960632852832,-0.1040636450052261,1.0840823650360107,0.0598632805049419,-0.4550783634185791,0.0761662572622299,-0.0951637625694274
1749027222.6669128,5.892365616222018,-2.0539748793842856,-0.003494195351944187,-4.345731119256965,1.22658513329455,4.439644231544951,-0.01534814407895435,0.0066428217060463595,-0.0054690757600781,0.004069141606399543,-0.003707413638743224,-0.01673938179630215,-0.1074733585119247,1.10431969165802,0.0609034113585948,-0.4391919374465942,0.0656992718577385,-0.1107835322618484
1749027222.6669493,5.892333336449014,-2.053962955211128,-0.003503484163872427,-4.345717169821509,1.2265754625294683,4.4396125252058285,-0.01598831666805547,0.006829698305636006,-0.005733486613583826,0.004995849415580819,-0.004684973825527763,-0.01723030938978362,-0.1270239353179931,1.094110369682312,0.0454160682857036,-0.425507128238678,0.0280582383275032,-0.1166231259703636
1749027222.6669867,5.892299881330476,-2.0539505130966877,-0.0035136750947498087,-4.345701268054668,1.2265642761584665,4.439580668190914,-0.016536292098757933,0.0070373056599173775,-0.006030848648725873,0.005959459327062445,-0.005722788434728017,-0.01780005788391966,-0.1269105821847915,1.083308458328247,0.0380921028554439,-0.426116943359375,0.0036706328392028,-0.1249065920710563
1749027222.667024,5.892265619045015,-2.053937445849503,-0.003524915622232953,-4.345683546528823,1.226551567729689,4.4395485407028845,-0.01700088559552614,0.007266970957144911,-0.006356848483757993,0.006933256733040261,-0.0068002472213001715,-0.018509640309058047,-0.1342613697052002,1.0928446054458618,0.0584154017269611,-0.4088113903999328,-0.0211445093154907,-0.1281779706478119
1749027222.6670604,5.892230909307968,-2.0539236566714525,-0.003537323244088395,-4.345664196267174,1.226537357194295,4.439515882432603,-0.017395927081456226,0.0075199863160853335,-0.006706663919758227,0.007888957836042735,-0.007894856887739396,-0.019415401325419367,-0.1177157685160636,1.0791211128234863,0.041394617408514,-0.406715452671051,-0.0136906132102012,-0.1215849369764328
1749027222.667097,5.89219607249065,-2.053909062005985,-0.003550979674867546,-4.34564345607522,1.2265216801514367,4.439482294728675,-0.01773934847631397,0.007797572490318512,-0.007075169748244569,0.0087983720677755,-0.008984730237181484,-0.020565129738539027,-0.1488820761442184,1.1228532791137695,0.041642140597105,-0.4119065105915069,-0.0275090858340263,-0.1300575882196426
1749027222.6677177,5.8921613585418235,-2.0538935933164866,-0.0035659271058602615,-4.345621599677506,1.2265045761763376,4.439447250918083,-0.018051990459242297,0.008100762313061607,-0.0074571115105906355,0.00963519087813275,-0.010051014725338018,-0.02199485397714362,-0.1428451240062713,1.0984830856323242,0.0406481735408306,-0.4080810248851776,-0.0267591699957847,-0.142662301659584
1749027222.669657,5.892126919654055,-2.0538771983387014,-0.003582166329885795,-4.345598921624155,1.2264860782306084,4.439410115647076,-0.018356258714883195,0.00843019653874443,-0.007847237541858534,0.010376761538380136,-0.011079884498255057,-0.023726428134798742,-0.1428451240062713,1.0984830856323242,0.0406481735408306,-0.4080810248851776,-0.0267591699957847,-0.142662301659584
1749027222.714303,5.892092790732891,-2.0538598426794263,-0.003599656630364916,-4.345575722664295,1.2264662044303785,4.4393701735359095,-0.018674767903058366,0.00878584600427334,-0.008240382999287294,0.011005706896898514,-0.012063798971986348,-0.025765948218438094,-0.1394366472959518,1.1268123388290403,0.0372624173760414,-0.3945862054824829,-0.0385218784213066,-0.1503929495811462
1749027222.714349,5.892058880855177,-2.053841512326348,-0.003618317602225446,-4.3455522948506555,1.2264449528756254,4.439326666213223,-0.01902909427539087,0.009166696434276986,-0.008631511362798414,0.011511274351326354,-0.01300187259235793,-0.02810300872922356,-0.1527276635169983,1.1256141662597656,0.0516205132007598,-0.390953928232193,-0.0512633696198463,-0.1782665997743606
1749027222.714393,5.892024977195935,-2.0538222167461773,-0.00363803326024561,-4.345528906315396,1.2264222998776966,4.4392788353051476,-0.019438724384719393,0.009570450147777153,-0.009015731354511225,0.011890319094053903,-0.013899368893086902,-0.0307108118985661,-0.1547546237707138,1.1072369813919067,0.0476417616009712,-0.3798159658908844,-0.0549809336662292,-0.1697490513324737
1749027222.7144334,5.89199076102709,-2.05380199135806,-0.0036586587268603375,-4.345505785700044,1.2263982015573212,4.439225967727504,-0.019920251069183784,0.009993307201452839,-0.009388313904494388,0.012147837486892226,-0.014766485075056662,-0.03354715382351955,-0.1813332885503769,1.1123720407485962,0.0388507470488548,-0.3994135856628418,-0.0586761534214019,-0.1661172062158584
1749027222.714471,5.891955833816549,-2.053780897790354,-0.003680029499354645,-4.345483106647656,1.2263725982439015,4.439167438868736,-0.0204868393081479,0.01042988217943677,-0.009744732790461761,0.012296974619522588,-0.015616692582063647,-0.0365563159718704,-0.1970264613628387,1.1144064664840698,0.0388888195157051,-0.3870354890823364,-0.0685608237981796,-0.1855168342590332
1749027222.7145126,5.8919197501677205,-2.0537590205847263,-0.0037019728706306513,-4.345460973303373,1.2263454204154167,4.439102749025027,-0.021147965083298522,0.010873290873647634,-0.010080745116056814,0.012358452247453812,-0.016464927169231026,-0.03967187860641327,-0.2082183361053466,1.12886643409729,0.05530696362257,-0.3871475458145141,-0.0746896713972091,-0.1901568919420242
1749027222.714551,5.891882053340762,-2.0537364598429773,-0.0037243205982174336,-4.345439408146999,1.2263165943896417,4.439031548971462,-0.02190941219571996,0.011315410191404134,-0.01039251801744053,0.012359407614191633,-0.017325889074634736,-0.04282043021303411,-0.2284789681434631,1.1289385557174685,0.0476171560585498,-0.3859264850616455,-0.0815010964870452,-0.2131635844707489
1749027222.714588,5.891842308693641,-2.053713320570223,-0.003746921506395529,-4.345418343638967,1.226286045999287,4.438953651897324,-0.022773486747442603,0.011747286758139665,-0.010676800937288648,0.012331693174365523,-0.018212644798525465,-0.04592605604927764,-0.2169770300388336,1.1181968450546265,0.0436906926333904,-0.3783261477947235,-0.0962088406085968,-0.1936098337173462
1749027222.7146251,5.8918001308241195,-2.053689700689935,-0.0037696525289690037,-4.3453976191253005,1.2262537011244043,4.438869030793254,-0.02373938030379779,0.012159654231450162,-0.010931139587417746,0.01230974687681136,-0.019135637777561863,-0.048915352383922896,-0.2155668139457702,1.1333528757095337,0.0447632744908332,-0.3825050592422485,-0.0980693250894546,-0.1878577768802642
1749027222.7146618,5.891755201424233,-2.053665680233257,-0.0037924268457620093,-4.345376984187779,1.226219482986895,4.438777802332346,-0.024803597289326035,0.012543516851781848,-0.011154123965106,0.012328191739094939,-0.02010213093448423,-0.05172256647250103,-0.2386143058538437,1.139028787612915,0.0206079110503196,-0.3679977059364319,-0.1119926124811172,-0.1874983757734298
1749027222.714699,5.89170727665805,-2.0536413137483422,-0.0038151981872137416,-4.345356109125967,1.2261833072891362,4.438680200078798,-0.02596037296578812,0.012890759750685085,-0.011345652120873555,0.012419359480130206,-0.021116034408383857,-0.05429435919023283,-0.2337529063224792,1.13214111328125,0.042300883680582,-0.378272533416748,-0.1218683272600174,-0.184020847082138
1749027222.7147348,5.891656184930769,-2.0536166268643536,-0.003837960918202151,-4.345334602562286,1.2261450772982196,4.438576541377757,-0.027202039189124623,0.0131947465409156,-0.011507172263518264,0.012610954388327702,-0.02217802695221903,-0.05659367235332846,-0.2394590079784393,1.1355574131011963,0.042140070348978,-0.3504786193370819,-0.1270913332700729,-0.1824595779180526
1749027222.7147748,5.891601817721982,-2.053591616800892,-0.0038607459940540696,-4.345312035359379,1.2261046814430296,4.438467193395701,-0.028519327157937917,0.013450858716192882,-0.01164184739573673,0.012924073890750544,-0.02328585978861077,-0.05860227013487262,-0.2478676736354828,1.1179226636886597,0.0419461280107498,-0.3544592261314392,-0.1477348357439041,-0.1564771980047226
1749027222.7148118,5.891544117157619,-2.0535662559388506,-0.0038836132714127392,-4.34528796928942,1.2260619957059515,4.4383525441285085,-0.02990161745264686,0.013656922565285992,-0.011754584358893134,0.013371774999998174,-0.024434734754586053,-0.06032169164200544,-0.2703867852687835,1.1259557008743286,0.0550175830721855,-0.3509822487831116,-0.1245182007551193,-0.1719557791948318
1749027222.7148485,5.8914830640109,-2.053540497525691,-0.00390664105911954,-4.345261988320329,1.2260168921229329,4.4382329831936165,-0.031337159947611964,0.013813464580737383,-0.011851890094596145,0.013958322238256696,-0.025617675396270176,-0.061772557567594755,-0.270065426826477,1.1206483840942385,0.057655818760395,-0.3398088216781616,-0.1524033099412918,-0.1615481376647949
1749027222.7148843,5.891418669080554,-2.053514282940861,-0.003929914286843816,-4.345233729910351,1.2259692531157087,4.4381088944739355,-0.032813296662801736,0.013923744091795292,-0.011941553262347058,0.014679181412310534,-0.026825856885381194,-0.06299237571956007,-0.2748187780380249,1.127023696899414,0.0406877025961875,-0.3333789706230163,-0.1623243540525436,-0.1623484790325164
1749027222.7149208,5.8913509695876165,-2.0534875502023096,-0.003953513172505304,-4.345202913222198,1.2259189893215534,4.437980658501295,-0.034316731177061785,0.013993537109050288,-0.012032182756484027,0.015521745940523371,-0.028048912904079987,-0.06403215434410565,-0.2748187780380249,1.127023696899414,0.0406877025961875,-0.3333789706230163,-0.1623243540525436,-0.1623484790325164
1749027222.71496,5.891280030339893,-2.0534602431808966,-0.003977504522106235,-4.345169360843564,1.2258660567665172,4.437848658235655,-0.03583389381321428,0.014030683786109848,-0.012132655830385298,0.01646670950031282,-0.02927527450810963,-0.06495223505560148,-0.268768161535263,1.115228295326233,0.0531499981880188,-0.3117324709892273,-0.1454599350690841,-0.1710834503173828
1749027222.714997,5.891205947241521,-2.0534323204459684,-0.004001937405495709,-4.345133010833713,1.2258104687547193,4.437713279838658,-0.037351441904873696,0.01404445103738767,-0.012251536569664913,0.017489938014268794,-0.030492603892441145,-0.06581778761825814,-0.2876366376876831,1.1150128841400146,0.0556681118905544,-0.3171049952507019,-0.1493812799453735,-0.1734998822212219
1749027222.715033,5.891128849315689,-2.0534037623713512,-0.004026843757922195,-4.345093917025236,1.2257522992410927,4.437574901905409,-0.03885689917257304,0.014044790353656815,-0.012396523726842832,0.018564646401893006,-0.03168836353599245,-0.06669436668582997,-0.2968235611915588,1.1173163652420044,0.0597262717783451,-0.3250067234039306,-0.1558335721492767,-0.1859467029571533
1749027222.7150722,5.891048895747992,-2.053374575459632,-0.00405224296672573,-4.3450522373958105,1.2256916769692325,4.437433871833179,-0.04033938251467147,0.014041583805614736,-0.012573979557698284,0.019663653126460505,-0.03285051848794007,-0.06764383008123236,-0.2710489630699157,1.1155532598495483,0.0455563776195049,-0.3152905702590942,-0.1634427309036255,-0.1810693740844726
1749027222.7151098,5.890966266309817,-2.0533447935090745,-0.004078148555559553,-4.345008212350319,1.2256287718202512,4.437290473601821,-0.041790312403496656,0.014043966876106935,-0.012788581676714011,0.020761479187779732,-0.03396832405270401,-0.06872079540636497,-0.2930168509483337,1.1407841444015503,0.0382447354495525,-0.3106973767280578,-0.1730069518089294,-0.1791931539773941
1749027222.7157226,5.890881145704437,-2.053314475713764,-0.004104574996967048,-4.344962136158171,1.2255637757251192,4.437144894349864,-0.04320397900276004,0.014059795090510953,-0.013043127550323367,0.021836087515307516,-0.03503311845516988,-0.06996971343457992,-0.262956827878952,1.1053483486175537,0.0480379201471805,-0.3123131394386291,-0.1769362986087799,-0.1816048622131347
1749027222.7176745,5.890793704044569,-2.053283701957779,-0.004131543163641272,-4.344914325307753,1.2254968805034074,4.4369971972123725,-0.04457784755079608,0.01409528900522579,-0.013338502154351985,0.022870117519085173,-0.036039026512453345,-0.07142258927062087,-0.3005119264125824,1.1125280857086182,0.0449005290865898,-0.3164393305778503,-0.1953324377536773,-0.2150449752807617
1749027222.7582672,5.890704076716502,-2.053252565767595,-0.0041590836028985115,-4.344865087414496,1.225428255169467,4.436847306262137,-0.04591252798425861,0.014154862201715615,-0.013673793670639516,0.023851540968110572,-0.03698348395045117,-0.07309737888241939,-0.276699811220169,1.1083101034164429,0.0438480637967586,-0.3070200681686401,-0.1933694779872894,-0.2270730435848236
1749027222.7583115,5.890612347410218,-2.0532211657331305,-0.004187237484693644,-4.344814693827592,1.2253580260048764,4.436695007285646,-0.047211395277523736,0.01424111885471964,-0.014046518440643018,0.02477373813487022,-0.03786750719605975,-0.07499710748729857,-0.276699811220169,1.1083101034164429,0.0438480637967586,-0.3070200681686401,-0.1933694779872894,-0.2270730435848236
1749027222.758351,5.890518537899981,-2.053189596384908,-0.004216055626435712,-4.344763358304169,1.2252862630810744,4.436539965587285,-0.04847991406343405,0.014354997975677014,-0.014452905963100652,0.025635064541007255,-0.03869565605892848,-0.07710977935218945,-0.2951200604438782,1.1317795515060425,0.0359065569937229,-0.3144002556800842,-0.1939750760793686,-0.2409490495920181
1749027222.75839,5.890422606879318,-2.053157939358582,-0.004245596413872736,-4.344711223091786,1.2252129756884445,4.436381758754157,-0.04972477546082408,0.014496031195157475,-0.014888202057725237,0.026438042817636506,-0.039475667940177574,-0.07940915977859912,-0.3321782648563385,1.1118487119674685,0.026952339336276,-0.297450304031372,-0.1935873180627823,-0.2471118569374084
1749027222.7584276,5.890324458032931,-2.0531262555003345,-0.004275923610927238,-4.344658352680294,1.2251381165560868,4.436219919213902,-0.050952979561678366,0.014662668547037662,-0.015346967183016072,0.027188354566365813,-0.04021778397694868,-0.08185649069629411,-0.3349959254264831,1.1224212646484375,0.0428633913397789,-0.2986083626747131,-0.2111835926771164,-0.2453119903802871
1749027222.7584655,5.890223955681298,-2.053094578694741,-0.004307104750120898,-4.344604734729198,1.2250615925861983,4.436053980284502,-0.05217098676154938,0.014852620992844017,-0.015823365276461953,0.02789380588931091,-0.04093383416978205,-0.08440314577988012,-0.3194852769374847,1.099091410636902,0.016438290476799,-0.2958583831787109,-0.232899397611618,-0.2952819168567657
1749027222.7585032,5.890120945569442,-2.0530629124888358,-0.004339210055087734,-4.344550287445261,1.2249832793293813,4.435883520721766,-0.05338402387210103,0.015063176622524046,-0.016311448060034147,0.02856339748712225,-0.041636188327873205,-0.08699415997916975,-0.3194852769374847,1.099091410636902,0.016438290476799,-0.2958583831787109,-0.232899397611618,-0.2952819168567657
1749027222.758541,5.890015278216695,-2.053031230528675,-0.004372311210453809,-4.3444948726529615,1.224903037142309,4.435708204639806,-0.054595592458897994,0.015291466980957093,-0.016805439241118356,0.02920656855088169,-0.04233669906385512,-0.08957250076110623,-0.3591026067733764,1.1118394136428833,0.0305260308086872,-0.2977094650268554,-0.2294418513774871,-0.2764987647533417
1749027222.7585788,5.889906831869984,-2.052999481054268,-0.004406479321140989,-4.3444383134243445,1.2248207277169978,4.43552781398841,-0.05580721109233873,0.015534681538343514,-0.0173000142533689,0.02983262955461226,-0.04304574924654624,-0.09208386478849202,-0.3748882710933685,1.118312120437622,0.0322004742920398,-0.279535561800003,-0.2370055615901947,-0.277782529592514
1749027222.758616,5.889795531693627,-2.0529675944907835,-0.004441782018807866,-4.3443804143540925,1.2247362298838873,4.435342269704479,-0.057018422358797956,0.01579024205817155,-0.01779055716506782,0.03045036240067856,-0.04377147150415397,-0.0944816507966297,-0.3492671251296997,1.105458378791809,0.0325625613331794,-0.29616180062294,-0.2378497719764709,-0.2443013787269592
1749027222.758656,5.889681362185402,-2.0529354923043988,-0.004478280250661944,-4.344320981909403,1.2246494534095065,4.4351516372545365,-0.0582270760457121,0.016055948237478496,-0.018273363504136175,0.031067742386778847,-0.0445191611723719,-0.09673159669197198,-0.3101303279399872,1.0870075225830078,0.0321097448468208,-0.2910688817501068,-0.2445854544639587,-0.2411315143108368
1749027222.758695,5.889564371001621,-2.052903095251786,-0.004516025330915136,-4.344259842241614,1.2245603492951826,4.4349561139123805,-0.059429852576502615,0.016330093046776236,-0.01874575498873303,0.03169172162176035,-0.04529089139336652,-0.09881546138327726,-0.372814416885376,1.103149652481079,0.0376636497676372,-0.288550853729248,-0.259332925081253,-0.2536680400371551
1749027222.7587333,5.88944466373633,-2.0528703296997213,-0.004555056428597596,-4.344196854445042,1.2244689152435608,4.434755998365859,-0.06062294594246295,0.016611530927226906,-0.01920608511475538,0.03232801176500224,-0.046085362662541596,-0.10073315669003256,-0.3436344265937805,1.083507418632507,0.045653510838747,-0.2838635146617889,-0.2770551443099975,-0.2365578860044479
1749027222.7587707,5.889322390367018,-2.052837131337104,-0.004595398261828738,-4.344131918250196,1.22437519575353,4.434551646848546,-0.061802805262044146,0.01689967712807071,-0.019653639137572062,0.03298081996215699,-0.046898047974500826,-0.10250289386968695,-0.3511070311069488,1.1094529628753662,0.0304367132484912,-0.295377254486084,-0.2671146988868713,-0.235417902469635
1749027222.7588077,5.889197725171241,-2.0528034462002664,-0.0046370587060470415,-4.344064976297392,1.2242792774652709,4.4343434227088645,-0.06296682909633072,0.017194428012854146,-0.020088455554369996,0.033652524960901126,-0.047721695768674535,-0.10415915103870223,-0.3634116649627685,1.1096503734588623,0.0252974554896354,-0.2931233048439026,-0.2892382740974426,-0.2243708819150924
1749027222.758844,5.889070842917184,-2.0527692295007913,-0.004680026290500397,-4.343996012192282,1.2241812812153685,4.434131647336914,-0.0641139118308555,0.01749601474593702,-0.020511107767405546,0.034343323916258765,-0.04854721261369902,-0.105748547404302,-0.3620533943176269,1.090715765953064,0.0451779402792453,-0.2810471951961517,-0.26085165143013,-0.2400202006101608
1749027222.7588809,5.888941894721641,-2.0527344431249923,-0.004724267924924804,-4.343925046183652,1.2240813523475416,4.433916559624927,-0.0652447710469944,0.017804823243509883,-0.02092248325408163,0.035050922472783824,-0.0493648730575609,-0.1073240029053715,-0.3670527040958404,1.0835379362106323,0.0281035043299198,-0.2643196880817413,-0.270306259393692,-0.225120797753334
1749027222.758917,5.888810986938733,-2.0526990527448965,-0.004769727448815717,-4.343852130282158,1.2239796503307834,4.43369828933424,-0.0663620380740038,0.01812122062784977,-0.02132358992626246,0.03577036721033655,-0.050165719506861536,-0.10893783646218735,-0.373021125793457,1.1072897911071775,0.0271131563931703,-0.2648807168006897,-0.274318516254425,-0.250627726316452
1749027222.7589538,5.888678165893472,-2.0526630253879654,-0.0048163256488835465,-4.343777343998322,1.2238763380572455,4.43347684754804,-0.06747014337967996,0.018445421387134335,-0.021715411725200535,0.036494119439291865,-0.05094295140246687,-0.11063466679017589,-0.3947311639785766,1.109573245048523,0.0512404702603817,-0.2697721421718597,-0.264907956123352,-0.2670059204101562
1749027222.75899,5.8885434103953385,-2.052626328235073,-0.004863962262550295,-4.343700791005881,1.2237715706535286,4.433252134933692,-0.06857505025409419,0.018777411752117064,-0.022098828999597413,0.037212439547255026,-0.0516930785905086,-0.11244508075707811,-0.3819489777088165,1.0962945222854614,0.0415002629160881,-0.2675141096115112,-0.2673337757587433,-0.2502532303333282
1749027222.7596767,5.88840663282018,-2.05258892925767,-0.004912520195766625,-4.343622596352713,1.2236654836105791,4.433023965870781,-0.06968388394308882,0.019116936114023122,-0.022474610683218686,0.03791409803238833,-0.05241662910842717,-0.11438099786929613,-0.3970445990562439,1.1158450841903689,0.0109760910272598,-0.2621582746505737,-0.2688145637512207,-0.2753161787986755
1749027222.7620146,5.888267688196533,-2.05255079978959,-0.004961871814507103,-4.3435429034472275,1.2235581807440834,4.4327921041169445,-0.07080448338686629,0.01946353857512148,-0.022843472585999423,0.03858736662579256,-0.05311825684022431,-0.116433487054423,-0.3583487272262573,1.096499800682068,0.0328897200524807,-0.266093760728836,-0.2586765885353088,-0.3012918531894684
1749027222.8063,5.888126389411515,-2.0525119182519695,-0.00501188687270663,-4.343461869858601,1.2234497235853972,4.432556304180725,-0.07194488528378343,0.019816645850185364,-0.02320618223293053,0.039221186307437476,-0.053806195573969214,-0.11857350202497419,-0.3950840830802917,1.1069204807281494,0.0429677926003932,-0.2855335474014282,-0.2677581906318664,-0.2985559999942779
1749027222.8063445,5.8879825257129035,-2.0524722734685668,-0.00506244141858971,-4.3433796610570745,1.2233401244719087,4.432316352087831,-0.07311274606924588,0.020175672602615786,-0.02356368150529286,0.039806370521138695,-0.05449114107083091,-0.12075560989288948,-0.4145289659500122,1.11322283744812,0.0534984618425369,-0.2863859236240387,-0.2774219512939453,-0.2898703813552856
1749027222.8063838,5.887835881431458,-2.0524318658239262,-0.0051134267373256995,-4.343296441727137,1.2232293452936809,4.4320720995104255,-0.07431471658037186,0.02054012459408339,-0.02391719687916654,0.04033668662793173,-0.05518476642628212,-0.12292432430835044,-0.3718017935752868,1.090095281600952,0.0351075530052185,-0.2741462886333465,-0.2713263034820556,-0.2690993547439575
1749027222.8064215,5.887686252340222,-2.0523907050622987,-0.005164757084710889,-4.343212365104247,1.2231173026939048,4.43182348607151,-0.07555580034727287,0.020909669155524085,-0.024268310669122065,0.04080966723608764,-0.05589813557781318,-0.12502219749752055,-0.438317596912384,1.0905554294586182,0.0481964759528636,-0.2877990007400512,-0.2674223780632019,-0.2532311379909515
1749027222.8064592,5.887533458007889,-2.052348804612685,-0.0052163749303225666,-4.343127561591589,1.2230038791515248,4.4315705461255765,-0.07683874811981825,0.021284143975486117,-0.02461897041538345,0.041227034014811835,-0.05664025891426911,-0.12699848124442362,-0.4402870237827301,1.1027162075042725,0.0290016233921051,-0.2792359888553619,-0.2937216162681579,-0.228385642170906
1749027222.8064966,5.8873773494810395,-2.0523061735620605,-0.005268252846527046,-4.343042128424248,1.222888938388486,4.431313398694128,-0.0781635667132043,0.02166349353113044,-0.02497141743584877,0.04159466552475799,-0.057416962919191177,-0.1288170115815749,-0.4411950707435608,1.0932053327560425,0.051224511116743,-0.2919594347476959,-0.2937618792057037,-0.1956529915332794
1749027222.8065336,5.887217812495105,-2.052262808267413,-0.0053203918837938105,-4.342956122237692,1.22277234314098,4.431052222452429,-0.07952723352961111,0.02204765354730227,-0.025328027006078894,0.0419221004817451,-0.058230166254667454,-0.13046203851666832,-0.4626724421977997,1.117910385131836,0.034411996603012,-0.2824472188949585,-0.2740014195442199,-0.1659156680107116
1749027222.8065703,5.887054767228021,-2.052218685744182,-0.005372816887938277,-4.342869556101557,1.2226539733827355,4.430787220987161,-0.08092368920738338,0.022436428329823416,-0.025691077007243903,0.04222163065817077,-0.0590775968418864,-0.13194101889277032,-0.3988426327705383,1.106879711151123,0.0362171083688735,-0.2789171934127807,-0.2778218984603882,-0.1883950233459472
1749027222.806608,5.886888166310239,-2.052173760470739,-0.005425569550420537,-4.342782402010703,1.2225337433380834,4.430518585725898,-0.08234412919741212,0.022829408642712084,-0.026062490480846127,0.042507094113618867,-0.059952957900704616,-0.1332838906029262,-0.390278160572052,1.1073875427246094,0.0456605404615402,-0.298216164112091,-0.2852583527565002,-0.1898311227560043
1749027222.806645,5.886717993166705,-2.0521279654863616,-0.005478700178802523,-4.342694599028735,1.222411615819468,4.430246464080659,-0.08377755182132514,0.02322596134710446,-0.026443611432200417,0.04279252113222917,-0.060846542471580375,-0.13453896139034466,-0.4362911581993103,1.1110501289367676,0.043142557144165,-0.2886308133602142,-0.2977056205272674,-0.2269371747970581
1749027222.806682,5.886544262602301,-2.052081217928298,-0.005532259405014337,-4.3426060662872,1.222287612409409,4.429970938634706,-0.08521147423156075,0.02362529725441721,-0.02683506303440651,0.04309080909126461,-0.0617462712862301,-0.13576613948009125,-0.4480276107788086,1.0909085273742676,0.0391211435198783,-0.2756937742233276,-0.2761985659599304,-0.2276412546634674
1749027222.8067188,5.886367024730413,-2.052033428477585,-0.005586291235017904,-4.34251671906359,1.2221618178760763,4.429692020574834,-0.08663271809841727,0.024026597221635124,-0.027236712860004054,0.043412608919911375,-0.0626390623889811,-0.13702867465415475,-0.4139010012149811,1.0831834077835083,0.0381751134991645,-0.2535270750522613,-0.2766884565353393,-0.2755883932113647
1749027222.806755,5.886186371921612,-2.0519845135451176,-0.005640828759913712,-4.342426485511646,1.222034377338691,4.429409657756595,-0.08802818959815481,0.024429152534452873,-0.027647745781352904,0.04376558851784358,-0.0635123513726168,-0.13838478204392896,-0.4433492422103882,1.0939991474151611,0.0242330729961395,-0.2576912343502044,-0.2624097168445587,-0.257046103477478
1749027222.806791,5.8860024468796475,-2.0519344085456876,-0.0056958933972812405,-4.342335321467231,1.2219054854225355,4.429123755007465,-0.0893856085216712,0.024832465164784222,-0.02806682667784957,0.04415418589968226,-0.06435552395946506,-0.1398804623730174,-0.3835725486278534,1.1028836965560913,0.0302672460675239,-0.2730921506881714,-0.2728341221809387,-0.3053480386734009
1749027222.8068285,5.885815448959644,-2.0518830803443,-0.005751497811611572,-4.342243221025308,1.221775367897324,4.428834201817549,-0.0906941553419893,0.02523627023326621,-0.02849232112595431,0.044579880169800835,-0.06516104187292056,-0.14154454493847335,-0.4275808334350586,1.097190499305725,0.0269707813858985,-0.2436634600162506,-0.2750096023082733,-0.2930260002613067
1749027222.8068652,5.885625635813581,-2.051830536870873,-0.005807651847129279,-4.34215022110589,1.2216442576436168,4.428540901086219,-0.09194500062562945,0.02564048372720753,-0.028922535163452986,0.04504191752000076,-0.06592513270866587,-0.14338653535704282,-0.3830412328243255,1.1097991466522217,0.0247023552656173,-0.2519752979278564,-0.2783354520797729,-0.3017177581787109
1749027222.8069017,5.885433318252725,-2.0517768320452747,-0.005864370095449647,-4.342056398915468,1.221512367761023,4.428243792549836,-0.09313167812993713,0.026045116944727047,-0.029355937955452636,0.04553835752812044,-0.06664802736597754,-0.14539733118097597,-0.4302228689193725,1.111338496208191,0.0284311547875404,-0.239933505654335,-0.266503244638443,-0.3066328763961792
1749027222.806938,5.885238847516483,-2.0517220646282284,-0.005921679367255773,-4.3419618620703275,1.2213798649253496,4.4279428657728355,-0.09425028177852467,0.026450208128066796,-0.029791340622490236,0.04606725768446244,-0.06733381477312693,-0.14755236129876964,-0.384596049785614,1.0940992832183838,0.0305930376052856,-0.2521642446517944,-0.2638371288776397,-0.2840490937232971
1749027222.806974,5.885042595536393,-2.051666370326941,-0.005979624479056449,-4.341866732138785,1.2212468457426326,4.4276381596980325,-0.09529950561051026,0.026855798331762142,-0.03022801372772075,0.046627791825054034,-0.06799002026442075,-0.14981630769593207,-0.3794232606887817,1.1156864166259766,0.0194757208228111,-0.2419312894344329,-0.2642534971237182,-0.2635895311832428
1749027222.807011,5.884844929863114,-2.0516099073353304,-0.006038271254413219,-4.341771123345626,1.2211133181840745,4.427329748392425,-0.09628058185750941,0.027261943775035068,-0.030665732041698014,0.04722111401367716,-0.06862700618058516,-0.15214836744649998,-0.3783345520496368,1.0990471839904783,0.006560280919075,-0.2274001538753509,-0.2650734186172485,-0.2522690296173095
1749027222.807047,5.884646185467116,-2.0515528365444697,-0.006097706217252886,-4.341675118975515,1.2209791896262945,4.427017715633233,-0.09719718397005228,0.027668735178237897,-0.03110474122043504,0.047850841787652976,-0.06925726079361814,-0.1545070505213575,-0.4072423875331878,1.0942184925079346,0.0125152096152305,-0.2321625500917434,-0.2597699165344238,-0.2352249920368194
1749027222.8070834,5.884446635884531,-2.05149529891686,-0.00615803297984575,-4.34157874845352,1.2208442627318843,4.426702124171945,-0.09805534339406985,0.028076294666485653,-0.03154565062387862,0.04852311843817521,-0.06989460554231214,-0.15685377334155226,-0.3850184381008148,1.1037566661834717,0.0165351703763008,-0.2041862607002258,-0.2862065434455871,-0.2420911937952041
1749027222.8077233,5.884246466739155,-2.0514373936786248,-0.006219365731931893,-4.341481968185629,1.220708240283104,4.426382988331039,-0.09886338702264633,0.02848473368202973,-0.03198926946793416,0.04924627797174806,-0.07055332443329457,-0.1591549308613593,-0.3612151741981506,1.0985050201416016,-0.0003376081585884,-0.209339752793312,-0.2703071534633636,-0.245329275727272
1749027222.8097117,5.8840457556355705,-2.051379161577403,-0.0062818205232030525,-4.341384649108267,1.2205707398429044,4.426060259674868,-0.09963185007688982,0.02889406816457217,-0.03243641605955721,0.050030151785378,-0.0712472081093949,-0.16138259132223623,-0.3612151741981506,1.0985050201416016,-0.0003376081585884,-0.209339752793312,-0.2703071534633636,-0.245329275727272
1749027222.8502898,5.8838444627550786,-2.0513205770360905,-0.00634550531294905,-4.34128657334371,1.2204313183552111,4.425733832988836,-0.10037328311476001,0.02930409753824995,-0.03288773655473064,0.050885040497709345,-0.07198850947538339,-0.1635143239818848,-0.3910060822963714,1.1079208850860596,0.0003491789102554,-0.2271707952022552,-0.270386129617691,-0.2795721888542175
1749027222.8503368,5.8836424349876175,-2.0512615513847416,-0.006410510049184228,-4.341187441090165,1.2202895053878333,4.425403573199529,-0.10110187745356092,0.029714267156997803,-0.03334356548910407,0.05182037228920106,-0.07278682779127955,-0.1655328406510875,-0.4008385241031647,1.1071361303329468,-0.006396397948265,-0.222609132528305,-0.2747789025306701,-0.3029555678367615
1749027222.8503776,5.88343942356168,-2.0512019468575278,-0.006476898119472918,-4.341086887142636,1.2201448423204215,4.425069355889658,-0.10183287826309571,0.030123549215820576,-0.03380384572960998,0.052843107200972315,-0.0736479691765753,-0.16742606046997857,-0.400941789150238,1.1183795928955078,0.0039268657565116,-0.213559404015541,-0.2814567387104034,-0.2845553755760193
1749027222.850417,5.883235112701494,-2.0511415986795893,-0.006544700281569416,-4.340984504985237,1.2199969242419895,4.424731109100489,-0.10258181185703386,0.030530384523118115,-0.03426810948958944,0.05395601221482865,-0.07457286398805507,-0.169187911976434,-0.3970145881175995,1.096470832824707,0.0011234246194362,-0.2093445956707,-0.2753080427646637,-0.274117648601532
1749027222.8504555,5.883029155629326,-2.051080341150909,-0.00661391183918893,-4.340879875663747,1.2198454415545084,4.424388844361689,-0.10336359863101874,0.030932719243644154,-0.03473551343316938,0.05515599426681525,-0.07555664960227818,-0.1708197604802063,-0.3989344537258148,1.0977811813354492,0.0068574734032154,-0.1968426704406738,-0.2863989770412445,-0.24881112575531
1749027222.8504932,5.88282121347833,-2.0510180332568764,-0.0066844935356352685,-4.340772598562757,1.2196902183877787,4.424042669105899,-0.10419164372777255,0.03132815077387837,-0.0352049174007264,0.05643271847477042,-0.07658805465579421,-0.17233194421191847,-0.4181047081947326,1.0995289087295532,0.0138262696564197,-0.1998887658119201,-0.2831528782844543,-0.2200855761766433
1749027222.85053,5.882610991985896,-2.0509545797527715,-0.006756376277791836,-4.340662321538681,1.2195312443636226,4.423692778301235,-0.10507699230894048,0.031714175523246714,-0.035674992173731906,0.057767750416161244,-0.07764925240173869,-0.17374467565619453,-0.432548463344574,1.083513617515564,0.0043697990477085,-0.1956514865159988,-0.3176094889640808,-0.2057938426733017
1749027222.8505688,5.882398270930472,-2.0508899447363627,-0.006829469275520869,-4.340548768354473,1.2193686952522496,4.423339428346926,-0.1060276171459088,0.03208851515305703,-0.03614434165840469,0.05913443933949052,-0.07871637247272871,-0.17508761386103486,-0.4224942326545715,1.1099570989608765,-0.01877923309803,-0.2148895859718322,-0.3249161839485168,-0.2088008821010589
1749027222.8506055,5.882182922706184,-2.0508241562486362,-0.006903670618107649,-4.3404317617846875,1.219202937505034,4.422982899891959,-0.10704789061097386,0.032449486337240305,-0.0366116339342279,0.060498698108061154,-0.07976083400721179,-0.17639774045086404,-0.4327667653560638,1.0901145935058594,0.0024638809263706,-0.2074353396892547,-0.2984274625778198,-0.2176131308078766
1749027222.850643,5.881964918660011,-2.0507573019997807,-0.0069788789056689626,-4.340311241044829,1.219034512648121,4.422623457781116,-0.10813828641156373,0.03279636760244669,-0.03707574066126182,0.06182073570211604,-0.08075155644149913,-0.1777156684413664,-0.4503737688064575,1.091745376586914,-0.0031270831823349,-0.2089728862047195,-0.30125892162323,-0.244235947728157
1749027222.8506842,5.881744323951323,-2.050689517496009,-0.007055004394513169,-4.340187272569151,1.2188641005815835,4.422261316109186,-0.10929535003069274,0.033129704217915265,-0.03753586847999321,0.06305767028915243,-0.08165793270851797,-0.17908099710463513,-0.419691652059555,1.1009365320205688,-0.0035985074937343,-0.2062753736972808,-0.3036773204803467,-0.2915181517601013
1749027222.8507216,5.881521283427463,-2.0506209686125,-0.007131978131004714,-4.340060053879052,1.2186924651009057,4.421896615157825,-0.11051196204882101,0.03345148837063993,-0.03799163921045906,0.06416681494257574,-0.08245327378415002,-0.1805276230867083,-0.4234479963779449,1.0987759828567505,0.0077261216938495,-0.2218034565448761,-0.2825807929039001,-0.27632537484169
1749027222.850758,5.881296002266889,-2.0505518312411266,-0.007209757635130418,-4.339929911109807,1.2185203887132354,4.4215294150109345,-0.11177789467503424,0.033765169647767344,-0.03844306921544866,0.06510930820895958,-0.08311830607006772,-0.1820799356704813,-0.4234479963779449,1.0987759828567505,0.0077261216938495,-0.2218034565448761,-0.2825807929039001,-0.27632537484169
1749027222.8507943,5.881068725231378,-2.0504822710195105,-0.0072883280287526706,-4.339797290854697,1.2183486054894426,4.421159706964586,-0.11308063215043726,0.03407548591830381,-0.03889042816242831,0.06585368797550382,-0.08364423766867941,-0.18375057840042386,-0.4161026179790497,1.0980112552642822,-0.0092984847724437,-0.2453522235155105,-0.2639380693435669,-0.3163091242313385
1749027222.8508313,5.880839716657217,-2.0504124260019054,-0.007367698419154188,-4.339662745875336,1.2181777396717526,4.42078743808743,-0.11440639096963981,0.03438813422372861,-0.03933400568026459,0.0663790091575682,-0.08403490961156636,-0.18554004741297,-0.4269853234291076,1.1147246360778809,0.0028132423758506,-0.2280919253826141,-0.2408997416496276,-0.2990228235721588
1749027222.8508673,5.8806092407255734,-2.0503423943112242,-0.007447894634840127,-4.3395269127852645,1.2180082549520046,4.420412538840824,-0.11574123969975517,0.03470930812104865,-0.03977384772414009,0.06667718282244801,-0.08430763319703291,-0.1874379500706374,-0.4100925624370575,1.0765156745910645,-0.0033243875950574,-0.2497052550315857,-0.2520756125450134,-0.2488068789243698
1749027222.850904,5.880377540048621,-2.050272227525847,-0.0075289502527586035,-4.33939047954606,1.217840416660436,4.420034942290738,-0.11707219616688581,0.03504512113499491,-0.040209525262114666,0.06675431858588013,-0.08449249425059692,-0.1894253958327886,-0.3956352472305298,1.0772467851638794,-0.0178158432245254,-0.2521281838417053,-0.2527421414852142,-0.2598510980606079
1749027222.8509414,5.8801448111498855,-2.0502019292175064,-0.007610897746665629,-4.339254142131862,1.217674267877809,4.419654587308192,-0.11838818873361437,0.03540094246393743,-0.04063997657528659,0.06663093159121682,-0.08463013980696169,-0.19147783903380416,-0.4305499792098999,1.1004130840301514,-0.0099806152284145,-0.2665376663208008,-0.243654727935791,-0.260034829378128
1749027222.8509784,5.879911177523864,-2.0501314572217253,-0.00769376079738409,-4.3391185524784355,1.2175096205805063,4.41927140502505,-0.11968080131426798,0.035780705046332635,-0.041063442326259976,0.06634093440782796,-0.08476827780977704,-0.19356777816643556,-0.4689776301383972,1.12587571144104,0.0214515049010515,-0.2800540924072265,-0.2537510693073272,-0.2547619044780731
1749027222.8510156,5.87967666373916,-2.050060728324588,-0.00777754792471487,-4.3389842629053,1.2173460634489017,4.418885294707769,-0.12094474875147376,0.03618628750712274,-0.04147749880272341,0.06592942727046944,-0.08495726706707363,-0.19566697419482704,-0.3968968391418457,1.0642164945602417,0.0041966922581195,-0.2460112124681472,-0.2619647681713104,-0.2964630722999573
1749027222.8516853,5.8794411763320715,-2.0499896248400264,-0.007862247086656593,-4.338851674506729,1.2171829880099116,4.41849609982371,-0.12217803631340943,0.03661708417990283,-0.041879184992430665,0.065449460581376,-0.08524526014864721,-0.19774814928874615,-0.3968968391418457,1.0642164945602417,0.0041966922581195,-0.2460112124681472,-0.2619647681713104,-0.2964630722999573
1749027222.8536584,5.879204497304784,-2.049918003120327,-0.007947821011956235,-4.33872099732073,1.2170196335185375,4.418103595228023,-0.12338177182561612,0.037069850625116134,-0.042265208399534016,0.06495812669949111,-0.08567341221902708,-0.19978634802130438,-0.4537873864173889,1.0939606428146362,-0.0058843046426773,-0.2424954026937484,-0.2854712307453155,-0.2919654846191406
1749027222.894291,5.878966292984925,-2.0498457037454076,-0.008034203724956557,-4.338592227889604,1.2168551480539689,4.417707491226146,-0.12455965338431488,0.03753886865909104,-0.042632203152260906,0.06451244467536217,-0.08627168311641574,-0.20176021732292967,-0.4360570013523102,1.1114479303359983,0.0357899963855743,-0.2349635660648346,-0.3140317797660827,-0.3117988109588623
1749027222.894336,5.878726136499155,-2.049772562321287,-0.008121299472534881,-4.338465146297,1.216688659742694,4.417307452625084,-0.12571723195397083,0.03801643465944638,-0.04297700761215183,0.0641654689822226,-0.087055712994345,-0.2036533691143094,-0.4173307418823242,1.1103997230529783,0.0462328046560287,-0.2757561802864074,-0.3086216747760772,-0.274624228477478
1749027222.8943765,5.878483539273888,-2.0496984193673544,-0.00820898546734864,-4.338339331960552,1.2165193498197793,4.416903125898386,-0.12686109128872414,0.03849363219489643,-0.04329693720634109,0.06396291632449891,-0.0880251295317897,-0.20545577346378757,-0.4391297101974487,1.0926823616027832,-0.0102335587143898,-0.2576933801174164,-0.2739425897598266,-0.2451598346233368
1749027222.8944154,5.878237987108242,-2.049623128153269,-0.00829711929971466,-4.338214196259162,1.2163465193969285,4.416494167735717,-0.1279980696134746,0.038961297564968474,-0.04359005266797444,0.06394045887545972,-0.08916347296358011,-0.2071649039712646,-0.4429985582828522,1.091815948486328,0.0065025389194488,-0.240917295217514,-0.3316597640514374,-0.2240037322044372
1749027222.894453,5.877988978113083,-2.049546560352099,-0.008385550693689296,-4.338089029637239,1.216169643529982,4.416080271664607,-0.1291345920127071,0.03941104122951183,-0.043855441247876804,0.06412174892107253,-0.09043975561087135,-0.2087862502357595,-0.4552617073059082,1.108473539352417,0.0254967957735061,-0.22984579205513,-0.326849102973938,-0.2377705723047256
1749027222.8944912,5.877736061275541,-2.0494686104054454,-0.00847413586002704,-4.337963060040543,1.2159884082087653,4.415661192831035,-0.13027612877045225,0.03983617542187302,-0.04409351021770143,0.0645172230219698,-0.09181152794306181,-0.21033288854134863,-0.4144692718982696,1.1116033792495728,0.0603762716054916,-0.2303278744220733,-0.3365974426269531,-0.2431436479091644
1749027222.894529,5.877478874782466,-2.049389199879037,-0.008562751621573843,-4.337835518256213,1.2158027277462788,4.4152367724722055,-0.1314267658854804,0.0402324242514757,-0.04430624638848547,0.06512374168723385,-0.09322917628364254,-0.2118240281531206,-0.4727725982666015,1.116306185722351,0.0333331376314163,-0.2185344845056533,-0.3025911450386047,-0.2730925381183624
1749027222.894567,5.8772171825928545,-2.0493082825922495,-0.008651306340267588,-4.337705704551066,1.215612741850355,4.414806962895115,-0.1325888770223364,0.040598340279064185,-0.04449736738945586,0.06592511082648994,-0.09464100961389045,-0.21328272720823013,-0.4475110471248626,1.1308976411819458,0.0192110836505889,-0.2178699523210525,-0.3181058466434479,-0.2691928744316101
1749027222.894604,5.876950906481229,-2.049225850408119,-0.008739745597377037,-4.337573050390434,1.2154187934946776,4.414371851650529,-0.13376291286577272,0.04093540146407442,-0.04467230828182922,0.06689348925635784,-0.09599854945737596,-0.2147331850300137,-0.47540944814682,1.1004841327667236,0.0428906641900539,-0.2156019359827041,-0.3416661620140075,-0.2800765931606293
1749027222.894641,5.876680149550788,-2.049141938865782,-0.008828052142990213,-4.337437169004937,1.2152213904432108,4.413931681188358,-0.13494734361661306,0.04124780499430157,-0.04483803041848277,0.06799162223486797,-0.09726138663961578,-0.2161980866068845,-0.452042669057846,1.0995124578475952,0.0285063236951828,-0.1911969035863876,-0.3077395856380462,-0.2698699533939361
1749027222.8946788,5.876405206848214,-2.0490566313915086,-0.00891624114457036,-4.3372978891780205,1.2150211547719627,4.413486858762323,-0.13613877574000605,0.04154200736961168,-0.04500267194045552,0.06917576989544355,-0.0984010290546525,-0.2176963895338903,-0.4219017028808594,1.1038486957550049,0.0367457792162895,-0.1968896389007568,-0.2965194284915924,-0.261331707239151
1749027222.8947153,5.876126559577772,-2.048970060485286,-0.009004352702650245,-4.337155268083257,1.2148187657648966,4.413037951515116,-0.1373322273270258,0.04182608228246369,-0.045175071399333785,0.07039913056996036,-0.09940329807079311,-0.21924176607173154,-0.4228200018405914,1.1026753187179563,0.040536530315876,-0.2203424572944641,-0.2918232083320617,-0.2571253180503845
1749027222.8947558,5.875844851101219,-2.0488824042337077,-0.009092443888703712,-4.337009581289732,1.214614901790378,4.41258566346341,-0.13852152256196748,0.042108977011832915,-0.04536420187791881,0.07161549628168691,-0.10026900412926447,-0.2208417411391526,-0.4164092242717743,1.111570119857788,0.0217242091894149,-0.2270988821983337,-0.2862744033336639,-0.2643248438835144
1749027222.8947933,5.875560844663637,-2.048793877039015,-0.00918058241938415,-4.336861290637775,1.21441018598688,4.412130793601566,-0.1396997660533302,0.042399742316899275,-0.045578562752239524,0.07278282814403522,-0.10101283649498675,-0.22249748019615445,-0.4671202600002289,1.1065256595611572,0.0245051681995391,-0.224649578332901,-0.3021314740180969,-0.262561559677124
1749027222.8948298,5.875275364287098,-2.0487047144542982,-0.009268843629137883,-4.3367109929979,1.2142051391321849,4.411674176493273,-0.14085986675541085,0.04270679356793698,-0.04582558740181482,0.07386641734807499,-0.10166062342759415,-0.22420419119573942,-0.4787328541278839,1.1263458728790283,0.0139771923422813,-0.2324197739362716,-0.3040230572223663,-0.3138862550258636
1749027222.8948662,5.874989221873257,-2.0486151530272534,-0.009357311611625807,-4.336559354832915,1.2140001416987691,4.411216608262343,-0.14199508337034547,0.04303724007958271,-0.046111131043640285,0.0748413169862313,-0.10224531795387688,-0.22595214573507513,-0.5032816529273987,1.1431330442428589,0.0061308816075325,-0.2380879521369934,-0.2885932922363281,-0.3267454504966736
1749027222.8949022,5.8747031357203205,-2.048525406840471,-0.0094460843597322,-4.336407039072953,1.2137954064291445,4.4107587625661235,-0.1430995521219446,0.04339630203688727,-0.04643909739529209,0.07569379391888498,-0.10280220479520062,-0.22772830035607314,-0.446399986743927,1.1236883401870728,0.010171540081501,-0.2548505365848541,-0.2863444089889526,-0.2950807511806488
1749027222.8949382,5.874417648406888,-2.0484356432033657,-0.009535281617103476,-4.3362546320611175,1.2135909629376145,4.410301103793373,-0.14416873940920355,0.04378682510454401,-0.04681124211235091,0.07642164978429485,-0.1033639024506116,-0.22951836295696226,-0.4086605906486511,1.0959968566894531,0.0087432414293289,-0.2355326116085052,-0.2914632558822632,-0.2808516919612884
1749027222.894974,5.874133054781403,-2.0483459609261616,-0.009625053080733251,-4.336102579113828,1.213386656569765,4.409843808404151,-0.14519975659968526,0.044208908456243534,-0.04722715633600829,0.07703338383380567,-0.1039557678848065,-0.2313089499389854,-0.4545252323150635,1.132071018218994,0.0101266577839851,-0.2468256950378418,-0.3030038774013519,-0.2434504330158233
1749027222.89501,5.873849352401986,-2.048256375374259,-0.00971558383957545,-4.335951137183331,1.2131821642087146,4.409386708705618,-0.1461914973915774,0.0446596845157619,-0.04768439422310847,0.0775463062112738,-0.10459230111572068,-0.23308934085120103,-0.4545252323150635,1.132071018218994,0.0101266577839851,-0.2468256950378418,-0.3030038774013519,-0.2434504330158233
1749027222.8957136,5.873566225359272,-2.0481668140800964,-0.009807094039379625,-4.335800351377994,1.212977028616372,4.408929273662276,-0.147144598390786,0.045133313437515386,-0.04817867968995173,0.0779838497633642,-0.1052750712646054,-0.2348523789893435,-0.4158564507961273,1.1113451719284058,0.0091899409890174,-0.2198708355426788,-0.3432922959327698,-0.2657893300056457
1749027222.8977,5.87328306709128,-2.048077124612597,-0.009899831017158637,-4.3356500582765545,1.212770709693343,4.408470636307494,-0.14806125774793596,0.04562125706440619,-0.048704125495255525,0.0783724568911856,-0.10599252540322426,-0.2365943120171402,-0.4541209638118744,1.087832808494568,0.0085464045405387,-0.2027620375156402,-0.330349862575531,-0.2770262360572815
1749027222.9383206,5.872999040532991,-2.0479870935767654,-0.009994054005303468,-4.33549991423656,1.2125626471758657,4.4080096684146195,-0.14894496857300082,0.04611286699582914,-0.04925342473218042,0.07873849673658381,-0.1067217998798462,-0.23831371519903705,-0.4202333688735962,1.128628849983215,0.0025923177599906,-0.2077279090881347,-0.3365245461463928,-0.303183764219284
1749027222.9383664,5.872713168179615,-2.0478964735876213,-0.010090012964649864,-4.335349443271422,1.212352327048092,4.407545094653088,-0.14980023927985917,0.046596275659700294,-0.04981801579795102,0.07910564195629427,-0.10743235416699122,-0.24000993549744043,-0.4463180303573608,1.1075841188430786,-0.0005694478750228,-0.2113430649042129,-0.3090284764766693,-0.301864355802536
1749027222.9384065,5.872424441633896,-2.047805014442388,-0.010187923773972768,-4.335198097442782,1.212139344010435,4.40707563299908,-0.15063237628807974,0.04705953146941265,-0.05038825861076174,0.07949298567268681,-0.10809093875013547,-0.2416816242356813,-0.4553085565567016,1.0988186597824097,-0.0104969441890716,-0.2375399023294448,-0.2839897871017456,-0.2968006134033203
1749027222.9384456,5.87213193836601,-2.0477124947875915,-0.010287942415397246,-4.3350453223608225,1.2119234534215328,4.4066001446932725,-0.15144738383317138,0.047491865201013714,-0.050953681631176945,0.07991396986364602,-0.10866717191745873,-0.24332586433508774,-0.4550458192825317,1.0623599290847778,0.0002424195408821,-0.2371552437543869,-0.3000717163085937,-0.2982471883296966
1749027222.9384832,5.871834931139133,-2.0476187504500185,-0.010390141585838716,-4.334890620223788,1.211704606734975,4.4061177738125235,-0.1522519964161695,0.047884920374972495,-0.051503358593157265,0.08037603160331902,-0.10913891075072352,-0.24493820073099243,-0.4550458192825317,1.0623599290847778,0.0002424195408821,-0.2371552437543869,-0.3000717163085937,-0.2982471883296966
1749027222.938521,5.8715329735030934,-2.047523695297458,-0.01049449414046511,-4.334733602553532,1.2114829643812963,4.405628053759553,-0.15305381711413982,0.04823375743458534,-0.05202644678037909,0.08088081619966925,-0.10949666719884371,-0.24651364316627747,-0.440661609172821,1.09535551071167,0.005346942692995,-0.2087621688842773,-0.2888973355293274,-0.292100042104721
1749027222.9385574,5.871225945775417,-2.0474273309434525,-0.010600867835121722,-4.334574025233811,1.2112588807725215,4.4051309587918315,-0.1538614927758598,0.048537473444829116,-0.05251287424409709,0.081424833600685,-0.10974648102654734,-0.24804849872134532,-0.4550773203372955,1.0683709383010864,0.014621052891016,-0.2266447246074676,-0.2747794091701507,-0.3072007596492767
1749027222.938594,5.870914052613399,-2.0473297436060944,-0.01070903392772711,-4.334411801024306,1.2110328596842035,4.404626887263707,-0.15468481296951153,0.04879934735427108,-0.052954119264906716,0.08200047319281523,-0.10991085780621641,-0.24954271867400948,-0.4431877136230469,1.0724942684173584,0.0173673667013645,-0.2272321581840515,-0.2895883917808532,-0.2980285882949829
1749027222.93863,5.870597774448416,-2.0472310894678967,-0.010818688644205586,-4.334246989592918,1.2108054847192824,4.404116579226756,-0.15553458651398278,0.04902648644021869,-0.05334399412752657,0.08259728897642185,-0.11002759302078766,-0.25100229503098415,-0.4543866813182831,1.0578904151916504,0.0452958829700946,-0.2202428877353668,-0.2803791761398315,-0.2964658737182617
1749027222.9386675,5.870277785446277,-2.0471315723180528,-0.010929483163229396,-4.334079770243845,1.210577335855836,4.403600987141811,-0.15642215177724608,0.049228998195864376,-0.05367933327692319,0.08320342659137141,-0.11014653160447163,-0.2524411251700436,-0.5123607516288757,1.1099261045455933,0.0064911688677966,-0.2121535539627075,-0.2758501172065735,-0.3182026743888855
1749027222.9387054,5.869954855537647,-2.047031417942918,-0.01104105638858449,-4.3339104053462165,1.2103489060649737,4.403081126808064,-0.15735843210915848,0.049418758904797556,-0.053960495822361274,0.08380702666402,-0.1103245476694185,-0.2538817254928847,-0.3579209744930267,1.0203886032104492,0.0167571455240249,-0.2221683263778686,-0.2974070012569427,-0.2690645158290863
1749027222.938742,5.86962975309164,-2.0469308490268507,-0.011153065506629992,-4.333739202247154,1.2101205312896672,4.402557934963369,-0.15835256273059503,0.049607910174126336,-0.05419161392191964,0.08439743702800383,-0.11061926086929944,-0.25535427999455385,-0.3649007678031921,1.0352139472961426,0.0221773516386747,-0.2385000437498092,-0.2930769324302673,-0.2207934111356735
1749027222.9387786,5.869303160788248,-2.0468300633229917,-0.011265211068513125,-4.333566479308495,1.209892344140941,4.402032154348302,-0.15941028485930694,0.049807287554188964,-0.05438053224350313,0.08496610439317308,-0.11108221821398008,-0.25689380044918625,-0.3789707720279693,1.0467329025268557,0.0431670024991035,-0.2336044311523437,-0.3013961315155029,-0.2490829527378082
1749027222.9388158,5.86897561273782,-2.046729217121115,-0.011377255062009449,-4.3333925390475505,1.2096642574342429,4.4015042597810226,-0.16053248393019923,0.05002505442255018,-0.05453839022803176,0.08550708692640893,-0.11175242505063505,-0.25853562997496715,-0.4662855565547943,1.0879510641098022,0.0178001057356596,-0.2412607967853546,-0.3187934458255768,-0.245329275727272
1749027222.9388518,5.86864745683055,-2.046628415318527,-0.011489031729371718,-4.333217649024401,1.2094359785446975,4.400974430959793,-0.1617143479408013,0.050265838233294294,-0.054678827061439596,0.08601722151850685,-0.11265114961373927,-0.26031002472565234,-0.4448987245559692,1.044328212738037,0.0322581939399242,-0.2179522812366485,-0.3203766047954559,-0.3049726188182831
1749027222.9388878,5.868318842645278,-2.046527708296392,-0.011600451673080272,-4.333042029570578,1.2092070504368042,4.40044256972511,-0.1629455509612886,0.050530596942208426,-0.05481685506487221,0.08649606405118641,-0.11377881301727769,-0.2622369170341065,-0.4311838746070862,1.068953514099121,0.0317111238837242,-0.2251121550798416,-0.346826434135437,-0.3057633936405182
1749027222.938926,5.867989731953017,-2.046427094545232,-0.011711500106959951,-4.332865846969819,1.2089769114523776,4.399908352573975,-0.16421161963964429,0.05081727660655593,-0.05496752638223929,0.08694575261987496,-0.11511451382651804,-0.264322036341098,-0.5119996070861816,1.1430379152297974,0.0472611635923385,-0.2217126488685608,-0.3809233903884887,-0.3583049774169922
1749027222.9389627,5.867659926249593,-2.0463265272086395,-0.0118222301484481,-4.332689211055858,1.2087449641809298,4.399371304844823,-0.16549629678452515,0.051122111213606054,-0.05514457503312124,0.08737090078821737,-0.11661835191682385,-0.2665552870892843,-0.4546827971935272,1.1394617557525637,0.0311058182269334,-0.230839192867279,-0.3571360111236572,-0.3338201940059662
1749027222.9389985,5.867329104423035,-2.0462259226570887,-0.011932752122164292,-4.332512176656526,1.2085106436877358,4.398830881968769,-0.1667843924070084,0.05144123334991619,-0.05535923748795425,0.08777854156945533,-0.11823625395047227,-0.26891173893549614,-0.4012273848056793,1.0500459671020508,0.0259791202843189,-0.2211776673793792,-0.3334087431430816,-0.3112537860870361
1749027222.9390347,5.866996863934992,-2.0461251695341076,-0.012043220088494745,-4.332334748350764,1.2082734765056007,4.398286545134712,-0.1680644301510807,0.05177216558446291,-0.05561943704463819,0.08817806245920491,-0.11990655010706788,-0.27135496144511406,-0.4044808149337768,1.074223279953003,0.0118182525038719,-0.230067104101181,-0.3357259035110473,-0.3042643666267395
1749027222.9397137,5.8666627604540675,-2.0460241371040992,-0.012153817026263874,-4.332156887743226,1.2080331238804238,4.397737822515749,-0.16933044250780918,0.052114790447433335,-0.05592945209295573,0.08858101488892281,-0.12156723740355893,-0.2738419383403125,-0.4681273102760315,1.1539870500564575,0.0309292003512382,-0.2310663163661956,-0.3183321058750152,-0.3048162758350372
1749027222.9418423,5.866326342901284,-2.0459226821522827,-0.01226474004704758,-4.331978522309509,1.207789405595823,4.397184351562942,-0.17058252692300316,0.052471557937851195,-0.05629007752821884,0.0890006481128849,-0.12316278329212718,-0.27632855366080417,-0.4596098363399505,1.1289362907409668,0.0468837395310401,-0.2583496570587158,-0.2909582853317261,-0.3070528507232666
1749027222.9865491,5.8659871825673795,-2.045820654220142,-0.012376186727715158,-4.331799554949712,1.2075423037114854,4.3966259016431835,-0.17182611990408653,0.05284691966066472,-0.05669916787470542,0.08945103657125776,-0.12464947789912549,-0.27877466121837974,-0.424936294555664,1.0786699056625366,0.0084061250090599,-0.2152195125818252,-0.3062496483325958,-0.3084899485111236
1749027222.986625,5.865644895985768,-2.0457178995571335,-0.012488343301277679,-4.331619873529984,1.2072919480262996,4.396062378792084,-0.17307023293855647,0.0532461793054212,-0.057152376042188625,0.08994577703389757,-0.12599867239810944,-0.2811479561252061,-0.4244124293327331,1.103493571281433,0.0157976821064949,-0.2168240845203399,-0.2995771169662475,-0.2831812500953674
1749027222.9866946,5.865299161688458,-2.0456142646376128,-0.012601375099818568,-4.331439359756776,1.207038586775025,4.395493815673247,-0.17432506035157627,0.053674063317982294,-0.05764390135628559,0.09049640112413518,-0.12719765929008875,-0.28342618561901767,-0.4762845039367676,1.127675175666809,0.0331617295742034,-0.2147599458694458,-0.3086670935153961,-0.2843257188796997
1749027222.9867675,5.864949731128747,-2.045509600183332,-0.01271541924763086,-4.331257896788261,1.2067825472457712,4.394920350573641,-0.1755994318665091,0.05413334289533285,-0.058167114171485665,0.09111079006727711,-0.12824836495345432,-0.28559761194190786,-0.4576087594032287,1.1029516458511353,0.0326586589217186,-0.2081450819969177,-0.3184133172035217,-0.3049080073833465
1749027222.9868383,5.864596434166386,-2.0454037662489744,-0.012830579270912924,-4.331075375136704,1.2065241918435752,4.394342199696358,-0.17689856972747697,0.05462379393224807,-0.058714996935902326,0.09179191780307577,-0.12916435332293677,-0.2876600099661271,-0.4578386843204498,1.104678750038147,-0.0121002793312072,-0.19554503262043,-0.2903247475624084,-0.3099634945392608
1749027222.9869056,5.864239179712554,-2.045296638274475,-0.012946921288602973,-4.330891696607119,1.2062638753715866,4.393759626905686,-0.17822253280683367,0.05514168104819504,-0.059280414198065165,0.09253718257598981,-0.12996683289117567,-0.28961875587244124,-0.4916759133338928,1.134611964225769,0.0010201185941696,-0.1997788846492767,-0.3000727891921997,-0.3407159745693207
1749027222.9869742,5.8638779524901015,-2.045188113427943,-0.013064471838202144,-4.330706776182812,1.2060019086462002,4.393172914264709,-0.1795655994310129,0.05567982555764388,-0.059856279372916904,0.09333846028751724,-0.130680407859896,-0.2914846580335163,-0.4714231789112091,1.116647720336914,0.0234012454748153,-0.1827974617481231,-0.2938213944435119,-0.3152278661727905
1749027222.9870417,5.863512807254669,-2.045078116291069,-0.013183217881223772,-4.330520541978904,1.205738532173287,4.39258233545849,-0.18091667486630636,0.05622820348176135,-0.060435699979542325,0.09418287512230582,-0.1313292404956031,-0.29327207674651756,-0.4562166035175323,1.1081020832061768,0.0125906243920326,-0.2088971138000488,-0.3210389018058777,-0.307571142911911
1749027222.9871075,5.863143861845757,-2.044966603045732,-0.013303109754983574,-4.330332933719843,1.2054739020104372,4.391988133089876,-0.1822606280198679,0.05677494259840258,-0.06101215467757411,0.09505416990939917,-0.13193413448522845,-0.2949976302744005,-0.4403516948223114,1.0982987880706787,-0.0020159557461738,-0.208095908164978,-0.288179337978363,-0.2804432511329651
1749027222.9871745,5.862771289788233,-2.0448535636954985,-0.013424067627565818,-4.330143900503787,1.2052080883801237,4.391390500338369,-0.1835802974021547,0.05730755097653582,-0.061579716352170105,0.09593448641258322,-0.13251084519693154,-0.29667949307432406,-0.46256884932518,1.0816365480422974,0.0079240575432777,-0.1753391176462173,-0.3100150227546692,-0.2860948443412781
1749027222.9872384,5.862395312122738,-2.044739022213004,-0.013545991471357457,-4.3299533986292165,1.2049410859891843,4.390789567574439,-0.18485880643212194,0.05781420633590166,-0.06213331191640788,0.09680633334779734,-0.1330696998565462,-0.2983370694271264,-0.4564468562602997,1.0789649486541748,0.0091053918004035,-0.2130193412303924,-0.311337798833847,-0.2979992628097534
1749027222.9873073,5.862016187506438,-2.0446230346276395,-0.013668773903144393,-4.329761389955959,1.2046728334439734,4.3901853947547504,-0.1860818185167343,0.058284955746042776,-0.06266899752112157,0.0976545175285765,-0.13361639026060054,-0.2999907409211214,-0.4409553408622741,1.1039986610412598,0.0114976726472377,-0.2043952047824859,-0.2945902347564697,-0.3146931827068329
1749027222.9873736,5.861634200007058,-2.0445056850266163,-0.013792314573092728,-4.329567840891983,1.2044032379557292,4.389577970324436,-0.18723941937090877,0.058712707487222245,-0.06318421440395547,0.09846782837015482,-0.13415360231682297,-0.30166142026804327,-0.4259836077690124,1.1012320518493652,0.0043669119477272,-0.1774947345256805,-0.2983805537223816,-0.3027821779251098
1749027222.98744,5.8612496451322835,-2.044387079447451,-0.013916534253315594,-4.32937272183105,1.2041322008351092,4.388967216879439,-0.1883273959613547,0.059093930387630625,-0.06367797784607303,0.09924028792975471,-0.1346830023498865,-0.30336971975125043,-0.4331227242946625,1.08609139919281,0.0115801990032196,-0.1872528344392776,-0.2976423501968384,-0.2663697600364685
1749027222.9875066,5.860862815504988,-2.0442673378141643,-0.014041386622403427,-4.329176006751243,1.2038596391656504,4.388353003350685,-0.18934776943563164,0.05942900403354298,-0.06415095091889897,0.09997180638533974,-0.13520705877104347,-0.3051346199387264,-0.4490346908569336,1.109216809272766,0.0219235159456729,-0.2199482023715973,-0.2764312326908111,-0.27574223279953
1749027222.987574,5.860473987585268,-2.0441465844370397,-0.01416686607993699,-4.3289776726887625,1.2035854999727447,4.387735163230664,-0.19030853090414063,0.05972218710721342,-0.06460536939334331,0.10066812823241278,-0.13573026819345477,-0.3069716356120425,-0.4124640226364136,1.096054196357727,0.0154121089726686,-0.1927540749311447,-0.3006926476955414,-0.2772178649902344
1749027222.987642,5.860083410298387,-2.0440249381074147,-0.014293010587400954,-4.328777698860493,1.2033097654108615,4.387113518101046,-0.19122261965776097,0.059981195986347026,-0.06504480821377784,0.10134003593151007,-0.13625954991450345,-0.3088906579803928,-0.4262116253376007,1.0821268558502195,0.0129400212317705,-0.1579163372516632,-0.3040475845336914,-0.2958062589168548
1749027222.9877114,5.85969129603512,-2.0439025032551976,-0.014419899306184435,-4.328576065292027,1.2030324501199692,4.386487904884787,-0.1921062752943535,0.060216414866410634,-0.06547380457720009,0.10200189051935059,-0.13680380731383845,-0.31089386900613664,-0.4443482160568237,1.0573431253433228,0.0103530474007129,-0.1589914560317993,-0.3092305064201355,-0.3124309182167053
1749027222.987781,5.859297814403294,-2.0437793636694557,-0.01454764555309414,-4.328372750971146,1.2027535934595561,4.3858582038143155,-0.1929769918493141,0.06043979351231773,-0.06589737034195255,0.10266968882486933,-0.1373728660496877,-0.31297427059873467,-0.4516306519508362,1.116200566291809,0.004910223186016,-0.1937190890312194,-0.3351337909698486,-0.3550651967525482
1749027222.987848,5.858903089023753,-2.043655579806186,-0.014676386146792241,-4.328167731806702,1.2024732492067458,4.38522436288018,-0.19385138110995634,0.06066352868438633,-0.06632043458435767,0.10335886565262742,-0.137976136620418,-0.3151153532846168,-0.4506940841674804,1.1224284172058103,0.011183738708496,-0.172613576054573,-0.3290199935436249,-0.3507722318172455
1749027222.9879153,5.858507197440566,-2.043531189951393,-0.014806268442679169,-4.327960978938765,1.202191474314832,4.384586414436047,-0.19474327332450467,0.0608986606487693,-0.06674726143986945,0.10408208011923072,-0.13862137831667523,-0.317292232779709,-0.4404111802577972,1.0691550970077517,0.0132278800010681,-0.1661175340414047,-0.331574410200119,-0.3103097081184387
1749027222.9879827,5.8581101740211965,-2.0434062147697882,-0.014937436339892135,-4.327752458135225,1.2019083175953837,4.383944480902431,-0.19566233192138954,0.06115373368228785,-0.06718089707449357,0.10484723189283089,-0.139313861071033,-0.31947427892630514,-0.42078897356987,1.09718656539917,0.0045129135251045,-0.1583886593580246,-0.3455365896224975,-0.2989411950111389
1749027222.9883254,5.857712015622568,-2.0432806642465833,-0.015070016515808554,-4.327542131048369,1.2016238090509446,4.383298768516238,-0.19661335721781004,0.06143367163785335,-0.06762271208361086,0.10565595142322344,-0.14005606708266752,-0.32162894250908997,-0.47479048371315,1.1483570337295532,-0.0090013146400451,-0.1538252085447311,-0.3162970244884491,-0.3494694232940674
1749027222.98969,5.857312689551225,-2.0431545457892084,-0.015204106174755207,-4.327329958878033,1.2013379507746997,4.3826495499160245,-0.19759632980137182,0.06173901746630652,-0.06807211079744285,0.10650276678406612,-0.14084789659226823,-0.3237262146468636,-0.4662465751171112,1.1076104640960691,0.0092763751745224,-0.1839471757411956,-0.3321550488471985,-0.297310322523117
1749027223.0305018,5.856912142746263,-2.0430278721676904,-0.01533976352512972,-4.327115908553539,1.2010507105679362,4.381997137516286,-0.19860711430615383,0.06206566845980167,-0.0685264650140222,0.10737506032657383,-0.14168719255416531,-0.3257429636892373,-0.4304366409778595,1.0993328094482422,0.0245200619101524,-0.1773732006549835,-0.3073915541172027,-0.2786100506782532
1749027223.0305762,5.856510310431368,-2.042900667923733,-0.015477001853402951,-4.326899961179313,1.2007620194966853,4.381341850294031,-0.19963863329785425,0.06240518515022988,-0.06898129619618684,0.10825382030590545,-0.14257032299031522,-0.3276663242418037,-0.3788351714611053,1.0970025062561035,-0.0202452316880226,-0.1855855286121368,-0.3116193115711212,-0.2514667510986328
1749027223.0306468,5.856107122389011,-2.042772973074339,-0.015615787504963494,-4.3266821222539935,1.2004717743711835,4.380683977377787,-0.20068226461635802,0.06274566882020635,-0.06943069026301608,0.10911510240822447,-0.1434925790756209,-0.32949542493190753,-0.4383695423603058,1.1306222677230835,0.0132476799190044,-0.179117739200592,-0.3044880032539367,-0.282749593257904
1749027223.0307164,5.855702505935741,-2.0426448435744735,-0.015756041550004575,-4.326462432809088,1.200179845683013,4.380023742918099,-0.20172922914252758,0.06307312097138193,-0.06986789458921432,0.10993205841370815,-0.14444824760536254,-0.33124107672949316,-0.5081697106361389,1.142799973487854,0.0248158015310764,-0.1887419521808624,-0.3307729065418243,-0.3176005184650421
1749027223.0307858,5.855296386237404,-2.042516348799508,-0.01589764461813874,-4.326240980029781,1.1998860910663045,4.379361277476468,-0.20277179132412382,0.06337313206192793,-0.07028602019576098,0.11067735834250186,-0.14543036432775416,-0.3329235372791717,-0.4693414866924286,1.0517362356185913,0.0104534849524497,-0.1894987225532531,-0.3157685697078705,-0.3266904950141907
1749027223.030855,5.854888685833488,-2.042387566791455,-0.016040444360123002,-4.326017905387388,1.1995903737878943,4.3786966005460295,-0.20380414817518475,0.0636326958134021,-0.07067875874972182,0.11132581656978205,-0.14643030408644556,-0.3345689341922979,-0.4039011001586914,1.0892783403396606,0.0125472098588943,-0.1913768649101257,-0.3246771097183227,-0.3157174289226532
1749027223.030922,5.8544793254169285,-2.042258578084091,-0.016184265080190923,-4.325793408114832,1.1992925848620999,4.3780296165671855,-0.20482292643179523,0.06384192215011852,-0.07104103356506104,0.11185701928616046,-0.147437461112158,-0.3362051791276926,-0.4094665944576263,1.1000651121139526,0.0160637870430946,-0.1907906830310821,-0.3406670391559601,-0.2960191965103149
1749027223.0309885,5.854068227048683,-2.042129458810494,-0.01632891907296493,-4.325567742124745,1.1989926661473238,4.377360123999039,-0.20582726972900925,0.06399544181323198,-0.07136953097203493,0.11225773315017822,-0.14843927934696444,-0.33785817594437667,-0.5139710307121277,1.120022892951965,0.0315244644880294,-0.1910188049077987,-0.3387435674667358,-0.3456168174743652
1749027223.031051,5.853655319649892,-2.04200027370691,-0.01647421897524359,-4.325341205262193,1.1986906307072371,4.3766878350376155,-0.20681858062334316,0.06409334559548838,-0.0716630809786238,0.11252385776897007,-0.14942180546605283,-0.339548909074181,-0.3916357159614563,1.043641448020935,0.0304728671908378,-0.2039212882518768,-0.297930896282196,-0.3382443487644195
1749027223.031118,5.853240545485134,-2.041871069602912,-0.016619990001129077,-4.325114121024778,1.1983865764523345,4.376012402834875,-0.20780004397666282,0.06414155496796933,-0.07192286133170678,0.11266167740901352,-0.15037078866657802,-0.34129170660149083,-0.3757756650447845,1.0561505556106567,0.0016201138496398,-0.2022354304790496,-0.3175854086875915,-0.3379462361335754
1749027223.031184,5.852823865895166,-2.0417418699749077,-0.016766080482280704,-4.324886814275259,1.1980806898711245,4.375333453053839,-0.20877606968737233,0.06415157988581655,-0.07215239667087898,0.1126881824057063,-0.15127319669940087,-0.3430936589108367,-0.4641346931457519,1.0856688022613523,0.0422830581665039,-0.237585574388504,-0.3241021633148193,-0.3215281963348388
1749027223.0312495,5.852405264929311,-2.041612671069581,-0.01691236912714098,-4.324659583624566,1.197773238189317,4.374650616842337,-0.20975176855116556,0.06413969766709789,-0.07235732851110778,0.11263029596236203,-0.15211890772788628,-0.3449548804957517,-0.4950520992279053,1.1282392740249634,0.0426669418811798,-0.2177319973707199,-0.3037244081497192,-0.2784503698348999
1749027223.0313144,5.8519847505198355,-2.0414834399222612,-0.017058768123556566,-4.324432673814044,1.1974645499823697,4.3739635627605935,-0.2107325308868074,0.06412566708035389,-0.07254494788147936,0.11252298337444844,-0.15290228870427972,-0.3468691293609362,-0.4472153782844543,1.1263909339904783,0.0180386453866958,-0.2003427296876907,-0.3110128939151764,-0.2765927910804748
1749027223.031381,5.851562353753024,-2.0413541142946876,-0.017205222354433305,-4.324206251496852,1.1971549856824482,4.373272025751862,-0.21172371382336444,0.06413113673616086,-0.07272351352596468,0.11240641230781027,-0.15362337379050028,-0.3488243513704642,-0.3980820178985595,1.0870912075042725,0.0234277918934822,-0.1902529895305633,-0.3043274879455566,-0.3194372057914734
1749027223.0314474,5.851138127020719,-2.0412246042553406,-0.01735170593781887,-4.323980387329516,1.1968449004911028,4.372575831514174,-0.2127303832312584,0.06417790538933264,-0.07290141964964388,0.1123224956307506,-0.15428840448478667,-0.350802993378576,-0.4436646699905395,1.1505491733551023,0.0336722061038017,-0.1954640597105026,-0.2923494577407837,-0.3545813262462616
1749027223.0315127,5.850712141377028,-2.0410947950332208,-0.017498217643382767,-4.323755046361144,1.1965346032235948,4.3718749142985365,-0.2137570438237472,0.06428616709283445,-0.07308630951905591,0.11231121910661979,-0.1549095799396963,-0.3527822790604326,-0.5117162466049194,1.18799889087677,0.0485607385635376,-0.1987898349761963,-0.2991607189178467,-0.3619440793991089
1749027223.031578,5.850284482694702,-2.0409645509590817,-0.017644776578196603,-4.323530087595426,1.1962243158176533,4.371169325506069,-0.2148073328473999,0.06447285128942636,-0.07328424299760573,0.11240713791879708,-0.15550397575227856,-0.3547348579620342,-0.5046351552009583,1.1433959007263184,0.0324228703975677,-0.2129158526659011,-0.2900579273700714,-0.3407036662101745
1749027223.031644,5.8498552456096276,-2.040833720565443,-0.017791419155874778,-4.323305272493279,1.1959141392448263,4.3704592303217344,-0.21588370635009407,0.06475015456161136,-0.07349902516572458,0.112636366719415,-0.15609171372466388,-0.3566302087166296,-0.4562143087387085,1.129212498664856,0.0262060556560754,-0.1668003499507904,-0.2897036671638489,-0.3354650139808655
1749027223.0317106,5.849424523994681,-2.040702142987271,-0.01793819782866375,-4.323080281121148,1.1956040314641807,4.36974489059722,-0.21698717180182786,0.06512435837538744,-0.07373179562270427,0.11301433024976151,-0.15669359996436563,-0.35843695389101604,-0.4793279469013214,1.1939635276794434,0.0463771224021911,-0.1764954924583435,-0.3071329295635223,-0.3645465075969696
1749027223.031776,5.848992396933287,-2.0405696555975554,-0.018085181334429472,-4.3228547337149905,1.1952938013813963,4.3690266340365005,-0.21811711411850093,0.0655950365919192,-0.07398095490299297,0.11354449139720155,-0.1573285650178478,-0.3601259600851278,-0.4769629240036011,1.1678839921951294,0.0400771535933017,-0.1532976627349853,-0.281265527009964,-0.3632121086120605
1749027223.031938,5.84855890991911,-2.040436102391213,-0.018232455513218452,-4.322628214914011,1.1949831200063779,4.368304811816228,-0.21927124298838377,0.06615476394044759,-0.07424245887212023,0.11421820442313106,-0.15801128744775672,-0.3616738421433064,-0.4810977578163147,1.1818020343780518,0.0257663000375032,-0.1539224535226822,-0.2937541007995605,-0.3265018761157989
1749027223.033727,5.848124052278856,-2.040301342168955,-0.018380123474146463,-4.322400298117232,1.1946715471350606,4.367579748771127,-0.2204456732121079,0.06678941499673242,-0.07451045307190927,0.11501572749279224,-0.15875033749230358,-0.3630662999862698,-0.4383256137371063,1.147329807281494,0.0246615968644619,-0.1666570603847503,-0.2889260649681091,-0.2721588611602783
1749027223.074509,5.847687733429883,-2.040165255328663,-0.01852830416391991,-4.3221705682771745,1.1943585697267571,4.366851692038951,-0.2216351411441453,0.06747908186049895,-0.0747781640437763,0.11590827766072054,-0.15954706580494393,-0.36430064713154875,-0.4847813844680786,1.1631288528442385,0.0488678887486457,-0.1572448015213012,-0.3099949061870575,-0.2730364203453064
1749027223.074584,5.847249762136568,-2.0400277482179625,-0.01867712894423869,-4.321938642487316,1.1940436470181106,4.366120765173459,-0.22283335316672478,0.06819955821138078,-0.07503892728145428,0.11686086644962983,-0.16039533237435927,-0.3653870168340975,-0.4832610785961151,1.1684430837631226,0.0263816677033901,-0.1348771750926971,-0.3288260102272033,-0.3095369338989258
1749027223.0746534,5.846809833849522,-2.0398887545121647,-0.018826736275052873,-4.321704188378488,1.1937262571820075,4.365386934786414,-0.22403344483188212,0.06892426615683127,-0.07528721566326847,0.11783556429789105,-0.16128205825712488,-0.3663480431296441,-0.4107804596424103,1.1544411182403564,0.0191032215952873,-0.1399427056312561,-0.3010826110839844,-0.3270099759101867
1749027223.074723,5.846367530999293,-2.0397482338626687,-0.01897726483090662,-4.321466940424427,1.1934059407642463,4.3646499958199145,-0.22522850282551363,0.06962645239499417,-0.07551953278207398,0.11879482140113169,-0.1621885005667975,-0.36721716447380476,-0.4318999052047729,1.1240262985229492,0.0709178447723388,-0.1835557520389557,-0.3024653196334839,-0.3311249911785126
1749027223.0747905,5.845922339657147,-2.0396061689583287,-0.019128845390671508,-4.321226714005749,1.1930823371130237,4.363909579848343,-0.22641208839749294,0.07028145202897436,-0.07573504834579381,0.11970450204700507,-0.1630921032580492,-0.3680359189965363,-0.4544730186462402,1.088381052017212,0.0374628826975822,-0.161131203174591,-0.3018946051597595,-0.3035301566123962
1749027223.0748582,5.8454736836658,-2.03946256280756,-0.01928159185015675,-4.320983416777028,1.1927552114378956,4.363165188379044,-0.2275787180174408,0.07086881224268475,-0.07593588406303547,0.12053635968116222,-0.16396876805643165,-0.3688506432711117,-0.4588387608528137,1.1473537683486938,0.0291973799467086,-0.1554308980703354,-0.336213618516922,-0.3362015783786773
1749027223.0749245,5.8450209747329485,-2.039317438090281,-0.01943559186932613,-4.320737056617047,1.1924244716502252,4.36241624987529,-0.22872428761002125,0.07137408052641858,-0.07612701292818384,0.12126979014038868,-0.1647954121953114,-0.36970892587994053,-0.4836586415767669,1.1243630647659302,0.0427463874220848,-0.1701824814081192,-0.3284194469451904,-0.3498795628547668
1749027223.0749934,5.8445636743746965,-2.0391708397250405,-0.019590897899109134,-4.320487745279555,1.192090175366652,4.361662195547842,-0.22984643222368492,0.07179008230462719,-0.0763157977708697,0.12189282297159028,-0.16555269097866807,-0.37065608809628425,-0.4699617028236389,1.0542439222335815,0.0386022254824638,-0.1862077713012695,-0.3298424482345581,-0.3498127460479736
1749027223.0750625,5.844101361235243,-2.03902284058744,-0.019747519440212847,-4.320235696934404,1.1917525281886512,4.360902545794091,-0.23094477953819736,0.07211753840928606,-0.07651124330483083,0.12240240214579498,-0.16622771442679543,-0.3717318844986142,-0.4503107368946075,1.1051678657531738,0.0366761684417724,-0.2061486840248108,-0.3110994100570678,-0.3009722232818603
1749027223.0751326,5.84363379571003,-2.0388735490765524,-0.019905417324482484,-4.31998122111374,1.1914118744884339,4.360136997330844,-0.23202101620265667,0.07236492102977202,-0.07672306208507586,0.122804050375002,-0.16681647332320268,-0.3729675324376395,-0.4601116776466369,1.0959463119506836,0.0219880864024162,-0.1952762156724929,-0.3231521844863891,-0.2872953712940216
