nimar13/UR3e_dataset_trayectorias/trayectorias_ejecutadas_filtradas/jtraj/trayectoria_131_result_filtrado.csv
timestamp,q1,q2,q3,q4,q5,q6,qd1,qd2,qd3,qd4,qd5,qd6,tau1,tau2,tau3,tau4,tau5,tau6
1749028709.7382908,5.193687217913313,-1.8980661301869235,1.4576837481404488,-5.202484784343294,-1.5012042051797472,-2.9594961209699,0.009413520043442748,-0.0012887671367178652,-0.0008016439426973191,-0.009594723133698196,-0.002867846206448673,-0.002594087077351113,0.1922927349805832,-0.3041545450687408,-0.7497610449790955,0.4347077906131744,-0.165685772895813,-0.1085985675454139
1749028709.738342,5.193686503690673,-1.8980711627215083,1.457685533634596,-5.2024881277783175,-1.5012046629727822,-2.9594866752201345,0.007002632937177844,-0.0013000024569057775,-0.0007436751241191484,-0.008052514366227769,-0.0021841723586826876,-0.00199049129112176,0.1627089083194732,-0.2820906043052673,-0.7458211183547974,0.4704496562480926,-0.1624161601066589,-0.0896846428513526
1749028709.7383835,5.1936854320985875,-1.8980760361081908,1.4576872542307808,-5.202491291186689,-1.5012050070920606,-2.959477545020406,0.004653343392681942,-0.0013085312599243923,-0.000687194679038032,-0.006549326609515982,-0.001517225866435436,-0.0014031858340845561,0.1426111310720443,-0.2806946933269501,-0.7379175424575806,0.4682549238204956,-0.1426062583923339,-0.0608298033475875
1749028709.738423,5.193683617128135,-1.8980805791179298,1.4576888395195522,-5.202494058685709,-1.5012050820747513,-2.959468942135679,0.0024281432489282897,-0.0013140470420792178,-0.0006334724000983512,-0.0051238762686031565,-0.000882173558518843,-0.0008465568151569385,0.1307701170444488,-0.3001922965049743,-0.7545455098152161,0.4892511665821075,-0.138724684715271,-0.0750712901353836
1749028709.7384615,5.193680734321224,-1.8980846397896447,1.4576902544124253,-5.2024962422005485,-1.5012047738561527,-2.959461032289921,0.000381801805742546,-0.0013164278263515091,-0.0005836424147274642,-0.0038092566649849473,-0.0002925774430960102,-0.00033295726413708627,0.0972750633955001,-0.3129747211933136,-0.7468215823173523,0.5085358023643494,-0.1031869947910308,-0.0636089593172073
1749028709.7385032,5.1936765441751165,-1.898088094489987,1.4576915038055753,-5.202497694381625,-1.501204020124575,-2.9594539234948884,-0.0014416782337807825,-0.0013157423797663284,-0.0005386407406583353,-0.0026308942576316807,0.00024011666863715247,0.00012787847497329732,0.117563709616661,-0.3221628367900848,-0.7545365691184998,0.5093932747840881,-0.1111427098512649,-0.0559559762477874
1749028709.738542,5.193670907394736,-1.8980908551486024,1.4576926292882806,-5.202498316933521,-1.50120281238955,-2.959447661240094,-0.0030111274054344414,-0.0013123038883516185,-0.0004991513224938001,-0.0016053883232264715,0.0007069216558114512,0.0005291736939567965,0.1274020373821258,-0.2898229956626892,-0.7565084099769592,0.5331099629402161,-0.0960484743118286,-0.0480816662311553
1749028709.7385798,5.193663791434921,-1.898092874434579,1.457693698373713,-5.202498064258057,-1.5012011901210753,-2.959442230998102,-0.004309115465796455,-0.0013067495037777785,-0.00046556375747111583,-0.0007402924317442699,0.001101522380046348,0.000867214706487433,0.1163256838917732,-0.3067907691001892,-0.7428868412971497,0.537723958492279,-0.0868127346038818,-0.0505903959274292
1749028709.7386172,5.193655268650664,-1.8980941486710043,1.4576947882211582,-5.2024969428747845,-1.501199228301915,-2.9594375673434663,-0.0053316550900337776,-0.0013001120952668157,-0.0004379472130726052,-3.4756538952372223e-05,0.001420408738695232,0.0011412563344156191,0.0759053006768226,-0.2811183035373688,-0.7536564469337463,0.567447304725647,-0.0763106346130371,-0.0613733977079391
1749028709.738659,5.193645506619927,-1.898094718183329,1.457695967105531,-5.202495007474232,-1.501197020461793,-2.959433567946116,-0.006086834066883,-0.0012938475739225318,-0.00041604582186136616,0.0005191603052050967,0.0016629528226188462,0.0013532576473567746,0.068160593509674,-0.2887828946113586,-0.7472649812698364,0.5696504712104797,-0.0883221328258514,-0.0400879234075546
1749028709.738697,5.193634751316077,-1.8980946647276884,1.457697277425057,-5.202492354604934,-1.5011946599928392,-2.959430110070935,-0.006592656397906038,-0.0012897869620244473,-0.00039929954679819005,0.0009347586981382143,0.0018314099664704516,0.0015074647203471498,0.068930760025978,-0.3205163776874542,-0.7472675442695618,0.584509551525116,-0.0738418698310852,-0.0545482337474823
1749028709.7387342,5.193623304357796,-1.8980941058355723,1.4576987234781962,-5.202489114848434,-1.501192223120586,-2.9594270671897513,-0.0068744470755709875,-0.0012899974915642793,-0.00038689083608175925,0.0012288146225561747,0.0019307864256864374,0.001609855358228501,0.0748401284217834,-0.2958988547325134,-0.7443872094154358,0.584017813205719,-0.0717868953943252,-0.040326103568077
1749028709.7387753,5.193611496517746,-1.8980931864201671,1.4577002659798828,-5.202485444056168,-1.5011897567991355,-2.9594243238267786,-0.00696216291117741,-0.0012965600612728982,-0.0003778128042836249,0.0014197808417297664,0.001968513286814362,0.0016674805703678025,0.0798084661364555,-0.3225120306015014,-0.729184627532959,0.5983129739761353,-0.0792671591043472,-0.0384246557950973
1749028709.738814,5.193599660466666,-1.898092068618826,1.4577018240570665,-5.2024815140024545,-1.5011872737762102,-2.9594217874761086,-0.006887882302618183,-0.0013112959775461758,-0.0003709512736755434,0.0015262575284935925,0.0019539029569990546,0.0016877685923894104,0.0533037334680557,-0.3262682855129242,-0.7218404412269592,0.6076108813285828,-0.0587184876203537,-0.0405091792345047
1749028709.7388515,5.193588105832172,-1.898090921220742,1.4577032845161921,-5.202477502696403,-1.501184755496246,-2.9594193969601053,-0.006683659916831713,-0.0013354960698953881,-0.00036517189253554945,0.0015658438055462713,0.0018974230562985154,0.0016778796186206722,0.0256899632513523,-0.3323892056941986,-0.7520679831504822,0.6051151156425476,-0.056173488497734,-0.0291478782892227
1749028709.738889,5.193577098993433,-1.898089909931136,1.4577045172011525,-5.202473584562484,-1.5011821619106038,-2.9594171268169105,-0.006379852916941623,-0.001369712745951369,-0.0003594044926088797,0.001554403773782872,0.0018098756669279222,0.0016442003737223553,0.0235946737229824,-0.3381281495094299,-0.7359521985054016,0.6106563210487366,-0.0581453442573547,-0.0439647585153579
1749028709.7389262,5.193566849004974,-1.898089189211134,1.4577053940692746,-5.202469920738984,-1.5011794459686794,-2.9594149873962223,-0.006003960221233721,-0.0014136667319133414,-0.0003527189247509514,0.001505709268585283,0.0017015979181146472,0.0015920458544679476,0.0296273902058601,-0.3012754321098327,-0.7389489412307739,0.6106541752815247,-0.0516550838947296,-0.0367753505706787
1749028709.7389634,5.19355750007598,-1.8980888957624058,1.4577058085771915,-5.202466649891342,-1.5011765697807036,-2.959413020515511,-0.0055799613195821034,-0.0014662963470606736,-0.00034438876365388806,0.0014313719150972025,0.0015817960350929534,0.001525596211272651,0.0406199432909488,-0.3090378642082214,-0.7403752207756042,0.6290206909179688,-0.0577127039432525,-0.0359727442264556
1749028709.7390003,5.193549130266133,-1.8980891432660225,1.4577056916926123,-5.202463880212951,-1.5011735193212516,-2.9594112908670063,-0.005128093126862528,-0.0015259434761412955,-0.00033394070733550995,0.0013409591794603774,0.001458093337527215,0.0014480481529640403,0.0499426834285259,-0.350656658411026,-0.7512527108192444,0.6125904321670532,-0.0551903545856475,-0.0349530428647995
1749028709.7390444,5.1935417554993615,-1.8980900179943032,1.4577050215967757,-5.202461683547192,-1.5011703150035465,-2.959409873884571,-0.004664966638071855,-0.0015906356496005604,-0.0003211879700113777,0.0012422010159387758,0.0013363245341743303,0.0013619141019492493,0.0167341604828834,-0.3279607892036438,-0.7376852631568909,0.6287001967430115,-0.0755531936883926,-0.0471977144479751
1749028709.739159,5.193535337746138,-1.8980915752918754,1.4577038256892074,-5.202460092512306,-1.5011670162064221,-2.9594088414239152,-0.0042039068462518606,-0.0016583998747083375,-0.00030624582700133126,0.0011412216983049115,0.0012205590327442361,0.0012693726460517576,0.038602340966463,-0.3151781558990478,-0.7413168549537659,0.6142930388450623,-0.0644033551216125,-0.0446052700281143
1749028709.7411366,5.193529796305745,-1.898093837343698,1.4577021753626536,-5.202459101010531,-1.5011637187259308,-2.9594082472306376,-0.0037554008536939327,-0.0017275422450360772,-0.00028952740560681526,0.001042759785938653,0.0011132988233715085,0.0011725715681406622,0.0393095612525939,-0.3219013214111328,-0.743895947933197,0.6388130187988281,-0.0482493937015533,-0.0455576479434967
1749028709.7863002,5.193525021301896,-1.8980967929176007,1.4577001756230625,-5.202458667804773,-1.5011605453191943,-2.9594081145719877,-0.0033275560081334242,-0.0017968490019535032,-0.0002717183693126018,0.0009503596678124426,0.0010157795718833092,0.001073810637555837,0.0261122249066829,-0.3474460542201996,-0.7417657971382141,0.6367098689079285,-0.0563262999057769,-0.0265249609947204
1749028709.786347,5.193520888517922,-1.8981003997870032,1.4576979524160327,-5.202458722356013,-1.5011576310175445,-2.9594084283716726,-0.002926496450430742,-0.0018656971842110446,-0.00025373032812415087,0.0008665305273621897,0.0009283063764967198,0.0009755743172454122,0.0146549418568611,-0.3333316147327423,-0.7410212159156799,0.6475865840911865,-0.057461142539978,-0.0417258143424987
1749028709.7863874,5.193517274474326,-1.8981045901189515,1.4576956401589856,-5.202459172033334,-1.5011551060990587,-2.959409133555799,-0.0025566569232647277,-0.0019340890891533246,-0.00023663421255625737,0.0007928752718423546,0.0008505715797030734,0.0008804277627941983,0.0146549418568611,-0.3333316147327423,-0.7410212159156799,0.6475865840911865,-0.057461142539978,-0.0417258143424987
1749028709.7864263,5.19351407035212,-1.8981092782785565,1.4576933707968518,-5.202459910028589,-1.50115307983217,-2.9594101401318462,-0.002220961724845779,-0.0020026338805556932,-0.00022157607303645746,0.0007301946908416422,0.0007819224093671118,0.0007908193434632352,0.0016581751406192,-0.3511073291301727,-0.7388723492622375,0.6348841786384583,-0.0709914863109588,-0.033389389514923
1749028709.786465,5.193511193263019,-1.8981143697563492,1.4576912645718667,-5.202460823551994,-1.5011516273973047,-2.9594113340491965,-0.0019209008096998873,-0.0020724915512563688,-0.0002096787218299833,0.0006785723270564911,0.000721564115135902,0.000708844476419851,-0.0051279515027999,-0.3371979892253876,-0.7428992390632629,0.6432181596755981,-0.0551732927560806,-0.0524576157331466
1749028709.7865033,5.193508593635153,-1.8981197697854004,1.4576894223008159,-5.202461801925473,-1.5011507814221194,-2.959412591587177,-0.0016565334850217137,-0.0021452775522110244,-0.00020193351868566802,0.0006374451181124915,0.0006686967612740103,0.0006360222639299783,0.0185854919254779,-0.3212238848209381,-0.7493594884872437,0.6453123688697815,-0.0467674434185028,-0.0419180840253829
1749028709.7865412,5.193506258019619,-1.898125390687121,1.457687919251363,-5.202462744038892,-1.5011505287725004,-2.959413794369275,-0.0014264632667145354,-0.0022229139144870776,-0.00019908765831337687,0.0006056653454272337,0.000622591463972015,0.0005731252194475687,0.0050404332578182,-0.3212914764881134,-0.7566196322441101,0.643814742565155,-0.0576849281787872,-0.0462038218975067
1749028709.786579,5.193504207129323,-1.8981311576787947,1.4576868011552944,-5.202463564546382,-1.5011508126246602,-2.9594148422907423,-0.0012278340015759949,-0.002307414779751329,-0.00020153360267796894,0.0005815613011356155,0.0005826160313405914,0.0005200887219681535,0.0361608192324638,-0.3249045312404632,-0.7403721213340759,0.6365759968757629,-0.0670188218355178,-0.0473907440900802
1749028709.786616,5.193502489209784,-1.8981370133306013,1.4576860829618277,-5.20246419837084,-1.5011515393146269,-2.9594156624352794,-0.0010563949453396178,-0.002400610686831499,-0.00020920869487530677,0.0005630068013124734,0.0005482215896743404,0.00047601330569073283,0.0182373095303773,-0.3537091314792633,-0.7410243153572083,0.6474446654319763,-0.0773922055959701,-0.0366791039705276
1749028709.7866535,5.193501169100304,-1.898142920760129,1.4576857504970462,-5.202464603448582,-1.501152589004296,-2.959416213074646,-0.0009066708284011878,-0.002503836414412045,-0.00022151441823302476,0.000547511958384742,0.0005189017785596927,0.00043926066427387155,0.0313181094825267,-0.3519220352172851,-0.7405264973640442,0.6465232968330383,-0.0735242664813995,-0.0475131571292877
1749028709.7866907,5.193500314004169,-1.8981488650719749,1.4576857645534904,-5.202464761879007,-1.5011538287439716,-2.9594164828462577,-0.0007722550941587108,-0.002617618765821942,-0.0002372662291173007,0.000532348051481802,0.000494135719963044,0.000407634335458396,0.0242336578667163,-0.3357904255390167,-0.740875780582428,0.6450218558311462,-0.0703195631504058,-0.0562991797924041
1749028709.7867274,5.193499978182379,-1.8981548520166647,1.4576860664861981,-5.202464679581915,-1.501155126009367,-2.959416486051194,-0.000646224838722796,-0.0027413961521884542,-0.00025468619452191556,0.0005147171440278876,0.0004733260811403442,0.0003786289676635743,0.0424150004982948,-0.2907657027244568,-0.7517507076263428,0.642156183719635,-0.0742861926555633,-0.0592025518417358
1749028709.7867646,5.193500189911221,-1.8981609029830737,1.457686584334883,-5.202464384305278,-1.5011563605044664,-2.959416255607518,-0.0005216579526528465,-0.0028732851147013558,-0.0002714511909645998,0.0004919725753227206,0.0004557440327107653,0.0003497274328839936,0.0424150004982948,-0.2907657027244568,-0.7517507076263428,0.642156183719635,-0.0742861926555633,-0.0592025518417358
1749028709.786806,5.193500944086642,-1.898167046466141,1.4576872387791024,-5.202463921629507,-1.5011574323544719,-2.9594158354487368,-0.0003922184611276157,-0.0030098961880403985,-0.00028480835841914614,0.00046189033382091656,0.0004404929595027675,0.000318721807543616,0.0493090115487575,-0.3054130375385284,-0.7419217824935913,0.6462197303771973,-0.0789423435926437,-0.0522922873497009
1749028709.7868445,5.193502202403468,-1.898173307619353,1.4576879486804923,-5.202463348719622,-1.501158265833645,-2.959415273993214,-0.00025276609293161756,-0.0031462115045532927,-0.0002917662645235816,0.0004229840925084711,0.00042650176645869954,0.0002840315906690748,0.0435710288584232,-0.3157423436641693,-0.7311182022094727,0.6285795569419861,-0.0753231942653656,-0.0618906915187835
1749028709.7868814,5.193503900726586,-1.8981796984959476,1.4576886363343224,-5.202462726008949,-1.5011588090941592,-2.95941461970655,-9.99412211056669e-05,-0.00327557168488277,-0.0002893646650878116,0.00037484869337227317,0.00041255647531367683,0.00024499037527718373,0.0321798957884311,-0.3263555467128753,-0.7449442744255066,0.632195770740509,-0.0757884383201599,-0.0633721649646759
1749028709.7869184,5.1935059611375864,-1.8981862113640617,1.4576892326225424,-5.202462107582311,-1.5011590314528287,-2.959413918924188,6.732405651960147e-05,-0.0033898570985468283,-0.00027501806556693494,0.00031850873482947023,0.0003973758432317908,0.0002020709764971829,0.057610984891653,-0.3381330370903015,-0.7491641640663147,0.6406522393226624,-0.0725861191749572,-0.0569750964641571
1749028709.7869554,5.193508304901611,-1.8981928161767492,1.4576896819667302,-5.202461531578495,-1.5011589202702522,-2.959413215362866,0.00024741535055805195,-0.0034799552886497,-0.0002469189924380595,0.0002567415826006793,0.000379733201755441,0.00015701928641046663,0.0749460086226463,-0.3449622988700866,-0.7393558621406555,0.6471146941184998,-0.076923668384552,-0.0548773556947708
1749028709.786992,5.1935108626152005,-1.8981994618500968,1.4576899465084172,-5.202461012253163,-1.5011584791843213,-2.959412550348687,0.0004358071814940453,-0.003536562093085327,-0.00020447678337619154,0.00019433872916693515,0.0003586226852321664,0.00011286931402108467,0.0900704860687255,-0.3429575562477112,-0.7389386296272278,0.6314433813095093,-0.08623668551445,-0.047506645321846
1749028709.7870286,5.193513579061444,-1.8982060803262297,1.4576900086434141,-5.202460535139886,-1.501157728506991,-2.9594119626515925,0.0006250258021877788,-0.0035512731400470267,-0.00014875796646042697,0.00013826729437784312,0.0003334635837573449,7.381638835625284e-05,0.1041871756315231,-0.3440656661987304,-0.7158695459365845,0.6540717482566833,-0.0704433917999267,-0.0539990216493606
1749028709.7870653,5.193516412217739,-1.8982125924986666,1.4576898711481532,-5.202460055898612,-1.5011567072299732,-2.959411486924218,0.0008048114085956258,-0.0035178118631297647,-8.288628875029411e-05,9.769583696507481e-05,0.00030433197263135146,4.493273897862288e-05,0.1041871756315231,-0.3440656661987304,-0.7158695459365845,0.6540717482566833,-0.0704433917999267,-0.0539990216493606
1749028709.7871025,5.193519327425001,-1.8982189153920406,1.457689554590815,-5.2024595023145315,-1.501155474861251,-2.959411150340955,0.0009624529020011976,-0.003433151208053139,-1.2355473376379382e-05,8.385618181748203e-05,0.0002722044531848892,3.1719868935552295e-05,0.1011285036802291,-0.327925443649292,-0.7125827670097351,0.6471322178840637,-0.065885379910469,-0.0422206223011016
1749028709.7872608,5.193522288243828,-1.8982249700630418,1.4576890922317107,-5.202458778117382,-1.5011541108775195,-2.959410968126966,0.0010832289319064896,-0.0032982588875351063,5.4793061795120286e-05,0.0001097254199662597,0.0002391953072038116,3.950528014246109e-05,0.0722391828894615,-0.3056551814079284,-0.7228865027427673,0.6501404047012329,-0.0735948234796524,-0.0306372940540313
1749028709.7892082,5.193525245201767,-1.8982306894343373,1.4576885229543382,-5.20245776716581,-1.50115271014954,-2.95941093966592,0.001150868081195862,-0.003118248692935116,0.00010797108521141645,0.00018952853403222323,0.00020876613019642337,7.270681004028751e-05,0.0904754549264907,-0.2782037258148193,-0.7173426747322083,0.6594898104667664,-0.0672400891780853,-0.0377894937992095
1749028709.830284,5.193528123343305,-1.8982360248643946,1.4576878828477036,-5.202456336967093,-1.5011513738245492,-2.95941104710265,0.0011479671346767354,-0.0029018390540889614,0.0001342566971689528,0.0003380804081613263,0.0001858864053584177,0.00013400528614352888,0.0492579564452171,-0.2764779925346374,-0.7213992476463318,0.6697708368301392,-0.0433991104364395,-0.0361614972352981
1749028709.8303328,5.193530809830931,-1.8982409500329587,1.457687195883326,-5.202454341135453,-1.5011501961344094,-2.959411257701898,0.0010563811511281338,-0.0026601671411385294,0.00011883767484295501,0.0005700035723254393,0.0001771245254946211,0.0002234842049620096,0.0685649216175079,-0.2892608046531677,-0.7312162518501282,0.6812459826469421,-0.0487420111894607,-0.0556811094284057
1749028709.8303726,5.193533143563325,-1.898245460989566,1.457686463874993,-5.202451620930394,-1.5011492481860593,-2.9594115301447625,0.0008576824347305009,-0.002405138977594473,4.5681992349450604e-05,0.0008988709861306511,0.00019065100825346084,0.00033781209080594273,0.0662712305784225,-0.2890633940696716,-0.7419691681861877,0.701878011226654,-0.0365303307771682,-0.0500707030296325
1749028709.8304114,5.193534909181207,-1.8982495719972778,1.4576856559833458,-5.2024480063133565,-1.5011485603317154,-2.959411824035998,0.0005338244991357833,-0.002147580143650919,-0.00010159209512950875,0.0013363269079287028,0.000236138119753036,0.00046955697961288277,0.0401117280125618,-0.3033719658851623,-0.7507949471473694,0.7052245140075684,-0.0406617075204849,-0.059428334236145
1749028709.8304498,5.193535837494404,-1.8982533078430843,1.4576846986438396,-5.202443317011611,-1.5011481055098466,-2.9594121114693883,6.81164874827723e-05,-0.0018954744339291338,-0.0003386993857873053,0.0018912319461038519,0.00032454171703507945,0.0006067304718812142,0.0401117280125618,-0.3033719658851623,-0.7507949471473694,0.7052245140075684,-0.0406617075204849,-0.059428334236145
1749028709.8304875,5.1935356133214645,-1.8982566942020034,1.457683467546008,-5.202437363982724,-1.5011477865897926,-2.959412389417401,-0.0005534736852365976,-0.0016525465779994983,-0.0006795993779954989,0.002568867658220213,0.0004677511777976847,0.0007326581300168494,0.0442051813006401,-0.2901525497436523,-0.7653680443763733,0.7107444405555725,-0.028632566332817,-0.056454062461853
1749028709.8305252,5.1935338903147406,-1.8982597480649686,1.4576817835217994,-5.202429951589742,-1.501147430530463,-2.9594126916294186,-0.0013407778135187082,-0.001417379285858499,-0.001135423846771012,0.00337023370878315,0.0006780921436598142,0.0008262611195225199,0.0145377665758132,-0.2689932584762573,-0.7810550928115845,0.7205622792243958,-0.0176363289356231,-0.0675945580005645
1749028709.8305628,5.19353031101606,-1.898262469942472,1.4576794137364044,-5.202420880839528,-1.5011467910357141,-2.959413098510929,-0.0022978306480870556,-0.0011831743903438932,-0.0017135050559909186,0.0042914801122028836,0.0009676668459908629,0.0008628093579926552,-0.03458683937788,-0.2779803574085235,-0.7632538676261902,0.7258424162864685,-0.0171909481287002,-0.0787009298801422
1749028709.8306005,5.193524529602831,-1.8982648386654923,1.4576760787546,-5.202409954167657,-1.5011455600528003,-2.9594137433313543,-0.00342145116042967,-0.0009381860011101252,-0.0024165680842338656,0.0053235273175507615,0.0013475237507214848,0.0008151689200196042,-0.0251333862543106,-0.2524366378784179,-0.7735710144042969,0.7411746382713318,-0.0185358971357345,-0.0633217096328735
1749028709.8306384,5.193516234756571,-1.8982668086378487,1.4576714652388143,-5.202396982311188,-1.5011433874567142,-2.9594148133935847,-0.004700232343018919,-0.0006667773226247607,-0.003242120700166845,0.006451926862558835,0.00182666996231123,0.0006555176010859105,-0.0330001562833786,-0.2352753579616546,-0.7701166272163391,0.7301312685012817,-0.0131616443395614,-0.104131318628788
1749028709.8306751,5.193505170615542,-1.898268308863901,1.4576652433445567,-5.20238179363966,-1.5011399075357457,-2.9594165456151953,-0.0061141251095123295,-0.0003509863810599146,-0.004182057712097186,0.007657009775213299,0.002410979833234621,0.0003574458104552453,-0.0572051256895065,-0.2230683714151382,-0.7911805510520935,0.7518972754478455,-0.0009850114583969,-0.1032526493072509
1749028709.830712,5.193491154336785,-1.898269243094944,1.4576570872970223,-5.202364245874027,-1.5011347701562383,-2.9594192170537124,-0.007634740488522069,2.7567172135930746e-05,-0.005222509993584691,0.008914370807066729,0.003102103291455299,-0.00010169910770639243,-0.066715233027935,-0.1753899902105331,-0.7995020747184753,0.7600148916244507,0.0265045166015625,-0.1056738495826721
1749028709.8307526,5.193474089011834,-1.898269490813731,1.457646697210266,-5.202344239491227,-1.5011276736003822,-2.9594231316855337,-0.009226435435282258,0.00048563851635224654,-0.006343999600800254,0.01019574110826397,0.003896517569163034,-0.0007384206803059264,-0.0571527779102325,-0.1628710627555847,-0.7973968982696533,0.768425464630127,0.019498273730278,-0.128316044807434
1749028709.8308053,5.193453970725447,-1.8982689093019431,1.4576338201272145,-5.202321731415636,-1.501118395252559,-2.9594286047944336,-0.010848185763785502,0.0010363979469334968,-0.007521978449517739,0.011470288498290503,0.00478487567960827,-0.0015608669963765914,-0.0984996631741523,-0.1493680626153946,-0.7976824045181274,0.7781694531440735,0.0123578831553459,-0.123859666287899
1749028709.8308446,5.193430888853831,-1.8982673374437202,1.4576182685642662,-5.202296746991066,-1.5011068161109322,-2.9594359457764132,-0.012456168315836631,0.0016877677117342897,-0.008727807076498093,0.012706335445745025,0.0057517766295264,-0.0025670551532752006,-0.0984475240111351,-0.1188749372959137,-0.8181602954864502,0.8049868941307068,0.031200997531414,-0.1470569819211959
1749028709.830882,5.193405019320059,-1.8982646018388716,1.4575999352565059,-5.202269387893497,-1.501092935862555,-2.95944543960202,-0.014006873362776964,0.0024412343270697984,-0.009930179691150101,0.013873409101158755,0.006776026765585572,-0.0037437473116184155,-0.1206628084182739,-0.1191831827163696,-0.8231791257858276,0.7949040532112122,0.0271750688552856,-0.1590406000614166
1749028709.8309195,5.193376611085761,-1.8982605251590348,1.4575788030158758,-5.202239833725547,-1.5010768766356635,-2.9594573271118922,-0.015460468105228357,0.003291258748305025,-0.011096943564776474,0.014944464147078356,0.007831401085395746,-0.005066145663850159,-0.1151887029409408,-0.1208928376436233,-0.8156266212463379,0.811754047870636,0.03664081543684,-0.1451319307088852
1749028709.8309572,5.1933459664488,-1.898254935958588,1.4575549486993584,-5.202208335558612,-1.5010588749235292,-2.9594717848520458,-0.01678405689894453,0.004225338837636196,-0.012197206427182127,0.01589807024443868,0.00888786760857351,-0.006498511057621456,-0.1396076828241348,-0.1074652522802352,-0.8366837501525879,0.8201865553855896,0.0251072272658348,-0.1785526871681213
1749028709.8309937,5.193313415969,-1.8982476788812674,1.4575285405358296,-5.202175200604229,-1.5010392623181672,-2.959488906041127,-0.017954451741819522,0.005224716036535411,-0.013203574016223116,0.016720335965654205,0.009913212590836237,-0.00799575553595065,-0.1066709831357002,-0.0496469736099243,-0.8196938037872314,0.7998127341270447,0.0278280526399612,-0.1748148500919342
1749028709.8310308,5.193279289373927,-1.8982386243795377,1.4574998286243754,-5.202140768386748,-1.5010184366587738,-2.9595086852250394,-0.018960095314967493,0.006265669415301554,-0.0140943125615479,0.01740635051119384,0.010874989621079923,-0.009506006706072812,-0.088532343506813,-0.0325989052653312,-0.8368589282035828,0.7948403358459473,0.058852881193161,-0.194102942943573
1749028709.8311496,5.193243884637629,-1.898227677282467,1.4574691291625648,-5.2021053801194075,-1.5009968260571442,-2.9595310099012635,-0.019801881225778157,0.007321294294688957,-0.014855200068042789,0.017960968120690243,0.011742695914213784,-0.010974067235212576,-0.1167937293648719,-0.0687372684478759,-0.8160406947135925,0.7960125207901001,0.0596160590648651,-0.2020363062620163
1749028709.8331602,5.193207438326807,-1.8982147835224439,1.457436803649818,-5.202069344334485,-1.500974849118413,-2.9595556623346226,-0.020492781466901887,0.00836360200320219,-0.015480832243274815,0.01839883565973328,0.012490044498198797,-0.012345577157154498,-0.1412384808063507,-0.0416428595781326,-0.7805152535438538,0.7939468622207642,0.0537576973438262,-0.1942276209592819
1749028709.8742769,5.193170100840296,-1.8981999341426694,1.457403234788754,-5.202032902927223,-1.5009528756205048,-2.959582333464209,-0.02105637764941989,0.009365708002990539,-0.015975193631998272,0.01874365373654566,0.013097152959365475,-0.013571539004543992,-0.1412384808063507,-0.0416428595781326,-0.7805152535438538,0.7939468622207642,0.0537576973438262,-0.1942276209592819
1749028709.874323,5.193131919924386,-1.89818316569873,1.4573688010360568,-5.201996202147001,-1.5009311926455908,-2.959610648477901,-0.021524544845371245,0.010303836658297098,-0.01635139089482975,0.019026745184317132,0.013552421454879724,-0.014612727928232242,-0.1359648555517196,-0.0295074805617332,-0.7896033525466919,0.8062107563018799,0.0618516951799392,-0.1967424601316452
1749028709.874364,5.193092834832024,-1.8981645566327503,1.4573338517063057,-5.201959272346481,-1.5009099809477118,-2.959640201238904,-0.021934616454112685,0.011158902920337003,-0.016630559860570472,0.019285070576281624,0.01385384654291828,-0.015443436113097396,-0.1253701001405716,-0.0176342353224754,-0.7918635010719299,0.8105961680412292,0.0380411520600318,-0.1441585421562194
1749028709.874404,5.1930526821144225,-1.8981442200600058,1.457298684224903,-5.2019220187273,-1.5008893047269036,-2.959670593116848,-0.022326363654515496,0.011917532339343924,-0.01684007597086109,0.019558873934811094,0.014009536057622913,-0.016054030412567644,-0.1459387689828872,-0.0021763667464256,-0.7985199093818665,0.8237881064414978,0.0517453700304031,-0.1491878479719162
1749028709.874442,5.193011212572023,-1.898122294217187,1.4572635247324157,-5.20188422357651,-1.5008691153450187,-2.959701471191297,-0.022739080606361387,0.012572503100578291,-0.017011290683877377,0.01988915938789275,0.014037269598451765,-0.01645194095665896,-0.1387203186750412,0.0454127565026283,-0.815529465675354,0.8208444714546204,0.0648329704999923,-0.1490611135959625
1749028709.8744817,5.192968117365431,-1.898098932184012,1.4572285130032008,-5.201845559063185,-1.5008492668882065,-2.9597325611596124,-0.023209003611330686,0.013122683796446839,-0.017177065155515606,0.0203151906881937,0.013963084096051102,-0.016660925135788002,-0.1632932126522064,0.0590480044484138,-0.8129478693008423,0.8381444215774536,0.0796892046928405,-0.1656320244073867
1749028709.874519,5.192923059863109,-1.898074292405768,1.4571936926119886,-5.201805608684122,-1.5008295398530545,-2.9597636913171397,-0.023767218856363598,0.013572575401886241,-0.01736937272934036,0.020872176305253492,0.013819019783801225,-0.016718714541420363,-0.1262383908033371,0.0481220632791519,-0.8213887214660645,0.8476752042770386,0.0771022737026214,-0.1786456406116485
1749028709.8745563,5.192875708935407,-1.898048531226839,1.4571590072496994,-5.201763894943256,-1.5008096689928627,-2.959794805325852,-0.024438133674325076,0.013931555692490223,-0.017617200881060766,0.021589264860932548,0.013640293274425865,-0.01667338192970182,-0.1791265606880188,0.0599421262741088,-0.8243891000747681,0.8729421496391296,0.0746055617928505,-0.1757853329181671
1749028709.8745935,5.192825769468388,-1.8980217981595042,1.4571243037826138,-5.201719910797767,-1.5007893720669485,-2.95982596286102,-0.02523851711096791,0.014212897922773934,-0.017944915953324588,0.022487941003891808,0.013462245232884602,-0.01657890793428473,-0.1791265606880188,0.0599421262741088,-0.8243891000747681,0.8729421496391296,0.0746055617928505,-0.1757853329181671
1749028709.8746316,5.192773006771356,-1.8979942338910365,1.45708934198029,-5.201673152507317,-1.5007683770144964,-2.959857328569557,-0.026177079931687174,0.014432622471703039,-0.018371178988732587,0.023580888002239786,0.013317436002087946,-0.01649047149940404,-0.1916846334934234,0.0504779815673828,-0.8169019818305969,0.8621673583984375,0.0796562284231185,-0.152536854147911
1749028709.8746693,5.192717262764291,-1.897965970171173,1.4570538099730017,-5.201623151406199,-1.5007464453884964,-2.959889151162898,-0.027254567347821345,0.014608253216970226,-0.018908433999331422,0.024871370528546276,0.013233233008411015,-0.016459952986427752,-0.2176602482795715,0.0764144286513328,-0.833956241607666,0.8780062198638916,0.094605378806591,-0.1541944742202758
1749028709.8747067,5.19265846293888,-1.897937130057432,1.4570173437702187,-5.201569501869221,-1.5007233899314294,-2.9599217357826895,-0.028464354162830663,0.014757578187028783,-0.019562934992176283,0.026353179874220364,0.013230151440045542,-0.016532053471466423,-0.2099183797836303,0.083918459713459,-0.8495116233825684,0.8904982805252075,0.105527177453041,-0.1699949204921722
1749028709.8747437,5.192596614119165,-1.897907826890178,1.4569795488342603,-5.201511882857357,-1.500699084534918,-2.9599554136244564,-0.029793522269025204,0.014897530615730074,-0.020335229390045863,0.0280111588133935,0.013321090587666042,-0.01674132500928148,-0.2119878530502319,0.0712374076247215,-0.8368331789970398,0.8955909609794617,0.1075770556926727,-0.1964467763900756
1749028709.8747816,5.192531794113218,-1.897878160989047,1.4569400217387138,-5.201450071136464,-1.5006734658264829,-2.9599905128064625,-0.03122434805649484,0.015043292304037493,-0.021220972334234277,0.02982227398922465,0.01351147654004474,-0.017110292010675692,-0.2291924357414245,0.0759570822119712,-0.8338490724563599,0.9082294702529908,0.1186457425355911,-0.2020931243896484
1749028709.8748186,5.192464135240936,-1.8978482141886783,1.4568983702019827,-5.201383945326771,-1.5006465270290967,-2.9600273335906766,-0.032736057861660034,0.015207678283022814,-0.02221191972034596,0.03175713363152597,0.013800197402537708,-0.01764872848536502,-0.2231151163578033,0.095638208091259,-0.8316977024078369,0.8941893577575684,0.0894740223884582,-0.1871267855167389
1749028709.8748558,5.192393804122304,-1.897818043352932,1.4568542302707173,-5.20131348112322,-1.5006183059692326,-2.9600661296992206,-0.03430666461294841,0.015400810167955128,-0.023296950868105397,0.03378177903733175,0.014181114712372442,-0.018354042974983203,-0.2091264128684997,0.1011142805218696,-0.8502439260482788,0.9021373987197876,0.0940681844949722,-0.1899407804012298
1749028709.8748972,5.1923209799656656,-1.89778767439072,1.456807280212239,-5.201238739281724,-1.5005888697631737,-2.9601070962023597,-0.03591469511575517,0.015630045418135584,-0.02446300581051482,0.03585954260109548,0.014644869164624763,-0.019212623272974228,-0.2527145445346832,0.1113458201289177,-0.8750374913215637,0.8903812170028687,0.0858762264251709,-0.1712187230587005
1749028709.874934,5.192245833228957,-1.8977570980963112,1.4567572515738674,-5.201159849172227,-1.500558298827636,-2.960150363605088,-0.037540641978355466,0.015900108932390227,-0.02569587201258935,0.03795278663195937,0.015180682371453471,-0.02020191900828863,-0.2240011543035507,0.1290266662836074,-0.8542603254318237,0.8980240821838379,0.1048199236392974,-0.1690147072076797
1749028709.8749712,5.192168506320289,-1.8977262687626437,1.4567039383312093,-5.201076991456394,-1.500526672665519,-2.960195997336594,-0.03916801246405646,0.016213369802759295,-0.026980799151002478,0.040024409381189494,0.01577789167739422,-0.02129299893964102,-0.2240011543035507,0.1290266662836074,-0.8542603254318237,0.8980240821838379,0.1048199236392974,-0.1690147072076797
1749028709.8750083,5.192089097926123,-1.8976951061081915,1.4566472046125605,-5.200990383194089,-1.5004940593842495,-2.960244001788662,-0.04078390091440116,0.016570214324179707,-0.028302949502593613,0.0420390969799689,0.016427033926163032,-0.022453314610096642,-0.2595043480396271,0.1317672878503799,-0.85934978723526,0.9001562595367432,0.1170093268156051,-0.2037798762321472
1749028709.8752568,5.1920076522241745,-1.8976635004598597,1.4565869903889683,-5.200900267173056,-1.5004605099651873,-2.9602943281737706,-0.04237908801190024,0.016969479866740717,-0.029647713496520692,0.04396437795093173,0.017120401504948365,-0.02364943032975019,-0.251461774110794,0.1465534120798111,-0.8750110864639282,0.8857223987579346,0.1245440319180488,-0.1950106173753738
1749028709.8771832,5.191924153582234,-1.8976313204225939,1.4565233136431877,-5.200806905117428,-1.5004260570229495,-2.9603468854254915,-0.043947754992984686,0.017408923245945347,-0.031000939534355888,0.045771574774224916,0.017852107170707957,-0.024849526934818855,-0.2922939360141754,0.1300506740808487,-0.8673475384712219,0.9015766382217408,0.1488326787948608,-0.1684199422597885
1749028709.918281,5.191838526732498,-1.8975984218141215,1.4564562675516204,-5.200710572916924,-1.5003907166276926,-2.9604015530075225,-0.04548696127081147,0.017885693493849268,-0.03234913436878083,0.047436735453846406,0.018617782724956948,-0.02602553311320336,-0.2953367531299591,0.1391712725162506,-0.8599832653999329,0.8848079442977905,0.1344806253910064,-0.1853203624486923
1749028709.9183297,5.19175064204059,-1.8975646566052153,1.456386011985261,-5.20061155587182,-1.5003544911301039,-2.9604581941349335,-0.046996046702046504,0.01839676531568858,-0.03367967919502002,0.04894158101136888,0.01941407664170373,-0.027154772533795002,-0.2867298126220703,0.1447685062885284,-0.8704698085784912,0.8906224966049194,0.1510224938392639,-0.1738201677799224
1749028709.9183698,5.191660325266694,-1.8975298808057597,1.456312759636499,-5.200510142774153,-1.500317370946426,-2.9605166678854613,-0.04847608859086438,0.018939280414509443,-0.03498108621196468,0.05027444862078762,0.02023810630464318,-0.028221042351753902,-0.2884078323841095,0.1410182118415832,-0.8804960250854492,0.8852025270462036,0.163467451930046,-0.1636810004711151
1749028709.9184086,5.191567371204153,-1.8974939605752323,1.4562367581589306,-5.200406618596501,-1.5002793339124485,-2.9605768389975617,-0.049929488949239466,0.019510752062335327,-0.03624329783746855,0.051431163245473165,0.02108698121866237,-0.02921507094604497,-0.315363347530365,0.1661040484905243,-0.8641455173492432,0.8774609565734863,0.1658355146646499,-0.1814234852790832
1749028709.91845,5.191471560795798,-1.8974567763528336,1.4561582708816714,-5.200301256181439,-1.5002403420205863,-2.9606385845993457,-0.05135971137498287,0.020109114204082693,-0.037458003774953945,0.052415740747684396,0.0219574670323785,-0.030134348562007467,-0.315363347530365,0.1661040484905243,-0.8641455173492432,0.8774609565734863,0.1658355146646499,-0.1814234852790832
1749028709.9184885,5.191372681215505,-1.8974182253638185,1.4560775593189748,-5.200194307463943,-1.5002003366746637,-2.9607017975804575,-0.05277114586388686,0.020732630384771012,-0.03861892900961042,0.05324081691368326,0.02284581715105763,-0.0309823840454949,-0.3060274422168731,0.1490883529186248,-0.8556755185127258,0.8897857666015625,0.1518337130546569,-0.1774253994226455
1749028709.9185286,5.191270547370133,-1.8973782231953964,1.4559948699218304,-5.200085994331487,-1.5001592343193784,-2.9607663868896803,-0.05416906200963322,0.02137970782756944,-0.03972205283749913,0.0539277064562335,0.023747756621259695,-0.031767506259639144,-0.3275202810764313,0.1996994614601135,-0.8815792202949524,0.8818420767784119,0.1739600002765655,-0.1737366318702697
1749028709.918568,5.1911650217469045,-1.8973367051379986,1.455910425470648,-5.199976498589519,-1.500116924190121,-2.9608322757354304,-0.055559611573061635,0.02204867900272293,-0.04076575779991869,0.05450600871648594,0.024658561618872234,-0.032501387668413234,-0.3508013486862182,0.1855915337800979,-0.8696042895317078,0.8621219396591187,0.1488362252712249,-0.1886110752820968
1749028709.918605,5.191056028648258,-1.8972936276383552,1.4558244196351706,-5.199865950387526,-1.5000732694787637,-2.960899399269536,-0.056949844510857266,0.022737614181441084,-0.041750939993165315,0.05501268404549314,0.02557315531162438,-0.03319750501071127,-0.3427395224571228,0.1802636235952377,-0.8414531350135803,0.8728256225585938,0.1684991270303726,-0.181777536869049
1749028709.9186418,5.190943559252338,-1.8972489694860573,1.4557370127140365,-5.199754415146457,-1.5000281128219484,-2.9609677034813524,-0.05834769435940335,0.02344421564900297,-0.04268110175044742,0.05549054385985531,0.02648616027029766,-0.03386975025492505,-0.2868115901947021,0.1937951147556305,-0.8575479388237,0.8682219982147217,0.1808920800685882,-0.1787159740924835
1749028709.9186783,5.190827665490924,-1.8972027315966147,1.455648327300868,-5.199641880126961,-1.4999812864321616,-2.961037146403888,-0.05976187305022155,0.024165819802575983,-0.043562404441804925,0.05598615416937688,0.027391904382947526,-0.03453135059665688,-0.3286759257316589,0.2231626808643341,-0.8572158217430115,0.8993847966194153,0.1776094734668731,-0.1849724948406219
1749028709.9187152,5.190708443141293,-1.8971549341993064,1.4555584438124767,-5.199528242865086,-1.4999326261155106,-2.9611077014126335,-0.06120161210185341,0.024899501256310862,-0.04440362489258058,0.05654724518272853,0.028284433583553637,-0.03519415652514547,-0.3640525341033935,0.2242708504199981,-0.8340544104576111,0.9144176244735718,0.1929451376199722,-0.1682533323764801
1749028709.9187512,5.190586007242057,-1.8971056111896045,1.4554673967838667,-5.19941330444521,-1.499881987185778,-2.9611793610628445,-0.06267621109257716,0.02564224357836996,-0.04521595798116348,0.05721981139157284,0.029157604510356,-0.035868248611677284,-0.3640525341033935,0.2242708504199981,-0.8340544104576111,0.9144176244735718,0.1929451376199722,-0.1682533323764801
1749028709.9187908,5.190460464883607,-1.897054802732579,1.4553751731082014,-5.199296770416432,-1.4998292594623175,-2.961252139467053,-0.0641943984208428,0.026391128353522215,-0.04601263251273571,0.0580451385879067,0.030005311049638692,-0.036561746522582074,-0.3581216931343078,0.2316636741161346,-0.8410354852676392,0.8988959789276123,0.1955084055662155,-0.1729651987552642
1749028709.918832,5.190331890619871,-1.8970025479698853,1.4552817128163142,-5.1991782607058585,-1.4997743783595125,-2.9613260720099266,-0.06576355817124258,0.02714350416970356,-0.04680833879075952,0.059056998877138916,0.030821862895309065,-0.037280707529837025,-0.3670521974563598,0.1898526102304458,-0.835823118686676,0.910628855228424,0.1956419050693512,-0.1816439181566238
1749028709.9188693,5.190200308348704,-1.8969488794833096,1.4551869120581216,-5.199057327764236,-1.49971732956679,-2.961401212605087,-0.06738892184615537,0.027897120565647155,-0.04761849174417264,0.06027923086498392,0.03160249736737207,-0.0380290626679564,-0.379946231842041,0.2243891954421997,-0.833103597164154,0.921705722808838,0.1934862434864044,-0.1869853734970092
1749028709.9189053,5.190065681555811,-1.8968938202608574,1.455090627491982,-5.198933480655761,-1.4996581459904736,-2.961477629660868,-0.06907285751931021,0.028650231420022387,-0.04845836950338915,0.06172388891671587,0.032343968643593984,-0.038808610676238024,-0.3824186027050018,0.2178388386964798,-0.850623369216919,0.9246496558189392,0.1917432099580764,-0.1933609843254089
1749028709.9189427,5.189927912154878,-1.8968373828487224,1.4549926815490748,-5.198806212467677,-1.4995968972426907,-2.9615554019634636,-0.07081439781624069,0.029401677001014048,-0.049342178624186654,0.06339010749436962,0.03304512535625201,-0.03961913132079446,-0.3993347883224487,0.2260659337043762,-0.8347560167312622,0.9440879821777344,0.2145356982946396,-0.1932863146066665
1749028709.918983,5.189786847137712,-1.896779569670705,1.4548928686049118,-5.198675028950948,-1.499533673548396,-2.961634615115486,-0.07260911902019403,0.030150944999788095,-0.05028210945330456,0.0652637798228999,0.0337073715087762,-0.0404586774268141,-0.390438050031662,0.2340047359466552,-0.863200843334198,0.949925661087036,0.2196510881185531,-0.2064371407032013
1749028709.91902,5.1896422920407135,-1.896720373479193,1.4547909626125868,-5.198539477270003,-1.4994685671758732,-2.9617153585044913,-0.07444941715251736,0.030898196220828476,-0.05128745586980518,0.06731809419292605,0.03433491286764245,-0.041324070050216793,-0.3834692239761352,0.2135047912597656,-0.8623674511909485,0.9664854407310486,0.2230246514081955,-0.2096754014492035
1749028709.91916,5.189494030550613,-1.8966597775231555,1.4546867271185926,-5.198399174664554,-1.4994016552435183,-2.961797722471947,-0.07632514385229425,0.0316442321644174,-0.05236387517152177,0.06951491703112055,0.03493471131775482,-0.04221157401854368,-0.3834692239761352,0.2135047912597656,-0.8623674511909485,0.9664854407310486,0.2230246514081955,-0.2096754014492035
1749028709.9211135,5.189341849416368,-1.8965977557778262,1.4545799284665866,-5.1982538368560265,-1.4993329877219246,-2.961881795719325,-0.07822450047452655,0.032390391837676925,-0.053512857170738976,0.07180697314444474,0.035516093376732866,-0.04311768953271287,-0.3784913420677185,0.2614653408527374,-0.842738926410675,0.9551555514335632,0.2177885621786117,-0.1857166588306427
1749028709.962286,5.189185566428354,-1.8965342738881161,1.4544703520190998,-5.198103304625089,-1.4992625832802753,-2.9619676637623886,-0.08013506968903884,0.03313839330399397,-0.05473146820811739,0.0741407471341953,0.03608999342952141,-0.04403996828596476,-0.4255856871604919,0.2548321187496185,-0.8759489059448242,0.9644608497619628,0.1977574676275253,-0.2108834683895111
1749028709.9623344,5.189025057156955,-1.8964692911889667,1.4543578196612685,-5.197947564944919,-1.4991904335654511,-2.9620554095528675,-0.08204488448152596,0.03389016073347827,-0.05601243938919325,0.07645999144663414,0.03666787073022901,-0.04497775076546774,-0.3870725631713867,0.2330123633146286,-0.8693382740020752,0.945980429649353,0.2249252200126648,-0.2333980798721313
1749028709.9623752,5.18886027485031,-1.8964027635601552,1.4542422055278217,-5.197786761936457,-1.4991165144097598,-2.9621451167064916,-0.08394346432298451,0.03464767644939526,-0.05734465987307163,0.07870965829771394,0.037260417654193585,-0.045932726680342206,-0.4129994213581085,0.2520824372768402,-0.8567978739738464,0.939073085784912,0.2237359285354614,-0.2188780009746551
1749028709.9624145,5.1886912582296665,-1.8963346462574966,1.4541234464555959,-5.197621193469825,-1.4990408009633804,-2.962236874673408,-0.0858227610234017,0.03541286985154436,-0.058714090804017724,0.08083999441810441,0.03787624928656631,-0.04690924349381531,-0.4072674512863159,0.257740169763565,-0.8413275480270386,0.9598464965820312,0.2460286319255828,-0.2208942770957946
1749028709.9624524,5.188518123874009,-1.8962648955207786,1.454001544318779,-5.197451291083336,-1.498963282969403,-2.962330784614823,-0.08767794552932139,0.036187524453054065,-0.06010503820210066,0.08281048846878947,0.03852080142428276,-0.047914317803526375,-0.4384063184261322,0.2539058923721313,-0.8793815970420837,0.958692729473114,0.2575443387031555,-0.2111377567052841
1749028709.9624906,5.1883410430798245,-1.8961934680351136,1.4538765590596092,-5.1972775833541185,-1.4988839764756143,-2.9624269648848904,-0.089507944581152,0.036973173722751766,-0.06150165229516687,0.08459335039258858,0.03919564935633252,-0.04895732144323748,-0.4113589525222778,0.2803452014923095,-0.861362099647522,0.9582923054695128,0.2342289984226226,-0.2240511924028396
1749028709.9625282,5.18816020686925,-1.8961203182901163,1.4537485934368644,-5.197100645517479,-1.4988029293354403,-2.9625255551930203,-0.09131562783064075,0.03777097173115063,-0.06288948578838509,0.08617620345595155,0.03989839488834636,-0.050049314569209545,-0.404414027929306,0.2700653970241546,-0.8459913730621338,0.9382724165916444,0.250722199678421,-0.222580537199974
1749028709.9625654,5.187975786331529,-1.8960453950820355,1.4536177726129993,-5.196921040778588,-1.4987202195844642,-2.9626267181611263,-0.09310756833023626,0.038581549994081914,-0.06425693339916033,0.08756367261147191,0.040623167391257396,-0.05120200679949352,-0.3968031406402588,0.2869572639465332,-0.8351382613182068,0.912175714969635,0.2562378644943237,-0.2511731088161468
1749028709.962603,5.187787897710876,-1.895968639189793,1.4534842230276446,-5.196739260952257,-1.4986359475438056,-2.9627306363945745,-0.094893350101324,0.039404882650983214,-0.0655963686357655,0.08877759182164034,0.0413616681197268,-0.05242637639424396,-0.3968031406402588,0.2869572639465332,-0.8351382613182068,0.912175714969635,0.2562378644943237,-0.2511731088161468
1749028709.962641,5.187596581221485,-1.8958899841612848,1.4533480549091682,-5.196555674805079,-1.4985502236988963,-2.9628375034125374,-0.09668446732369598,0.040240173579234984,-0.06690480266071988,0.08985566841213484,0.042104583966658345,-0.0537310637645855,-0.3946796953678131,0.2780567109584808,-0.8137856721878052,0.9376400113105774,0.2563683688640594,-0.243862122297287
1749028709.962678,5.18740179854236,-1.895809361018576,1.4532093510377184,-5.196370490952361,-1.4984631547310954,-2.9629475085037216,-0.09849293833393731,0.041085774065593994,-0.06818394248851797,0.09084862485824664,0.04284313188153091,-0.05512073396358528,-0.4280125796794891,0.284717321395874,-0.8367454409599304,0.9173821806907654,0.2587661445140838,-0.2192568778991699
1749028709.9627154,5.187203447732803,-1.8957267060039165,1.4530681618722883,-5.196183739023689,-1.4983748297673984,-2.9630608179438633,-0.10032981994138174,0.04193915410849892,-0.06943962262613551,0.09181602971982745,0.04357047808427424,-0.056594626859822764,-0.3999030292034149,0.2927612364292145,-0.8220155835151672,0.924036979675293,0.2413669675588607,-0.2308080494403839
1749028709.9627528,5.187001389315031,-1.8956419692606092,1.4529245053791313,-5.195995269700482,-1.498285308531578,-2.963177556279405,-0.1022038299463055,0.04279696871638429,-0.07068069396448393,0.09282117554595018,0.04428280052449405,-0.05814547907615506,-0.4316122233867645,0.3020159602165222,-0.8194084167480469,0.92420494556427,0.2478029727935791,-0.2361675649881363
1749028709.9627905,5.186795475649566,-1.895555122183478,1.4527783696016658,-5.195804772088635,-1.498194612893052,-2.963297790821143,-0.10412026372820085,0.04365525741273683,-0.0719175421872843,0.09392544954131007,0.04497981459919478,-0.05975894204952793,-0.425595223903656,0.3136238753795624,-0.8309226036071777,0.9485572576522828,0.2187588214874267,-0.2382710725069046
1749028709.9628272,5.186585576803054,-1.8954661617877968,1.4526297167841815,-5.195611805596132,-1.498102723127322,-2.963421521000585,-0.10608033556285495,0.04450978518926022,-0.0731604580043699,0.09518268852674698,0.04566465307296725,-0.06141357075539707,-0.3996561169624328,0.3158880472183227,-0.8372924327850342,0.933131754398346,0.2093739062547683,-0.2373788207769394
1749028709.9628646,5.1863715983005685,-1.8953751113010675,1.452478488844226,-5.195415842755979,-1.4980095798321846,-2.9635486730048464,-0.10808100168618617,0.04535649137533845,-0.07441809133211055,0.09663402572131828,0.046343089760799275,-0.06308143212177036,-0.4390903115272522,0.2926627099514007,-0.8477765917778015,0.9449111223220824,0.2270394265651703,-0.2358102947473526
1749028709.9629009,5.186153488916654,-1.8952820171212537,1.4523246146547564,-5.195216319213332,-1.4979150918598223,-2.963679099525243,-0.11011524531757896,0.04619197815372033,-0.07569619577246894,0.09830372145025378,0.047022231466908544,-0.06472937439401422,-0.4278377890586853,0.3076800107955932,-0.834561288356781,0.9596595168113708,0.2603826224803924,-0.2533811330795288
1749028709.9629376,5.1859312399500155,-1.8951869433258874,1.452168019921031,-5.195012687342505,-1.4978191498123241,-2.963812584293045,-0.11217273929019167,0.047013953674614355,-0.07699681309382422,0.10019641735703674,0.04770894655467122,-0.0663209804871378,-0.4100030064582824,0.3228161334991455,-0.8552156090736389,0.9800094962120056,0.2643446326255798,-0.2256215810775756
1749028709.9629743,5.1857048803065675,-1.8950899657647777,1.452008640357973,-5.194804470325156,-1.4977216436196439,-2.963948850990002,-0.11424076358143459,0.047821548492778955,-0.07831797133365982,0.10229616154297061,0.048408383912562025,-0.06781916081891516,-0.4100030064582824,0.3228161334991455,-0.8552156090736389,0.9800094962120056,0.2643446326255798,-0.2256215810775756
1749028709.9630113,5.185474472328014,-1.8949911677389764,1.4518464378958649,-5.194591313151363,-1.497622481615911,-2.9640875761297,-0.1163052538709306,0.048615447626936446,-0.07965390026207694,0.1045674201362093,0.0491229105314882,-0.0691892167018212,-0.4518564939498901,0.3421223163604736,-0.8318849205970764,0.9909224510192872,0.2480383813381195,-0.2079796642065048
1749028709.963158,5.18524011069607,-1.894890637997117,1.4516814175834507,-5.194373025369966,-1.4975216076794142,-2.9642284058577033,-0.11835189299390556,0.04939781917650735,-0.08099572487046393,0.10695811870735301,0.04985167455807075,-0.07040207138135626,-0.4388301372528076,0.3464741110801697,-0.8407026529312134,1.0063660144805908,0.263413667678833,-0.20401132106781
1749028709.965136,5.185001922539747,-1.8947884700047817,1.451513640788473,-5.194149608609556,-1.497419012886432,-2.9643709769900255,-0.12036720767132618,0.05017206160234311,-0.08233257247214189,0.10940454345761692,0.05059084643055109,-0.07143728345435132,-0.4455952644348144,0.3350057601928711,-0.8390079140663147,0.9839445948600768,0.2741245627403259,-0.1933835297822952
1749028710.0062764,5.184760064190723,-1.8946847604777723,1.4513432298115279,-5.193921262000019,-1.497314739043476,-2.9645149421651658,-0.12233966291084336,0.050942421113644484,-0.08365299820223317,0.11183769029103006,0.05133445416116125,-0.07228545270125909,-0.432696670293808,0.3221178650856018,-0.8327016830444336,0.9952489733695984,0.2516447901725769,-0.1712813973426818
1749028710.006322,5.184514710593784,-1.8945796056077036,1.4511703606558346,-5.193688361525873,-1.4972088731405395,-2.9646599975854575,-0.12426073413527651,0.05171354254808016,-0.08494659176125183,0.11419042573403272,0.05207562783531493,-0.07294969550597788,-0.4373756349086761,0.3096904158592224,-0.8324499130249023,1.002694606781006,0.2383090257644653,-0.1772610545158386
1749028710.0063648,5.18426603645186,-1.894473094829987,1.450995243715571,-5.193451414143226,-1.4971015336427982,-2.9648059102986606,-0.12612588926865206,0.052490015300446016,-0.08620559020782297,0.11640467331203068,0.05280801057616428,-0.07344599023651179,-0.4489216208457947,0.3441050052642822,-0.8306427597999573,0.9670635461807252,0.2485295385122299,-0.1782539784908294
1749028710.0064058,5.184014191952555,-1.8943653035607428,1.4508180955178895,-5.193210992747072,-1.4969928512634796,-2.96495254105953,-0.12793535860766636,0.05327596574186269,-0.08742630022175353,0.11843778776715858,0.05352708684893478,-0.07380234751919447,-0.3933146297931671,0.3345635533332824,-0.8229197263717651,0.958207070827484,0.2447630614042282,-0.1721494495868683
1749028710.006444,5.183759278750115,-1.8942562871560267,1.4506391072920202,-5.192967662323891,-1.4968829481571677,-2.9650998587305786,-0.1296945416500117,0.05407473262650233,-0.08861013198536871,0.12026733376546382,0.05423121897906129,-0.07405691214429118,-0.3933146297931671,0.3345635533332824,-0.8229197263717651,0.958207070827484,0.2447630614042282,-0.1721494495868683
1749028710.006482,5.183501332378098,-1.894146077776078,1.4504584168448642,-5.192721909199643,-1.4967719196611888,-2.9652479432135883,-0.1314139143025839,0.05488864485118737,-0.08976407279738277,0.12189366142931293,0.054922247818804386,-0.07425522172183341,-0.4484558403491974,0.3156600296497345,-0.8452923893928528,0.9580853581428528,0.2666869461536407,-0.1815767586231231
1749028710.0065196,5.183240314808384,-1.894034684149907,1.450276088473502,-5.192474083292641,-1.4966598212285311,-2.9653969762685906,-0.1331083555174825,0.05571890589148791,-0.0909004921560197,0.12333996164268096,0.055605584948061976,-0.07444691532027276,-0.4156869947910309,0.3423547744750976,-0.8044431209564209,0.9478863477706908,0.2545437216758728,-0.2025219798088073
1749028710.0065565,5.1829761168649275,-1.8939220926920335,1.4500921024875137,-5.192224359003445,-1.4965466607618152,-2.965547222419118,-0.13479589862984054,0.05656557982716617,-0.09203626517141421,0.12464982463286917,0.056289795693244264,-0.07468220046294644,-0.4574034214019775,0.3442125618457794,-0.8626716732978821,0.9772890210151672,0.2661840915679931,-0.1863143146038055
1749028710.0065932,5.1827085674396445,-1.8938082681483397,1.449906353258866,-5.19197271644199,-1.4964323949455316,-2.9656990038020608,-0.13649601551957746,0.05742766616859227,-0.09319130152016009,0.12588263218019766,0.05698574021910194,-0.07500835904353743,-0.4090029001235962,0.3193146884441376,-0.8526727557182312,0.9546101093292236,0.2735730111598968,-0.212666317820549
1749028710.0066302,5.182437446270181,-1.8936931529028773,1.4497186536579765,-5.1917189424654175,-1.496316928382125,-2.965852672617054,-0.13822764306562274,0.05830323784544902,-0.09438664811155725,0.12710734361980724,0.057705390435407046,-0.07546652323489134,-0.4309628307819366,0.2798160314559936,-0.8708863258361816,0.9593217372894288,0.2461806684732437,-0.2204408645629882
1749028710.0066712,5.1821624983442875,-1.893576665372288,1.4495287440423479,-5.191462649914632,-1.496200115664096,-2.966008583657834,-0.14000723579598642,0.05918960697073947,-0.09564238632042615,0.1283953869819746,0.05846045863864263,-0.07608890631938961,-0.4674834609031677,0.3526711165904999,-0.8936316967010498,0.9778065085411072,0.2590647339820862,-0.217317909002304
1749028710.006709,5.181883449174647,-1.893458698758955,1.4493363048422994,-5.191203312539627,-1.4960817675342266,-2.966167068434959,-0.14184714646310756,0.0600834958357428,-0.09697556834200265,0.1298134445822883,0.05926096443124727,-0.07689664647010881,-0.4533046782016754,0.3199076354503631,-0.8806371688842773,1.02278733253479,0.2642905712127685,-0.2472453117370605
1749028710.006746,5.181600020554205,-1.8933391215475879,1.449140972539968,-5.190940312045945,-1.4959616621631118,-2.966328412053513,-0.1437545783382311,0.060981221053526186,-0.09839842839429837,0.13141691861300517,0.06011385916116804,-0.07789841042737194,-0.4829765558242798,0.3371073007583618,-0.8890394568443298,1.0038418769836426,0.264347493648529,-0.2530226409435272
1749028710.0067835,5.18131194617023,-1.8932177807068624,1.4489423591270074,-5.190672992588858,-1.4958395614890359,-2.966492834114449,-0.14573122772452163,0.06187891161229988,-0.09991706131533742,0.133244762025716,0.06102184796779773,-0.07908988623063411,-0.4649780988693237,0.3193392157554626,-0.8768768310546875,1.0630810260772705,0.269282579421997,-0.262877881526947
1749028710.0068204,5.181018986192437,-1.893094508074795,1.448740074976509,-5.190400717230875,-1.4957152313244597,-2.966660475069066,-0.14777358298004112,0.06277276030558482,-0.10153069598813998,0.1353161638601938,0.06198258856712698,-0.08045424613240798,-0.4616016745567322,0.303121268749237,-0.9066574573516846,1.0477230548858645,0.3029822409152984,-0.2336626052856445
1749028710.0068624,5.180720939984453,-1.892969130142034,1.4485337545679298,-5.190122920785766,-1.4955884631899123,-2.966831389338392,-0.14987372138463648,0.06365928029348247,-0.10323162253137495,0.13762931196321937,0.06298846153500313,-0.08196358600777973,-0.447908341884613,0.3247057497501373,-0.861041784286499,1.034226894378662,0.2979115843772888,-0.2464831322431564
1749028710.0069003,5.180417656362875,-1.8928414811509031,1.44832308364811,-5.189839154294161,-1.4954590956101708,-2.967005546032046,-0.15202038501099718,0.06453553583632615,-0.10500576471376555,0.14016216701006076,0.06402705993878968,-0.08358127741500933,-0.4698871970176697,0.3429464995861053,-0.898898184299469,1.0242598056793213,0.2848305404186249,-0.2648574113845825
1749028710.00694,5.180109041218156,-1.8927114187275365,1.4481078253264685,-5.189549117863611,-1.4953270325281804,-2.967182837352567,-0.15420013027463464,0.06539933450881656,-0.10683381881580216,0.14287493627133233,0.0650824289823575,-0.08526511942629897,-0.4836183786392212,0.3214101195335388,-0.8644014596939087,1.0223824977874756,0.2756497263908386,-0.2763253152370453
1749028710.006978,5.179795062695335,-1.8925788403186607,1.447887841759063,-5.189252680237378,-1.495192256386859,-2.967363093852535,-0.15639841717089356,0.06624938100007816,-0.1086928159930334,0.1457137986349095,0.06613692736980527,-0.08697112039221697,-0.5029923319816589,0.3406406939029693,-0.8920610547065735,1.020151138305664,0.2781875729560852,-0.2674930691719055
1749028710.0070152,5.179475754303105,-1.89244369814886,1.4476631080285187,-5.188949884825265,-1.4950548335561,-2.967546104799909,-0.15860059091144124,0.06708538511028203,-0.11055792573146826,0.14861542176324677,0.06717342990370499,-0.08865763773965635,-0.4935733675956726,0.2967570722103119,-0.8823974132537842,1.0073546171188354,0.2728293538093567,-0.2320581972599029
1749028710.0072012,5.179151216143331,-1.892306010607948,1.4474337158031683,-5.188640942936964,-1.494914910510085,-2.9677316412939,-0.16079275717160088,0.0679081004609892,-0.11240431260899401,0.15151188505208957,0.06817749233911885,-0.09028947361967453,-0.4223392903804779,0.3542292416095733,-0.875823974609375,1.0159904956817627,0.2641013562679291,-0.2316121011972427
1749028710.0091324,5.178821613999222,-1.8921658685609983,1.4471998660812084,-5.188326215663845,-1.4947727005343843,-2.9679194796768287,-0.16296254307264085,0.06871926901971309,-0.11420887853392694,0.15433571323055134,0.06913908588530111,-0.09184143795453548,-0.4741109609603882,0.3353382647037506,-0.8757752776145935,1.0151076316833496,0.2571880519390106,-0.2391447722911834
1749028710.05028,5.178487175465196,-1.8920234354608845,1.4469618521513066,-5.188006186303476,-1.4946284623930737,-2.968109423170271,-0.16509970305528246,0.06952146467014765,-0.11595174963994588,0.15702478312907026,0.07005358667745526,-0.09330090745732145,-0.4903649389743805,0.290517121553421,-0.8576101660728455,0.996342122554779,0.2651773691177368,-0.2354191690683365
1749028710.0503252,5.17814818190898,-1.8918789402741794,1.4467200352699878,-5.187681425499891,-1.494482473767806,-2.9683013202572015,-0.1671965173434218,0.07031784760553104,-0.11761739214218715,0.15952686590054038,0.07092185427774406,-0.09466901986936334,-0.4677347540855407,0.3511842489242553,-0.8386812806129456,0.9865713119506836,0.2511879205703735,-0.2362162321805954
1749028710.0503652,5.177804955273428,-1.8917326625997677,1.4464748163792174,-5.187352551603274,-1.4943350030271405,-2.9684950787641182,-0.16924795074797963,0.07111184732456619,-0.11919527397092537,0.16180352219923957,0.07174941452340267,-0.0959602935617148,-0.4350300431251526,0.2949285805225372,-0.8308692574501038,0.9867725372314452,0.2659772336483001,-0.2177297919988632
1749028710.0504043,5.177457840014058,-1.8915849104574325,1.4462266077105088,-5.187020189372835,-1.4941862830219463,-2.968690674537209,-0.17125157124460938,0.07190679429031697,-0.12068004253288499,0.1638330219406587,0.07254493480357943,-0.09720062164165386,-0.4645008146762848,0.3248810470104217,-0.8415970206260681,0.946136474609375,0.2657403945922851,-0.2307431250810623
1749028710.050442,5.177107182722147,-1.8914359930835742,1.445975808440187,-5.186684931085148,-1.4940364903995293,-2.968888152987661,-0.17320725715440646,0.0727055269653592,-0.12207126085275039,0.16561195915661128,0.07331830940144829,-0.09842376112935156,-0.4697650074958801,0.3295490741729736,-0.8704073429107666,0.9649779796600342,0.2866211533546448,-0.2328484952449798
1749028710.0504792,5.176753313915568,-1.8912861930273328,1.4457227882274193,-5.1863473047947535,-1.4938857334555633,-2.9690876211815698,-0.17511674944166072,0.07351000717310896,-0.12337281125082476,0.16715530648671728,0.0740787369061765,-0.09966662596051794,-0.4697650074958801,0.3295490741729736,-0.8704073429107666,0.9649779796600342,0.2866211533546448,-0.2328484952449798
1749028710.0505164,5.176396536001942,-1.891135742571019,1.4454678805826329,-5.186007753533349,-1.4937340504259735,-2.9692892288437296,-0.17698312719760975,0.07432098157108669,-0.12459211102821503,0.16849481330873858,0.07483316194717855,-0.10096387867222437,-0.3821046352386474,0.2880390882492065,-0.8307192325592041,0.94613116979599,0.3015577793121338,-0.2448006272315979
1749028710.0505536,5.176037117802841,-1.8909848079848401,1.4452113843619174,-5.185666625755946,-1.493581418059643,-2.969493139433989,-0.1788102865986229,0.07513773668921983,-0.1257392798026103,0.1696758764670339,0.07558536622032007,-0.10234246532758612,-0.4596388936042785,0.33786541223526,-0.8468225598335266,0.9735427498817444,0.2857277691364288,-0.2616126239299774
1749028710.0505905,5.175675291728459,-1.890833482064581,1.4449535679980956,-5.18532417303151,-1.4934277678911616,-2.9696994961545236,-0.18060248436187984,0.0759580052764941,-0.12682636367925884,0.1707532464494014,0.07633583568283787,-0.10381681537398847,-0.4391387403011322,0.3133924603462219,-0.8342224359512329,0.9713523983955384,0.2755820155143738,-0.2521775960922241
1749028710.0506268,5.1753112483973025,-1.8906817829738112,1.4446946700327505,-5.184980549172754,-1.4932730060342567,-2.9699083898628,-0.1823639833708489,0.07677807653786663,-0.12786667459928147,0.17178610403575356,0.07708233857111199,-0.10538540831982571,-0.4270054996013641,0.3367466628551483,-0.8223218321800232,0.9615328311920166,0.2481838464736938,-0.2621162235736847
1749028710.0506678,5.174945126251771,-1.8905296571883283,1.4444348919912995,-5.184635807156654,-1.493117032204729,-2.970119835142618,-0.18409882621207246,0.07759313481103419,-0.12887426380388536,0.17283310602424098,0.07782099096562056,-0.10702929066331225,-0.4681613147258758,0.3318569660186767,-0.844117283821106,1.0190476179122925,0.283328115940094,-0.2998430728912353
1749028710.0507054,5.174576998081942,-1.8903769858355577,1.4441743838199672,-5.18428989432307,-1.4929597548280373,-2.9703337582597733,-0.1858107555237304,0.07839781064735211,-0.12986353199086917,0.17394794668273905,0.07854752539019168,-0.108712921117433,-0.4681613147258758,0.3318569660186767,-0.844117283821106,1.0190476179122925,0.283328115940094,-0.2998430728912353
1749028710.0507424,5.174206858729837,-1.8902235950086035,1.4439132251386928,-5.183942648941489,-1.4928011006888218,-2.9705499983571375,-0.18750328564151625,0.07918688757088134,-0.130848975604236,0.17517583809422158,0.0792585176061959,-0.11038743855688372,-0.5063481330871582,0.3264018297195434,-0.8272075057029724,1.00946044921875,0.2651531100273132,-0.2577970027923584
1749028710.0507789,5.173834616900403,-1.890069270241827,1.443651406021933,-5.183593800456869,-1.4926410187686434,-2.9707683220175483,-0.18917990902363216,0.07995606788230884,-0.13184504479991424,0.17655111743858318,0.07995240511964141,-0.11199610275862165,-0.4636405110359192,0.3079639673233032,-0.8336089253425598,1.0259782075881958,0.2732532620429992,-0.2511351704597473
1749028710.0508158,5.173460091118176,-1.88991377378424,1.4433888101338053,-5.183242973354165,-1.4924794785682993,-2.97098845044641,-0.19084439409082343,0.08070266242486142,-0.1328660320733447,0.17809598332041743,0.08063018118229827,-0.1134813024718346,-0.4099540114402771,0.2934864163398742,-0.8194254636764526,0.9919139742851256,0.2551909685134887,-0.2549013793468475
1749028710.050852,5.173083009431485,-1.8897568624288845,1.443125203184661,-5.182889694203995,-1.4923164639616338,-2.9712100965486172,-0.19250109073961852,0.08142605093552567,-0.1339258612811128,0.17982018398582922,0.0812956648728071,-0.1147922291240199,-0.4040485024452209,0.277592122554779,-0.8340733051300049,1.0117582082748413,0.2596888244152069,-0.2226994931697845
1749028710.0508888,5.172703015196419,-1.8895983042412683,1.4428602311206988,-5.182533403952339,-1.4921519646512835,-2.971433006204399,-0.1941551180542891,0.08212778846680496,-0.1350376563278968,0.18172137514678552,0.08195527653350489,-0.11589213712264138,-0.4040485024452209,0.277592122554779,-0.8340733051300049,1.0117582082748413,0.2596888244152069,-0.2226994931697845
1749028710.0509253,5.172319683310428,-1.8894378935109173,1.4425934326768273,-5.182173479636502,-1.4919859677589022,-2.97165699623658,-0.19581230590806936,0.08281131466024202,-0.1362130454068139,0.18378588636402968,0.08261732163989342,-0.11676409457751487,-0.4678676426410675,0.3437860608100891,-0.8382816910743713,0.986175537109375,0.2705877125263214,-0.1871895790100097
1749028710.0509632,5.171932549067012,-1.8892754633886775,1.4423242677838253,-5.181809268039591,-1.4918184513251425,-2.971881982780509,-0.19747882511338494,0.08348133013244467,-0.13746126555873403,0.18598978646919972,0.08329089114197762,-0.11741429721212629,-0.4887878596782684,0.3105851411819458,-0.8700058460235596,1.024430513381958,0.2818197309970855,-0.1866263747215271
1749028710.051,5.171541146612941,-1.8891108951109201,1.442052158163364,-5.181440129126906,-1.491649380168657,-2.9721079972058395,-0.19916055153255177,0.08414299462964506,-0.1387882277720804,0.18830033465664733,0.08398457669077837,-0.11787236233642312,-0.4675513803958893,0.3009185194969177,-0.874356210231781,1.0259478092193604,0.2890537083148956,-0.1854817271232605
1749028710.0511873,5.171145049929459,-1.8889441224583399,1.4417765328211865,-5.181065483300407,-1.4914787038901682,-2.9723351897121093,-0.20086231807867105,0.08480113548031692,-0.1401957476897239,0.19067801275237295,0.08470523498433925,-0.11818847743638967,-0.4672765135765075,0.3110019862651825,-0.8682975769042969,1.0356398820877075,0.2849252223968506,-0.1854812204837799
1749028710.0531952,5.170743908450587,-1.888775130670009,1.4414968709816782,-5.18068485580067,-1.4913063570573488,-2.9725638217289068,-0.20258726038134947,0.08545962303949349,-0.141681121021483,0.19307927092145022,0.08545701061367415,-0.11842776262775642,-0.4754944145679474,0.336761325597763,-0.900904655456543,1.0192067623138428,0.2922859489917755,-0.2016908079385757
1749028710.094282,5.170337471103696,-1.8886039501271006,1.4412127373156305,-5.180297913038849,-1.4911322619588558,-2.972794248098036,-0.20433642585094247,0.08612100217053124,-0.1432371333280565,0.1954598996684645,0.08624076534556044,-0.11866263609065883,-0.445804238319397,0.2808927595615387,-0.872738778591156,1.017674684524536,0.2671596109867096,-0.2167065739631652
1749028710.094327,5.16992559558823,-1.888430646165859,1.440923807181398,-5.179904487565907,-1.4909563341284913,-2.973026890052031,-0.20610871033203446,0.08678640289277705,-0.1448524797290805,0.19777866812097605,0.08705399127005632,-0.11896427709584459,-0.4548839032649994,0.3196936845779419,-0.8465034365653992,0.958214521408081,0.2718349099159241,-0.2387962192296981
1749028710.0943685,5.169508243521418,-1.8882553069893866,1.4406298818692538,-5.179504590127461,-1.4907784902236239,-2.973262200571799,-0.20790107306985506,0.08745570269484144,-0.14651248364760489,0.20000067662927562,0.0878912226256634,-0.11939440978785966,-0.4645429253578186,0.2793743312358856,-0.8508193492889404,0.9739772081375122,0.288873553276062,-0.2644701302051544
1749028710.094407,5.169085465734978,-1.8880780317443013,1.4403308951815492,-5.179098408780388,-1.4905986572145307,-2.973500624440167,-0.20970891787790857,0.08812787472809938,-0.14819997844151322,0.20209985966439176,0.08874491590745982,-0.11999855880355996,-0.4447319805622101,0.3018453121185303,-0.851115345954895,0.9276683330535888,0.3049046099185943,-0.2408025562763214
1749028710.0944448,5.1686573841890615,-1.8878989205864434,1.440026913214623,-5.178686296325944,-1.4904167814690272,-2.973742556031706,-0.21152653389516068,0.08880143276412737,-0.14989624810861832,0.20406025762155086,0.08960673181925019,-0.12080167295887956,-0.4315692782402038,0.2958427369594574,-0.8922281861305237,0.9461177587509156,0.312203049659729,-0.2572609484195709
1749028710.0944843,5.168224176804007,-1.8877180681352885,1.4397181292091654,-5.178268748291024,-1.4902328363380661,-2.9739882986438757,-0.21334753941114687,0.08947488423597319,-0.15158198206284054,0.2058759834040776,0.09046909025479818,-0.12180663493674428,-0.4784783720970154,0.3165596127510071,-0.8638783693313599,0.9637762904167176,0.2917163968086242,-0.3062904477119446
1749028710.0945272,5.167786069053135,-1.887535561015636,1.4394048549785519,-5.177846374297677,-1.4900468273256404,-2.974238029734843,-0.2151653227511591,0.09014712494653392,-0.15323824742793934,0.20755012645775292,0.09132675677139884,-0.12299574335726983,-0.4588248133659363,0.3135791420936584,-0.8511313199996948,0.9721696376800536,0.242505744099617,-0.2561732530593872
1749028710.094566,5.167343332498708,-1.8873514791306245,1.4390875097060158,-5.177419865704745,-1.4898587946223336,-2.9744917762903533,-0.216973490340198,0.09081773488226237,-0.15484749606624895,0.20909304634315798,0.0921781007481279,-0.12433481859745978,-0.4707814455032348,0.2889291644096374,-0.841746985912323,0.9796083569526672,0.2585673034191131,-0.2594396471977234
1749028710.0946038,5.166896287234878,-1.8871658992464329,1.4387666058962352,-5.176989961718532,-1.4896688132326048,-2.974749403564855,-0.21876631446594158,0.09148714774497999,-0.15639460257425136,0.21052053243211036,0.09302564334492429,-0.12577919182119443,-0.4372297823429107,0.2850497364997864,-0.8376964330673218,0.9565098285675048,0.2469655275344848,-0.2508761882781982
1749028710.094641,5.166445303582811,-1.886978898903196,1.4384427313892807,-5.176557414917737,-1.4894769909204824,-2.9750106190371812,-0.22053915340499627,0.09215667257958912,-0.15786789387025596,0.2118521515080434,0.09387565686991307,-0.12728055728397913,-0.5247916579246521,0.3337585628032684,-0.8532443642616272,0.9595535397529602,0.2697250247001648,-0.2268232256174087
1749028710.0946815,5.165990798445967,-1.8867905587045812,1.4381165260648052,-5.176122955848698,-1.489283463874216,-2.975274991977936,-0.2222888172743817,0.09282836237256172,-0.15926009694370966,0.21310986721529643,0.09473684978142785,-0.12879356451930393,-0.569908618927002,0.3782775402069092,-0.8516064882278442,0.9496342539787292,0.3120368719100952,-0.2450276166200637
1749028710.09472,5.165533222868518,-1.886600961461457,1.4377886521879844,-5.175687255706364,-1.489088389565199,-2.975541987556117,-0.2240138578322101,0.09350475361411151,-0.16056909738350272,0.21431682531292348,0.09561845026168943,-0.13028111824140684,-0.4581713080406189,0.3224551975727081,-0.8123797178268433,0.9359827041625975,0.3067499697208404,-0.2124718874692917
1749028710.094757,5.165073038971261,-1.8864101873768648,1.4374597579816473,-5.175250886660335,-1.4888919360594055,-2.9758110128817368,-0.22571473976386242,0.09418852382031694,-0.16179836966841185,0.2154961466209981,0.09652816192125248,-0.13171762079343172,-0.4117588996887207,0.2824863493442535,-0.7682364583015442,0.9222952127456664,0.2885012030601501,-0.2020560055971145
1749028710.0947936,5.164610686530482,-1.886218305466991,1.4371304349953238,-5.1748142811505025,-1.4886942674710064,-2.9760814709503784,-0.22739381897408079,0.09488212182417433,-0.16295693736985015,0.21666966501681797,0.09747045196247317,-0.13308979354937078,-0.4843921661376953,0.3624305725097656,-0.8241804838180542,0.9513797163963318,0.2984640896320343,-0.2143314182758331
1749028710.0948305,5.164146542389709,-1.886025362571355,1.4368011716388434,-5.1743776939673936,-1.488495526532869,-2.976352817148311,-0.22905506672520265,0.0955874290876817,-0.16405877590333415,0.21785672080739896,0.09844547210203608,-0.13439518274199996,-0.4741688966751098,0.3484570682048797,-0.8388823866844177,0.9805527329444884,0.285720556974411,-0.234374389052391
1749028710.0948665,5.163680879528629,-1.8858313723889728,1.4364723080262776,-5.173941173437972,-1.488295817055503,-2.9766246116038193,-0.23070355979229126,0.0963055116086159,-0.16512167259687469,0.21907325066578098,0.0994486894694869,-0.13563890165608142,-0.439947247505188,0.2990108430385589,-0.823246955871582,0.9644861817359924,0.2501805424690246,-0.2467116713523864
1749028710.0949028,5.163213835426975,-1.885636307664644,1.4361439999866297,-5.173504549469215,-1.488095190499845,-2.976896559634023,-0.23234485471958705,0.09703650688030885,-0.16616565975305647,0.22033140007020013,0.10047111603072725,-0.13682948842077738,-0.439947247505188,0.2990108430385589,-0.823246955871582,0.9644861817359924,0.2501805424690246,-0.2467116713523864
1749028710.0949397,5.1627453987737875,-1.8854400982873463,1.4358162004372625,-5.1730674446761125,-1.4878936408042025,-2.9771685333556475,-0.23398441196935962,0.09777965677131249,-0.16721119384565616,0.2216397112531201,0.10149994132101839,-0.1379748868682394,-0.4735941290855407,0.2875227332115173,-0.8342646360397339,0.9537482857704164,0.2623082399368286,-0.2649380564689636
1749028710.094976,5.162275418340175,-1.8852426362476251,1.4354886628175434,-5.172629309230266,-1.4876911092578788,-2.9774405713940904,-0.2356272155060273,0.09853346149529194,-0.1682772693054422,0.2230037055860327,0.10251940963935588,-0.13907945321381782,-0.5285799503326416,0.3715704679489136,-0.8567929863929749,0.9492385983467102,0.2905043065547943,-0.2663024067878723
1749028710.095013,5.161803630382447,-1.8850437860312952,1.4351609656320845,-5.1721894727715165,-1.487487497599623,-2.977712859237253,-0.2372776658934054,0.0992959013344355,-0.16937965472510594,0.22442651882294945,0.10351188871628834,-0.14014258356603473,-0.4826443493366241,0.3089104294776916,-0.8283217549324036,0.9441918134689332,0.3072469830513,-0.2491471171379089
1749028710.0951908,5.1613296957444454,-1.884843397688829,1.4348325527926122,-5.1717472023112725,-1.487282684904521,-2.9779856970438914,-0.23893973717541,0.10006465059003994,-0.17052943188802316,0.22590925159236072,0.1044591609486403,-0.14115913167297958,-0.4698567986488342,0.2814428806304931,-0.8280701041221619,0.959164261817932,0.2661251425743103,-0.2393639385700225
1749028710.097113,5.160853237157712,-1.8846413199745804,1.4345027828488999,-5.1713017556081375,-1.4870765435189568,-2.9782594628850747,-0.24061731092261174,0.10083720273865496,-0.1717319927675686,0.22745087848453613,0.10534396336546709,-0.1421213550062326,-0.4921905398368835,0.3287225067615509,-0.8469087481498718,0.9849852919578552,0.2924141883850097,-0.2317419499158859
1749028710.1383123,5.160373869915226,-1.8844374117752736,1.4341709803043825,-5.170852423256419,-1.4868689507499087,-2.978534578152386,-0.2423145623815211,0.10161085642140055,-0.17298660442073904,0.22904784517266058,0.10615171671719625,-0.14302179117844388,-0.5153396129608154,0.3475002348423004,-0.8339248895645142,1.0186883211135864,0.2819668054580688,-0.2079428881406784
1749028710.1383588,5.159891222738504,-1.8842315508303125,1.4338364829224488,-5.170398557100086,-1.486659795014918,-2.9788114795074114,-0.24403627144161763,0.10238257701662568,-0.174286600524386,0.23069372850913036,0.10687227898561538,-0.14385628851373128,-0.5173432230949402,0.3448249697685241,-0.8520985245704651,1.0095995664596558,0.2771643400192261,-0.2050594240427017
1749028710.138404,5.1594049486821,-1.8840236394018812,1.4334986802486638,-5.169939586201024,-1.4864489769767892,-2.9790905989420504,-0.2457879426083671,0.103148814701406,-0.17562021022038973,0.23237938356335383,0.10750148242304097,-0.14462642014418675,-0.4426161050796509,0.2560137510299682,-0.862335741519928,1.032889485359192,0.2374412417411804,-0.1882149875164032
1749028710.1384442,5.158914727899841,-1.8838136070952307,1.4331570406748506,-5.169475023939182,-1.4862364074979515,-2.9793723507914263,-0.24757564244880978,0.10390539289943272,-0.17697198300995534,0.23409379773456965,0.10804218126095289,-0.14534069535419536,-0.4698502123355865,0.326030433177948,-0.8571732640266418,0.9622832536697388,0.2290661633014679,-0.200266808271408
1749028710.1384823,5.158420265268524,-1.8836014114110655,1.432811126865531,-5.1690044707397105,-1.4860220048121873,-2.9796571226609903,-0.24940552221536308,0.1046475748983029,-0.17832470092280675,0.23582551569633436,0.10850456673177043,-0.14601430067366591,-0.5365895628929138,0.3259672522544861,-0.8419650793075562,0.9566171169281006,0.2541293501853943,-0.2094354480504989
1749028710.138522,5.157921286481011,-1.8833870369424064,1.432460601560469,-5.168527616649101,-1.485805693030546,-2.9799452666985355,-0.251283082503659,0.105370379602901,-0.1796615835119458,0.23756418641005905,0.10890561577345427,-0.14666747187333867,-0.5666170120239258,0.3386968970298767,-0.8294181823730469,0.9487215280532836,0.2631709575653076,-0.2332638651132583
1749028710.138564,5.157417536261953,-1.8831704944958363,1.4321052271446757,-5.16804424700204,-1.4855874033002812,-2.980237088313401,-0.2532123041954886,0.10606915108931635,-0.18096850325016337,0.23930168855993056,0.10926770303688088,-0.14732291738017553,-0.4791419506072998,0.2956582307815552,-0.7893535494804382,0.961024522781372,0.2635480761528015,-0.2329340875148773
1749028710.1386025,5.156908781652445,-1.8829518215557226,1.4317448627617777,-5.167554253003642,-1.4853670782161,-2.9805328308887176,-0.2551947741892623,0.10674029968076315,-0.1822358760270356,0.2410324714778344,0.10961655270386256,-0.14800290665678642,-0.5032410025596619,0.2783851027488708,-0.8115324974060059,0.9911942481994628,0.2682664394378662,-0.252199649810791
1749028710.1386406,5.156394821871296,-1.8827310850218153,1.4313794621640228,-5.167057647153146,-1.4851446796518497,-2.9808326569008936,-0.2572289010858551,0.10738205740275343,-0.18345991371577716,0.24275311021992865,0.10997879020606388,-0.1487266697058862,-0.4965984225273132,0.2771465182304382,-0.8298957347869873,1.0183528661727903,0.2704284191131592,-0.2866517901420593
1749028710.1386786,5.155875504472873,-1.882508386038801,1.4310090740785062,-5.166554581172014,-1.4849201996199597,-2.9811366277460576,-0.25930930615955233,0.107995063577604,-0.1846430298955998,0.24446141235141292,0.11037938388822162,-0.1495086285484265,-0.4800701439380646,0.272843986749649,-0.8228398561477661,1.0407902002334597,0.2600452601909637,-0.2574003040790558
1749028710.1387205,5.155350745886579,-1.8822838655027219,1.4306338449356977,-5.1660453620835805,-1.4846936727107414,-2.9814446859120496,-0.26142650583391935,0.10858263042322419,-0.1857933386431448,0.24615554390367908,0.1108392747083543,-0.15035772648157944,-0.5216057300567627,0.2667461037635803,-0.8080199360847473,1.014081358909607,0.2757581174373626,-0.2556589543819427
1749028710.1387613,5.154820553228657,-1.8820577080289216,1.4302540218545103,-5.165530461044153,-1.4844651874920152,-2.981756643546753,-0.26356702565410167,0.10915062312115625,-0.1869233326336937,0.2478335223483464,0.11137348933683103,-0.1512777982994853,-0.5048274993896484,0.2854328155517578,-0.8216969966888428,0.9821579456329346,0.2902407050132751,-0.2350072860717773
1749028710.1388156,5.154285043511259,-1.8818301419976917,1.429869952361144,-5.165010509741225,-1.4842348937390208,-2.9820721810521054,-0.26571404877180055,0.1097069931968192,-0.18804794837465372,0.24949318197240392,0.11199000149411971,-0.1522686313986128,-0.5002256631851196,0.3038036227226257,-0.8404941558837891,0.9622266888618468,0.3036189675331116,-0.229215458035469
1749028710.1388583,5.153744455899355,-1.8816014336846683,1.4294820768797765,-5.164486280571168,-1.4840030028074676,-2.982390858400606,-0.2678486073029415,0.11026108574726724,-0.18918231978388142,0.2511325343479059,0.11268952195152335,-0.15332719932432257,-0.5284120440483093,0.3591336905956268,-0.8476636409759521,1.010257124900818,0.2997225522994995,-0.210057646036148
1749028710.138896,5.153199152611449,-1.881371874411779,1.4290909108238905,-5.163958649252315,-1.4837697794919453,-2.982712140461445,-0.2699512225650526,0.11082286951294484,-0.19033957454104442,0.25275041404157905,0.11346625113839068,-0.1544485567166133,-0.5091692209243774,0.3011470735073089,-0.8350900411605835,1.0050603151321411,0.2910308837890625,-0.211806833744049
1749028710.138933,5.1526496051414545,-1.8811417612039738,1.4286970152329392,-5.16342854188029,-1.4835355249564781,-2.9830354353662907,-0.2720038231524341,0.11140221429281635,-0.19152901715913162,0.25434735559466487,0.11430944818778553,-0.15562606122759284,-0.5529232621192932,0.3293597102165222,-0.8557421565055847,1.0398379564285278,0.3018471002578735,-0.2333953380584716
1749028710.1389697,5.1520963655992915,-1.8809113735132688,1.4283009581957162,-5.162896872359396,-1.4833005518563815,-2.9833601416831295,-0.27399170431871933,0.1120082859864204,-0.19275495827454728,0.25592664537960386,0.11520551158997763,-0.15685087750917384,-0.493340402841568,0.3156407475471496,-0.8649741411209106,0.9948552846908568,0.282694399356842,-0.2185515165328979
1749028710.1390064,5.151540027654858,-1.8806809504487805,1.4279032728128083,-5.162364479586222,-1.4830651545797306,-2.98368569688287,-0.2759052229869256,0.11264907175245799,-0.19401631316881457,0.2574953428879981,0.11614017681157963,-0.15811102678524694,-0.493340402841568,0.3156407475471496,-0.8649741411209106,0.9948552846908568,0.282694399356842,-0.2185515165328979
1749028710.1390436,5.150981184962188,-1.8804506732685822,1.4275044191946564,-5.1618320746181565,-1.4828295788075516,-2.984011618394422,-0.2777408901231117,0.11333100441705822,-0.19530694877896795,0.2590648502018955,0.117100437176178,-0.15939046713349,-0.4258257150650024,0.2601920366287231,-0.8521774411201477,0.9572840929031372,0.3001846373081207,-0.2671018242835998
1749028710.139174,5.150420394329541,-1.8802206559431738,1.4271047567152468,-5.161300205025128,-1.4825939944400968,-2.984337530793405,-0.27950159720779016,0.11405863603081795,-0.19661664691205194,0.26065052779954445,0.11807588749582161,-0.16066874726786498,-0.5391473770141602,0.3329757452011108,-0.8617563843727112,0.9737108945846558,0.3129622340202331,-0.2839675545692444
1749028710.1392453,5.149858147221252,-1.8799909435616367,1.4267045295818872,-5.160769238365391,-1.4823584747407963,-2.9846631771651277,-0.28119590439467707,0.11483431833680859,-0.1979324877504802,0.2622700546425493,0.11905934615788234,-0.1619216509409042,-0.5391473770141602,0.3329757452011108,-0.8617563843727112,0.9737108945846558,0.3129622340202331,-0.2839675545692444
1749028710.182293,5.149294849213605,-1.8797615160498513,1.4263038654473363,-5.160239361806993,-1.4821229832854428,-2.9849884171411003,-0.28283653863521496,0.11565787535637094,-0.1992404389234598,0.26394067129298787,0.12004676436844525,-0.16312298098592443,-0.5033659338951111,0.2956871092319488,-0.8391417264938354,1.0099656581878662,0.3113566040992737,-0.2758969068527221
1749028710.1823382,5.148730803750877,-1.8795322937350674,1.4259027834869216,-5.159710590910746,-1.4818873691739454,-2.985313217404633,-0.2844384021791604,0.1165262841049798,-0.20052695038074736,0.2656759280404596,0.1210365228330436,-0.16424730341125113,-0.4800242185592651,0.2911368310451507,-0.8631191849708557,1.074162244796753,0.285606324672699,-0.2477332949638366
1749028710.1823783,5.1481661947477235,-1.879303141690458,1.4255012057502907,-5.159182778349326,-1.4816513700934333,-2.9856376418036557,-0.2860164425142259,0.11743340499785461,-0.20178038733805445,0.2674828383819245,0.12202824877839903,-0.16527317491227086,-0.5349881052970886,0.2962193787097931,-0.8495891094207764,1.0757802724838257,0.262203961610794,-0.251883715391159
1749028710.1824172,5.147601064696423,-1.879073871730767,1.4250989660335476,-5.1586556156989625,-1.4814146229667902,-2.9859618462829736,-0.2875837027159206,0.11836982870025624,-0.20299216578678242,0.26936023709348295,0.12302131391860949,-0.16618619064524276,-0.5382053256034851,0.3100638389587402,-0.8672998547554016,0.9855576753616332,0.3071199953556061,-0.1936423331499099
1749028710.182456,5.147035291091792,-1.8788442437326391,1.4246958145954964,-5.158128628744604,-1.4811766829948485,-2.986286079035421,-0.2891497820700047,0.11932293218420321,-0.2041574824698583,0.2712986769320996,0.12401324240103538,-0.1669811695937495,-0.5382053256034851,0.3100638389587402,-0.8672998547554016,0.9855576753616332,0.3071199953556061,-0.1936423331499099
1749028710.1824937,5.146468569378391,-1.8786139695369688,1.4242914214069724,-5.157601173814975,-1.4809370522062668,-2.986610681801594,-0.29071982014107123,0.12027725120272818,-0.20527556227210197,0.2732816196430049,0.12499834986945699,-0.16766296048156074,-0.4699916541576385,0.3355443477630615,-0.8742833733558655,0.9881309866905212,0.3149259090423584,-0.2041443884372711
1749028710.1825314,5.14590041053428,-1.8783827216631372,1.4238853817115906,-5.157072444018758,-1.4806952168742369,-2.9869360870638704,-0.29229401876803235,0.12121526207146499,-0.20634938852618445,0.2752873261939457,0.12596697348410998,-0.16824566194458934,-0.5045471787452698,0.3063819408416748,-0.8485538959503174,0.9870948791503906,0.3251790404319763,-0.2281072437763214
1749028710.182569,5.145330157232763,-1.8781501467279313,1.423477226200191,-5.156541490738941,-1.480450690516168,-2.9872628072758154,-0.2938676715872221,0.12211860664497881,-0.2073849325195118,0.2772908842381397,0.1269055682385071,-0.16875041485206083,-0.5512373447418213,0.3185495734214782,-0.8103040456771851,1.0214215517044067,0.2883040010929107,-0.1944615244865417
1749028710.1826067,5.1447570197163355,-1.877915882454864,1.4230664376247193,-5.156007262893344,-1.480203058124141,-2.9875914133251738,-0.29543166551755157,0.12296968418062737,-0.2083899527622647,0.27926608559735167,0.1277977442272224,-0.16920223496664052,-0.5300070643424988,0.2750837206840515,-0.8231946229934692,1.0280592441558838,0.2949954271316528,-0.2691544592380523
1749028710.182644,5.144180132927445,-1.877679578148989,1.4226524772038796,-5.15546866656298,-1.4799520183431365,-2.9879224994257343,-0.2969734037293783,0.12375339824901617,-0.20937249711913414,0.2811871177462544,0.1286260893947057,-0.1696265306295504,-0.5300070643424988,0.2750837206840515,-0.8231946229934692,1.0280592441558838,0.2949954271316528,-0.2691544592380523
1749028710.1826818,5.143598635860039,-1.8774409193924484,1.4222348244678222,-5.15492464667945,-1.4796974213384655,-2.9882566330771883,-0.2984780523076808,0.1244587528842578,-0.2103393105525068,0.28303011211466195,0.1293744603924137,-0.1700459644340972,-0.5294469594955444,0.3250119686126709,-0.8718900680541992,1.016964316368103,0.3146708607673645,-0.2605345845222473
1749028710.1827197,5.143011768274186,-1.8771996564096873,1.4218130302203213,-5.1543742863896265,-1.4794392989890774,-2.9885942935374787,-0.29992996291581875,0.12508000303022335,-0.21129440206780836,0.28477453085344595,0.13003036279460273,-0.17047818422663538,-0.5210897326469421,0.2905530333518982,-0.8697238564491272,0.9801405668258668,0.3100738823413849,-0.2905201613903045
1749028710.1827576,5.142418970589269,-1.8769556325052779,1.4213867755106648,-5.153816910310374,-1.479177881553042,-2.988935808572391,-0.30131410963929517,0.12561717408829026,-0.21223802263741942,0.2864042911100502,0.13058704769760915,-0.17093470560278007,-0.5561650395393372,0.3381592929363251,-0.8494900465011597,0.9839774966239928,0.2997112274169922,-0.2604004442691803
1749028710.1827955,5.14181996581218,-1.8767088062695256,1.420955924167193,-5.153252170973824,-1.4789135936734925,-2.9892813032647836,-0.3026174020431373,0.1260759045932058,-0.21316624249060426,0.28790851594804406,0.1310449924235957,-0.1714209386984061,-0.5561650395393372,0.3381592929363251,-0.8494900465011597,0.9839774966239928,0.2997112274169922,-0.2604004442691803
1749028710.1828456,5.141214802145811,-1.8764592604975194,1.420520555420075,-5.152680097377906,-1.4786470242798462,-2.989630674141464,-0.30382977435990294,0.12646668052348062,-0.21407121110957777,0.2892818788075523,0.1314125092680693,-0.1719371043394925,-0.485268771648407,0.3169653713703155,-0.8367226719856262,1.0452975034713743,0.2546586692333221,-0.2582820653915405
1749028710.1828864,5.140603843066887,-1.8762071929359385,1.4200809673073378,-5.152101091875431,-1.478378869893094,-2.989983596547345,-0.30494498148233173,0.1268036138707551,-0.21494206246007802,0.29052460415469383,0.13170534216248952,-0.17247965659301295,-0.5212944149971008,0.3405644297599792,-0.8302671909332275,1.0186792612075806,0.2682355344295501,-0.2389970123767852
1749028710.1829245,5.139987707306792,-1.8759528893227349,1.4196376504588373,-5.151515875862016,-1.4781098582690686,-2.990339564035551,-0.3059610442403844,0.12710296744994634,-0.21576631160356843,0.29164219553859466,0.13194525779785823,-0.1730428437117001,-0.5747185349464417,0.3660200238227844,-0.883060097694397,1.0064970254898071,0.3089260756969452,-0.2832267582416534
1749028710.1829612,5.139367178145186,-1.8756966856389834,1.419191241809564,-5.150925400598768,-1.477840666385103,-2.990697949007312,-0.3068802770091782,0.12738161784147567,-0.21653150023130782,0.2926448502026197,0.13215780014578168,-0.17362015459612887,-0.5747185349464417,0.3660200238227844,-0.883060097694397,1.0064970254898071,0.3089260756969452,-0.2832267582416534
1749028710.182998,5.13874310933227,-1.875438929849345,1.4187424724349347,-5.1503307477717275,-1.4775718491894057,-2.9910580693421345,-0.30770882257388327,0.12765558298949237,-0.2172268136542394,0.2935464006879648,0.13236952327783905,-0.1742055335896526,-0.4938312768936157,0.3625068366527557,-0.8390713334083557,0.9669662714004515,0.3009537756443023,-0.283737301826477
1749028710.1830351,5.138116348544526,-1.8751799513197795,1.4182921199812941,-5.149733039964683,-1.4773037913100753,-2.9914192488888918,-0.30845566628396326,0.1279386796990653,-0.2178444205135133,0.29436267697133567,0.13260509702480625,-0.17479433472559705,-0.3395791947841644,0.1859857589006424,-0.7727461457252502,0.9769338965415956,0.2603727579116821,-0.2481720000505447
1749028710.1830726,5.1374876847244835,-1.874920040746239,1.4178409680989643,-5.149133369114251,-1.4770366858765385,-2.991780867101557,-0.309131244736283,0.128241377948719,-0.21838036898579613,0.2951094508583108,0.13288467016302943,-0.1753840101271923,-0.4350254535675049,0.2405440509319305,-0.7809633016586304,0.999735951423645,0.2616729736328125,-0.2577622532844543
1749028710.1831918,5.136857814101515,-1.874659438912813,1.4173897695082365,-5.14853274090322,-1.476770537670118,-2.9921423989534763,-0.3097459590699182,0.1285699771497975,-0.2188349903117582,0.29580042872430956,0.13322180997627772,-0.17597451364419056,-0.6391216516494751,0.4105049669742584,-0.8612766265869141,1.0376043319702148,0.3069228529930115,-0.275918573141098
1749028710.185115,5.1362273165578936,-1.8743983309183696,1.4169392086535755,-5.1479320298682465,-1.476505184631094,-2.992503447634895,-0.31030901261546895,0.12892627449531466,-0.21921287616964225,0.2964458455719866,0.1336222615298137,-0.1765683780394044,-0.5656962394714355,0.4132135510444641,-0.8429282903671265,1.003184199333191,0.3335403800010681,-0.2728909850120544
1749028710.2303076,5.1355966371897495,-1.874136843120527,1.41648986281468,-5.147331942260541,-1.4762403317476158,-2.9928637704620527,-0.3108278953853354,0.12930784824316416,-0.21952255233842238,0.2970519862225293,0.13408367739004778,-0.1771704013846622,-0.4676814973354339,0.305412232875824,-0.8499355316162109,0.9624040722846984,0.2906041443347931,-0.2718718945980072
1749028710.2303536,5.134966073512559,-1.8738750418396468,1.4160421647485424,-5.146732988134077,-1.475975592899809,-2.993223295219216,-0.31130856292789133,0.129708921220581,-0.2197759318469726,0.2976215677099357,0.1345963106654727,-0.1777868742698314,-0.5611958503723145,0.3701223731040954,-0.7793091535568237,0.9616906642913818,0.2455090284347534,-0.257234662771225
1749028710.230394,5.134335773888677,-1.8736129348513808,1.415596373611476,-5.146135467946282,-1.4757105378509452,-2.9935821218070813,-0.311756081347166,0.1301215832179224,-0.21998753781132827,0.29815462323425407,0.13514444922171978,-0.1784243329172914,-0.5611958503723145,0.3701223731040954,-0.7793091535568237,0.9616906642913818,0.2455090284347534,-0.257234662771225
1749028710.230433,5.133705753899145,-1.87335047746471,1.4151525616554723,-5.145539478955949,-1.4754447417638672,-2.993940504539997,-0.3121753891371372,0.13053705303073873,-0.22017343238171547,0.2986494835584978,0.1357082081964155,-0.1790879498403958,-0.5207595229148865,0.2983748316764831,-0.7979926466941833,0.9856547713279724,0.2649581134319305,-0.2758874893188476
1749028710.2304711,5.133075931852725,-1.8730875835368408,1.4147106203300623,-5.144944941162852,-1.4751778327207596,-2.994298814787023,-0.3125718669420826,0.13094669617155325,-0.2203498346339801,0.29910360298377203,0.13626531156198637,-0.17977982560738928,-0.4404422044754028,0.2975715398788452,-0.822200357913971,0.9869494438171388,0.2729607820510864,-0.2653858661651611
1749028710.2305093,5.13244617526525,-1.8728241392296872,1.4142702829934661,-5.144351634705364,-1.4749095303893323,-2.994657489949615,-0.3129515297938162,0.1313426403355715,-0.22053153653894342,0.29951417331655755,0.13679268050397772,-0.18049753912256938,-0.4589040875434875,0.2901812791824341,-0.8609263300895691,0.9700552821159364,0.3027710020542145,-0.2888849377632141
1749028710.2305472,5.131816344075061,-1.8725600161291003,1.413831157063566,-5.14375923665721,-1.4746396690332948,-2.9950169789489465,-0.3133208089300078,0.1317179876982009,-0.22073035176369962,0.29987860757021617,0.13726787553606046,-0.1812332956121606,-0.5296012163162231,0.3419825434684753,-0.8594267964363098,0.9705322980880736,0.3098595738410949,-0.305946409702301
1749028710.230584,5.13118631765112,-1.8722950815312907,1.4133927585287405,-5.143167347709945,-1.474368201459907,-2.9953776942299153,-0.3136860385390376,0.1320667577889827,-0.2209538791135952,0.30019503011103293,0.13767055414771637,-0.18197388846562643,-0.502872884273529,0.2940215170383453,-0.8321115374565125,1.000194072723389,0.2974331974983215,-0.2798530161380768
1749028710.230621,5.130555999696969,-1.872029206122069,1.4129545450750889,-5.1425755060367555,-1.4740951855412587,-2.9957399767567856,-0.3140528504134581,0.1323837504454567,-0.22120480958509095,0.30046288308495334,0.13798403495779177,-0.18270151285713268,-0.520169734954834,0.3074404001235962,-0.8159540295600891,1.0280451774597168,0.2710662484169006,-0.294240266084671
1749028710.230658,5.129925304467678,-1.8717622714374815,1.4125159484239056,-5.141983193372836,-1.4738207593494812,-2.9961040754608255,-0.31442566549476086,0.13266447281833843,-0.22148089272869603,0.30068364387440466,0.13819685915886323,-0.18339529377359512,-0.5105613470077515,0.2420067936182022,-0.8434579372406006,0.947111964225769,0.2495065033435821,-0.2828183174133301
1749028710.2306948,5.129294135853027,-1.8714941803577774,1.4120764097420366,-5.141389844247479,-1.4735451132582489,-2.9964701377477927,-0.3148073831083839,0.132905173557453,-0.22177556275365692,0.3008614535174394,0.13830405189667508,-0.1840332650812306,-0.5105613470077515,0.2420067936182022,-0.8434579372406006,0.947111964225769,0.2495065033435821,-0.2828183174133301
1749028710.2307324,5.128662373598629,-1.8712248725658869,1.4116354217591858,-5.140794870006496,-1.4732684667064413,-2.996838205326251,-0.31519926869343007,0.13310294295402458,-0.22207913774026536,0.301003266334036,0.13830773797973767,-0.18459448617170143,-0.5234698057174683,0.327255517244339,-0.8579548597335815,0.9340442419052124,0.2368276715278625,-0.2861785888671875
1749028710.2307694,5.12802987566719,-1.8709543434671354,1.4111925763694497,-5.140197702734165,-1.4729910536735316,-2.9972082116845895,-0.31560096629677953,0.13325580655659172,-0.22238043704430618,0.30111810791948523,0.13821689151007205,-0.18506100938486197,-0.4888785481452942,0.3187537491321563,-0.8388876914978027,0.9439653754234314,0.2630802989006042,-0.2626208961009979
1749028710.2308068,5.12739649584042,-1.8706826615556995,1.4107476098807705,-5.139597853725481,-1.472713116149021,-2.9975799824449028,-0.31601052923020767,0.13336275589554838,-0.22266859595017524,0.3012152838210879,0.13804622820014517,-0.18541948987649567,-0.5276928544044495,0.3014962077140808,-0.8440629243850708,0.9969202280044556,0.2713133096694946,-0.2817121148109436
1749028710.2308445,5.1267621083115005,-1.8704099782261818,1.4103004348266936,-5.138994973726419,-1.4724349017391813,-2.997953243151522,-0.31642438834057973,0.13342370006738624,-0.22293480501971352,0.3013018443115725,0.13781446425677932,-0.18566232346544323,-0.498201310634613,0.2449824959039688,-0.834632933139801,1.0567936897277832,0.2524216473102569,-0.263533741235733
1749028710.2308826,5.126126630078558,-1.8701365261254719,1.40985114960431,-5.138388901554166,-1.4721566610986287,-2.998327638178815,-0.31683725606639285,0.13343936296575304,-0.22317369744705884,0.30138004485933273,0.13754227769630556,-0.18578827652675095,-0.5118491053581238,0.301854133605957,-0.8427608013153076,1.056652307510376,0.2804238796234131,-0.2768116593360901
1749028710.23092,5.125490035833685,-1.8698626057135996,1.4094000232753414,-5.137779692344358,-1.4718786422187664,-2.9987027604393273,-0.3172420469485123,0.13341117680140388,-0.22338416398237743,0.30144569048885145,0.13725030599976054,-0.1858026175686736,-0.4253889620304107,0.2349232584238052,-0.8141398429870605,1.0231331586837769,0.2755919098854065,-0.2343550026416778
1749028710.2309608,5.124852365620563,-1.8695885631206455,1.40894745988335,-5.137167623367794,-1.4716010808470135,-2.9990781869010665,-0.31762993280656826,0.13334122280883387,-0.22356946738612063,0.3014880058258513,0.13695744436737153,-0.18571677212336357,-0.4817802309989929,0.2449124157428741,-0.819560706615448,0.980068862438202,0.2750963568687439,-0.2629551291465759
1749028710.2309988,5.12421373015795,-1.8693147648521875,1.4084939523681455,-5.1365531814831655,-1.471324188872457,-2.99945351173908,-0.31799064019028633,0.13323224196303732,-0.22373662588976592,0.3014911530891306,0.13667961312448687,-0.1855475172100491,-0.4817802309989929,0.2449124157428741,-0.819560706615448,0.980068862438202,0.2750963568687439,-0.2629551291465759
1749028710.2310364,5.12357431931089,-1.8690415754080214,1.4080400379826103,-5.135937038825856,-1.471048143954026,-2.999828369336472,-0.3183130598358739,0.1330876958303887,-0.22389513161816152,0.3014370052370235,0.13642905379804462,-0.18531573209117808,-0.5500166416168213,0.2749310135841369,-0.8221150040626526,0.9949820637702942,0.2836049497127533,-0.2445454746484756
1749028710.2310734,5.122934414176846,-1.8687693414829651,1.407586263448171,-5.135320020524806,-1.4707730824941347,-3.000202444075942,-0.3185861750903349,0.13291182393009154,-0.22405517304658715,0.30130850490414746,0.13621409911516066,-0.1850447467781262,-0.4692471027374267,0.2458067387342453,-0.842341959476471,1.0120251178741455,0.2669324576854706,-0.2299503087997436
1749028710.2311225,5.1222943963650165,-1.8684983823197954,1.407133161388485,-5.134703063255069,-1.470499095290651,-3.0005754700640863,-0.318800225343941,0.13270963445034634,-0.2242256315318917,0.301092941416005,0.13603926877165165,-0.1847583829663867,-0.4567992687225342,0.2357089817523956,-0.852580726146698,1.0286245346069336,0.2563572525978088,-0.2568595111370086
