nimar13/UR3e_dataset_trayectorias/trayectorias_ejecutadas_filtradas/jtraj/trayectoria_172_result_filtrado.csv
timestamp,q1,q2,q3,q4,q5,q6,qd1,qd2,qd3,qd4,qd5,qd6,tau1,tau2,tau3,tau4,tau5,tau6
1749030023.3182988,-5.529103465097573,-0.5838121950619117,-0.6912622704803902,4.876906003815719,-2.142355650568498,-3.758138498261652,-0.01498983901991423,-3.6930524602706234e-06,-0.0015510808080412112,0.01144370479625334,-0.010602468878263304,-0.009354266699371843,-0.1871252506971359,-1.2469512224197388,-0.6502225995063782,-0.3682505190372467,-0.2899969518184662,-0.0990191847085952
1749030023.318346,-5.52912374831376,-0.5838214129476985,-0.6912615123264134,4.8769140302742935,-2.1423631163827164,-3.758145422285885,-0.012519968052801924,-0.00026532749593049826,-0.001280150476356353,0.00948082127232585,-0.008822135457844866,-0.007734798911989013,-0.1602598279714584,-1.2702971696853638,-0.6320555210113525,-0.3724372982978821,-0.3119642734527588,-0.0738106817007064
1749030023.3183856,-5.529143294343293,-0.5838302272889158,-0.691260682680018,4.876921784948011,-2.1423702430152054,-3.758152080772819,-0.01009056669282365,-0.0005182807199937029,-0.001010017129632266,0.007571662791149165,-0.007087883522500131,-0.0061567694945061585,-0.1512325555086136,-1.2311502695083618,-0.6140733361244202,-0.3938078582286834,-0.2875812649726867,-0.0648709684610366
1749030023.3184369,-5.529161238149406,-0.5838382951559641,-0.6912596993247259,4.876928927424278,-2.1423766085000677,-3.7581581347044133,-0.007740007166030476,-0.0007552440119906902,-0.0007402599529019435,0.005763851544627722,-0.005443975184193402,-0.004657967956205414,-0.1327937394380569,-1.2499958276748655,-0.6095583438873291,-0.4129026234149933,-0.2695316672325134,-0.0628495216369628
1749030023.3184822,-5.529176819515648,-0.5838453377802362,-0.6912584845608447,4.876935167972158,-2.1423818527574396,-3.7581632872892117,-0.005504164567955193,-0.000969920673247403,-0.0004707677154340339,0.004099084091059767,-0.003928402994630923,-0.0032709533289783646,-0.1236007660627365,-1.2537785768508911,-0.5853906273841858,-0.4198823571205139,-0.2666771411895752,-0.0672833919525146
1749030023.3185208,-5.529189427327137,-0.5838511635620577,-0.6912569705740599,4.8769402884254305,-2.1423857035499427,-3.758167302221626,-0.0034152443271359572,-0.001157326837439433,-0.00020204826969484334,0.002610865602691713,-0.0025706653318445954,-0.002021311755670237,-0.1087567657232284,-1.2840021848678589,-0.567404568195343,-0.443495899438858,-0.2652907073497772,-0.0540218353271484
1749030023.3185575,-5.529198628445942,-0.5838556809934009,-0.6912551051372634,4.876944153215446,-2.1423879888024904,-3.7581700154020843,-0.0015005560676530092,-0.0013139468793465323,6.452886063232118e-05,0.0013228248073522885,-0.0013905044579948594,-0.0009267116271164767,-0.103575974702835,-1.280352234840393,-0.5517253875732422,-0.4367846846580505,-0.2485090494155883,-0.0418958663940429
1749030023.3185945,-5.529204180592788,-0.5838589012983139,-0.6912528571857054,4.876946709906678,-2.1423886370875205,-3.7581713401965557,0.00021860312838861072,-0.001437768098503455,0.00032659848846150567,0.0002477612108541485,-0.00039765251961415674,3.2606012749844707e-06,-0.1355919390916824,-1.3141990900039673,-0.5418470501899719,-0.4574454724788666,-0.2399859726428985,-0.0383748561143875
1749030023.318632,-5.5292060305564785,-0.5838609317777657,-0.6912502217134925,4.876947980505259,-2.1423876697156983,-3.758171266836477,0.0017277639553857714,-0.001528240728975494,0.000580807240983337,-0.0006124895150671505,0.00040751961453752066,0.0007666235598099389,-0.1112013012170791,-1.3248600959777832,-0.5316832065582275,-0.4633089900016784,-0.2321712225675583,-0.0282637625932693
1749030023.31867,-5.529204300095975,-0.5838619611299419,-0.6912472233948213,4.876948046343428,-2.1423851878804627,-3.7581698567384665,0.0030196390786554205,-0.00158620382643116,0.0008229752076237192,-0.0012663718323246364,0.001032665022762953,0.0013680881573253617,-0.0923280268907547,-1.3466501235961914,-0.5283862352371216,-0.4706073403358459,-0.2108352184295654,-0.0338665693998336
1749030023.3187084,-5.529199262201693,-0.5838622380004624,-0.6912439182251944,4.876947030090102,-2.142381357388037,-3.758167232704809,0.0040939377939783845,-0.001613790334415003,0.0010483953565499872,-0.0017311928526208948,0.0014917053852665154,0.0018179176382311917,-0.0526425689458847,-1.3201440572738647,-0.5479645133018494,-0.4779055118560791,-0.1980509608983993,-0.0049469172954559
1749030023.3187468,-5.529191310368899,-0.5838620445840603,-0.6912403924687129,4.8769450782620085,-2.1423763924763533,-3.7581635662777315,0.004956671134765372,-0.0016142919856076273,0.001252222580696567,-0.0020311244599806383,0.0018029311472437983,0.002130721534604571,-0.0361485928297042,-1.3192023038864136,-0.5422624945640564,-0.5002564191818237,-0.1839601993560791,-0.0148581713438034
1749030023.3187842,-5.529180923530137,-0.5838616682499517,-0.691236758508897,4.876942346665196,-2.142370539611745,-3.7581590637686735,0.005619076682569104,-0.0015919476325118363,0.0014298810496170251,-0.0021948274006674596,0.001987186034282104,0.002324266854258731,-0.0566330403089523,-1.348326325416565,-0.554509699344635,-0.4949709475040436,-0.2076222449541092,-0.0207277983427047
1749030023.3188276,-5.529168629335491,-0.5838613748157203,-0.6912331477258137,4.8769389898998705,-2.1423640619291753,-3.758153952403404,0.006096342177674364,-0.001551630230424661,0.0015774173938642873,-0.0022529296209534587,0.0020662864770369838,0.0024183169669465647,-0.0609258413314819,-1.3489423990249634,-0.5208595991134644,-0.5119611024856567,-0.2123846262693405,-0.0071183890104293
1749030023.3188815,-5.529154968455012,-0.5838613864781237,-0.691229700985083,4.876935154908246,-2.142357224780973,-3.7581484675827586,0.006406296393635409,-0.0014984427955617434,0.0016917534464312278,-0.002235600533835438,0.0020617413535694226,0.002433478027444569,-0.0754957646131515,-1.3699806928634644,-0.5146642923355103,-0.4984299540519714,-0.1878992766141891,0.0014629513025283
1749030023.3189228,-5.52914046240325,-0.5838618660468766,-0.6912265576628911,4.876930977805827,-2.1423502825438403,-3.7581428416409914,0.006568192170805453,-0.0014372726827960834,0.0017708343165900669,-0.002170446944055298,0.001993774768581245,0.0023900568998542083,-0.0392690449953079,-1.350405216217041,-0.5194196105003357,-0.5250995755195618,-0.1793569922447204,0.0162747055292129
1749030023.318961,-5.529125586975639,-0.5838629079517491,-0.6912238444208773,4.876926582886787,-2.1423434667067327,-3.7581372938981774,0.00660166508123578,-0.0013723773468558458,0.0018137033405491582,-0.002080911725714177,0.001880627683608651,0.0023069871051204726,-0.0227388143539428,-1.377651572227478,-0.5068799257278442,-0.5193841457366943,-0.1977817863225937,0.0163276344537735
1749030023.3189986,-5.529110752738771,-0.5838645357555177,-0.6912216651080829,4.876922082656705,-2.142336975613746,-3.758132021471917,0.006525921967821191,-0.001307075190582614,0.0018205472975207832,-0.0019852859470363563,0.0017381135435297684,0.002200918063408106,-0.0349633395671844,-1.380088448524475,-0.5222978591918945,-0.529771625995636,-0.180916354060173,0.0028597861528396
1749030023.3190355,-5.529096293263626,-0.5838667054522517,-0.6912200930275434,4.876917577988165,-2.142330966829803,-3.758127190467952,0.00635918427514184,-0.001243594265478625,0.0017927393522140238,-0.0018963595155976893,0.0015794081092162893,0.002085562752458413,-0.0317122638225555,-1.3786225318908691,-0.513254702091217,-0.5326659083366394,-0.1729007065296173,0.0076490193605422
1749030023.3190727,-5.529082461087395,-0.5838693136670886,-0.691219166330899,4.876913157892504,-2.142325553291602,-3.7581229277901076,0.006118374389817273,-0.0011830961059426533,0.001732874077070937,-0.001821651278662268,0.001415050358406783,0.0019713618797933177,-0.0444186329841613,-1.3683379888534546,-0.5261873006820679,-0.5309913754463196,-0.181882232427597,0.0089588314294815
1749030023.319228,-5.5290694307576995,-0.5838722099652631,-0.6912188866702642,4.876908898777855,-2.142320803861904,-3.758119314488291,0.00581900018450209,-0.0011258509794885127,0.001644758548956606,-0.0017640946005103534,0.0012531191883291691,0.0018654678193429923,-0.0194413065910339,-1.365224003791809,-0.5358067750930786,-0.5358070135116577,-0.1763576567173004,0.0042822510004043
1749030023.3211582,-5.529057307698263,-0.5838752125468631,-0.6912192206883716,4.876904863351463,-2.1423167479580867,-3.7581163818411887,0.005475177058623777,-0.0010715071218960208,0.0015333141323369784,-0.0017230194238236614,0.0010995379731026623,0.001772001498356521,-0.0211743116378784,-1.3545798063278198,-0.5097965002059937,-0.5407774448394775,-0.1720809042453766,0.0102907866239547
1749030023.362307,-5.529046141039961,-0.583878126456274,-0.6912201036051103,4.876901099508226,-2.14231338312872,-3.758114111152834,0.005099726171673402,-0.0010193829371387584,0.0014043599792716184,-0.0016952660153190398,0.0009584530853960824,0.0016925055919911865,-0.0644845962524414,-1.3609675168991089,-0.5127044916152954,-0.5423794388771057,-0.1826256066560745,0.0052986294031143
1749030023.3623538,-5.529035938094415,-0.5838807631773142,-0.6912214440568306,4.876897639584931,-2.142310683995295,-3.758112437737274,0.004704291830925871,-0.0009687216282426963,0.0012642812019034162,-0.0016762811646198735,0.0008326347175635196,0.0016265104357800998,-0.0498364269733428,-1.3507059812545776,-0.5079984664916992,-0.5450447797775269,-0.1866810917854309,0.0103193670511245
1749030023.3623965,-5.529026678018057,-0.583882960236371,-0.6912231294441279,4.876894500279576,-2.142308610773702,-3.7581112589699535,0.004299427663121508,-0.0009188736304464305,0.0011196162537162335,-0.001661076655753326,0.0007238556634818917,0.0015721367516146419,-0.0568824410438537,-1.3420194387435913,-0.5024686455726624,-0.5380057692527771,-0.1785536259412765,0.0036704093217849
1749030023.3624349,-5.529018322665515,-0.583884599097831,-0.6912250313482837,4.876891683431194,-2.142307115733461,-3.7581104457236987,0.0038946162936115388,-0.0008693992515245551,0.000976618180876416,-0.001644966723952427,0.0006332122779226765,0.0015266702717521281,-0.0324087142944335,-1.3492997884750366,-0.5076378583908081,-0.5478110313415527,-0.1920685172080993,-0.0090764909982681
1749030023.3624735,-5.52901082375021,-0.583885619164553,-0.6912270109851164,4.8768891777530134,-2.142306146673076,-3.7581098561194963,0.003498212256294249,-0.0008201021285969347,0.0008408494634033577,-0.001624040822079938,0.0005613597097732856,0.0014870514421716694,-0.0168817341327667,-1.3419281244277954,-0.5019730925559998,-0.5327563881874084,-0.180543452501297,-0.0041881203651428
1749030023.362512,-5.5290041268725885,-0.583886025421503,-0.6912289249622214,4.87688696150131,-2.142305647625914,-3.758109350333973,0.0031173240727836978,-0.0007710116335904043,0.0007168614792030559,-0.0015953653848306483,0.0005086414929511842,0.0014502308114146443,-0.0525687932968139,-1.352691888809204,-0.5122431516647339,-0.5428680777549744,-0.1856787502765655,0.0027577877044677
1749030023.3625498,-5.528998173986683,-0.5838858876665889,-0.6912306316585609,4.876885005989317,-2.142305557979703,-3.758108805048091,0.0027576683166040893,-0.0007223325533809979,0.0006079912738697246,-0.0015569407567709742,0.0004751037045622477,0.0014133549719154866,-0.0416746735572814,-1.3427006006240845,-0.5058183670043945,-0.523326575756073,-0.2147790789604187,-0.0029631853103637
1749030023.3625877,-5.528992905907664,-0.5838853305125756,-0.691231998389944,4.876883279845409,-2.142305811574089,-3.7581081259426057,0.002423432813492223,-0.000674377337606041,0.0005162862386182245,-0.0015074673555571002,0.0004603971088943818,0.0013737748234976888,-0.044941246509552,-1.3381953239440918,-0.5035830736160278,-0.5456932783126831,-0.1982079744338989,-0.0032696425914764
1749030023.3626251,-5.528988265687309,-0.5838845151253522,-0.6912329092369344,4.876881753900194,-2.142306337095997,-3.758107256722793,0.002117181778985809,-0.0006274925937733349,0.0004425474850536465,-0.001445998806751456,0.0004635858647914244,0.0013289052902393328,-0.052727848291397,-1.3406943082809448,-0.4873051643371582,-0.540486752986908,-0.1802931874990463,-0.0176316499710083
1749030023.3626626,-5.528984202688462,-0.5838836154501645,-0.6912332730472799,4.876880406469492,-2.1423070603535246,-3.758106183699111,0.0018398278311976101,-0.0005819885122124615,0.0003864688377466683,-0.0013715765587893364,0.0004828962165994921,0.0012760030097421643,-0.0415410697460174,-1.3235427141189575,-0.5053308010101318,-0.5328889489173889,-0.1889037638902664,-0.0124275833368301
1749030023.3627036,-5.528980676454238,-0.5838827928784337,-0.691233030790165,4.876879228518358,-2.1423079080718215,-3.7581049357047407,0.0015906873251744574,-0.0005380777670020052,0.0003468410164379456,-0.0012829453852645177,0.0005154510494297934,0.00121195400495819,-0.0669732168316841,-1.3146122694015503,-0.4905198514461517,-0.5291145443916321,-0.1939313858747482,-0.0047039091587066
1749030023.3627412,-5.528977659230057,-0.5838821735415924,-0.6912321612766817,4.876878227756753,-2.1423088121979617,-3.7581035796317748,0.0013676269904036114,-0.0004958288177894708,0.0003217884855085699,-0.0011784385610066415,0.0005570448362311553,0.0011331704250744292,-0.0388895645737648,-1.3180183172225952,-0.5134333372116089,-0.5319912433624268,-0.1864746958017349,-0.0038744509220123
1749030023.362778,-5.5289751362597,-0.5838818317237531,-0.691230684306449,4.876877430322973,-2.142309713684246,-3.7581022119925067,0.0011673013523833614,-0.00045513698896231257,0.00030900821648545965,-0.0010560960680389428,0.0006020173101562208,0.0010356837158717986,-0.0900799855589866,-1.3120836019515991,-0.4969473779201507,-0.5320820808410645,-0.1931805610656738,0.0018486827611923
1749030023.362815,-5.528973103550371,-0.5838817815771675,-0.6912286604864979,4.876876878752083,-2.1423105652609205,-3.7581009470139337,0.000985472251268518,-0.00041571513120667816,0.00030598440313097747,-0.0009140436359977435,0.0006432823243348979,0.0009154937323507373,-0.0837797001004219,-1.3226107358932495,-0.4982049763202667,-0.5446019172668457,-0.1974834501743316,-0.0067858099937438
1749030023.3628516,-5.528971563465305,-0.5838819778054101,-0.6912261873006881,4.876876625665143,-2.142311333367115,-3.7580999022399917,0.0008173949219217657,-0.0003771043255128302,0.0003101603199831292,-0.0007511204953650923,0.0006725601736539505,0.0007691934587609597,-0.0760652646422386,-1.3092576265335083,-0.5060964822769165,-0.5304534435272217,-0.2164064645767212,0.0064226984977722
1749030023.3628893,-5.528970519088325,-0.5838823246660794,-0.6912233915672249,4.876876723792952,-2.1423119997646545,-3.7580991833629227,0.0006582504408249938,-0.00033870422369153535,0.0003190569714011805,-0.0005677040205968613,0.0006808468370996855,0.0005948427178115409,-0.0564383342862129,-1.3043442964553833,-0.5015021562576294,-0.5382688045501709,-0.2035639882087707,0.0020458102226257
1749030023.3629255,-5.5289699686636595,-0.5838826917020616,-0.6912204191232362,4.876877213940971,-2.142312563280143,-3.758098870518275,0.0005036015226694125,-0.0002998222006145965,0.0003303365792720668,-0.00036664344438529613,0.0006591323242232001,0.0003930177937112887,-0.0977587327361106,-1.2967970371246338,-0.5044962763786316,-0.5359948873519897,-0.2239139974117279,-0.0106311589479446
1749030023.3629622,-5.528969901424639,-0.583882933885596,-0.6912174231073847,4.8768781128490275,-2.142313041687921,-3.7580990080622154,0.00034984601238952545,-0.00025974028421449683,0.0003418162413137109,-0.00015418576083506754,0.0005993533714913194,0.00016792286691447522,-0.0816681459546089,-1.2821040153503418,-0.5080642700195312,-0.5247709155082703,-0.2299137264490127,-0.0081284046173095
1749030023.3629992,-5.52897029572253,-0.5838829133554762,-0.6912145523228201,4.876879402574283,-2.1423134731278743,-3.758099598801311,0.00019463879196961458,-0.0002177987778813973,0.00035144285749397203,5.924196610684267e-05,0.0004955346692777165,-7.158196851418201e-05,-0.0942983403801918,-1.295870304107666,-0.5267009139060974,-0.5225396156311035,-0.2350697219371795,-0.0207315385341644
1749030023.363036,-5.528971119603131,-0.5838825198916916,-0.6912119409176088,4.87688102233232,-2.1423139158883253,-3.758100602214968,3.724943383812848e-05,-0.00017349575163617273,0.00035724465136625184,0.0002585354626285611,0.00034503994335079174,-0.0003111988853104273,-0.0928389504551887,-1.2634437084197998,-0.5500974059104919,-0.5346661806106567,-0.2391290664672851,-0.0153355300426483
1749030023.3631709,-5.528972333109811,-0.5838816876285228,-0.691209700292968,4.876882863084392,-2.1423144451219556,-3.758101935176142,-0.00012117700576487925,-0.00012660179303051165,0.00035727719255791853,0.00042383319006219675,0.00014982268729442984,-0.0005308203376842654,-0.0590734481811523,-1.2635492086410522,-0.5641410946846008,-0.5134989619255066,-0.2585789561271667,-0.0235651135444641
1749030023.3651142,-5.5289738910190405,-0.5838804058901764,-0.691207913880376,4.876884764873115,-2.142315145227572,-3.7581034735274295,-0.00027748281878943486,-7.728830764883662e-05,0.0003495824631854228,0.0005309587645339641,-8.24600558183755e-05,-0.0007047122975085875,-0.0842985659837722,-1.251522183418274,-0.5577827095985413,-0.5305062532424927,-0.2365572303533554,-0.0181581079959869
1749030023.4062755,-5.528975744746845,-0.5838787225306233,-0.6912066350864919,4.876886517012963,-2.142316097236971,-3.758105053494705,-0.0004265004612381363,-2.6264054641573277e-05,0.0003321779785930819,0.0005524476747188589,-0.0003376245067802515,-0.000802359421429403,-0.0772752165794372,-1.2561570405960083,-0.5808895230293274,-0.5212060809135437,-0.2510717809200287,-0.018337070941925
1749030023.4063208,-5.528977842767988,-0.5838767392604904,-0.6912058881869315,4.876887861442593,-2.1423173615545466,-3.7581064728789437,-0.0005612009460125893,2.5091286092195677e-05,0.0003030892579782468,0.0004591609921796203,-0.0005945847671500727,-0.0007900199914465233,-0.0695054531097412,-1.2646799087524414,-0.581665575504303,-0.5338318347930908,-0.2551230788230896,-0.0067710578441619
1749030023.40636,-5.528980129638224,-0.5838746000790862,-0.6912056714389987,4.8768884994737505,-2.1423189576253074,-3.758107492813831,-0.0006729855644383125,7.461422445060822e-05,0.0002604332603291525,0.00022241760100523314,-0.0008255693096932136,-0.0006329617310984263,-0.0707671791315078,-1.246515154838562,-0.6009485721588135,-0.540837824344635,-0.2654722929000854,-0.0155214965343475
1749030023.406398,-5.528982544134884,-0.5838724752558375,-0.6912059614322211,4.876888101779099,-2.1423208431939234,-3.758107841281891,-0.0007521129345743757,0.00011928795383227525,0.00020255322701214648,-0.00018350080657230278,-0.0009970417616241513,-0.00029825986784639473,-0.0596570819616317,-1.2690855264663696,-0.6059768795967102,-0.5650249719619751,-0.2477816790342331,-0.0171316564083099
1749030023.4064353,-5.52898501708897,-0.5838705436434979,-0.6912067177251028,4.876886321069306,-2.142322896424295,-3.758107219455733,-0.0007882464314307749,0.00015524066961053194,0.00012819724203117248,-0.0007786925564746184,-0.0010713875885230645,0.0002420560592407943,-0.0596570819616317,-1.2690855264663696,-0.6059768795967102,-0.5650249719619751,-0.2477816790342331,-0.0171316564083099
1749030023.4064724,-5.528987469514873,-0.5838689756242768,-0.6912078869935884,4.876882806745427,-2.142324904133778,-3.75810531144484,-0.0007710979731584051,0.00017783360772303906,3.6724097428506814e-05,-0.0015751083906587239,-0.0010093585069445648,0.0010078091030188978,-0.0492412447929382,-1.2760635614395142,-0.6126167178153992,-0.5664452314376831,-0.2346795499324798,0.0023555159568786
1749030023.4065104,-5.52898981184338,-0.5838679183184243,-0.691209406198526,4.876877220742555,-2.1423265587900344,-3.758101797391544,-0.0006911356074107555,0.0001818536273182294,-7.168867983012891e-05,-0.0025744689218389206,-0.0007731794988564431,0.0020078067569101674,-0.0498591363430023,-1.2973722219467163,-0.6311082243919373,-0.600578784942627,-0.2084073722362518,0.015725702047348
1749030023.4065485,-5.52899194515088,-0.5838674841977909,-0.6912112047375915,4.876869253636922,-2.1423274658739357,-3.7580963691882094,-0.0005403162301062055,0.00016181397918255063,-0.00019586699651379108,-0.003766933777270391,-0.0003301241232174454,0.003237700398972993,-0.0429534316062927,-1.2895957231521606,-0.6324054002761841,-0.6183030605316162,-0.2011732161045074,0.0569722801446914
1749030023.4065907,-5.52899376482901,-0.5838677439157935,-0.6912132061353803,4.8768586399507035,-2.1423271619528546,-3.758088747514956,-0.0003127985785625457,0.00011235253933077404,-0.0003335282682035322,-0.00513076630776752,0.0003437384285895742,0.004678950076138924,-0.0282317698001861,-1.3043094873428345,-0.6415742635726929,-0.6094814538955688,-0.1676468402147293,0.0683783143758773
1749030023.40663,-5.528995166147773,-0.5838687238386623,-0.6912153302167252,4.876845171601647,-2.1423251425173877,-3.758078698586786,-5.58204426213839e-06,2.8700651537079865e-05,-0.000481268200748981,-0.006633124055395879,0.0012600130617721032,0.006299175190109447,-0.0324727296829223,-1.338459610939026,-0.64829021692276,-0.6245642304420471,-0.1661802977323532,0.0526327490806579
1749030023.406668,-5.5289960501192725,-0.583870408333799,-0.6912174965364444,4.876828708605384,-2.142320897408239,-3.7580660489589075,0.0003809943054567261,-9.282027929620264e-05,-0.0006346678246389206,-0.008231963548518727,0.0024151186215891525,0.00805400115828067,-0.0099570006132125,-1.339725136756897,-0.6572892665863037,-0.6266189813613892,-0.1372725516557693,0.0750200003385543
1749030023.4067056,-5.5289963275559115,-0.5838727463211266,-0.6912196291252635,4.876809186355892,-2.1423139505794824,-3.758050696800136,0.0008429633073069605,-0.0002543307453100607,-0.000788522024173547,-0.009878911083298204,0.003788569185301997,0.009890295271999814,-0.0051399022340774,-1.3684712648391724,-0.6382548213005066,-0.6417453289031982,-0.0976379588246345,0.0724935084581375
1749030023.406743,-5.528995919636307,-0.5838756610694241,-0.6912216618080758,4.876786618979692,-2.142303900126577,-3.7580326180829386,0.001372713540248579,-0.0004560179128846011,-0.0009371654253538598,-0.011522843290440257,0.005342818376829412,0.011750472941462593,0.0150543078780174,-1.357524275779724,-0.6474160552024841,-0.6554504036903381,-0.085003450512886,0.0936573445796966
1749030023.4067843,-5.528994754657855,-0.5838790619323398,-0.6912235429274983,4.87676109825683,-2.1422904541047605,-3.758011866236205,0.001959279181014347,-0.0006959166155236695,-0.0010748518976985604,-0.013113850482572291,0.007024952690790647,0.013577397893073629,0.0164273604750633,-1.40274178981781,-0.6446754932403564,-0.6738941073417664,-0.0554746240377426,0.0869921743869781
1749030023.406823,-5.528992762336856,-0.5838828566708735,-0.6912252384022031,4.876732787448501,-2.1422734578244835,-3.7579885641935693,0.002588925913893621,-0.0009698965677258801,-0.0011961417560913657,-0.01460721717499158,0.00877029379393143,0.015319319609013707,0.0241353139281272,-1.4174494743347168,-0.6511741280555725,-0.6867023706436157,-0.0446881055831909,0.1146686896681785
1749030023.406861,-5.52898986805319,-0.5838869630208842,-0.6912267325216426,4.876701909417395,-2.1422529090902365,-3.7579628886211602,0.0032459755433591336,-0.0012718768089668583,-0.0012962667848404146,-0.015967038703594078,0.010507676916996347,0.01693428353687805,0.0367514267563819,-1.4042218923568726,-0.6734134554862976,-0.6764969825744629,-0.0262626707553863,0.0880859643220901
1749030023.406898,-5.528985989384485,-0.5838913181764076,-0.6912280265130762,4.876668729067594,-2.142228959138879,-3.757935047361485,0.003913778823988336,-0.001594245516716889,-0.001371464379306979,-0.01716910034714955,0.01216587053109935,0.018393501920137018,0.0337741151452064,-1.4152082204818726,-0.6784183382987976,-0.6724682450294495,-0.0209066569805145,0.0740890353918075
1749030023.406935,-5.52898103641566,-0.5838958849687591,-0.6912291354970616,4.876633531286223,-2.142201898635243,-3.7579052525060854,0.004575739300842585,-0.0019284195550061676,-0.0014192825001692426,-0.018202693105740242,0.013680367698688755,0.019683286240605693,0.0333191007375717,-1.4455180168151855,-0.6826639771461487,-0.6544608473777771,-0.0313650518655777,0.0871360227465629
1749030023.4069722,-5.528974916090378,-0.5839006537987461,-0.6912300847757804,4.876596596654282,-2.1421721298388805,-3.757873692618995,0.005216306966954303,-0.0022654552577265497,-0.0014388498273514125,-0.019071150263643196,0.014999674301283525,0.020805326624395125,0.0392577871680259,-1.440760850906372,-0.6680246591567993,-0.6797259449958801,-0.0516173839569091,0.108863428235054
1749030023.407009,-5.528967539671067,-0.5839056398657576,-0.6912309064027246,4.876558177640795,-2.1421401278133527,-3.7578405080398904,0.005821882663210725,-0.0025966330258213994,-0.0014310853288027673,-0.01979105781327798,0.016090267527338466,0.021775347270878473,0.0536622330546379,-1.4343658685684204,-0.6694473624229431,-0.6784321665763855,-0.0590504556894302,0.1199507787823677
1749030023.4071577,-5.528958831599477,-0.583910875961397,-0.6912316367208112,4.8765184777104755,-2.1421063950844625,-3.757805772649734,0.0063815861281362124,-0.0029139726862232452,-0.0013988020728586824,-0.02039027743759136,0.016939584175326317,0.022620414450302842,0.0478550791740417,-1.4671694040298462,-0.6678505539894104,-0.6967467069625854,-0.0476239621639251,0.1090625002980232
1749030023.4091349,-5.52894873790438,-0.5839164019854808,-0.6912323150947791,4.876477635116122,-2.1420714152372615,-3.7577694841909888,0.006887839713760217,-0.0032106685538041187,-0.0013466571057952725,-0.02090506574474604,0.0175566839145678,0.023375352259083704,0.0874352902173996,-1.4439067840576172,-0.6812205910682678,-0.7080492973327637,-0.0424565076828002,0.1346912980079651
1749030023.4505775,-5.528937232632699,-0.5839222531997813,-0.6912329835062653,4.876435712540475,-2.1420356113438097,-3.7577315637305375,0.007336718737077528,-0.0034814450915054674,-0.0012809192321828439,-0.02137664427118117,0.017970566144954767,0.024078790630521683,0.0915232822299003,-1.4588805437088013,-0.6745254397392273,-0.6944224834442139,-0.0468607544898986,0.1340433657169342
1749030023.450637,-5.528924321333035,-0.5839284497199478,-0.691233686302822,4.876392693371031,-2.1419993145715015,-3.757691863566839,0.007728032294141173,-0.0037228278455405613,-0.0012090614519769559,-0.021847576303310513,0.01822644005859611,0.024769338896952448,0.0566095933318138,-1.4518892765045166,-0.6803149580955505,-0.6929917335510254,-0.0288488566875457,0.1337307244539261
1749030023.4506824,-5.528910041235166,-0.5839349895014596,-0.6912344694948868,4.876348485127077,-2.1419627467149427,-3.757650181935665,0.008065125278658608,-0.003933313772668314,-0.001139219038423183,-0.022358267279391254,0.018380501465825507,0.025482281281661953,0.0619834028184413,-1.4803978204727173,-0.6845899224281311,-0.7194968461990356,-0.030761644244194,0.141219824552536
1749030023.450724,-5.5288944583599084,-0.5839418461207833,-0.6912353795165205,4.876302930175985,-2.141926017912648,-3.7576062822289775,0.008354422268166106,-0.004113422461225558,-0.0010795768131186608,-0.02294385510198686,0.01849392628063792,0.026247061015249935,0.0609972812235355,-1.4646234512329102,-0.678443968296051,-0.7371326088905334,-0.009604126214981,0.1616594940423965
1749030023.4507632,-5.528877662355668,-0.5839489714653484,-0.6912364618384559,4.876255823148077,-2.1418891379286618,-3.7575599141667806,0.008604757512967019,-0.00426561863340704,-0.001037757615238793,-0.023631710468388578,0.018626839888956574,0.027085681800937865,0.0926965847611427,-1.4664767980575562,-0.6876170039176941,-0.7333250641822815,0.0028726160526275,0.1422403901815414
1749030023.4508066,-5.528859760380866,-0.5839563024661202,-0.6912377598293776,4.87620693337831,-2.141852036864606,-3.7575108345534707,0.008826549398111366,-0.0043941115943107074,-0.001020279963129757,-0.024439721432217114,0.018832964013521143,0.028012029712441978,0.0945265442132949,-1.4806383848190308,-0.6875241994857788,-0.7294454574584961,0.0200255513191223,0.1542432010173797
1749030023.4508462,-5.528840871647828,-0.5839637703524235,-0.6912393138412147,4.876156029639918,-2.141814589929138,-3.757458825784116,0.00903088291499359,-0.004504550263618886,-0.0010321383553079184,-0.025375477044864904,0.019155490418975893,0.029032019472920372,0.0919790789484977,-1.4907077550888062,-0.689509928226471,-0.7436580657958984,0.0258421450853347,0.1553002446889877
1749030023.4508855,-5.528821124019471,-0.5839713106020766,-0.6912411600440224,4.876102903835218,-2.14177664131489,-3.7574037108178326,0.009228563124116919,-0.00460363841750019,-0.0010765370211105471,-0.026436384811693206,0.019624514403716403,0.030144399495703935,0.0978968515992164,-1.4724613428115845,-0.696132242679596,-0.7447190880775452,0.0501989275217056,0.1875674873590469
1749030023.450924,-5.528800653227255,-0.5839788718565891,-0.6912433284496694,4.876047390283801,-2.1417380236673043,-3.7573453637173047,0.00942920208512175,-0.0046986962473965135,-0.0011547819412113026,-0.02761066232519307,0.02025612204854205,0.0313420081904053,0.0817006155848503,-1.4812904596328735,-0.695360004901886,-0.7499518990516663,0.0311937779188156,0.1666402518749237
1749030023.4509616,-5.528779604144118,-0.5839864225479374,-0.691245839968638,4.875989377745931,-2.1416985709959357,-3.757283715115402,0.009640405176252241,-0.004797195876281159,-0.001266313255783029,-0.02887905049055988,0.021053004717287313,0.03261326144622354,0.1033447235822677,-1.5067354440689087,-0.7086524367332458,-0.7319669723510742,0.0397697836160659,0.1758530437946319
1749030023.4509995,-5.5287581325282895,-0.5839939547272289,-0.6912487030279574,4.8759288124249895,-2.141658123780034,-3.7572187522080807,0.009867126969608344,-0.004906300670622105,-0.0014088470838126393,-0.030217022824340037,0.022006304329790508,0.033943670038636804,0.0967047438025474,-1.5119025707244873,-0.7011775374412537,-0.7372722625732422,0.059989646077156,0.1787371337413787
1749030023.4510367,-5.528736405074936,-0.584001485421964,-0.6912519108122099,4.875865691882272,-2.1416165259372724,-3.7571505131502696,0.010111263059524181,-0.0050324378885642385,-0.001578595553075589,-0.03159722863754901,0.023098289341745175,0.035317231291528056,0.0817224532365799,-1.512479305267334,-0.694802463054657,-0.7494068741798401,0.0526264458894729,0.196960836648941
1749030023.451074,-5.5287145956883785,-0.5840090564495765,-0.6912554402302392,4.875800051619654,-2.1415736147993294,-3.7570790761362525,0.010371526596313765,-0.005180928811591901,-0.0017705444426672715,-0.03299191421904462,0.024305424783560996,0.03671759950431646,0.1166702210903167,-1.5237524509429932,-0.7022510170936584,-0.7482067346572876,0.0516968071460723,0.1853271424770355
1749030023.4511108,-5.528692876748191,-0.5840167335942733,-0.6912592532638462,4.875731947431927,-2.141529207124921,-3.757004544078569,0.010643630466725637,-0.005355690748203454,-0.001978781467618306,-0.0343751067962489,0.025601423390060062,0.0381289993189158,0.1159966140985488,-1.5197339057922363,-0.7041258215904236,-0.7393901944160461,0.0509065836668014,0.1918067187070846
1749030023.451148,-5.528671405648093,-0.5840246053968806,-0.6912633007452171,4.875661437185396,-2.1414830856726823,-3.756927026662494,0.010920766822408,-0.005559015201475385,-0.002196874266178956,-0.03572440151461374,0.02695993860900667,0.039536892099363036,0.1125371009111404,-1.5345875024795532,-0.7118628621101379,-0.7451977729797363,0.0702865272760391,0.2180117666721344
1749030023.4511929,-5.528650308533978,-0.5840327810518201,-0.6912675281535187,4.875588565464636,-2.1414349911534805,-3.7568466224246437,0.011194348642612366,-0.005791422033731883,-0.002418288608193844,-0.0370222468462093,0.028356669293595507,0.04092842942587756,0.1484917253255844,-1.5366371870040894,-0.7001016736030579,-0.7429032921791077,0.0583284497261047,0.2040651589632034
1749030023.4512444,-5.528629664314291,-0.5840413866602142,-0.6912718827701217,4.875513353696742,-2.1413846233259206,-3.7567634039811035,0.011454950989986412,-0.006051594825651761,-0.002636817378899784,-0.03825667853384929,0.02977076985976015,0.042292730231492846,0.1394250988960266,-1.554168701171875,-0.7061776518821716,-0.7395905256271362,0.0644353628158569,0.2005081325769424
1749030023.4512825,-5.528609492186563,-0.5840505594385883,-0.6912763213674106,4.875435797123479,-2.141331653037973,-3.7566774093232396,0.011693362355957927,-0.0063364138459404955,-0.0028469730952657814,-0.03942151235149638,0.0311855746982619,0.043621009155229915,0.129924938082695,-1.5659737586975098,-0.6980733871459961,-0.7517987489700317,0.0830152034759521,0.2024002224206924
1749030023.4513197,-5.528589745070668,-0.584060440018188,-0.6912808174615964,4.875355868667206,-2.1412757446976993,-3.7565886412472485,0.011901634331082413,-0.006641106893194446,-0.003044295724450151,-0.04051606684672292,0.03258873145148343,0.04490657730971528,0.1543428599834442,-1.5625839233398438,-0.7089512348175049,-0.7591931223869324,0.0865267962217331,0.1950647532939911
1749030023.4513562,-5.528570309964492,-0.58407116331829,-0.6912853670949133,4.8752735286389886,-2.1412165863397497,-3.756497075693941,0.01207400844113157,-0.00695952386010713,-0.0032255462251282356,-0.04154453074490051,0.03397188672587886,0.04614474083152076,0.1588179469108581,-1.590574860572815,-0.7190285921096802,-0.7717597484588623,0.0839180573821067,0.2006785571575164
1749030023.451567,-5.528551015062487,-0.5840828486252285,-0.6912899922627008,4.875188738394769,-2.1411539224394414,-3.756402678105324,0.012207607397276632,-0.007284513792036164,-0.00338878297485368,-0.042515099957231635,0.0353300842850446,0.04733263647912071,0.1401016563177108,-1.5881410837173462,-0.708675742149353,-0.7481321692466736,0.1081270352005958,0.2026202827692031
1749030023.4531665,-5.528531642878229,-0.5840955896345422,-0.6912947415164186,4.875101475220235,-2.1410875833165335,-3.7563054247940095,0.012302803518536383,-0.007608363052429905,-0.003533338519898179,-0.043438990107390524,0.03666102685475432,0.04846905993919395,0.1401016563177108,-1.5881410837173462,-0.708675742149353,-0.7481321692466736,0.1081270352005958,0.2026202827692031
1749030023.4942794,-5.528511948391529,-0.584109445442366,-0.6912996877592497,4.8750117449135715,-2.1410175048922326,-3.7562053241572073,0.012363215471146051,-0.007923254609727362,-0.003659721372779058,-0.04432940635582074,0.0379643215723046,0.04955434986842774,0.1322460621595382,-1.5977703332901,-0.7127494812011719,-0.7516407370567322,0.114407330751419,0.2122007608413696
1749030023.494325,-5.528491680888051,-0.5841244337582053,-0.6913049235079155,4.874919588371667,-2.140943734215726,-3.756102431576734,0.012395331908904827,-0.00822172655618708,-0.003769463284680757,-0.04520054576801829,0.039240776924748276,0.05059037646058529,0.1719301789999008,-1.6033618450164795,-0.7116048336029053,-0.7939125299453735,0.1005395352840423,0.1968846917152404
1749030023.4943657,-5.52847060744904,-0.5841405276211015,-0.6913105538628551,4.874825079751226,-2.1408664195678075,-3.755996853302821,0.012407812523564056,-0.008497123480429546,-0.0038649216374507817,-0.04606671672156366,0.0404917555322419,0.05158064177440814,0.1526865512132644,-1.6107494831085205,-0.7038438320159912,-0.7822431921958923,0.1106720343232154,0.2162160575389862
1749030023.4944046,-5.5284485353792165,-0.5841576562695266,-0.6913166873723489,4.874728316273973,-2.1407857879629746,-3.7558887382873993,0.012410565236718461,-0.008744032578708937,-0.0039490370467645305,-0.046941659702595014,0.04171854265393267,0.052530440744400914,0.1858384907245636,-1.628121852874756,-0.7180913686752319,-0.7938324213027954,0.1171002388000488,0.2049792259931564
1749030023.4944427,-5.5284253307611095,-0.5841757097836179,-0.6913234251727429,4.87462940212547,-2.140702115602595,-3.75577826081738,0.012413732437465462,-0.008958680167893522,-0.004025045112840212,-0.04783812028776795,0.042921702573935926,0.05344698078906475,0.1856220960617065,-1.6165428161621094,-0.7054129838943481,-0.7864009141921997,0.1298242211341858,0.1868167221546173
1749030023.494481,-5.528400930828004,-0.5841945464584575,-0.6913308492109028,4.874528430001843,-2.1406156972301913,-3.75566559892971,0.012426730838196244,-0.009139248024009313,-0.0040961496682274225,-0.04876766028656091,0.04410046692154834,0.05433933659477104,0.1634679436683654,-1.6027052402496338,-0.6783151626586914,-0.7903633713722229,0.1197090372443199,0.1742795705795288
1749030023.494519,-5.528375348644488,-0.5842140019254551,-0.6913390107743197,4.874425463733274,-2.1405268190992546,-3.755550913626984,0.012457475429961864,-0.009286065063349336,-0.004165180023074167,-0.04974062736719698,0.04525227941570778,0.055218139641102996,0.1834471225738525,-1.645354151725769,-0.7025636434555054,-0.803511917591095,0.1358399540185928,0.2082362920045852
1749030023.4945562,-5.528348669510735,-0.58423389940203,-0.6913479208323424,4.874320524720866,-2.1404357386050155,-3.7554343327249256,0.012511881427382016,-0.00940164091967697,-0.004234275288850879,-0.050766168526883156,0.046372648183975414,0.056094976494237336,0.2200709581375122,-1.6404584646224976,-0.7273894548416138,-0.8074266910552979,0.1508240699768066,0.2220183759927749
1749030023.4945943,-5.52832103960085,-0.5842540606476617,-0.6913575437725772,4.874213584027307,-2.1403426719660783,-3.755315941574709,0.012593686429280004,-0.009490526267643098,-0.00430465927622274,-0.051852174113295665,0.047455412200822895,0.0569815773047413,0.1777918189764022,-1.6216684579849243,-0.7240535616874695,-0.7921385765075684,0.1381141990423202,0.2237391769886016
1749030023.494632,-5.528292648508532,-0.5842743171566983,-0.6913677958752538,4.874104560926362,-2.1402477895948886,-3.7551957812831374,0.012704577227187232,-0.009558999582346827,-0.004376571665529335,-0.053005065865763444,0.04849344147869389,0.05788895973762064,0.163977175951004,-1.6390031576156616,-0.7228717803955078,-0.8039827346801758,0.1676467657089233,0.2105519771575927
1749030023.4946692,-5.528263708254094,-0.5842945208932608,-0.69137854924867,4.873993327738642,-2.1401512172236274,-3.7550738535947206,0.012844553787132892,-0.009614590306912725,-0.004449387821197191,-0.05422939200912975,0.04947969503706146,0.05882669776899562,0.1924486458301544,-1.641919493675232,-0.70270174741745,-0.8191074132919312,0.1393693536520004,0.219932347536087
1749030023.4947064,-5.528234431606775,-0.5843145535692343,-0.691389641094563,4.873879720188908,-2.1400530400419373,-3.754950130530556,0.013012430311965533,-0.009665463338568395,-0.004521898720796865,-0.0555272624478873,0.05040847294452298,0.05980240965161572,0.1911531090736389,-1.651689887046814,-0.7093848586082458,-0.8374513387680054,0.1312852501869201,0.2083433866500854
1749030023.4947429,-5.528205012273616,-0.5843343333442637,-0.6914008872899764,4.873763552369382,-2.139953307473266,-3.7548245664065965,0.0132063653953899,-0.009719714197163885,-0.004592667712033848,-0.05689772083109556,0.05127663659138825,0.060821459259891346,0.1680345237255096,-1.6767345666885376,-0.6879881620407104,-0.8266059756278992,0.1394728273153305,0.1964085400104522
1749030023.4947798,-5.5281756087934975,-0.5843538181177641,-0.6914120985366394,4.873644635296598,-2.139852037539363,-3.7546971099402033,0.013424325045284303,-0.00978465076038317,-0.004660363823529627,-0.05833617106229449,0.052084565229520687,0.061886796648978046,0.1624795496463775,-1.6524056196212769,-0.6804807186126709,-0.8234459161758423,0.1451913565397262,0.2216775268316269
1749030023.4948175,-5.528146333204974,-0.5843730051726128,-0.6914230969246076,4.873522797581956,-2.139749221105995,-3.754567714495236,0.013664408232626053,-0.009866153780081571,-0.00472399739853854,-0.05983395121454645,0.0528366818201417,0.062998853297562,0.1873753368854522,-1.6361289024353027,-0.7010585069656372,-0.8181142210960388,0.1667489856481552,0.2185135185718536
1749030023.494855,-5.528117245059645,-0.584391927533271,-0.6914337308137019,4.8733979059916495,-2.1396448267744903,-3.7544363449039766,0.013925002630771491,-0.009968206766102475,-0.0047830325590251,-0.0613781167787708,0.05354148731918575,0.0641554527816387,0.1829792857170105,-1.6530195474624634,-0.698145866394043,-0.8381354808807373,0.1610237658023834,0.2248190343379974
1749030023.494892,-5.528088351088893,-0.584410647861731,-0.691443886411734,4.873269883252086,-2.1395388067805885,-3.7543029798304586,0.014204780701254504,-0.010092665199217083,-0.004837394231113045,-0.06295149299672757,0.05421113265810728,0.06535177021355065,0.1725067794322967,-1.666319727897644,-0.708499014377594,-0.8304735422134399,0.1596370786428451,0.2049704939126968
1749030023.494929,-5.528059610462095,-0.5844292509247996,-0.6914534951072407,4.873138720847406,-2.1394311036732945,-3.754167609411737,0.014502577763167379,-0.010239298589544034,-0.004887406745634071,-0.06453307434496178,0.05486059858354761,0.06658042640607288,0.188641145825386,-1.6576120853424072,-0.700351357460022,-0.8453497290611267,0.1437955349683761,0.2098852694034576
1749030023.4949667,-5.52803094492611,-0.5844478355393057,-0.6914625362130766,4.873004485592095,-2.1393216572650147,-3.7540302288220744,0.014817205076175476,-0.010406093146300312,-0.004933695716039502,-0.06609884813629381,0.055506561037128116,0.0678318025805504,0.1911549717187881,-1.653248310089111,-0.6966732740402222,-0.8201742172241211,0.1451762616634369,0.1847063302993774
1749030023.495005,-5.528002252337721,-0.5844665065665705,-0.6914710351388427,4.872867319789396,-2.139210411342639,-3.753890829252987,0.015147248104241458,-0.010589758889417097,-0.004977068223603378,-0.0676230722853436,0.0561660323211858,0.06909461844890723,0.2064185738563537,-1.6806021928787231,-0.6836789846420288,-0.819076418876648,0.1520951092243194,0.2013704180717468
1749030023.4954653,-5.52797342145616,-0.5844853672272632,-0.6914790572424723,4.872727435292484,-2.1390973196652445,-3.7537493884108204,0.015490892687953011,-0.010786353784540782,-0.005018374274996146,-0.06907995917149228,0.056854902158264,0.07035676468835228,0.1936824321746826,-1.6873314380645752,-0.7029769420623779,-0.7954416871070862,0.1558882296085357,0.2125012725591659
1749030023.497178,-5.527944345610232,-0.5845045118877877,-0.6914866979555458,4.872585101797945,-2.138982350675834,-3.7536058628037257,0.015845812353585526,-0.010991922383321206,-0.005058353660386398,-0.07044564785668896,0.05758653939185456,0.07160634083480165,0.1919659078121185,-1.7032901048660278,-0.7030239105224609,-0.8249593377113342,0.1658816486597061,0.1939173340797424
1749030023.542295,-5.527914933168051,-0.5845240196619248,-0.6914940703448782,4.872440629615846,-2.138865490174565,-3.7534601836798847,0.016209138270848623,-0.011203047499073327,-0.005097484186503071,-0.07170031141450853,0.05837062684961495,0.07283282173580675,0.2145914137363433,-1.683313488960266,-0.696306586265564,-0.8018404245376587,0.1616930663585662,0.1738806664943695
1749030023.5423417,-5.527885113518741,-0.5845439496847903,-0.6915012919041382,4.872294347334837,-2.1387467412101215,-3.7533122575457556,0.01657752279873025,-0.01141723401294561,-0.005135860028135582,-0.07283023739922638,0.05921237760621015,0.07402825545844477,0.198731929063797,-1.7123602628707886,-0.7129578590393066,-0.8039367198944092,0.1901299655437469,0.2099718302488327
1749030023.5423849,-5.527854838198344,-0.5845643392874452,-0.6915084726974684,4.872146575336702,-2.1386261208480475,-3.753161970979169,0.01694730032626494,-0.011633084420021415,-0.005173133831047238,-0.07382971301130664,0.06011222674825033,0.0751883795551422,0.2256683409214019,-1.7183737754821775,-0.7229118347167969,-0.7923988699913025,0.1892713904380798,0.1981610059738159
1749030023.542424,-5.527824077620664,-0.5845852059308325,-0.6915157067325336,4.871997596878571,-2.138503654166321,-3.753009198293492,0.01731474059227038,-0.011850274194314472,-0.005208549505194278,-0.0747025283882072,0.06106602184206256,0.07631352613069292,0.2097907960414886,-1.7276958227157593,-0.7115522027015686,-0.7835882902145386,0.1751373708248138,0.1957649141550064
1749030023.5424616,-5.527792814536424,-0.584606552705713,-0.6915230676838644,4.871847629183941,-2.1383793665121926,-3.7528538098984114,0.01767637296563887,-0.01206937214229932,-0.005241075010670164,-0.07546289097083561,0.062065662189286976,0.07740916904942022,0.2239096164703369,-1.722318172454834,-0.7227197289466858,-0.8036777973175049,0.1788720786571502,0.1981935501098632
1749030023.5425055,-5.527761035749845,-0.5846283761727847,-0.6915306090439107,4.871696797411082,-2.1382532755212416,-3.7526956792871364,0.0180293359902996,-0.012291565512822135,-0.005269620826241076,-0.07613554685602517,0.0631000762962054,0.07848596230799829,0.2293710708618164,-1.7198874950408936,-0.7390037178993225,-0.8020572066307068,0.1747242659330368,0.2113732099533081
1749030023.5425544,-5.527728723656654,-0.5846506748595439,-0.691538367656578,4.8715451143878346,-2.138125384615893,-3.7525346874956877,0.01837168630791284,-0.012518346973862228,-0.005293308046282738,-0.07675495265991825,0.06415639202577254,0.07955914970724462,0.2149025648832321,-1.7351833581924438,-0.7376216650009155,-0.7950839400291443,0.1684855818748474,0.1985540091991424
1749030023.542595,-5.527695848879715,-0.5846734568506403,-0.6915463687346335,4.871392468622505,-2.1379956796175765,-3.752370725155514,0.01870259955880953,-0.012751213256590113,-0.005311735781583257,-0.07736342697190991,0.06522115391484981,0.08064730466159362,0.2333677262067794,-1.7556902170181274,-0.7320904731750488,-0.7990626692771912,0.1893131881952285,0.2124331295490265
1749030023.542632,-5.527662364927,-0.5846967453603926,-0.691554630353618,4.871238622375668,-2.1378641295669065,-3.752203693165576,0.019022420304207043,-0.01299141835002001,-0.005325192770925059,-0.07800830458976145,0.06628147626225218,0.08177047065391489,0.2440532445907592,-1.7388417720794678,-0.7292739152908325,-0.7895017266273499,0.1794204860925674,0.2240380644798278
1749030023.5426695,-5.527628205637606,-0.5847205817736879,-0.6915631661711997,4.871083220639121,-2.1377306918350287,-3.7520335031895424,0.019332562111914645,-0.013239813998528957,-0.005334765422771468,-0.07873820632965024,0.06732607110986484,0.0829478831857242,0.2655054926872253,-1.7492846250534058,-0.7301368713378906,-0.7912318706512451,0.1846995204687118,0.2280965000391006
1749030023.5427072,-5.527593286208242,-0.5847450261897,-0.6915719862475017,4.8709258109309035,-2.137595320421381,-3.751860078939753,0.019635302745215008,-0.013496795167755758,-0.005342317026739093,-0.07959864492218964,0.06834612783830103,0.08419553408236634,0.223087340593338,-1.7784374952316284,-0.7275661826133728,-0.8261920809745789,0.2006900161504745,0.236298382282257
1749030023.5427444,-5.527557508516775,-0.584770155757828,-0.6915810966784319,4.870765873068021,-2.1374579753528042,-3.751683359013807,0.019933539712353024,-0.013762351176059345,-0.005350347197275031,-0.0806273350220242,0.0693360249160721,0.08552387974330472,0.2471429705619812,-1.760391116142273,-0.748759388923645,-0.8500839471817017,0.18891441822052,0.2384174168109893
1749030023.542781,-5.527520770921807,-0.5847960610143181,-0.6915904990400198,4.870602857535419,-2.137318630617855,-3.7515033019828357,0.020230560653347277,-0.014036207325069166,-0.005361772928700883,-0.0818497324025544,0.07029382917651908,0.08693599999309913,0.2440396100282669,-1.756527304649353,-0.7379723191261292,-0.8611589074134827,0.1857443451881408,0.2383843809366226
1749030023.542818,-5.527482981607357,-0.5848228403018938,-0.691600190497324,4.870436230500381,-2.137177278320181,-3.751319894267611,0.02052985580139851,-0.01431802962884931,-0.005379686671029351,-0.08327541421958955,0.07122151131253587,0.08842648553228417,0.2548872828483581,-1.765431523323059,-0.746213436126709,-0.8710647821426392,0.1677650213241577,0.2415643185377121
1749030023.5428553,-5.527444073277156,-0.5848505924985172,-0.6916101650333145,4.870265522649597,-2.1370339277776895,-3.7511331609037,0.02083497756650146,-0.014607658968503407,-0.005407137028772487,-0.08489586577729215,0.0721248066384651,0.08998126689982501,0.2763706147670746,-1.756009817123413,-0.723303496837616,-0.8818067908287048,0.179879754781723,0.2420296669006347
1749030023.5428915,-5.527404016311747,-0.5848794086800478,-0.691620415776955,4.870090377893726,-2.1368885998593847,-3.750943178520009,0.021149443993696407,-0.014905338523464809,-0.005446953317411901,-0.08668407121486693,0.07301268539902929,0.09157849874956203,0.2829747796058655,-1.7441178560256958,-0.7340430617332458,-0.8704637289047241,0.2031379342079162,0.2558993399143219
1749030023.5429285,-5.527362827702216,-0.5849093637282309,-0.6916309380434176,4.8699105969959575,-2.136741318422658,-3.75075008873072,0.021476680458074895,-0.015211894782191765,-0.0055016117709695165,-0.08859608250701641,0.07389645157320265,0.09319049446613557,0.2621265053749084,-1.7306852340698242,-0.723029375076294,-0.8847979307174683,0.1945186108350753,0.2686748802661896
1749030023.5429654,-5.527320573831068,-0.5849405090519673,-0.6916417324771416,4.869726170732495,-2.1365921016982155,-3.7505541088996672,0.02181998604373868,-0.015528829870960823,-0.00557312902014337,-0.09057451836007532,0.07478854025843616,0.09478658323035172,0.2905136048793793,-1.7708542346954346,-0.7351692318916321,-0.8899383544921875,0.1976726949214935,0.2600078582763672
1749030023.5430057,-5.527277366074552,-0.5849728674565344,-0.6916528075387471,4.8695372974313615,-2.136440956453471,-3.7503555364832244,0.02218249861154246,-0.015858290850576877,-0.005662968143310817,-0.09255373533871199,0.07570111622950115,0.0963366365694606,0.2733326256275177,-1.7719422578811646,-0.7552109956741333,-0.8957116007804871,0.16425222158432,0.2428554594516754
1749030023.5430565,-5.527233349196676,-0.5850064308153977,-0.6916641805820636,4.8693443807415555,-2.136287876849302,-3.750154743542471,0.02256712733727555,-0.016202903706580472,-0.005771947758119178,-0.09446621276542196,0.07664459166339613,0.09781488311301806,0.3159558475017547,-1.766716241836548,-0.7433416843414307,-0.8819699883460999,0.1866635382175445,0.2248982191085815
1749030023.5431027,-5.527188683673336,-0.5850411606858704,-0.6916758770627207,4.869148005392852,-2.1361328485589013,-3.7499521595764707,0.022976429944396373,-0.016565487306825784,-0.005900148462661835,-0.09624951064506879,0.07762619881186243,0.099203522840792,0.2672762274742126,-1.759036660194397,-0.7154815196990967,-0.8651419878005981,0.1759150773286819,0.2346485555171966
1749030023.5431416,-5.527143524329767,-0.5850769915539861,-0.6916879278933471,4.868948891454544,-2.135975857284365,-3.749748242827059,0.02341242897999793,-0.016948685949991597,-0.006046813191679959,-0.09785302936817647,0.07864878944995837,0.10049561360620476,0.274383932352066,-1.7658934593200684,-0.7305071353912354,-0.8375158905982971,0.2082245796918869,0.2099991738796234
1749030023.5432572,-5.527097998627592,-0.5851138361783347,-0.6917003653578084,4.868747830704528,-2.135816899548377,-3.74954344183492,0.023876380588033222,-0.0173545766351791,-0.006210245929222626,-0.09924376056435646,0.07971006647554192,0.10169676182201814,0.3019821047782898,-1.794119358062744,-0.7409507036209106,-0.833905041217804,0.1981251537799835,0.2089025825262069
1749030023.545121,-5.527052188087441,-0.5851515925326797,-0.691713218219481,4.8685456114242625,-2.1356559929601766,-3.749338150142139,0.024368528191785196,-0.017784316659864678,-0.006387730603538518,-0.10041029379549408,0.08080243574154136,0.10282528821117647,0.2904679179191589,-1.7901796102523804,-0.7428790330886841,-0.8115528225898743,0.2172775417566299,0.1898393929004669
1749030023.586283,-5.527006115479677,-0.5851901519409957,-0.6917265067708563,4.868342939607108,-2.13549318320962,-3.7491326579953896,0.024887889364003508,-0.018237890110083702,-0.0065755087387747106,-0.10136453085666944,0.08191357719997604,0.10391072380133225,0.2966369688510895,-1.754272699356079,-0.7274311780929565,-0.800871729850769,0.2070244401693344,0.2144510596990585
1749030023.5863297,-5.526959739013147,-0.585229407982808,-0.6917402386136854,4.868140365022945,-2.1353285455059954,-3.748927105872153,0.025432129748434076,-0.018713985932663376,-0.006768854839732741,-0.1021408288395671,0.08302770944063317,0.10499070392790166,0.2982544302940368,-1.747876524925232,-0.7255537509918213,-0.807016909122467,0.2108845561742782,0.1875116676092147
1749030023.58637,-5.52691295353814,-0.5852692656236872,-0.6917544058653838,4.86793822004629,-2.1351621788616937,-3.7487214453495454,0.025997567155474265,-0.019210008801408045,-0.006962270298621755,-0.10279259843369175,0.08412741688175339,0.10610655657462337,0.3047730326652527,-1.784828782081604,-0.728690505027771,-0.7811405062675476,0.2059826701879501,0.2151651382446289
1749030023.586409,-5.526865598086314,-0.5853096499466189,-0.6917689842026811,4.867736577899116,-2.1349941927610647,-3.7485154129272216,0.02657932229027214,-0.019722203490569693,-0.007149792555109497,-0.10338668431850066,0.08519584595471538,0.10729809254237749,0.2894210815429687,-1.7641005516052246,-0.7517085075378418,-0.8350282907485962,0.2020840793848037,0.1987486481666565
1749030023.586447,-5.526817468674523,-0.5853505139183212,-0.6917839337662289,4.86753523508298,-2.134824687370069,-3.7483085218099785,0.027171597665242013,-0.020245867235029677,-0.0073253967890503265,-0.10399612915892105,0.08621903459547918,0.10859825612786345,0.2691018283367157,-1.7781639099121094,-0.7237924933433533,-0.8335171937942505,0.2065283060073852,0.2065000236034393
1749030023.5864854,-5.526768334913168,-0.5853918446788569,-0.691799201613337,4.867333720390198,-2.134653730013181,-3.7481000753163554,0.027768036232520967,-0.020775623948397406,-0.007483452040406104,-0.10469214843415449,0.08718809787895748,0.11002836311726702,0.2953293621540069,-1.7666282653808594,-0.7293575406074524,-0.852763831615448,0.2045252621173858,0.2289852648973465
1749030023.586524,-5.526717958637311,-0.5854336676388397,-0.6918147251805632,4.86713133032017,-2.1344813316726086,-3.747889203492244,0.028362098337301755,-0.021305731749524572,-0.007619180367653057,-0.10553627048267981,0.08810096483243635,0.11159463127627102,0.3011577129364013,-1.761788010597229,-0.7351324558258057,-0.8444610834121704,0.1960894763469696,0.2633198499679565
1749030023.5865626,-5.526666112735906,-0.5854760472148229,-0.6918304361197197,4.866927188350299,-2.1343074276814504,-3.7476749219844185,0.02894740282218063,-0.021830390984355436,-0.007729060730577714,-0.10657358269836416,0.08896337456226801,0.11328658128492805,0.296112060546875,-1.7679548263549805,-0.7394155859947205,-0.8810346126556396,0.1691846549510955,0.2415575832128524
1749030023.586601,-5.5266125985851,-0.5855190827721325,-0.6918462639613917,4.86672032340566,-2.134131866692738,-3.747456209768566,0.029517998686426128,-0.022344019014824898,-0.007811122496312075,-0.10782788396805897,0.0897889041299618,0.11507763859409353,0.3066765964031219,-1.7541245222091677,-0.7186166644096375,-0.8704673051834106,0.1847922354936599,0.2440401762723922
1749030023.586639,-5.526557260788225,-0.5855628987869903,-0.6918621393356377,4.8665097609203425,-2.133954411385767,-3.747232100089978,0.03006855751607986,-0.022841466403987886,-0.007865085253283489,-0.10929932136459761,0.09059791115252283,0.11692793194398664,0.3219340443611145,-1.7488356828689575,-0.7127826809883118,-0.911904275417328,0.1590292006731033,0.2561596930027008
1749030023.586676,-5.526499998219387,-0.5856076294379687,-0.6918779967788142,4.866294618098514,-2.1337747530845137,-3.7470017767775476,0.030594495384645252,-0.02331816648946367,-0.007892322147822697,-0.11096481100590393,0.09141542585493227,0.11878894634520264,0.2999392747879028,-1.7367339134216309,-0.7155833840370178,-0.8709229826927185,0.1895434856414795,0.2351236045360565
1749030023.5867133,-5.526440770800045,-0.5856533993376,-0.6918937773031996,4.866074193471485,-2.133592540367563,-3.746764665825378,0.031092039802679324,-0.023770227649251328,-0.007895656104878334,-0.11278121822839485,0.09226820981695075,0.12060942429253345,0.2673223912715912,-1.7682549953460691,-0.728055477142334,-0.8616882562637329,0.1801367402076721,0.2426372021436691
1749030023.5867505,-5.52637960195484,-0.5857003033782271,-0.6919094308914555,4.865848039596805,-2.13340741877782,-3.746520509985853,0.03155825221914392,-0.024194485937650532,-0.007879035367998898,-0.11469093548345341,0.09318137467964803,0.12234175042665296,0.2673223912715912,-1.7682549953460691,-0.728055477142334,-0.8616882562637329,0.1801367402076721,0.2426372021436691
1749030023.5867877,-5.526316576902275,-0.5857483893516718,-0.6919249190261055,4.865616007152188,-2.1332190753443765,-3.746269412930446,0.031991010446831274,-0.024588534442176593,-0.007847158604281172,-0.11662920133220357,0.09417506123152157,0.12394800338008281,0.303238958120346,-1.7560404539108276,-0.7265077233314514,-0.8800033926963806,0.2035681009292602,0.2142030894756317
1749030023.5868242,-5.526251836767136,-0.5857976468764596,-0.691940217342561,4.865378250418756,-2.133027279369807,-3.7460118413076122,0.03238896157062443,-0.02495073738674705,-0.007805117248771319,-0.11853227737601524,0.09526167290679054,0.12540490399380774,0.3159680068492889,-1.7531877756118774,-0.7464911937713623,-0.8657936453819275,0.1731507182121276,0.2055370509624481
1749030023.5868616,-5.526185568617816,-0.5858480050126496,-0.6919553183973779,4.8651351902079565,-2.1328319117312615,-3.7457485797237324,0.032751469238172855,-0.025280223001643568,-0.007758096869519264,-0.120345438486959,0.0964440493272259,0.12670701304800966,0.3094828426837921,-1.7467836141586304,-0.7406184673309326,-0.8089760541915894,0.204338252544403,0.2281289249658584
1749030023.5868983,-5.526117992451609,-0.585899338880924,-0.6919702342556568,4.864887439931255,-2.1326329788086795,-3.745480644228887,0.03307857805579931,-0.025576835144340667,-0.007711143535519644,-0.12202965969176859,0.09771480822333718,0.12786772303281832,0.2934339344501495,-1.72398042678833,-0.729591429233551,-0.8064011931419373,0.2080689817667007,0.1997665017843246
1749030023.5869355,-5.526049347288804,-0.5859514834047015,-0.6919849982415781,4.8646357094005825,-2.1324306115313534,-3.7452091695286254,0.03337099615731937,-0.025841023026817848,-0.007668971054784574,-0.12356598001413045,0.09905692393379706,0.12891785147428336,0.31495401263237,-1.7455564737319946,-0.7357898354530334,-0.8152897357940674,0.2377552688121795,0.203914999961853
1749030023.5869722,-5.525979878761261,-0.5860042509602744,-0.691999665043391,4.864380704797724,-2.1322250523587463,-3.7449352892813166,0.033630076813494815,-0.026073671007456913,-0.00763577480093684,-0.12495684870951052,0.10044546024258207,0.1299019689952707,0.280642420053482,-1.7497873306274414,-0.7418879866600037,-0.7967193722724915,0.2023839652538299,0.2035062611103058
1749030023.5870087,-5.525909829523637,-0.5860574496563449,-0.6920143085460153,4.864123041533001,-2.1320166331053256,-3.7446600269149988,0.033857782324864236,-0.02627590777344567,-0.007615034039182028,-0.12622426289708713,0.10185023392958706,0.13087293550877388,0.2867477834224701,-1.734630823135376,-0.7204311490058899,-0.8267173767089844,0.1891043037176132,0.2253007143735885
1749030023.587151,-5.52583943220507,-0.5861108998092519,-0.6920290171630907,4.863863181842389,-2.1318057458838475,-3.7443842091245445,0.034056634872057866,-0.026448962237787307,-0.007609318095510161,-0.12740505581213268,0.10323906948633291,0.13188540082836486,0.2879441976547241,-1.7400144338607788,-0.7280498147010803,-0.8164040446281433,0.2066549658775329,0.2304310202598571
1749030023.5891092,-5.525768903537717,-0.5861644472582949,-0.6920438869072716,4.863601403277535,-2.131592809271169,-3.74410840847011,0.03422968006367883,-0.02659413134084787,-0.007620142086438947,-0.12854416934197957,0.10458124209386718,0.13298918971826787,0.2882758378982544,-1.7227507829666138,-0.7370997071266174,-0.853752851486206,0.1905880570411682,0.2467236220836639
1749030023.630286,-5.525698438301599,-0.586217972959474,-0.6920590129352504,4.863337798761614,-2.131378232218585,-3.74383291670998,0.034380492748092545,-0.026712890514779642,-0.007647927592955695,-0.1296870598413651,0.10585070635418033,0.13422350365912356,0.3070968389511108,-1.7217435836791992,-0.732282280921936,-0.8625722527503967,0.1918124258518219,0.2536354660987854
1749030023.6303322,-5.5256282025291545,-0.5862713987005195,-0.6920744807637687,4.863072304012652,-2.1311623787375145,-3.743557746898586,0.03451323599420757,-0.02680712718915013,-0.007692105922695139,-0.13087248774581678,0.10702876224738966,0.1356127278593648,0.2940544784069061,-1.7423092126846311,-0.7335971593856812,-0.8962970972061157,0.1919483840465545,0.2762347757816314
1749030023.6303737,-5.525558326312371,-0.5863246890123935,-0.6920903585512586,4.862804744352867,-2.1309455365515424,-3.7432826597539544,0.03463275046604017,-0.02687943455377901,-0.007751361454552808,-0.13212682090567565,0.10810589891042752,0.1371643474290432,0.302732765674591,-1.7453398704528809,-0.7189170122146606,-0.9022496938705444,0.1932590305805206,0.2582158148288727
1749030023.6304133,-5.525488897061711,-0.5863778495827203,-0.6921066915769748,4.862534890841374,-2.130727892626027,-3.7430072083575747,0.03474461830314099,-0.026933381801173596,-0.007823965961183505,-0.13346068446458198,0.10908266263286706,0.13886909747810106,0.2880338132381439,-1.7578229904174805,-0.7301971912384033,-0.8939821124076843,0.1962835043668747,0.2751362919807434
1749030023.6304526,-5.525419954115929,-0.5864309226411737,-0.6921234993895619,4.8622625155900465,-2.130509517884899,-3.7427307949070436,0.034855130292160384,-0.026973677749281964,-0.007908122567685923,-0.13486838032421233,0.10996950071527664,0.1407030893984221,0.3045336604118347,-1.7428170442581177,-0.739883303642273,-0.9155223965644836,0.199625015258789,0.2533849477767944
1749030023.6304915,-5.525351485396797,-0.5864839798089767,-0.69214077536031,4.861987437721852,-2.130290362595319,-3.7424527337717897,0.03497110125423669,-0.027006158459069736,-0.008002233145491172,-0.13633003142707567,0.11078562473328521,0.14263137060161607,0.3216367959976196,-1.7383939027786257,-0.7268438339233398,-0.8802558779716492,0.2019795477390289,0.2404214888811111
1749030023.63053,-5.525283426616004,-0.5865371129218044,-0.6921584879478413,4.861709554081706,-2.130070262865891,-3.7421723160477365,0.03509952654772769,-0.02703755266251187,-0.00810502434412741,-0.13781593825257926,0.11155701229666579,0.14461223977751272,0.3055735528469085,-1.7069783210754397,-0.7171125411987305,-0.8469293713569641,0.1917360872030258,0.2291736751794815
1749030023.630568,-5.525215663507866,-0.5865904235242855,-0.6921765830640754,4.861428852045921,-2.1298489575551653,-3.7418888716584093,0.03524712992622607,-0.027075015674484167,-0.008215506552382198,-0.1392922478448645,0.1123137321848269,0.1466016511062672,0.3100821375846863,-1.736436128616333,-0.7188752293586731,-0.8304830193519592,0.2063815295696258,0.2114998251199722
1749030023.630606,-5.525148037557772,-0.586644012001234,-0.6921949873625516,4.861145405153411,-2.1296261138146106,-3.7416018254350805,0.035419886689952745,-0.027125473829212498,-0.008332787759771516,-0.14072682179028043,0.11308684017130793,0.14855717312867003,0.3210245370864868,-1.7250393629074097,-0.7231364846229553,-0.8297578692436218,0.1949641406536102,0.2348039597272873
1749030023.6306477,-5.525080355506024,-0.586697967366367,-0.6922136126378409,4.860859355096869,-2.129401358613634,-3.741310743460663,0.03562260139554396,-0.02719487652475583,-0.008455808154403837,-0.1420942115617218,0.1139051481129453,0.1504411833071674,0.3099534511566162,-1.7611963748931885,-0.7272347807884216,-0.7851998209953308,0.2143645584583282,0.227687656879425
1749030023.630686,-5.52501240245441,-0.5867523584716892,-0.6922323615352983,4.86057088522924,-2.1291743129686065,-3.741015365611523,0.035858590295609574,-0.027287493255187846,-0.008583084881312555,-0.1433789061375395,0.11479220549119254,0.1522232176247928,0.303221046924591,-1.7664228677749634,-0.7392944693565369,-0.8006505966186523,0.236182302236557,0.2550215721130371
1749030023.6307232,-5.524943957768134,-0.5868072270832433,-0.6922511344421072,4.86028019108518,-2.1289446253646314,-3.740715620314228,0.03612949135506805,-0.027405400185737058,-0.008712550422594462,-0.14457644252818022,0.11576383681323431,0.1538815826459409,0.3167700171470642,-1.7752971649169922,-0.7339558601379395,-0.8054253458976746,0.2284215688705444,0.249736875295639
1749030023.63076,-5.524874812268648,-0.5868625832305793,-0.6922698370023534,4.859987452855864,-2.128712001163285,-3.740411618668942,0.03643521490751201,-0.027548265464766252,-0.008841538777585372,-0.14569245805528164,0.11682653206079338,0.15540441867471744,0.350160151720047,-1.7712138891220093,-0.7245099544525146,-0.8031938672065735,0.1875964552164077,0.2502394318580627
1749030023.6307971,-5.52480478456987,-0.5869184035218649,-0.6922883874386707,4.8596928136111925,-2.1284762255505605,-3.740103627441765,0.03677404793455208,-0.027713475995301433,-0.008966934940631551,-0.14674019531465682,0.11797688326953228,0.15679036378644498,0.3170922696590423,-1.759478211402893,-0.7173033952713013,-0.8204483389854431,0.2371521294116974,0.2511264085769653
1749030023.630834,-5.524733734031647,-0.586974633392019,-0.692306722877546,4.859396365468321,-2.1282371784448304,-3.739792023531227,0.03714291307360452,-0.027896579834217873,-0.00908546539803013,-0.14773725004468172,0.11920212826910159,0.15804884479717207,0.3389952182769775,-1.7742278575897217,-0.7082473039627075,-0.8233146071434021,0.2353168725967407,0.2633351683616638
1749030023.630871,-5.524661568054098,-0.5870311940423459,-0.6923248040763651,4.859098144053463,-2.1279948404156093,-3.7394772355878536,0.03753775367717198,-0.028091969864469636,-0.009194075730732883,-0.1487024243623706,0.12048174852324006,0.1591998759487618,0.3393447697162628,-1.756722092628479,-0.7246515154838562,-0.8406108617782593,0.2333332896232605,0.2305513471364975
1749030023.630908,-5.524588242546123,-0.5870879938827273,-0.6923426182002467,4.858798129887267,-2.1277492891192877,-3.7391596808240206,0.03795398687492797,-0.028293707339088453,-0.00929031968749062,-0.14965340407876357,0.1217899784273367,0.16027314631177683,0.3465902507305145,-1.763868808746338,-0.7155807614326477,-0.846919059753418,0.2533050179481506,0.2476195394992828
1749030023.6309452,-5.524513756051115,-0.5871449429040982,-0.6923601794816413,4.858496254148462,-2.1275006864591868,-3.7388397061940752,0.038386955091029795,-0.028496372470009343,-0.009372676927939532,-0.1506056595646281,0.12309898771905298,0.1613061788059496,0.36308753490448,-1.7878823280334473,-0.732694685459137,-0.8540530800819397,0.2386899590492248,0.2019904851913452
1749030023.6309829,-5.524438139426012,-0.5872019673826232,-0.6923775276446524,4.858192405880541,-2.127249257861942,-3.738517542671026,0.038832312129711596,-0.02869583284163758,-0.00944072910875343,-0.15157256490505214,0.1243823855069917,0.1623414719450672,0.314359575510025,-1.7798123359680176,-0.7197300791740417,-0.7999467253684998,0.2254718244075775,0.2035437077283859
1749030023.63102,-5.524361443524254,-0.5872590222615214,-0.6923947239903301,4.857886438173295,-2.126995266359083,-3.7381932791421497,0.03928629681028344,-0.028889838648041358,-0.00949515666006504,-0.1525663581045899,0.12561859565694422,0.16342276216501733,0.3459188342094421,-1.791164755821228,-0.7147473692893982,-0.8152607679367065,0.1938507556915283,0.218958705663681
1749030023.6311824,-5.524283726997627,-0.5873160992974893,-0.6924118452553887,4.857578172077573,-2.1267389848468623,-3.7378668588001407,0.03974587422263195,-0.02907838120814784,-0.009537563176236179,-0.15359933693938557,0.12679362023978363,0.16459079649424793,0.3767182230949402,-1.7890074253082275,-0.7333265542984009,-0.8182368874549866,0.185050755739212,0.2465443760156631
1749030023.6331854,-5.524205045583652,-0.5873732299392529,-0.6924289758007705,4.857267398724911,-2.126480669633972,-3.737538096624008,0.04020875588876435,-0.02926378190284387,-0.009570176106193724,-0.15468466726538332,0.12790278165393398,0.16587919459169767,0.371390700340271,-1.8021174669265747,-0.7291288375854492,-0.8068925738334656,0.2280367314815521,0.2588779330253601
1749030023.674266,-5.5241254436477485,-0.5874304826399459,-0.6924461990592697,4.856953881804918,-2.1262205375895356,-3.73720671267575,0.04067333050304519,-0.029450509384001042,-0.009595495601342386,-0.15583636899426642,0.12895121571248272,0.16731103818297818,0.328948050737381,-1.765089511871338,-0.7176520228385925,-0.8217201828956604,0.2063895761966705,0.277988076210022
1749030023.6743112,-5.5240449484896,-0.5874879551502252,-0.6924635892467045,4.856637363442339,-2.1259587485009783,-3.736872373502156,0.041138538355787964,-0.02964475244607354,-0.00961595821862027,-0.15706836681628603,0.12995311707985432,0.16889673339383224,0.3204477429389953,-1.7932795286178589,-0.7112973928451538,-0.8348488211631775,0.1965093910694122,0.3012162446975708
1749030023.6743507,-5.523963567717185,-0.5875457634028026,-0.6924812042122638,4.856317576034649,-2.125695393791111,-3.7365347335800028,0.041603715368612106,-0.02985380361943307,-0.009633654589043828,-0.15839283291334277,0.13092992885658203,0.17063347409773602,0.3888280391693115,-1.8274729251861568,-0.7260211706161499,-0.8405014872550964,0.2288135290145874,0.299958735704422
1749030023.6743886,-5.523881289567897,-0.5876040294029288,-0.692499080086235,4.855994260834742,-2.1254304922188645,-3.7361934703427697,0.04206843278026204,-0.030085330056526246,-0.009650110907772695,-0.15981828717046873,0.13190778020407404,0.1725063436280286,0.3732362389564514,-1.8263945579528809,-0.7311058640480042,-0.8598296046257019,0.21958988904953,0.2850237190723419
1749030023.6744263,-5.523798085621729,-0.5876628705070625,-0.6925172280322258,4.855667191640178,-2.1251639923053607,-3.735848309011991,0.04253236340209837,-0.030346614504422234,-0.00966613150079226,-0.16134798149620133,0.13291452947222993,0.17449078798160694,0.3461673557758331,-1.7938480377197266,-0.7231147289276123,-0.8558048605918884,0.2204011380672454,0.2859095335006714
1749030023.6744652,-5.52371391528333,-0.5877223916460638,-0.6925356330027352,4.855336199737349,-2.1248957800411437,-3.7354990362750624,0.042995195733365785,-0.030643836556361652,-0.009681706169740213,-0.16297898561614282,0.13397678805651228,0.17655594478019102,0.3498585224151611,-1.789229393005371,-0.7324304580688477,-0.8783901929855347,0.2536984384059906,0.2609803080558777
1749030023.674503,-5.5236287315691825,-0.5877826810290248,-0.6925542542159332,4.85500119500358,-2.124625689444857,-3.735145504171089,0.0434565888474113,-0.030981444746251363,-0.00969600202466325,-0.16470218246196094,0.135117275884705,0.17866818713216445,0.3393910527229309,-1.8231925964355469,-0.7326608896255493,-0.8710246086120605,0.2661751508712768,0.2396345883607864
1749030023.6745403,-5.523542487620554,-0.5878438090908793,-0.6925730272295973,4.854662178194271,-2.1243535133689946,-3.7347876270116935,0.04391613802875037,-0.03136165943208728,-0.009707471766363092,-0.16650314968750327,0.1363527819236465,0.18079427971134643,0.3504154682159424,-1.8279212713241575,-0.7361996173858643,-0.874245822429657,0.2606490850448608,0.2431703507900238
1749030023.6745784,-5.5234551429718985,-0.5879058299118016,-0.6925918677423425,4.854319240970131,-2.1240790126534623,-3.7344253746307303,0.044373326606383566,-0.03178414538644273,-0.009714104861604081,-0.1683637040964924,0.13769288141006492,0.18290373124686798,0.341478943824768,-1.7942880392074585,-0.723132848739624,-0.8379862308502197,0.2667752504348755,0.2390192002058029
1749030023.6746163,-5.523366668532871,-0.5879687839798058,-0.6926106773277312,4.853972552906233,-2.123801922825669,-3.7340587647343497,0.04482746570957419,-0.032245888467420235,-0.00971381769932358,-0.17026375672478647,0.13913942345548402,0.18497019701347514,0.3227384090423584,-1.8259013891220093,-0.717710018157959,-0.8374068737030029,0.2609296441078186,0.2717536687850952
1749030023.6746533,-5.523277049774206,-0.5880327011147739,-0.69262935117602,4.853622337869755,-2.1235219586770757,-3.7336878558153175,0.045277643990060366,-0.03274129510336567,-0.009704934295058462,-0.17218309840082363,0.1406866830766192,0.18697204853362465,0.3527548015117645,-1.8176103830337524,-0.733600378036499,-0.8230985403060913,0.2474093437194824,0.2443642616271972
1749030023.6746898,-5.5231862882677785,-0.5880976026889405,-0.6926477876659296,4.853268844620327,-2.1232388181430935,-3.733312740622702,0.04572270962299419,-0.03326251021283658,-0.009686674250258334,-0.17410281646307466,0.14232199886021854,0.18889240610480065,0.3982900381088257,-1.8540018796920776,-0.7700363397598267,-0.882322371006012,0.2660346925258636,0.2989672124385834
1749030023.6747286,-5.523094401931066,-0.5881635028154769,-0.6926658992056971,4.85291231734629,-2.1229521877062343,-3.732933539381308,0.046161294955429755,-0.03379992293383119,-0.009659554393279583,-0.17600620022827082,0.14402670255442684,0.1907189765989723,0.3384905159473419,-1.8168104887008667,-0.7362878918647766,-0.8111190795898438,0.2357667982578277,0.2851714491844177
1749030023.6747656,-5.523001424064734,-0.5882304086718725,-0.6926836232534619,4.85255297100186,-2.1226617515717625,-3.7325503921611043,0.046591882692443666,-0.0343428035317665,-0.009625619741715866,-0.17787915974965138,0.14577718488267477,0.19244396040651482,0.350194364786148,-1.8107280731201167,-0.7285898327827454,-0.8352735042572021,0.2131555378437042,0.2776869535446167
1749030023.6748023,-5.522907400937737,-0.5882983203787076,-0.6927009319413269,4.852190974429131,-2.122367206064843,-3.7321634505448618,0.04701290717863805,-0.034879999355923445,-0.009588440112695636,-0.1797103013252452,0.14754602019264637,0.19406413889874496,0.3562057614326477,-1.8076515197753904,-0.7299122214317322,-0.8358864188194275,0.2567075490951538,0.2645818293094635
1749030023.6748393,-5.522812387489754,-0.5883672309023562,-0.6927178386434545,4.851826442214126,-2.122068279506349,-3.731772869376326,0.047422885168912125,-0.03540062372182876,-0.009552845114310487,-0.18149085718623428,0.1493031706267874,0.1955810919531046,0.3496275842189789,-1.8035370111465452,-0.7476916313171387,-0.8377888202667236,0.2678054571151733,0.2802193462848663
1749030023.674876,-5.522716440764068,-0.5884371264751233,-0.6927344003375493,4.851459434546704,-2.1217647566795343,-3.731378799564034,0.04782057178650522,-0.03589469378631059,-0.009524424173266299,-0.18321466062712316,0.1510173695054246,0.19700137892094918,0.3520258069038391,-1.7998851537704468,-0.7454401850700378,-0.8452973365783691,0.2482356876134872,0.2386973202228546
1749030023.6749122,-5.522619611176659,-0.5885079879511323,-0.6927507154585129,4.8510899630809545,-2.121456505991484,-3.730981382610829,0.048205131500477866,-0.03635369217661388,-0.009508872925080247,-0.18487829095364952,0.15265779522875378,0.19833647923811185,0.3500277101993561,-1.8072423934936523,-0.7521369457244873,-0.8582258224487305,0.2738372087478637,0.2503100335597992
1749030023.67495,-5.522521932770832,-0.5885797929883996,-0.692766917640991,4.850717999956159,-2.121143506445519,-3.7305807468533607,0.04857630162759234,-0.036771030718945934,-0.009511300826687484,-0.18648139825004778,0.1541960716091993,0.19960233104407776,0.3456333875656128,-1.8244317770004272,-0.7514184713363647,-0.8639816641807556,0.2655174732208252,0.2600514888763428
1749030023.6749876,-5.522423414710519,-0.5886525180235842,-0.6927831660842839,4.850343487030264,-2.120825870625557,-3.730177004704978,0.0489345151899442,-0.03714238871241004,-0.009535619980996078,-0.18802709971413586,0.1556084985642249,0.20081840208792065,0.3435454666614532,-1.798905611038208,-0.7594606280326843,-0.8264075517654419,0.2431157976388931,0.2751002609729767
1749030023.6751423,-5.522324036594642,-0.5887261384823292,-0.6927996334699446,4.849966343217262,-2.120503859450485,-3.72977024997167,0.049280946422947496,-0.03746589320477517,-0.009584117079231087,-0.18952226152388796,0.15687828462286474,0.20200634261820824,0.3223952949047088,-1.7950648069381714,-0.7653617858886719,-0.8352441191673279,0.2414609938859939,0.2572022676467895
1749030023.6771183,-5.522223749381702,-0.5888006262827259,-0.6928164926692449,4.849586469321011,-2.120177884908623,-3.7293605547169446,0.049617447677884785,-0.03774211385882394,-0.009657274198808762,-0.19097746331355123,0.15799746856845845,0.20318836609607063,0.3506865799427032,-1.8037564754486084,-0.7654862999916077,-0.8352740406990051,0.2593735456466675,0.2823958098888397
1749030023.7182786,-5.522122482301853,-0.5888759452105372,-0.692833903796317,4.8492037512265584,-2.1198484982992767,-3.7289479659156983,0.04994636306264709,-0.037973870684076316,-0.009753853000027637,-0.19240649067492668,0.15896820859324085,0.20438554702517053,0.3527151942253113,-1.8406835794448853,-0.7458693981170654,-0.8273716568946838,0.1969460546970367,0.2678209543228149
1749030023.7183244,-5.5220201548687475,-0.588952046151946,-0.6928520031594136,4.848818063107572,-2.1195163632806766,-3.728532502832378,0.05027023105531816,-0.03816589581857675,-0.009871200307594181,-0.1938253048092123,0.15980318387609407,0.20561621375656203,0.3392426073551178,-1.833531618118286,-0.7706583738327026,-0.8461390137672424,0.2320798933506012,0.2652240991592407
1749030023.7183652,-5.521916692244503,-0.5890288645336318,-0.6928708952073683,4.848429272173927,-2.1191822149116275,-3.728114156385276,0.050591416686005974,-0.038324421429539166,-0.010005690323897216,-0.1952505654382841,0.16052497750888295,0.20689457941245082,0.3464819490909576,-1.842214584350586,-0.7571018934249878,-0.8502087593078613,0.2482930123805999,0.2631212472915649
1749030023.718404,-5.521812041631907,-0.5891063214567486,-0.6928906479141544,4.848037245582241,-2.118846807698308,-3.727692891592024,0.050911731325870714,-0.03845675923545204,-0.010153205561858144,-0.19669788931863927,0.16116446589963787,0.20822972827531291,0.3383965790271759,-1.8063523769378664,-0.752404510974884,-0.8613297343254089,0.2276044189929962,0.2740297615528106
1749030023.718443,-5.521706187185566,-0.5891843285718094,-0.6929112914969804,4.847641858953781,-2.1185108571339417,-3.727268653571175,0.05123209927538402,-0.03857090671227794,-0.010309574272665581,-0.1981800803985516,0.161758392265274,0.20962506401411168,0.307254433631897,-1.8087307214736936,-0.7573601603507996,-0.8751572966575623,0.2531099617481231,0.2728271186351776
1749030023.718483,-5.521599161327911,-0.5892627956391409,-0.6929328199889969,4.847243005064369,-2.118174979975409,-3.72684137675155,0.05155232081636745,-0.038675196262512195,-0.01047091390062517,-0.19970556430895292,0.16234640939499886,0.2110783141941141,0.3345227241516113,-1.84309983253479,-0.7658312320709229,-0.8931183218955994,0.2320313602685928,0.2933812141418457
1749030023.7185292,-5.521491050974522,-0.5893416393334494,-0.6929551949807207,4.846840601051745,-2.11783963857552,-3.7264109962696734,0.05187096971259816,-0.03877801045074382,-0.010633864150252761,-0.2012772190832231,0.16296791749650552,0.21258215052886517,0.3433744013309479,-1.8453152179718015,-0.763784646987915,-0.8589072227478027,0.2189971208572387,0.2929047346115112
1749030023.7185678,-5.52138199756206,-0.5894207919151084,-0.6929783508791592,4.846434592940983,-2.1175050946083034,-3.7259774601721416,0.05218545019887712,-0.03888759802107154,-0.01079571815883532,-0.2028917438489142,0.16365900393543323,0.21412540822076928,0.3002464175224304,-1.8171557188034055,-0.7610145807266235,-0.8884648084640503,0.229938194155693,0.3149812519550323
1749030023.7186055,-5.52127219014042,-0.5895002085813521,-0.6930022012404203,4.846024957155141,-2.117171377852936,-3.72554074085576,0.052492220027211836,-0.039012011917429895,-0.010954469334053587,-0.20453966783194616,0.164449737786922,0.21569477081440436,0.33217653632164,-1.8134821653366089,-0.7674034237861633,-0.8715416789054871,0.2170237749814987,0.2794249951839447
1749030023.7186434,-5.52116185159383,-0.5895798726279325,-0.693026645799939,4.84561169955227,-2.116838275644752,-3.7251008440416835,0.05278716499825299,-0.03915914887507165,-0.011108787422225845,-0.20620607331995905,0.16536201194349584,0.21727666116650263,0.3029221296310425,-1.8500152826309204,-0.7698492407798767,-0.9080850481987,0.2198268175125122,0.2755657434463501
1749030023.718681,-5.521051219230331,-0.5896597980935003,-0.6930515775785785,4.845194853016647,-2.1165053470912722,-3.724657813570048,0.053066094218530965,-0.03933682860182105,-0.01125792986322585,-0.20787206482108678,0.16640807897938933,0.21885900013593534,0.3195546567440033,-1.8421590328216555,-0.7516174912452698,-0.8883178234100342,0.2312787771224975,0.2609896659851074
1749030023.7187183,-5.520940522133886,-0.5897400301646295,-0.6930768891363445,4.844774474545737,-2.1161719630294216,-3.724211730651259,0.0533253117002257,-0.03955283364690511,-0.011401591073606498,-0.20951693067302837,0.16758989376576255,0.2204325111185087,0.2883108258247375,-1.8327401876449585,-0.7586997151374817,-0.9121994972229004,0.2294846177101135,0.2603545188903808
1749030023.718755,-5.52082995850245,-0.5898206439144956,-0.6931024770956874,4.844350642277796,-2.115837368738405,-3.723762707102413,0.053562201591687786,-0.039814836075137826,-0.011539696121393888,-0.21112080001668676,0.16889933592299403,0.22199136720926355,0.3196583092212677,-1.832826018333435,-0.7696858048439026,-0.8944587707519531,0.2257022559642791,0.2606193721294403
1749030023.718792,-5.520719676382159,-0.5899017417284527,-0.6931282445717737,4.843923452371865,-2.1155007624269753,-3.7233108733702394,0.05377574700919352,-0.04013015107140165,-0.011672157935036368,-0.21266742647887202,0.17031931738884,0.22353315385532324,0.3161892890930176,-1.8226243257522583,-0.7547814846038818,-0.8999350070953369,0.243620291352272,0.2899132370948791
1749030023.7188284,-5.5206097605529365,-0.5899834492610205,-0.6931541018188369,4.843493015358284,-2.1151613791697494,-3.722856363239217,0.053966898835773866,-0.040505279528456374,-0.011798637213987113,-0.214146605164218,0.17182568606514548,0.22505828706716546,0.2919862270355224,-1.850932240486145,-0.7551487684249878,-0.8445584177970886,0.2494968026876449,0.2789951264858246
1749030023.718866,-5.520500227124037,-0.5900659094247589,-0.6931799658512398,4.843059451591982,-2.1148185683044782,-3.722399297567397,0.054138723944005034,-0.04094524112516921,-0.011918363136606219,-0.21555574067852293,0.1733897394401764,0.22656913502327689,0.2824169397354126,-1.86082661151886,-0.767747163772583,-0.8656978607177734,0.2360169142484665,0.2904740273952484
1749030023.718903,-5.520391026158734,-0.5901492739843003,-0.6932057599377262,4.842622885691288,-2.11447185330359,-3.7219397691778937,0.05429629067155847,-0.04145275788248346,-0.01203007873734738,-0.2169002708895553,0.17498108498790207,0.22806911754298517,0.3018171489238739,-1.8679430484771729,-0.7607735395431519,-0.8801673054695129,0.2378096729516983,0.2893351316452026
1749030023.7189407,-5.520282051485052,-0.5902336927908265,-0.6932314138175663,4.842183440128079,-2.114120966634785,-3.7214778304470943,0.05444629495526125,-0.04202740318712092,-0.012132158839426147,-0.21819295764453173,0.17657054012750523,0.22956200806712823,0.307726114988327,-1.843207836151123,-0.7792656421661377,-0.9356850385665894,0.2621090412139892,0.2856514453887939
1749030023.7189772,-5.5201731557349865,-0.5903193014710799,-0.6932568652791672,4.841741228206789,-2.1137658567057875,-3.721013484444558,0.05459648542213956,-0.04266485214672173,-0.012222908350173423,-0.21945234362861923,0.1781327649368715,0.2310515606782031,0.3112249970436096,-1.8047537803649905,-0.76133131980896,-0.9063442945480348,0.2571282982826233,0.2724297046661377
1749030023.7190142,-5.520064167903997,-0.5904062093027337,-0.6932820633315577,4.841296346505966,-2.113406668170858,-3.7205466798779736,0.0547549870003134,-0.043356355262411425,-0.01230099111592661,-0.22070080443601447,0.17964836860209432,0.23254146150699295,0.2987098693847656,-1.845544457435608,-0.744468092918396,-0.913993239402771,0.2497370243072509,0.2611985206604004
1749030023.719163,-5.519954910731408,-0.5904944895184838,-0.6933069726586457,4.8408488667256435,-2.113043700081071,-3.7200773096859914,0.054929632736698146,-0.04408853887003011,-0.01236588536674938,-0.2219625509413962,0.18110531027057966,0.23403549022896006,0.3323446214199066,-1.8247781991958616,-0.7375456094741821,-0.903225839138031,0.274425059556961,0.274522453546524
1749030023.7211854,-5.5198452159128415,-0.5905841737964714,-0.6933315785579741,4.840398827105223,-2.1126773486700117,-3.719605212997295,0.055127393509215264,-0.044843626254754416,-0.012418241704021686,-0.22326173857197404,0.18249950345225735,0.23553770575336136,0.3191811442375183,-1.8480414152145384,-0.7507302165031433,-0.8901329040527344,0.2406343519687652,0.2666492760181427
1749030023.7662888,-5.519734936114634,-0.5906752513634735,-0.6933558913171768,4.839946224258577,-2.1123080430565797,-3.7191301804266907,0.05535395578206499,-0.04560014817410387,-0.012460051209472202,-0.22462066232482494,0.18383461526609662,0.23705246751298947,0.2993068695068359,-1.7864696979522705,-0.7517657279968262,-0.8696845769882202,0.2628697156906128,0.2831496298313141
1749030023.7663343,-5.519623953511568,-0.5907676718494626,-0.6933799490965238,4.839491007184018,-2.1119361826582534,-3.718651963206141,0.05561345426196917,-0.046334147909691245,-0.012494599284362183,-0.22605797371586955,0.18512112142915155,0.23858417016948863,0.3259667754173279,-1.7790358066558838,-0.7669851183891296,-0.9113662838935852,0.2384764105081558,0.2577025890350342
1749030023.7663748,-5.519512184853446,-0.5908613504580515,-0.6934038188384928,4.839033075775314,-2.111562084489265,-3.718170287099404,0.055908340205306724,-0.04702080191624986,-0.01252624563920309,-0.22758696673764184,0.18637473085494877,0.24013667675556855,0.3276307582855224,-1.812698006629944,-0.7745030522346497,-0.9022394418716432,0.2145368605852127,0.2649234533309936
1749030023.7664132,-5.519399582925294,-0.5909561740670999,-0.6934275952677967,4.838572285819641,-2.111185946898527,-3.7176848720841935,0.05623936526184151,-0.047636310581332136,-0.012560099785362655,-0.22921416271818656,0.18761432899846095,0.2417125508238316,0.313044786453247,-1.789974570274353,-0.7619482278823853,-0.9398495554924012,0.2447481602430343,0.2804335057735443
1749030023.7664514,-5.5192861341178805,-0.5910520071762472,-0.6934513982997158,4.838108461206841,-2.1108078339945084,-3.717195458256849,0.05660566956929305,-0.048159876012014824,-0.012601650784646454,-0.23093854437451627,0.18885961593524303,0.24331228569618857,0.3334138393402099,-1.763941764831543,-0.7739666104316711,-0.9528926014900208,0.2196569442749023,0.2797410190105438
1749030023.7664895,-5.519171852166926,-0.5911486970258732,-0.6934753689356417,4.8376414125020375,-2.110427682238147,-3.7167018373064034,0.057004966191644815,-0.04857555923407775,-0.012656379728715143,-0.23275173535705762,0.19012864763031848,0.2449337756082689,0.3804880380630493,-1.7632074356079102,-0.7654415369033813,-0.9362264275550842,0.2330824732780456,0.266973614692688
1749030023.7665267,-5.519056768960105,-0.5912460776912564,-0.6934996632209223,4.837170959837981,-2.1100453277346607,-3.7162038873185126,0.05743381338997563,-0.04887379543353755,-0.012729357834936722,-0.23463917473710377,0.1914355282575517,0.24657223806003142,0.3457188010215759,-1.7361478805541992,-0.7530378699302673,-0.8798152804374695,0.2391431629657745,0.2771204113960266
1749030023.7665637,-5.518940924076869,-0.5913439733854643,-0.693524443591956,4.8366969575285115,-2.109660550104876,-3.7157016068731266,0.05788796114198306,-0.0490523647498347,-0.012824828201956935,-0.23658199982428538,0.19278853266397677,0.24822068393189142,0.3493640422821045,-1.7264091968536377,-0.7594254612922668,-0.8772971034049988,0.2527388632297516,0.2598309516906738
1749030023.7666008,-5.518824354912331,-0.5914422014997677,-0.6935498673202267,4.836219317718096,-2.109273126776673,-3.7151951428401704,0.058362741542351396,-0.0491166798375407,-0.012945787618170513,-0.2385591093133939,0.1941889399300703,0.2498708904291875,0.3430840373039245,-1.751905083656311,-0.7651684880256653,-0.8530501127243042,0.2571486234664917,0.3031401336193084
1749030023.7666385,-5.518707088925344,-0.5915405761030476,-0.6935760727008751,4.835738030499486,-2.108882890003902,-3.714684805570587,0.05885345129687704,-0.049079345983944866,-0.013093614406711026,-0.24054888741721245,0.19563081106493962,0.2515147138924265,0.3452608585357666,-1.7345750331878662,-0.7866681218147278,-0.8735801577568054,0.2680977880954742,0.2813473343849182
1749030023.766675,-5.518589139030138,-0.5916389126803132,-0.6936031646658738,4.835253178127626,-2.1084897778843854,-3.7141710659154423,0.05935566690701312,-0.04895905093577644,-0.013267808641468109,-0.24253033776186866,0.1971018330809206,0.2531455091836745,0.3485152423381805,-1.7760602235794067,-0.7878210544586182,-0.9333430528640748,0.2722286283969879,0.2794142663478851
1749030023.7667117,-5.518470502407099,-0.5917370346962068,-0.6936312020754526,4.834764941136829,-2.1080938705621484,-3.713654530805392,0.05986544504648814,-0.04877892705034996,-0.013465905165526369,-0.24448373970354625,0.19858518326787433,0.254759404151206,0.362070083618164,-1.7839934825897217,-0.7934247255325317,-0.9462004899978638,0.2650599479675293,0.2592890858650207
1749030023.7667491,-5.518351162050483,-0.5918347821174916,-0.6936601887997651,4.834273594242419,-2.107695404158338,-3.7131358974356745,0.06037938433309455,-0.04856458135580351,-0.013683585279169613,-0.24639116697722852,0.20006217239712581,0.2563562086805003,0.3332062363624573,-1.7488621473312378,-0.7617305517196655,-0.918546497821808,0.2480075061321258,0.2714676558971405
1749030023.766786,-5.518231089645534,-0.5919320214643069,-0.6936900700241587,4.833779490096366,-2.107294757836522,-3.712615889557913,0.06089455467421457,-0.048342009160894386,-0.01391496457020211,-0.24823716074800606,0.20151525748226987,0.2579398095023536,0.3463447988033294,-1.7476736307144165,-0.765193521976471,-0.8856221437454224,0.2596974968910217,0.2642395198345184
1749030023.7668223,-5.518110248316011,-0.5920286564830028,-0.6937207343657524,4.8332830297594445,-2.1068924133391764,-3.7120951822636834,0.06140833435175801,-0.04813560738772313,-0.014152995961500298,-0.25000958190406736,0.20293093147580663,0.2595180042771182,0.3724780082702636,-1.8047391176223757,-0.7651352882385254,-0.8489629626274109,0.2550305724143982,0.2643843293190002
1749030023.7668593,-5.517988594308315,-0.5921246382920752,-0.6937520215925074,4.832784620343388,-2.10648889057389,-3.711574323524391,0.061918223834787796,-0.04796649089267194,-0.014389917065648898,-0.25170039312406073,0.204302028180974,0.26110184284302285,0.3647679388523102,-1.800118088722229,-0.7625380754470825,-0.8694217801094055,0.2523582279682159,0.2875434756278991
1749030023.7668967,-5.517866077408521,-0.5922199738228062,-0.6937837350184523,4.832284622313559,-2.106084666624389,-3.7110536613781355,0.06242171174023583,-0.0478512771803263,-0.014617690647655925,-0.25330605256121436,0.20562910333817844,0.26270463066898136,0.362945556640625,-1.8196275234222408,-0.762417197227478,-0.878240168094635,0.3040952086448669,0.2828545570373535
1749030023.7669334,-5.517742640548891,-0.5923147314563809,-0.6938156571104581,4.8317832909759915,-2.1056800884755478,-3.710533284927142,0.06291624263911541,-0.04780143210317486,-0.014828420234664888,-0.2548273881512564,0.20692070715169478,0.26434077250725,0.3316149115562439,-1.8055295944213867,-0.758175790309906,-0.9155241847038268,0.2229953408241272,0.2766162455081939
1749030023.766971,-5.517618219353554,-0.5924090429289036,-0.6938475666906097,4.8312807185233675,-2.1052752915422346,-3.710012985435081,0.06339929252852568,-0.047823175141675285,-0.015014748841752872,-0.25626911572772176,0.20819249821041821,0.266024596020726,0.3399919867515564,-1.7985588312149048,-0.7618200778961182,-0.9366342425346376,0.2348206937313079,0.2745486795902252
1749030023.767008,-5.5174927421056035,-0.5925031007777444,-0.6938792563285584,4.830776784562984,-2.1048701365125257,-3.7094922414864593,0.06386852406033963,-0.04791785775947477,-0.015170256673554395,-0.25763933916741044,0.20946526147225852,0.26776923443869266,0.3311728537082672,-1.7918400764465332,-0.7508200407028198,-0.9190162420272828,0.2010662257671356,0.284877747297287
1749030023.767045,-5.517366130188416,-0.5925971507310466,-0.6939105487237223,4.830271123942806,-2.104464175807404,-3.708970230312033,0.0643219831953325,-0.048082672751050014,-0.015289865393221937,-0.2589492922402856,0.21076201832220992,0.2695855995475849,0.3773184418678283,-1.779929518699646,-0.7517613768577576,-0.8955932259559631,0.2077121436595916,0.2839844822883606
1749030023.7670822,-5.517238299190496,-0.592691478601886,-0.693941310805794,4.829763120475073,-2.1040566580315323,-3.7084458664031836,0.06475830028242188,-0.048311529951365874,-0.015370237938198774,-0.26021329339243743,0.21210456969689834,0.2714814524409118,0.3256747126579284,-1.7811816930770874,-0.7518073916435242,-0.8539170026779175,0.2665741145610809,0.3069959282875061
1749030023.7671945,-5.517109161611851,-0.592786391715266,-0.6939714640917646,4.829251933549823,-2.1036465743279136,-3.7079178679668807,0.06517685799034023,-0.04859594333227757,-0.015410138718370025,-0.26144857767090557,0.213509954662602,0.27346057636818627,0.3850245177745819,-1.838951826095581,-0.7517885565757751,-0.8233715295791626,0.2798907458782196,0.3090663552284241
1749030023.769217,-5.516978632599012,-0.5928821957034341,-0.6940009899010059,4.828736561460917,-2.103232745095956,-3.707384850692299,0.06557788897406357,-0.048925814532520914,-0.015410697569154664,-0.26267456331328803,0.21498737005888252,0.2755220699685054,0.38917937874794,-1.806997776031494,-0.7236730456352234,-0.8375104069709778,0.254935085773468,0.2974328696727752
1749030023.8142955,-5.516846639582172,-0.5929791683324335,-0.694029928571171,4.8282159402827025,-2.10281393977944,-3.706845445765852,0.06596247616842621,-0.04929005718301851,-0.015375515274458624,-0.26391130411978864,0.2165360440634777,0.27765980374119403,0.3042452931404114,-1.7929115295410156,-0.7330200672149658,-0.8736585378646851,0.2815569043159485,0.2639168798923492
1749030023.814343,-5.516713135193948,-0.5930775326794314,-0.6940583727807654,4.8276890701690744,-2.1023890168213275,-3.706298434199263,0.06633244793251118,-0.04967707010368711,-0.015310567794770899,-0.26517728053938916,0.218144407435173,0.2798621086064952,0.3630237877368927,-1.8165431022644043,-0.7381168603897095,-0.9054735898971558,0.2724216878414154,0.287811279296875
1749030023.8143878,-5.516578111020882,-0.5931774327567614,-0.6940864561890115,4.827155152409869,-2.101957065537678,-3.7057428821157203,0.06669018750296174,-0.0500751258249732,-0.015223905088104766,-0.2664870656163824,0.21979071511321108,0.28211178877681187,0.3630237877368927,-1.8165431022644043,-0.7381168603897095,-0.9054735898971558,0.2724216878414154,0.287811279296875
1749030023.8144283,-5.5164416081661365,-0.5932789157391865,-0.6941143394707727,4.826613712486347,-2.101517527258595,-3.7051782537946836,0.06703840905758829,-0.05047277619543754,-0.015125180202329615,-0.26784954774275566,0.22144508196720203,0.28438656924924494,0.3444901704788208,-1.8041824102401731,-0.7605330348014832,-0.8967695832252502,0.2625133693218231,0.327072411775589
1749030023.8144674,-5.516303720137183,-0.5933819254339908,-0.6941421961151658,4.826064681436087,-2.1010702723724597,-3.7046044765096795,0.06737997012245145,-0.05085935926915175,-0.015025065800321133,-0.2692672203605031,0.2230727193079828,0.28666008414490596,0.3390768468379974,-1.7584691047668457,-0.746424674987793,-0.8391185998916626,0.267130583524704,0.3392685353755951
1749030023.814507,-5.516164585183408,-0.5934863101387883,-0.6941701999554082,4.825508415267509,-2.100615616739142,-3.7040219392233515,0.06771776614550643,-0.0512256169735,-0.014934609703015366,-0.2707366624431861,0.224637979569984,0.28890345420659624,0.3594090938568115,-1.8247997760772705,-0.7475711107254028,-0.8404223918914795,0.249392420053482,0.3264619708061218
1749030023.814545,-5.516024368628834,-0.5935918444422095,-0.6941985155223253,4.824945649239292,-2.1001542752009774,-3.703431425055436,0.06805469652840214,-0.051564345651221734,-0.014864554852301303,-0.2722499550452967,0.22610864414348003,0.2910873765234666,0.3830488920211792,-1.8570910692214968,-0.7866101264953613,-0.8873306512832642,0.2695822119712829,0.3251850605010986
1749030023.8145826,-5.515883239051815,-0.5936982606834537,-0.6942272913347304,4.824377401639908,-2.099687265037618,-3.7028339956428855,0.06839364091638138,-0.05187095120226048,-0.014824621927389163,-0.27379659622654107,0.22745979054450097,0.29318449808052033,0.3756935596466064,-1.8310374021530151,-0.7739388346672058,-0.928987979888916,0.2756839990615845,0.3098108470439911
1749030023.81462,-5.515741343621372,-0.5938052837603812,-0.6942566554205567,4.823804850877846,-2.099215780812875,-3.7022308543984264,0.06873736986063957,-0.05214377836602849,-0.01482274818704611,-0.27536549766035656,0.22867663049848985,0.2951717452218645,0.2844946682453155,-1.6961421966552734,-0.6927650570869446,-0.82780522108078,0.2098952531814575,0.2839556336402893
1749030023.8146567,-5.515598787512661,-0.5939126631842482,-0.69428671186993,4.823229208676543,-2.098741062633975,-3.701623213762743,0.06908834545574723,-0.05238412461324769,-0.01486430883256054,-0.2769467242706905,0.22975592855310067,0.2970322859376312,0.3374557197093963,-1.802709937095642,-0.7455539703369141,-0.8550662994384766,0.2315141260623932,0.3129779398441314
1749030023.814694,-5.515455621005418,-0.5940201978363169,-0.6943175372053447,4.82265160591852,-2.0982642756805046,-3.7010121839532784,0.06944844203706813,-0.052595937520944304,-0.014951413482197458,-0.27853266775272856,0.23070591508276947,0.29875689943902545,0.383032739162445,-1.820014715194702,-0.7799031138420105,-0.8349795341491699,0.2402949929237365,0.3183528184890747
1749030023.8147304,-5.515311836129547,-0.5941277509495634,-0.6943491758685645,4.822073001136716,-2.0977864132023547,-3.7003986924778514,0.0698187036148078,-0.05278530891696685,-0.0150824379567507,-0.28011839097802743,0.2315448941736687,0.30034465776329444,0.4088274836540222,-1.829162836074829,-0.7751858830451965,-0.8217792510986328,0.2412735074758529,0.3110259175300598
1749030023.8147674,-5.515167372811769,-0.5942352549983643,-0.6943816350422355,4.821494116713813,-2.0973082295920844,-3.69978343683453,0.07019929104941199,-0.052959949809038044,-0.015251965848681362,-0.2817010715134846,0.23229893293684653,0.3018029275819675,0.3407547771930694,-1.8088767528533936,-0.7484056353569031,-0.8724919557571411,0.2527405619621277,0.2755526304244995
1749030023.8148043,-5.515022132873222,-0.5943427080348501,-0.6944148800150894,4.820915404356401,-2.0968302054464023,-3.699166867640666,0.07058971199660316,-0.05312879977041215,-0.015451241232018872,-0.2832788052775866,0.2329990702231253,0.3031467607193642,0.3546657860279083,-1.8004379272460938,-0.7301735877990723,-0.8822153210639954,0.2649102210998535,0.2868959307670593
1749030023.8148403,-5.514875999267218,-0.5944501641099739,-0.6944488318602272,4.8203370386807975,-2.0963525431665846,-3.6985491960555668,0.07098929756483507,-0.053301812400573655,-0.015669100396324152,-0.2848493289624978,0.233678426467376,0.30439777620112446,0.3949918746948242,-1.8659759759902956,-0.7968330383300781,-0.923963189125061,0.2548781633377075,0.3471540808677673
1749030023.814877,-5.514728857493642,-0.5945577205561995,-0.6944833689491842,4.8197589354659565,-2.0958751893240484,-3.69793041799479,0.07139777176939073,-0.05348983790674133,-0.015893222326608038,-0.28640927320446397,0.23436949312326824,0.3055826485680373,0.3645612597465515,-1.8790817260742188,-0.7592378854751587,-0.913403868675232,0.2679032385349273,0.3577677309513092
1749030023.8149135,-5.514580615979529,-0.5946655043308136,-0.6945183329140578,4.819180789498526,-2.0953978781255524,-3.6973103481662495,0.07181570780511966,-0.053704453014579726,-0.016111461863131376,-0.28795429999023486,0.23510177920684516,0.3067312899645134,0.3081555962562561,-1.7781164646148682,-0.7106119394302368,-0.8470084071159363,0.2474896907806396,0.3145816326141357
1749030023.8149505,-5.514431222452604,-0.5947736588554521,-0.6945535386473924,4.81860212622638,-2.0949201886923223,-3.696688658860443,0.07224468257948664,-0.05395758187174055,-0.016313018764865683,-0.2894800493446768,0.23589991624638101,0.30787475607163023,0.3807436823844909,-1.825690746307373,-0.7423686981201172,-0.8202574849128723,0.2498031705617904,0.3052760362625122
