nimar13/UR3e_dataset_trayectorias/trayectorias_ejecutadas_filtradas/jtraj/trayectoria_103_result_filtrado.csv
timestamp,q1,q2,q3,q4,q5,q6,qd1,qd2,qd3,qd4,qd5,qd6,tau1,tau2,tau3,tau4,tau5,tau6
1749027922.7823277,4.666666938258461,-1.4569209703168138,-1.1811035356415036,-3.26606825380676,-0.3080361924698059,4.103090320881907,0.014772214839756555,0.0013196638055218187,-0.008830587612079182,-0.009951369352888486,-0.0027069695463040576,0.01350530816461922,0.2324208915233612,0.903648316860199,0.7927250266075134,0.1380730122327804,-0.375435322523117,0.1303935647010803
1749027922.7823768,4.666686353174801,-1.4569216844727233,-1.1811112377079183,-3.2660816615925574,-0.3080340658520929,4.103103070428223,0.01275808852049819,0.001163620889187352,-0.007434440959733874,-0.008407693841451304,-0.0022900164388927717,0.011725449473543346,0.2130367457866668,0.9010987877845764,0.807616651058197,0.1572514325380325,-0.3594814240932464,0.1581382900476455
1749027922.782417,4.666705166188735,-1.456922363738593,-1.1811185651788425,-3.2660943486704737,-0.30803218041439934,4.103115325934835,0.010759676359806583,0.001009506147327994,-0.006077232549339741,-0.006883885731644238,-0.0018852971028593029,0.009966642322865135,0.2075598835945129,0.9119853377342224,0.8251320123672485,0.17099629342556,-0.3594855368137359,0.1428283154964447
1749027922.7824564,4.666722528248475,-1.4569229049448635,-1.1811251981037423,-3.266105665680881,-0.3080306313510999,4.103126554591835,0.008792376461764253,0.00086122140265327,-0.0047962280698365676,-0.005404385527049616,-0.001504126647954548,0.008251433869661335,0.2094763964414596,0.9067057967185974,0.814347505569458,0.1890751868486404,-0.3384240865707397,0.1130154281854629
1749027922.7824936,4.66673766652766,-1.4569232182371727,-1.1811308756985457,-3.2661150801374155,-0.3080294630060119,4.103136298730853,0.006872806662228065,0.0007223448806570394,-0.003622959908097572,-0.003992982245372903,-0.0011561788693739065,0.006601358964317541,0.1553327888250351,0.8861345052719116,0.8243802785873413,0.1933125406503677,-0.3352628648281097,0.1177059561014175
1749027922.7825346,4.666749931693647,-1.4569232340658622,-1.1811354132911822,-3.266122214449606,-0.30802866229236986,4.103144204138285,0.005019104877838101,0.000595975830705462,-0.002581147172682952,-0.0026721685178730356,-0.0008488936717331298,0.005036312467045181,0.1476394385099411,0.9136255979537964,0.8272991180419922,0.1993202418088913,-0.3181363344192505,0.0843463987112045
1749027922.782595,4.666758834271514,-1.4569229079767043,-1.1811387111018823,-3.2661268681504483,-0.3080281593090217,4.103150038166519,0.003250685094862343,0.000484645307291942,-0.0016855063268893487,-0.0014624604898866725,-0.0005871084440025877,0.0035739370264294005,0.1378403455018997,0.8973585963249207,0.8492333889007568,0.1993818134069442,-0.3049416840076446,0.0998646020889282
1749027922.7826388,4.666764067317874,-1.4569222219449471,-1.1811407549033464,-3.266129022421636,-0.3080278356034555,4.103153696513317,0.001587469826357969,0.00039028914490809143,-0.0009415226483586171,-0.00038171126128525924,-0.00037293150387193486,0.0022290970414988905,0.1353247761726379,0.8887439370155334,0.8571324348449707,0.2126991897821426,-0.3138072192668915,0.082986481487751
1749027922.7826948,4.666765514181474,-1.4569211814786494,-1.1811416094872067,-3.2661288272156592,-0.3080275394119801,4.103155198716219,4.875183724669766e-05,0.0003142684765981341,-0.00034611360505702775,0.0005555530698074538,-0.000205849535243461,0.0010135112784722012,0.130701258778572,0.8967272639274597,0.8861359357833862,0.2378021627664566,-0.2954796850681305,0.07929427921772
1749027922.7827375,4.666763242060084,-1.456919809072244,-1.1811414062061398,-3.266126573482082,-0.30802710608384515,4.103154673536771,-0.0013480747403356384,0.000257416922080308,0.0001109965802528033,0.0013387559618325891,-8.303857319141164e-05,-6.4416216852726e-05,0.1235127598047256,0.8802393078804016,0.8914850950241089,0.2648143768310547,-0.2864236533641815,0.0684127733111381
1749027922.782775,4.666757483866991,-1.4569181360060361,-1.1811403259674467,-3.266122654732857,-0.3080263810281475,4.1031523364541265,-0.002588658128100295,0.0002200922154530462,0.000445440669426746,0.001961839482072282,1.7042322010986117e-07,-0.0009995809296569548,0.117300271987915,0.8932201862335205,0.9062588214874268,0.2523279786109924,-0.2823065817356109,0.057764608412981
1749027922.7828128,4.66674861201304,-1.4569161948785827,-1.1811385792424427,-3.2661175230615043,-0.3080252420495156,4.1031484623864705,-0.0036625084230290134,0.00020221316985680326,0.0006761821709780233,0.002423753158652303,4.973262919004015e-05,-0.0017900423554222872,0.0814471095800399,0.9042271971702576,0.908776044845581,0.246542826294899,-0.281107634305954,0.0394688323140144
1749027922.782852,4.666737107736376,-1.4569140144458397,-1.1811363849552903,-3.2661116447178316,-0.30802361786940213,4.10314335730611,-0.004563398914321676,0.00020326959577128388,0.000823551260431469,0.002728796401233126,7.230173886614718e-05,-0.0024368526625839692,0.0705404952168464,0.8896825909614563,0.9205868244171144,0.2455519586801529,-0.2649664282798767,0.0331280827522277
1749027922.7828913,4.66672352874073,-1.4569116172425878,-1.1811339503472087,-3.2661054597153387,-0.30802150003881945,4.103137332280547,-0.005289366122092846,0.00022230188472868568,0.0009075431253564597,0.0028867079075532674,7.467287720827105e-05,-0.0029439094924854346,0.0538385137915611,0.9051355719566344,0.918258249759674,0.2470635622739792,-0.2714782059192657,0.0524708740413188
1749027922.7829282,4.66670847677209,-1.4569090199301171,-1.1811314539410396,-3.266099349106776,-0.3080189464699613,4.103130682559439,-0.005842399870689114,0.0002578570252555658,0.000946506960955436,0.002912392570637159,6.33028713106175e-05,-0.0033178324453646507,0.0673835948109626,0.8907113671302795,0.9344070553779602,0.2498686462640762,-0.2773789465427398,0.0448238439857959
1749027922.7829657,4.666692565973967,-1.4569062361988778,-1.1811290335071563,-3.2660936126628553,-0.3080160762573117,4.103123673019629,-0.00622793590837244,0.00030793731145748067,0.0009562746657569623,0.0028252289930986727,4.3938559339488075e-05,-0.00356780432927846,0.0616256222128868,0.8992211818695068,0.9318992495536804,0.2677232623100281,-0.2594554126262665,0.0384836494922637
1749027922.783003,4.666676392595396,-1.456903281728573,-1.181126780374462,-3.2660884584948797,-0.3080130567901723,4.103116530099967,-0.006454247360238399,0.00036996538702615086,0.0009497048201180828,0.0026479886915481096,2.1367005232618877e-05,-0.003705302126338428,0.0842765346169471,0.8874408006668091,0.9273303747177124,0.2643712759017944,-0.256509780883789,0.0374552533030509
1749027922.7830434,4.666660506856468,-1.4569001800668235,-1.1811247404757907,-3.266084004423676,-0.3080100850748118,4.103109439503673,-0.006531804981384963,0.0004407930460459002,0.0009365627064648473,0.00240548069841052,-7.133913219427398e-07,-0.0037436768568846067,0.0814311355352401,0.8980590105056763,0.940484344959259,0.2638788819313049,-0.2547510266304016,0.0362813472747802
1749027922.783096,4.666645388470944,-1.4568969677887402,-1.1811229213390977,-3.2660802889199183,-0.308007365772434,4.10310254838316,-0.0064726564499624425,0.0005167801135502906,0.0009236323753040529,0.0021230813952071185,-1.9713232436340424e-05,-0.0036975976589847994,0.0531848669052124,0.8943293690681458,0.9404905438423156,0.2792845964431762,-0.2476488649845123,0.0402151942253112
1749027922.7831593,4.666631428103963,-1.4568936973280853,-1.1811213032304488,-3.2660772880182183,-0.30800508874177357,4.103095970469,-0.006289865453076306,0.0005939629555554675,0.0009149648252515392,0.0018253111362327658,-3.408352644313338e-05,-0.0035824181709606007,0.0597023069858551,0.8838469982147217,0.9332154989242554,0.2829883694648742,-0.2465054094791412,0.0102286972105503
1749027922.7832246,4.666618917062014,-1.456890436465644,-1.1811198520984902,-3.266074934277506,-0.3080034087488487,4.103089792656528,-0.005997050465031703,0.0006683195177111838,0.0009121962425551992,0.0015345864363644649,-4.318136435471584e-05,-0.0034135374076117875,0.0548149347305297,0.8996409773826599,0.9483218789100648,0.2832089066505432,-0.2508089244365692,0.0242683179676532
1749027922.7832904,4.666608046221217,-1.4568872644261437,-1.1811185318677024,-3.2660731344691474,-0.30800242955533313,4.103084081727194,-0.005608065725619898,0.00073611931663743,0.0009149038558069685,0.0012702258301108256,-4.7093750778082286e-05,-0.0032058182311225565,0.0812203884124755,0.8851717114448547,0.9670443534851074,0.2861583232879638,-0.2479863166809082,0.0085268355906009
1749027922.7848814,4.666598913120995,-1.4568842655131364,-1.1811173139467235,-3.2660717837440627,-0.3080021939546572,4.103078889960374,-0.005136863498366693,0.0007943226138706753,0.0009209910040923942,0.0010477340745673179,-4.6442027522772026e-05,-0.0029731060512509493,0.0501724928617477,0.891762912273407,0.9441622495651244,0.2862588167190552,-0.2623859941959381,0.0187088809907436
1749027922.7857292,4.666591534567634,-1.4568815218433557,-1.181116182597724,-3.266070775239254,-0.3080026804742277,4.103074258482461,-0.0045975597527833515,0.0008409653141822517,0.0009271034608264945,0.0008783432747678078,-4.218640285797411e-05,-0.0027278667850588263,0.0702681913971901,0.8717625737190247,0.9637736082077026,0.2839470505714416,-0.271117240190506,0.0177865512669086
1749027922.826294,4.666585861831305,-1.456879106892392,-1.18111513594309,-3.266070005265511,-0.3080038065246149,4.103070217620089,-0.004004696914928202,0.0008754435648658131,0.0009290781527152043,0.0007687568073028222,-3.5446231231442074e-05,-0.002480940935386666,0.0728940889239311,0.8568199276924133,0.9509751200675964,0.2906864881515503,-0.2523917257785797,0.0212443619966506
1749027922.826341,4.666581796225298,-1.4568770812061305,-1.1811141834995276,-3.2660693752010883,-0.30800543707909317,4.103066784380799,-0.003373666089170833,0.0008986090689080197,0.0009224180103694057,0.000721026771656718,-2.734736447064292e-05,-0.002241393598341524,0.0553302839398384,0.873878538608551,0.9549327492713928,0.2969552278518677,-0.2677951455116272,0.0192598886787891
1749027922.8263812,4.666579203609973,-1.4568754907211428,-1.1811133418049256,-3.266068791853516,-0.30800739764247065,4.103063958153681,-0.0027212241029826445,0.000912612302348769,0.0009027781679306606,0.0007325003730238477,-1.890354658705128e-05,-0.002016431300892827,0.0651604607701301,0.8716844320297241,0.956782042980194,0.2850123643875122,-0.2596489787101745,0.0144677646458148
1749027922.82642,4.666577926718428,-1.4568743669808013,-1.1811126297188315,-3.2660681682620467,-0.3080094901788751,4.103061716338602,-0.002066019663214297,0.0009204798372276049,0.0008664433056102677,0.000795793759572659,-1.0934799004917414e-05,-0.0018113566713838162,0.0463506206870079,0.8785310387611389,0.94974023103714,0.283388614654541,-0.2677585780620575,0.0235722325742244
1749027922.8264575,4.6665777943687,-1.456873727908256,-1.1811120644472164,-3.266067426666857,-0.30801151067866184,4.1030600116648275,-0.0014290280712061475,0.0009254654465239158,0.000810774890522902,0.0008987875470716366,-4.022291371479895e-06,-0.0016295391862909175,0.0699198022484779,0.8712285161018372,0.9498996138572692,0.2847549319267273,-0.2563206255435943,0.0183918513357639
1749027922.8264964,4.666578626958533,-1.4568735781015876,-1.1811116586502741,-3.2660665047510475,-0.30801326707515303,4.103058772558991,-0.0008337866763017042,0.0009302563583715475,0.0007346085669303618,0.0010246776860343262,1.5035371868743945e-06,-0.0014723911240917351,0.0800031200051307,0.8538644909858704,0.9393194317817688,0.2871131896972656,-0.2714908421039581,0.014888871461153
1749027922.826548,4.6665802382178505,-1.4568739083713913,-1.1811114185044853,-3.266065365461138,-0.30801459621077243,4.1030579073173,-0.00030632577377046787,0.0009361398268349665,0.0006385831458504245,0.0011521494362639135,5.546797176445963e-06,-0.0013393492678300033,0.113799549639225,0.8280172944068909,0.9235145449638368,0.278253436088562,-0.2730615437030792,0.0389930196106433
1749027922.8265889,4.666582433787107,-1.4568746949078715,-1.181111342380454,-3.2660640098536486,-0.3080153785664056,4.103057312179534,0.00012529458584070662,0.0009422424518695188,0.0005253821053381869,0.0012557639260771178,8.208305292765425e-06,-0.001227873231401989,0.1202895864844322,0.8306973576545715,0.9210767149925232,0.2537323236465454,-0.2683675289154053,0.0346732512116432
1749027922.8266263,4.666585007431646,-1.456875899045607,-1.181111419698272,-3.2660624915109606,-0.308015549617468,4.103056882653186,0.0004318985124050323,0.0009449488163695815,0.0003998666588953468,0.001306651252285928,9.733015064863102e-06,-0.0011334798976938673,0.0928682908415794,0.8157655596733093,0.914766252040863,0.2558507919311523,-0.2710685133934021,0.0309749022126197
1749027922.826668,4.666587735551712,-1.4568774690219268,-1.1811116294396928,-3.2660609302372072,-0.3080151068322163,4.103056526632335,0.000584566158840763,0.0009375898747784658,0.0002690779174338885,0.0012735885077608787,1.0449648719786801e-05,-0.001049839452454919,0.0979387536644935,0.8070746064186096,0.9060297012329102,0.2385981529951095,-0.2651995122432709,0.0319376140832901
1749027922.826706,4.666590370602899,-1.456879344942216,-1.18111193788201,-3.2660595222730597,-0.3080141112775286,4.103056177327954,0.000556412831110504,0.0009104671847568796,0.0001420866910135269,0.0011245050775857198,1.0709029729479638e-05,-0.0009689604329412317,0.0881096646189689,0.8029360175132751,0.902008056640625,0.2386348694562912,-0.272065132856369,0.041156381368637
1749027922.8267434,4.666592634549283,-1.4568814672253692,-1.1811122955598523,-3.2660585443788013,-0.30801268279583804,4.103055804014524,0.0003246670502205506,0.0008512481572791473,2.967492786163526e-05,0.0008284036025022707,1.0826895436836815e-05,-0.0008814877945764935,0.0460406616330146,0.8131879568099976,0.9168707728385924,0.2219765037298202,-0.2799860537052154,0.0462385416030883
1749027922.8267806,4.666594214323661,-1.456883787622598,-1.1811126341613778,-3.266058349823395,-0.30801098831323587,4.10305541891752,-0.0001271144140837148,0.0007457315503011052,-5.615706961119154e-05,0.00035761910684553794,1.1036063504644085e-05,-0.0007771288909497189,0.0278513804078102,0.7959015965461731,0.9302199482917786,0.1968259960412979,-0.2720630168914795,0.0641748830676078
1749027922.8268266,4.666594761871618,-1.4568862810922525,-1.181112864626362,-3.266059355435739,-0.3080092240731378,4.103055079021922,-0.0008069053397613001,0.0005789431290442176,-0.00010285017023064935,-0.00030972993966272265,1.1451814205444161e-05,-0.0006452083471188953,0.0511096641421318,0.7807382941246033,0.9319148659706116,0.1918639689683914,-0.2626220881938934,0.0600148513913154
1749027922.8268764,4.666593901218845,-1.4568889565578151,-1.1811128777690068,-3.2660620202237545,-0.3080075938560934,4.103054882314113,-0.001712390368707033,0.00033648105272882366,-9.809016847811085e-05,-0.001187305154958608,1.2053282334874433e-05,-0.00047533556924539286,0.0109134688973426,0.7613937854766846,0.9376279711723328,0.1818423122167587,-0.2827420830726623,0.0565668232738971
1749027922.8269155,4.666591243831598,-1.4568918647558813,-1.181112548262594,-3.266066817379758,-0.30800628601622393,4.103054959049063,-0.002829725394477459,5.992722563818826e-06,-3.071645151905156e-05,-0.002278373447265323,1.2682550042589433e-05,-0.00025814896890061467,0.0129026398062706,0.7428154349327087,0.9328505396842957,0.170876070857048,-0.2773294746875763,0.0982466489076614
1749027922.8269532,4.6665864114347055,-1.4568951018539924,-1.181111742042851,-3.266074202441005,-0.3080054523739787,4.103055459692306,-0.0041331096123321176,-0.000421365470577464,0.00010832322197246589,-0.0035741533503519554,1.3061997191513048e-05,1.3920746821338145e-05,-0.0096435919404029,0.720513105392456,0.9560275077819824,0.1466748565435409,-0.2745389342308044,0.0825843885540962
1749027922.82699,4.6665790632039865,-1.4568988081326988,-1.1811103263836062,-3.266084580726918,-0.3080051917452964,4.103056541714086,-0.005585337177331763,-0.0009496513790204056,0.0003250522292992853,-0.0050529242699087545,1.2829291171406993e-05,0.0003459475455303275,-0.023008644580841,0.7005705833435059,0.952336847782135,0.1436428278684616,-0.2832594513893127,0.088796466588974
1749027922.8270266,4.666568922945089,-1.4569031616057557,-1.1811081812690953,-3.2660982769813645,-0.3080055401497699,4.103058357240943,-0.0071394090197951085,-0.0015772080321214974,0.0006216795261688356,-0.006680097523557302,1.1588177786455798e-05,0.0007399625300885713,-0.0198946371674537,0.6594800353050232,0.968131959438324,0.1142783612012863,-0.2702669501304626,0.0950929373502731
1749027922.827064,4.66655580196123,-1.456908366950497,-1.181105210405096,-3.2661155097249073,-0.308006468562934,4.1030610429361465,-0.008741185184670574,-0.002296220807605391,0.0009960625052006964,-0.00840938489328827,8.97197756272852e-06,0.0011946591692107132,-0.0746510028839111,0.6512790322303772,0.9919110536575316,0.1118848621845245,-0.2694492042064667,0.0927526354789733
1749027922.827695,4.66653961440453,-1.456914640592842,-1.181101350318622,-3.2661363724412875,-0.30800788779389887,4.103064712764525,-0.010332944844928773,-0.003092842800756296,0.0014415297493077974,-0.010185115708429511,4.715430901241564e-06,0.0017054292588136763,-0.0712246522307396,0.6810835599899292,1.0033429861068726,0.0879770070314407,-0.2669954597949981,0.1174249053001403
1749027922.8296664,4.6665203833747615,-1.4569221931932401,-1.1810965763051633,-3.266160823390845,-0.308009659185984,4.103069453790615,-0.011857593048486296,-0.003947890529442497,0.0019471508893914556,-0.011945643601645316,-1.2706640419181181e-06,0.002264763058722111,-0.0817278176546096,0.6313754320144653,1.0174791812896729,0.0752077624201774,-0.265375941991806,0.1166008561849594
1749027922.8703103,4.666498237458223,-1.4569312110409716,-1.1810909043161981,-3.266188685381958,-0.3080116095348276,4.1030753249715035,-0.013263125192422648,-0.004838037890796988,0.002498488511541638,-0.0136276509358972,-8.828616113912556e-06,0.002862982056303966,-0.1076118275523185,0.5726135969161987,1.0184781551361084,0.06104426831007,-0.2584472000598907,0.135620892047882
1749027922.8703637,4.6664733985321805,-1.456941838064161,-1.1810843882865831,-3.2662196560767174,-0.3080135486231206,4.103082358902335,-0.014506866149011997,-0.005737398664008098,0.003078788024310978,-0.015171012776653831,-1.7494153855986523e-05,0.0034892042719472326,-0.1216205507516861,0.5516622066497803,1.0045469999313354,0.0739097967743873,-0.2665204107761383,0.1422979086637497
1749027922.8704154,4.666446162327849,-1.4569541603950626,-1.181077112966973,-3.266253328369305,-0.30801528784916027,4.1030905663658,-0.015558974785825335,-0.006619381285703687,0.0036704729845885055,-0.01652374447930894,-2.6455543436391404e-05,0.0041323933441072104,-0.0924387648701667,0.5648375153541565,1.008959412574768,0.0914291068911552,-0.2523428499698639,0.1289817243814468
1749027922.870457,4.666416873480992,-1.4569681956194411,-1.1810691829736868,-3.2662892192535864,-0.30801665856932703,4.103099943205667,-0.01640476252489191,-0.007458683354244827,0.004256749188492147,-0.017646463798290175,-3.453889250432612e-05,0.00478232980897356,-0.0923212096095085,0.5806517004966736,1.0243570804595947,0.1025184243917465,-0.241523802280426,0.1415791511535644
1749027922.8704944,4.666385896974391,-1.4569838887601922,-1.1810607093418368,-3.2663268046040033,-0.3080175287968961,4.103110478645837,-0.0170455142939861,-0.008233246818145884,0.0048231078954217846,-0.018515793998897193,-4.0226026383756464e-05,0.005430365902185045,-0.0933045223355293,0.586638331413269,1.0441150665283203,0.124247208237648,-0.2417525947093963,0.1260268241167068
1749027922.8705332,4.666353588432101,-1.4570011164027545,-1.18105179522699,-3.2663655565664413,-0.30801781648033927,4.103122163850714,-0.017497704186651912,-0.00892595128067172,0.005358551267356007,-0.019126247346272267,-4.170953308819335e-05,0.006069871224643322,-0.0882788673043251,0.563896119594574,1.047231912612915,0.120304137468338,-0.2458464801311493,0.167051076889038
1749027922.8705745,4.666320266520276,-1.4570196990224462,-1.1810425224342156,-3.2664049799501824,-0.30801749697911346,4.1031349992601704,-0.017790730885979704,-0.009525831054628935,0.005856411241070497,-0.019490347923634282,-3.698699351705184e-05,0.006696330234746297,-0.1110117584466934,0.5407465100288391,1.035045146942139,0.1147670820355415,-0.2356926500797271,0.1526190340518951
1749027922.8706138,4.666286190965159,-1.4570394198285475,-1.1810329401723154,-3.2664446442487978,-0.3080166024936412,4.103148999138595,-0.017963509048342596,-0.010028671670987381,0.00631467775461394,-0.01963702443374126,-2.3993165409955636e-05,0.007307102676027861,-0.1362814307212829,0.5250654220581055,1.048922061920166,0.1114991307258606,-0.2462684512138366,0.1627866178750991
1749027922.8706512,4.666251548875451,-1.4570600469372144,-1.1810230570283622,-3.2664842085981127,-0.3080152127130477,4.103164192089885,-0.018060394352166446,-0.0104369424869327,0.0067358015009071365,-0.0196085500371841,-7.652144084426637e-07,0.00790090015249133,-0.1248057782649993,0.5061525702476501,1.052384376525879,0.1050231158733367,-0.2307008802890777,0.1667641103267669
1749027922.8706882,4.666216450399611,-1.4570813549867045,-1.1810128368436141,-3.2665234378971215,-0.3080134383544247,4.103180617034326,-0.018126966179218156,-0.010759116867366926,0.007126001415223083,-0.019456464614693504,3.436780091611781e-05,0.008477066186890689,-0.1338103115558624,0.5146690607070923,1.0599472522735596,0.1177139058709144,-0.2365754544734954,0.1622940599918365
1749027922.8707252,4.666180932902221,-1.4571031426738636,-1.181002198964698,-3.2665622093725704,-0.3080114013479112,4.103198315081064,-0.01820614677145058,-0.011008499758972584,0.007494177146597369,-0.019236967312191024,8.258415889036217e-05,0.009034773510142967,-0.1338103115558624,0.5146690607070923,1.0599472522735596,0.1177139058709144,-0.2365754544734954,0.1622940599918365
1749027922.870762,4.666144971393404,-1.4571252439970974,-1.180991023088033,-3.266600509965455,-0.308009216066475,4.103217318607029,-0.018335025190631273,-0.011201719643680767,0.007850577163045816,-0.019006241158663784,0.00014437517963316267,0.009572266919337713,-0.1090276688337326,0.5090581178665161,1.0623104572296145,0.1375744342803955,-0.2301381826400756,0.1765223145484924
1749027922.8707988,4.6661084923302445,-1.457147532706568,-1.1809791584757756,-3.2666384258199592,-0.30800697495904183,4.103237639474103,-0.01854261417313525,-0.011357053114629272,0.008205391464871982,-0.01881611065571744,0.00021938046442420128,0.010086275765899108,-0.1276672333478927,0.4960092902183532,1.0900920629501345,0.1237051710486412,-0.2256461977958679,0.1845034807920456
1749027922.870836,4.666071388252836,-1.4571699209282776,-1.1809664367237496,-3.266676125637726,-0.30800474003201334,4.1032592584978635,-0.01884863099551257,-0.011492746777537977,0.008567431477316865,-0.018710366006908914,0.0003062803587909291,0.01057169566265932,-0.1241479814052581,0.527759313583374,1.089573860168457,0.1144732683897018,-0.2367538809776306,0.1910542100667953
1749027922.8708737,4.666033531605101,-1.457192353777408,-1.180952686693291,-3.266713839755038,-0.30800254007184763,4.10328211790859,-0.01926327911278269,-0.011625492021302957,0.008943039596115261,-0.018722017434785375,0.00040277530393514725,0.01102160188078367,-0.1856088638305664,0.5012180805206299,1.0861016511917114,0.0967686623334884,-0.2173396646976471,0.1700193583965301
1749027922.8709135,4.665994786842152,-1.4572148019893776,-1.1809377499268447,-3.266751836752502,-0.30800037285374726,4.103306117708338,-0.019787917119535925,-0.011769192883076561,0.009335338213172081,-0.018871660406480813,0.0005056790204903562,0.011427614263730674,-0.1621409058570861,0.4763306677341461,1.0872944593429563,0.1011661514639854,-0.2093402445316314,0.1813662946224212
1749027922.8709524,4.665955020253171,-1.4572372542996126,-1.1809214949786682,-3.2667903994065632,-0.3079982113875325,4.103331115915092,-0.020416427987196725,-0.011934137988826898,0.009743881343087889,-0.019167031596535537,0.000611143381094671,0.011780586392556686,-0.1638970375061035,0.4642136991024017,1.101493239402771,0.0857277363538742,-0.2154580950736999,0.1821049451828003
1749027922.8709898,4.66591410711518,-1.4572597107340037,-1.1809038294889371,-3.2668298018485724,-0.3079960129688683,4.103356932175552,-0.021137045088630395,-0.012126640342962718,0.010164720489738172,-0.019603721564085255,0.0007150164478034223,0.012071544116699992,-0.1425809413194656,0.4434218108654022,1.107988953590393,0.1178947240114212,-0.2164718210697174,0.1520138084888458
1749027922.8710268,4.665871936183759,-1.457282177502158,-1.180884709251464,-3.266870289825564,-0.3079937294901533,4.103383354208165,-0.021934367715072654,-0.012349148805621707,0.010590854321246528,-0.02016690031108713,0.0008133122381525389,0.012292762722789022,-0.1721265017986297,0.4662562012672424,1.1077028512954712,0.1021428257226944,-0.205851525068283,0.170908898115158
1749027922.871064,4.665828412032881,-1.4573046640327199,-1.1808641437952303,-3.266912065841123,-0.3079913173764565,4.103410146624862,-0.02279132343291543,-0.01260077325969669,0.011013001191746731,-0.020833825466942697,0.0009027448042349166,0.01243885786410966,-0.1957743763923645,0.4831662178039551,1.11663556098938,0.109425738453865,-0.1967887878417968,0.1795824021100998
1749027922.8716965,4.665783455930096,-1.4573271826346144,-1.180842198122851,-3.2669552805312563,-0.30798874565076056,4.103437061612311,-0.02369090150893586,-0.012878114038970481,0.011420605884932364,-0.02157684871007759,0.0009812565006212363,0.012507769135296342,-0.1976805925369262,0.4391302168369293,1.133960485458374,0.1003174558281898,-0.1797837018966674,0.1664271056652069
1749027922.873675,4.665737005553232,-1.4573497509111446,-1.1808189903475046,-3.2670000307935587,-0.30798600097975504,4.1034638509238395,-0.02461755858248845,-0.013176256230539135,0.01180296368996891,-0.022366610799949005,0.0010484590443408195,0.012501524139010891,-0.2032481133937835,0.4606322646141052,1.1100517511367798,0.088318295776844,-0.1882624328136444,0.1683139950037002
1749027922.914291,4.6656890133102635,-1.4573723963894716,-1.180794685172859,-3.267046364104753,-0.30798308919803774,4.103490278807446,-0.025558251237021344,-0.013489785966301933,0.01215032401164173,-0.023175113984675092,0.0011059128173601226,0.012426678872085302,-0.214431345462799,0.4583248794078827,1.11311936378479,0.1041757613420486,-0.1746885180473327,0.1741380393505096
1749027922.914336,4.665639442875542,-1.457395162320334,-1.180769483550615,-3.267094287544139,-0.30798003360826204,4.103516135609873,-0.026503074085480145,-0.013813705686709548,0.012454835272566921,-0.023978382566481552,0.0011571947649615423,0.012294345996636565,-0.2478430867195129,0.3969593048095703,1.0962077379226685,0.1073358654975891,-0.1926722526550293,0.1700775325298309
1749027922.9143758,4.665588263910232,-1.4574181135742281,-1.1807436094346782,-3.2671437795929767,-0.3079768708477028,4.103541251515394,-0.027445496570125596,-0.014144161065552429,0.012711221615129753,-0.024758470588387472,0.0012077396759513407,0.01211976026407133,-0.2143954783678054,0.399020105600357,1.118323802947998,0.1105395406484603,-0.1721183061599731,0.1584616601467132
1749027922.9144146,4.665535445537965,-1.4574413417482868,-1.1807172951457694,-3.2671948027696414,-0.30797364503904784,4.1035655092521734,-0.028382216309948135,-0.014478933543516169,0.012917136077585968,-0.02550464903170883,0.0012644723116665877,0.011921392006450645,-0.2226067185401916,0.4194969236850738,1.11175537109375,0.1217180863022804,-0.169955313205719,0.1759236752986908
1749027922.914452,4.665480949738038,-1.4574649685912273,-1.180690767112692,-3.2672473153969275,-0.30797040059496944,4.1035888540152055,-0.029312683991772538,-0.014817686410045515,0.013073197675168909,-0.026213697406865043,0.0013352719182822535,0.01171968984676626,-0.2231003940105438,0.4081900715827942,1.1117311716079712,0.1165010035037994,-0.1552262902259826,0.1599641144275665
1749027922.9144917,4.665424726134549,-1.4574891467461748,-1.180664233474943,-3.2673012811921835,-0.3079671739113362,4.10361129874463,-0.030238395471804243,-0.015161971490336046,0.013182770286376605,-0.026889327674372174,0.0014283250545823539,0.011535592485439632,-0.2502684593200683,0.4221725463867187,1.113829255104065,0.0982992947101593,-0.1547318696975708,0.1498247236013412
1749027922.914529,4.665366709473176,-1.45751405704446,-1.1806378743536075,-3.2673566758787476,-0.3079639844328833,4.103632923503994,-0.03116207867108308,-0.015515013729785164,0.013251565891706575,-0.02754087159164821,0.0015514290631797889,0.01138898460337889,-0.2548243999481201,0.4313518702983856,1.116589903831482,0.0919346362352371,-0.1524991691112518,0.1629195809364318
1749027922.9145668,4.66530682046029,-1.4575399022640492,-1.1806118348027352,-3.2674134904725385,-0.3079608260374302,4.103653868891594,-0.03208691421634529,-0.015881305471197902,0.01328715310415427,-0.02818145056554514,0.0017113086330522622,0.011297279198522216,-0.2405814826488495,0.4004939794540405,1.1165753602981567,0.0844016969203949,-0.1413809359073639,0.1602863669395446
1749027922.9146042,4.665244969926443,-1.45756689799765,-1.1805862198635324,-3.2674717311998616,-0.3079576601281386,4.103674324700234,-0.03301591393302045,-0.01626606511260321,0.013298434029502757,-0.02882590322935822,0.0019130029713491088,0.011274285789908786,-0.2374747395515442,0.3903851211071014,1.1160290241241455,0.1087910532951355,-0.1325379014015197,0.1773587763309478
1749027922.9146416,4.665181065684634,-1.4575952616578274,-1.180561091056119,-3.267531416362224,-0.3079544120485231,4.103694515918595,-0.033951544229317974,-0.016674635955457855,0.013295131303828292,-0.029488760642079843,0.002159372446382441,0.011329473012477677,-0.2491665631532669,0.383545309305191,1.124044418334961,0.0797827690839767,-0.1283740103244781,0.1741737127304077
1749027922.9146793,4.66511502095166,-1.4576252006901773,-1.180536464014872,-3.267592571071057,-0.30795097224585016,4.103714688424123,-0.03489563078503045,-0.01711190812404301,0.013287312523149939,-0.030182531762661793,0.002450763121943043,0.01146766694646184,-0.2391336411237716,0.3618849515914917,1.1127365827560425,0.1009935513138771,-0.1377467215061187,0.1870568096637725
1749027922.9147162,4.665046762772415,-1.4576569010386908,-1.1805123073582051,-3.2676552213368635,-0.307947202873773,4.103735096337773,-0.03584952649717143,-0.01758183747316129,0.013284974164166722,-0.03091649807357407,0.0027848576642689653,0.011689161383047533,-0.2732924222946167,0.3781710565090179,1.1195350885391235,0.0851142853498458,-0.1321829855442047,0.1711728870868683
1749027922.9147522,4.664976238717057,-1.457690516941086,-1.180488542967943,-3.267719389030875,-0.30794294930525606,4.103755992090846,-0.036814479886776795,-0.018087115184197994,0.013297706366472789,-0.031696126839849605,0.0031567326608755984,0.011990167989369036,-0.276428073644638,0.3383837640285492,1.1266838312149048,0.0908720195293426,-0.1240955963730812,0.1763698756694793
1749027922.9147892,4.664903420390006,-1.4577261630935423,-1.1804650478166412,-3.2677850887321926,-0.30793805470155133,4.103777619128384,-0.037792117079247005,-0.01862901280458753,0.013334454272814506,-0.03252311390853262,0.0035591328792007075,0.01236350843065023,-0.2664952278137207,0.3561494946479797,1.1322911977767944,0.0898119360208511,-0.1089325994253158,0.1874699890613556
1749027922.9148257,4.664828302887885,-1.4577639099247064,-1.1804416576117904,-3.267852326919353,-0.30793237499387255,4.103800206348069,-0.03878494224074745,-0.01920739335571606,0.01340337549154169,-0.0333959760240766,0.003982956842469916,0.012799445981767856,-0.2648069560527801,0.3873680233955383,1.1413828134536743,0.0887064114212989,-0.1064185351133346,0.1698518097400665
1749027922.9148626,4.664750899990357,-1.4578037822045127,-1.180418172739648,-3.267921103748617,-0.30792579183416907,4.103823963188218,-0.03979675633519129,-0.01982085066859409,0.013511770584986081,-0.03431104232451572,0.004417922124215228,0.01328656852328125,-0.2584910690784454,0.357451856136322,1.1284743547439575,0.09745654463768,-0.1190919429063797,0.1788608282804489
1749027922.914899,4.66467123546876,-1.457845760778424,-1.1803943669452746,-3.2679914176532288,-0.30791822202550856,4.1038490747331595,-0.04083289391328487,-0.020466926927112827,0.013666046032211188,-0.03526365403341615,0.0048533481828994885,0.013812662123037722,-0.2617855668067932,0.3513540029525757,1.1475560665130615,0.0857570990920066,-0.1045839041471481,0.1901936680078506
1749027922.9149363,4.664589331541195,-1.4578897870288352,-1.1803699986849328,-3.2680632728003847,-0.3079096229268139,4.103875696990459,-0.041900198030580454,-0.021142362003353093,0.01387166812805452,-0.036249372926576984,0.0052789725003394156,0.014365541672885389,-0.2875788807868957,0.3524278700351715,1.1385886669158936,0.0798688679933548,-0.084239050745964,0.1919839978218078
1749027922.914973,4.664505196163502,-1.4579357695561028,-1.180344824289922,-3.2681366888988346,-0.307899993895688,4.103903953078055,-0.04300670125775706,-0.021843338205958813,0.014133083215773513,-0.03726501635614549,0.005685713848054506,0.014933817831546136,-0.321781575679779,0.3465220034122467,1.1667298078536987,0.0861157923936843,-0.0922586023807525,0.1732252538204193
1749027922.9150095,4.66441881130047,-1.4579835923615865,-1.18031861143533,-3.2682117121604186,-0.30788937406722816,4.10393393097923,-0.04416104025304083,-0.022565692589762026,0.01445360432776527,-0.03830937101664876,0.006066312990063652,0.015507573735502165,-0.2963008880615234,0.370107889175415,1.1685032844543457,0.0775173008441925,-0.1023055240511894,0.1651811599731445
1749027922.9157062,4.664330124299804,-1.458033123590504,-1.180291151332573,-3.268288425663572,-0.3078778368221939,4.103965682829236,-0.045371675891327005,-0.023305076711265468,0.014835283686100867,-0.03938348843109228,0.006415799778235113,0.016078911277045367,-0.2958448231220245,0.3381596803665161,1.1745615005493164,0.0659228041768074,-0.0878243669867515,0.1646207720041275
1749027922.9177113,4.664239043861956,-1.45808422385547,-1.1802622685296515,-3.2683669571205223,-0.30786548125297086,4.103999225009971,-0.04664601118509347,-0.02405705890717623,0.01527879903310107,-0.040490535950845584,0.006731740890522851,0.0166423211629802,-0.314983606338501,0.3360779583454132,1.175201654434204,0.0730235949158668,-0.1029759868979454,0.1805425733327865
1749027922.9582884,4.664145441065027,-1.4581367533932594,-1.1802318277339132,-3.268447482200027,-0.3078524210373125,4.104034538292822,-0.04798951135769619,-0.02481719046593025,0.015783382138426335,-0.04163526341738826,0.007014218135294461,0.01719484048782986,-0.3178012669086456,0.3498935401439667,1.1974316835403442,0.0731137096881866,-0.1070694550871849,0.1924155801534652
1749027922.9583342,4.664049154950428,-1.4581905777048842,-1.1801997373216209,-3.268530222104321,-0.3078387716643298,4.104071567925309,-0.04940494740273662,-0.0255810826802755,0.016346813905013594,-0.04282322669245037,0.0072654961429365434,0.017735981673659865,-0.3217038810253143,0.3372188210487366,1.1999527215957642,0.0782705396413803,-0.0899541974067688,0.1688030511140823
1749027922.9583745,4.6639500016351025,-1.4582455717072196,-1.180165949313015,-3.268615434920089,-0.30782463784612213,4.104110224366274,-0.05089189282350467,-0.026344548485116182,0.01696550311618746,-0.044059953821006206,0.007489380842625789,0.018267441057386397,-0.3306350111961365,0.3331470191478729,1.2004112005233765,0.0660664066672325,-0.0842622518539428,0.1771070212125778
1749027922.958413,4.663847785711995,-1.458301622710873,-1.1801304558443535,-3.268703401155785,-0.3078101036919331,4.104150385809198,-0.0524465800737233,-0.027103844492514215,0.017634655637965423,-0.045350227161179854,0.00769034293620377,0.018792621493483874,-0.3564611673355102,0.3414029479026794,1.2055586576461792,0.0527196750044822,-0.0843974500894546,0.1889944076538086
1749027922.9584515,4.663742312632402,-1.4583586328006055,-1.1800932825134942,-3.268794404689917,-0.30779522818290844,4.104191903544988,-0.05406216356864392,-0.027856016222574546,0.018348530801140673,-0.04669759367490869,0.007872555686798604,0.019316027763365513,-0.3558484017848968,0.315251886844635,1.218974471092224,0.0570323839783668,-0.0502208173274993,0.1859543174505233
1749027922.9584892,4.663633400797466,-1.458416521399034,-1.1800544792180174,-3.2688887110725915,-0.3077800472944076,4.104234610707581,-0.05572935673351275,-0.028599313723252764,0.019100774460510343,-0.048104135701561565,0.00803904035834983,0.019842610582195618,-0.3425012230873108,0.297110915184021,1.2314326763153076,0.0573296174407005,-0.075642704963684,0.1720389276742935
1749027922.958531,4.663520892221129,-1.4584752287464393,-1.1800141092359697,-3.2689865457386498,-0.3077645820728687,4.104278334179043,-0.057437337389725555,-0.029333615754440778,0.019884812327498377,-0.049570463197701684,0.008191106502106516,0.020377140939052543,-0.3612642884254455,0.2970891296863556,1.2290527820587158,0.0552475452423095,-0.0475304014980793,0.1987056583166122
1749027922.958569,4.663404660788487,-1.4585347206837689,-1.179972237410134,-3.269088075035489,-0.3077488500333844,4.1043229086183075,-0.05917477199020148,-0.030060785355012415,0.020694277576093493,-0.05109583795427238,0.008328218616590867,0.02092369224980494,-0.3387373089790344,0.2923719584941864,1.2167474031448364,0.0831799060106277,-0.0446885116398334,0.1879224479198455
1749027922.958606,4.663284617316812,-1.4585949946841004,-1.1799289183999497,-3.269193392828242,-0.3077328763202232,4.104368190984435,-0.06093080593529299,-0.030784881659268532,0.021523431023286417,-0.05267831835467961,0.00844832975474712,0.02148529507173232,-0.3706134259700775,0.3108696043491363,1.2084585428237915,0.0773119330406189,-0.0438045747578144,0.197571724653244
1749027922.9586427,4.663160710920414,-1.4586560866305314,-1.1798841860628417,-3.269302514784035,-0.30771670141541124,4.104414073727271,-0.06269589893533412,-0.031512169881910794,0.022367516150181628,-0.05431483301164158,0.00854861851125761,0.022063805683612818,-0.3826590776443481,0.3131071329116821,1.232300043106079,0.0488229244947433,-0.0400327183306217,0.1933255642652511
1749027922.958679,4.663032926602912,-1.458718077262283,-1.1798380451442305,-3.2694153814085647,-0.307700383445665,4.104460494957952,-0.06446243456032112,-0.03225089580038717,0.02322298690390429,-0.056001157300580404,0.008626475561934023,0.02265999158747323,-0.3504970669746399,0.29911869764328,1.2236361503601074,0.0526684671640396,-0.0527697540819644,0.1786035150289535
1749027922.9587164,4.662901279422277,-1.4587810965497665,-1.1797904665064907,-3.26953186974543,-0.30768399483709136,4.104507444222523,-0.06622508530035495,-0.03301081513101965,0.024087562154305284,-0.057731848773572014,0.008680534461468933,0.023273788083955086,-0.3728053569793701,0.2968178987503052,1.2257404327392578,0.0362219288945198,-0.0462845675647258,0.1809794455766677
1749027922.9587538,4.662765805857676,-1.4588453239036225,-1.1797413868981717,-3.2696518125081284,-0.30766761468757,4.104554962981656,-0.06798095549561384,-0.03380249184810208,0.02496009305302888,-0.05950024244645813,0.008711540034292312,0.02390463750313904,-0.3996818661689758,0.2620506882667541,1.2272547483444214,0.0288709253072738,-0.0424776040017604,0.1887174844741821
1749027922.958791,4.662626553196269,-1.4589109825130204,-1.179690713637289,-3.2697750223005473,-0.30765131916277894,4.104603139657229,-0.06972954211571221,-0.03463641103763966,0.025840264413086348,-0.061298587284155236,0.008722889475490634,0.02455180661641524,-0.3746821880340576,0.2500248253345489,1.2142722606658936,0.0416309833526611,-0.0569516159594059,0.174609363079071
1749027922.958828,4.662483568008763,-1.458978327322722,-1.17963833370718,-3.2699013176279497,-0.3076351721174538,4.104652100046486,-0.07147254303958926,-0.03552199327962373,0.02672817630408736,-0.06311834498019245,0.008720748666281322,0.02521459753227347,-0.3865861296653747,0.2106173038482666,1.2352830171585083,0.0343059711158275,-0.0580820627510547,0.1867317706346511
1749027922.9588652,4.662336885141259,-1.4590476277251172,-1.1795841259680853,-3.2700305470494877,-0.3076192172813256,4.10470199470782,-0.07321351683236973,-0.03646663173767476,0.02762386484598717,-0.06495061495752304,0.008713721574317468,0.025892414712768017,-0.3646063506603241,0.2444013059139251,1.2370152473449707,0.0421757474541664,-0.0619431622326374,0.1783675849437713
1749027922.9589014,4.662186519011488,-1.459119147213498,-1.1795279747615346,-3.2701626083458124,-0.3076034723539055,4.1047529853463205,-0.07495738153034,-0.03747487711881999,0.02852682575288944,-0.06678661678978622,0.008712120742160307,0.026584703982906323,-0.3661522269248962,0.2351706624031067,1.2280923128128052,0.0455191060900688,-0.0539282411336898,0.1708848029375076
1749027922.9589396,4.662032459101613,-1.4591931225787085,-1.179469783210915,-3.2702974606717046,-0.3075879247083948,4.104805232249031,-0.07670975245141083,-0.03854786556969922,0.029435603030631703,-0.06861815021122111,0.008726943331672845,0.027290817122677478,-0.3911545574665069,0.2529361248016357,1.2123863697052002,0.0482566878199577,-0.0432918593287467,0.206373780965805
1749027922.9589765,4.661874670984744,-1.4592697449199197,-1.1794094848257812,-3.2704351288444684,-0.3075725284094771,4.104858884479685,-0.07847616060296252,-0.03968304098459953,0.030347497197804673,-0.07043795596055606,0.008768694958941153,0.028009868744685817,-0.3641731441020965,0.2440731823444366,1.223449468612671,0.0523633658885955,-0.0371882617473602,0.1880924701690673
1749027922.9590137,4.661713102860647,-1.4593491442971371,-1.1793470523349374,-3.270575699940827,-0.30755720286000077,4.104914073820342,-0.08026124211940047,-0.040874192753733364,0.0312584330608236,-0.07223991508752382,0.008846218579772355,0.028740642908277287,-0.419639527797699,0.1834007501602172,1.2272634506225586,0.0464410334825515,-0.0365581437945365,0.1847404241561889
1749027922.9596596,4.661547695976005,-1.4594313795882135,-1.1792825028990637,-3.270719313172757,-0.3075418339790352,4.104970912408745,-0.08206802119351332,-0.04211181974360996,0.03216301146125618,-0.07401905212305074,0.00896567587251301,0.029481579962920137,-0.403507798910141,0.2333661913871765,1.2218698263168335,0.0542452633380889,-0.0223342590034008,0.1922816634178161
1749027922.961717,4.661378396387094,-1.459516434921829,-1.1792158990717057,-3.2708661445668272,-0.30752627870069466,4.105029492986438,-0.0838974149265488,-0.043383819573522185,0.03305475588855268,-0.07577134986496452,0.009129796853987703,0.030230834831560756,-0.3928054273128509,0.2036149948835373,1.2357481718063354,0.0400253534317016,-0.0028460496105253,0.1943051517009735
1749027923.0063002,4.661205165650598,-1.4596042236339948,-1.1791473452271881,-3.2710163883210575,-0.30751037287878036,4.105089890076473,-0.08574806507916892,-0.044676464312224856,0.033926549610553774,-0.07749343121170367,0.00933746680627538,0.030986359807391513,-0.4117859601974487,0.2101267576217651,1.2278462648391724,0.0526604950428009,-0.0446346439421176,0.185092955827713
1749027923.0063455,4.661027988775354,-1.4596945998649449,-1.1790769797344551,-3.271170236899608,-0.3074939421180901,4.1051521604720556,-0.0876165455646254,-0.04597556557230201,0.03477123580095994,-0.07918219822352507,0.009583667954293754,0.031745950033973624,-0.40706866979599,0.2120517939329147,1.202270269393921,0.0462042316794395,-0.0237418636679649,0.1912827491760254
1749027923.0063856,4.660846878539711,-1.4597873767931526,-1.1790049638291349,-3.2713278619140325,-0.30747681502595375,4.105216342026623,-0.08949791623340117,-0.04726768413657385,0.03558232398348669,-0.08083452868639203,0.009859752128463144,0.03250721304764063,-0.3629397749900818,0.2230121195316314,1.2107733488082886,0.0325229912996292,0.0050068497657775,0.1935712546110153
1749027923.006424,4.6606618757915035,-1.4598823494072315,-1.1789314686512407,-3.2714893975681356,-0.3074588384788765,4.105282450616684,-0.09138651713270712,-0.048541223581110605,0.036354725407278944,-0.08244711769665099,0.010154004385819516,0.033267476000695385,-0.4256981015205383,0.229982852935791,1.215243220329285,0.0414901301264762,-0.0094612464308738,0.1881481111049652
1749027923.006462,4.660473045579873,-1.4599793189726298,-1.1788566620422973,-3.2716549279476075,-0.30743989408033934,4.105350476031142,-0.0932768444471196,-0.04978726589821139,0.037085442018177206,-0.08401652207306616,0.010452463433706184,0.03402369557989973,-0.3994794487953186,0.2328592091798782,1.2184990644454956,0.0399912223219871,-0.0250354930758476,0.184052899479866
1749027923.006505,4.660280469119789,-1.460078116179931,-1.1787806964019354,-3.27182447891656,-0.307419914071513,4.105420378148165,-0.09516433441059181,-0.05100005375467151,0.037774150934518774,-0.08553942581591964,0.010739970134358545,0.03477245644241347,-0.4163275957107544,0.2073620557785034,1.1952661275863647,0.0354991629719734,0.0098887514322996,0.2004717588424682
1749027923.006544,4.660084232073111,-1.4601786203806104,-1.1787036983411645,-3.2719980150897556,-0.30739889432295087,4.105492084850531,-0.09704591174892627,-0.05217708907984338,0.03842363155219329,-0.08701310790078673,0.011001398661994465,0.035510123154432416,-0.4394048750400543,0.219537079334259,1.204963207244873,0.0289304181933403,-0.009909669868648,0.1960625648498535
1749027923.0065837,4.659884410655517,-1.460280773116359,-1.1786257603271444,-3.272175442282146,-0.30737690224825487,4.105565492704151,-0.09892022253312846,-0.05331888332357869,0.03903996323455697,-0.08843606300330786,0.01122298461781735,0.036233158879636816,-0.4105063080787658,0.2158013880252838,1.1892056465148926,0.0160842835903167,0.0052564106881618,0.172194093465805
1749027923.0066214,4.659681058180312,-1.4603845850459463,-1.1785469343047843,-3.272356615641582,-0.30735407824191063,4.105640470772913,-0.10078753648317709,-0.05442844032028198,0.039632401397822384,-0.08980868296472817,0.011393619661565232,0.03693856536055212,-0.3905761539936065,0.1975389271974563,1.180770993232727,0.041166678071022,-0.0050092115998268,0.1706917583942413
1749027923.0066595,4.6594741949797065,-1.4604901361401996,-1.1784672275085777,-3.2725413530334735,-0.3073306299647264,4.105716867391607,-0.10264934938363547,-0.05551056993901287,0.04021285409674766,-0.09113384511814938,0.011505958945789348,0.037624358393237446,-0.4213294088840484,0.1970271468162536,1.2070260047912598,0.0609971433877944,-0.0083783064037561,0.1815157234668731
1749027923.006697,4.65926380387075,-1.4605975695083864,-1.178386601125306,-3.272729452320209,-0.30730681934714965,4.105794519408844,-0.10450775159116679,-0.05657112692507894,0.040794940369200616,-0.09241721882262725,0.011557200540549808,0.038289985754253436,-0.415486991405487,0.2095977663993835,1.1959108114242554,0.05247463285923,-0.00164295732975,0.1888704299926757
1749027923.006734,4.6590498319663345,-1.4607070794740133,-1.178304972740222,-3.272920710417181,-0.3072829427554652,4.105873263285752,-0.10636467055079576,-0.05761625529594638,0.041392692032659995,-0.09366715586065981,0.01154943807305198,0.0389366164765922,-0.4357648491859436,0.1919319033622741,1.1951677799224854,0.0276762694120407,0.000501662492752,0.2034986168146133
1749027923.0067716,4.658832198405765,-1.4608188947750682,-1.1782222233086164,-3.2731149417103533,-0.3072593055535405,4.105952947322064,-0.10822113713734621,-0.05865170027304366,0.04201902926534531,-0.09489416667503522,0.011489539810171236,0.039567262970734596,-0.4212508797645569,0.2028344273567199,1.2026232481002808,0.0371963679790496,-0.0137553103268146,0.1895845979452133
1749027923.006808,4.658610806860961,-1.4609332581626804,-1.178138208736713,-3.2733119935912613,-0.30723619335406843,4.106033444068481,-0.11007674208695743,-0.059682229978392634,0.0426841840728896,-0.09611011707905716,0.011388558063070774,0.040186722008072946,-0.4568287134170532,0.1929447948932647,1.2141101360321045,0.0131054148077964,-0.0104883648455142,0.1886005103588104
1749027923.0068452,4.658385561395924,-1.4610504040362084,-1.1780527752513368,-3.2735117573690786,-0.3072138433138155,4.106114661744967,-0.11192941956481493,-0.06071119039719163,0.04339427002179125,-0.09732733291610808,0.011260723785967904,0.04080132890057049,-0.4487635195255279,0.1969955861568451,1.1961508989334106,0.0210225861519575,-0.0130657069385051,0.1740312576293945
1749027923.006883,4.658156384058146,-1.4611705359433926,-1.1779657769079739,-3.2737141734901605,-0.30719241927280616,4.10619655336642,-0.11377561931551461,-0.06174020176242031,0.04415020080703523,-0.09855777074596365,0.011122133329480746,0.04141851704635389,-0.413045585155487,0.1742531359195709,1.2151374816894531,0.0340232551097869,-0.0033011920750141,0.1773691326379776
1749027923.0069194,4.657923232186404,-1.4612938059367482,-1.1778770931503704,-3.2739192306546956,-0.3071719940119196,4.106279122348012,-0.11561082976029564,-0.06276899504482057,0.044947133308645394,-0.09981234648144395,0.01098927701092211,0.04204618112517928,-0.4206321537494659,0.2284669578075409,1.205862045288086,0.0156348869204521,-0.0102387107908725,0.1837912201881408
1749027923.0069563,4.657686113046256,-1.4614202979209467,-1.177786644382137,-3.274126958967098,-0.30715254071415343,4.106362423643705,-0.11743032970530923,-0.06379538644079484,0.04577454946081756,-0.10110045274739918,0.01087757919996104,0.042691874747887895,-0.3924910426139831,0.1628408730030059,1.204085111618042,0.028764471411705,-0.0071343481540679,0.1950163841247558
1749027923.0069928,4.65744509352502,-1.461550016920768,-1.177694403809274,-3.27433741774598,-0.30713393440296843,4.106446559996176,-0.11923000352192256,-0.06481539746170188,0.046617006516226564,-0.10242965814566117,0.010800114054207569,0.04336192631926527,-0.4696500897407532,0.1746365427970886,1.1932791471481323,0.004090204834938,0.0269283354282379,0.1911374181509018
1749027923.00703,4.657200303373491,-1.4616828854551018,-1.1776004041709789,-3.2745506791595473,-0.30711596294288557,4.10653167354896,-0.12100705394141628,-0.06582354123887997,0.047455493446424565,-0.10380556800296521,0.010766635493271897,0.04406059831906478,-0.3946191072463989,0.2524111866950989,1.1649383306503296,0.036084733903408,0.0038276761770248,0.1821426004171371
1749027923.0070696,4.656951931549585,-1.4618187471534554,-1.1775047385198179,-3.2747668094889573,-0.30709834613953874,4.106617933608829,-0.12276047518962244,-0.06681329473959972,0.048269249224637545,-0.10523182953251121,0.010783017213285413,0.04478941643314279,-0.3912760317325592,0.1916472911834716,1.191460132598877,0.0062498375773429,0.0244534313678741,0.1705986857414245
1749027923.0071075,4.656700216145136,-1.4619573767796488,-1.177407555043573,-3.274985850527623,-0.30708076064082146,4.106705521575953,-0.12449120192266584,-0.06777775533661061,0.04903784176963349,-0.10671027518543955,0.010851138176094366,0.04554675641876612,-0.4323543608188629,0.1823992431163787,1.1837350130081177,-0.0026771835982799,0.0150534734129905,0.1667395532131195
1749027923.0076764,4.656445429014154,-1.4620984951714917,-1.1773090467852652,-3.2752078042420494,-0.3070628679063306,4.106794614108535,-0.12620192380849163,-0.06871045044832713,0.049743276534659035,-0.10824120201068133,0.010969179834262327,0.04632772302031964,-0.4213356375694275,0.1979507356882095,1.155381441116333,-0.0238816812634468,0.0132639333605766,0.1803511977195739
1749027923.0096612,4.65618785687492,-1.4622417873399396,-1.1772094376462132,-3.275432624016882,-0.3070443426324444,4.106885365671208,-0.1278966349900939,-0.06960623519076488,0.05037189030353318,-0.10982376634556955,0.011132244247766866,0.04712431217348825,-0.4515817165374756,0.2257095426321029,1.1221990585327148,0.0174623429775238,0.0144373252987861,0.1717152595520019
1749027923.0503197,4.655927781560122,-1.462386922084599,-1.177108966141648,-3.275660215226455,-0.30702489953723616,4.1069778918558395,-0.12958004387208497,-0.07046216812125972,0.050915791257105984,-0.11145642986176911,0.011333175757273675,0.04792582640285878,-0.4420527517795563,0.2273509502410888,1.1560195684432983,-0.003371924161911,0.0265449285507202,0.1807225048542022
1749027923.0503669,4.655665462732403,-1.4625335718474841,-1.1770078682113814,-3.275890446387172,-0.30700431681171586,4.107072255247715,-0.13125698440191796,-0.07127821154866192,0.051373654972966844,-0.1131373445553742,0.01156347459251788,0.04871951129635054,-0.440945029258728,0.2263828516006469,1.13800311088562,-0.0135798305273056,0.0114705935120582,0.1705018132925033
1749027923.0504076,4.65540112579036,-1.462681431865945,-1.1769063602547054,-3.276123169993065,-0.3069824544553008,4.107168455887086,-0.13293194915591675,-0.07205759334918002,0.051750784726828196,-0.11486453594166843,0.011814213256429517,0.049491385840767975,-0.4193378686904907,0.1961869746446609,1.1463744640350342,-0.0036070495843887,0.022237479686737,0.1781458705663681
1749027923.0504465,4.6551349554999435,-1.4628302377500906,-1.1768046236003584,-3.2763582498933728,-0.30695926535105666,4.1072664281693045,-0.1346088173573106,-0.07280670857530243,0.05205845885380731,-0.11663574847898432,0.012076885760968312,0.05022723365786565,-0.4118784070014953,0.2531776428222656,1.1368861198425293,0.0513314306735992,0.0308069586753845,0.2041841447353363
1749027923.0504842,4.654867093039801,-1.4629797804396696,-1.1767027917221815,-3.2765955904231205,-0.3069347969364236,4.107366045220416,-0.13629078670658387,-0.07353451808733841,0.052312678912407755,-0.11844786874571794,0.01234412677877508,0.050913696386449055,-0.3835442066192627,0.2313495874404907,1.1356083154678345,0.0041863620281219,0.0329901948571205,0.180361658334732
1749027923.050522,4.6545976323760945,-1.4631299174280652,-1.1766009414000642,-3.2768351619800655,-0.30690918223401453,4.107467130663667,-0.1379804557871042,-0.0742514960747812,0.052532493870109526,-0.12029595916418734,0.012610240654316212,0.051539376282442394,-0.4389053583145141,0.21110400557518,1.157465577125549,-0.0114879440516233,0.0246690511703491,0.1839956194162368
1749027923.0505598,4.654326612339856,-1.4632805794852497,-1.1764990885428968,-3.27707701850246,-0.30688262087902485,4.10756947666672,-0.13967996820461248,-0.0749682714239629,0.05273811779603833,-0.12217210064599737,0.012871493680168829,0.05209583971774804,-0.4327939748764038,0.2462625503540039,1.1801596879959106,0.0106823146343231,0.0414715483784675,0.1902857273817062
1749027923.0505972,4.6540540030838695,-1.4634317727969222,-1.1763971886780051,-3.277321304028069,-0.30685535301861916,4.1076728664528686,-0.1413911303498595,-0.07569417936796534,0.05294907883041943,-0.12406438301214491,0.013126151180065172,0.052578434593662945,-0.4605241417884826,0.1962687969207763,1.182806134223938,-0.0287958979606628,0.0344138070940971,0.1824597865343094
1749027923.0506349,4.653779688304963,-1.4635835770827283,-1.1762951415241085,-3.2775682476236705,-0.3068276305480401,4.1077770990438145,-0.1431154479848135,-0.07643597124573483,0.0531826241833199,-0.12595642262191417,0.013374274442651117,0.052986879548846975,-0.445801317691803,0.1794742494821548,1.1776211261749268,-0.0097400546073913,0.0421212241053581,0.1887525618076324
1749027923.0506718,4.653503446661019,-1.4637361405222113,-1.1761927988245786,-3.2778181478839636,-0.3067996902735157,4.107882013723871,-0.14485408552536672,-0.07719691586835774,0.053452557712241715,-0.12782770614252775,0.013617322005799857,0.05332561540397607,-0.4636740088462829,0.1741770505905151,1.197130560874939,-0.0440725833177566,0.0546063855290412,0.2111848592758178
1749027923.0507088,4.653224937092314,-1.463889672069283,-1.1760899746319915,-3.2780713494768854,-0.30677173230884314,4.10798751146026,-0.14660781168939874,-0.07797646447574424,0.05376861253613998,-0.12965488610320133,0.01385762299939775,0.053603907590894784,-0.4901716113090515,0.1819432973861694,1.1887867450714111,-0.024789348244667,0.0402747467160224,0.1885769963264465
1749027923.0507455,4.652943693368944,-1.4640444310813419,-1.1759864573309504,-3.2783282146745023,-0.30674390525411077,4.10809357034071,-0.1483770101439867,-0.07877054490841491,0.054136374248528935,-0.1314139372975369,0.01409780461480491,0.05383566515449079,-0.472987949848175,0.2130684554576873,1.1944513320922852,-0.0153316110372543,0.0384028889238834,0.1955222338438034
1749027923.0507822,4.652659132767572,-1.4642007135162565,-1.1758820228451583,-3.2785890925577097,-0.30671629834797876,4.108200252236695,-0.15016178192131802,-0.07957242513714706,0.05455768527305324,-0.13308287827239124,0.0143402549008198,0.05403892422254715,-0.4366058707237243,0.2308316677808761,1.1942888498306274,0.0124427564442157,0.0391243211925029,0.1883261501789093
1749027923.0508196,4.652370581992333,-1.4643588337389462,-1.1757764486604418,-3.2788542879555824,-0.3066889399131561,4.108307698576988,-0.15196208728120322,-0.08037398357274084,0.05503139438370377,-0.13464462324618046,0.014586686457331879,0.054234947438494066,-0.4344216585159302,0.2186001390218734,1.203985333442688,0.0029647275805473,0.0640701502561569,0.1721465289592743
1749027923.0508697,4.652077320569031,-1.4645191014764776,-1.1756695282825522,-3.2791240316644443,-0.3066618007668177,4.108416114374444,-0.15377782939082052,-0.08116716919957889,0.05555428171445636,-0.13608949558108543,0.014837847788997972,0.05444692650737919,-0.4646215438842773,0.2078354954719543,1.2011762857437134,-0.0083296075463294,0.0740873664617538,0.1798508465290069
1749027923.0509157,4.651778638570818,-1.464681794644446,-1.1755610853456042,-3.2793984535849834,-0.30663480088794315,4.108525741514416,-0.15560879326810867,-0.08194542734395663,0.05612199382418851,-0.13741700430304687,0.015093414688848198,0.05469835436175911,-0.469498872756958,0.2119643092155456,1.2182413339614868,0.0191273540258407,0.0787183344364166,0.2057353556156158
1749027923.050954,4.651473902143401,-1.4648471304732062,-1.1754509858652376,-3.2796775613694207,-0.30660781768027456,4.108636824700612,-0.15745440819310338,-0.08270489193570871,0.056729858764001016,-0.13863662165217266,0.015352076284422344,0.05501124122646639,-0.469498872756958,0.2119643092155456,1.2182413339614868,0.0191273540258407,0.0787183344364166,0.2057353556156158
1749027923.050991,4.651162617519601,-1.4650152391298032,-1.175339146444369,-3.2799612285307016,-0.3065806945740068,4.10874957572644,-0.15931338070397968,-0.08344518557786906,0.0573735027779188,-0.13976745827403228,0.015611799736328267,0.055404425767732295,-0.4910222589969635,0.2404887974262237,1.213873267173767,0.0174556002020835,0.0644956082105636,0.2009047567844391
1749027923.0510278,4.650844483311078,-1.4651861449570498,-1.1752255361972765,-3.2802491963718854,-0.3065532493600824,4.108864142746927,-0.16118331874121208,-0.08416971262856199,0.05804924228997082,-0.14083688394361837,0.01587022053310948,0.05589222015216131,-0.4836296141147613,0.2625579535961151,1.2108019590377808,0.0084440223872661,0.0567761063575744,0.2112149000167846
1749027923.0510635,4.650519422668077,-1.4653597598122126,-1.175110171165094,-3.2805410924552194,-0.3065252824938654,4.108980590298183,-0.16306049626588928,-0.08488537764131573,0.058754265153420214,-0.1418782636878249,0.016125078673876952,0.0564835306664263,-0.4836296141147613,0.2625579535961151,1.2108019590377808,0.0084440223872661,0.0567761063575744,0.2112149000167846
1749027923.0517364,4.65018759045552,-1.4655358909715035,-1.1749931016448878,-3.2808364652361703,-0.306496586357774,4.109098893486297,-0.1649398729599308,-0.08560172406556744,0.05948663696961414,-0.1429280576482612,0.016374613537398584,0.057181477625809045,-0.5395267605781555,0.2720323204994201,1.2163002490997314,-0.0119080245494842,0.0599313750863075,0.207278236746788
1749027923.0536785,4.649849354553813,-1.4657142632406845,-1.1748743943981306,-3.2811348312031994,-0.3064669566560741,4.109218947017722,-0.1668154004118565,-0.08632957687480187,0.060245171696823564,-0.1440225704881502,0.01661783837656672,0.05798345916603664,-0.4639663100242615,0.1945795714855194,1.2488765716552734,0.008439652621746,0.0424159914255142,0.2139139920473098
1749027923.098329,4.6495052546936275,-1.4658945516385733,-1.1747541128867824,-3.2814357278096926,-0.306436206526678,4.109340586976356,-0.1686805477540876,-0.08707937781181538,0.06102920074550611,-0.14519464735183057,0.0168546347949347,0.05888157369776499,-0.4124370515346527,0.2219173312187194,1.2583972215652466,0.0044986382126808,0.0575772821903228,0.2151576727628708
1749027923.098375,4.649155946457204,-1.4660764182478931,-1.1746322993295781,-3.2817387633193906,-0.3064041828612673,4.109463620724001,-0.17052890580659893,-0.08785948826097689,0.06183827439136779,-0.1464706145293796,0.017085641713787052,0.05986331296526743,-0.5130017399787903,0.2122496217489242,1.2543491125106812,-0.0179872661828994,0.0763368755578994,0.211002841591835
1749027923.0984163,4.648802140281077,-1.4662595461045735,-1.174508961975809,-3.2820436549499887,-0.3063707832022599,4.109587858716703,-0.17235471286659337,-0.08867476260210376,0.06267183572462567,-0.14786776300282928,0.017311966178583594,0.06091244340393248,-0.4733976125717163,0.1956700086593628,1.2425296306610107,-0.0358339361846447,0.0742308050394058,0.2019146680831909
1749027923.0984557,4.648444544356147,-1.4664436647106225,-1.1743840695700014,-3.2823502497170853,-0.30633597082365427,4.109713142021199,-0.1741531946808454,-0.08952564820817337,0.06352891513660805,-0.14939266218708852,0.017534803806110003,0.06201000440114049,-0.4750148057937622,0.2208623588085174,1.2693442106246948,-0.0121373496949672,0.0665342062711715,0.2137224525213241
1749027923.098495,4.648083817329878,-1.4666285646127075,-1.1742575533382549,-3.2826585264667787,-0.3062997853712859,4.109839360881042,-0.17592070396907308,-0.09040796485830623,0.06440790165763746,-0.15104054147119275,0.017755095801995042,0.06313536752937057,-0.512437641620636,0.1970053315162658,1.301313042640686,-0.0309555903077125,0.0981037616729736,0.2165699452161789
1749027923.0985334,4.647720533383148,-1.466814101103624,-1.1741293155521486,-3.2829685810298552,-0.30626234669780306,4.109966462276612,-0.17765473830580672,-0.09131339326824979,0.06530644858591345,-0.1527958690974359,0.017973339036783446,0.06426731353921555,-0.486216276884079,0.206691175699234,1.2839879989624023,-0.0398357510566711,0.0679481104016304,0.2069196999073028
1749027923.0985713,4.6473551596378835,-1.4670001890601456,-1.1739992427469887,-3.283280598720081,-0.3062238501913371,4.110094447171192,-0.17935395549072564,-0.09223059228478044,0.06622154365554743,-0.15463410233067956,0.018189602829155875,0.06538508556197294,-0.4536569714546203,0.2559492588043213,1.270730972290039,-0.0034332200884819,0.0680245980620384,0.1951947212219238
1749027923.0986094,4.646988044385333,-1.467186792251236,-1.1738672209461931,-3.283594819583759,-0.30618455299137237,4.11022336020789,-0.1810182638565529,-0.09314678164048856,0.0671497156788307,-0.15652441153747895,0.018403720265273846,0.06646937135267592,-0.5121261477470398,0.198565125465393,1.2768640518188477,-0.0194915663450956,0.0692412927746772,0.2033891975879669
1749027923.098647,4.646619414223129,-1.467373910913842,-1.1737331500759336,-3.2839115019721117,-0.3061447520376774,4.110353275662009,-0.18264897514748563,-0.09404957289722315,0.06808729546518713,-0.15843303507551038,0.018615555852012997,0.06750317013093547,-0.4373017251491546,0.2266757190227508,1.2694908380508425,-0.0069617368280887,0.0736009776592254,0.2068601846694946
1749027923.0986848,4.646249378376667,-1.4675615707613328,-1.1735969552871997,-3.2842308893757974,-0.30610475656429686,4.110484283450688,-0.18424894093404293,-0.09492880132167596,0.06903063775364111,-0.1603268468105538,0.018825233842297128,0.06847251720686506,-0.4790060520172119,0.259386658668518,1.269075632095337,-0.0284288376569747,0.0649596154689788,0.2395196855068206
1749027923.098722,4.645877938736397,-1.4677498151801431,-1.1734585938327158,-3.2845531843420086,-0.30606485871304484,4.110616477996555,-0.18582259063583428,-0.09577810103696888,0.06997624606212845,-0.16217672957885104,0.019033243335860282,0.06936705446818725,-0.4564934372901916,0.2523176670074463,1.2489579916000366,-0.0152504295110702,0.0734564438462257,0.2150650769472122
1749027923.09876,4.64550500417688,-1.4679387009434743,-1.1733180570676696,-3.284878531910016,-0.3060253059836064,4.110749950989166,-0.18737583480273387,-0.09659597781309129,0.07092079673582496,-0.1639604117575457,0.01924039418379284,0.070180425009854,-0.4990251660346985,0.257210910320282,1.294588565826416,-0.0319848656654357,0.0771109238266944,0.192369744181633
1749027923.0988023,4.645130407549458,-1.4681282968981115,-1.1731753679166492,-3.2852070135373155,-0.305986278606234,4.110884787317348,-0.1889158505677607,-0.097386182611458,0.07186110222522472,-0.16566449663592625,0.01944765164168797,0.07091044645030595,-0.5633710622787476,0.2489665895700454,1.2836774587631226,-0.0064321607351303,0.0900156199932098,0.2019922286272049
1749027923.098842,4.644753923602748,-1.4683186848438232,-1.1730305748582568,-3.2855386511308726,-0.3059478741687851,4.111021062568631,-0.1904507918070135,-0.09815728492281858,0.07279406757386644,-0.16728548604471397,0.01965590765415954,0.07155902149410112,-0.4555772542953491,0.2450896203517913,1.253673791885376,-0.0327659547328949,0.0892959013581276,0.2047084122896194
1749027923.09888,4.644375286283983,-1.4685099619354425,-1.1728837441111442,-3.285873419632484,-0.3059101009939585,4.111158840824451,-0.19198944690972136,-0.09892148048422521,0.07371667446131942,-0.16882968613448995,0.019865749060189505,0.07213179419901587,-0.4580843150615692,0.2206863909959793,1.281427979469299,0.0010987818241119,0.0860785320401191,0.2028101682662964
1749027923.0989175,4.6439942045103395,-1.4687022439719288,-1.1727349519927248,-3.286211265661723,-0.3058728806636585,4.111298172433676,-0.1935408163936764,-0.09969281723275997,0.07462599065011064,-0.17031199681449194,0.02007726719866475,0.07263761576249206,-0.4465754628181457,0.2130845487117767,1.2517942190170288,0.0083868205547332,0.0982071682810783,0.2061361223459243
1749027923.0989566,4.643610376301767,-1.4688956686554693,-1.1725842790958982,-3.286552129084207,-0.30583605892987054,4.111439092224457,-0.19511355003161926,-0.1004851475877764,0.07551917600051802,-0.17175372239211023,0.020289935275904475,0.07308789068783562,-0.4374082088470459,0.2158105075359344,1.2479077577590942,-0.0385650470852851,0.0812321156263351,0.1863975971937179
1749027923.0989938,4.64322350169279,-1.4690903974646432,-1.1724318070641127,-3.286895964138833,-0.3057994233711436,4.111581618880541,-0.19671521440888098,-0.10131017569309839,0.0763934522308759,-0.17317967699700662,0.020502571589070984,0.07349583215051013,-0.4907522797584533,0.187662661075592,1.246833324432373,-0.0091761127114295,0.0773025304079055,0.198819100856781
1749027923.099031,4.642833294895859,-1.4692866145892576,-1.1722776177663794,-3.2872427568910414,-0.30576272550636086,4.11172575596537,-0.19835145109641467,-0.10217594472046773,0.07724601586890509,-0.17461496465411486,0.020713407155796136,0.07387561442384649,-0.4870369434356689,0.1944735050201416,1.2245161533355713,-0.0164769738912582,0.1084296032786369,0.1923217177391052
1749027923.0990684,4.6424394958740915,-1.4694845217239776,-1.1721217940390918,-3.287592536224942,-0.3057257045254031,4.1118714944815595,-0.2000251760952989,-0.1030860084630458,0.07807389166423431,-0.17608186289270542,0.02092027309235281,0.07424141587281437,-0.4782794415950775,0.2040859460830688,1.2334569692611694,-0.0022440776228904,0.0809665620326995,0.2112044394016266
1749027923.099105,4.642041880893423,-1.469684328450238,-1.171964420996329,-3.287945376471696,-0.3056881095903875,4.112018816302185,-0.20173600306166398,-0.10403938191369806,0.07887374234058483,-0.17759721461648267,0.02112090296628834,0.07460639949665455,-0.4948983788490295,0.2073352932929992,1.2238515615463257,-0.0297970324754714,0.0844461396336555,0.2040896862745285
1749027923.0991418,4.641640270865249,-1.4698862392527228,-1.1718055869840933,-3.288301391229225,-0.3056497181681368,4.112167697685979,-0.2034800315514262,-0.10503120698361773,0.07964167021053095,-0.17917064092301643,0.021313305767519115,0.07498173929209401,-0.479142814874649,0.1923104971647262,1.2286983728408811,-0.0340060889720916,0.086586982011795,0.2290417104959488
1749027923.099702,4.64123453575777,-1.470090439506236,-1.1716453833815932,-3.288660719666425,-0.3056103490123261,4.112318112343346,-0.20525006178971336,-0.10605394020687606,0.08037306639299752,-0.18080374874645336,0.021496121876326033,0.07537582370793858,-0.4670569002628326,0.1849518716335296,1.214956283569336,-0.0199124440550804,0.0705975890159607,0.2125515937805175
1749027923.1017582,4.640824593610806,-1.4702970834365487,-1.1714839027382133,-3.2890235079517383,-0.30556986972988753,4.11247003379089,-0.20703622065901522,-0.10709879263785468,0.08106257675533061,-0.18249034586373172,0.021668854412139664,0.07579373798731251,-0.482647180557251,0.2175655215978622,1.2012981176376345,-0.0080153793096542,0.0930374041199684,0.2031307518482208
1749027923.1463258,4.64041040386832,-1.470506286621877,-1.1713212352837437,-3.2893898889868454,-0.305528199798207,4.112623436767259,-0.20882692610234707,-0.10815713277853414,0.081704249230468,-0.18421751992093935,0.02183188926811564,0.07623706996582799,-0.4862978756427765,0.2037681639194488,1.2097452878952026,-0.0150255784392356,0.090601161122322,0.2162885069847107
1749027923.1463714,4.63999195626872,-1.4707181241466931,-1.1711574645044762,-3.2897599635321213,-0.30548531020430836,4.112778297315627,-0.21061007908878568,-0.10922159735700655,0.08229190222660887,-0.18596732154639425,0.021986274167505628,0.07670403661646705,-0.5076788663864136,0.2262530177831649,1.19697368144989,-0.0140375867486,0.0881805270910263,0.2245277315378189
1749027923.1464124,4.639569257622498,-1.4709326337756263,-1.1709926629779623,-3.2901337853890533,-0.3054412207843178,4.11293459100713,-0.21237434813611206,-0.11028673762806476,0.08281971653904398,-0.18771874482587178,0.022133297983648423,0.07718991114406726,-0.5013602375984192,0.2015363276004791,1.2006396055221558,-0.0252728462219238,0.0961730629205703,0.2352105528116226
1749027923.1464517,4.639142319169539,-1.4711498223608623,-1.1708268898186396,-3.290511352562514,-0.30539599626094965,4.11309228895837,-0.2141103903313354,-0.11134915017019113,0.08328301085361875,-0.18944973459408473,0.022273970294462594,0.07768773168592244,-0.4733604490756988,0.181988924741745,1.185091853141785,-0.0191967338323593,0.0835202857851982,0.2208551168441772
1749027923.1464903,4.6387111470535975,-1.4713696735701964,-1.1706601907973295,-3.2908926052278322,-0.3053497418938353,4.113251351862473,-0.21581183523188482,-0.11240717341748892,0.08367911435110298,-0.19113905034971354,0.022408529442915943,0.07818926443673234,-0.5033252239227295,0.1364557594060897,1.2069003582000732,-0.0247093886137008,0.0930945873260498,0.2241759002208709
1749027923.146529,4.638275737947256,-1.4715921556843068,-1.1704926014948627,-3.2912774301655645,-0.3053025991696119,4.113411723015926,-0.21747586661032034,-0.11346032778607436,0.08400820150712143,-0.19276792839955628,0.02253610164890545,0.07868616141464203,-0.4903463125228882,0.1664485335350036,1.1330286264419556,-0.020006239414215,0.0943901240825653,0.2154125571250915
1749027923.146567,4.6378360809644015,-1.471817228987291,-1.1703241529553339,-3.291665670481367,-0.3052547410597857,4.113573322010245,-0.21910329041812893,-0.11450869844664342,0.08427391874708459,-0.1943215476268382,0.022654603064173277,0.07917120980236327,-0.4787411987781524,0.1916656792163849,1.1616029739379885,-0.019016146659851,0.1013547256588935,0.2226999998092651
1749027923.146605,4.637392165767548,-1.4720448526292018,-1.1701548784853248,-3.2920571389882136,-0.30520636570776116,4.113736041177752,-0.2206980643843134,-0.11555240890873579,0.08448363835601132,-0.19579029173706655,0.02276093142476488,0.07963953955177942,-0.5238988399505615,0.1900967955589294,1.1904940605163574,-0.033230572938919,0.1117138043045997,0.2297444641590118
1749027923.1466424,4.6369439954665195,-1.4722749907328012,-1.169984819708605,-3.292451633497011,-0.30515768752206035,4.113899746851041,-0.22226635866769587,-0.11659125331548822,0.08464824297027422,-0.19717073022945078,0.022851437794297522,0.08008964654416954,-0.4981988668441772,0.1917799413204193,1.1722829341888428,-0.004807062447071,0.0856220126152038,0.2116643190383911
1749027923.1466804,4.636491601745303,-1.4725076172330016,-1.1698140299252842,-3.2928489523877387,-0.3051089254266491,4.114064286790233,-0.22381529992143673,-0.11762448795379236,0.08478145545356278,-0.19846616361041777,0.02292260382696937,0.08052409216201713,-0.4706371426582336,0.176782876253128,1.183741807937622,-0.0058381035923957,0.0856920331716537,0.2172203660011291
1749027923.1467175,4.636035058871208,-1.4727427187647923,-1.1696425733810605,-3.293248909103665,-0.3050602889625714,4.114229503727556,-0.2253516140247397,-0.1186507445838684,0.08489883020129642,-0.19968655194567062,0.02297178688285458,0.08094975231101115,-0.4623149335384369,0.1928354948759079,1.1770789623260498,0.0271716862916946,0.0768422037363052,0.2294153273105621
1749027923.1467552,4.635574493205183,-1.472980294993915,-1.1694705201039997,-3.293651344373324,-0.30501196369720235,4.114395253298145,-0.22688041642123624,-0.1196680148222173,0.0850165733049831,-0.20084770144948255,0.0229978577711206,0.08137751950980744,-0.5057479739189148,0.194786712527275,1.2046812772750854,0.0095701962709426,0.0721741020679473,0.21710005402565
1749027923.146793,4.6351100857928005,-1.4732203560797907,-1.16929793709836,-3.2940561349211737,-0.30496409779247785,4.11456142334307,-0.228404388899001,-0.12067365670417417,0.08515036223939729,-0.201969714639373,0.02300156923524376,0.08182142702218194,-0.4828113615512848,0.1876540780067443,1.184605598449707,0.0143589377403259,0.0902791991829872,0.2284402698278427
1749027923.1468303,4.634642067232648,-1.473462917371275,-1.1691248775138956,-3.2944631974688523,-0.30491679148157197,4.114727951145733,-0.2299235109338282,-0.1216643926679771,0.08531431174816276,-0.20307487401081156,0.02298556332763,0.08229726604154906,-0.4670394659042358,0.1969591081142425,1.2246850728988647,-0.0039374455809593,0.0685532987117767,0.2124199420213699
1749027923.1468678,4.634170705528937,-1.4737079919070297,-1.1689513698347824,-3.294872487353284,-0.3048700906870306,4.114894835630336,-0.23143538423700843,-0.12263630937663891,0.0855201963908695,-0.2041852702643857,0.022954028063818396,0.08282087403213154,-0.441984623670578,0.1693917959928512,1.2362568378448486,-0.0150297880172729,0.0776021033525466,0.2227970957756042
1749027923.146906,4.633696288553925,-1.4739555817430778,-1.1687774091995384,-3.295283992155973,-0.30482398542647055,4.115062142651286,-0.23293604095727252,-0.12358492395675054,0.08577699599099836,-0.20532056121591047,0.022912106711738503,0.08340633302923112,-0.4616777896881103,0.2011478245258331,1.2056206464767456,-0.0312154293060302,0.0900593698024749,0.2077101916074752
1749027923.146943,4.633219103136009,-1.4742056694286059,-1.1686029526856518,-3.29569772199845,-0.3047784132393912,4.115230002845001,-0.23442102074751128,-0.12450540976726841,0.08609077558997824,-0.20649624066837247,0.022865213273831404,0.08406430624756338,-0.4811761081218719,0.1581254005432129,1.228910207748413,-0.0435862317681312,0.0837587714195251,0.1968749314546585
1749027923.1469803,4.632739412941961,-1.474458211049755,-1.1684279198145657,-3.2961136990977673,-0.3047332674991446,4.115398602674877,-0.23588647999918103,-0.125393039818868,0.08646485001239436,-0.20772270641177268,0.022818406090072515,0.08480068683505869,-0.4840446710586548,0.2126739472150802,1.21861732006073,-0.0395317077636718,0.080362282693386,0.2182216495275497
1749027923.1470177,4.6322574374982874,-1.4747131321621016,-1.1682521987191232,-3.296531949395871,-0.30468840990350265,4.115568169976625,-0.2373301516622745,-0.12624381718992728,0.08690013595476327,-0.20900525322684763,0.02277593236806214,0.08561568057975684,-0.431015133857727,0.2213481366634369,1.2106939554214478,-0.0238462761044502,0.0537326075136661,0.2330675721168518
1749027923.147055,4.63177333497244,-1.4749703275221475,-1.168075657326215,-3.296952498490502,-0.3046436857271896,4.115738955506874,-0.23875206339936217,-0.1270551754508701,0.08739558959236664,-0.21034491345557088,0.02274100340909187,0.08650340969003031,-0.4858785271644592,0.1673712879419326,1.256730079650879,-0.0406078100204467,0.0744998678565025,0.2138226628303527
1749027923.1470933,4.631287191437778,-1.475229664687271,-1.167898157594367,-3.2973753729359743,-0.3045989399110036,4.115911212034025,-0.2401549946267258,-0.12782659502529728,0.0879486725918233,-0.2117398778897482,0.022715811675797306,0.08745208505984302,-0.5084143280982971,0.1966228485107422,1.2714778184890747,0.002418665215373,0.0772478207945823,0.2195701897144317
1749027923.1471298,4.630799018825604,-1.4754909904536189,-1.167719569777007,-3.2978006066265038,-0.3045540319791564,4.116085172756,-0.2415446788901968,-0.128559994079656,0.08855585597024224,-0.21318710628865603,0.022701763771800467,0.08844473329670423,-0.4780909419059753,0.1998156905174255,1.2772780656814575,-0.0010344758629798,0.0787283629179,0.2380415052175521
1749027923.147714,4.630308762417119,-1.4757541382788804,-1.1675397834992525,-3.298228250776273,-0.30450884802082295,4.116261031248503,-0.24292974377751875,-0.12925979211207195,0.0892132095950619,-0.21468371513903697,0.022699874382451215,0.08946039847262532,-0.4405597746372223,0.1888005435466766,1.286497950553894,-0.0196590572595596,0.0952032506465911,0.2239036411046981
1749027923.149667,4.629816316815272,-1.4760189348866068,-1.1673587133214915,-3.298658385254933,-0.30446330834795293,4.11643892524778,-0.24432136057604334,-0.12993260353932432,0.08991710014312825,-0.21622781922408943,0.022711237487019018,0.0904756913041997,-0.4904038608074188,0.2226791530847549,1.2826480865478516,-0.0427411496639251,0.0803878158330917,0.2075308263301849
1749027923.190294,4.629321547489211,-1.4762852052672466,-1.1671762979360325,-3.299091128864262,-0.3044173699798059,4.116618926020636,-0.2457325793477945,-0.13058660274083356,0.09066494028937762,-0.2178186730643622,0.022737462551980697,0.09146653423527808,-0.4500720798969269,0.1994161605834961,1.2737882137298584,-0.0234412923455238,0.0674433559179306,0.2207066714763641
1749027923.1903405,4.628824313806351,-1.4765527766205029,-1.1669924935327798,-3.2995266463888244,-0.3043710239921133,4.116801034140262,-0.24717735517045794,-0.1312306945704237,0.09145584189765384,-0.21945614291589496,0.022780949224589706,0.09240994287146288,-0.4769307374954223,0.1899049133062362,1.2602587938308716,-0.0318407677114009,0.0589923486113548,0.2154899984598159
1749027923.190382,4.628324489238777,-1.4768214825483972,-1.1668072628747106,-3.299965150573538,-0.30432428888795227,4.116985181678507,-0.24866931781394017,-0.1318736806314321,0.09229097400390716,-0.2211396809919091,0.02284489489917488,0.09328569397441104,-0.4748830199241638,0.2015549540519714,1.2478439807891846,-0.0379817634820938,0.0673701092600822,0.2328168749809265
1749027923.190421,4.627821975195193,-1.4770911686804484,-1.1666205622932377,-3.300406897491938,-0.3042772019081025,4.117171240370333,-0.2502203965059709,-0.1325235965307119,0.09317343686409434,-0.22286705607594814,0.02293299422222213,0.09407776141335579,-0.4619334638118744,0.2215067148208618,1.2584209442138672,-0.0341803878545761,0.0856151059269905,0.2268799245357513
1749027923.1904595,4.627316706528472,-1.4773617001862684,-1.1664323291319885,-3.3008521743799597,-0.30422981010546535,4.11735903509982,-0.25183948036393594,-0.1331873135302673,0.09410753953851102,-0.22463313317364103,0.023048881145451058,0.094775442201596,-0.4735095500946045,0.2242601215839386,1.270634412765503,-0.0695145353674888,0.0854986310005188,0.2265462577342987
1749027923.1904974,4.626808648639361,-1.4776329707498699,-1.1662424720098938,-3.301301280162315,-0.3041821622907661,4.1175483618248725,-0.25353134826904467,-0.13387038992467865,0.09509750227985841,-0.22642899596356894,0.023195443487288674,0.09537412148795861,-0.503430962562561,0.251495748758316,1.2710620164871216,-0.0662776678800582,0.0957225114107132,0.1803549975156784
1749027923.190535,4.626297787539588,-1.4779049118183198,-1.1660508657375575,-3.3017545004099023,-0.30413430233466504,4.117739008517573,-0.25529609398685305,-0.1345770750923194,0.09614576854986834,-0.22824165802255883,0.023374170286268703,0.09587563038597369,-0.5086542963981628,0.2448740005493164,1.2807888984680176,-0.0686942636966705,0.1058009266853332,0.2087954133749008
1749027923.190573,4.6257841150245005,-1.478177500451821,-1.1658573520969133,-3.302212079881291,-0.3040862641772385,4.117930776873062,-0.257129177286258,-0.1353103456467537,0.09725125083166261,-0.23005450109295464,0.023584666288406175,0.09628815649919482,-0.5150467157363892,0.2697662711143493,1.304618000984192,-0.0882346183061599,0.106401190161705,0.2248460948467254
1749027923.1906116,4.625267611454971,-1.4784507640784839,-1.165661747068485,-3.302674196628528,-0.30403806898168967,4.118123501907615,-0.25902208140863325,-0.1360718859462607,0.09840789251602532,-0.2318484236579359,0.02382441068990941,0.09662569860084036,-0.5225942134857178,0.2171954214572906,1.2911614179611206,-0.0549987405538558,0.0874832272529602,0.2224977612495422
1749027923.1906495,4.624748228777626,-1.4787247809821662,-1.1654638542925457,-3.303140941537414,-0.30398972468071056,4.118317066613091,-0.260963423699116,-0.13686199016792852,0.0996038794947327,-0.23360352293684686,0.02408878213271482,0.09690710352960236,-0.5640236735343933,0.2056619822978973,1.2911031246185305,-0.0808455795049667,0.0991043746471405,0.1911978870630264
1749027923.1906874,4.624225876422898,-1.4789996761599322,-1.1652634835491686,-3.3036123061827167,-0.30394122754380465,4.118511409556766,-0.26294030011136205,-0.13767943755777604,0.10082169795155176,-0.23530102135710512,0.024371338614366713,0.09715475595058262,-0.5090647339820862,0.1971874088048935,1.2822487354278564,-0.0355903729796409,0.1072951406240463,0.2140405774116516
1749027923.190725,4.6237004126194,-1.4792756128337825,-1.1650604721372337,-3.30408818044766,-0.3038925646568907,4.11870652436185,-0.2649396417503672,-0.1385214536159357,0.10203905548348338,-0.23692512197655755,0.02466433012319982,0.09739301015857871,-0.5248972177505493,0.1796560287475586,1.2611931562423706,-0.0824031382799148,0.1139317601919174,0.2437084019184112
1749027923.1907623,4.623171643336659,-1.4795527802344157,-1.1648547065964414,-3.3045683598342888,-0.3038437158561945,4.118902451131555,-0.2669493924510032,-0.139383884567635,0.10323051148537697,-0.23846454263279815,0.024959418762060183,0.09764647953885588,-0.4862526655197143,0.188185378909111,1.2664130926132202,-0.0757090598344802,0.1153288334608078,0.2318632155656814
1749027923.1908002,4.6226393304443665,-1.479831378499264,-1.164646142372569,-3.3050525608844143,-0.3037946540280379,4.119099261018727,-0.26895936356331857,-0.14026165618402975,0.10436954095338367,-0.23991360628518624,0.02524856497638326,0.09793832828794513,-0.5038604736328125,0.2514742612838745,1.218737244606018,-0.1045557707548141,0.1322932243347168,0.2289797812700271
1749027923.1908371,4.6221032098205646,-1.4801116018308609,-1.1644348195801852,-3.3055404418709364,-0.3037453436783575,4.11929703618676,-0.27096168834630835,-0.1411494757380971,0.10543070921695613,-0.24127289038616745,0.025524998926339984,0.09828871106588391,-0.4836455285549164,0.2192889899015426,1.2442883253097534,-0.0798542201519012,0.0960204601287841,0.2291195094585418
1749027923.1908748,4.621563019023228,-1.4803936212869595,-1.164220873611697,-3.3060316253259123,-0.3036957386915127,4.1194958482107396,-0.2729508857564332,-0.14204261854419648,0.10639166578114391,-0.24254948852502042,0.02578414704426078,0.09871347500788544,-0.5443929433822632,0.2439215332269668,1.2135627269744873,-0.0722608789801597,0.1152055412530899,0.237732321023941
1749027923.190913,4.621018532564919,-1.4806775684038802,-1.1640045396862984,-3.306525719211054,-0.3036457805160023,4.11969573843975,-0.2749236284683914,-0.1429375748041938,0.10723475147835376,-0.24375688913598292,0.026024356790112557,0.09922320346702318,-0.5811319947242737,0.2498264461755752,1.2146408557891846,-0.0888775587081909,0.1186607480049133,0.2348776161670684
1749027923.1909509,4.620469600831639,-1.480963520423065,-1.163786150520044,-3.307022334341446,-0.30359539750840187,4.119896703822553,-0.2768783466703116,-0.1438323523561927,0.1079481186671877,-0.24491438355724018,0.02624728026591522,0.09982265838169233,-0.509260892868042,0.2651842832565307,1.2089180946350098,-0.0525871217250824,0.1116598099470138,0.2337951958179474
1749027923.1909888,4.6199161868112135,-1.4812514878706953,-1.163566126465501,-3.307521096719996,-0.30354450544193673,4.120098690940627,-0.27881476815079836,-0.14472633507166474,0.10852635303213014,-0.246045870806768,0.02645783448161985,0.10051065586355148,-0.5338585376739502,0.2260577380657196,1.2141385078430176,-0.0550554096698761,0.1322897523641586,0.2525692582130432
1749027923.191026,4.619358393830499,-1.4815414059924477,-1.1633449580752422,-3.308021654640142,-0.30349300886191183,4.1203015994945575,-0.2807334389529153,-0.14561975124032103,0.10897063516756203,-0.24717798700990481,0.026663726590427785,0.10128037492361346,-0.5818269848823547,0.1840504705905914,1.1831212043762207,-0.0429885201156139,0.1178142577409744,0.2424519062042236
1749027923.1916792,4.61879647799811,-1.4818331325015723,-1.1631231820180732,-3.3085236817248216,-0.3034408031321611,4.1205052947325465,-0.2826352424435573,-0.1465129520374238,0.10928849107401513,-0.2483376467280198,0.026874591368668804,0.10212005827305838,-0.540241539478302,0.1936852037906646,1.1770421266555786,-0.0871692597866058,0.1212724149227142,0.2550298869609833
1749027923.1936605,4.618230841075761,-1.4821264543019297,-1.1629013521579408,-3.309026878276671,-0.30338777741675593,4.120709626953263,-0.2845209366246403,-0.14740576861136603,0.10949317310999351,-0.24954927913447367,0.027100826074029017,0.10301402919691827,-0.5477563142776489,0.2040657699108123,1.1714153289794922,-0.0903307795524597,0.1395863443613052,0.2285896390676498
1749027923.234293,4.6176620025169415,-1.4824211049032434,-1.1626800079663129,-3.309530974153439,-0.303333819232852,4.1209144555408015,-0.286390725970259,-0.14829716935430115,0.10960271407903384,-0.25083218051376244,0.0273522300237491,0.10394392282214392,-0.5268434286117554,0.1718212068080902,1.184925556182861,-0.0967899486422538,0.1406459063291549,0.2358216047286987
1749027923.234339,4.61709055236121,-1.4827167925464508,-1.1624596421586506,-3.310035736626726,-0.3032788213632382,4.121119674731386,-0.28824387594934714,-0.14918530208837552,0.10963872407496734,-0.2521984108851445,0.027636574090477137,0.10489000871947343,-0.5468848347663879,0.2228738516569137,1.194297194480896,-0.1188996955752372,0.1384205073118209,0.2358115315437317
1749027923.2343812,4.616517088685504,-1.483013237200151,-1.16224066878843,-3.3105409860275867,-0.3032226915373958,4.121325238100688,-0.29007839086322007,-0.15006784925089017,0.10962504455460098,-0.25365153574194854,0.027958245681864412,0.10583246299132222,-0.5529990196228027,0.2104644179344177,1.1903318166732788,-0.1248712390661239,0.1428859233856201,0.2038920372724533
1749027923.2344234,4.615942144544998,-1.4833102128821858,-1.1620233925533268,-3.3110466201769633,-0.3031653642339109,4.121531178604807,-0.29189079919013244,-0.15094251080986534,0.10958640597263956,-0.2551863249967643,0.028317134698462906,0.10675244450419037,-0.562881588935852,0.2409785687923431,1.2180156707763672,-0.100807748734951,0.1462701857089996,0.2048562169075012
1749027923.234475,4.61536611071021,-1.4836075903955073,-1.1618079802289303,-3.311552645856282,-0.30310681265152617,4.121737621209571,-0.29367608491754943,-0.15180739177255956,0.10954722296240864,-0.2567893546001865,0.02870793400628342,0.1076328653181721,-0.5316115021705627,0.2647249698638916,1.2167237997055054,-0.0939228385686874,0.1580429524183273,0.2297921925783157
1749027923.234518,4.614789162461901,-1.4839053748306552,-1.1615944359934056,-3.3120592126672337,-0.3030470581910353,4.121944785894012,-0.29542776026679707,-0.15266111642135116,0.10953059921341175,-0.2584403630323826,0.029120009542880392,0.10845882467421575,-0.5035086870193481,0.2160316854715347,1.1858656406402588,-0.1205005943775177,0.1575124710798263,0.2141420394182205
1749027923.2345572,4.614211200552594,-1.4842037321876393,-1.1613825836066214,-3.3125666424138087,-0.30298617513679393,4.122152979986704,-0.2971380406352497,-0.15350260588877443,0.1095575315160514,-0.26011419718307066,0.02953793988407855,0.10921776146154029,-0.5640136003494263,0.1895590126514434,1.202412486076355,-0.1282162964344024,0.1661722809076309,0.2128448039293289
1749027923.2345955,4.613631817102358,-1.4845030000477701,-1.1611720593997588,-3.313075446060366,-0.30292428932811993,4.122362579996684,-0.29879809632719473,-0.15433060063512913,0.10964624476809859,-0.26178318975425185,0.029942734527267444,0.1098994242392123,-0.5721143484115601,0.1631242483854293,1.2107487916946411,-0.0970462560653686,0.1585276126861572,0.2361839711666107
1749027923.2346337,4.613050296061527,-1.4848036783391763,-1.160962320219179,-3.3135863205255145,-0.30286157092237437,4.122574003951623,-0.3003983927876653,-0.15514312388467305,0.10981158997063177,-0.2634197751255656,0.030313631236156685,0.11049575929990613,-0.5277960896492004,0.1763570606708526,1.2299035787582395,-0.1021217480301857,0.1498765647411346,0.2405996620655059
1749027923.2346716,4.61246565467475,-1.4851063981019548,-1.160752669440052,-3.314100119334673,-0.3027982224951357,4.122787675783553,-0.30192913250353903,-0.15593710434600336,0.11006449071123175,-0.26499906297574927,0.030630271452448222,0.1110008103266113,-0.5166003704071045,0.1475709080696106,1.2557458877563477,-0.0814864858984947,0.1566914319992065,0.2408190369606018
1749027923.2347095,4.611876726843655,-1.485411868909487,-1.1605423018144352,-3.3146177948868187,-0.3027344644497858,4.123003984023291,-0.30338076360654753,-0.15670828993371427,0.11041148944771978,-0.2665010241739113,0.030874981816345633,0.11141071759447371,-0.5125370025634766,0.1999740898609161,1.2622100114822388,-0.0657891184091568,0.1643764972686767,0.2325412333011627
1749027923.2347465,4.611282281714368,-1.4857208090449139,-1.1603303645308494,-3.315140315791549,-0.30267051985275545,4.123223238411013,-0.3047444709037183,-0.15745144247083268,0.110854475785428,-0.26791198468107386,0.031034861233610735,0.1117238777925381,-0.5125370025634766,0.1999740898609161,1.2622100114822388,-0.0657891184091568,0.1643764972686767,0.2325412333011627
1749027923.234784,4.6106811632154585,-1.4860338659323817,-1.1601160283535152,-3.3156685690181065,-0.30260660042187887,4.123445629546587,-0.30601256105386004,-0.15816069088886703,0.11139065555640172,-0.269225270790676,0.031103389045376666,0.11194126921991603,-0.4569905400276184,0.2443455010652542,1.2495437860488892,-0.1057876050472259,0.0946555435657501,0.2114539593458175
1749027923.2348216,4.610072432202611,-1.4863515363031232,-1.1598985605335452,-3.316203260457742,-0.3025428948185463,4.123671197039721,-0.30717868969801243,-0.1588298896372177,0.11201276196253482,-0.27044102047705765,0.03108132983483363,0.11206688368706566,-0.4618909657001495,0.2467538714408874,1.2369669675827026,-0.0881419628858566,0.104869320988655,0.2202663272619247
1749027923.234859,4.6094554941780235,-1.4866740952496726,-1.1596773911339524,-3.316744826930597,-0.30247955996220105,4.123899810088952,-0.30823792659517985,-0.15945287979370618,0.11270945856424847,-0.27156528049043505,0.030976812651100683,0.1121081615106306,-0.4746915996074676,0.2321791797876358,1.248673439025879,-0.0971247851848602,0.1320250779390335,0.2009241580963134
1749027923.2348962,4.608830198882821,-1.487001542035226,-1.1594521654054077,-3.3172933700387737,-0.3024167156746709,4.124131162510089,-0.3091867085734505,-0.160023648162342,0.11346586834273625,-0.2726085208801871,0.030804595565583407,0.1120763086855019,-0.4746915996074676,0.2321791797876358,1.248673439025879,-0.0971247851848602,0.1320250779390335,0.2009241580963134
1749027923.234933,4.608196898352428,-1.4873335705121808,-1.1592227752763926,-3.31784862168342,-0.3023544422265334,4.124364784000953,-0.31002278515721016,-0.16053647338255017,0.11426418736477338,-0.27358367188438537,0.030584659026315096,0.11198638008359564,-0.549062192440033,0.1915831416845321,1.2535487413406372,-0.0546764284372329,0.138577863574028,0.2063400447368621
1749027923.23497,4.607556448880717,-1.4876695723164768,-1.158989363614626,-3.3184099512891945,-0.30229277952017963,4.124600070072619,-0.31074528212144964,-0.16098618413526408,0.11508438488468203,-0.27450380452367507,0.030340362594682882,0.1118570297093969,-0.4538497626781463,0.2119864672422409,1.288052320480347,-0.0131638124585151,0.1300743967294693,0.203002780675888
1749027923.235007,4.606910147643821,-1.4880086775996313,-1.1587522983519567,-3.3189764196072713,-0.3022317265446229,4.124836331381653,-0.311354957368174,-0.1613686053104564,0.1159050189534625,-0.2753796690060447,0.030096424876166247,0.11170985792376499,-0.4980331361293793,0.1663336157798767,1.2775332927703855,-0.0750405490398407,0.1485841125249862,0.2184214890003204
1749027923.235044,4.606259609335456,-1.488349829690606,-1.1585121202872408,-3.3195468718547523,-0.30217124078054114,4.125072858131282,-0.3118546169614307,-0.16168115954583565,0.11670418101695926,-0.27621742938659494,0.029876948503430138,0.11156833064439761,-0.556398868560791,0.2224931418895721,1.262916088104248,-0.1068611890077591,0.1524712145328521,0.2002527415752411
1749027923.2356925,4.605606604173563,-1.4886918813005239,-1.1582694748746436,-3.320120051257362,-0.3021112386984776,4.125308989872724,-0.31224955241250707,-0.16192348931456138,0.11746052998540966,-0.277016998435727,0.02970363460765287,0.11145629868275171,-0.4742484092712402,0.2543429136276245,1.2678792476654053,-0.0703881010413169,0.1192000433802604,0.2010686993598938
1749027923.2376857,4.604952886221333,-1.4890336961121082,-1.158025040787929,-3.3206947107169467,-0.3020515992884491,4.125544179078058,-0.31254780235182483,-0.16209792562054384,0.11815432317309113,-0.2777713102807073,0.029594252847527057,0.11139619480272074,-0.3020968735218048,0.30660080909729,1.232441782951355,-0.0334892123937606,0.1143957823514938,0.2022963166236877
1749027923.2783008,4.604300038334992,-1.489374241522619,-1.1577794662145153,-3.321269705461879,-0.30199217226088126,4.125778038856238,-0.312760068113181,-0.16220967198517747,0.11876833888390419,-0.2784666813663512,0.029561394662081446,0.11140703955201502,-0.4609335958957672,0.2141539454460144,1.2545242309570312,-0.0379138514399528,0.1303066462278366,0.2042846083641052
1749027923.2783468,4.603649352099583,-1.4897126628791608,-1.1575333199222,-3.3218440578518496,-0.301932791332384,4.126010369270004,-0.3128992390486686,-0.16226667364106084,0.11928862323798674,-0.27908420886861357,0.029611556090915772,0.11150245292183353,-0.5556195378303528,0.2067515552043914,1.2642242908477783,-0.0581367388367652,0.1423577517271042,0.2214571237564087
1749027923.2783902,4.603001752541519,-1.4900483341123523,-1.1572870601371512,-3.3224169927878298,-0.3018732911850128,4.126241160926845,-0.3129796518688092,-0.1622792392715712,0.11970505043287746,-0.2796020424221043,0.029744645875943485,0.11168892546580302,-0.4861126542091369,0.2255947589874267,1.241615891456604,-0.066453106701374,0.1687192916870117,0.2234938144683838
1749027923.2784336,4.602357770024081,-1.4903808834242722,-1.1570410210361155,-3.32298794714957,-0.30181352495356856,4.1264705778558355,-0.3130162934924235,-0.16225950878952977,0.12001171399183097,-0.2799983271195343,0.029954036835168982,0.11196461517107362,-0.4776657819747925,0.233970433473587,1.2288081645965576,-0.0710051506757736,0.1637205332517624,0.2338185310363769
1749027923.278474,4.601717555784456,-1.4907101955682587,-1.1567954144975432,-3.3235565593737824,-0.30175337850845985,4.1266989238669325,-0.3130240944539319,-0.16222081032635918,0.12020714890917054,-0.28025455624623186,0.030227228195833154,0.11231889211547937,-0.4305668771266937,0.2108320742845535,1.2296781539916992,-0.0466907769441604,0.1511769294738769,0.2407152205705642
1749027923.2785218,4.601080933122574,-1.491036394228201,-1.1565503437066815,-3.324122646027699,-0.3016927788920477,4.1269265976539025,-0.3130173293544579,-0.16217689349158826,0.12029434695823854,-0.280358944724289,0.030547071052024893,0.11273276060689132,-0.4985467791557312,0.2600732147693634,1.181407451629639,-0.0031578764319419,0.1397323757410049,0.2252702414989471
1749027923.2785654,4.600447473485766,-1.491359809091867,-1.1563058250220497,-3.3246861716093483,-0.3016316963277364,4.127154042061837,-0.313009065901589,-0.16214103205177613,0.12028050826752676,-0.2803093008831803,0.030893385466095137,0.11318016736357774,-0.4909706711769104,0.2408264577388763,1.2066045999526978,-0.0007117837667465,0.1355598270893097,0.2131140232086181
1749027923.2786157,4.5998165856215625,-1.4916809325323597,-1.1560618147889383,-3.3252472164751867,-0.3015701409284336,4.127381692592104,-0.3130106157241323,-0.16212505224103804,0.12017648904991676,-0.28011484226258987,0.031244728891020045,0.11363008341806018,-0.4394087791442871,0.2288007140159607,1.2070153951644895,0.0238530877977609,0.1292605251073837,0.2107587158679962
1749027923.278655,4.599187606297508,-1.4920003704772422,-1.1558182381781086,-3.3258059462521863,-0.3015081558617663,4.127609929733857,-0.3130309861236417,-0.16213840924156453,0.11999595234562142,-0.279796538249663,0.03158008798571562,0.11404915748887218,-0.4152736067771911,0.2175003588199615,1.2057547569274902,0.0078260600566864,0.1312456578016281,0.2281257361173629
1749027923.2786927,4.5985598825445555,-1.492318791385184,-1.155575017445674,-3.3263625847113056,-0.301445808570662,4.127839039178556,-0.31307637573665664,-0.1621874659720847,0.1197542892751285,-0.27938584882813644,0.031880338337999484,0.1144046911174041,-0.4724869132041931,0.1891900300979614,1.1891387701034546,-0.0235550254583358,0.1534833461046219,0.2119892388582229
1749027923.2787304,4.597932837862872,-1.4926368768210119,-1.155332097203227,-3.32691739115138,-0.30138318141536063,4.128069183212955,-0.3131498017260058,-0.16227511638056052,0.11946743398374761,-0.27892205852019264,0.032129398779969,0.11466766594968832,-0.4860323667526245,0.2020623087882995,1.2250707149505615,-0.0445683822035789,0.1214730143547058,0.1950884014368057
1749027923.2787716,4.59730601799828,-1.4929552770179075,-1.155089464411484,-3.327470642884977,-0.30132036314339833,4.128300385466419,-0.31325097851350886,-0.16240083424849147,0.11915073104458587,-0.278448648653687,0.0323150541395319,0.11481553955548983,-0.519254207611084,0.2067323327064514,1.218017339706421,-0.0202820152044296,0.1179744303226471,0.1779217720031738
1749027923.2788095,4.596679115114561,-1.4932745743736378,-1.1548471610835795,-3.32802262312369,-0.30125744261316567,4.128532529887801,-0.3133765488447578,-0.16256111660397637,0.11881801646871201,-0.27800924058375215,0.03242942498439675,0.11483451830704547,-0.4953377246856689,0.2505655288696289,1.2083373069763184,-0.0037664622068405,0.1380823254585266,0.1895152926445007
1749027923.278847,4.596051971918166,-1.4935952565078303,-1.1546052883891125,-3.3285736140695716,-0.3011945057358731,4.128765373624669,-0.3135206879847002,-0.162750164022156,0.11848103162052748,-0.27764359559119633,0.032469058541526055,0.11472104288221346,-0.498769611120224,0.2319639027118683,1.2340112924575806,-0.0204603038728237,0.1209402978420257,0.1870751529932022
1749027923.2788894,4.595424569262446,-1.4939176987424105,-1.154364002014408,-3.3291238942424317,-0.3011316356179225,4.128998572382766,-0.3136760030047889,-0.16296057189140717,0.11814921090564204,-0.2773840471305273,0.032434642389830765,0.11448231016468748,-0.4494976997375488,0.2501826286315918,1.2108596563339231,-0.0241376757621765,0.1355626881122589,0.2032159715890884
1749027923.278928,4.594797001845623,-1.4942421546366436,-1.1541234998774401,-3.3296737383054253,-0.3010689147699577,4.129231715724025,-0.31383457790861613,-0.1631838517226278,0.117829804381397,-0.2772526451173249,0.03233040874051259,0.11413578629424521,-0.4810593426227569,0.2356516122817993,1.217915415763855,-0.0450479984283447,0.1337295174598693,0.1886884123086929
