nimar13/UR3e_dataset_trayectorias/trayectorias_ejecutadas_filtradas/jtraj/trayectoria_069_result_filtrado.csv
timestamp,q1,q2,q3,q4,q5,q6,qd1,qd2,qd3,qd4,qd5,qd6,tau1,tau2,tau3,tau4,tau5,tau6
1749027096.23842,-3.837555593623232,-1.8546166244431435,-0.846667776332602,-0.6163101151985502,-4.64587057164914,-0.9225787746613614,0.00444474273844375,-0.00028602791117540493,-1.0316333195504169e-06,-0.0004082304399355236,0.004851092361106165,-0.00029414612050723707,-0.0644303113222122,0.915665090084076,0.9911094903945924,0.3832991123199463,-0.0374745875597,-0.1535740792751312
1749027096.2384996,-3.8375428645653913,-1.8546190949018455,-0.8466645284947204,-0.6163149841109028,-4.645864372129113,-0.92258547230007,0.004290497268592973,-0.0002307775595739027,6.330875103635629e-05,-0.00037183347503280786,0.00475339766926319,-0.000268425390620206,-0.0644303113222122,0.915665090084076,0.9911094903945924,0.3832991123199463,-0.0374745875597,-0.1535740792751312
1749027096.238574,-3.8375304602282583,-1.854621609996206,-0.8466615468726332,-0.6163197355087996,-4.645858247480683,-0.922591970497454,0.004131753582440898,-0.00018607957316014187,0.00012650484715002222,-0.0003375289779854829,0.0046503764600464206,-0.00023963253023084094,-0.0644303113222122,0.915665090084076,0.9911094903945924,0.3832991123199463,-0.0374745875597,-0.1535740792751312
1749027096.2386456,-3.837518632366784,-1.8546242026226332,-0.846659079911081,-0.6163242520114166,-4.645852171554229,-0.9225981273559061,0.003963186412963123,-0.0001573076836091638,0.00018716469631044935,-0.0003104258832844148,0.004534644844288224,-0.0002091511918556541,-0.0634940862655639,0.8827189803123474,0.9885002374649048,0.379879891872406,-0.0046529397368431,-0.136183887720108
1749027096.2387166,-3.8375076122788867,-1.8546268991900496,-0.8466573165844549,-0.6163284178963189,-4.645846115819302,-0.922603817842744,0.003780569011426141,-0.0001488152272045444,0.00024383850086464153,-0.0002954225853782893,0.0043997858223092795,-0.00017881338238143245,-0.0634940862655639,0.8827189803123474,0.9885002374649048,0.379879891872406,-0.0046529397368431,-0.136183887720108
1749027096.2387872,-3.8374975998611096,-1.8546297173950417,-0.8466563671017343,-0.6163321260231719,-4.645840057320968,-0.9226089391946507,0.0035812227388881206,-0.00016366218728352435,0.00029505405110191155,-0.00029695663217502616,0.004240910154091188,-0.0001509546020354273,-0.0650210827589035,0.91439551115036,0.9869122505187988,0.3730437457561493,0.0066873207688331,-0.1404749155044555
1749027096.238858,-3.837488751902905,-1.8546326627125944,-0.8466562544370361,-0.6163352869436389,-4.645833984921201,-0.9226134156047899,0.003364283735015554,-0.00020337397760144155,0.000339400355178354,-0.00031875634179390325,0.004055104648985888,-0.00012842324198839375,-0.0629728585481643,0.8827163577079773,0.9981867074966432,0.3751971125602722,-0.0050196424126625,-0.1496407389640808
1749027096.238927,-3.837481171221558,-1.8546357244861431,-0.8466569176831681,-0.6163378390252444,-4.645827903130205,-0.9226172015195734,0.003130766543888484,-0.0002677568216604808,0.0003756487763850631,-0.0003636055714213278,0.003841724221190382,-0.00011453034066332578,-0.0629728585481643,0.8827163577079773,0.9981867074966432,0.3751971125602722,-0.0050196424126625,-0.1496407389640808
1749027096.2389977,-3.8374748986486282,-1.8546388732416654,-0.8466582261012123,-0.616339757705638,-4.645821833008974,-0.9226202832871371,0.0028834318084557833,-0.00035480387131491074,0.0004028860064547246,-0.00043313804950845556,0.0036024882989812235,-0.00011293077986320779,-0.0533036515116691,0.8790155053138733,0.9985584020614624,0.3708681762218475,-0.0152870640158653,-0.1362880915403366
1749027096.2390635,-3.8374699097345895,-1.8546420607336411,-0.8466600009645067,-0.61634106183397,-4.645815810130496,-0.9226226794477105,0.0026264897285377476,-0.00046073130179299834,0.00042062684143318345,-0.0005276812829519444,0.003341360528449345,-0.00012743368327005784,-0.0533036515116691,0.8790155053138733,0.9985584020614624,0.3708681762218475,-0.0152870640158653,-0.1362880915403366
1749027096.239109,-3.837466117335752,-1.8546452233284603,-0.8466620413103162,-0.6163418155547709,-4.645809880378124,-0.9226244400968535,0.002365187730853926,-0.0005801819458997413,0.000428880363684968,-0.00064616978415232,0.0030642222962031828,-0.0001617478589694066,-0.0873282104730606,0.8821806311607361,1.003590703010559,0.3748427927494049,0.0108760967850685,-0.1582197248935699
1749027096.2391474,-3.8374633801808624,-1.8546482883075746,-0.8466641495600039,-0.6163421251656465,-4.645804094934966,-0.9226256453653042,0.0021053371175359377,-0.0007066238645313579,0.0004281568097613072,-0.0007861408287322224,0.002778383539752158,-0.0002191770429845003,-0.0582509264349937,0.8749093413352966,0.9911431074142456,0.3656028509140014,0.016379527747631,-0.1561993956565857
1749027096.2391856,-3.837461516511769,-1.8546511820449556,-0.8466661534608731,-0.6163421314617047,-4.645798505763009,-0.922626402495518,0.0018528308926246523,-0.0008329517346957102,0.0004194167924743959,-0.0009438128947471449,0.0024919958652675715,-0.0003022882960144576,-0.0582509264349937,0.8749093413352966,0.9911431074142456,0.3656028509140014,0.016379527747631,-0.1561993956565857
1749027096.2392237,-3.83746032133771,-1.8546538387817928,-0.8466679217127835,-0.6163419988564166,-4.645793162282265,-0.9226268406964344,0.0016131970062503976,-0.0009522697337921587,0.00040397481665136944,-0.0011142318755701119,0.002213437451263737,-0.00041258310473427285,-0.0582509264349937,0.8749093413352966,0.9911431074142456,0.3656028509140014,0.016379527747631,-0.1561993956565857
1749027096.239261,-3.83745958569341,-1.854656208705095,-0.8466693718242655,-0.6163419027818503,-4.645788109186738,-0.9226271032165805,0.0013912206039515538,-0.0010587962372359775,0.00038337414268056714,-0.0012914606647445892,0.0019507276036433427,-0.0005502019848515164,-0.0602639913558959,0.8990439772605896,0.9932708740234376,0.3440119922161102,-0.0186274275183677,-0.1611314117908477
1749027096.2392986,-3.8374591161727163,-1.8546582642102385,-0.8466704700895794,-0.6163420165770795,-4.645783384658017,-0.9226273368943289,0.001190657648375586,-0.0011487877569788568,0.0003592510112373798,-0.001468787837401728,0.001711007208227945,-0.0007136883836426771,-0.0602639913558959,0.8990439772605896,0.9932708740234376,0.3440119922161102,-0.0186274275183677,-0.1611314117908477
1749027096.239336,-3.8374587527525588,-1.8546600036520475,-0.8466712248739977,-0.6163424986031815,-4.645779017982967,-0.9226276804100849,0.001014052268179108,-0.0012213458753258806,0.00033320452427653405,-0.0016389383795992925,0.0015000988457870867,-0.0008998283881829738,-0.0629057139158248,0.8947426676750183,0.9985805749893188,0.3553177714347839,-0.012237973511219,-0.1557187736034393
1749027096.239373,-3.837458382763767,-1.8546614525360285,-0.8466716753290484,-0.6163434800183992,-4.645775026085818,-0.9226282529924547,0.0008626611144850764,-0.0012789659071286224,0.00030668517980470667,-0.0017942788541419606,0.0013221443136528187,-0.0011035738601972635,-0.0635343790054321,0.8809663653373718,0.992889165878296,0.3662885427474975,0.0033819824457168,-0.1523023247718811
1749027096.2394094,-3.837457949119652,-1.8546626627776084,-0.8466718780231923,-0.6163450535971989,-4.6457714096394165,-0.9226291451803127,0.0007364784913890958,-0.0013277185146892277,0.000280910843894389,-0.0019270181362542088,0.001179310795279482,-0.0013180522021416477,-0.0794126167893409,0.8651921153068542,1.0235859155654907,0.3748420774936676,-0.0081417858600616,-0.1733194887638092
1749027096.239454,-3.83745745167186,-1.8546637110625193,-0.8466718937671245,-0.6163472640456787,-4.64576815049316,-0.9226304126363934,0.000634346767780108,-0.0013770129893862664,0.0002568144673488727,-0.0020294126372432273,0.0010715606363962118,-0.001534667080634611,-0.0778015851974487,0.8813249468803406,1.014029622077942,0.362545371055603,-0.01946472376585,-0.1544771194458007
1749027096.239492,-3.8374569416820816,-1.854664697238342,-0.8466717763200075,-0.616350100379514,-4.6457652123357045,-0.9226320732817194,0.0005541299562268683,-0.001438950216285163,0.0002350237892470668,-0.002093993566291285,0.0009964923468338434,-0.0017433000831902203,-0.0763020366430282,0.8821840882301331,0.9943089485168456,0.3729717433452606,-0.0065566673874855,-0.1527462154626846
1749027096.2395284,-3.8374565105850404,-1.8546657430016833,-0.8466715639922388,-0.6163534911923576,-4.645762545580009,-0.9226341074498801,0.0004929256789188888,-0.0015273186297273345,0.0002158700232881335,-0.0021138445734443416,0.0009492774296043324,-0.001932631518414641,-0.0829309448599815,0.8726348280906677,0.9816601276397704,0.3669920265674591,-0.0160339400172233,-0.1688744723796844
1749027096.2397208,-3.837456275093772,-1.854666990139528,-0.8466712746702724,-0.6163573040792514,-4.645760095928309,-0.9226364605561583,0.00044729175672963555,-0.0016563152398521295,0.0001994202160522098,-0.0020829678360994065,0.0009227321742520482,-0.0020906057513451733,-0.1036180481314659,0.8803306221961975,0.9897521734237672,0.3631267547607422,-0.0222704038023948,-0.1532247066497802
1749027096.2416706,-3.837456360913191,-1.8546685968319094,-0.8466709044685176,-0.6163613508052169,-4.645757814827246,-0.9226390479025284,0.00041346749579444504,-0.0018390929409653589,0.00018552657415025602,-0.0019967778491643694,0.0009075698288487086,-0.002205067081010469,-0.1036180481314659,0.8803306221961975,0.9897521734237672,0.3631267547607422,-0.0222704038023948,-0.1532247066497802
1749027096.2863004,-3.8374568868471295,-1.8546707307072092,-0.8466704298812279,-0.6163653995411618,-4.645755669674526,-0.9226417614096808,0.00038757540740377773,-0.0020862549112654373,0.00017388546950850405,-0.001852748751927928,0.0008928737102888608,-0.0022645810170650216,-0.0933105498552322,0.881001889705658,0.9977291822433472,0.3502311110496521,-0.0120888873934745,-0.1621255576610565
1749027096.2863464,-3.837457950362365,-1.8546735585507732,-0.8466698129270614,-0.6163691943565621,-4.6457536520595735,-0.9226444780935049,0.000365795645010203,-0.0024044423579887603,0.00016409890678349736,-0.0016512127035891394,0.0008668161682591076,-0.002259430809335915,-0.0860197767615318,0.8874363303184509,1.000989317893982,0.3544613420963287,-0.0293187722563743,-0.1348330676555633
1749027096.286391,-3.8374596152469076,-1.8546772340784448,-0.846669008482508,-0.6163724804795353,-4.645751782922008,-0.9226470700039503,0.0003445123393356226,-0.0027951875817517156,0.0001557318838082114,-0.0013962687781455187,0.0008176246050637369,-0.0021827428459772636,-0.1185532733798027,0.8560329079627991,0.9903002977371216,0.3528676629066467,-0.0349955484271049,-0.1487806141376495
1749027096.2864313,-3.8374619019150216,-1.8546818861201861,-0.8466679728516963,-0.6163750324053915,-4.645750113953396,-0.9226494151099021,0.0003204380249256082,-0.0032542154666805926,0.00014836024835863734,-0.0010967213103695711,0.0007347674008800876,-0.0020316545311775502,-0.1201062202453613,0.8431141972541809,0.972813844680786,0.355053037405014,-0.0305858179926872,-0.1459940373897552
1749027096.286469,-3.837464780901752,-1.8546876096073242,-0.8466666725548709,-0.6163766814090702,-4.645748724900482,-0.9226514082314117,0.0002907287866405403,-0.003771356802189228,0.0001416052539295457,-0.0007669300411428673,0.000610302157032666,-0.001808405369586486,-0.1201062202453613,0.8431141972541809,0.972813844680786,0.355053037405014,-0.0305858179926872,-0.1459940373897552
1749027096.286507,-3.8374681701280093,-1.8546944611116802,-0.8466650922896238,-0.6163773394638256,-4.6457477167112,-0.9226529708690201,0.0002531067815738993,-0.004331175555486665,0.00013515287080314003,-0.0004274269903350561,0.00044029773261901485,-0.001521217286018275,-0.1177927106618881,0.8363023400306702,0.9828332662582396,0.35474693775177,-0.0610164925456047,-0.1503791958093643
1749027096.2865438,-3.837471936711174,-1.854702459552447,-0.8466632410675764,-0.6163770175788115,-4.645747200673188,-0.9226540591164658,0.00020600599247602968,-0.004914307210827516,0.00012875785596345622,-0.00010514165044354167,0.000226212038718172,-0.0011848400104397725,-0.1161589100956916,0.7917959094047546,0.9623277187347412,0.3473483026027679,-0.0617231652140617,-0.1566265076398849
1749027096.2865813,-3.837475904214297,-1.8547115912843146,-0.8466611556948871,-0.6163758375760647,-4.645747283933212,-0.9226546697626425,0.00014875018003317113,-0.0054993680252287186,0.0001222345071172527,0.00016691810796991773,-2.3917301754762347e-05,-0.0008206682036960595,-0.1161589100956916,0.7917959094047546,0.9623277187347412,0.3473483026027679,-0.0617231652140617,-0.1566265076398849
1749027096.286618,-3.8374798657607716,-1.8547218176383382,-0.846658901014656,-0.616374036928796,-4.645748052254018,-0.9226548454523646,8.176007430340374e-05,-0.0060651583169276085,0.00011543773752755667,0.00035065294600112955,-0.000294628424684461,-0.000456375478532837,-0.1090927422046661,0.8333442211151123,0.9710122346878052,0.3691464364528656,-0.0639088377356529,-0.1314547657966613
1749027096.2866557,-3.837483602177365,-1.8547330827256383,-0.8466565666178244,-0.6163719664845339,-4.645749551553914,-0.9226546796136179,6.772691204930789e-06,-0.0065927959627351505,0.0001082393351423633,0.00040459627341871433,-0.0005626990762642646,-0.00012504205271202763,-0.1090927422046661,0.8333442211151123,0.9710122346878052,0.3691464364528656,-0.0639088377356529,-0.1314547657966613
1749027096.286693,-3.837486902784148,-1.854745320001632,-0.8466542601056061,-0.6163700809841359,-4.6457517703322,-0.9226543208529182,-7.295745107921523e-05,-0.0070674194543524005,0.00010050486756816095,0.00028636801810699004,-0.0007974676084801651,0.00013622645381038197,-0.0898487567901611,0.8251566886901855,0.9718042612075806,0.350134015083313,-0.068010501563549,-0.1317351013422012
1749027096.2867303,-3.8374895855701214,-1.8547584571053641,-0.8466520975524789,-0.6163689224459166,-4.6457546250934465,-0.9226539755334648,-0.00015251475824048805,-0.007479199151057773,9.207681511410377e-05,-4.42448552467141e-05,-0.0009619261052146136,0.0002881729577617319,-0.1001724824309349,0.8208608031272888,0.9786916971206664,0.3305049240589142,-0.0595129951834678,-0.1405916064977646
1749027096.2867682,-3.837491513718638,-1.8547724191376151,-0.8466501925189021,-0.6163690967528836,-4.645757950317377,-0.9226539070476167,-0.0002252799900180967,-0.0078235578940976,8.276935750240267e-05,-0.0006217873846756407,-0.0010146443679853068,0.00029171121734406294,-0.1001724824309349,0.8208608031272888,0.9786916971206664,0.3305049240589142,-0.0595129951834678,-0.1405916064977646
1749027096.2868042,-3.8374926063674524,-1.8547871306433208,-0.8466486454751596,-0.6163712442401185,-4.645761493792486,-0.9226544309190869,-0.0002830296689809793,-0.008100673065014562,7.2379632626813e-05,-0.0014715198965335097,-0.0009125053276460756,0.00011060849860060267,-0.0973833873867988,0.8097200393676758,0.9717508554458618,0.3303363919258117,-0.0525206252932548,-0.143873780965805
1749027096.286841,-3.8374928425793438,-1.85480251640934,-0.8466475354589867,-0.6163760057679172,-4.645764917625465,-0.922655905800217,-0.00031620961747706115,-0.008314462100155089,6.0718712286903725e-05,-0.0026060660422282857,-0.0006141364733103318,-0.00028561614642338404,-0.0784163400530815,0.7972270250320435,0.9768978357315063,0.317682147026062,-0.0448877438902854,-0.159898892045021
1749027096.286878,-3.837492258581346,-1.854818501106577,-0.8466469151465341,-0.6163839865238706,-4.645767805020515,-0.9226587211028376,-0.00031439944875248616,-0.008471316508022282,4.766273596530706e-05,-0.004022739322874759,-8.381569537592867e-05,-0.0009187845740532093,-0.0596515014767646,0.8018137216567993,0.982293963432312,0.3078076243400574,-0.0182275250554084,-0.1532330363988876
1749027096.286914,-3.8374909391795367,-1.8548350079348512,-0.846646809563206,-0.616395720373286,-4.645769672940282,-0.922663282144359,-0.0002669634165448275,-0.00857884212432957,3.3221019859350126e-05,-0.005701932854550729,0.0007044753139954456,-0.001799404715570148,-0.06266450881958,0.8095000386238098,0.987456440925598,0.2812768220901489,0.0154569074511528,-0.1903958171606063
1749027096.286954,-3.8374890045814527,-1.8548519567622739,-0.8466472177559644,-0.6164116377946944,-4.645769990927101,-0.922669993365689,-0.00016385683768716975,-0.008644799898208304,1.7614322253566267e-05,-0.0076068563994717234,0.0017632659696821306,-0.0029245619293818883,-0.06266450881958,0.8095000386238098,0.987456440925598,0.2812768220901489,0.0154569074511528,-0.1903958171606063
1749027096.2869911,-3.837486593830351,-1.8548692626347791,-0.8466481161236263,-0.6164320401726314,-4.645768206338738,-0.9226792397120726,3.4712002434450777e-06,-0.008676351423046801,1.3534888598659874e-06,-0.009684747740959194,0.003088548962701459,-0.004276641224786543,-0.0475995019078254,0.7962116599082947,0.9937311410903932,0.2745555341243744,0.0241599604487419,-0.1806697398424148
1749027096.2870274,-3.8374838461665615,-1.8548868356641677,-0.8466494619171009,-0.6164570823923281,-4.645763775590633,-0.9226913660896995,0.00024116540476970953,-0.008679629129062805,-1.4693168532183226e-05,-0.01186951231875587,0.0046579339803429695,-0.00582310068502273,-0.031927615404129,0.8116939067840576,0.9913512468338012,0.2771588563919067,0.0594365820288658,-0.1801915764808654
1749027096.2870646,-3.8374808819859374,-1.8549045829782578,-0.8466511957845896,-0.6164867644404085,-4.645756199748173,-0.9227066551700815,0.0005521501534964414,-0.0086595911048541,-2.9255962995774316e-05,-0.014085595216571087,0.00643038867973817,-0.00751740316726005,-0.031927615404129,0.8116939067840576,0.9913512468338012,0.2771588563919067,0.0594365820288658,-0.1801915764808654
1749027096.2871015,-3.837477785321584,-1.8549224127857238,-0.846653243050948,-0.616520931590381,-4.64574506163367,-0.922725304638328,0.0009355319054773959,-0.008620087608918057,-4.065471014663228e-05,-0.0162527807280927,0.008347800993860496,-0.00930108750700149,-0.0214621052145957,0.789219856262207,1.00919508934021,0.2762739062309265,0.0750542134046554,-0.2033802419900894
1749027096.2876556,-3.8374745897142963,-1.8549402400351596,-0.8466555143193141,-0.6165592823151962,-4.645730061020738,-0.922747405969134,0.001386329011846754,-0.00856405637354851,-4.683334030749589e-05,-0.01829154372928726,0.010338394144691261,-0.011106865783384894,-0.0214621052145957,0.789219856262207,1.00919508934021,0.2762739062309265,0.0750542134046554,-0.2033802419900894
1749027096.289646,-3.837471269093143,-1.854957992816272,-0.8466579065328156,-0.6166013833179056,-4.645711044333061,-0.9227729275167463,0.0018956080530292782,-0.008493769191973477,-4.5443398351606325e-05,-0.020128531130833384,0.012321803690158594,-0.012862580112787965,0.0302207320928573,0.8326505422592163,1.0133908987045288,0.257804274559021,0.1260032653808593,-0.1995142698287964
1749027096.330286,-3.8374677350259656,-1.8549756184562383,-0.8466603056208679,-0.616646691325423,-4.645688025195925,-0.9228017046471626,0.0024510444841367696,-0.008411062985380597,-3.397654286675365e-05,-0.021701719916289632,0.014215408294705986,-0.014495808866601668,0.0036378353834152,0.8387508988380432,1.0003600120544434,0.317706435918808,0.131364494562149,-0.2125588059425354
1749027096.3303344,-3.837463841336206,-1.8549930880811016,-0.8466625913803669,-0.616694580887515,-4.645661192338839,-0.9228334387394709,0.00303784018796892,-0.008317501233381087,-9.940166563831709e-06,-0.022964785780889247,0.015941305188313395,-0.0159388417726011,0.0036378353834152,0.8387508988380432,1.0003600120544434,0.317706435918808,0.131364494562149,-0.2125588059425354
1749027096.3303783,-3.8374593964028403,-1.855010398334588,-0.8466646445790674,-0.6167443764611972,-4.645630902179083,-0.9228677057062625,0.0036398511829725403,-0.00821443417683022,2.893627760872284e-05,-0.023890252012226172,0.01743316004452644,-0.01713364806616338,0.0226033106446266,0.8175245523452759,1.0282939672470093,0.3362572491168976,0.1013505756855011,-0.2049573212862014
1749027096.3304214,-3.8374541824074635,-1.8550275692035254,-0.8466663556443179,-0.6167953863173941,-4.645597655078758,-0.9229039739140997,0.004240749006340141,-0.008102963869388186,8.448321374037013e-05,-0.024471105643728258,0.018642089090363273,-0.01803638338834107,0.0226033106446266,0.8175245523452759,1.0282939672470093,0.3362572491168976,0.1013505756855011,-0.2049573212862014
1749027096.330461,-3.8374479795272425,-1.8550446375717629,-0.8466676338180337,-0.616846935912091,-4.645562056481347,-0.9229416310496168,0.0048250762124496145,-0.007983860563949459,0.00015788590346347889,-0.0247207627801652,0.019540803291671474,-0.01862096291855202,0.0440413057804107,0.8232731819152832,1.040805697441101,0.3069767951965332,0.0911527797579765,-0.1934881061315536
1749027096.3305006,-3.837440591882696,-1.8550616469985388,-0.8466684153612761,-0.616898399168162,-4.645524766534983,-0.9229800190098179,0.00537912742079051,-0.007857497152147222,0.0002495210953034165,-0.024671481549636685,0.020125477248878462,-0.018881285107511865,0.0449581295251846,0.8314425945281982,1.0506104230880735,0.3203290104866028,0.1017906665802002,-0.1795896291732788
1749027096.3305392,-3.837431871381843,-1.8550786349425494,-0.8466686693210251,-0.6169492268665407,-4.645486443936752,-0.9230184749337809,0.005891643412732113,-0.0077238575553879125,0.00035886467733322236,-0.024371494661181832,0.020415157970928462,-0.018831814433850257,0.0493060797452926,0.8405513167381287,1.0524235963821411,0.3280192017555237,0.1027902066707611,-0.1660548150539398
1749027096.3305812,-3.8374217359061134,-1.8550956190970322,-0.84666839958181,-0.6169989714291504,-4.645447690891321,-0.9230563753051052,0.006354326187008261,-0.007582643964999292,0.0004844958375482684,-0.0238812336735767,0.020448914442260456,-0.018506409545192403,0.0359934419393539,0.8397822976112366,1.0637952089309692,0.3269810676574707,0.104362629354,-0.1689338535070419
1749027096.33062,-3.8374101795156657,-1.855112584854349,-0.846667642470875,-0.6170473069020382,-4.645409005836385,-0.9230931791505982,0.0067621777561355,-0.007433475815933357,0.0006242145095143827,-0.02326904731133691,0.020281250154736603,-0.017955496212763912,0.0272974148392677,0.834416925907135,1.0786964893341064,0.3327738642692566,0.0966203287243843,-0.1664491891860962
1749027096.3306575,-3.8373972738837008,-1.855129476269207,-0.8466664600125242,-0.6170940426106702,-4.645370749241458,-0.9231284659859069,0.007113652436935348,-0.0072761509305444,0.0007752754653897585,-0.02260679373348899,0.01997648747667102,-0.017241898524376145,0.0272974148392677,0.834416925907135,1.0786964893341064,0.3327738642692566,0.0966203287243843,-0.1664491891860962
1749027096.3306954,-3.8373831613825415,-1.8551461928756177,-0.8466649297500374,-0.6171391293151962,-4.645333125922229,-0.9231619643664177,0.007410604649354466,-0.007110926837349646,0.0009347244360815806,-0.02196562977599413,0.019602864524397395,-0.016435808859766678,0.0321713387966156,0.838214099407196,1.0874277353286743,0.331820398569107,0.1212735474109649,-0.1713477671146392
1749027096.3307366,-3.8373680410143094,-1.8551625939197758,-0.8466631325119388,-0.6171826576807284,-4.645296185215973,-0.9231935678343519,0.007658020203230698,-0.00693877583806204,0.0010997996960240264,-0.02141224415058184,0.019226990163253712,-0.015609456985088815,0.0321713387966156,0.838214099407196,1.0874277353286743,0.331820398569107,0.1212735474109649,-0.1713477671146392
1749027096.330775,-3.837352148940171,-1.8551785101242493,-0.8466611395249222,-0.6172248499536297,-4.645259838046372,-0.9232233367537777,0.00786354023544793,-0.0067615693989610546,0.0012683406912711108,-0.021005701545169047,0.01890913856814639,-0.014832021940789199,0.0307948514819145,0.8487806916236877,1.096297025680542,0.316039502620697,0.1328531205654144,-0.1741616129875183
1749027096.330815,-3.8373357359143108,-1.8551937615286949,-0.8466590001759237,-0.6172660462941326,-4.645223887422023,-0.9232514865825784,0.00803681615374552,-0.006582153492806607,0.0014391321218496292,-0.020794996325432195,0.018699690074444355,-0.014165241146665192,0.0707124397158622,0.8299729228019714,1.0895825624465942,0.3080616891384125,0.1583315134048462,-0.177979826927185
1749027096.3308532,-3.8373190444214895,-1.8552081786143106,-0.8466567317963423,-0.6173066869922301,-4.64518806666982,-0.923278364843218,0.008188758802101756,-0.006404285659539241,0.0016121161856287461,-0.020817365749046333,0.0186368733192919,-0.013660043550293202,0.0707124397158622,0.8299729228019714,1.0895825624465942,0.3080616891384125,0.1583315134048462,-0.177979826927185
1749027096.3308933,-3.83730228847873,-1.8552216229717768,-0.8466543129870233,-0.617347291081685,-4.645152078472643,-0.9233044200157554,0.008330754399301803,-0.0062324211210753305,0.0017884298689006526,-0.021097376334065433,0.018745835778024942,-0.013354391683465899,0.0687335059046745,0.8300836682319641,1.1213113069534302,0.2814536094665527,0.1304185092449188,-0.2040432244539261
1749027096.3309314,-3.837285638596854,-1.8552340036275865,-0.8466516818505766,-0.6173884313647353,-4.6451156281012445,-0.923330165951625,0.008473909938952168,-0.0060713646855153425,0.001970261206317354,-0.02164676111061313,0.019038951748993692,-0.013272374922106065,0.0687335059046745,0.8300836682319641,1.1213113069534302,0.2814536094665527,0.1304185092449188,-0.2040432244539261
1749027096.3309686,-3.837269213242248,-1.8552452862900304,-0.8466487398221,-0.6174307061915832,-4.645078445939189,-0.9233561455303867,0.008628368887621623,-0.005925841872387479,0.002160554332223121,-0.0224649476906265,0.01951716546504241,-0.013424466722276825,0.0636003836989402,0.8199484944343567,1.1145378351211548,0.3050232827663421,0.1538269221782684,-0.2108496874570846
1749027096.3310046,-3.837253076587488,-1.8552554949995537,-0.8466453607338168,-0.617474709580861,-4.645040296929084,-0.9233828971462834,0.008802717311712775,-0.005800067586524392,0.0023626143163658297,-0.023540185777208955,0.02017207728041033,-0.013808756546132395,0.0614837147295475,0.8443796634674072,1.110652208328247,0.2889798283576965,0.1672268658876419,-0.1819969564676284
1749027096.3310456,-3.8372372409704805,-1.8552647078807085,-0.8466414036951198,-0.6175210027324975,-4.64500097739745,-0.9234109269751212,0.009003489845007638,-0.005697387840158507,0.0025796645497003683,-0.024851163371838614,0.020988432556070816,-0.014412899957546292,0.0642201602458953,0.844424843788147,1.1125855445861816,0.2769444584846496,0.1690410524606704,-0.1967279464006424
1749027096.3317523,-3.837221671896291,-1.8552730497130332,-0.8466367276820111,-0.6175700905586614,-4.644960302334625,-0.9234406888384706,0.009234784914026774,-0.0056200437090677385,0.002814399490800812,-0.026368988436890343,0.021946676620379447,-0.015216497600578062,0.0680699944496154,0.8382596373558044,1.1445772647857666,0.276072233915329,0.1682175993919372,-0.2056779116392135
1749027096.3337004,-3.83720629378763,-1.8552806835050668,-0.8466312055810526,-0.6176224059611426,-4.644918087947132,-0.9234725721988863,0.009498005923480919,-0.00556907616980099,0.0030685679091298477,-0.028059400188129476,0.023025292024608002,-0.016193614922654007,0.0680699944496154,0.8382596373558044,1.1445772647857666,0.276072233915329,0.1682175993919372,-0.2056779116392135
1749027096.374282,-3.8371909955555723,-1.855287801844859,-0.8466247357839455,-0.6176783027926848,-4.644874134587415,-0.9235068977359666,0.009791753935286262,-0.005544370081105402,0.003342624144402684,-0.02988506436809527,0.02420272059576234,-0.017315189355686676,0.0944751352071762,0.8125498294830322,1.135137677192688,0.2737493216991424,0.17337167263031,-0.20932537317276
1749027096.3743289,-3.8371756357956395,-1.8552946176099583,-0.8466172501388398,-0.6177380568193718,-4.64482821404298,-0.9235439191519595,0.010111899850261655,-0.005544823846409988,0.0036354914137377353,-0.03180780829025082,0.025458769774587893,-0.018551132790917534,0.081739142537117,0.809353232383728,1.1381062269210815,0.2557890117168426,0.1960024833679199,-0.2021644413471222
1749027096.3743703,-3.837160047841164,-1.8553013533548814,-0.8466087179542288,-0.6178018729230293,-4.644780063416284,-0.9235838292298374,0.010451855133482771,-0.0055686182735242,0.003944478045917321,-0.03379066420621546,0.02677548814133387,-0.019872009885264278,0.1157023385167121,0.8224239349365234,1.144628405570984,0.2683379054069519,0.1959020495414734,-0.2096352279186248
1749027096.3744109,-3.837144045269809,-1.8553082293064247,-0.8465991465843022,-0.6178698958783704,-4.644729386432911,-0.9236267677039959,0.010803041153414187,-0.005613540555827483,0.004265364995345721,-0.03579960500021612,0.028137553318299348,-0.021250244601436562,0.1212169602513313,0.8199933767318726,1.1320213079452517,0.2476559430360794,0.2175596952438354,-0.2150710821151733
1749027096.3744493,-3.837127428927955,-1.8553154507879053,-0.8465885796675064,-0.6179422212536111,-4.644675862463853,-0.9236728284702296,0.011155532629653894,-0.005677306836275614,0.004592643872766909,-0.037804871239886,0.0295322442125094,-0.022660872194616474,0.1212169602513313,0.8199933767318726,1.1320213079452517,0.2476559430360794,0.2175596952438354,-0.2150710821151733
1749027096.3744874,-3.8371099968229028,-1.8553231964338321,-0.8465770942156876,-0.6180189030084176,-4.64461916347594,-0.92372206438143,0.011498824945948092,-0.005757832960456514,0.004919847631389307,-0.039781811187448834,0.030949080937019747,-0.024081906667047105,0.1294136345386505,0.7963184118270874,1.1187164783477783,0.2593907713890075,0.2211401015520095,-0.2374415546655655
1749027096.3745272,-3.8370915577478875,-1.8553316085404161,-0.8465647974484576,-0.6180999557340481,-4.64455897862479,-0.923774489230843,0.011822653809623662,-0.0058534292083512116,0.005239906739140769,-0.04171119439408062,0.03237922493395928,-0.025494427928988234,0.1414484828710556,0.7847047448158264,1.1393940448760986,0.2599697709083557,0.2251282334327697,-0.2320984899997711
1749027096.374565,-3.8370719481306006,-1.8553407865803722,-0.846551823648432,-0.6181853517040479,-4.644495044723117,-0.9238300778446592,0.012117784667878355,-0.005962924843186139,0.005545490930564176,-0.04357901514041688,0.033814744023262074,-0.026882502321815285,0.1458128094673156,0.787247359752655,1.1442526578903198,0.2471688985824585,0.2308702021837234,-0.237026497721672
1749027096.374602,-3.8370510500546056,-1.8553507846558357,-0.8465383306260885,-0.6182750148632965,-4.644427178785108,-0.9238887658554003,0.012376691431546613,-0.006085741209945918,0.005829337940217669,-0.04537586856593653,0.03524785937442393,-0.02823303297471143,0.1304725855588913,0.79111248254776,1.1363509893417358,0.2309032082557678,0.2531333565711975,-0.2232503890991211
1749027096.3746488,-3.837028807491794,-1.8553616135232651,-0.8465244949338606,-0.6183688148041113,-4.644355307315127,-0.9239504506282022,0.012594058993957814,-0.006221922147646008,0.006084592297037757,-0.04709605061121893,0.036670301057024304,-0.029535599368634546,0.1278660148382187,0.7728871703147888,1.127137303352356,0.2395878285169601,0.2602531909942627,-0.2334946691989898
1749027096.374704,-3.8370052376842017,-1.8553732474854139,-0.8465105050149488,-0.6184665635760251,-4.644279486820029,-0.9240149942036718,0.01276706867668428,-0.0063721136876006635,0.0063051673378524305,-0.048736580697624564,0.03807290030565043,-0.03078230295095688,0.1003098338842392,0.7568115592002869,1.1455416679382324,0.2438927888870239,0.2666992843151092,-0.2233093231916427
1749027096.3747442,-3.8369804352496475,-1.8553856356721838,-0.8464965520705818,-0.6185680172444765,-4.644199911327086,-0.9240822282184606,0.01289545584456575,-0.006537482297811043,0.00648611808625962,-0.05029634259199832,0.03944552582848665,-0.03196760364694308,0.1396915763616562,0.7444965243339539,1.1418009996414185,0.2446201890707016,0.2614114880561828,-0.2147144377231598
1749027096.374781,-3.836954567924431,-1.855398716205139,-0.8464828193008419,-0.6186728829775481,-4.644116904964159,-0.9241519599072221,0.012981360115722864,-0.006719575542290528,0.006623993274541162,-0.05177547593500319,0.040777416101441095,-0.03308812117623008,0.1372578591108322,0.76664137840271,1.133263111114502,0.2533721327781677,0.2659810185432434,-0.2072660624980926
1749027096.3748176,-3.8369278645068983,-1.8554124308152002,-0.8464694708588787,-0.6187808313600704,-4.644030900155931,-0.9242239779552633,0.013029014923961682,-0.00692014593669353,0.006717128765711267,-0.053175058204243536,0.04205787572308672,-0.034142386335428467,0.1569604873657226,0.7673147916793823,1.1338388919830322,0.2546867728233337,0.2583484947681427,-0.2095414102077484
1749027096.374854,-3.836900596782257,-1.8554267369634794,-0.8464566420359592,-0.6188915126024291,-4.6439424041777935,-0.9242980573703886,0.01304433735657163,-0.007140964933393344,0.0067658465341806405,-0.05449703598363445,0.043277217905936693,-0.03513055285701136,0.1569604873657226,0.7673147916793823,1.1338388919830322,0.2546867728233337,0.2583484947681427,-0.2095414102077484
1749027096.3748913,-3.8368730576486323,-1.8554416147943276,-0.8464444318505056,-0.6190045745514654,-4.643851958363838,-0.9243739634112966,0.01303447725319061,-0.00738364974592718,0.00677252892943512,-0.05574431844099228,0.044427780165880094,-0.03605410538417326,0.1264797449111938,0.7666113972663879,1.1424964666366575,0.2584198117256164,0.2772359251976013,-0.2104828804731369
1749027096.3749278,-3.836845537719189,-1.8554570676083832,-0.8464328986542421,-0.6191196803552794,-4.643760094956895,-0.9244514553578321,0.01300736946664312,-0.0076495156904331915,0.006741549069450765,-0.05692093536522951,0.04550483673145347,-0.03691560641370986,0.1303678303956985,0.7485194206237793,1.1347380876541138,0.266346275806427,0.2765702605247497,-0.2116337567567825
1749027096.3749645,-3.8368183028165594,-1.8554731165597291,-0.8464220589790756,-0.6192365241906402,-4.643667296468844,-0.9245302909639962,0.012971312756612056,-0.007939451636841668,0.006679056542811747,-0.058032174794801765,0.04650727177370133,-0.03771850661580121,0.1303678303956985,0.7485194206237793,1.1347380876541138,0.266346275806427,0.2765702605247497,-0.2116337567567825
1749027096.3750005,-3.8367915748585526,-1.855489791897074,-0.8464118896503369,-0.6193548440781279,-4.6435739617264815,-0.9246102318006495,0.01293458195229539,-0.008253800501794818,0.006592639543779995,-0.05908463887020685,0.04743793257390406,-0.038467010651768864,0.1198957860469818,0.7557397484779358,1.160570740699768,0.2522297501564026,0.2695279717445373,-0.2034751325845718
1749027096.3750374,-3.836765518145628,-1.855507123500481,-0.8464023328471846,-0.6194744313321026,-4.643480381521377,-0.9246910490894933,0.012905073367603109,-0.008592222574363087,0.006490903132751809,-0.06008618650078742,0.048303625210098025,-0.039165968840113426,0.1198957860469818,0.7557397484779358,1.160570740699768,0.2522297501564026,0.2695279717445373,-0.2034751325845718
1749027096.3756902,-3.836740231939858,-1.8555251328412454,-0.8463933031954446,-0.6195951367984615,-4.64338672496043,-0.9247725297398236,0.012889987341484733,-0.008953532924075507,0.006383011997766051,-0.06104576400585227,0.04911474347556705,-0.03982076922935309,0.13019660115242,0.7511774897575378,1.16789710521698,0.2763469815254211,0.2560882568359375,-0.1804189383983612
1749027096.3776555,-3.836715749053777,-1.8555438275210436,-0.8463846955342202,-0.619716874510025,-4.643293035744273,-0.9248544830373678,0.01289555969609196,-0.009335525227608912,0.006278241681598547,-0.06197314906064476,0.049884546277830996,-0.040437230656150965,0.1225221827626228,0.7833300828933716,1.1727144718170166,0.2619897425174713,0.2723389565944671,-0.2005009651184082
1749027096.4182868,-3.836692039485979,-1.855563198785154,-0.8463763921030384,-0.6198396233794283,-4.64319923641221,-0.9249367490948582,0.012926857238689037,-0.009734808761075677,0.006185567208347946,-0.0628786408730262,0.050628128828075165,-0.0410215259915173,0.1225221827626228,0.7833300828933716,1.1727144718170166,0.2619897425174713,0.2723389565944671,-0.2005009651184082
1749027096.4183326,-3.8366690179032146,-1.8555832219912185,-0.8463682684270698,-0.6199634273181669,-4.643105138236735,-0.9250192101474795,0.012987647353902992,-0.010146689453203614,0.006113300970840053,-0.06377272794824689,0.0513611676762773,-0.041580172336340836,0.148093432188034,0.7425783276557922,1.1679710149765017,0.2727336287498474,0.2479666918516159,-0.1929886639118194
1749027096.4183764,-3.8366465536239005,-1.8556038598502844,-0.8463601976958641,-0.62008839426664,-4.643010454537648,-0.9251018049718459,0.01308034261318044,-0.010565124250004528,0.006068782366985955,-0.06466576766516048,0.05209855485844375,-0.042120097738908076,0.1504460573196411,0.7769179940223694,1.1733598709106443,0.2711624801158905,0.2501393258571625,-0.1829960346221923
1749027096.418417,-3.8366244816030557,-1.8556250681304935,-0.846352053735961,-0.6202146948271838,-4.642914815627781,-0.9251845453719262,0.013206015835301206,-0.010982773788353523,0.006058122278090354,-0.06556771820909359,0.05285306896758286,-0.04264874061575905,0.1462097913026809,0.7726992964744568,1.1804885864257812,0.2896416187286377,0.2585510015487671,-0.1768374741077423
1749027096.4184558,-3.836602612958149,-1.8556468031751,-0.8463437129240652,-0.6203425607137188,-4.642817784724353,-0.9252675321297547,0.01336448081295132,-0.011391173874362741,0.006086007866301393,-0.06648795620373188,0.05363425228912911,-0.04317408816206248,0.1884025335311889,0.7671477794647217,1.196582555770874,0.2601379156112671,0.2583679258823395,-0.1832402050495147
1749027096.418507,-3.836580743985257,-1.8556690299821414,-0.846335055706278,-0.6204722819769604,-4.6427188757308135,-0.9253509664697039,0.013554432776798521,-0.011781044014541216,0.006155567952283949,-0.06743518121462234,0.05444765455899821,-0.04370454710700173,0.1884025335311889,0.7671477794647217,1.196582555770874,0.2601379156112671,0.2583679258823395,-0.1832402050495147
1749027096.418555,-3.836558663363357,-1.8556917290254336,-0.846325968589765,-0.6206042008016687,-4.642617574787343,-0.9254351524131416,0.013773635044209608,-0.012142745571347762,0.0062682885284598595,-0.0684173622502697,0.05529454924750657,-0.04424857691825655,0.1492166817188263,0.7578929662704468,1.1777455806732178,0.2590204775333404,0.2749488353729248,-0.1544075757265091
1749027096.4185946,-3.8365361581166164,-1.8557148999007533,-0.8463163472211068,-0.620738699306463,-4.642513367248148,-0.9255204857844314,0.014019126851694019,-0.012466879033605193,0.006423964051086631,-0.0694416478082601,0.056172134810966015,-0.044814084640413365,0.1574904918670654,0.7677414417266846,1.2128698825836182,0.2798134684562683,0.265424907207489,-0.1605957448482513
1749027096.4186325,-3.836513019510407,-1.8557385604262577,-0.8463061004489144,-0.6208761791553207,-4.642405770649719,-0.9256074272552074,0.014287421216057323,-0.012744967006298962,0.006620680013731091,-0.07051416104902614,0.05707413445125485,-0.045407653015649634,0.1574904918670654,0.7677414417266846,1.2128698825836182,0.2798134684562683,0.265424907207489,-0.1605957448482513
1749027096.4186738,-3.8364890499596487,-1.8557627408375628,-0.8462951545612176,-0.6210170319077835,-4.642294372763725,-0.925696459742102,0.014574668856399174,-0.012970129475098936,0.006854838862033399,-0.07163964010451752,0.05799164374380862,-0.04603373167400393,0.1711981892585754,0.7832290530204773,1.2105844020843506,0.2579711377620697,0.2592583894729614,-0.1794054061174392
1749027096.4187124,-3.8364640711661973,-1.8557874739366234,-0.8462834567025451,-0.6211616013666847,-4.64217887185602,-0.9257880344448208,0.014876784614849908,-0.013137649400101006,0.007121252236214408,-0.07282094931388405,0.05891407067699964,-0.04669395814391435,0.2030330896377563,0.7765955328941345,1.2147977352142334,0.2731491029262543,0.2686570882797241,-0.1748324781656265
1749027096.418751,-3.836437932637331,-1.8558127832134883,-0.8462709768175803,-0.6213101426004997,-4.642059113904738,-0.9258825137488174,0.015189556032480844,-0.013245353926632954,0.007413322467769281,-0.07405855703721528,0.059830063467272945,-0.04738678277922453,0.1851612627506256,0.7764387726783752,1.2231621742248535,0.2610824406147003,0.2904967367649078,-0.1857606470584869
1749027096.4187984,-3.836410519169892,-1.8558386716784783,-0.8462577078703841,-0.6214627855249043,-4.641935119691482,-0.9259801215204315,0.015508766125200708,-0.013293777117030975,0.007723328313086853,-0.07535012344803976,0.06072839812606035,-0.048107540267157835,0.1851612627506256,0.7764387726783752,1.2231621742248535,0.2610824406147003,0.2904967367649078,-0.1857606470584869
1749027096.418837,-3.8363817559976994,-1.8558651140788434,-0.846243664173356,-0.6216195124092699,-4.641807094413726,-0.9260809110442703,0.015830357822700307,-0.013286102171229677,0.008042818638013502,-0.07669034894625357,0.06159885831604562,-0.04884904041238257,0.1859803944826126,0.7835004329681396,1.2258442640304563,0.2539142668247223,0.2913945615291595,-0.1841349601745605
1749027096.418874,-3.836351610843874,-1.855892054290766,-0.8462288775720297,-0.6217801572139551,-4.6416754144891,-0.9261847579830935,0.016150649396232113,-0.013227901594507886,0.008363102932902355,-0.07807119110279863,0.06243314647504785,-0.049602652622743555,0.1983804702758789,0.7875041961669922,1.2143641710281372,0.2706271708011627,0.2730883061885834,-0.1831761300563812
1749027096.4189117,-3.836320092825327,-1.8559194082235815,-0.8462133914155584,-0.6219444295547217,-4.641540590871806,-0.9262913806019382,0.01646658619747458,-0.01312670980899698,0.008675806495410356,-0.07948246996950789,0.0632258034964446,-0.050359748247843145,0.2186345160007476,0.7881628274917603,1.2358627319335938,0.2526772618293762,0.2860706150531769,-0.161385104060173
1749027096.418949,-3.8362872487466078,-1.8559470709860082,-0.8461972528822983,-0.6221119586085263,-4.641403214468997,-0.9264003831190688,0.01677599321704782,-0.012991475845069917,0.008973435110557296,-0.08091277825735396,0.0639750154178145,-0.05111327046902933,0.2186345160007476,0.7881628274917603,1.2358627319335938,0.2526772618293762,0.2860706150531769,-0.161385104060173
1749027096.4189854,-3.836253157517457,-1.8559749259685308,-0.8461805050488488,-0.6222823461929311,-4.641263894263295,-0.9265113127589899,0.017077783012405597,-0.012831949244646809,0.009249881393484123,-0.08235053457011023,0.06468311503177242,-0.05185916002675261,0.2010445892810821,0.8134998083114624,1.227907657623291,0.2486560046672821,0.2861040532588959,-0.1921575963497162
1749027096.4190226,-3.8362179232553806,-1.8560028534560518,-0.8461631806038892,-0.6224552169252207,-4.641123199811062,-0.9266237191479528,0.01737207590055499,-0.01265804872889966,0.009500810810454431,-0.08378498265052481,0.06535659460839419,-0.05259739585166866,0.2010445892810821,0.8134998083114624,1.227907657623291,0.2486560046672821,0.2861040532588959,-0.1921575963497162
1749027096.4190595,-3.836181667412711,-1.8560307373194507,-0.846145298922976,-0.6226302566406146,-4.640981616820231,-0.9267372063789344,0.01766020070410779,-0.01247925648302117,0.009723885962448412,-0.08520694828579586,0.0660055323422672,-0.05333249342510634,0.208108901977539,0.78436279296875,1.2250434160232544,0.2738063633441925,0.2772368490695953,-0.1879960298538208
1749027096.4197109,-3.8361445202099795,-1.856058469417562,-0.8461268672530309,-0.6228072351750487,-4.640839519772335,-0.9268514718380813,0.017944562751397986,-0.012304078886238797,0.009918813961124904,-0.0866092271905238,0.06664246356093684,-0.054073401049787334,0.2263705432415008,0.7917615175247192,1.2395645380020142,0.2328608930110931,0.2916581630706787,-0.2136649489402771
1749027096.4217346,-3.8361066116807394,-1.8560859518994646,-0.846107885373731,-0.6229860135241266,-4.640697161360989,-0.9269663298246068,0.018228389202245947,-0.012139618754221492,0.010087226587181591,-0.08798659162916551,0.06728086011671323,-0.05483281520106413,0.2263705432415008,0.7917615175247192,1.2395645380020142,0.2328608930110931,0.2916581630706787,-0.2136649489402771
1749027096.4622889,-3.8360680626185015,-1.8561130978469933,-0.8460883520040533,-0.6231665376636883,-4.640554675757437,-0.9270817208071223,0.01851538386594062,-0.01199130678153467,0.010232420762862734,-0.08933552761556808,0.06793348561070005,-0.05562598957794353,0.2400823682546615,0.7863632440567017,1.243579387664795,0.2639966011047363,0.2943179309368133,-0.2080452591180801
1749027096.4623346,-3.836028975814286,-1.856139831164085,-0.8460682709562124,-0.6233488226794217,-4.640412091170931,-0.9271977084300321,0.018809337970092103,-0.01186282927590235,0.010358994253820761,-0.09065388376073993,0.06861093900240532,-0.0564691408342244,0.2616293430328369,0.7991665005683899,1.2478781938552856,0.2620371878147125,0.3215090334415436,-0.217226967215538
1749027096.4623797,-3.8359894283968012,-1.8561660871927597,-0.8460476555790216,-0.6235329316229711,-4.640269346746206,-0.9273144663906219,0.019113748604485007,-0.01175626132114125,0.01047241124616771,-0.0919405981860221,0.06932066543488137,-0.05737756717119982,0.2616293430328369,0.7991665005683899,1.2478781938552856,0.2620371878147125,0.3215090334415436,-0.217226967215538
1749027096.4624188,-3.835949466517758,-1.8561918155692305,-0.8460265308577578,-0.6237189534274934,-4.640126309671746,-0.927432256790953,0.019431494182098368,-0.011672376265723473,0.010578531462167595,-0.09319559521750982,0.07006660931401422,-0.05836361094621215,0.2416450232267379,0.8048942685127258,1.25929057598114,0.257741630077362,0.3128765523433685,-0.2197688072919845
1749027096.462456,-3.83590910333435,-1.856216985920149,-0.8460049331608226,-0.6239069834300616,-4.639982790065875,-0.9275514014561292,0.01976460529726692,-0.011611065795144879,0.010683137703182185,-0.0944198511781727,0.0708495428962427,-0.05943463390269434,0.2595606446266174,0.7961947321891785,1.2480952739715576,0.2722823023796081,0.2980708479881286,-0.2392782121896743
1749027096.462494,-3.8358683201669295,-1.8562415953931901,-0.8459829079562085,-0.6240971089241547,-4.63983855305682,-0.927672248255025,0.020114149712810718,-0.011571782062951461,0.010791496783798265,-0.09561555015261561,0.07166796097415812,-0.06059123605278485,0.2595606446266174,0.7961947321891785,1.2480952739715576,0.2722823023796081,0.2980708479881286,-0.2392782121896743
1749027096.462532,-3.835827069841357,-1.8562656755327307,-0.8459605060086208,-0.624289400730549,-4.639693329070996,-0.9277951350520567,0.020480228660784573,-0.011553914960518422,0.010907984426264988,-0.09678621561280992,0.07251932046000165,-0.06182600196567642,0.250677078962326,0.7957698106765747,1.2587645053863523,0.23841592669487,0.2990259826183319,-0.229587972164154
1749027096.4625697,-3.8357852814365025,-1.8562892955381496,-0.8459377786829991,-0.6244839103055297,-4.639546824298753,-0.9279203542409824,0.02086206808245462,-0.011557044330200203,0.011035796725606166,-0.09793673759288606,0.07340134611976648,-0.06312305163766777,0.250677078962326,0.7957698106765747,1.2587645053863523,0.23841592669487,0.2990259826183319,-0.229587972164154
1749027096.462607,-3.835742866526889,-1.8563125598129808,-0.8459147730097272,-0.6246806710585339,-4.639398733180311,-0.9280481211943729,0.02125818522584306,-0.011581045724171252,0.011176762266008798,-0.09907329552992013,0.07431312996365137,-0.06445858651840634,0.268103152513504,0.7889344692230225,1.2574769258499146,0.2495656907558441,0.3170917332172394,-0.2469389140605926
1749027096.4626434,-3.835699727270516,-1.856335599474617,-0.8458915271569906,-0.624879702472219,-4.639248753657766,-0.9281785503400504,0.021666610297511074,-0.011626063416793585,0.011331262197758065,-0.10020322587953223,0.07525581384613214,-0.0658024739374505,0.2823939621448517,0.7662087678909302,1.258732557296753,0.2752677202224731,0.2950358986854553,-0.198013573884964
1749027096.4626803,-3.8356557657999377,-1.8563585592488219,-0.8458680669967249,-0.6250810157359077,-4.639096604536956,-0.928311642201325,0.022085135431437274,-0.011692389200898086,0.011498260561877091,-0.10133484782446235,0.07623273996992308,-0.06712074286130286,0.2823939621448517,0.7662087678909302,1.258732557296753,0.2752677202224731,0.2950358986854553,-0.198013573884964
1749027096.4627175,-3.835610893215997,-1.8563815821859122,-0.8458444044670157,-0.6252846195741214,-4.6389420431075115,-0.9284472832803576,0.022511550396256713,-0.011780299967643786,0.011675440230467125,-0.10247718419441154,0.07724905609195505,-0.0683787158353332,0.2600898742675781,0.7780490517616272,1.2563815116882324,0.2599142789840698,0.2919491231441498,-0.226076066493988
1749027096.462754,-3.835565036360148,-1.8564047947798699,-0.8458205381471342,-0.6254905250686758,-4.6387848803643115,-0.9285852587560799,0.022943819884420142,-0.011889909213334411,0.011859427266960355,-0.10363949217547772,0.07831085709943117,-0.06954442193630574,0.2525889277458191,0.7926063537597656,1.240969181060791,0.266072154045105,0.3202159404754638,-0.2194845080375671
1749027096.462794,-3.835518141773631,-1.8564282947069741,-0.8457964558235335,-0.6256987486090174,-4.638624991128295,-0.9287252762996586,0.02338017228281045,-0.012021074658458636,0.012046072608463949,-0.10483058099163999,0.07942402937050899,-0.07059193515552643,0.2525889277458191,0.7926063537597656,1.240969181060791,0.266072154045105,0.3202159404754638,-0.2194845080375671
1749027096.4628377,-3.8354701778408558,-1.8564521428664114,-0.8457721382996772,-0.6259093123439945,-4.638462317390908,-0.9288669980343042,0.023819098662777923,-0.012173379765939943,0.012230756745462108,-0.10605798691769129,0.08059302621336438,-0.07150432140051981,0.2564898133277893,0.7750939130783081,1.242546319961548,0.2362583577632904,0.3326905965805053,-0.2006237357854843
1749027096.4628766,-3.8354211366492863,-1.8564763607975903,-0.845747563742055,-0.6261222418987301,-4.63829686471874,-0.9290100769344103,0.02425928624013092,-0.01234618122423522,0.012408695681237958,-0.10732714121274832,0.08181981247448943,-0.07227591061408183,0.2564898133277893,0.7750939130783081,1.242546319961548,0.2362583577632904,0.3326905965805053,-0.2006237357854843
1749027096.462917,-3.8353710361370243,-1.8565009338491774,-0.8457227122806718,-0.6263375622107943,-4.638128692536884,-0.9291541940056666,0.0246995223377258,-0.012538696884385423,0.012575243565645058,-0.10864069543460562,0.08310315880958397,-0.07291364067485227,0.2895366251468658,0.7646884322166443,1.243718504905701,0.2389778792858123,0.3084201216697693,-0.1910539716482162
1749027096.4629548,-3.835319921601624,-1.8565258196666692,-0.8456975708219828,-0.626555293713901,-4.637957899382312,-0.9292990931176305,0.0251386049266284,-0.012750103251498958,0.012726192658645188,-0.10999817193725972,0.08443836898945033,-0.07343727992355634,0.3061020374298095,0.7786751389503479,1.2446050643920898,0.223580464720726,0.3190233409404754,-0.2005448192358017
1749027096.4629917,-3.8352678648717244,-1.8565509607031812,-0.8456721378328862,-0.6267754516110294,-4.637784604391028,-0.9294446107425447,0.025575289283303278,-0.012979616633787225,0.012858061406610211,-0.11139608100719059,0.08581744024277019,-0.07387844033116418,0.3061020374298095,0.7786751389503479,1.2446050643920898,0.223580464720726,0.3190233409404754,-0.2005448192358017
1749027096.463028,-3.8352149597351812,-1.856576298756184,-0.8456464274603777,-0.626998050215194,-4.6376089266317075,-0.9295906980821098,0.02600828824524242,-0.013226541598096303,0.012968348429136727,-0.11282858221269157,0.08722961764351993,-0.07427842483844867,0.2794705033302307,0.7885347604751587,1.2382714748382568,0.2121298760175705,0.3187172412872314,-0.2065678238868713
1749027096.4637053,-3.8351613131245776,-1.8566017892616402,-0.8456204720713766,-0.6272231128430413,-4.637430964162721,-0.9297374337462281,0.02643632589219533,-0.013490278476511007,0.013055727100728184,-0.1142886718979804,0.08866229209975916,-0.07468508124051398,0.2604122161865234,0.7794352173805237,1.2304637432098389,0.2349138259887695,0.3252024054527282,-0.2180762141942978
1749027096.4657085,-3.8351070327507286,-1.8566274132746854,-0.8455943222458551,-0.6274506859554834,-4.637250774889042,-0.9298850262959435,0.026858225282060028,-0.01377028619738579,0.013120163284961175,-0.11576976904802878,0.09010216815626262,-0.07514894175621119,0.2604122161865234,0.7794352173805237,1.2304637432098389,0.2349138259887695,0.3252024054527282,-0.2180762141942978
1749027096.5063045,-3.8350522132145755,-1.8566531855380541,-0.8455680434938194,-0.627680854447722,-4.637068361642235,-0.9300338067895236,0.027272998371005247,-0.014065999898039994,0.01316294984620457,-0.11726747371964821,0.09153657855422946,-0.07571899899180375,0.2797286212444305,0.7797074317932129,1.2240339517593384,0.2124887853860855,0.3065396547317505,-0.2307111322879791
1749027096.5063882,-3.834996923614581,-1.8566791576697925,-0.8455417095625684,-0.6279137541620236,-4.6368836639352615,-0.9301842116997451,0.027679907198642165,-0.014376707397039832,0.0131866606409919,-0.11878121384078247,0.09295477277368752,-0.07643849468985937,0.2797286212444305,0.7797074317932129,1.2240339517593384,0.2124887853860855,0.3065396547317505,-0.2307111322879791
1749027096.5064592,-3.8349411996365594,-1.8567054162834935,-0.8455153931040257,-0.6281495786151038,-4.636696557834338,-0.9303367568085228,0.028078478170001617,-0.014701394020095454,0.01319503397617939,-0.1203154886774562,0.09434898819095128,-0.07734107845553219,0.2970293462276459,0.7613204121589661,1.2284862995147705,0.1995793581008911,0.3187940716743469,-0.2406436055898666
1749027096.5065277,-3.8348850420253506,-1.8567320766261015,-0.8454891554421663,-0.6283885787891361,-4.6365068635957085,-0.93049200327064,0.028468466277377206,-0.015038568440826655,0.013192800160630775,-0.12188044463241342,0.09571513153354481,-0.07844764371732711,0.2780692279338836,0.8005327582359314,1.2449491024017334,0.2142979502677917,0.3118455410003662,-0.2285706847906112
1749027096.5065958,-3.8348284217882767,-1.8567592727937228,-0.8454630378333009,-0.6286310559573363,-4.636314359328698,-0.9306505175047987,0.028849775639403028,-0.01538608283147007,0.013185465562501313,-0.12349156242341343,0.09705294292350113,-0.07976408216003494,0.2780692279338836,0.8005327582359314,1.2449491024017334,0.2142979502677917,0.3118455410003662,-0.2285706847906112
1749027096.5066617,-3.8347712910218186,-1.8567871457181808,-0.8454370565170513,-0.6288773474251705,-4.63611879878274,-0.9308128266187637,0.029222348371979633,-0.015740963201257722,0.013179054627025911,-0.12516831004243514,0.09836558062409716,-0.08128013052519024,0.3080747723579407,0.7926889657974243,1.2232041358947754,0.1841983497142791,0.3106227219104767,-0.2639828622341156
1749027096.5067308,-3.834713597072009,-1.8568158302011322,-0.8454112027930472,-0.629127805053181,-4.635919931929825,-0.930979371423359,0.0295860420750555,-0.016099274092088247,0.013179797652574205,-0.12693176467830694,0.09965866047356703,-0.08296943445121573,0.3080747723579407,0.7926889657974243,1.2232041358947754,0.1841983497142791,0.3106227219104767,-0.2639828622341156
1749027096.5067976,-3.8346552968850194,-1.8568454425218892,-0.8453854476710794,-0.6293827678726157,-4.635717527159747,-0.9311504606281557,0.029940527845782886,-0.01645605211056348,0.013193748316944993,-0.12880142857607177,0.10093890084625384,-0.08479092140064849,0.2809385955333709,0.7979395389556885,1.2271878719329834,0.1929233372211456,0.3069671392440796,-0.2684218883514404
1749027096.5068655,-3.8345963680644295,-1.856876070345357,-0.8453597491838555,-0.6296425327422754,-4.635511393180876,-0.9313262321480867,0.03028524772263771,-0.016805346482029953,0.013226331244377922,-0.13079168304891547,0.10221261483591755,-0.08669151513541189,0.2644347846508026,0.7949060201644897,1.260048270225525,0.1940471827983856,0.2926619946956634,-0.2424762845039367
1749027096.506941,-3.8345368136702485,-1.8569077664294082,-0.8453340599574188,-0.6299073290033472,-4.635301397959693,-0.93150662888652,0.03061946467128454,-0.017140398199496622,0.013281853802624217,-0.13290845481767155,0.10348430885375051,-0.08861009405121947,0.3170192241668701,0.7804800271987915,1.260148286819458,0.1737648099660873,0.3005135953426361,-0.2395249307155609
1749027096.5070107,-3.8344766593891477,-1.8569405468751505,-0.8453083331612333,-0.6301773026982707,-4.635087482447829,-0.9316913953078056,0.030942418925868593,-0.017453976077975518,0.013363050728336892,-0.135146680146699,0.10475559529276385,-0.09048240975255882,0.3028001189231872,0.7892575263977051,1.2515006065368652,0.1587986946105957,0.3256933093070984,-0.2140665650367736
1749027096.5070806,-3.834415944077504,-1.8569743936116303,-0.8452825259631604,-0.630452512907381,-4.634869668618019,-0.9318800973951817,0.0312535761221922,-0.017738870301345452,0.013470745916607369,-0.13748905455272248,0.10602455661365456,-0.09224650781847014,0.2982256710529327,0.7822874188423157,1.2562570571899414,0.1472589820623397,0.3141132891178131,-0.2364261001348495
1749027096.5071487,-3.834354706972642,-1.8570092598525634,-0.8452566004985301,-0.6307329385614228,-4.634648063284797,-0.9320721635639431,0.03155292025640495,-0.01798851741386848,0.013603706508973664,-0.1399063586150538,0.10728564760741345,-0.09384809436062448,0.2982256710529327,0.7822874188423157,1.2562570571899414,0.1472589820623397,0.3141132891178131,-0.2364261001348495
1749027096.5072193,-3.8342929760462177,-1.8570450767950337,-0.8452305229020907,-0.6310184908042787,-4.634422859747543,-0.9322669397991897,0.03184121602099832,-0.018197692408356624,0.01375873622017004,-0.14235937841717208,0.10853018073767452,-0.09524528869536686,0.3031105101108551,0.7995085716247559,1.261172652244568,0.1654298156499862,0.3226251602172851,-0.2040514647960662
1749027096.5072868,-3.834230761374159,-1.8570817600123242,-0.8452042612261232,-0.6313090251887427,-4.63419433777291,-0.9324637502851798,0.03212015396392001,-0.018363163456270797,0.01393101432822254,-0.14480215583318673,0.10974737402927985,-0.09641226813698424,0.3031105101108551,0.7995085716247559,1.261172652244568,0.1654298156499862,0.3226251602172851,-0.2040514647960662
1749027096.5073566,-3.834168055250502,-1.8571192146283946,-0.8451777831611526,-0.63160434980457,-4.633962859839752,-0.9326619553217884,0.03239231076339871,-0.01848418470219102,0.014114639158296454,-0.1471860882868458,0.11092584926798478,-0.09734141652062761,0.2979341745376587,0.8122196197509766,1.259840726852417,0.1563428491353988,0.3138287663459778,-0.1812978535890579
1749027096.507425,-3.834104838196461,-1.8571573390535128,-0.8451510543807349,-0.6319042283485647,-4.63372886012777,-0.9328610002521193,0.03266090672871244,-0.018562722653494262,0.014303290311916367,-0.14946429909739375,0.11205538135479075,-0.09804373544878368,0.3020899295806885,0.7896029353141785,1.253399133682251,0.1823522746562957,0.3216016888618469,-0.1854378432035446
1749027096.507496,-3.8340410882565354,-1.8571960275033141,-0.8451240380781505,-0.6322083791541067,-4.633492824009547,-0.9330604509642988,0.03292940788857302,-0.018603373193400607,0.014490896978350662,-0.1515957127801458,0.11312864625810928,-0.09854747342076094,0.3020899295806885,0.7896029353141785,1.253399133682251,0.1823522746562957,0.3216016888618469,-0.1854378432035446
1749027096.507565,-3.8339767905623687,-1.857235171646281,-0.8450966959664807,-0.6325164716524372,-4.633255259145239,-0.9332600128410947,0.03320107391051354,-0.018613004098981287,0.014672202835468265,-0.15354835837675473,0.11414270386790085,-0.0988951432154009,0.3270164132118225,0.7939783334732056,1.2622014284133911,0.2054963111877441,0.3211657702922821,-0.1924220621585846
1749027096.5076337,-3.833911944742039,-1.8572746616650775,-0.8450689907575323,-0.6328281218950724,-4.6330166623476705,-0.9334595317971212,0.03347857217468855,-0.018600215471170613,0.014843154071659434,-0.15530156828168218,0.11509998188220254,-0.09913927957858906,0.3270164132118225,0.7939783334732056,1.2622014284133911,0.2054963111877441,0.3211657702922821,-0.1924220621585846
1749027096.507818,-3.83384656865132,-1.8573143870179634,-0.8450408898645259,-0.6331428899441294,-4.6327774872938,-0.9336589791105174,0.03376375583070152,-0.01857472520584822,0.015001092479509868,-0.15684693394814794,0.11600859135193098,-0.09933740582235688,0.3240870237350464,0.7906488180160522,1.2736523151397705,0.180142194032669,0.3228194713592529,-0.1871474981307983
1749027096.509727,-3.8337806976712896,-1.857354237403725,-0.8450123696716605,-0.6334602835443546,-4.632538116832843,-0.9338584252105165,0.03405764995680196,-0.018546762185695002,0.01514478487441275,-0.15818808762543332,0.11688189073860453,-0.09954672914918775,0.3356247544288635,0.7923112511634827,1.2877298593521118,0.1933636516332626,0.2820225954055786,-0.2042709589004516
1749027096.5502834,-3.8337143795172297,-1.8573941047205615,-0.8449834192152126,-0.6337797727339307,-4.632298841397417,-0.9340580094825257,0.034360625042107545,-0.018526506801030004,0.015274344328641717,-0.15933953927425928,0.1177373119794588,-0.09981908183863383,0.3356247544288635,0.7923112511634827,1.2877298593521118,0.1933636516332626,0.2820225954055786,-0.2042709589004516
1749027096.5503306,-3.8336476652898366,-1.857433886838228,-0.8449540418063342,-0.6341008182360167,-4.632059843141196,-0.9342579126477208,0.03467268408867969,-0.01852357994870158,0.01539109774263109,-0.16032486933141016,0.11859456520719494,-0.10019657902772429,0.3227647244930267,0.7668635249137878,1.2901222705841064,0.1820443868637085,0.3048710823059082,-0.2245787531137466
1749027096.5503716,-3.8335805981878535,-1.8574734936493196,-0.8449242533455916,-0.6344229134095798,-4.631821184379433,-0.9344583361710048,0.034993766058387,-0.01854656456271292,0.015497438489267011,-0.16117456157396798,0.11947344042199294,-0.10070838342290003,0.3368635773658752,0.7619618773460388,1.3060810565948486,0.1877274811267852,0.2862496376037597,-0.1863786578178405
1749027096.55041,-3.8335132016482314,-1.8575128552150582,-0.8448940769574236,-0.634745635881511,-4.631582798955218,-0.9346594905332466,0.03532397644161992,-0.01860255180584185,0.015596680421923208,-0.1619236845413085,0.1203915025283374,-0.10136886196280569,0.3368635773658752,0.7619618773460388,1.3060810565948486,0.1877274811267852,0.2862496376037597,-0.1863786578178405
1749027096.550449,-3.8334454687303716,-1.8575519309599104,-0.8448635347976865,-0.6350687012158076,-4.6313444864154265,-0.93486159169342,0.03566368604155365,-0.01869672721744503,0.01569290490843423,-0.16260953801462483,0.12136200711411994,-0.10217729244458039,0.3268385827541351,0.7753803133964539,1.2893543243408203,0.1945156157016754,0.3341692686080932,-0.2415869981050491
1749027096.550487,-3.8333773543899357,-1.857590718031897,-0.8448326388338108,-0.6353920088071066,-4.6311059104777135,-0.9350648633422616,0.03601348186049595,-0.018832035126746187,0.015790771163135858,-0.1632693185734354,0.12239234069929719,-0.10311912777375007,0.3268385827541351,0.7753803133964539,1.2893543243408203,0.1945156157016754,0.3341692686080932,-0.2415869981050491
1749027096.5505247,-3.8333087718532344,-1.8576292565872397,-0.8448013826314328,-0.6357156712541309,-4.630866604009717,-0.9352695420823387,0.03637399887573842,-0.019008972647708886,0.015895250720796957,-0.16393785183098566,0.12348321729074674,-0.10416865517937203,0.3544409275054931,0.7553697824478149,1.2966623306274414,0.1949590891599655,0.3084880113601684,-0.2285535633563995
1749027096.5505626,-3.8332395937318977,-1.8576676301630655,-0.8447697358022456,-0.6360400218627162,-4.630625982759612,-0.9354758828918722,0.03674569205545171,-0.019225565287459685,0.01601125874219406,-0.1646454800997608,0.1246287525486816,-0.10529271516180301,0.3372802734375,0.7435539364814758,1.2982721328735352,0.1828666031360626,0.3402794003486633,-0.2394747734069824
1749027096.5506,-3.83316965808045,-1.857705960293413,-0.8447376421566871,-0.6363655981169642,-4.63038337031981,-0.9356841620742166,0.03712861044924603,-0.01947756470932632,0.016143189539331464,-0.16541624772321062,0.12581740325925764,-0.1064550035199617,0.3372802734375,0.7435539364814758,1.2982721328735352,0.1828666031360626,0.3402794003486633,-0.2394747734069824
1749027096.5506382,-3.833098779282108,-1.8577443957062025,-0.8447050220188729,-0.6366931009744271,-4.630138036927337,-0.9358946743525999,0.03752221371409042,-0.019758883492131524,0.016294409164346414,-0.1662665582445616,0.12703362735335363,-0.10762040706708613,0.3436225652694702,0.7491212487220764,1.3053158521652222,0.1730984151363372,0.346658855676651,-0.2049334645271301
1749027096.5506768,-3.8330267630983186,-1.857783097557023,-0.8446717786426332,-0.6370233321099849,-4.62988925288492,-0.9361077212158779,0.03792524678980863,-0.020062240768207035,0.016466794141003875,-0.16720447552064485,0.12826001056339464,-0.10875883884397383,0.3436225652694702,0.7491212487220764,1.3053158521652222,0.1730984151363372,0.346658855676651,-0.2049334645271301
1749027096.550714,-3.832953424301424,-1.8578222230617776,-0.8446378081345429,-0.6373571150955335,-4.629636352794929,-0.9363235901084397,0.038335680441335486,-0.020379945045667588,0.01666041606657935,-0.1682298013282062,0.1294795371578997,-0.10984813316299252,0.370220810174942,0.7702808976173401,1.3116204738616943,0.1713064312934875,0.332588642835617,-0.207250565290451
1749027096.5507524,-3.8328786044612313,-1.857861910335424,-0.8446030116448828,-0.6376952110113855,-4.629378801348147,-0.9365425277553951,0.03875073667060593,-0.02070470551803477,0.016873450182371755,-0.16933497216462354,0.13067767226426893,-0.11087571252650812,0.3865658044815063,0.7511664032936096,1.328371286392212,0.1937598288059234,0.3215772807598114,-0.2141322940587997
1749027096.5507932,-3.832802187244495,-1.8579022669784604,-0.8445673079421336,-0.6380382415494563,-4.629116248452776,-0.9367647137190643,0.0391670304897228,-0.02103035661157708,0.017102336696680907,-0.17050667746094322,0.13184397883880836,-0.11183892289154444,0.3716315627098083,0.744422435760498,1.3172636032104492,0.1905150115489959,0.323979914188385,-0.2209385335445404
1749027096.5508318,-3.832724109126625,-1.85794336400661,-0.8445306442526809,-0.6383866313090816,-4.628848563085422,-0.9369902406238529,0.03958084790701195,-0.0213524025440736,0.017342163123723147,-0.1717279532880227,0.13297309481590727,-0.11274412116309165,0.3687068819999695,0.7458992004394531,1.3075368404388428,0.2251375019550323,0.3289181888103485,-0.2290445268154144
1749027096.5508692,-3.832644364426378,-1.8579852354526643,-0.8444930037448274,-0.6387405758929192,-4.628575840658429,-0.9372191053441716,0.03998853763176127,-0.021668326552589757,0.017587187002834043,-0.17298041460558305,0.13406501389655376,-0.11360475727978514,0.3627788424491882,0.7460987567901611,1.3128951787948608,0.176407590508461,0.320330262184143,-0.232045292854309
1749027096.5509076,-3.832563004749263,-1.8580278828752497,-0.8444544090371379,-0.6391000358640168,-4.628298385075841,-0.9374512120712009,0.04038694531609168,-0.021977648199211934,0.017831397790164148,-0.17424629221701504,0.1351247188906569,-0.11443879938982529,0.3627788424491882,0.7460987567901611,1.3128951787948608,0.176407590508461,0.320330262184143,-0.232045292854309
1749027096.5509455,-3.8324801338876493,-1.8580712834664206,-0.8444149220152377,-0.6394647516923537,-4.628016671053601,-0.9376863852061271,0.040773797511572986,-0.02228174397336437,0.01806902676197143,-0.17551003263706794,0.1361612941401215,-0.11526589725551445,0.345851868391037,0.7388169169425964,1.3037773370742798,0.1712403297424316,0.3443882465362549,-0.2333486974239349
1749027096.550983,-3.832395899532941,-1.8581154004792735,-0.844374640703358,-0.6398342732614631,-4.6277312936703225,-0.9379243884799112,0.041147959125232655,-0.022583474075671343,0.01829494514578184,-0.1767593669874869,0.1371866961677591,-0.11610467654394074,0.3477262556552887,0.7351951599121094,1.3083659410476685,0.1902384907007217,0.3433882296085357,-0.2498617321252823
1749027096.5510204,-3.8323104827888086,-1.8581601948744937,-0.8443336940739858,-0.6402079983236515,-4.62744291182743,-0.9381649462926509,0.04150952791685674,-0.022886685405979053,0.018504930318272283,-0.1779859069188925,0.1382143940055226,-0.11697051886782057,0.3477262556552887,0.7351951599121094,1.3083659410476685,0.1902384907007217,0.3433882296085357,-0.2498617321252823
1749027096.551689,-3.8322240859147976,-1.8582056369380686,-0.8442922356330013,-0.6405852154165155,-4.627152192007737,-0.9384077633662193,0.04185977050991244,-0.023195679062277017,0.01869581567437557,-0.17918542620243447,0.1392580903043243,-0.11787410635432341,0.3690204918384552,0.7273367047309875,1.3048346042633057,0.1897866427898407,0.3463449776172638,-0.2408579736948013
1749027096.553724,-3.832136918405569,-1.8582517161983008,-0.8442504363011438,-0.6409651479100329,-4.626859758268153,-0.9386525397449577,0.04220093363015643,-0.023514725868674882,0.01886556170942555,-0.18035800811956676,0.14033068901055645,-0.11882088173013931,0.3690204918384552,0.7273367047309875,1.3048346042633057,0.1897866427898407,0.3463449776172638,-0.2408579736948013
1749027096.5942855,-3.8320491815808846,-1.8582984477841877,-0.8442084765423373,-0.6413469978609599,-4.62656615267742,-0.9388989804264609,0.04253597939660472,-0.02384768474774384,0.019013287675300364,-0.181508189564062,0.14144359372133508,-0.11981140404835748,0.3894659280776977,0.699357807636261,1.306854486465454,0.149633377790451,0.352818489074707,-0.2489619106054306
1749027096.5943325,-3.831961052380899,-1.8583458737788576,-0.8441665372502887,-0.6417299903980077,-4.626271807694235,-0.9391468014255545,0.042868295689575564,-0.02419774279226681,0.019139285366420827,-0.18264513519455267,0.1426063216364945,-0.12084240886988142,0.349604070186615,0.7162401676177979,1.3007590770721436,0.2045149356126785,0.3388090133666992,-0.2436539232730865
1749027096.5943725,-3.831872667965004,-1.8583940589782246,-0.8441247890848654,-0.6421134192220097,-4.625977030097299,-0.9393957349115706,0.043201421740796664,-0.024567269578219166,0.019245008211685375,-0.18378275350867904,0.1438263206634772,-0.12190825877201195,0.349604070186615,0.7162401676177979,1.3007590770721436,0.2045149356126785,0.3388090133666992,-0.2436539232730865
1749027096.5944123,-3.8317841136393795,-1.8584430813906136,-0.8440833808321624,-0.6424966907762366,-4.625681996213849,-0.9396455345698016,0.043538805933507466,-0.024957764487775064,0.019333005910729454,-0.18493955883267899,0.14510881104626086,-0.12300242375496515,0.3531452417373657,0.7235708236694336,1.2967629432678225,0.2155121117830276,0.3285670280456543,-0.2096846997737884
1749027096.5944514,-3.8316954170143336,-1.8584930186575834,-0.8440424284261779,-0.6428793608960243,-4.6253867593269185,-0.9398959800918664,0.04388358590502468,-0.02536986838833331,0.01940677294244166,-0.18613803549365945,0.1464564723170024,-0.12411866934800328,0.3441978693008423,0.7243284583091736,1.3073911666870115,0.2028174549341201,0.3206153512001037,-0.2230887413024902
1749027096.59449,-3.831606550707785,-1.8585439324175148,-0.8440020067963657,-0.6432611563957596,-4.625091270156488,-0.9401468788771412,0.04423836688994084,-0.025803406901523603,0.019470500949682498,-0.18740330410298503,0.14786887406668692,-0.12525174371651862,0.3441978693008423,0.7243284583091736,1.3073911666870115,0.2028174549341201,0.3206153512001037,-0.2230887413024902
1749027096.5945284,-3.831517444327959,-1.8585958534270246,-0.8439621463401656,-0.643641976680418,-4.624795409145861,-0.9403980644642178,0.04460498514052061,-0.026257434534937896,0.019528754862568526,-0.1887610304852729,0.14934168270480547,-0.12639751287763798,0.3771422505378723,0.7107025384902954,1.3092602491378784,0.2092505395412445,0.3158379793167114,-0.2303307950496673
1749027096.594566,-3.831428004226217,-1.8586487706682018,-0.8439228347214103,-0.6440218762440227,-4.624499025718279,-0.9406493939748394,0.04498427351229657,-0.026730258845653863,0.019586110942556682,-0.19023473454516954,0.15086582246727018,-0.12755264784624207,0.3771422505378723,0.7107025384902954,1.3092602491378784,0.2092505395412445,0.3158379793167114,-0.2303307950496673
1749027096.5946035,-3.8313381373578395,-1.8587026273368903,-0.8438840233424025,-0.6444010350426661,-4.624201976572419,-0.9409007490481984,0.04537587415776389,-0.027219437308938877,0.019646796900443967,-0.19184288692591847,0.15242688234774185,-0.1287140735870809,0.3830302655696869,0.7137548923492432,1.3116486072540283,0.171665221452713,0.3462643623352051,-0.2224580496549606
1749027096.5946407,-3.8312477743680344,-1.858757325477135,-0.8438456367563462,-0.6447797271715606,-4.623904154120284,-0.9411520447676522,0.04577814955021036,-0.02772175042706115,0.019714370966720032,-0.19359632756958386,0.1540051048014107,-0.12987842047637088,0.3693057000637054,0.7393952012062073,1.330265760421753,0.1406511664390564,0.3448600172996521,-0.2415308356285095
1749027096.5946774,-3.831156887065281,-1.858812739357847,-0.8438075828089286,-0.6451582976744962,-4.623605497940649,-0.9414032485871234,0.0461882265080766,-0.028233160660890416,0.019791477037397264,-0.19549652654851954,0.15557624089478495,-0.1310416754084772,0.3693057000637054,0.7393952012062073,1.330265760421753,0.1406511664390564,0.3448600172996521,-0.2415308356285095
1749027096.5947149,-3.8310654964780273,-1.8588687358420815,-0.8437697614579837,-0.6455371536141403,-4.623305985920075,-0.9416544074952883,0.046602181745699384,-0.028748770752337036,0.019879710604020443,-0.19753503210427326,0.15711340201939478,-0.1321991411340994,0.3874812722206116,0.7372850775718689,1.3371634483337402,0.1606982052326202,0.3627700805664062,-0.2299664765596389
1749027096.5947518,-3.8309736693847567,-1.8589251983375625,-0.843732070884908,-0.6459167708580474,-4.6230056060289115,-0.9419056786557071,0.0470153531797806,-0.029262800915218077,0.01997961280933806,-0.19969417508752646,0.15858980569444303,-0.13334572200281755,0.3617361485958099,0.7393876910209656,1.3035887479782104,0.1769174188375473,0.3358411490917206,-0.2578841149806976
1749027096.5947893,-3.8308815034741075,-1.8589820497590777,-0.8436944105580042,-0.6462977136522754,-4.622704313445329,-0.942157357455051,0.047422739179412705,-0.029768612870325957,0.02009077647910056,-0.2019488137023425,0.15998206323478212,-0.1344764857735485,0.3617361485958099,0.7393876910209656,1.3035887479782104,0.1769174188375473,0.3358411490917206,-0.2578841149806976
1749027096.594826,-3.830789103802343,-1.8590392696510656,-0.8436566820947917,-0.6466806602610545,-4.622401980850504,-0.9424098967426978,0.047819426925295436,-0.030258815102525653,0.020212014546382728,-0.20426871045136547,0.16127346845956417,-0.13558739703322337,0.3334105014801025,0.7360449433326721,1.3263109922409058,0.1759252548217773,0.3100333511829376,-0.234463170170784
1749027096.5948627,-3.8306965552270515,-1.8590969016169472,-0.8436187895795391,-0.647066425455366,-4.622098351737986,-0.9426639117046965,0.04820097955592161,-0.030725480284329948,0.02034153040973688,-0.20662110790005056,0.16245668650832962,-0.13667606803492172,0.3307780921459198,0.7358554005622864,1.3393203020095823,0.1636697798967361,0.3280898332595825,-0.2322505414485931
1749027096.5948992,-3.8306038965235794,-1.8591550494452902,-0.8435806409968384,-0.6474559700589466,-4.62179300698582,-0.942920166348463,0.04856372059637339,-0.03116048818921238,0.020477049510726562,-0.20897318966443146,0.16353533465287734,-0.1377423379354928,0.3307780921459198,0.7358554005622864,1.3393203020095823,0.1636697798967361,0.3280898332595825,-0.2322505414485931
1749027096.5949357,-3.8305111018043108,-1.859213863079618,-0.8435421516865909,-0.6478503891261554,-4.621485353545221,-0.9431795397493822,0.04890488295061486,-0.031555980819389436,0.02061590633598114,-0.21129426879920524,0.16452415828963252,-0.1387884929022172,0.3222715258598327,0.7500371932983398,1.3262944221496582,0.1955989897251129,0.2813315093517303,-0.2498338520526886
1749027096.5949724,-3.8304180734247333,-1.8592735178311497,-0.8435032495747167,-0.6482508737745911,-4.621174640606358,-0.9434429728538972,0.04922262828065922,-0.03190489212696838,0.020755109012436875,-0.21355763734090075,0.16544776341128434,-0.139818991931839,0.3469307124614715,0.786982536315918,1.333174705505371,0.1816976815462112,0.3267068862915039,-0.2528970241546631
1749027096.595009,-3.830324647940539,-1.8593341911570789,-0.8434638809044029,-0.6486586464964154,-4.6208600036390814,-0.9437113994351752,0.049515978188755215,-0.03220149871369546,0.020891418134533952,-0.21574201336787271,0.16633810715852937,-0.14083966180657587,0.3221411406993866,0.7789508700370789,1.3486721515655518,0.1914577037096023,0.3102987110614776,-0.2331518828868866
1749027096.5956993,-3.830230613968914,-1.8593960406580428,-0.8434240148519673,-0.6490748737878396,-4.620540532406751,-0.943985666916714,0.049784719308473356,-0.03244192941951492,0.02102148403782299,-0.21783247278276077,0.16723113381441354,-0.14185644406105372,0.3396554887294769,0.7819320559501648,1.361528396606445,0.2260869890451431,0.3304545283317566,-0.2437055110931396
1749027096.5976913,-3.830135739060757,-1.8594591852858706,-0.8433836459354318,-0.6495005622011041,-4.620215356599916,-0.9442664538657148,0.050029343336681145,-0.0326245715410073,0.021142086977435432,-0.21982071765473193,0.1681630493363104,-0.14287388779027838,0.3395586013793945,0.7777420282363892,1.3492943048477173,0.2189826369285583,0.3528667688369751,-0.2436293661594391
1749027096.638291,-3.8300398018769406,-1.8595236902561656,-0.843342794041245,-0.6499364458749395,-4.61988374104285,-0.9445541916230208,0.050251061318600784,-0.032750322445100205,0.021250505525769094,-0.22170457508900387,0.1691667316793734,-0.14389366745130622,0.3413717746734619,0.7738226056098938,1.3534092903137207,0.2358798682689666,0.3468703329563141,-0.2565121054649353
1749027096.6383371,-3.8299426253399886,-1.8595895556791369,-0.8433015025145473,-0.6503828769731252,-4.619545180123235,-0.944848998433261,0.05045189506239605,-0.03282265391577143,0.021344994241350758,-0.22348676114858546,0.17026868347277685,-0.144913454496871,0.2835885882377624,0.7966240644454956,1.3626712560653689,0.2283137440681457,0.3390670418739319,-0.2821224331855774
1749027096.638383,-3.8298441056144994,-1.8596567094255354,-0.8432598347147542,-0.6508397354520529,-4.619199478093919,-0.9451506357698,0.05063480786383225,-0.03284747365038864,0.021425296711927232,-0.22517313781944032,0.17148679151237176,-0.14592646602686274,0.2835885882377624,0.7966240644454956,1.3626712560653689,0.2283137440681457,0.3390670418739319,-0.2821224331855774
1749027096.6384256,-3.829744231246122,-1.859725005564584,-0.843217868863928,-0.6513063791933271,-4.618846799351708,-0.9454584977865828,0.050803809289096315,-0.03283278178052906,0.021493081970189065,-0.22677084982722695,0.1728290141267354,-0.14692192203307197,0.3111685812473297,0.7926841378211975,1.3627694845199585,0.20602747797966,0.3317083716392517,-0.2507171630859375
1749027096.6384647,-3.8296430875969034,-1.85979423010305,-0.8431756904879236,-0.6517816552828598,-4.618487673419143,-0.9457716438669506,0.050963969607826454,-0.03278813769834163,0.021552193352873217,-0.2282867704840586,0.17429299902495085,-0.14788645375677986,0.3215769529342651,0.7716922760009766,1.3857494592666626,0.1908548772335052,0.3346313238143921,-0.2457581907510757
1749027096.638503,-3.8295408444979784,-1.8598641151320334,-0.843133381954868,-0.6522639834196106,-4.618122946446796,-0.9460888781429584,0.051121305945430705,-0.03272397907891196,0.021608640463252095,-0.2297265740189099,0.17586654398408055,-0.14880626305146577,0.3283796012401581,0.8173271417617798,1.3845462799072266,0.1972576677799224,0.3240172863006592,-0.2362134009599685
1749027096.6385438,-3.829437729171737,-1.859934360673827,-0.8430910096859584,-0.6527515037545065,-4.617753684480356,-0.946408868447241,0.051282538306100967,-0.03265086670985488,0.021670322886085915,-0.2310945204135166,0.17752875444792046,-0.14966962705894696,0.3767119646072387,0.729037880897522,1.3763927221298218,0.1771754175424575,0.3873640596866607,-0.2468062043190002
1749027096.638583,-3.8293339902026005,-1.8600046612063628,-0.8430486108702818,-0.6532422622100564,-4.617381047599551,-0.9467302852100363,0.05145474590829268,-0.03257875591368981,0.021746516030124754,-0.23239379548502692,0.1792517382838193,-0.15046925232726016,0.3767119646072387,0.729037880897522,1.3763927221298218,0.1771754175424575,0.3873640596866607,-0.2468062043190002
1749027096.638624,-3.8292298600284003,-1.8600747323017366,-0.8430061821149698,-0.6537343966782886,-4.617006161031673,-0.9470519348261972,0.05164497157422146,-0.032516401787035645,0.021847165370143022,-0.2336271184183583,0.18100270251016004,-0.15120402459976942,0.3136456310749054,0.8147122263908386,1.413113355636597,0.2360967844724655,0.3641141653060913,-0.2353051602840423
1749027096.6386626,-3.829125522680083,-1.860144332838264,-0.8429636721540633,-0.654226291355717,-4.616630007027348,-0.9473728648580318,0.05185981174329499,-0.03247097239485651,0.021982046616916488,-0.23479736337038934,0.1827463387730006,-0.15187983726675983,0.3136456310749054,0.8147122263908386,1.413113355636597,0.2360967844724655,0.3641141653060913,-0.2353051602840423
1749027096.638705,-3.8290210911700266,-1.860213279647706,-0.8429209798293765,-0.6547166798272632,-4.61625335258681,-0.9476924277658249,0.052104997653546814,-0.032447877703415826,0.02215987374555686,-0.23590808177453373,0.18444736840483428,-0.15250936137935697,0.3267624974250793,0.7918515205383301,1.4148789644241333,0.2217694520950317,0.3635513186454773,-0.2420866191387176
1749027096.6387434,-3.82891659636822,-1.860281453526941,-0.8428779574701628,-0.6552046928758579,-4.615876717482179,-0.9480103007135796,0.05238495445203105,-0.0324507643150373,0.022387461726668265,-0.2369639418541966,0.18607307770655346,-0.1531108047229976,0.3927581012248993,0.8126279711723328,1.4171489477157593,0.2019012421369552,0.3691472709178924,-0.2617175877094269
1749027096.63878,-3.828811987310403,-1.8603487975719708,-0.8428344189105597,-0.6556898585065131,-4.615500377835861,-0.9483264672596832,0.05270235055135119,-0.032481610873318405,0.022669053406740993,-0.2379711466771058,0.18759564876986196,-0.15370586999747174,0.3927581012248993,0.8126279711723328,1.4171489477157593,0.2019012421369552,0.3691472709178924,-0.2617175877094269
1749027096.6388168,-3.828707141558335,-1.8604153103348242,-0.8427901509094587,-0.6561720678180768,-4.615124394393526,-0.9486411712454058,0.05305770496134774,-0.03254087839882564,0.02300589611861675,-0.2389378606148865,0.18899409949525445,-0.1543172381786108,0.3481567502021789,0.801152765750885,1.4557466506958008,0.2335085123777389,0.3547964990139007,-0.2411725968122482
1749027096.6388574,-3.8286018829415003,-1.8604810371320242,-0.842744926583808,-0.6566515228580794,-4.614748651582124,-0.9489548551751049,0.05344915528702384,-0.0326277012248919,0.023396112394587845,-0.23987461927185094,0.1902556837377447,-0.15496595509564762,0.3730823993682861,0.7629453539848328,1.4430009126663208,0.2110776305198669,0.3695549964904785,-0.2550922036170959
1749027096.6388946,-3.8284960029620576,-1.8605460626600592,-0.8426985194536676,-0.6571286821556285,-4.614372893744741,-0.949268095577557,0.05387246964660714,-0.03274013400448177,0.023834856549171828,-0.24079465877329753,0.19137665464392342,-0.1556690879562163,0.3616674244403839,0.7459926605224609,1.4165297746658323,0.2197618186473846,0.3327643275260925,-0.2593927383422851
1749027096.638934,-3.828389282272177,-1.860610506633663,-0.8426507168612765,-0.6576042147132023,-4.613996749738558,-0.9495815453320916,0.05432132463812166,-0.03287547899838009,0.024314692866045855,-0.24171408401720096,0.19236234251198892,-0.15643795828163276,0.3654524087905884,0.7856525778770447,1.41062331199646,0.2108879834413528,0.3280830681324005,-0.2658751606941223
1749027096.6389716,-3.828281510113218,-1.8606745218752934,-0.8426013319310364,-0.6580789643906114,-4.613619745503007,-0.9498958876517789,0.0547878064762686,-0.03303068788299162,0.024826092974198098,-0.24265179369561996,0.19322653376331403,-0.1572771621369921,0.3654524087905884,0.7856525778770447,1.41062331199646,0.2108879834413528,0.3280830681324005,-0.2658751606941223
1749027096.639012,-3.8281725012626993,-1.860738292422717,-0.842550213713871,-0.6585539186172091,-4.613241311923653,-0.950211800756117,0.055263051377904715,-0.033202780822257014,0.02535795294285025,-0.24362908668341396,0.19399017293370013,-0.1581844707079597,0.3624880313873291,0.7902538776397705,1.406540036201477,0.1951507329940796,0.3312723934650421,-0.2542848289012909
1749027096.6390495,-3.8280621106557136,-1.8608020288573182,-0.8424972554983178,-0.6590301726418009,-4.612860798215309,-0.950529928902066,0.05573793146630039,-0.033389195280142586,0.025898074609250716,-0.24466888983171123,0.19467946275518272,-0.15915158216065523,0.3423164486885071,0.7635894417762756,1.4155009984970093,0.2236803323030471,0.3246388733386993,-0.2511662542819977
1749027096.6397018,-3.827950245465652,-1.8608659590276961,-0.8424424014437012,-0.659508882684217,-4.612477499027987,-0.9508508547903276,0.056203706887525566,-0.03358799014150964,0.026433612242113044,-0.2457945725075745,0.19532350495375914,-0.16016558774266962,0.3423164486885071,0.7635894417762756,1.4155009984970093,0.2236803323030471,0.3246388733386993,-0.2511662542819977
1749027096.6416826,-3.827836873847104,-1.860930313789063,-0.8423856516853828,-0.6599912055788913,-4.612090698912402,-0.9511750697263834,0.05665259097919249,-0.033797873002600155,0.026951521090340876,-0.2470283556208944,0.19595168521031087,-0.16121093621407778,0.3908537924289703,0.7583867311477661,1.4167488813400269,0.1827252805233001,0.3047010004520416,-0.2422930300235748
1749027096.682284,-3.8277220292730036,-1.8609953088436675,-0.8423270657989551,-0.6604782274797917,-4.611699732250713,-0.9515029411671417,0.05707820285028469,-0.03401806418761836,0.027439044069883595,-0.24838939698457474,0.19659104391835766,-0.162271642393874,0.3603556454181671,0.7749449014663696,1.3945105075836182,0.1907276511192321,0.3133216500282287,-0.2572155892848968
1749027096.68233,-3.8276058096548473,-1.8610611250635822,-0.8422667641421108,-0.6609708886732988,-4.611304051680829,-0.9518346813410017,0.057475903652572394,-0.03424804370043335,0.02788424553175826,-0.24989173650664845,0.19726388867850697,-0.16333348949691617,0.3565672039985657,0.7545878291130066,1.3847410678863523,0.1797449141740799,0.3208766281604767,-0.2615610361099243
1749027096.6823702,-3.8274883713612,-1.8611278903381807,-0.8422049265267777,-0.6614699128184391,-4.610903295699096,-0.95217032267316,0.05784302476470834,-0.03448724124321521,0.028276567715597785,-0.2515423721096546,0.19798590000696573,-0.1643860044836121,0.363929808139801,0.7651698589324951,1.3838188648223877,0.1632871925830841,0.3486103415489197,-0.2597897946834564
1749027096.6824117,-3.8273699194252067,-1.8611956657537656,-0.8421417880395011,-0.6619757465578645,-4.6104973470595985,-0.9525097045016921,0.0581789996298785,-0.03473472748011641,0.028607365337459525,-0.2533397637600888,0.19876495976871003,-0.16542401160731698,0.363929808139801,0.7651698589324951,1.3838188648223877,0.1632871925830841,0.3486103415489197,-0.2597897946834564
1749027096.682451,-3.8272506956355516,-1.8612644382122112,-0.8420776322156313,-0.6624885133780034,-4.610086375122725,-0.9528524733557535,0.05848540955620237,-0.03498895539960445,0.028870373416566134,-0.2552730230785338,0.19960088482397467,-0.16644857580459804,0.3857704401016235,0.756530225276947,1.3580665588378906,0.1288153231143951,0.3650086224079132,-0.25441575050354
1749027096.6824892,-3.827130965314549,-1.861334120954208,-0.8420127817640713,-0.6630079873401833,-4.609670854966721,-0.953198098600781,0.05876594243817584,-0.035247589011485086,0.02906207489826913,-0.2573219696822802,0.20048615975982126,-0.16746715289647662,0.3196393847465515,0.7496048808097839,1.3691668510437012,0.128073513507843,0.3608360886573791,-0.2419091761112213
1749027096.682527,-3.827011002251547,-1.8614045627943114,-0.841947586815974,-0.6635335955723006,-4.609251555247217,-0.9535459058070949,0.05902623884118425,-0.03550744089219469,0.02918194370734954,-0.2594581461558574,0.2014076178162256,-0.1684928059823365,0.3344665169715881,0.7794200778007507,1.367235779762268,0.1180100888013839,0.3501527309417724,-0.2377843856811523
1749027096.6825652,-3.826891070952903,-1.8614755657929107,-0.8418824107632501,-0.6640644575528978,-4.6088294891308355,-0.9538951288023004,0.059273582683631254,-0.03576452366879287,0.029232536517335657,-0.2616467815787095,0.20234883058134143,-0.16954245366801018,0.3638867437839508,0.7419342398643494,1.3337689638137815,0.1170206516981124,0.3455820679664612,-0.2501776218414306
1749027096.6826026,-3.826771406499085,-1.8615469096070438,-0.8418176142582936,-0.6645994625919924,-4.608405829179471,-0.9542449772652937,0.05951641314428509,-0.03601421726099569,0.029219395856123084,-0.26384957284555016,0.20329279260469146,-0.17063428293140712,0.3638867437839508,0.7419342398643494,1.3337689638137815,0.1170206516981124,0.3455820679664612,-0.2501776218414306
1749027096.6826408,-3.8266521937685325,-1.8616183794357168,-0.8417535384017416,-0.6651373789933314,-4.607981794616344,-0.9545947126557092,0.059763686745258233,-0.036251564409933094,0.029150725135923185,-0.2660280195853296,0.20422441194731233,-0.1717846495616841,0.3579461872577667,0.7511990070343018,1.3534594774246216,0.1230538487434387,0.3423420488834381,-0.2705841064453125
1749027096.68268,-3.826533548444174,-1.8616897937553143,-0.8416904882079725,-0.6656769837273356,-4.607558524313739,-0.9549437239190331,0.060024167529667695,-0.036471703296072036,0.02903682327638304,-0.26814692586154704,0.20513239456534035,-0.17300494116141812,0.3736707866191864,0.7697649598121643,1.3500877618789673,0.130302757024765,0.3270085453987121,-0.2736991345882416
1749027096.6827197,-3.8264155020750104,-1.8617610279277736,-0.841628717314949,-0.6662171995191366,-4.607136950772615,-0.95529159518429,0.060305742507662664,-0.03667040551049899,0.028889323249805955,-0.27017760499395227,0.20601030698452005,-0.1742989392170492,0.3736707866191864,0.7697649598121643,1.3500877618789673,0.130302757024765,0.3270085453987121,-0.2736991345882416
1749027096.6827562,-3.8262979930650034,-1.8618320302457925,-0.8415684149257218,-0.6667572245441316,-4.606717690706531,-0.9556381585559192,0.06061484886094455,-0.03684463577109041,0.028720336429933196,-0.27210033017368224,0.20685682147090642,-0.1756611674252468,0.3795175552368164,0.7650609016418457,1.357359528541565,0.1327578276395797,0.3417270183563232,-0.2717058658599853
1749027096.682793,-3.826180864839437,-1.861902828296286,-0.8415096960437849,-0.6672966391296925,-4.60630096629065,-0.9559835260482742,0.060956066199431114,-0.03699303497752022,0.028541630354064065,-0.27390568964994527,0.2076753083418173,-0.17707656298701968,0.3795175552368164,0.7650609016418457,1.357359528541565,0.1327578276395797,0.3417270183563232,-0.2717058658599853
1749027096.6828327,-3.8260638714217103,-1.8619735256117014,-0.8414525958782174,-0.6678354763647485,-4.605886566677595,-0.9563280969686265,0.06133188071788175,-0.03711626086071942,0.028363952007875833,-0.2755947143725841,0.2084730159236933,-0.1785215853928402,0.403866708278656,0.7427615523338318,1.3562737703323364,0.1121056973934173,0.3554320335388183,-0.2797947824001312
1749027096.6828709,-3.8259466895592062,-1.8620442906273411,-0.8413970688337793,-0.6683742487810226,-4.605473853241748,-0.9566725402542465,0.06174258702829709,-0.037217163740422346,0.02819656362384364,-0.27717787207727973,0.20926007994132392,-0.17996662573383038,0.3530001640319824,0.7577009201049805,1.3361294269561768,0.1102284491062164,0.3343372642993927,-0.2678859531879425
1749027096.6829076,-3.8258289359044593,-1.8621153409941031,-0.8413429920649046,-0.6689139282923039,-4.605061806805556,-0.9570177536142883,0.06218627682066473,-0.03730079335741075,0.02804700253647011,-0.2786731796153587,0.21004854980224785,-0.1813793479353667,0.3530001640319824,0.7577009201049805,1.3361294269561768,0.1102284491062164,0.3343372642993927,-0.2678859531879425
1749027096.682948,-3.825710187685772,-1.8621869260880524,-0.8412901733163328,-0.6694558801885915,-4.604649111540976,-0.9573648023781952,0.0626588757868636,-0.037374228786006276,0.027921032924504294,-0.2801037458325091,0.21085153991975097,-0.18272843496401558,0.3713213205337524,0.7692210674285889,1.3405859470367432,0.1165260151028633,0.3331953287124634,-0.2383553683757782
1749027096.6829855,-3.8255900055387166,-1.8622593096876816,-0.8412383625425448,-0.6700017556781658,-4.60423426702027,-0.9577148421109378,0.06315422228694449,-0.037446223004961955,0.02782274190068698,-0.2814950495251408,0.21168254824642957,-0.18398717314804097,0.3607782125473022,0.7650680541992188,1.347036600112915,0.1258036196231842,0.3085708618164062,-0.2323527336120605
1749027096.6830225,-3.8254679577172164,-1.8623327538164356,-0.8411872665334854,-0.670553351363074,-4.603815717157396,-0.9580690306865695,0.06366421830609043,-0.03752667209802317,0.027754743604366774,-0.28287222301674625,0.21255494992763221,-0.18513638999106408,0.3704223036766052,0.7539812922477722,1.3669278621673584,0.1147973984479904,0.3323701024055481,-0.2098430693149566
1749027096.6836874,-3.8253436458700576,-1.8624075038162733,-0.8411365657080218,-0.6711124455965035,-4.6033919848108615,-0.9584284359449046,0.06417910940440022,-0.037625949033694386,0.0277184738433695,-0.28425757766391424,0.21348165597122037,-0.18616641996053324,0.3890479803085327,0.7388286590576172,1.375801920890808,0.1328327655792236,0.3550475835800171,-0.2422451078891754
1749027096.6857154,-3.825216733360124,-1.862483774032414,-0.8410859324015265,-0.6716806207349567,-4.602961803650742,-0.9587939438705528,0.06468795382554696,-0.03775416779526501,0.02771456503537626,-0.2856685797330958,0.21447489728932728,-0.18707795859443568,0.3890479803085327,0.7388286590576172,1.375801920890808,0.1328327655792236,0.3550475835800171,-0.2422451078891754
1749027096.7262695,-3.825086976448849,-1.8625617335571565,-0.84103504990538,-0.6722590816981381,-4.602524240220512,-0.9591661722205367,0.06517931693188428,-0.03792045636093546,0.0277432788520423,-0.28711645341758196,0.2155460432628984,-0.18788185321518192,0.3738780319690704,0.7362092137336731,1.358513593673706,0.113554373383522,0.3475818336009979,-0.2809101641178131
1749027096.7263155,-3.824954255911887,-1.862641492537159,-0.8409836308305222,-0.6728484891261409,-4.602078795198286,-0.9595453983162706,0.06564217488745655,-0.03813231572751473,0.027804946202066867,-0.28860553655877746,0.21670531287349779,-0.18859804191201915,0.3738780319690704,0.7362092137336731,1.358513593673706,0.113554373383522,0.3475818336009979,-0.2809101641178131
1749027096.726357,-3.8248186030158804,-1.8627230909913381,-0.8409314324463172,-0.6734488359089047,-4.601625466482413,-0.9599315151707393,0.06606693725161544,-0.03839512725908695,0.027900334903475345,-0.29013343971628835,0.21796123125780203,-0.18925393680804586,0.3031105995178222,0.7504807114601135,1.3464230298995972,0.1297147125005722,0.3233858942985534,-0.2698296904563904
1749027096.726396,-3.824680212044328,-1.8628064927554187,-0.8408782664613921,-0.674059398083016,-4.601164756170178,-0.9603240307487507,0.06644642615157781,-0.03871184203963992,0.02803085404000901,-0.291691971296905,0.21931976336594577,-0.18988250355312206,0.3315282166004181,0.7406403422355652,1.3686931133270264,0.1410575211048126,0.345603346824646,-0.2310274541378021
1749027096.7264342,-3.8245394337593868,-1.8628915863842386,-0.8408240018706827,-0.6746787775896254,-4.6006976141219145,-0.9607221164877555,0.06677662063680992,-0.03908284898754318,0.02819852485167137,-0.29326870831847573,0.2207832106535512,-0.19052013429963266,0.3315282166004181,0.7406403422355652,1.3686931133270264,0.1410575211048126,0.345603346824646,-0.2310274541378021
1749027096.7264717,-3.8243967494111475,-1.86297819315731,-0.8407685614568992,-0.6753050305627175,-4.6002253279847025,-0.9611246968121382,0.06705701787990745,-0.039505988408043,0.02840569969579276,-0.2948490291146941,0.2223491172733599,-0.19120425083385337,0.3504685163497925,0.7507779598236084,1.380640745162964,0.14149209856987,0.3445806801319122,-0.2224853038787841
1749027096.7265146,-3.824252729984067,-1.8630660809231292,-0.8407119140299806,-0.6759358549220603,-4.5997493823240365,-0.9615305604323826,0.06729056355007915,-0.039976670482361316,0.02865457589524756,-0.29641838027246525,0.22400950599105054,-0.1919705356591198,0.3343272805213928,0.7510820031166077,1.393848896026611,0.1660367548465728,0.3497623801231384,-0.2505511045455932
1749027096.7265534,-3.824107987947077,-1.863154981891413,-0.8406540647787362,-0.6765688041595318,-4.599271311681184,-0.9619384724356015,0.06748320851587808,-0.04048807456592243,0.028946606973210786,-0.2979645136884331,0.22575070742230346,-0.19284981895750006,0.3343272805213928,0.7510820031166077,1.393848896026611,0.1660367548465728,0.3497623801231384,-0.2505511045455932
1749027096.7265909,-3.823963128746418,-1.8632446123228923,-0.8405950454925653,-0.6772014983777688,-4.598792566734591,-0.9623472717694185,0.0676432103690329,-0.041031427077737714,0.029281941874593948,-0.2994794064154953,0.22755390068745804,-0.19386487711886363,0.345111221075058,0.7483190894126892,1.4046599864959717,0.1612342000007629,0.3658910393714905,-0.2913919389247894
1749027096.7266276,-3.8238187076093206,-1.8633346920456322,-0.840534905531222,-0.6778318124508593,-4.598314405100274,-0.9627559467485561,0.06778030823543446,-0.041596361720560394,0.029659015346372334,-0.3009605934084781,0.22939632469116356,-0.1950275960955853,0.328163594007492,0.8002990484237671,1.401571273803711,0.1908822357654571,0.3347782492637634,-0.2834932506084442
1749027096.726665,-3.823675194961956,-1.8634249617916214,-0.8404737037527125,-0.6784580294403969,-4.597837812211827,-0.963163687724589,0.06790488096917857,-0.04217134858637835,0.030074371421581095,-0.30241171667287803,0.23125299225726728,-0.19633702152845284,0.328163594007492,0.8002990484237671,1.401571273803711,0.1908822357654571,0.3347782492637634,-0.2834932506084442
1749027096.726702,-3.8235329518092986,-1.8635151966249925,-0.8404115014157725,-0.6790789525459167,-4.597363453791441,-0.9635699192349535,0.0680271768410023,-0.04274415182267364,0.030522737566841384,-0.3038422075725215,0.23309866461139203,-0.19777872395744825,0.3628501892089844,0.7793510556221008,1.392959475517273,0.1796783208847046,0.3467310965061188,-0.2768366634845733
1749027096.7267387,-3.823392215022375,-1.8636052145167206,-0.8403483562315955,-0.679693972095957,-4.596891658040641,-0.9639743146084825,0.06815668420516553,-0.04330226277644869,0.03099729854306314,-0.30526614227598586,0.23490983968012183,-0.19932567970288584,0.3628501892089844,0.7793510556221008,1.392959475517273,0.1796783208847046,0.3467310965061188,-0.2768366634845733
1749027096.7267754,-3.823253091352778,-1.863694880405351,-0.8402843178455733,-0.6803030880583136,-4.596422421660533,-0.9643767962211064,0.0683016858523299,-0.043833269962515194,0.031490071420271736,-0.3067004207467778,0.23666656714554904,-0.20094058332321454,0.3021150529384613,0.8043463230133057,1.3916305303573608,0.1849458217620849,0.3259550034999847,-0.2702043056488037
1749027096.7268116,-3.8231155582533174,-1.8637841071612224,-0.8402194249332018,-0.6809068927773493,-4.595955430997697,-0.9647775249357192,0.0684689954438934,-0.04432516064332536,0.031992278537917494,-0.30816250661513905,0.238353977080505,-0.20257926295341602,0.3577761650085449,0.790703296661377,1.3947409391403198,0.1832620799541473,0.3764614462852478,-0.2719338536262512
1749027096.7268484,-3.8229794698025126,-1.863872854943912,-0.840153704033957,-0.6815065200168463,-4.595490090880803,-0.9651768815445111,0.06866383127629948,-0.04476658211608967,0.03249465629484038,-0.30966802550743533,0.23996344922112206,-0.2041947361984767,0.3577761650085449,0.790703296661377,1.3947409391403198,0.1832620799541473,0.3764614462852478,-0.2719338536262512
1749027096.7268848,-3.822844567258029,-1.8639611295570395,-0.8400871703584073,-0.6821035641935859,-4.595025558715441,-0.9655754408723093,0.06888977648385407,-0.045147107089125026,0.03298770029712901,-0.3112285519736737,0.24149335297846813,-0.2057414409726883,0.3689402341842651,0.8392779231071472,1.3828413486480713,0.139711245894432,0.3678735494613647,-0.2790758907794952
1749027096.726922,-3.8227104949967416,-1.8640489794216843,-0.8400198308138297,-0.6826999714473034,-4.594560786158072,-0.965973937435628,0.06914881021561645,-0.0454575387957654,0.03346189587665335,-0.31284991649455113,0.2429492805504804,-0.20717927542446232,0.3689402341842651,0.8392779231071472,1.3828413486480713,0.139711245894432,0.3678735494613647,-0.2790758907794952
