nimar13/UR3e_dataset_trayectorias/trayectorias_ejecutadas_filtradas/jtraj/trayectoria_059_result_filtrado.csv
timestamp,q1,q2,q3,q4,q5,q6,qd1,qd2,qd3,qd4,qd5,qd6,tau1,tau2,tau3,tau4,tau5,tau6
1749026838.2263107,-0.1323985905501737,-2.0476655347724284,-0.4954734513508152,1.369627673509863,-0.6469766299398151,0.8096519133784372,-0.0011339141557667792,0.00018534972634734112,-2.2431378879322426e-05,-0.002650620125423394,0.0006862031784550982,0.0005293286001694792,-0.3121178746223449,0.8902230858802795,0.5961007475852966,-0.2763293385505676,0.2507673501968384,0.0744062215089798
1749026838.2263603,-0.1324057868261844,-2.047667043627018,-0.4954618707159979,1.3696188474234867,-0.6469728591655695,0.8096541381469703,-0.0011424437999412306,0.0003278879308427724,0.0005624426179396773,-0.0027396430973108143,0.0013314765080739872,0.0004808982594114779,-0.302336573600769,0.8964359760284424,0.6250423789024353,-0.2862241566181183,0.2489543259143829,0.0627474635839462
1749026838.2264016,-0.13241271888722062,-2.047668362578022,-0.4954506953317323,1.369610137605524,-0.6469689910096593,0.8096563012688612,-0.0011524533102607835,0.0004630830782813886,0.0011217552367879613,-0.0028196562382176993,0.0019480660735238238,0.0004288659740248687,-0.3094732165336609,0.9084938168525696,0.6214666962623596,-0.2895334959030151,0.2645280957221985,0.0582925975322723
1749026838.2264397,-0.13241923722902957,-2.047669349111495,-0.4954402454334742,1.369601670501678,-0.6469649029663236,0.8096583254968838,-0.0011642972840930868,0.0005839228727051307,0.0016308689306212306,-0.0028795312200122153,0.0025086574341157465,0.000373586561919499,-0.3147197365760803,0.9096248745918274,0.609434187412262,-0.2919260263442993,0.2772601246833801,0.0578410625457763
1749026838.2264783,-0.13242522592804085,-2.0476698970669713,-0.495430774459798,1.3695935586418964,-0.6469604901945657,0.8096601419459869,-0.0011778782978285106,0.0006846292866497151,0.0020693418490277333,-0.0029099671393257205,0.0029900048565063304,0.00031593013996156406,-0.3026959896087646,0.8875468969345093,0.6108999848365784,-0.2841486930847168,0.2922672033309936,0.060183897614479
1749026838.2265203,-0.13243060937129747,-2.0476699443666644,-0.4954224493512022,1.369585896856503,-0.6469556765987589,0.8096616933855043,-0.0011925965643417964,0.0007611001709088256,0.0024223561086226665,-0.0029042092649819566,0.00337439790710955,0.00025735211554122055,-0.3031283020973205,0.9057198166847228,0.6271117329597473,-0.283606082201004,0.2918402552604675,0.058795616030693
1749026838.2265594,-0.13243535521148378,-2.0476694761583603,-0.4954153411345323,1.3695787616077684,-0.6469504234281102,0.8096629358530198,-0.001207396545776889,0.0008111487447747705,0.0026814939465734677,-0.0028584481366301985,0.0036505675851203614,0.00019990404869074798,-0.3031283020973205,0.9057198166847228,0.6271117329597473,-0.283606082201004,0.2918402552604675,0.058795616030693
1749026838.226597,-0.13243947325384214,-2.0476685229801195,-0.4954094266676741,1.3695722122626135,-0.6469447348946203,0.8096638387106708,-0.0012209083546257465,0.0008345339215900378,0.0028448374104867572,-0.0027718866656449544,0.0038139998039019626,0.0001461697601347974,-0.3099738955497741,0.9182142615318298,0.6368817687034607,-0.3125535845756531,0.2863659560680389,0.0540314316749572
1749026838.2266347,-0.1324430105108124,-2.047667154272645,-0.49540460083926796,1.3695662929721981,-0.6469386605981842,0.8096643836693942,-0.0012316624017564481,0.0008328051585505321,0.002916471871681561,-0.002646510393824733,0.003866704212171125,9.911719017237781e-05,-0.2897917032241821,0.9313793182373048,0.6379545331001282,-0.2905726432800293,0.3101611137390136,0.0530602186918258
1749026838.2266762,-0.13244604314364056,-2.0476654683205058,-0.4954006969557712,1.3695610343126647,-0.6469322945366072,0.8096645636721731,-0.0012383396645480888,0.0008090043969205561,0.0029055379615617735,-0.002486632346666713,0.0038165387921635144,6.186591641824665e-05,-0.3034175038337707,0.9309958815574646,0.6414984464645386,-0.2852416634559631,0.3104375600814819,0.0455325245857238
1749026838.2267148,-0.132448666467334,-2.047663580260318,-0.49539751192634307,1.3695564543927012,-0.6469257704177037,0.8096643826794526,-0.0012400124725568324,0.000767275574129739,0.0028249958863459518,-0.0022983061768038814,0.003676208313612079,3.738136603872753e-05,-0.3106207847595215,0.9085728526115416,0.6364821195602417,-0.2970964908599853,0.3063864409923553,0.0396203249692916
1749026838.2267523,-0.13245098454908183,-2.0476616099640728,-0.49539483246256216,1.369552559364188,-0.6469192532760699,0.8096638570676682,-0.0012363352383370227,0.0007124324752535805,0.0026902556466236226,-0.002088705655949104,0.0034620432611932135,2.811690181620091e-05,-0.2810489535331726,0.9173540472984314,0.6508585810661316,-0.3003057241439819,0.3201954960823059,0.047607272863388
1749026838.22679,-0.1324531009023825,-2.0476596713395625,-0.495392458781661,1.3695493433232662,-0.6469129280578747,0.8096630184399878,-0.0012276591266253212,0.000649530543835861,0.002517806971383288,-0.0018655533812956154,0.003192644282549706,3.563228378107657e-05,-0.2960672974586487,0.9015852808952332,0.6505856513977051,-0.3125478029251098,0.3186369240283966,0.0494386404752731
1749026838.2268312,-0.13245511113107605,-2.047657864075651,-0.49539022302874874,1.3695467877359506,-0.6469069864348114,0.809661916569314,-0.0012150624393849944,0.0005834791346296823,0.0023239659021008358,-0.0016366522025690934,0.002887469146686004,6.0221917705942723e-05,-0.281454861164093,0.9029340147972108,0.6670116186141968,-0.2963889241218567,0.3178500831127167,0.0486592948436737
1749026838.226872,-0.13245709739475237,-2.047656268421521,-0.4953880007007848,1.3695448607455887,-0.6469016132394143,0.8096606206368758,-0.001200302223450644,0.0005187193217814546,0.0021238383582904436,-0.0014095399816138646,0.0025654532515902266,0.00010059025240431559,-0.3316818475723266,0.9130473732948304,0.6694555282592773,-0.3070420026779175,0.3322967290878296,0.0412649512290954
1749026838.2269096,-0.13245912400034604,-2.0476549433466773,-0.49538571466172043,1.3695435167963752,-0.6468969736150728,0.8096592172257292,-0.0011856987378238613,0.00045898072701110014,0.0019305739802441449,-0.0011912612564742768,0.002243775480412378,0.0001536152054040066,-0.3052567839622497,0.9211634397506714,0.6778358817100525,-0.3105345070362091,0.3433407545089721,0.0398395359516143
1749026838.2269468,-0.13246123366769516,-2.0476539281572914,-0.49538333259925527,1.3695426968517224,-0.6468932015644843,0.8096578044313991,-0.0011739641828630608,0.00040712050292336833,0.0017549402884468519,-0.0009882320955032502,0.0019368840164368133,0.00021424275338674357,-0.2932045459747314,0.8958960771560669,0.6628118753433228,-0.3012037277221679,0.3459146618843078,0.0416778475046157
1749026838.226988,-0.1324634446713732,-2.0476532470516218,-0.4953808596245737,1.3695423292671793,-0.6468903903027204,0.8096564824713436,-0.0011679846148259882,0.00036503961368357856,0.0016051930867733886,-0.0008061655942457693,0.0016558687766984118,0.00027555533091166485,-0.2986527681350708,0.8972452878952026,0.647743284702301,-0.3075548410415649,0.3382039964199066,0.0366604775190353
1749026838.227026,-0.13246574953149776,-2.0476529152122125,-0.4953783280135941,1.369542331303501,-0.646888584682754,0.8096553419962914,-0.0011705632909916326,0.00033366636117792387,0.0014871673099433672,-0.0006500218284556851,0.0014082146555380397,0.00032905183703777966,-0.3264371752738952,0.8989772200584412,0.6473028659820557,-0.3110530376434326,0.3224387168884277,0.0540710985660553
1749026838.227063,-0.13246811605192482,-2.0476529443306,-0.4953757859588093,1.3695426113460316,-0.646887775872976,0.8096544519205257,-0.001184136701690598,0.0003129947109988354,0.0014044789746848348,-0.0005239457688854036,0.0011979108697601998,0.00036516646653837395,-0.288064956665039,0.8985088467597961,0.6595551371574402,-0.2979254424571991,0.317170649766922,0.0489910691976547
1749026838.2271006,-0.13247049139103495,-2.0476533455541817,-0.4953732868521105,1.3695430719675745,-0.6468878985226729,0.8096538490016095,-0.0012104810163269225,0.0003021650242155571,0.0013587268706815715,-0.0004311599277446712,0.0010258446023064928,0.00037403650803797975,-0.3102604150772095,0.8881587386131287,0.6595560908317566,-0.294312834739685,0.3259924650192261,0.0589455217123031
1749026838.2271414,-0.13247280945514814,-2.0476541288924848,-0.49537088021274284,1.3695436139068389,-0.6468888310704729,0.8096535314039688,-0.0012504353389562765,0.0002995766937780434,0.001349615553842473,-0.00037378605541835825,0.0008903820691840759,0.0003465059184781055,-0.2928851842880249,0.8876898884773254,0.6515244841575623,-0.3036110401153564,0.3334419727325439,0.0300220698118209
1749026838.2277153,-0.1324750011635077,-2.0476552995378583,-0.4953686049848341,1.3695441408811857,-0.64689040045329,0.8096534579166972,-0.0013036766215390337,0.0003030251707763574,0.0013749779556385515,-0.0003525820928752512,0.0007880376221749459,0.00027532312536406435,-0.3062324523925781,0.8625859022140503,0.6524468064308167,-0.2920522689819336,0.3312140703201294,0.0485270321369171
1749026838.2297838,-0.13247700627567288,-2.047656852529696,-0.4953664855492045,1.3695445650407052,-0.6468923925086203,0.8096535535360164,-0.001368585171704607,0.0003098591538762701,0.0014307363109369218,-0.0003665964004921569,0.0007141454629953025,0.00015646019100612848,-0.3142021298408508,0.8821361660957336,0.6482006907463074,-0.2971469163894653,0.3213928341865539,0.0543922036886215
1749026838.2742894,-0.13247878481029418,-2.047658767433496,-0.49536453043045386,1.3695448128462913,-0.6468945682903795,0.8096537211023795,-0.0014422349247266077,0.00031715655958789634,0.0015108855607528205,-0.0004127601712534683,0.0006634706922838171,-9.55099064329923e-06,-0.2949275374412536,0.8608704209327698,0.661224901676178,-0.2805522680282593,0.3254360556602478,0.0633063465356826
1749026838.274336,-0.13248032573022256,-2.0476610044821544,-0.4953627333697421,1.369544831174903,-0.6468966848246036,0.8096538578206484,-0.0015205267997099026,0.00032191967034669194,0.0016076026064310602,-0.0004854590147326714,0.0006307197237622933,-0.00021639787321498804,-0.3110266327857971,0.8699854016304016,0.658499002456665,-0.2893633246421814,0.3220332562923431,0.0446059256792068
1749026838.2743769,-0.1324816506762783,-2.047663503233832,-0.4953610761573961,1.3695445934496733,-0.6468985175646214,0.8096538748664456,-0.0015984578767022032,0.00032129013799846087,0.0017115733920987294,-0.0005761429767177569,0.0006109303524574986,-0.0004510348079608258,-0.3174519538879394,0.8630831241607666,0.6628851294517517,-0.2918986082077026,0.3254226148128509,0.0420892387628555
1749026838.2744155,-0.1324828114359194,-2.047666184310418,-0.4953595323869359,1.3695441054819197,-0.6468998814082997,0.8096537179745983,-0.0016704884612713342,0.0003127831027126981,0.0018125889674744768,-0.0006730473960319762,0.0005997375485837383,-0.0006931606707606361,-0.3158677816390991,0.8362802863121033,0.6891058683395386,-0.2807573080062866,0.3359347581863403,0.0431944876909256
1749026838.274454,-0.13248388152558768,-2.047668954142169,-0.49535807128267867,1.3695434105207434,-0.6469006472992271,0.8096533870087492,-0.0017309406493862195,0.00029453663454140724,0.0019003974251591417,-0.0007611021270183606,0.000593522781958495,-0.000915280900621122,-0.3158376812934875,0.825652539730072,0.6982024312019348,-0.2897464036941528,0.3497215509414673,0.0575220882892608
1749026838.2744925,-0.13248494397383473,-2.047671711870286,-0.49535666109208903,1.369542592910121,-0.6469007519381658,0.809652952868506,-0.0017743450113546862,0.00026556835001594455,0.0019657210456238933,-0.0008221017420060863,0.0005894632510424182,-0.001083481352109419,-0.2932636141777038,0.8217127323150635,0.6794950366020203,-0.2769894599914551,0.3418616652488708,0.0678039044141769
1749026838.2745297,-0.1324860781248777,-2.04767435687983,-0.4953552719862471,1.369541779855706,-0.6469001991781115,0.8096525702193961,-0.00179565545506713,0.00022602598088022926,0.002001273921900386,-0.0008351933025460236,0.0005855030731273087,-0.001158992764297869,-0.3065030574798584,0.8298368453979492,0.6692861914634705,-0.2600741386413574,0.3397024869918823,0.0944108814001083
1749026838.2745712,-0.1324873477918681,-2.0476767952323285,-0.49535387859449226,1.3695411409832885,-0.6468990532363896,0.8096524841449655,-0.001790280058118589,0.000177413626347065,0.002002572617913022,-0.0007777112365725395,0.0005802707636842762,-0.00110055432115865,-0.3275296688079834,0.8106527924537659,0.672355055809021,-0.2613824605941772,0.339375376701355,0.0897910147905349
1749026838.2746289,-0.1324887919889656,-2.0476789437305123,-0.4953524621539006,1.369540885512272,-0.6468974253499891,0.8096530283735562,-0.0017539221051974631,0.00012277119011760025,0.0019683512727752344,-0.000626352310611184,0.0005729652572845585,-0.0008674953664072907,-0.2899435758590698,0.8236179947853088,0.6817784309387207,-0.2582107782363891,0.3367946147918701,0.0901114493608474
1749026838.2746732,-0.13249041851847027,-2.0476807312040677,-0.49535101209392635,1.3695412570629621,-0.6468954564043504,0.8096546130776097,-0.001682277309904591,6.678184146515974e-05,0.0019004786959001035,-0.0003586408568283421,0.0005632258736234421,-0.00042335174162593545,-0.3012316823005676,0.8396739959716797,0.6766616702079773,-0.2352795302867889,0.3415796160697937,0.1087440401315689
1749026838.2747128,-0.13249220028548997,-2.0476820973495085,-0.49534952697043094,1.3695425264426941,-0.6468932984006917,0.8096577017289184,-0.0015706752713695743,1.5782044829003617e-05,0.0018033940362191627,4.54098589110769e-05,0.0005509913028721456,0.00026027302558407657,-0.2877070307731628,0.8397256135940552,0.6768093705177307,-0.2217412292957306,0.332584023475647,0.1061897426843643
1749026838.2747507,-0.13249407431711435,-2.0476829898635436,-0.4953480149143003,1.369544982994549,-0.6468910975371136,0.8096627786189067,-0.0014137741566591711,-2.23483305303831e-05,0.001683178199682859,0.0006015739103598616,0.0005363422501085303,0.001199988018760571,-0.2703049778938293,0.859248697757721,0.691556990146637,-0.2266183197498321,0.3136711120605469,0.1378585994243621
1749026838.2747884,-0.13249594362821573,-2.0476833607865212,-0.49534649387857316,1.3695489249619492,-0.6468889810509179,0.8096703105417576,-0.0012054118379247712,-3.843130513399508e-05,0.0015464299543785638,0.0013197881885294032,0.0005193162696764265,0.002397492871070113,-0.2613663077354431,0.896574854850769,0.6672244668006897,-0.2008582204580307,0.3147157430648803,0.1647661328315735
1749026838.274826,-0.13249768182411722,-2.0476831629615333,-0.4953449918543242,1.3695546489415438,-0.6468870488422581,0.8096807072076087,-0.0009386860248495377,-2.2375656991647973e-05,0.0013991206082874426,0.0022027957635793296,0.0004996848548744896,0.0038375321665614403,-0.2323576062917709,0.8847454190254211,0.667052686214447,-0.1715458631515503,0.2912240624427795,0.1971531808376312
1749026838.274864,-0.13249913967323074,-2.047682347238892,-0.49534354702697597,1.3695624383212779,-0.646885369791141,0.8096942851974551,-0.0006062888588115511,3.630960586387485e-05,0.0012455771485591627,0.003245205799143101,0.0004766917937160499,0.0054873582259734235,-0.2111632674932479,0.9081769585609436,0.6577911376953125,-0.1767266243696212,0.287999153137207,0.2150976955890655
1749026838.274901,-0.1325001523064626,-2.04768086065564,-0.4953422077273755,1.3695725508596601,-0.646883982095118,0.8097112399413464,-0.0002010696884805734,0.00014790177285502881,0.001087707031930308,0.004433076667850325,0.0004487641258619409,0.007297998535945468,-0.2043275684118271,0.9339011311531068,0.6573129296302795,-0.1653191000223159,0.2886576056480407,0.1907531321048736
1749026838.274947,-0.13250054569678582,-2.047678645581462,-0.4953410320388637,1.3695852059964393,-0.64688289685891,0.8097316293511483,0.0002832456241273673,0.00032179754872101835,0.0009245377263595438,0.005744083423056313,0.0004132179429050847,0.009207397182756106,-0.1827933639287948,0.9491000175476074,0.6341577172279358,-0.1548546105623245,0.2784842848777771,0.2035694867372512
1749026838.275006,-0.13250014174546815,-2.0476756397840443,-0.495340087019435,1.3696005727169414,-0.6468821042641533,0.8097553713052845,0.000851280562532373,0.0005658546403553048,0.000752104794592077,0.007148297544473253,0.0003659883251910731,0.011145213550200745,-0.1469702571630478,0.9697417616844176,0.6461679339408875,-0.1323625743389129,0.2633283138275146,0.200060486793518
1749026838.2750664,-0.1324987622439093,-2.047671777398585,-0.4953394476523921,1.3696187587688937,-0.6468815818584999,0.809782255339209,0.001505288424090416,0.0008858121465969215,0.0005636855684817173,0.008609582398756779,0.00030141601564090474,0.013038784139626508,-0.1114286035299301,0.9819576144218444,0.6213062405586243,-0.1100255995988845,0.2407784014940261,0.2182551622390747
1749026838.27513,-0.13249623258143303,-2.0476669909074854,-0.4953391957753623,1.3696398019926144,-0.646881304792303,0.809811967013159,0.002244578330898207,0.001284856306547796,0.0003503427846950883,0.010087574978011599,0.00021212407903997504,0.014819557540586205,-0.1307714134454727,0.9984686970710754,0.6012924313545227,-0.1001355648040771,0.2338922321796417,0.2043856680393219
1749026838.2751925,-0.13249238607134617,-2.047661214431348,-0.4953394192097385,1.3696636646807059,-0.6468812578720364,0.8098441218110052,0.003065136404692381,0.0017633763304936978,0.00010171575186693145,0.011540170317118808,8.901677264189506e-05,0.016429235829656066,-0.103310540318489,0.973086714744568,0.5935576558113098,-0.1182821393013,0.2187394350767135,0.2048769444227218
1749026838.275244,-0.13248706937107121,-2.0476543885873957,-0.4953402110862005,1.3696902321842253,-0.6468814487658202,0.809878304312379,0.003959444691918707,0.0023189138937432367,-0.00019302316211764397,0.012926351319380516,-7.856923963386353e-05,0.01782489399950461,-0.0883078724145889,0.9753742814064026,0.5806657671928406,-0.1052202433347702,0.221805065870285,0.1744862794876098
1749026838.2756915,-0.13248014895243618,-2.0476464666192804,-0.4953416691682331,1.3697193171017181,-0.6468819207620218,0.8099141080171737,0.00491647523864538,0.002946262292685253,-0.0005441415656469308,0.014209130498508476,-0.00030253434194728903,0.01898248586276446,-0.060901254415512,0.9826194047927856,0.5409755110740662,-0.1119443178176879,0.2139340937137603,0.1645398885011673
1749026838.2776551,-0.13247151808218127,-2.04763742065271,-0.49534389504057896,1.3697506699466577,-0.6468827628172114,0.8099511716163932,0.005921849742676972,0.0036376453586891293,-0.0009603485752397218,0.015358317004295829,-0.0005954839419126977,0.019898367393829962,-0.0398992747068405,1.0088257789611816,0.5387384295463562,-0.100078284740448,0.1788439452648162,0.1628173887729644
1749026838.3182817,-0.13246110344423118,-2.047627246325355,-0.4953469932152584,1.3697839961699714,-0.646884114877964,0.809989208388793,0.006958190326513509,0.0043829230156101065,-0.0014479149415809094,0.016352814312661706,-0.0009699810180786941,0.020588749485185295,-0.0355135202407836,1.0429537296295166,0.5356054306030273,-0.1026708632707595,0.1724700927734375,0.1785712093114853
1749026838.3183289,-0.1324488705124298,-2.0476159640988785,-0.49535107018847024,1.3698189782416095,-0.6468861675984802,0.810028026409929,0.008005707325187206,0.005169816703776598,-0.002009976524206913,0.017182198830900525,-0.0014375848179440675,0.02108727548868122,-0.0137537419795989,1.0496467351913452,0.5432143807411194,-0.1217715367674827,0.1549295783042907,0.1817077100276947
1749026838.31837,-0.13243482696113174,-2.04760361630578,-0.4953562332229976,1.3698553006093557,-0.6468891568065245,0.8100675383311693,0.00904305481123999,0.0059841851682495475,-0.00264605138511839,0.017847417487888043,-0.0020077056863333385,0.021441141059434232,-0.024155169725418,1.0436450242996216,0.526188313961029,-0.1267439872026443,0.130603477358818,0.1861732602119445
1749026838.3184092,-0.13241902350684953,-2.047590260077507,-0.49536258842242376,1.3698926748943303,-0.6468933535933334,0.8101077607568796,0.010048445129677222,0.006810386116838311,-0.0033517771657850604,0.018360550647108537,-0.0026863482813768405,0.021706298168884895,0.0024724453687667,1.0348423719406128,0.4978522956371307,-0.1255430728197097,0.1347321569919586,0.1788147240877151
1749026838.3184469,-0.13240155163845035,-2.047575957342444,-0.4953702377075921,1.3699308626000577,-0.6468990507062424,0.8101488046389083,0.011000971434913116,0.007631744742730378,-0.0041188779188103064,0.01874369126683562,-0.003474861927666902,0.021942312592986492,0.0309980139136314,1.076323390007019,0.4760520458221435,-0.1250739395618438,0.1094361022114753,0.1773934364318847
1749026838.3184855,-0.13238253804929054,-2.047560763827122,-0.49537927453821895,1.369969692842679,-0.6469065456068072,0.8101908591745817,0.011882048514901686,0.008431140002439148,-0.004935387403759338,0.01902707595804225,-0.0043688509490880665,0.02220739856601053,0.0388571619987487,1.077761173248291,0.4787757992744446,-0.1206745654344558,0.0989745631814003,0.1970782279968261
1749026838.318524,-0.13236213624813667,-2.047544719347735,-0.49538977853017463,1.37000907311146,-0.6469161206340422,0.8102341720091876,0.012676842199233679,0.009191716162625794,-0.005786157886689753,0.019246662658625523,-0.005357408405394832,0.022554064384744103,0.0635735541582107,1.0866793394088743,0.4674232602119446,-0.1136400029063224,0.0951496660709381,0.1841717660427093
1749026838.3185618,-0.13234051636784108,-2.0475278416348304,-0.4954018094698871,1.370048991833141,-0.6469280212830597,0.8102790281100918,0.013375521234350242,0.009897714442018,-0.006653651017210673,0.01944138507277411,-0.006422825268567999,0.023025690971195365,0.0188429281115531,1.0933246612548828,0.4902879595756531,-0.126995638012886,0.0761954188346862,0.213324099779129
1749026838.3185997,-0.13231785428283524,-2.047510125483187,-0.49541540155990266,1.370089512581561,-0.6469424344388709,0.8103257289181942,0.013974152597836442,0.010535391017475046,-0.007518956874712433,0.019650330341530943,-0.007540899481952579,0.023654244577521695,0.0567345023155212,1.1220457553863523,0.4608683586120605,-0.1201011091470718,0.0762583911418914,0.2144576013088226
1749026838.3186412,-0.13229432083402257,-2.047491548103331,-0.4954305589240424,1.3701307611123474,-0.6469594690765281,0.8103745728434378,0.014475090579502012,0.01109395428700338,-0.008362953983177797,0.019910084615009416,-0.008681922529033883,0.024459200570331456,0.0480118691921234,1.101234793663025,0.443667858839035,-0.1294340044260025,0.0636399015784263,0.2055960148572921
1749026838.3186798,-0.13227007149024406,-2.04747208019074,-0.49544725340835966,1.370172907727267,-0.646979142041246,0.8104258381588273,0.014886783021578283,0.011566428578864231,-0.009167522704538461,0.020252468731585226,-0.009812347223559675,0.02544762988600894,0.0540183708071708,1.1482172012329102,0.4432131648063659,-0.1080385670065879,0.0573903694748878,0.2009512186050415
1749026838.3187172,-0.132245236441818,-2.047451700674817,-0.49546542556468887,1.3702161483078403,-0.6470013709169367,0.8104797695886002,0.01522301645836867,0.011950338883500715,-0.009916739423936598,0.020702843157114716,-0.010897044915663267,0.026615280856783996,0.0817897617816925,1.1600704193115234,0.4385669231414795,-0.1035135835409164,0.0427692234516143,0.2094178944826126
1749026838.3187556,-0.13221991113032472,-2.0474304118268223,-0.4954849893477872,1.3702606873195113,-0.6470259750019872,0.810536569715748,0.015501715687528969,0.012248115097593175,-0.01059798387296176,0.021279102368785278,-0.011901966471919198,0.02794839776153634,0.0739263594150543,1.132280945777893,0.43086838722229,-0.1038415804505348,0.0467578768730163,0.2155183553695678
1749026838.3187938,-0.13219414754338185,-2.047408250900318,-0.49550584037616374,1.3703067251175853,-0.6470526845387529,0.8105963954754066,0.015743475461485742,0.01246713763667817,-0.01120288041710486,0.02199140789400146,-0.012796951557397691,0.029425977636486182,0.0977411717176437,1.1352949142456057,0.4321299195289612,-0.0905157923698425,0.0301525816321373,0.1989027857780456
1749026838.318832,-0.13216794703814927,-2.047385295046206,-0.49552786667812404,1.3703544503596712,-0.6470811576894018,0.8106593589924533,0.01597001970825702,0.012619388375106285,-0.011727977735560032,0.02284262736210375,-0.013558390975071293,0.031022183388542304,0.1321978569030761,1.1448607444763184,0.4106484651565552,-0.0747453868389129,0.042353942990303,0.2198132276535034
1749026838.3188694,-0.13214125582690758,-2.0473616577828717,-0.49555096006004573,1.3704040369680441,-0.6471110040389637,0.8107255316005731,0.016202759862645966,0.012720725535483944,-0.01217506548265107,0.023829359389941393,-0.014171436309250308,0.032708687305431125,0.1167304515838623,1.1649523973464966,0.4293726086616516,-0.0816535502672195,0.057499349117279,0.2102338522672653
1749026838.3189075,-0.13211396445127502,-2.0473374773152258,-0.49557502601474185,1.3704556444856213,-0.6471418126076445,0.8107949501251931,0.01646157260011561,0.012789855558141832,-0.012551044107100418,0.024943346932547582,-0.014631479301731466,0.034456792582988956,0.1154576987028122,1.167188286781311,0.4499224424362182,-0.095575988292694,0.0692805275321006,0.223183199763298
1749026838.318945,-0.13208591239452702,-2.0473128988087224,-0.4955999905213725,1.3705094208013435,-0.6471731818233022,0.8108676248825166,0.016763859223138486,0.012847112932199813,-0.012867312742149462,0.026173038079421597,-0.014944704415706488,0.0362392522033259,0.1234854236245155,1.1809797286987305,0.4421264231204986,-0.108363389968872,0.0569915995001792,0.2080399096012115
1749026838.3189826,-0.1320568982470018,-2.0472880537964904,-0.49562580289606006,1.3705655065277589,-0.6472047488475218,0.8109435488802484,0.017123903203526736,0.012913170476595223,-0.013138716123431695,0.027505059747083747,-0.015127645491934726,0.03803175542337996,0.1396684050559997,1.1776551008224487,0.4228070676326751,-0.0906135141849517,0.0530868917703628,0.2129769027233123
1749026838.3190205,-0.13202669470261413,-2.0472630400755194,-0.49565243467857517,1.3706240402922703,-0.6472362158962358,0.8110227074094194,0.01755251530910024,0.013007789924124335,-0.01338217455490229,0.028925424011561063,-0.015205814853040367,0.0398140691643732,0.1378883421421051,1.176320195198059,0.4217149019241333,-0.0915404558181762,0.0594774931669235,0.2084834724664688
1749026838.3197286,-0.13199506659251545,-2.047237904973054,-0.49567987521193285,1.3706851638511066,-0.6472673715593974,0.811105086925755,0.018056939487438303,0.013148696785735086,-0.013615180885506471,0.030420369016063587,-0.015211579040825632,0.041570812646889437,0.1821502447128296,1.1869555711746216,0.4247193038463592,-0.0837988555431366,0.0615628063678741,0.2019423991441726
1749026838.3216956,-0.13196178951246137,-2.0472126341223156,-0.49570812505772527,1.3707490256884174,-0.6472981056064147,0.811190682213279,0.018640976943701593,0.013350636310615192,-0.013854362511593122,0.031976820611484325,-0.015181513138520489,0.0432918391452393,0.1606901437044143,1.190102219581604,0.4091300666332245,-0.0732619240880012,0.0671848878264427,0.2074023485183715
1749026838.366311,-0.13192666646181747,-2.0471871470773153,-0.495737188654848,1.3708157819737234,-0.6473284163310856,0.8112795014259205,0.0193052697893534,0.013624646602852196,-0.014114273376835877,0.033582525705026914,-0.015153484962529992,0.04497222414128871,0.1987467408180236,1.2085919380187988,0.4181188941001892,-0.086888313293457,0.0531255677342414,0.227528303861618
1749026838.366358,-0.13188954025445299,-2.047161300207436,-0.4957670676655116,1.370885594296151,-0.6473584099532911,0.8113715693595195,0.02004767760724973,0.01397757227004885,-0.014406520137986155,0.03522594365124183,-0.015163716884356832,0.046611905854737505,0.2011032104492187,1.2179638147354126,0.4214612543582916,-0.0584608986973762,0.0753001645207405,0.2279613614082336
1749026838.3664026,-0.1318503001935365,-2.0471348964334024,-0.49579775630517237,1.3709586241262455,-0.6473882919073692,0.8114669296141899,0.020863687641698405,0.014411834659497804,-0.014739262863874147,0.03689599226944761,-0.015244057124171583,0.04821505892569261,0.2145377099514007,1.2279267311096191,0.42134889960289,-0.0744346007704734,0.063229352235794,0.2229293286800384
1749026838.366443,-0.13180888249474784,-2.04710770075281,-0.4958292395969398,1.3710350243555134,-0.647418350251693,0.8115656459320306,0.021746820012575267,0.01492546868327865,-0.015117078394015613,0.0385817419180015,-0.01541966977924055,0.04978928265768491,0.2403424233198166,1.2232389450073242,0.4284850060939789,-0.066978245973587,0.0505450218915939,0.2396747767925262
1749026838.3664813,-0.13176526508100297,-2.047079460194056,-0.49586149489224873,1.3711149286576951,-0.6474489321060962,0.8116678023242915,0.022689013513890605,0.01551242786685213,-0.01554113605808086,0.04027214214993992,-0.01570732303234697,0.05134465903718683,0.240851879119873,1.230546474456787,0.4275743365287781,-0.0695605427026748,0.0418035238981246,0.2156496047973632
1749026838.3665197,-0.13171945844735766,-2.0470499264870474,-0.49589449633685145,1.3711984398704637,-0.6474804148043651,0.8117735012014801,0.023680995079357454,0.016163146760145988,-0.01600961018466167,0.0419558527056176,-0.0161144119359702,0.05289271066520476,0.2407384812831878,1.2236599922180176,0.4152215719223022,-0.0618765652179718,0.0252801179885864,0.2174871414899826
1749026838.366559,-0.1316714949592598,-2.0470188790556123,-0.4959282215078017,1.3712856189413307,-0.6475131740659239,0.811882858819131,0.024712641424706215,0.01686533356980527,-0.016518243455530754,0.04362123565213783,-0.016638793051904223,0.054445291544275354,0.2021420300006866,1.2517294883728027,0.4203768670558929,-0.0675919950008392,0.033601626753807,0.22377410531044
1749026838.3665967,-0.13162141896821006,-2.046986145209451,-0.4959626591961326,1.3713764760054985,-0.64754755183148,0.8119959977897656,0.025773336648554374,0.01760494597526072,-0.017060979770237353,0.045256549659644006,-0.017269435915721835,0.056013478244787904,0.2408681213855743,1.2566183805465698,0.4307334721088409,-0.0617413818836212,0.0398661941289901,0.2441484630107879
1749026838.3666348,-0.13156927958543893,-2.0469516143786914,-0.495997816994929,1.37147096490679,-0.6475838265454643,0.812113036897864,0.026852324532993396,0.01836727763772868,-0.017630600021314974,0.04685036747730977,-0.01798781359511372,0.05760656993376261,0.2357732057571411,1.257550835609436,0.4291927516460418,-0.0582000911235809,0.0461668074131011,0.2263695448637008
1749026838.366672,-0.1315151271095348,-2.0469152442706067,-0.49603372694692666,1.3715689821437322,-0.6476221887380991,0.8122340788535712,0.027939058032510792,0.01913805331289333,-0.01821931240524134,0.04839220875085842,-0.018769868884912857,0.05923131804514345,0.2578799724578857,1.2490530014038086,0.4182141125202179,-0.0684466436505317,0.033874325454235,0.2198274284601211
1749026838.3667097,-0.13145901317012074,-2.0468770585051406,-0.49607044745956447,1.371670370866648,-0.6476627247152734,0.8123591970437233,0.029023557626563612,0.019904409579032518,-0.018819266052169954,0.049873342577929074,-0.019588326586861677,0.06089147586739681,0.2736056447029114,1.234505295753479,0.4273559153079986,-0.0707113519310951,0.0356657430529594,0.2154024094343185
1749026838.366747,-0.13140099369274744,-2.046837136909884,-0.4961080604417779,1.3717749300238444,-0.6477054106780588,0.8124884229010223,0.03009679166366001,0.02065564565951895,-0.0194229713751346,0.051287673239338326,-0.020415102521716837,0.0625877023979723,0.2788918912410736,1.273245930671692,0.4270845949649811,-0.0557748973369598,0.0461754202842712,0.2419900298118591
1749026838.3667831,-0.13134113287631236,-2.046795600882396,-0.4961466639527291,1.3718824280311013,-0.6477501184143647,0.8126217360170233,0.031151077517651067,0.021383674057003227,-0.020023623456130336,0.05263258672802299,-0.02122358992685098,0.06431780147075247,0.2793729901313782,1.2709314823150637,0.4287948310375213,-0.0662360712885856,0.028166577219963,0.2602241933345794
1749026838.3668203,-0.1312795058051923,-2.046752596836444,-0.496186361833649,1.37199261968375,-0.6477966320495319,0.8127590591570306,0.032180477487529724,0.02208317137958451,-0.020615336186295793,0.05390961630958983,-0.021990658649876836,0.06607723740190041,0.2675622105598449,1.307662844657898,0.425176203250885,-0.085241213440895,0.0355515927076339,0.2297913283109665
1749026838.366857,-0.13121619754284264,-2.0467082804011305,-0.49622725224105074,1.3721052647581138,-0.6478446737311566,0.8129002597025166,0.033181140918013885,0.02275149572455698,-0.0211933021085386,0.05512479395480194,-0.022698251218402906,0.06785983562395372,0.2721660733222961,1.2755405902862549,0.4375982284545898,-0.0708596482872963,0.0252692699432373,0.240140289068222
1749026838.3668935,-0.13115129769948974,-2.0466628028247045,-0.49626941679327174,1.3722201468574755,-0.6478939349590261,0.8130451579850821,0.03415153491023433,0.023388467025954103,-0.021753893546581773,0.05628859391450992,-0.023334489224272004,0.06965855126758812,0.2756311893463135,1.2770085334777832,0.4140364825725555,-0.0744968354701995,0.0554542541503906,0.2163732945919037
1749026838.366934,-0.13108489105700435,-2.046616299750241,-0.496312911685299,1.3723370912521216,-0.6479441097191044,0.8131935418833971,0.03509251295480025,0.023996090988640282,-0.022294715800960964,0.05741543374949464,-0.023894223337259535,0.07146618851283618,0.2686492800712585,1.2796785831451416,0.4289483428001404,-0.084719218313694,0.0470638796687126,0.232087641954422
1749026838.366972,-0.13101704610164222,-2.046568881958395,-0.49635776191511405,1.3724559805254066,-0.6479949256487241,0.813345186161373,0.036007189743733216,0.0245782672796707,-0.02281461668479795,0.0585227588009018,-0.024378991039054297,0.07327599059679099,0.2692542970180511,1.3341010808944702,0.4321844577789306,-0.0685601830482482,0.0431201159954071,0.231532484292984
1749026838.3670084,-0.1309478037830696,-2.0465206278641186,-0.4964039595358865,1.372576766798451,-0.6480461700164547,0.8134998744027758,0.036900615949435944,0.025140490699026463,-0.023313653538200974,0.05962978542559682,-0.02479640012073728,0.07508207350004088,0.2939954102039337,1.3128873109817505,0.4260160326957702,-0.0552422925829887,0.0747629478573799,0.2194227874279022
1749026838.3670454,-0.13087716855874346,-2.046471578020591,-0.49645146632305187,1.3726994792905092,-0.6480977081266898,0.8136574211339325,0.0377792745729726,0.02568954062210656,-0.02379302308805423,0.060756011396676066,-0.02515902755345753,0.07687970837279592,0.2894266843795776,1.2964335680007937,0.4479900300502777,-0.0576924905180931,0.0533668547868728,0.2114773243665695
1749026838.367082,-0.13080510317388797,-2.046421732158546,-0.49650022043528586,1.3728242260812193,-0.6481494927112724,0.8138176918545105,0.03865044575468927,0.026233148525491537,-0.02425496763224541,0.06191961819452254,-0.025482991379307773,0.07866546207189652,0.2776055932044983,1.3235228061676023,0.4411459267139435,-0.0581228584051132,0.0519403517246246,0.2341905832290649
1749026838.3671184,-0.13073152795007628,-2.0463710492323712,-0.49655014586247376,1.372951189236763,-0.6482015639271689,0.8139806189658167,0.0395215048983055,0.02677963265239113,-0.02470267178459799,0.0631358924285193,-0.025786390895072644,0.08043721203168816,0.3012601137161255,1.3431273698806765,0.4215478599071502,-0.0466508269309997,0.052065122872591,0.2255909144878387
1749026838.367674,-0.13065632471082753,-2.0463194506384843,-0.4966011630121131,1.3730806129339472,-0.6482540406615369,0.814146211658592,0.040399227249330726,0.027337501825366383,-0.025140149991704473,0.06441578886821518,-0.026087799916893344,0.08219407615686194,0.309781402349472,1.3484258651733398,0.4235889017581939,-0.0504471957683563,0.0541341677308082,0.2473239451646804
1749026838.3696718,-0.13057934495891577,-2.046266826282943,-0.49665319880271347,1.3732127848176818,-0.6483071046937358,0.8143145577926684,0.04128917082594563,0.027915053104321515,-0.025572102352263516,0.06576475281232867,-0.026404943154923182,0.08393631100521481,0.31324103474617,1.3376195430755615,0.444103479385376,-0.0562599003314971,0.0448385253548622,0.2266381680965423
1749026838.410291,-0.13050042163935258,-2.0462130426493603,-0.4967061949957167,1.373348011536448,-0.6483609796732758,0.8144858162018346,0.04219519952258699,0.02851999837052937,-0.02600370125694559,0.067181918720385,-0.026753611898190796,0.08566520394431566,0.3052321076393127,1.3499897718429563,0.4305989742279053,-0.0632227659225463,0.0406084023416042,0.2067110538482666
1749026838.410337,-0.1304193837188116,-2.0461579518331523,-0.4967601139707835,1.3734865901240958,-0.6484159069994394,0.8146601990754715,0.04311919053071141,0.029159141239581795,-0.0264402796493649,0.06865980191879406,-0.027146815071543953,0.08738293970600584,0.3187892436981201,1.3379822969436646,0.4481334090232849,-0.0361353754997253,0.0550181865692138,0.2202391922473907
1749026838.4103773,-0.1303360726554075,-2.046101400855316,-0.49681494155220673,1.3736287774573712,-0.6484721208732596,0.8148379459658359,0.04406094743174449,0.02983810337588546,-0.02688692695267944,0.07018458905864443,-0.027594136203088534,0.08909240886941237,0.3294816017150879,1.365695595741272,0.4177777767181396,-0.0519308038055896,0.0312711298465728,0.2319557666778564
1749026838.4104166,-0.13025035941963872,-2.0460432410368106,-0.49687068681834434,1.3737747603856048,-0.6485298250549496,0.8150192929448588,0.04501831481392753,0.030561091071255597,-0.02734804546226245,0.0717370972317881,-0.02810127407356682,0.09079696132692304,0.3321505188941955,1.3711135387420654,0.4181156158447265,-0.0295581147074699,0.0447935573756694,0.2271339446306228
1749026838.4104588,-0.13016216014995327,-2.0459833372720615,-0.49692737915595836,1.3739246294017364,-0.6485891738077787,0.8152044416941491,0.04598746411131795,0.03133070185785416,-0.02782695025695941,0.07329440834266028,-0.028669767121798365,0.09250015413129006,0.3485271632671356,1.3770794868469238,0.4244292080402374,-0.0163075737655162,0.0386292450129985,0.2339980006217956
1749026838.4104974,-0.13007144817954364,-2.045921576721592,-0.49698506315979635,1.374078358833222,-0.6486502588403777,0.8153935333570264,0.04696329810245493,0.03214778092446652,-0.028325590395288553,0.07483210592421802,-0.029296921549384784,0.0942055521045982,0.3524760603904724,1.3747482299804688,0.4410005211830139,-0.0123068541288375,0.0308969244360923,0.2474149763584137
1749026838.410535,-0.12997826043809868,-2.045857876151394,-0.497043792211554,1.3742357962952805,-0.6487131029591181,0.8155866309373224,0.047939910338981415,0.03301133628928592,-0.02884443417105143,0.0763269566643927,-0.02997597123993186,0.09591660380434361,0.3545189499855041,1.393060326576233,0.4254855513572693,-0.0314418226480484,0.0290617793798446,0.2463101297616958
1749026838.4105735,-0.1298826972196759,-2.0457921870722355,-0.4971036216169682,1.3743966635531213,-0.6487776601119425,0.8157837123713247,0.04891104045294104,0.03391851442558291,-0.02938251829048007,0.07775978637970529,-0.030696490790771826,0.09763656842968395,0.3478774428367615,1.4008389711380005,0.4295783638954162,-0.0302651077508926,0.0384669378399848,0.2495054304599762
1749026838.4106145,-0.12978491571839737,-2.045724497941144,-0.4971646020663464,1.3745605700470205,-0.6488438209354014,0.8159846745551812,0.04987048468243968,0.034864633863158155,-0.029937627314522625,0.07911820391588406,-0.031445061780341704,0.09936844492285662,0.3575424253940582,1.3822612762451172,0.4231227040290832,-0.0491478592157363,0.0413768440485,0.2522990703582763
1749026838.4106529,-0.12968511883525669,-2.0456548329814366,-0.49722677398949755,1.3747270391105773,-0.6489114228279649,0.8161893469676671,0.05081244467413558,0.03584327551171474,-0.030506552851513328,0.08039876272501348,-0.03220616316855858,0.10111486036253994,0.3391360640525818,1.390196442604065,0.4172948598861694,-0.055186241865158,0.0306151360273361,0.2263600677251815
1749026838.4106903,-0.12958354089583593,-2.0455832476446836,-0.49729016317373415,1.3748955454207084,-0.6489802636814164,0.8163975124350199,0.051731817898685514,0.03684643241650086,-0.03108538422940796,0.08160817443701952,-0.03296323019473468,0.10287789980407248,0.3618614673614502,1.4175012111663818,0.4152888059616089,-0.0433915853500366,0.020204484462738,0.2361167967319488
1749026838.4107282,-0.12948043132559037,-2.0455098212025646,-0.4973547778570723,1.3750655607966056,-0.6490501184271915,0.8166089321132419,0.052624446848655033,0.03786472600980264,-0.03166979815873276,0.08276332488854375,-0.03369981080995699,0.10465889342781867,0.3601406812667846,1.4014203548431396,0.419301837682724,-0.0353748351335525,0.0386582165956497,0.2202493250370025
1749026838.410769,-0.12937603692484897,-2.0454346472007994,-0.49742060737351396,1.3752366044762228,-0.6491207573859822,0.81682337173657,0.05348734956039949,0.03888769755984194,-0.03225532891339854,0.0838900464688434,-0.03440074540054047,0.1064582115054494,0.3523763418197632,1.4061802625656128,0.4348157048225403,-0.0533880740404129,0.0422909259796142,0.2574339509010315
1749026838.4108074,-0.12927058358533133,-2.045357822524199,-0.4974876222529286,1.3754082934837857,-0.6491919650885091,0.8170406265125643,0.05431894238776502,0.03990417920234203,-0.03283760352230374,0.08502079148959506,-0.03505329886130309,0.1082751381092056,0.3354640901088714,1.3912160396575928,0.4133830964565277,-0.0672417283058166,0.0384465456008911,0.2454805225133896
1749026838.410847,-0.1291642586410502,-2.0452794358371014,-0.49755577550885416,1.3755803884656423,-0.6492635580156962,0.8172605427714964,0.055119235900335725,0.04090273964135215,-0.03341252766833945,0.08619148202095876,-0.035648178142236184,0.11010788191079025,0.3655566573143005,1.3925306797027588,0.4164495170116424,-0.0268765836954116,0.0292144566774368,0.2324234843254089
1749026838.4108844,-0.12905719506815685,-2.045199556332487,-0.49762500480929306,1.3757528303529032,-0.6493353999208565,0.8174830354362138,0.055889957910884115,0.04187218962832571,-0.03397642060659344,0.08743788539389301,-0.0361803704017525,0.11195373738630804,0.3608970642089844,1.39971661567688,0.4066809713840484,-0.0396374687552452,0.0476142615079879,0.2518980205059051
1749026838.4109242,-0.12894945849816483,-2.045118223889642,-0.49769523535053733,1.375925763575218,-0.6494074140351962,0.8177081011276353,0.056634558594994125,0.04280212438912904,-0.034526117558144755,0.08879189682104019,-0.03664973497869105,0.11380936027043434,0.3489315807819366,1.3993356227874756,0.4157819747924804,-0.044064961373806,0.0343347936868667,0.2374427020549774
1749026838.4109623,-0.12884103780766049,-2.045035441669556,-0.49776638344550217,1.3760995424458788,-0.6494795920845857,0.8179358268524455,0.05735807885373819,0.043683474799619454,-0.03505906993472103,0.09027810592224807,-0.03706127550981587,0.11567109457251916,0.3406614661216736,1.389191508293152,0.410099059343338,-0.0178521871566772,0.0626794099807739,0.2442407011985778
1749026838.4109995,-0.1287318400819344,-2.044951171941588,-0.49783836099393053,1.3762747186813993,-0.6495520001558348,0.8181663936964866,0.058066893350497646,0.04450903650168184,-0.035573469844653954,0.09191098733156634,-0.03742501347968502,0.11753528448220991,0.377619206905365,1.398803472518921,0.4122991263866424,-0.0174820646643638,0.0632251054048538,0.2401799410581588
1749026838.4110365,-0.12862169093024955,-2.0448653357950297,-0.49791108103415593,1.3764520095710326,-0.6496247808360041,0.8184000742035306,0.05876836141481393,0.045273945835319,-0.03606841039075187,0.09369299683477052,-0.03775539957651878,0.1193985120710279,0.3669155240058899,1.398036241531372,0.4010049402713775,-0.0317052155733108,0.0593627095222473,0.2489883005619049
1749026838.4117265,-0.1285103411690432,-2.0447778173780846,-0.49798446436134436,1.3766322479291575,-0.6496981500967006,0.8186372217624998,0.05947042963763079,0.045976072100222906,-0.03654407400401731,0.09561378007094684,-0.03807025178311594,0.12125772556563015,0.4058777093887329,1.3849974870681765,0.4202756583690643,-0.0064972341060638,0.0491720587015152,0.2468391954898834
1749026838.413692,-0.12839748057533884,-2.0446884732051727,-0.4980584467258659,1.3768163166862601,-0.6497723870120767,0.8188782506114454,0.06018122533776387,0.04661629624451879,-0.03700192289433407,0.09765061302496506,-0.03838929474891244,0.12311026592357677,0.3835503160953522,1.3944462537765503,0.4214605689048767,0.0082011148333549,0.0333229005336761,0.2464007437229156
1749026838.454283,-0.12828275878447618,-2.044597146683978,-0.4981329856718694,1.3770050728071044,-0.6498478152115633,0.8191236057902068,0.06090865918618572,0.047198646920452864,-0.03744485642169703,0.09977008881834042,-0.03873246163425127,0.12495383942483043,0.3571022748947143,1.4034483432769775,0.4020978808403015,0.014503888785839,0.0345765501260757,0.2549931108951568
1749026838.4543302,-0.12816581256639756,-2.044503687268075,-0.4982080660006223,1.3771992669907116,-0.6499247766980801,0.8193737234480424,0.06166003075574695,0.047730267857573276,-0.03787730400874982,0.10193093296631418,-0.03911816686545557,0.12678649672103545,0.4141762554645538,1.3925940990447998,0.4000780582427978,-0.0209082085639238,0.0344393104314804,0.2500154674053192
1749026838.4543717,-0.1280462975456966,-2.0444079725421362,-0.4982837032379053,1.3773994671555285,-0.6500036005744101,0.8196289837864035,0.06244162136101986,0.048221198078566334,-0.03830523012028414,0.10408767610333744,-0.03956174641616509,0.12860666545097044,0.4024452865123749,1.4027003049850464,0.4135569632053375,0.0080951116979122,0.0172474831342697,0.2483023107051849
1749026838.454411,-0.12792392073443434,-2.0443099301692698,-0.4983599451585638,1.3776059950616861,-0.6500845708834494,0.8198896620257725,0.06325826967196237,0.04868395893633175,-0.03873602664408555,0.10619478761080045,-0.04007420791087643,0.1304132610514668,0.4024452865123749,1.4027003049850464,0.4135569632053375,0.0080951116979122,0.0172474831342697,0.2483023107051849
1749026838.4544497,-0.12779846844885132,-2.0442095553830932,-0.49843687209929505,1.3778188862808518,-0.6501678989420705,0.8201558864003866,0.06411294582043345,0.04913295599439873,-0.03917825975097192,0.10821082932312359,-0.040661375329970675,0.1322058792748263,0.3577392697334289,1.4077118635177612,0.4058464765548706,-0.0114228762686252,0.0257456749677658,0.2512210011482239
1749026838.4544885,-0.12766982371419877,-2.0441069195859978,-0.4985145970918586,1.3780378827623145,-0.6502537055739375,0.8204276138733956,0.06500635799433813,0.04958371470556064,-0.03964123916920164,0.11010221942657276,-0.041323479834819966,0.1339850496085525,0.4285643696784973,1.408409595489502,0.4093257188796997,-0.038689374923706,0.0204593390226364,0.2335758060216903
1749026838.454528,-0.1275379694699702,-2.044002167493617,-0.4985932663355191,1.3782624626992108,-0.6503420167370239,0.8207046313856161,0.0659366409691491,0.05005197564445584,-0.040134399093074064,0.11184624531416561,-0.04205523487993242,0.13575249240016032,0.4299601912498474,1.433100342750549,0.3770383298397064,-0.0252177864313125,0.0005344077944755,0.2333197295665741
1749026838.454566,-0.12740297819280294,-2.0438955035230877,-0.49867305924660227,1.378491904528097,-0.6504327725121057,0.8209865833051341,0.06689918890729474,0.05055268156856267,-0.04066651701147274,0.11343300456417611,-0.042846417750009774,0.13751128538039334,0.4408117532730102,1.4232717752456665,0.3812696635723114,-0.0349134653806686,-0.0072789872065186,0.2434493899345398
1749026838.4546044,-0.12726499241873632,-2.043787170802739,-0.4987541860718227,1.3787253740910335,-0.650525845994121,0.8212730184206779,0.06788669790225907,0.05109889779940666,-0.04124483281774375,0.11486602456803661,-0.04368294031609814,0.13926583663999473,0.453398585319519,1.4223309755325315,0.3923853039741516,-0.0335570350289344,0.005922807380557,0.2328580170869827
1749026838.454642,-0.1271242019544983,-2.0436774270237805,-0.49883688069112914,1.3789620199788581,-0.6506210669683894,0.8215634463810517,0.06888946791132348,0.05170071989438359,-0.04187415190474434,0.11616145234178629,-0.04454831938607636,0.1410215902583315,0.4034706950187683,1.411933183670044,0.38686403632164,-0.0573614537715911,0.0108824679628014,0.2347482442855835
1749026838.4546793,-0.12698082248707332,-2.0435665208493896,-0.4989213870096986,1.379201062602805,-0.6507182455322803,0.8218573941538991,0.0698959783036934,0.05236424195675865,-0.04255602628755951,0.11734589686942856,-0.04542536545677068,0.14278443965734575,0.3974169194698334,1.466822862625122,0.3721596300601959,-0.0435911454260349,-0.0128916315734386,0.2595272660255432
1749026838.4547176,-0.12683507835739458,-2.0434546717906343,-0.49900793899826706,1.3794418657995353,-0.6508171920727375,0.8221544553156204,0.07089370706827819,0.05309068654629662,-0.04328811946028725,0.11845319475471523,-0.046297840098030014,0.14455987906006984,0.432046890258789,1.4217925071716309,0.3641442358493805,-0.0296822413802146,0.0085361376404762,0.2552107870578766
1749026838.454755,-0.1266871904746539,-2.0433420556921287,-0.49909673648827557,1.3796839839532116,-0.650917731365121,0.8224543269300287,0.07187012460937911,0.0538758190984363,-0.04406387160148207,0.11952051658594073,-0.04715182553629992,0.14635198382289477,0.4219509959220886,1.453636884689331,0.3606227040290832,-0.0296916216611862,0.0331823751330375,0.2311013638973236
1749026838.4547925,-0.12653736896604315,-2.0432287970130556,-0.49918792051181665,1.3799271819455143,-0.6510197097865453,0.8227568304386638,0.07281376577425433,0.05470976613491337,-0.044872574063627275,0.12058431173029893,-0.047976606626573076,0.14816237089591971,0.4305904507637024,1.4315756559371948,0.3464306592941284,-0.0205747485160827,0.0205181613564491,0.2511004209518432
1749026838.4548302,-0.12638580936558455,-2.0431149678496623,-0.49928155257234735,1.3801714292958183,-0.6511229958120431,0.8230619149893691,0.07371526794117488,0.05557732510686678,-0.045699922198169714,0.12167658561513287,-0.04876496051423029,0.14998934135217767,0.4264283180236816,1.4286649227142334,0.3506426513195038,-0.0189413279294967,0.0281230434775352,0.2574652433395386
1749026838.4548674,-0.12623269102616116,-2.043000592478629,-0.49937760155646627,1.3804168729947122,-0.6512274750411313,0.8233696439921807,0.07456825903132046,0.05645880790656511,-0.04652904618423306,0.12282191667370526,-0.04951286336655637,0.15182743088854403,0.4179980456829071,1.4381167888641355,0.3557744026184082,-0.0103561729192733,0.018105924129486,0.2592912018299103
1749026838.4549046,-0.12607817664914164,-2.0428856555857298,-0.49947594046747656,1.3806637952744634,-0.651333041742409,0.8236801679553903,0.07536999060753849,0.057331407428129894,-0.04734193661117623,0.12403547757602579,-0.05021874338815267,0.15366756408100754,0.4042624533176422,1.444266438484192,0.3796069622039795,-0.0370461195707321,0.0068548768758773,0.2789404988288879
1749026838.4549422,-0.12592241197626441,-2.042770112322079,-0.49957635338763134,1.3809125630069141,-0.6514395890957593,0.82399368848433,0.0761216383426616,0.05817101611929648,-0.048121106264729846,0.1253221706028613,-0.05088250827544242,0.1554979054796299,0.4120380878448486,1.417077898979187,0.3833706676959991,-0.0250755418092012,-0.0023343861103057,0.2478061765432357
1749026838.4549797,-0.12576552482791284,-2.042653898510375,-0.49967855153204654,1.3811635750429962,-0.6515470000702557,0.8243104194806075,0.07682823016054308,0.05895436259020277,-0.0488512802122821,0.12667685723033914,-0.05150461474123732,0.15730533869989088,0.4108511209487915,1.4265631437301636,0.3767439424991607,0.0141234323382377,0.0075972601771354,0.2384448647499084
1749026838.4550169,-0.1256076230822586,-2.0425369394902555,-0.49978219618932873,1.3814172129741753,-0.6516551406102021,0.8246305516869616,0.07749820479239002,0.05966128079486792,-0.0495208936762868,0.12808556850878317,-0.052085407469541066,0.1590773305377162,0.412373811006546,1.4035462141036987,0.3966317176818847,-0.0372105836868286,0.0221759676933288,0.2440878748893737
1749026838.45566,-0.12544879188980623,-2.0424191564461824,-0.4998869257635943,1.3816737997101094,-0.6517638567576416,0.8249542256064367,0.07814264473137661,0.060276894270560544,-0.05012320462868805,0.12952751631921672,-0.05262485587506444,0.16080381781665093,0.3842687308788299,1.4069547653198242,0.3858634829521179,-0.0117831379175186,0.0278657376766204,0.2347785681486129
1749026838.4576457,-0.12528909105340386,-2.0423004697596907,-0.49999238393799617,1.3819335690855943,-0.651872977253274,0.8252815158513794,0.07877426211256212,0.06079348219214337,-0.0506568902303081,0.13097768111922864,-0.05312270647879166,0.16247874444361715,0.435200423002243,1.3787742853164673,0.4022895991802215,-0.0238746106624603,0.013372279703617,0.2375428080558776
1749026838.4982853,-0.12512855371138315,-2.042180799738943,-0.5000982461368818,1.3821966484712163,-0.651982322562176,0.8256124277779735,0.07940623907796963,0.06121179608978645,-0.051126076337029626,0.13240972966306586,-0.053578983647712464,0.16410097557938158,0.4178587198257446,1.4253275394439695,0.3782137036323547,-0.0357448533177375,0.031246431171894,0.2521304786205292
1749026838.4983327,-0.12496718723320148,-2.042060065663514,-0.5002042419848568,1.3824630549778751,-0.6520917200663121,0.8259469052586303,0.08005103409528183,0.061541632827517304,-0.051539825257331,0.13379900319827012,-0.05399472167636195,0.1656744741491068,0.3764643371105194,1.4301584959030151,0.3931652307510376,-0.0368911772966384,0.0270493887364864,0.2320778369903564
1749026838.4983735,-0.12480497671635615,-2.0419381843330386,-0.5003101722232904,1.3827327043183133,-0.6522010237511732,0.8262848468067131,0.0807192665826976,0.06180155014519371,-0.0519111661845559,0.13512530070360884,-0.05437278880373646,0.16720778575905504,0.4016895294189453,1.4197111129760742,0.3871481418609619,-0.0387075692415237,0.0310138724744319,0.2684077620506286
1749026838.498413,-0.12464189063715536,-2.0418150692491177,-0.5004159192824195,1.3830054299218681,-0.6523101356575843,0.8266261262119046,0.0814187906446763,0.06201771454358057,-0.05225579531407054,0.1363751793012162,-0.05471865793325298,0.16871300293659103,0.3968560695648193,1.4293779134750366,0.3841131925582886,-0.039658784866333,0.026895860210061,0.2703967094421386
1749026838.4984508,-0.1244778871965476,-2.0416906311884286,-0.5005214512540742,1.38328100879675,-0.6524190259842382,0.8269706137042184,0.08215406274188267,0.06222196398255041,-0.05259059980893896,0.13754353194861993,-0.055040981857747764,0.17020444079850927,0.4287094473838806,1.428868055343628,0.3808092474937439,-0.0434633716940879,0.0367663130164146,0.2395728230476379
1749026838.498488,-0.12431291930301862,-2.0415647803244483,-0.5006268194411083,1.3835591902313842,-0.6525277488933279,0.8273181944900548,0.08292588459181689,0.06244923593865964,-0.05293216823802711,0.13863428585317886,-0.055351839286017036,0.17169724233203792,0.4322278201580047,1.4468528032302856,0.3781116604804992,-0.0279296040534973,0.0389219783246517,0.2233662605285644
1749026838.498526,-0.12414693648534249,-2.0414374294959323,-0.5007321501100208,1.3838397239212903,-0.6526364515152275,0.8276687827849876,0.08373155331463214,0.06273456292095589,-0.05329543822828729,0.13966017915889167,-0.05566653539952115,0.17320606190071577,0.3848585486412048,1.4508662223815918,0.3806350827217102,-0.0226338729262352,0.0384660735726356,0.2569986581802368
1749026838.498564,-0.12397988328563583,-2.0413084980106633,-0.5008376315224954,1.3841223852672202,-0.652745374272248,0.8280223305319899,0.08456538510730359,0.06310988232667426,-0.053692602797417034,0.14064169124918746,-0.056002877420434076,0.1747438966396743,0.4136009812355041,1.4481713771820068,0.386072427034378,-0.0350129008293151,0.0505920350551605,0.2663788497447967
1749026838.4986012,-0.12381169526893436,-2.0411779155781336,-0.5009434976431131,1.3844069968050983,-0.6528548414763277,0.828378830616098,0.08541951595402716,0.0636009447454226,-0.05413235418777838,0.14160528291426502,-0.05637991075685924,0.17632109219947376,0.3878994286060333,1.4674334526062012,0.4117424488067627,-0.0470908358693122,0.0336770638823509,0.2497507929801941
1749026838.4986382,-0.1236422949373222,-2.0410456263259253,-0.5010500100330137,1.3846934454650544,-0.6529652422065284,0.8287383148439065,0.08628484135887048,0.06422462574396437,-0.05461949441983657,0.14258112295724415,-0.05681619274141861,0.1779445536533397,0.4084134101867676,1.4819904565811155,0.3936863243579864,-0.0064985230565071,0.0237112194299697,0.2849300503730774
1749026838.4986749,-0.12347159000915657,-2.0409115930597514,-0.5011574393274195,1.3849816954340912,-0.6530770026989283,0.8291008475285757,0.08715195167979191,0.06498693934268829,-0.05515489928509929,0.1436004629911488,-0.05732778419815546,0.17961722007020056,0.40785813331604,1.4953739643096924,0.3637277781963348,-0.0310273468494415,-0.0101634673774242,0.2772161364555359
1749026838.4987123,-0.12329947570212861,-2.0407758018327438,-0.5012660474020632,1.3852717959514311,-0.6531905526924128,0.8294665161123357,0.08801195395884147,0.06588200602087878,-0.055735799563141925,0.1446928183045788,-0.05792622977089107,0.1813378790547021,0.3931239247322082,1.4974055290222168,0.3592877089977264,-0.0153868049383163,-0.0009364187717437,0.3008636236190796
1749026838.4987495,-0.12312584136920991,-2.0406382664577776,-0.5013760710123453,1.3855638827777987,-0.653306289070708,0.8298354205488077,0.0888571254605012,0.06689214022651108,-0.0563563311002709,0.14588313946729656,-0.05861684609079738,0.18310138481970037,0.4156345725059509,1.4963603019714355,0.4086668789386749,-0.0286536812782287,-0.0205942299216985,0.2789662182331085
1749026838.4987872,-0.12295058069151955,-2.040499031950353,-0.5014877075367473,1.3858581718817187,-0.6534245406324194,0.8302076630340517,0.08968138921778734,0.06798910135813159,-0.05700828370423066,0.14718920806280544,-0.05939761795450228,0.18489929815970546,0.3988286554813385,1.4773905277252195,0.4034640789031982,-0.0191522054374218,-0.0302378833293914,0.2685073614120483
1749026838.4988244,-0.12277360379085658,-2.040358175455774,-0.501601103512041,1.3861549444963428,-0.6535455379886927,0.8305833393134743,0.09048062790272503,0.06913641873353917,-0.05768195246635073,0.14861953821527338,-0.06025891411075286,0.18672090538929711,0.4209509193897247,1.463162899017334,0.3689257800579071,-0.0006808564066886,-0.0375596582889556,0.2741990387439728
1749026838.4988616,-0.1225948489275373,-2.040215803444168,-0.5017163467387497,1.3864545240477482,-0.6536693923196224,0.8309625323577362,0.09125286660721202,0.07029257836830477,-0.05836699218177161,0.15017208002546326,-0.06118409909757647,0.18855451741594464,0.4167060256004333,1.4568160772323608,0.3862233161926269,-0.0022715926170349,-0.0221289433538913,0.2729513347148895
1749026838.498899,-0.1224142910279407,-2.0400720448378835,-0.5018334626757794,1.3867572469289438,-0.6537960857703499,0.8313453085901603,0.09199835895750441,0.07141476451300771,-0.059053201160112166,0.15183396881290515,-0.06215097014953148,0.19038890747717052,0.3944458365440368,1.4543334245681765,0.3936925828456878,0.0033358335494995,-0.0047299712896347,0.237969160079956
1749026838.4989357,-0.12223194461578112,-2.0399270407618078,-0.501952415603619,1.3870634300890696,-0.6539254746638005,0.8317317160977401,0.09271959820775025,0.07246278833967683,-0.05973118784747305,0.15358243563320065,-0.06313381855285767,0.19221471367309764,0.4035431742668152,1.4028987884521484,0.3957768976688385,0.0202464610338211,-0.0143497139215469,0.2467924207448959
1749026838.498973,-0.12204786000079484,-2.039780932246828,-0.5020731146754757,1.387373338836989,-0.6540573048062172,0.8321217838563202,0.09342124733732698,0.07340281080891481,-0.06039288448850711,0.15538681411432292,-0.06410582545046654,0.19402561907938173,0.4116924703121185,1.434544324874878,0.3807741999626159,0.0008785799145698,0.0115468651056289,0.2877035737037658
1749026838.49901,-0.12186211336863771,-2.039633847345946,-0.5021954245216531,1.3876871583428605,-0.6541912363991176,0.8325155213584928,0.0941099538843324,0.07421048159495872,-0.06103187672681613,0.1572113959428899,-0.06504146893645606,0.1958191488507659,0.413311094045639,1.4057115316390991,0.4147881269454956,-0.0053593693301081,0.0237963944673538,0.2516299188137054
1749026838.4997466,-0.12167479300880732,-2.039485888988349,-0.5023191795361399,1.3880049721219772,-0.6543268748433655,0.8329129188467579,0.0947940029825779,0.07487317433872591,-0.061643533645690154,0.15901875832393433,-0.06591864627965328,0.1975969912602955,0.407635897397995,1.3731589317321775,0.3819711804389953,-0.0071568563580513,0.0367054492235183,0.2651669383049011
1749026838.5017395,-0.12148598485015699,-2.039337124762194,-0.5024442004333775,1.3883267502071335,-0.6544638033636999,0.8333139488912176,0.09548277442751492,0.0753910882037159,-0.06222495527345481,0.1607731478720786,-0.06672028850132077,0.19936482776735368,0.4278353452682495,1.3943318128585815,0.3770202994346618,-0.0456951707601547,0.0385909080505371,0.2587058246135711
1749026838.54232,-0.12129576051626317,-2.0391875797637273,-0.5025703112576477,1.388652348760052,-0.6546016139922061,0.8337185699490444,0.09618600350502464,0.07577709138668569,-0.06277479295568464,0.16244355296656557,-0.06743534068792213,0.2011317148019301,0.3703852891921997,1.379687786102295,0.4104286134243011,-0.0056124031543731,0.0347981303930282,0.2827133238315582
1749026838.5423694,-0.12110417008104239,-2.039037233585959,-0.5026973548956782,1.388981521633242,-0.6547399346670835,0.8341267320525161,0.0969128893120019,0.07605530432109521,-0.06329301818905868,0.16400619339306222,-0.06805908378928795,0.20290908854029774,0.4473193287849426,1.4329694509506226,0.3984981775283813,0.0167554020881652,0.0232239514589309,0.3049887120723724
1749026838.5424109,-0.1209112397680979,-2.0388860222260283,-0.5028252053598118,1.3893139429328434,-0.6548784513732119,0.834538384282509,0.09767113605333236,0.0762585565792806,-0.06378070530197198,0.1654462605738819,-0.06859287366556714,0.20470947372286102,0.3839297890663147,1.3970155715942385,0.3837858736515045,-0.0224531441926956,0.0163572579622268,0.2926746010780334
1749026838.5424511,-0.1207169729150149,-2.0387338450534527,-0.5029537756271537,1.3896492380794903,-0.6550169249327896,0.8349534832933219,0.0984660435032661,0.07642497831750159,-0.06423986676969327,0.1667588302867663,-0.06904345131305994,0.20654498928823642,0.4416507482528686,1.4149185419082642,0.4029440879821777,-0.0320132710039615,0.0220811665058136,0.2672709822654724
1749026838.54249,-0.12052135178128309,-2.038580576235931,-0.5030830204980249,1.3899870195840198,-0.655155202230737,0.835372001790439,0.09929977575194875,0.07659408350471401,-0.06467335270487597,0.16794894100191818,-0.06942200287164206,0.20842577614176644,0.4118282198905945,1.4324603080749512,0.4180589914321899,-0.009634643793106,0.0186630561947822,0.3095287978649139
1749026838.542531,-0.1203243385285212,-2.038426079485969,-0.5032129346521058,1.3903269232003004,-0.6552932215092833,0.8357939355909992,0.10017092683210935,0.07680276788126321,-0.06508479791067295,0.16903089427258658,-0.06974310805062335,0.21035852054268098,0.4362843334674835,1.4470654726028442,0.3954601585865021,-0.0360762625932693,0.0485750474035739,0.3010729551315307
1749026838.5425694,-0.12012587516857927,-2.038270224639259,-0.5033435467154036,1.3906686404365702,-0.6554310111430947,0.836219307875937,0.10107446403125232,0.07708167539564853,-0.06547857329451195,0.1700268908815954,-0.07002364315842159,0.21234527668078026,0.3831668496131897,1.4420968294143677,0.4002813100814819,-0.0072124004364013,0.0551428198814392,0.3078345954418182
1749026838.5426068,-0.11992588347358492,-2.0381129042094317,-0.5034749105406738,1.3910119442929754,-0.6555686813566146,0.8366481694931924,0.10200206942303856,0.07745235907252875,-0.06585968816472904,0.17096515882496918,-0.07028165614529941,0.21438277017025473,0.4011970162391662,1.4702380895614624,0.4051421284675598,0.0036820843815803,0.0450580529868602,0.2989680767059326
1749026838.542645,-0.11972426628131763,-2.0379540477999556,-0.5036070949985162,1.3913567060781535,-0.6557064089602768,0.8370805945916834,0.10294283911562334,0.07792556242164755,-0.06623360493200105,0.1718777495243922,-0.07053524421001182,0.21646228885336735,0.4574043154716491,1.4831926822662354,0.4042650461196899,-0.0225167796015739,0.024407535791397,0.3095262348651886
1749026838.542682,-0.11952091127416666,-2.0377936323719723,-0.5037401735297957,1.391702902046881,-0.6558444163782401,0.8375166714076558,0.10388426226249801,0.07850079597347796,-0.06660596172256755,0.17279817480458806,-0.07080152356593422,0.21857017085702937,0.4473696947097778,1.4535692930221558,0.3769569396972656,-0.018768310546875,0.022897757589817,0.2849808633327484
1749026838.542719,-0.11931569742568074,-2.0376316868506223,-0.5038742146337584,1.3920506096040113,-0.655982947616547,0.8379564887270825,0.10481338844140928,0.0791672130418919,-0.06698223795204203,0.17375903244782878,-0.07109581821777192,0.22068882031777423,0.4139320254325866,1.4856432676315308,0.3873725533485412,0.0005113631486892,0.0146685093641281,0.2831062972545624
1749026838.542756,-0.11910850338993798,-2.037468290209799,-0.5040092742780331,1.3923999941914542,-0.6561222446970421,0.8384001194249933,0.1057180832396888,0.07990562202681228,-0.06736742781443007,0.17478973830530886,-0.07143115345286688,0.22279813674731805,0.4159983992576599,1.4398696422576904,0.3797477185726166,-0.0110900253057479,0.0204987376928329,0.3174448013305664
1749026838.5427926,-0.11889921659077271,-2.0373035630373417,-0.5041453908278541,1.3927512894890854,-0.6562625280200272,0.838847603433383,0.10658825567473462,0.08069132948624219,-0.06776579193103469,0.17591446934423083,-0.07181803801757386,0.22487722968094537,0.421845942735672,1.4472318887710571,0.3795271515846252,0.001097859814763,0.0251024514436721,0.3099106848239898
1749026838.542829,-0.11868774174589611,-2.0371376537321653,-0.5042825826116929,1.3931047745061638,-0.656403983250433,0.8392989333010163,0.10741692327054664,0.08149741140431806,-0.06818073328953513,0.17715043372016914,-0.07226442995434701,0.226906286039087,0.3921742439270019,1.4005481004714966,0.3803470134735107,0.0165144354104995,-0.011930227279663,0.3133367300033569
1749026838.5428667,-0.11847400788501576,-2.0369707216260386,-0.5044208479504722,1.3934607509984895,-0.656546756050289,0.8397540458757129,0.10820097747184036,0.0822979747375894,-0.06861480456311157,0.17850661145737023,-0.07277575783527601,0.22886844075027343,0.421699047088623,1.417064905166626,0.3542814552783966,0.0305211395025253,-0.0110313147306442,0.3208425045013428
1749026838.5429032,-0.11825797340623816,-2.0368029199295217,-0.5045601675294918,1.3938195236234985,-0.656690954538836,0.8402128231655972,0.10894153696246504,0.08307100007265544,-0.06906982216971021,0.17998312520191864,-0.07335490499412543,0.2307514664351349,0.4211595356464386,1.4163402318954468,0.372600793838501,0.0527329444885253,-8.478760719299316e-05,0.3202632665634155
1749026838.5429394,-0.11803962915806133,-2.036634381183156,-0.5047005091343961,1.394181383982989,-0.6568366578452944,0.8406751038459424,0.10964382611328038,0.0838004411154735,-0.0695470460770408,0.18157136824868494,-0.07400211901626279,0.23254907000389544,0.4139671623706817,1.3930377960205078,0.3519394993782043,0.0211221873760223,-0.0158680975437164,0.2839381098747253
1749026838.5429757,-0.1178189997538604,-2.0364652069408478,-0.5048418346090948,1.3945465986849641,-0.6569839278186408,0.8411407044192565,0.11031657279213763,0.08447738012284702,-0.07004737634497396,0.18325491855127296,-0.07471485226946872,0.23426159795603477,0.3840253949165344,1.3856045007705688,0.387531578540802,0.0631504580378532,0.0300103724002838,0.2492055594921112
1749026838.5430162,-0.1175961433042667,-2.0362954621362044,-0.5049841084067471,1.3949154009147955,-0.6571328203638866,0.8416094465353166,0.11097097407269865,0.08510017625547127,-0.07057151380460601,0.18501112547456167,-0.07548756661049358,0.23589602251256986,0.4284030795097351,1.4168416261672974,0.3703851699829101,0.0359193347394466,0.0061332955956459,0.3011582791805267
1749026838.5430546,-0.1173711495969432,-2.0361251735518238,-0.5051273066513731,1.3952879846716448,-0.6572833932442843,0.8420811854071477,0.11161933567703387,0.08567367502328052,-0.07112003897613699,0.18681312150379004,-0.0763115530533641,0.23746519629385,0.451406180858612,1.4099881649017334,0.3720779120922088,0.0289218872785568,0.0007973574101924,0.2985284328460693
1749026838.5437572,-0.11714413659009458,-2.035954331356004,-0.5052714254647702,1.3956645007142907,-0.6574357083386303,0.8425558342200213,0.11227355174050614,0.08620765966871086,-0.0716933848133054,0.18863193278051396,-0.07717483286550074,0.23898649496281743,0.4410274624824524,1.4100450277328491,0.3467981517314911,0.0225455313920974,0.0080081848427653,0.3077517449855804
1749026838.5457182,-0.11691524507407737,-2.0357828927035797,-0.5054164874061529,1.3960450533740767,-0.6575898278376764,0.8430333807836862,0.11294363533328251,0.08671481292991014,-0.07229170840673864,0.19043837008659123,-0.0780622255187463,0.24048006803445596,0.4277810156345367,1.4416096210479736,0.3520313799381256,0.0132841244339942,-0.0033357180655002,0.3195333480834961
1749026838.5862834,-0.11668463155549319,-2.0356107866874824,-0.5055625451374058,1.3964296977322759,-0.6577458052122428,0.8435138944998927,0.11363651421849376,0.08720851310705731,-0.07291468983826166,0.19220447719916645,-0.07895568231001199,0.24196694146013825,0.4204397201538086,1.4159780740737915,0.381892055273056,0.0278729926794767,-0.0169583782553672,0.3163399994373321
1749026838.5863287,-0.11645245966618939,-2.0354379203067237,-0.5057096818648129,1.396818437074835,-0.6579036726393506,0.8439975230079546,0.11435526956605861,0.08770080323036741,-0.07356129493363373,0.19390446333301875,-0.07983496858748179,0.24346715685236933,0.4291194081306457,1.4692476987838743,0.3540052771568298,0.0315867215394973,0.015787586569786,0.2821394801139831
1749026838.5863686,-0.11621889055520247,-2.0352641853855906,-0.5058580086437988,1.3972112208310423,-0.6580634269890501,0.8444844785702492,0.1150989316531645,0.08820083518875659,-0.07422954021013327,0.19551519991818822,-0.08067872148720544,0.2449980416391132,0.4277313947677612,1.4065003395080566,0.3331476151943207,0.0450958460569381,0.0072078853845596,0.2876271605491638
1749026838.5864072,-0.11598407287066183,-2.035089466360562,-0.5060076590549609,1.397607943362044,-0.6582250168172422,0.8449750151548895,0.11586286280671251,0.08871399418060555,-0.07491630272723873,0.19701647785805657,-0.08146583819739639,0.24657265121356592,0.4229598939418793,1.464370608329773,0.3656551241874695,0.0360385775566101,0.0148509591817855,0.2918142080307007
1749026838.586445,-0.11574813313122631,-2.0349136486228727,-0.5061587818575571,1.3980084441331717,-0.6583883332114644,0.8454693986278289,0.11663965756608867,0.08924176811175881,-0.07561721921838854,0.19839127389130595,-0.08217710226467925,0.24819844657609116,0.4379332363605499,1.4287395477294922,0.3587444126605987,0.0599415637552738,-0.017818659543991,0.3047807514667511
1749026838.586483,-0.1155111673458305,-2.034736626902596,-0.5063115319596824,1.3984125100153035,-0.6585532074098682,0.845967873824459,0.1174203925199739,0.08978228306655972,-0.07632670419932466,0.19962624837479317,-0.0827969441327785,0.249876351818647,0.4446362853050232,1.4146323204040527,0.3480007648468017,0.0304541662335395,-0.0183586329221725,0.3364984691143036
1749026838.5865254,-0.11527323456341526,-2.034558313071829,-0.5064660596501299,1.3988198805403331,-0.6587194173626192,0.8464706327492472,0.11819599332728976,0.09033131811778451,-0.07703808476973444,0.20071259392207214,-0.08331522305988456,0.25160041178334264,0.4411686658859253,1.4146957397460938,0.3836961388587951,0.0374859720468521,0.0008546411991119,0.3152404427528381
1749026838.5865643,-0.11503435282596762,-2.034378642654871,-0.5066224979185937,1.3992302566921817,-0.65888670379854,0.8469777877458478,0.11895847483648586,0.0908835562234146,-0.07774381741653398,0.20164720690264848,-0.08372887180120477,0.2533582675901551,0.3885134160518646,1.397911787033081,0.361034631729126,0.0362444743514061,0.0247827284038066,0.3221530020236969
1749026838.5866027,-0.11479449796846346,-2.0341975793125777,-0.5067809480662646,1.3996433132410069,-0.6590547943422387,0.8474893526520296,0.11970185742426223,0.09143382506848001,-0.07843574173444216,0.20243401443516706,-0.08404317423087955,0.2551325498057303,0.4063751399517059,1.4297109842300415,0.3729303479194641,0.0420818664133548,0.0085902865976095,0.3036889135837555
1749026838.58664,-0.11455360577949168,-2.0340151167448655,-0.5069414645169437,1.4000587139026348,-0.6592234323628663,0.8480052338840022,0.1204226562156942,0.09197812400615822,-0.07910534464866115,0.2030851978160518,-0.08427240614120389,0.25690308656447386,0.3945863544940948,1.380109786987305,0.3817556798458099,0.0070712193846702,0.0212283730506896,0.2722820043563843
1749026838.5866776,-0.11431157804113702,-2.033831277810037,-0.5071040404342235,1.4004761279515916,-0.6593924060475911,0.8485252320045401,0.12111994697825187,0.09251429787605184,-0.07974403724555665,0.20362201538223532,-0.08443960383221978,0.2586496195526028,0.4295629262924194,1.4311813116073608,0.3848470151424408,-0.0001516789197921,0.0394427292048931,0.3022762238979339
1749026838.586715,-0.11406829282518745,-2.0336461110560413,-0.5072685961716459,1.4008952464190119,-0.6595615730619627,0.8490490528169499,0.12179509589546916,0.09304228629979719,-0.08034346042865613,0.20407493229749227,-0.08457532823198445,0.2603545992248152,0.3760305643081665,1.4158287048339844,0.3952156901359558,0.0295121371746063,0.0336852855980396,0.2968989610671997
1749026838.5867522,-0.11382361899011105,-2.033459685192165,-0.5074349725871342,1.4013157956165334,-0.6597308770583196,0.8495763259028413,0.12245127992937908,0.09356394705470039,-0.08089583352909978,0.20448281024949014,-0.08471542977457477,0.2620056296067673,0.4364489018917084,1.444808006286621,0.3734560012817383,0.0210377462208271,0.0213121771812438,0.3072490692138672
1749026838.5867898,-0.11357743399836341,-2.0332720822605737,-0.5076029307804687,1.40173754561437,-0.6599003537698293,0.8501066281485979,0.12309292036959754,0.09408252459097663,-0.08139435497711127,0.20489101033334356,-0.08489795944318902,0.2635972174877446,0.4456598162651062,1.4564050436019895,0.386769026517868,0.0366928912699222,0.0369855910539627,0.3055062890052795
1749026838.5868268,-0.11332964317804353,-2.0330833904271857,-0.5077721589811462,1.402160311958382,-0.6600701259944681,0.8506395100814318,0.12372511653055682,0.0946018968651069,-0.08183366026126208,0.20534842459511646,-0.08515949441595304,0.2651315719073235,0.4251406490802765,1.4494014978408811,0.3836113512516022,0.0205920040607452,0.0113694481551647,0.2843195796012878
1749026838.5868635,-0.1130801977268736,-2.03289369744046,-0.5079422864276707,1.4025839505324598,-0.6602403881781647,0.851174523258018,0.12435311860351149,0.09512576963952275,-0.0822103311028616,0.20590365233136812,-0.08553123983943461,0.26661825862404465,0.3554543852806091,1.4548135995864868,0.4015877246856689,0.0217196494340896,0.0018401537090539,0.2333997189998626
1749026838.5869014,-0.11282910825961522,-2.0327030858075923,-0.5081129033924924,1.4030083474786628,-0.6604113825060816,0.8517112471106464,0.1249818433124067,0.09565698842897229,-0.08252342372370626,0.20660072788397532,-0.08603532346831724,0.26807259416479357,0.4433011412620544,1.4398201704025269,0.4126859009265899,0.0469972528517246,-0.0097362790256738,0.2525187134742737
1749026838.5869386,-0.1125764507054344,-2.0325116303956787,-0.5082835860729478,1.4034334075982642,-0.6605833694606347,0.8522493137586378,0.12561543368476205,0.0961971026586581,-0.08277494846934423,0.20747494100413638,-0.0866817154606792,0.26951285452226503,0.3947839438915252,1.4695590734481812,0.4138551652431488,0.0607572495937347,0.0017700009047985,0.2483081370592117
1749026838.586975,-0.11232236216366016,-2.032319398357265,-0.5084539248510082,1.403859045237307,-0.6607565966648002,0.8527884298036426,0.12625689171091917,0.09674625130415268,-0.08297020544805102,0.20854933878082904,-0.08746618367335189,0.27095668563875447,0.4274017512798309,1.4471195936203003,0.4115026593208313,0.0756334736943245,-0.0236743986606597,0.3041054606437683
1749026838.5870123,-0.11206702589953174,-2.032126450154678,-0.5086235543386555,1.404285181399365,-0.6609312702396096,0.8533283949720991,0.1269078414198564,0.09730335943930278,-0.08311787956565757,0.20983244390435568,-0.08836963328617355,0.27241742166437793,0.3994580805301666,1.469476342201233,0.4213616251945495,0.0764524042606353,-0.0296178087592124,0.3194754421710968
1749026838.5877442,-0.111810646452916,-2.0319328394766982,-0.5087921834423186,1.4047117499579125,-0.6611075325456685,0.8538691180718554,0.12756848507388172,0.09786655864664474,-0.0832298277595691,0.21131756877407334,-0.08935906492720548,0.2739011692284634,0.4818044602870941,1.4460675716400146,0.4164073765277862,0.1224348023533821,-0.042674109339714,0.3420242071151733
1749026838.5897253,-0.11155341735620126,-2.0317386095719647,-0.5089596231798166,1.4051387145166565,-0.6612854489563215,0.854410630744733,0.12823779512298353,0.09843368943059319,-0.08332053704999286,0.21298387321798545,-0.09039020113829849,0.2754053880298837,0.4280406534671783,1.451289176940918,0.4204623103141784,0.0954339504241943,-0.0040664821863174,0.3178452551364898
1749026838.630297,-0.111295485244249,-2.0315437842712245,-0.509125809303272,1.4055660957002343,-0.6614650045691686,0.8549530990569228,0.12891394338200965,0.09900272860848704,-0.08340627331752744,0.21479904749724785,-0.09141158846458856,0.2769193170059268,0.447206974029541,1.412093997001648,0.4141273200511932,0.1116084903478622,-0.0139040201902389,0.2957037389278412
1749026838.6303425,-0.11103691525755617,-2.0313483536156642,-0.5092908163899119,1.4059940063211516,-0.6616461102096114,0.8554968323425494,0.12959490577637384,0.09957201965826872,-0.08350397083610837,0.21672324762902473,-0.09236974404164183,0.2784261184150354,0.4447850584983825,1.4554582834243774,0.4364777505397796,0.0760847330093383,-0.0106755346059799,0.2953601777553558
1749026838.630383,-0.11077766328028218,-2.031152256139611,-0.5094548603394821,1.4064226890567462,-0.6618286162249071,0.8560422879357529,0.13027911289055583,0.10014026093609313,-0.08362994476558343,0.21871371108241347,-0.09321476128331307,0.27990622810340465,0.4229585230350494,1.4658077955245972,0.3931299448013305,0.0923956632614135,0.0075528472661972,0.2838180363178253
1749026838.6304228,-0.11051756043447551,-2.030955361918314,-0.5096182872357397,1.4068525486902346,-0.6620123322499125,0.8565900693103147,0.13096598198493434,0.10070629739301959,-0.08379855420032639,0.22072937532590284,-0.09390574676801078,0.28134121417931784,0.449527233839035,1.4858132600784302,0.3948462009429931,0.0689844489097595,0.0152498111128807,0.3284664154052734
1749026838.6304617,-0.1102563143383745,-2.030757461829534,-0.5097815481777019,1.407284169610329,-0.662197050842024,0.8571409137237551,0.13165618843657184,0.10126883429389728,-0.08402098834414229,0.22273482941466294,-0.09441549072063682,0.28271743865759136,0.4063168466091156,1.4649163484573364,0.3917853534221649,0.0496872067451477,0.0385573729872703,0.2998183965682983
1749026838.6305025,-0.10999352982216752,-2.0305582684378503,-0.5099451616803696,1.4077183097326345,-0.662382572420704,0.8576956643082517,0.132351603974121,0.10182622815631998,-0.08430436366541433,0.22470305128793427,-0.09473383860359604,0.28402890483490184,0.4115988612174988,1.4667998552322388,0.3807489573955536,0.0396579056978225,0.0278573893010616,0.2699844539165497
1749026838.630541,-0.10972874898274278,-2.0303574321771376,-0.5101096670895229,1.4081558644522019,-0.662568728487971,0.8582552216318691,0.1330549227696552,0.1023765024812384,-0.08465128827895567,0.22661661036312863,-0.09486934297471737,0.28527880995663113,0.4373378157615661,1.481726050376892,0.3783602714538574,0.0347883105278015,0.0135164037346839,0.2628332674503326
1749026838.6305904,-0.1094615069711803,-2.0301545733920356,-0.5102755737639062,1.4085977986783718,-0.6627553999575723,0.8588204720807616,0.1337690883723368,0.10291767854518159,-0.08505997771814071,0.2284673155824479,-0.09484895367281503,0.2864795269101778,0.4595877528190613,1.49360990524292,0.3831844329833984,0.0519891306757926,0.0359975397586822,0.2559936046600342
1749026838.6306376,-0.10919139631654584,-2.0299493269876114,-0.5104433116301352,1.40904505142978,-0.6629425279223462,0.8593921957254843,0.13449669352618257,0.10344841386153873,-0.08552491674753611,0.23025459983446656,-0.09471572643307119,0.2876510367041533,0.422336995601654,1.499241590499878,0.3621729612350464,0.0804958045482635,0.0362645089626312,0.290958434343338
1749026838.6306815,-0.10891812934249803,-2.029741392539728,-0.5106131894504431,1.4094984254922494,-0.6631301156833092,0.8599709645962478,0.13523953036895245,0.1039688349090067,-0.08603798040785926,0.2319831668159938,-0.09452474613507497,0.2888181859114971,0.422336995601654,1.499241590499878,0.3621729612350464,0.0804958045482635,0.0362645089626312,0.290958434343338
1749026838.6307209,-0.10864158604306785,-2.029530579588821,-0.510785367676874,1.4099584824555182,-0.6633182232404347,0.8605570514252552,0.13599842056149414,0.10448137256734723,-0.08658986416164696,0.2336605093369668,-0.09433764657417448,0.29000742818359293,0.4050222039222717,1.4651504755020142,0.3911698460578918,0.0782631933689117,0.0449771583080291,0.3041692078113556
1749026838.6307583,-0.10836183544553654,-2.029316837203889,-0.5109598520539073,1.4104254668359368,-0.6635069575161352,0.8611503735697387,0.1367733633665596,0.10499137769706006,-0.0871716218503008,0.23529480794071994,-0.09421626676815055,0.29124378611598906,0.467281699180603,1.463359236717224,0.3699681758880615,0.0685736313462257,0.0185032337903976,0.3355597257614136
1749026838.6307957,-0.10807912397219024,-2.0291002604253183,-0.5111365108051724,1.410899277482921,-0.6636964616382427,0.8617504910234092,0.13756392267655834,0.10550731008646605,-0.08777607394599339,0.23689347503018804,-0.09421611406724292,0.2925485897344537,0.4058360159397125,1.45883309841156,0.4017332196235657,0.0487359911203384,0.0198181867599487,0.3278196454048157
1749026838.6308334,-0.10779383367446847,-2.028881073055414,-0.5113151125443471,1.4113794907739983,-0.6638869044475023,0.8623566615279797,0.1383696697148593,0.10604034672229304,-0.08839884850438194,0.2384623286275221,-0.09438038546056118,0.29393820830434686,0.4231210052967071,1.4657378196716309,0.3582074344158172,0.0650672540068626,-0.027277261018753,0.3179791271686554
1749026838.6308713,-0.10750642171204487,-2.0286595928393516,-0.5114953766005115,1.4118654256736296,-0.6640784691188002,0.862967938743449,0.1391904550055904,0.10660334156695954,-0.08903886788276663,0.24000518995543016,-0.09473529147485547,0.2954236710825639,0.4368800222873688,1.4736708402633667,0.3855438828468323,0.0632315427064895,-0.0308215320110321,0.3214400708675384
1749026838.630912,-0.10721735570057866,-2.028436188179676,-0.5116770249930696,1.4123562330279429,-0.6642713394806279,0.8635832905037273,0.14002633331584796,0.10720919348763461,-0.08969818582222347,0.24152367617129294,-0.0952872977692455,0.2970108978165777,0.3272895216941833,1.4636852741241455,0.398482084274292,0.0595265477895736,-0.0009055864065885,0.3265506029129028
1749026838.630955,-0.10692705739596782,-2.028211234998988,-0.5118598262905012,1.4128509914602678,-0.664465683999657,0.864201714854846,0.14087711007660042,0.10786883240667049,-0.09038119193282419,0.24301707896838123,-0.09602265541002641,0.29870123992550457,0.3128195405006408,1.4706411361694336,0.3731890320777893,0.023297481238842,-0.0108769908547401,0.2786482870578766
1749026838.630993,-0.10663586236476202,-2.02798507995724,-0.5120436246462898,1.413348796184628,-0.6646616388078348,0.864822337538095,0.141741676441722,0.10858917665536987,-0.09109331821253011,0.2444823825932032,-0.0969092933352102,0.3004920982265136,0.4716054797172546,1.5578776597976685,0.3390274941921234,0.0780103504657745,-0.0391366705298423,0.3181756138801574
1749026838.6310303,-0.10634399830003659,-2.0277580134233673,-0.5122283509935847,1.4138488317282645,-0.6648592918295668,0.8654444817935047,0.14261745852236782,0.10937148868493299,-0.09183948421027756,0.24591457411766954,-0.09790086364511578,0.3023774649549059,0.4838540554046631,1.549034595489502,0.3425964713096618,0.0638560578227043,-0.0305937603116035,0.3029148578643799
1749026838.631067,-0.10605158077270331,-2.027530253135723,-0.5124140169357467,1.414350423751658,-0.6650586702881052,0.8660677077353471,0.14350031369211053,0.11021051323484661,-0.09262257086488584,0.24730737112035311,-0.09894247846668168,0.3043483096575156,0.4484999179840088,1.514550805091858,0.3584142923355102,0.0622146278619766,-0.0227998048067092,0.2929805815219879
1749026838.6317403,-0.10575862291355213,-2.0273019377646886,-0.5126006948728701,1.414853068573517,-0.665259733749876,0.8666918230002458,0.14438502746030402,0.11109461754510729,-0.0934421944408428,0.24865435085009235,-0.0999774429553249,0.30639279354535043,0.3899639844894409,1.5153446197509766,0.3508122563362121,0.0584297403693199,0.012528657913208,0.3208163380622864
1749026838.6337032,-0.10546505467266849,-2.0270731287254296,-0.5127884899335836,1.4153564415696473,-0.6654623742850592,0.8673168686860023,0.1452662899695758,0.1120069244004544,-0.09429397410625259,0.24995029828466583,-0.10095410751756242,0.3084963670344826,0.401969850063324,1.4835238456726074,0.3592845797538757,0.0308132730424404,-0.0175533816218376,0.3220761120319366
1749026838.67428,-0.10517074748777645,-2.026843818314951,-0.5129775099610622,1.4158603874229154,-0.6656664245254671,0.8679430854922057,0.146139815850893,0.11292722137833161,-0.09516938978369577,0.25119249831869456,-0.10183192163782473,0.3106418813788149,0.4470639228820801,1.4824302196502686,0.3418096303939819,0.0639948323369026,0.0103517845273017,0.3405981659889221
1749026838.6743264,-0.10487554092852946,-2.0266139421937845,-0.5131678391316322,1.416364896462492,-0.6658716737366446,0.8685708653121436,0.14700321440523245,0.11383429966515676,-0.09605624353851762,0.25238171993890685,-0.10258591816387952,0.3128098994563578,0.3840453624725342,1.457596778869629,0.3260045349597931,0.0419875904917717,0.002585019916296,0.3341725766658783
1749026838.6743827,-0.10457926863478403,-2.0263833943173077,-0.5133595192243259,1.4168700721632055,-0.6660778913555254,0.8692006937603132,0.1478563194436257,0.1147083308570352,-0.09693967312918714,0.2535227452257444,-0.10320913371383698,0.31497937615500143,0.4261906147003174,1.4219772815704346,0.3606968224048614,0.0277074426412582,0.0117813311517238,0.2968911528587341
1749026838.6744254,-0.10428178123571442,-2.0261520428014212,-0.5135525406620168,1.4173760951929206,-0.666284856367891,0.8698330894402905,0.14870089229039057,0.11553291567426105,-0.09780360671648301,0.25462441767466587,-0.10371277385152067,0.3171287781559966,0.415162056684494,1.4412330389022827,0.3443878591060638,0.0324715077877044,0.0079810097813606,0.3242392241954803
1749026838.6744645,-0.10398296398103037,-2.025919745810173,-0.5137468435660634,1.4178831890473487,-0.6664923894009153,0.8704685462296711,0.1495398398134282,0.11629652215596548,-0.09863248214693186,0.25569926787722175,-0.10412419586539313,0.319237570377845,0.4474425315856933,1.4178903102874756,0.3841984570026397,0.0462303757667541,0.0024224929511547,0.3402796685695648
1749026838.6745036,-0.10368274700925033,-2.025686366947985,-0.5139423274331335,1.4183915913232024,-0.6667003830660394,0.871107485097295,0.15037625189861997,0.11699316148636539,-0.09941299226778404,0.25676280280180314,-0.10448299516432481,0.32128788161604055,0.4365606307983398,1.4618104696273804,0.3616903424263,0.056546151638031,0.0062905550003051,0.3466336131095886
1749026838.6745417,-0.1033811069394261,-2.025451789498326,-0.5141388668404815,1.418901533278041,-0.6669088255708919,0.8717502211576068,0.1512125908029988,0.11762230299879478,-0.10013558817359015,0.2578325385136439,-0.10483564802319616,0.3232661058137998,0.4413427114486694,1.442867875099182,0.3841071426868438,0.0397718623280525,0.0187331289052963,0.3121012449264526
1749026838.674585,-0.10307805977041709,-2.0252159283323894,-0.5143363299671746,1.4194132288282015,-0.6671178130969706,0.8723969492965654,0.1520502608159181,0.1181881679987024,-0.10079550080376613,0.2589268448223809,-0.10522928852308042,0.325164181602749,0.3573975563049316,1.4681607484817505,0.3827800750732422,0.0510949790477752,0.0185787566006183,0.3079202771186828
1749026838.6746254,-0.10277364652066907,-2.024978737912547,-0.5145345968040638,1.4199268728204526,-0.6673275476362366,0.873047748189849,0.1528896174320037,0.11869863029928088,-0.10139312974639426,0.2600636649335313,-0.10570529049092078,0.326980310148376,0.4320718050003052,1.4893604516983032,0.3888187408447265,0.0611830204725265,-0.0018851803615689,0.2851883769035339
1749026838.6746628,-0.10246791426592189,-2.0247402149367235,-0.5147335747012757,1.4204426473488125,-0.6675383186683239,0.8737025991754369,0.15373031736718532,0.11916397427984136,-0.10193377526512439,0.2612591728276889,-0.10629339028119539,0.3287189397644218,0.4134122431278229,1.4865676164627075,0.3550001382827759,0.0312529951333999,0.001459065824747,0.2821440994739532
1749026838.6747007,-0.10216089597257867,-2.0245003948080353,-0.5149332100737078,1.4209607340016492,-0.6677504692805847,0.8743614146915913,0.1545718156934774,0.1195957257217997,-0.10242682135189778,0.2625264424487768,-0.10700710273811394,0.3303899779989436,0.4292915463447571,1.4915721416473389,0.3780398070812225,0.0639551728963851,-0.0171006619930267,0.326126754283905
1749026838.6747386,-0.10185259251907032,-2.024259341972396,-0.5151334961275761,1.4214813292588444,-0.6679643501196061,0.8750240713011554,0.15541380279701345,0.1200056980760711,-0.1028845714818583,0.26387423293252144,-0.10784110916159165,0.3320073592531527,0.4035015702247619,1.453870415687561,0.3589352667331695,0.0734250247478485,-0.059120088815689,0.3243080377578735
1749026838.6747763,-0.10154295947948079,-2.0240171350238425,-0.5153344769452437,1.4220046599967722,-0.6681802675376942,0.8756904436575638,0.15625643038562936,0.12040530898409398,-0.10332095917457235,0.26530603019313165,-0.10877110298485507,0.3335872433739848,0.4118927717208862,1.415430784225464,0.3942528367042541,0.0874291881918907,-0.0414783954620361,0.3193102478981018
1749026838.674814,-0.10123190008981581,-2.023773848335907,-0.515536248117739,1.4225309962684454,-0.6683984345354881,0.8763604366517797,0.1571002768320549,0.12080513950401747,-0.10375030336016056,0.2668194966719343,-0.10975627800128472,0.33514619799551654,0.4278958439826965,1.4432411193847656,0.3829932510852813,0.0997875109314918,-0.0617578029632568,0.3213291764259338
1749026838.6748514,-0.10091926498901849,-2.023529532889307,-0.5157389536467413,1.4230606590079549,-0.6686189335481867,0.877034012957995,0.15794611783021886,0.12121465850656901,-0.10418619599583215,0.2684064426328732,-0.11074428368254613,0.33669969768564006,0.4777797162532806,1.4475247859954834,0.3825696408748626,0.0600927323102951,-0.0822881460189819,0.3299207389354706
1749026838.674889,-0.1006048588538212,-2.0232841997506728,-0.5159427784775792,1.423594020720089,-0.6688416983615305,0.8777112129077734,0.15879465545906304,0.12164203492866775,-0.10464054581163232,0.27005334128051667,-0.11167810429659898,0.33826116134886686,0.4282252192497253,1.390362024307251,0.3835221529006958,0.0618533827364444,-0.0308630615472793,0.3382712006568908
1749026838.6749277,-0.10028845340336778,-2.023037809809586,-0.5161479361549043,1.42413149740893,-0.6690665190072504,0.8783921637177396,0.15964636803396398,0.12209399627515734,-0.10512278097265827,0.2717422921714321,-0.11250398607464528,0.33984158353296906,0.3851268887519836,1.4566346406936646,0.3689109683036804,0.0511389672756195,-0.0026730317622423,0.3180986642837524
1749026838.6749656,-0.0999698053226892,-2.022790272452587,-0.5163546518187456,1.4246735302425324,-0.6692930693217676,0.8790770756432545,0.16050155979391212,0.12257572947261156,-0.10563922768739419,0.2734522446053637,-0.11317929984302141,0.34144964951701473,0.425057590007782,1.4526957273483276,0.3739914298057556,0.0433328449726104,-0.0202137399464845,0.3432322740554809
1749026838.6750023,-0.0996486770244792,-2.02254145400231,-0.5165631417139335,1.4252205561782214,-0.6695209526777086,0.8797662235126558,0.16136056138201474,0.1230908408496411,-0.10619270630947175,0.2751602748099975,-0.11367916323031815,0.34309210519517525,0.4523347914218902,1.452376365661621,0.3785238564014435,0.0799630880355835,-0.0024590566754341,0.2998654544353485
1749026838.6750405,-0.09932485826531831,-2.0222911947544717,-0.5167735910636969,1.4257729681247246,-0.6697497578262034,0.8804599134667825,0.16222394002032314,0.12364139448602622,-0.10678239515464777,0.2768427767131275,-0.11400079229403541,0.344774108380499,0.4068641066551208,1.4976284503936768,0.3698972463607788,0.0632364675402641,0.013402447104454,0.2836802899837494
1749026838.675726,-0.09899818717188821,-2.022039332058903,-0.5169861324571232,1.4263310669896458,-0.669979114733299,0.88115843678679,0.163092572376068,0.12422803445775009,-0.10740399425225183,0.27847653548667184,-0.11416486670567134,0.3464993290770987,0.4152063429355621,1.4789040088653564,0.3658274114131927,0.0769802778959274,0.0260068476200103,0.3194668591022491
1749026838.6777077,-0.09866856968622047,-2.021785726270927,-0.5172008270528559,1.4268950098899367,-0.6702087406080183,0.8818620151980402,0.16396750292092907,0.12485017027752329,-0.1080501848683875,0.2800397421706249,-0.11421360744233364,0.34826968473247805,0.4596323370933532,1.445845365524292,0.3548534214496612,0.0768069326877594,0.0493139922618866,0.3450564444065094
1749026838.7185636,-0.0983359965254621,-2.021530286212237,-0.5174176510001011,1.4274647606359285,-0.6704384689080273,0.8825707443370244,0.16484960878376953,0.12550617546847548,-0.10871134136624017,0.2815130277726977,-0.11420573363753574,0.35008475388330756,0.4465051889419555,1.4631694555282593,0.3995718359947204,0.0681948140263557,0.0533601641654968,0.3487454652786255
1749026838.7186458,-0.09800055638033711,-2.021272990735456,-0.517636489358988,1.4280400499015329,-0.6706682579190084,0.8832845435672829,0.16573916988609227,0.1261935321516436,-0.10937642158819767,0.2828805447225404,-0.11420894176995389,0.3519410433538437,0.4163394868373871,1.3979756832122805,0.3622213006019592,0.0515260696411132,0.0167082548141479,0.3024775683879852
1749026838.7187195,-0.09766244337139032,-2.021013903112462,-0.5178571392679767,1.428620352719284,-0.6708981794793916,0.8840031207970384,0.16663547146868815,0.1269088668208409,-0.11003394710899152,0.2841310441803866,-0.11429096401999768,0.35383133917428045,0.4466965198516845,1.4570412635803225,0.3846402168273926,0.0751322880387306,-0.0165920555591583,0.2895562946796417
1749026838.718791,-0.09732195621455846,-2.02075317545221,-0.518079323104008,1.4292048898869114,-0.6711283919690447,0.8847259604320196,0.16753654752088099,0.12764786856937424,-0.11067298534566213,0.2852588328054029,-0.11451052152126616,0.35574434949527806,0.4697791934013366,1.444164514541626,0.4028345942497253,0.0170630291104316,-0.0336778163909912,0.3234617412090301
1749026838.7188623,-0.09697948665283751,-2.0204910413426624,-0.5183027110828794,1.429792657784455,-0.6713591042663531,0.8854523409974736,0.16843913394368057,0.12840514507937337,-0.11128405380345299,0.28626446210950623,-0.11490951805601596,0.357664789762824,0.4607932567596435,1.4482545852661133,0.3933023512363434,0.0684310346841812,-0.0313225537538528,0.3309278488159179
1749026838.718933,-0.09663549572017335,-2.0202277964257496,-0.518526951491837,1.4303824881493359,-0.6715905384233942,0.8861813857897992,0.1693388581545651,0.1291741284283167,-0.11185987661595478,0.2871550189607328,-0.11550760629218457,0.35957400368140063,0.3771707415580749,1.4693313837051392,0.3840467035770416,0.0354008674621582,-0.052280381321907,0.3151634335517883
1749026838.719004,-0.0962904782839498,-2.019963768488789,-0.5187517057685762,1.430973135388184,-0.6718228981312695,0.8869121448247128,0.17023064675622016,0.12994716847472038,-0.11239593786949897,0.287943955077128,-0.11629986210447402,0.3614511599233263,0.4833529591560364,1.5110923051834106,0.3783335387706756,0.0456724651157856,-0.0633859634399414,0.2917237281799316
1749026838.719074,-0.09594491891649913,-2.019699280590435,-0.5189766848060507,1.4315633839712412,-0.6720563479129533,0.8876436997939521,0.17110928905126524,0.130715927249414,-0.11289079597508903,0.28865049485900235,-0.11725781650491124,0.3632749867271373,0.4896394610404968,1.5015631914138794,0.3995397388935089,0.0571520030498504,-0.0673052221536636,0.340476244688034
1749026838.7191436,-0.09559924506195604,-2.0194346124851243,-0.5192016818698321,1.4321521630030378,-0.672291004780799,0.8883752768149187,0.17197007082880555,0.13147210546406304,-0.11334613973816707,0.2892987447043478,-0.11833359276933776,0.36502588912770056,0.4196275472640991,1.4003616571426392,0.3913522660732269,0.082446850836277,-0.0342947542667388,0.3145139217376709
1749026838.7192128,-0.09525378555770171,-2.019169966760824,-0.5194265966711025,1.4327386511089766,-0.6725269406187023,0.8891063465235152,0.17280939666212475,0.13220840900719924,-0.11376657685320321,0.28991665887294166,-0.11946643726286767,0.3666881717676756,0.4196275472640991,1.4003616571426392,0.3913522660732269,0.082446850836277,-0.0342947542667388,0.3145139217376709
1749026838.7192829,-0.09490874200381787,-2.0189054456981017,-0.5196514457257772,1.4333223553617553,-0.6727641913411463,0.8898366914301102,0.17362533291661722,0.13291955201616004,-0.11415916495278951,0.2905349963671211,-0.12059059337066097,0.3682520320397539,0.4568303227424621,1.4846327304840088,0.361932098865509,0.0721499323844909,-0.0326219163835048,0.2915702760219574
1749026838.719352,-0.09456417643904069,-2.0186410421901706,-0.5198763571087102,1.4339031545391336,-0.6730027690821695,0.8905664292555497,0.17441801338026805,0.13360305778669737,-0.11453273684658617,0.29118633804062233,-0.12164331988942634,0.36971503060952443,0.4342656433582306,1.4238934516906738,0.372747004032135,0.0649934038519859,-0.0144186383113265,0.3005456626415252
1749026838.719421,-0.0942200134552446,-2.0183766442056528,-0.520101551917899,1.4344813062857091,-0.6732426753325517,0.8912959944579834,0.175189853635376,0.1342596738777685,-0.11489711569953573,0.29190413513377145,-0.12257191189746204,0.3710828633317672,0.3878915905952453,1.4325168132781982,0.3681426644325256,0.0388955250382423,0.0014088787138462,0.3394814729690552
1749026838.7194896,-0.09387605190100014,-2.018112049490923,-0.5203273175803944,1.4350574240877398,-0.6734839138546083,0.8920260898193523,0.17594552073285852,0.13489331137339888,-0.11526232281360708,0.29272166828025703,-0.12333880953940522,0.372369391905978,0.4270068407058716,1.4278987646102903,0.3805901408195495,0.069251075387001,0.0312741473317146,0.3571380972862243
1749026838.71954,-0.09353198192711445,-2.0178469866257074,-0.5205539782277602,1.4356324311736708,-0.6737265014682845,0.892757621292432,0.17669161390487137,0.13551049699254616,-0.11563783607598224,0.29367076322780916,-0.12392424009855095,0.37359598790854476,0.4585925936698913,1.4588894844055176,0.382610559463501,0.0899532213807106,0.0184469483792781,0.3469012975692749
1749026838.719579,-0.09318740549469914,-2.0175811395531027,-0.5207818657161691,1.4362074967092826,-0.6739704735321888,0.8934916250773006,0.1774360522509693,0.1361193888767055,-0.11603189394893212,0.29478015452258627,-0.12432628654964473,0.37479027622235905,0.4163064062595367,1.4080531597137451,0.4020493924617767,0.0536894537508487,0.013815764337778,0.3099052309989929
1749026838.719641,-0.0928418604947568,-2.0173141741705773,-0.5210112931143993,1.4367839575967962,-0.6742158806870244,0.8942291909092236,0.17818723546658125,0.13672847644917643,-0.1164508099472833,0.2960734784146699,-0.12455873100733242,0.3759843405818779,0.4308087229728699,1.463168740272522,0.3936936259269714,0.063023567199707,-0.0021202936768531,0.3248571753501892
1749026838.71971,-0.09249484952377732,-2.017045766515986,-0.521242531399578,1.4373632280401503,-0.6744627749116358,0.8949713824859625,0.17895310709632442,0.1373451643933674,-0.11689829170712303,0.2975669740464902,-0.12464737525924009,0.37721243358935247,0.3897192776203155,1.4483612775802612,0.3662600815296173,0.0532290041446685,0.0040430203080177,0.3197780251502991
