nimar13/UR3e_dataset_trayectorias/trayectorias_ejecutadas_filtradas/jtraj/trayectoria_071_result_filtrado.csv
timestamp,q1,q2,q3,q4,q5,q6,qd1,qd2,qd3,qd4,qd5,qd6,tau1,tau2,tau3,tau4,tau5,tau6
1749027174.8742807,4.254607291123197,-1.2258519342934988,-1.5400050919673145,-4.120340251381977,4.38880229060356,-2.630814743287017,0.04706925454406102,0.0012656367662746831,-0.03518176682902034,-0.045503328740156807,0.031697096256764846,-0.029299786217456495,0.2153725028038025,0.6106027364730835,0.7686471939086914,-0.1138576194643974,0.1449742019176483,-0.1511373519897461
1749027174.8743262,4.254685099044892,-1.2258516355940712,-1.5400598553215696,-4.120419956688785,4.388857458058155,-2.6308699408475626,0.044232236976490924,0.0011934144069210178,-0.032926135502404974,-0.04366602886569598,0.029794599174612125,-0.027633633942182944,0.2218861579895019,0.6077412962913513,0.7568802833557129,-0.1110624596476554,0.1405389010906219,-0.1476722657680511
1749027174.8743708,4.254761807216152,-1.225851196632395,-1.540114006674426,-4.120498951043319,4.3889118371495,-2.6309241757110957,0.041439101885277364,0.0011258044915894504,-0.030714887972864705,-0.04184053202756592,0.027926150513274052,-0.02598590135777866,0.2048387229442596,0.6038737297058105,0.7268103361129761,-0.1072717905044555,0.1409127861261367,-0.1324611604213714
1749027174.8744102,4.2548366041411745,-1.2258505381926605,-1.5401669943990905,-4.12057664570601,4.388964632531908,-2.630976599256053,0.0386998841434088,0.0010655983432647004,-0.028568517089433115,-0.04000227617368593,0.026100648349105315,-0.024357577332961393,0.2095154523849487,0.6090931296348572,0.7347221970558167,-0.1067808419466018,0.1475164741277694,-0.127171516418457
1749027174.8744478,4.2549087496615705,-1.2258496076246685,-1.540218305457951,-4.120652475198355,4.389015126551533,-2.63102646330243,0.03602221027040237,0.0010146027138273944,-0.02650174210783377,-0.038128223874901036,0.024323100149417482,-0.022748618902475447,0.2037626057863235,0.6085323691368103,0.7369643449783325,-0.0844748616218566,0.1566711813211441,-0.1345810294151306
1749027174.8744848,4.254977589023159,-1.2258483830454032,-1.5402674748581544,-4.120725895584794,4.38906270684536,-2.631073152424713,0.033411359344660226,0.0009733952347197898,-0.024522701030731817,-0.03619876999657693,0.02259444264247342,-0.021158261007883466,0.191741868853569,0.5992652773857117,0.7507038116455078,-0.1046604663133621,0.1515480428934097,-0.1374928504228592
1749027174.8745255,4.255042563216991,-1.2258468751864935,-1.5403140907046609,-4.120796381882604,4.389106883810225,-2.6311162009719453,0.03087031902211825,0.000941250218560115,-0.022632944533397082,-0.0341991049120164,0.020911794922269304,-0.019585282660178203,0.2291892021894455,0.6213923096656799,0.738857626914978,-0.0789167135953903,0.14878810942173,-0.1327601820230484
1749027174.8745637,4.255103215177493,-1.2258451262169625,-1.540357795993524,-4.12086342673027,4.389147297807773,-2.6311552958551667,0.028399860651399426,0.000916251656585022,-0.02082819597439818,-0.032120015009250866,0.019269168730835447,-0.01802826420511655,0.2101488709449768,0.6217437386512756,0.7272477746009827,-0.0731460005044937,0.1529313325881958,-0.1409662663936615
1749027174.874601,4.255159191806198,-1.2258432050760026,-1.5403982887298422,-4.12092654237366,4.389183717140507,-2.6311902683131896,0.02599867073253561,0.0008955828400344831,-0.01909974762506804,-0.029958177813706386,0.017658594873367548,-0.01648589527866134,0.2253071963787078,0.6166887283325195,0.7564013004302979,-0.063863456249237,0.1460003554821014,-0.1291284263134002
1749027174.8746383,4.255210242271208,-1.2258411992930076,-1.5404353217708635,-4.120985267155751,4.3892160286111555,-2.6312210786129446,0.02366358428874433,0.0008759518630812757,-0.01743630545778892,-0.02771605464375667,0.01607155906846069,-0.014957383897373895,0.2232956886291504,0.5966341495513916,0.7436483502388,-0.0702485144138336,0.1515075266361236,-0.1316993534564972
1749027174.8746786,4.255256213297318,-1.2258392038567913,-1.540468703390033,-4.121039176548243,4.389244222903954,-2.631247797247508,0.021389966250285237,0.0008540860097488496,-0.01582605172141483,-0.02540150518230878,0.014500586198393863,-0.01344297273877371,0.19727623462677,0.5776091814041138,0.7468296885490417,-0.0636187046766281,0.1445225477218628,-0.1420051902532577
1749027174.8747163,4.255297042070296,-1.2258373084004694,-1.5404982991483376,-4.121087897878398,4.389268377235365,-2.631270585138645,0.019172274557082675,0.0008272152228635743,-0.014258665289847839,-0.023027250445832315,0.012940776440632818,-0.0119445099524775,0.2132023572921753,0.583384096622467,0.7572219371795654,-0.0736983269453048,0.1248210743069648,-0.1378380358219146
1749027174.8747532,4.255332747086537,-1.2258355846580717,-1.5405240351582021,-4.121131127420731,4.3892886378530465,-2.6312896741380256,0.017004809960551922,0.0007934712687728222,-0.012727041440408359,-0.02061029069414333,0.01139108657385932,-0.01046597403353342,0.2167767882347107,0.568501889705658,0.7537928819656372,-0.054224282503128,0.131418764591217,-0.1284692287445068
1749027174.8747897,4.255363417078815,-1.2258340764195816,-1.5405459021959633,-4.121168648240097,4.389305204912736,-2.6313053481893194,0.014882617324063057,0.0007521517028499301,-0.011228494367015942,-0.018171338615175434,0.00985517309269705,-0.00901382851584168,0.2365113496780395,0.5768645405769348,0.7466084957122803,-0.0377722084522247,0.1405690312385559,-0.1147757992148399
1749027174.8748298,4.255389198266223,-1.2258327937578923,-1.5405639595409484,-4.121200346897861,4.389318321665095,-2.63131792506753,0.01280246285053596,0.0007038265273733487,-0.0097652985283837,-0.015734263764061465,0.008341670428460306,-0.0075970883925301,0.205524206161499,0.5790818333625793,0.7706319689750671,-0.0392754524946212,0.1264015138149261,-0.0996821224689483
1749027174.8748684,4.255410280646144,-1.225831712303596,-1.5405783371101978,-4.121226226944052,4.389328268508876,-2.631327738610188,0.010763779451985152,0.0006502912398979457,-0.008344513623277558,-0.0133254869355604,0.006863852435066824,-0.006227023941014348,0.2333564013242721,0.5768796801567078,0.7809550762176514,-0.0575500875711441,0.0953295677900314,-0.1109454184770584
1749027174.874905,4.255426884698327,-1.225830777279286,-1.5405892345274927,-4.121246417247753,4.389335360655141,-2.63133512169096,0.00876945213429739,0.0005943885205315708,-0.006977133195996639,-0.010973239905762915,0.005438703204991002,-0.004916508651294398,0.2293434888124466,0.5689239501953125,0.7891426086425781,-0.030031144618988,0.0771106332540512,-0.0996103137731552
1749027174.8749416,4.25543925034096,-1.225829911222772,-1.5405969161924182,-4.121261173710128,4.389339946701295,-2.6313403907738935,0.00682631414295419,0.0005397320280014605,-0.005676693936494723,-0.008706626936411523,0.004085502162574083,-0.00367911237829862,0.1685646623373031,0.5883178114891052,0.8078262805938721,-0.0161117315292358,0.0719744712114334,-0.0834031254053115
1749027174.8749795,4.255447629838824,-1.2258290239158636,-1.5406017020815235,-4.121270873559165,4.389342404969062,-2.6313438335334762,0.00494525501843266,0.0004903710617204458,-0.004457570479974638,-0.006554481229569164,0.0028241054487148846,-0.0025281080617608168,0.1289405226707458,0.5805321335792542,0.8313658237457275,0.0230722725391387,0.0436316281557083,-0.0630872994661331
1749027174.8750184,4.255452285535617,-1.2258280229777812,-1.540603954811232,-4.121276002082715,4.38934313507734,-2.631345701329106,0.003140906618311885,0.0004504355463783724,-0.003333235050460303,-0.0045440828460658585,0.0016731594623565814,-0.0014755689098445498,0.1289405226707458,0.5805321335792542,0.8313658237457275,0.0230722725391387,0.0436316281557083,-0.0630872994661331
1749027174.875743,4.255453492214164,-1.225826823829513,-1.5406040643075316,-4.121277132335388,4.389342543643569,-2.6313462078444885,0.0014309513313659216,0.0004237980797028616,-0.0023147561352374795,-0.0026998661038068017,0.0006484839607381756,-0.0005316794348575915,0.1427845656871795,0.5606874823570251,0.8237541913986206,0.0087533593177795,0.031868353486061,-0.0570078343152999
1749027174.8777056,4.255451543047093,-1.2258253581146845,-1.540602431951605,-4.121274899054136,4.389341024969597,-2.6313455338766785,-0.00016484874715785419,0.0004137848591148338,-0.0014097377923168498,-0.00104226414319062,-0.0002381963149008643,0.00029570720258920445,0.1051609516143798,0.5911627411842346,0.8760603666305542,0.0153369903564453,0.0242536514997482,-0.0496821552515029
1749027174.9222894,4.255446757482684,-1.225823579962077,-1.5405994559204863,-4.121269968596481,4.389338939509273,-2.631343836612568,-0.0016257931926570296,0.000422961328183158,-0.0006217852314274909,0.0004131943678074747,-0.0009800839701220097,0.0010013215787819166,0.1051609516143798,0.5911627411842346,0.8760603666305542,0.0153369903564453,0.0242536514997482,-0.0496821552515029
1749027174.922335,4.2554394888560045,-1.2258214696360783,-1.5405955186461475,-4.121263007101753,4.389336593889196,-2.63134126059341,-0.002931468356073603,0.0004530120850767224,4.95331046466741e-05,0.0016564868557809663,-0.0015756974575358094,0.001582645212215883,0.1493715643882751,0.5815613269805908,0.886201798915863,0.062435932457447,-0.0078623294830322,-0.0401279777288436
1749027174.9223762,4.255430129264489,-1.2258190342252553,-1.5405909764071484,-4.121254649387451,4.389334225766469,-2.631337947476217,-0.004062992446857351,0.0005047279670561079,0.0006083355413592257,0.002683408597272323,-0.0020288450665740245,0.0020400890131291485,0.1036146134138107,0.5959818363189697,0.8838158845901489,0.0436686128377914,-0.000137448310852,-0.0532367452979087
1749027174.9224148,4.255419109689158,-1.2258163051549988,-1.540586150569381,-4.121245471363493,4.389331995438492,-2.6313340425207925,-0.005004228457663194,0.0005781056418159011,0.0010618285650793877,0.0034956309698483757,-0.002348212460951138,0.0023772198305815357,0.069446250796318,0.5587114095687866,0.9159679412841796,0.0521422177553176,-0.0039927661418914,-0.0319423303008079
1749027174.9224524,4.255406894323442,-1.2258133325276788,-1.5405813200230043,-4.121235968693416,4.389329984829678,-2.6313296968785216,-0.005742922396955758,0.0006725554970485899,0.001419589439163827,0.004100523717090004,-0.002546587434261006,0.002600989434997401,0.0719266459345817,0.6053869724273682,0.91237610578537,0.078682392835617,-0.024673581123352,-0.0387684926390647
1749027174.92249,4.2553939689874944,-1.2258101766234897,-1.5405767147176415,-4.121226543712313,4.389328203597058,-2.6313250657521796,-0.00627173443921681,0.000787200830425585,0.0016928241659685274,0.004510727109109243,-0.002639773660632145,0.0027218514488933005,0.0781195908784866,0.5791669487953186,0.9044529795646667,0.050695888698101,-0.0375934690237045,-0.0446956381201744
1749027174.9225276,4.2553808240767745,-1.225806897356678,-1.5405725105987527,-4.121217501233103,4.389326601371358,-2.6313203032012353,-0.006589125792253873,0.0009212338295327226,0.0018936485495931945,0.004743458581254332,-0.0026453063907125244,0.0027536255382418894,0.0809709578752517,0.5898258686065674,0.9170346856117249,0.0764722600579261,-0.0272458791732788,-0.0413671657443046
1749027174.9225647,4.255367932999617,-1.2258035430160934,-1.5405688264667956,-4.121209052241458,4.389325084507573,-2.631315554823223,-0.006700041792217333,0.0010742709322040691,0.0020344024976963093,0.004819579286787264,-0.0025811401504421587,0.0027129956959458987,0.0600939616560936,0.5771989226341248,0.9156361222267152,0.077139988541603,-0.0440673902630806,-0.0498240813612937
1749027174.9226017,4.255355727808575,-1.2258001400021301,-1.5405657232355718,-4.121201323177717,4.389323535446712,-2.6313109497760925,-0.0066163170371584396,0.0012466259732969117,0.0021269952414031145,0.004762500470059536,-0.00246449148202926,0.0026186029551045066,0.0617113970220088,0.5362364649772644,0.911454975605011,0.0946958810091018,-0.0595964640378952,-0.0275107845664024
1749027174.922639,4.25534457460203,-1.2257966852163036,-1.5405632058854861,-4.1211943680302605,4.389321833011055,-2.631306593618932,-0.006356740702303546,0.0014394079404276689,0.00218229171241366,0.00459704260653886,-0.0023109766170099437,0.0024897882089005893,0.0412825345993042,0.5490959882736206,0.9044316411018372,0.0974568575620651,-0.0581146702170372,-0.0215096548199653
1749027174.9226751,4.25533475180111,-1.2257931422014379,-1.5405612282676493,-4.121188180941726,4.389319872330975,-2.6313025632433744,-0.0059467486707568355,0.001654369784073818,0.0022095720973906905,0.004348359724053165,-0.0021341018381646998,0.0023451244886479876,0.0412825345993042,0.5490959882736206,0.9044316411018372,0.0974568575620651,-0.0581146702170372,-0.0215096548199653
1749027174.9227118,4.255326434169571,-1.2257894413642259,-1.5405597007995504,-4.1211827080569385,4.389317583127933,-2.6312989047658077,-0.0054177335024462245,0.0018934904997099811,0.002216112616331591,0.004041014830173159,-0.0019450760750884804,0.0022009220753681125,0.0433641225099563,0.5626717805862427,0.9245707392692566,0.1127736121416091,-0.0581818521022796,-0.0253379866480827
1749027174.922748,4.255319684430321,-1.2257854840503708,-1.5405585008594054,-4.121177858306279,4.38931494454646,-2.6312956347296934,-0.004805981168573566,0.0021583453846826953,0.0022069417608536995,0.003698251875848479,-0.0017528551800023544,0.002069885431763856,0.0476922839879989,0.5851322412490845,0.9435592889785768,0.0976245924830436,-0.0685281455516815,0.0016730353236198
1749027174.9227848,4.255314453087655,-1.2257811500370497,-1.5405574853200266,-4.121173513392053,4.389311994044979,-2.6312927445116796,-0.004151264728967722,0.0024493791457970873,0.002184823313210532,0.0033414670246349498,-0.0015643128852158726,0.0019600601045312535,0.0476922839879989,0.5851322412490845,0.9435592889785768,0.0976245924830436,-0.0685281455516815,0.0016730353236198
1749027174.922822,4.255310586228888,-1.225776307928481,-1.5405565043105602,-4.12116953744236,4.3893088278945145,-2.631290207581024,-0.0034951510030184333,0.002765223337204021,0.0021505017073749264,0.0029898495313491103,-0.0013844547110690149,0.0018741527851745881,0.0588587000966072,0.5935885906219482,0.9654316306114196,0.1034304350614547,-0.0558070763945579,-0.0136866047978401
1749027174.9228585,4.2553078406247735,-1.225770827665956,-1.5405554150800633,-4.121165786678284,4.389305592138487,-2.6312879890948793,-0.0028790989375410375,0.003102188796107525,0.0021032099586255665,0.0026601480598899283,-0.001216622486034048,0.0018092581625125,0.0553128458559513,0.6093286871910095,0.9660611152648926,0.1096044704318046,-0.0608291327953338,-0.016096144914627
1749027174.9228952,4.255305904849611,-1.225764593912451,-1.540554094749461,-4.121162119071658,4.389302465017614,-2.631286056933889,-0.002342446093652982,0.003454021435833769,0.002041385918746743,0.002366520476526632,-0.0010626603673535955,0.0017569915302042649,0.0473370850086212,0.5943265557289124,0.9624276161193848,0.1067160218954086,-0.0465717241168022,-0.0254130437970161
1749027174.9229314,4.255304424374399,-1.2257575188466796,-1.540552450720478,-4.121158403549565,4.389299633866293,-2.6312843927182303,-0.001920398873059481,0.003811950265558564,0.0019634832422699266,0.00212043655132907,-0.0009230260628795428,0.0017040060232049472,0.0518044084310531,0.5824289321899414,0.9473921656608582,0.1221854761242866,-0.0363168865442276,-0.0152585059404373
1749027174.922968,4.255303028205913,-1.2257495531869886,-1.5405504276325401,-4.121154528018032,4.38929727063197,-2.631283001036193,-0.0016421645858889398,0.004165000905611436,0.001868723810942445,0.0019306159518833698,-0.0007968387919117887,0.0016328613376456775,0.0438734404742717,0.5943794250488281,0.9664146304130554,0.1042819172143936,-0.0156708061695098,-0.0180027335882186
1749027174.9230044,4.255301354792589,-1.2257406948324172,-1.5405480101885862,-4.121150405342749,4.389295510356278,-2.631281915411931,-0.0015293813548398804,0.004500516143555937,0.0017576415688765907,0.001802994958489393,-0.0006818625208590608,0.0015231981892101525,0.0157779827713966,0.6281452775001526,0.9570775032043456,0.1155785918235778,-0.0233477130532264,-0.0347395911812782
1749027174.9230409,4.2552990750519655,-1.225730994870539,-1.5405452219107787,-4.121145976440187,4.389294436394501,-2.631281200280557,-0.0015950044391417827,0.00480482371987262,0.001632319348572837,0.001740726334720987,-0.0005744305071530331,0.0013531536597808918,0.0102527849376201,0.5969272255897522,0.9795302748680116,0.1071309596300125,0.0116033107042312,-0.0206524431705474
1749027174.9230769,4.255295910205164,-1.2257205605999324,-1.5405421206661816,-4.121141209955429,4.3892940749981495,-2.6312809490581004,-0.0018427863795385483,0.005064008964086676,0.0014962998056797824,0.0017442312363102226,-0.0004693250557689116,0.0011009277283093412,0.0102527849376201,0.5969272255897522,0.9795302748680116,0.1071309596300125,0.0116033107042312,-0.0206524431705474
1749027174.9236555,4.255291642171141,-1.2257095547895909,-1.5405387922699143,-4.121136098700278,4.389294400201972,-2.6312812791624096,-0.0022674377205806817,0.005264765968132316,0.001354224033336297,0.0018113388036508744,-0.0003596338326534116,0.0007463872738318993,-0.0110246501863002,0.6033907532691956,0.967780828475952,0.1194140464067459,0.0219647288322448,-0.0504836589097976
1749027174.9257329,4.255286115255977,-1.225698190119663,-1.5405353434424218,-4.1211306537617425,4.389295347937369,-2.6312823255501194,-0.0028554747368963527,0.005395301325483458,0.0012112920152626049,0.0019375608304120252,-0.0002366107230615799,0.00027257814963577636,-0.0210595838725566,0.5906071066856384,0.9465294480323792,0.1225517988204956,0.0334945619106292,-0.0866812020540237
1749027174.9662952,4.255279229638794,-1.2256867181195228,-1.540531894953972,-4.121124897462038,4.389296836467943,-2.6312842347103937,-0.0035866610972680123,0.005446247811583777,0.0010726466879492837,0.0021165468298486876,-8.957579302947799e-05,-0.0003329864081055855,-0.0026200525462627,0.5864507555961609,0.9632698893547058,0.1302956491708755,0.0346191525459289,-0.0928528755903244
1749027174.96634,4.255270928815682,-1.2256754129713852,-1.540528575240266,-4.121118856081021,4.389298789292833,-2.631287160738562,-0.004435856490280813,0.005411521152381273,0.0009427720426074607,0.0023407431334325616,9.410413465400984e-05,-0.0010773781741192157,-0.0260269232094287,0.5758736729621887,0.9607812166213988,0.1323306262493133,0.0644250214099884,-0.0969278514385223
1749027174.9663787,4.2552611840085826,-1.225664551710967,-1.540525514428894,-4.1211125528958,4.389301156964055,-2.631291264210853,-0.005375030330632029,0.005289033334459741,0.000824978291117118,0.0026022371991861193,0.0003289063678690524,-0.001961728065142432,-0.0281339064240455,0.537689208984375,0.9564165472984314,0.1395088732242584,0.0850897580385208,-0.1107132658362388
1749027174.966417,4.255249978633393,-1.2256543929974328,-1.540522838638565,-4.121106002016181,4.389303935499974,-2.6312967135978016,-0.006375204625773769,0.0050811683356004654,0.0007210282693778224,0.002893711639394075,0.0006308616709511172,-0.002981140474609683,-0.0439156144857406,0.5496606826782227,0.9401507377624512,0.1467669457197189,0.0980284959077835,-0.1125647500157356
1749027174.9664547,4.2552372955892785,-1.2256451566283775,-1.540520664431278,-4.121099203547067,4.389307180362166,-2.6313036881815064,-0.007408148080859999,0.004794932892320942,0.0006309386826154413,0.0032093791728736573,0.0010170258602821215,-0.004124983934967883,-0.0439156144857406,0.5496606826782227,0.9401507377624512,0.1467669457197189,0.0980284959077835,-0.1125647500157356
1749027174.9664917,4.255223109352323,-1.2256370057102444,-1.540519093317461,-4.121092140449905,4.3893110155923285,-2.6313123808874326,-0.008447721964370672,0.004441716977826635,0.0005529678055128549,0.0035457435137822364,0.0015046617941062974,-0.005377423884018502,-0.0395509600639343,0.5626546144485474,0.9325531125068665,0.1449665278196334,0.1044710278511047,-0.1216098293662071
1749027174.9665291,4.255207383509613,-1.2256300332014738,-1.540518206339072,-4.121084777022329,4.389315637769846,-2.6313229991746696,-0.009470849183439014,0.0040366378590168004,0.0004837803889147826,0.0039020472795748633,0.002110102565452993,-0.006718051532327146,-0.0356588661670684,0.5531894564628601,0.9194952845573424,0.1501069813966751,0.1302040517330169,-0.1493747532367706
1749027174.966566,4.255190072902851,-1.2256242543989564,-1.5405180590387977,-4.12107705840367,4.3893213144281,-2.631335762260865,-0.010458128931240797,0.003597497167811143,0.00041876371037586295,0.004280320357944554,0.0028473135198110668,-0.008122528378373356,-0.065787523984909,0.5367589592933655,0.9246360063552856,0.1572953909635543,0.1199115663766861,-0.1498023122549057
1749027174.9666028,4.255171128779071,-1.2256196065797784,-1.5405186774063868,-4.121068910319089,4.389328376572909,-2.6313508934852035,-0.011394147090239552,0.003143444867444409,0.0003524570451449298,0.004685007833260045,0.003726233122639975,-0.009563273165971962,-0.051314603537321,0.5658780336380005,0.90900856256485,0.1403289437294006,0.1365859657526016,-0.1827604621648788
1749027174.9666398,4.255150505540343,-1.225615956276469,-1.5405200554746945,-4.121060238579935,4.389337204847749,-2.6313686075106624,-0.012267540708951087,0.0026935023893533455,0.00027904940955865535,0.0051222136917281075,0.004751033426596628,-0.011010302732649293,-0.051314603537321,0.5658780336380005,0.90900856256485,0.1403289437294006,0.1365859657526016,-0.1827604621648788
1749027174.9666772,4.25512816829796,-1.2256131136564186,-1.5405221550550936,-4.121050928454787,4.389348208879648,-2.6313890932574795,-0.013070874233950858,0.0022651300345466344,0.0001928956260376206,0.005598637943988769,0.005918484743579248,-0.01243235423070182,-0.0769022405147552,0.5574072003364563,0.8963354229927063,0.1493862271308899,0.1623170524835586,-0.1786911934614181
1749027174.966714,4.255104100801259,-1.2256108524890181,-1.540524907726061,-4.1210408445816356,4.3893617998183485,-2.6314124946190267,-0.013800385618859585,0.0018730155938486233,8.89977422969735e-05,0.006120315178877795,0.007216626513982285,-0.0137983573283468,-0.1048724725842475,0.5442767143249512,0.8609709143638611,0.1673692911863327,0.1585163623094558,-0.17848901450634
1749027174.9667504,4.2550783132241685,-1.225608933486221,-1.5405282188055485,-4.121029832457783,4.389378357087368,-2.6314388917406806,-0.014455659636129091,0.0015282132392794364,-3.660179672904902e-05,0.006691286528723075,0.00862393553946546,-0.015079217369543336,-0.1048724725842475,0.5442767143249512,0.8609709143638611,0.1673692911863327,0.1585163623094558,-0.17848901450634
1749027174.9667876,4.255050848933507,-1.225607128496227,-1.5405319729166325,-4.121017722654462,4.389398191535281,-2.63146828583651,-0.015039275298298254,0.0012376935804880777,-0.00018656549214919333,0.007312353447383794,0.010109156127974443,-0.016249757733727783,-0.1011066064238548,0.5611618161201477,0.8627632260322571,0.1588836908340454,0.1909189969301223,-0.1862487196922302
1749027174.9668243,4.255021789031959,-1.2256052430865911,-1.5405360410108027,-4.121004338643273,4.389421508244284,-2.631500590290987,-0.015556455602949175,0.001004301033021588,-0.0003621857915449524,0.007980066731745361,0.011631933066038807,-0.017290594101110657,-0.0782365128397941,0.5743832588195801,0.8224006295204163,0.1669689565896988,0.1980971544981002,-0.1738256812095642
1749027174.966861,4.254991253406783,-1.2256031353386803,-1.5405402890709248,-4.1209895084796,4.389448373189628,-2.631535630155855,-0.01601473176969977,0.0008270669370969257,-0.0005635141094150222,0.008686094048412297,0.01314436496480696,-0.01818969349364554,-0.0951652824878692,0.5642029643058777,0.8246607184410095,0.1917663663625717,0.2063351720571518,-0.1583128571510315
1749027174.9668975,4.2549593972396895,-1.2256007290049793,-1.5405445887229152,-4.120973079726976,4.389478688574027,-2.6315731510625175,-0.016423627966640823,0.0007017980293768694,-0.0007896922265999898,0.00941708060058924,0.014593539835450888,-0.018943399481956658,-0.0951652824878692,0.5642029643058777,0.8246607184410095,0.1917663663625717,0.2063351720571518,-0.1583128571510315
1749027174.9669335,4.254926402361947,-1.2255980195473726,-1.5405488294742034,-4.120954936114173,4.389512181547637,-2.631612837148835,-0.01679437415220643,0.0006218464019278767,-0.0010394494814169155,0.010155070138420914,0.015924997316595982,-0.019556770812416403,-0.1326211988925933,0.5691255331039429,0.8222412467002869,0.1822012662887573,0.2036841511726379,-0.1566946804523468
1749027174.9669695,4.25489246358278,-1.2255950721984252,-1.5405529315426683,-4.1209350136873795,4.389548409797669,-2.6316543360951625,-0.017139655452093405,0.0005789658995559369,-0.0013116904661751312,0.010878491402618951,0.017086890063711484,-0.02004317790663873,-0.1229677647352218,0.5555605888366699,0.8100715279579163,0.1852643191814422,0.2098874300718307,-0.1489576399326324
1749027174.967006,4.254857771206573,-1.2255920121575337,-1.5405568576885313,-4.120913313910397,4.3895867851937505,-2.631697288090431,-0.01747339663596822,0.0005641691097970634,-0.0016060680530186752,0.011563646499031311,0.018034435553239987,-0.0204232149977126,-0.120011419057846,0.5527009963989258,0.7948966026306152,0.2016953974962234,0.1834412962198257,-0.1659378111362457
1749027174.9677,4.2548224918775155,-1.225589008070822,-1.5405606223934558,-4.120889911447427,4.3896266138708775,-2.631741354893916,-0.01781055754279803,0.0005685157913739539,-0.001923430733919131,0.012186574627573226,0.018734122587157703,-0.02072308577962964,-0.1301786601543426,0.5665661096572876,0.7665202617645264,0.1958865523338318,0.1712202578783035,-0.1650420278310775
1749027174.969725,4.254786750081383,-1.2255862506659307,-1.5405642971106366,-4.120864955165598,4.389667148656039,-2.631786245350721,-0.018166889895334257,0.0005837833362730186,-0.002266056215174812,0.012725118405120117,0.019167117245313444,-0.020972678289636226,-0.1259524971246719,0.5711340308189392,0.7613219022750854,0.2112860828638076,0.1684332638978958,-0.1806370466947555
1749027175.010281,4.254750612239434,-1.2255839287266386,-1.540568010870073,-4.120838661962504,4.389707648140714,-2.6318317345867586,-0.018558593924119144,0.0006029884550990698,-0.0026376226302261157,0.013160994491950826,0.0193314145123179,-0.021203547934352977,-0.1218012124300003,0.560880184173584,0.7642437815666199,0.1994293630123138,0.1674707978963852,-0.1524807512760162
1749027175.0103264,4.254714074892782,-1.225582204736063,-1.5405719460330014,-4.12081130404407,4.389747435952852,-2.6318776752826993,-0.019001825693104418,0.0006207443505354928,-0.0030429070889156913,0.013481662495412154,0.019242471487208198,-0.021446987694029373,-0.1004246175289154,0.5628452301025391,0.7485495805740356,0.1959712207317352,0.1526390165090561,-0.165537416934967
1749027175.010366,4.25467705809642,-1.2255811927662528,-1.5405763294415307,-4.1207831910387736,4.389785953712112,-2.63192400064725,-0.019512042368102146,0.0006334490934578933,-0.0034872320023132436,0.013681793936637853,0.018932277217062993,-0.021732309415525494,-0.1628104448318481,0.5366607904434204,0.7369797825813293,0.1613624840974807,0.1501835584640503,-0.1406381428241729
1749027175.0104072,4.2546394045289215,-1.225580941496542,-1.54058141966947,-4.120754648830856,4.389822801896239,-2.6319707198797464,-0.02010321961822904,0.0006393101940859186,-0.003975707622051772,0.013764168241343583,0.018447007389425417,-0.0220854140477667,-0.1628104448318481,0.5366607904434204,0.7369797825813293,0.1613624840974807,0.1501835584640503,-0.1406381428241729
1749027175.0104456,4.254600884017345,-1.2255814250789219,-1.5405874914461108,-4.120725997221968,4.389857764633592,-2.632017908008621,-0.020787013791661577,0.0006382191025899684,-0.0045123481116690276,0.013739870248767782,0.017843547979886906,-0.022527699039970393,-0.1846269816160202,0.5625256299972534,0.7339383363723755,0.1849526166915893,0.1387889683246612,-0.1508543193340301
1749027175.0104842,4.254561202710321,-1.2255825433712488,-1.5405948184269105,-4.1206975283113865,4.389890816949018,-2.632065692840566,-0.021571959003150707,0.0006314982153763627,-0.00509916213852923,0.013627737452424694,0.017185247877152542,-0.023075331590394675,-0.1827951073646545,0.5567987561225891,0.7213256359100342,0.1831713765859604,0.1503503769636154,-0.152294784784317
1749027175.0105224,4.254520016383993,-1.225584131073426,-1.5406036553784928,-4.120669486861795,4.3899221153479235,-2.6321142418691696,-0.022462786140736872,0.0006215510890404581,-0.005735327738465005,0.01345309900478991,0.01653729193081796,-0.023738897277267905,-0.1715611666440963,0.5716092586517334,0.7252410650253296,0.1731964349746704,0.145088329911232,-0.1734054386615753
1749027175.0105596,4.254476948022536,-1.225585973658637,-1.5406142207952493,-4.120642053419195,4.389951974215813,-2.632163751044349,-0.02345993591527694,0.0006114521916894807,-0.006416554297455795,0.013245942172429189,0.01596208923000708,-0.024523408009486342,-0.1965328603982925,0.5754960775375366,0.6856979131698608,0.1892111003398895,0.1505043804645538,-0.1710351109504699
1749027175.0105972,4.2544316101004345,-1.2255878275525673,-1.54062668111283,-4.120615330998391,4.389980831520036,-2.632214435788282,-0.024559322216021265,0.0006045143695567366,-0.007134721541332741,0.013038709955316556,0.015515054436940113,-0.025428620288041215,-0.1965328603982925,0.5754960775375366,0.6856979131698608,0.1892111003398895,0.1505043804645538,-0.1710351109504699
1749027175.010635,4.254383631280875,-1.2255894424909886,-1.5406411378951022,-4.1205893364685515,4.390009208128457,-2.6322665235539078,-0.02575239013628181,0.0006038707121105639,-0.007877871551010593,0.012863960617236122,0.015241120601811077,-0.026449582691599242,-0.2220043390989303,0.565680742263794,0.6867165565490723,0.1884399652481079,0.161663219332695,-0.1567548811435699
1749027175.010675,4.254332685553145,-1.2255905844897343,-1.5406576194225026,-4.120563997825554,4.390037665525887,-2.632320246973324,-0.02702649749302242,0.0006121042689757772,-0.008630603993068153,0.012752108521401375,0.015172250890059611,-0.027577315325727544,-0.2071537375450134,0.5755372047424316,0.7066308259963989,0.1903214156627655,0.1842546314001083,-0.1734841465950012
1749027175.0107143,4.254278520041191,-1.2255910578900393,-1.5406760778447426,-4.120539158115371,4.390066766256129,-2.6323758368068324,-0.028365617816195954,0.0006309552848985709,-0.00937487307580516,0.012729430641027958,0.01532610851599536,-0.028799533412911544,-0.2071537375450134,0.5755372047424316,0.7066308259963989,0.1903214156627655,0.1842546314001083,-0.1734841465950012
1749027175.010752,4.254220977069215,-1.2255907246139623,-1.5406963924055272,-4.1205145860273555,4.390097040008434,-2.6324335140848745,-0.029751320455938028,0.0006611312030696158,-0.010091116102471568,0.01281647801507313,0.015705910948669157,-0.030101357511585294,-0.22846519947052,0.5853087902069092,0.7001752257347107,0.2107797861099243,0.1857302337884903,-0.1846798062324524
1749027175.0107944,4.254160007053617,-1.2255895184570176,-1.5407183783108827,-4.120489992287546,4.390128956614566,-2.6324934812191407,-0.0311639490360351,0.0007022386572935929,-0.010759589828030564,0.013026982844083866,0.016301364733444353,-0.03146598978459842,-0.22846519947052,0.5853087902069092,0.7001752257347107,0.2107797861099243,0.1857302337884903,-0.1846798062324524
1749027175.010832,4.254095670683784,-1.2255874522928636,-1.5407417999600141,-4.120465050103441,4.390162906094731,-2.632555912718866,-0.03258390394424668,0.000752847878603816,-0.011361775598313662,0.013367304973704825,0.017090480309035087,-0.03287536638645795,-0.2398949563503265,0.5813244581222534,0.7104532718658447,0.2088327407836914,0.1854812055826187,-0.1941238790750503
1749027175.0108683,4.254028130551412,-1.225584616652352,-1.5407663868748143,-4.120439417293694,4.390199185502494,-2.6326209472543827,-0.033992928567213046,0.0008106876271658618,-0.011881729862930178,0.013836422291364114,0.01804201729685011,-0.034310812846643966,-0.2192818820476532,0.590908944606781,0.694217324256897,0.2215441763401031,0.1823646575212478,-0.1830535680055618
1749027175.0109053,4.253957633380588,-1.2255811692374738,-1.5407918507948093,-4.120412757655271,4.390237992350187,-2.6326886834357612,-0.03537529016168025,0.000872952902629445,-0.012307277610194305,0.014426437251677731,0.019118305552167043,-0.035753726579317135,-0.2395655512809753,0.5746684074401855,0.7113062143325806,0.212481290102005,0.1852843910455703,-0.1916688382625579
1749027175.010942,4.253884484532427,-1.22557731628073,-1.5408179027016524,-4.1203847596497125,4.390279424382409,-2.6327591811020303,-0.03671873892667531,0.00093668971476044,-0.012630956485082473,0.015123536317673625,0.020278206956512217,-0.037186286287968516,-0.2521552443504333,0.5902284383773804,0.6952634453773499,0.2212184518575668,0.1914331018924713,-0.1937301605939865
1749027175.0109794,4.253809016963399,-1.2255732879375132,-1.5408442686374857,-4.1203551513869865,4.390323485196467,-2.6328324681037794,-0.03801514068230872,0.000999205004218247,-0.012850624325960687,0.015909295390486668,0.021480009297373127,-0.03859215309476415,-0.2792510688304901,0.5733587741851807,0.7147490382194519,0.2407805025577545,0.1821940392255783,-0.1941719055175781
1749027175.011016,4.253731557414425,-1.2255693109037555,-1.5408707031074718,-4.120323711716868,4.3903700948225275,-2.632908550391304,-0.039260720834658897,0.0010584411454797327,-0.012969660241566235,0.01676218456119757,0.022684072705753195,-0.03995710491786958,-0.2792510688304901,0.5733587741851807,0.7147490382194519,0.2407805025577545,0.1821940392255783,-0.1941719055175781
1749027175.0117247,4.253652392969995,-1.2255655820160425,-1.5408969990131107,-4.120290277649903,4.390419104119727,-2.6329874220380995,-0.040455920708081725,0.0011132579115594478,-0.012996728259772097,0.017659111219815928,0.023855088877825913,-0.041269550188321805,-0.2983636856079101,0.6009817123413086,0.7026998996734619,0.2304768860340118,0.1976625472307205,-0.2046137303113937
1749027175.0137413,4.253571741008042,-1.2255622464520892,-1.5409229937430395,-4.120254748272053,4.390470311818985,-2.6330690724896315,-0.041604925666870074,0.0011635806865213456,-0.012945123398307203,0.018576862403209375,0.024963865375317026,-0.0425208963018987,-0.2640514075756073,0.5752952098846436,0.7130028605461121,0.2356659770011901,0.2162583172321319,-0.2016946226358413
1749027175.0542753,4.253489725202691,-1.2255593832092346,-1.5409485719639129,-4.120217085053865,4.390523483165049,-2.6331534903123126,-0.04271495542809229,0.001210397641344336,-0.012831765920223438,0.019493355839885824,0.025988595984826786,-0.04370578102295382,-0.2805871069431305,0.5876023769378662,0.708451509475708,0.2297129034996032,0.1909271329641342,-0.1876358538866043
1749027175.0543232,4.2534063599397856,-1.2255569991439692,-1.5409736661781317,-4.1201773083296995,4.390578369278582,-2.6332406644308626,-0.04379541230443353,0.0012556134571153846,-0.01267594207462822,0.02038866315078774,0.026915604883091408,-0.04482219015684173,-0.2837976813316345,0.5855807065963745,0.7171903252601624,0.2311593294143676,0.1755703687667846,-0.1890871226787567
1749027175.054366,4.253321545113576,-1.2255550315445431,-1.5409982559765976,-4.1201354899231335,4.390634726523437,-2.6333305841882515,-0.04485698070286787,0.0013017870082041643,-0.012497909717149773,0.021245809234404205,0.027739558967123983,-0.04587148235505616,-0.2802919745445251,0.5809005498886108,0.7158494591712952,0.2544666528701782,0.1744215339422226,-0.2056957185268402
1749027175.054406,4.2532350725340855,-1.2255533582763707,-1.5410223663650582,-4.120091742430281,4.39069233511137,-2.633423238868402,-0.0459107678488708,0.001351792880369511,-0.01231749759194402,0.02205137073272104,0.02846314959846576,-0.046858337217537314,-0.3131362795829773,0.5701696872711182,0.7060591578483582,0.2332176119089126,0.1673940122127533,-0.1981960237026214
1749027175.0544443,4.253146644162189,-1.2255518139303383,-1.5410460649243114,-4.1200462063760535,4.390751015579537,-2.633518616487574,-0.046967561886935905,0.0014084521981544936,-0.012152827465961394,0.022795896215066978,0.029096267074936177,-0.04779063830018908,-0.3044310808181762,0.5911163091659546,0.6869521737098694,0.242054745554924,0.1830291450023651,-0.1928761750459671
1749027175.054482,4.253055901260043,-1.225550209909052,-1.5410694570941101,-4.119999036979054,4.390810640855235,-2.6336167011770724,-0.04803725415462068,0.00147417805646091,-0.012019275252260585,0.023474160731336218,0.029654724718894406,-0.04867928558671955,-0.3044310808181762,0.5911163091659546,0.6869521737098694,0.242054745554924,0.1830291450023651,-0.1928761750459671
1749027175.0545194,4.252962462184724,-1.2255483559564397,-1.5410926787620405,-4.119950392270509,4.390871141440935,-2.6337174685946683,-0.04912843756691531,0.0015506754936000734,-0.011928757716675531,0.024085257769721955,0.030158622800729555,-0.04953790300925256,-0.3074327409267425,0.5950460433959961,0.6912114024162292,0.2348305732011795,0.1802963614463806,-0.2121378034353256
1749027175.0545564,4.252865964881316,-1.2255460805093896,-1.5411158857340235,-4.1199004237778185,4.390932502649036,-2.6338208796549347,-0.05024816575563736,0.0016387255841737163,-0.01188938782676302,0.024632526716687548,0.03063046922863142,-0.05038238784197104,-0.3213691711425781,0.5945340394973755,0.6986926794052124,0.2568979561328888,0.1857962310314178,-0.2099757641553878
1749027175.0545936,4.252766108613757,-1.22554324765765,-1.541139240445767,-4.119849270190452,4.390994755135618,-2.6339268739666646,-0.051401841001297854,0.0017380685591329495,-0.011905493278440336,0.025123310430327596,0.03109319473951168,-0.05123025805319522,-0.3108356297016144,0.5951839685440063,0.6960053443908691,0.2331301867961883,0.1823535561561584,-0.2135168462991714
1749027175.054631,4.252662688923985,-1.2255397692975054,-1.5411628971678926,-4.119797053731233,4.391057961637194,-2.6340353647968455,-0.0525931896058371,0.0018473847728397554,-0.011977950304345595,0.025568531330502058,0.03156821839423201,-0.05209978735818484,-0.3145961165428161,0.5768957734107971,0.6879702210426331,0.2386377155780792,0.17778842151165,-0.1892181038856506
1749027175.0546682,4.252555620677207,-1.225535611826733,-1.541186987690539,-4.119743878530427,4.391122202996629,-2.634146236934324,-0.0538242824339528,0.0019643602417972893,-0.012104756178107558,0.025982068419805302,0.03207373508379127,-0.05300896311498095,-0.3362311422824859,0.565646767616272,0.689138650894165,0.2309852391481399,0.1870191395282745,-0.2047497183084488
1749027175.054705,4.25244494607823,-1.2255307971927245,-1.5412116097912663,-4.119689830150944,4.3911875657133335,-2.634259348220385,-0.05509557251954554,0.0020858202615125624,-0.01228175053653704,0.026379921535962088,0.03262340310913065,-0.0539743493122013,-0.3245935142040252,0.6097894906997681,0.6686986684799194,0.236087679862976,0.208403006196022,-0.2088361084461212
1749027175.054742,4.252330826986176,-1.2255253984270387,-1.5412368205643037,-4.119634975523927,4.391254132168634,-2.6343745353497545,-0.05640595148394557,0.0022079202976494367,-0.012503394616267954,0.026779170788340013,0.033225590482846686,-0.055009972622758696,-0.3378049433231354,0.5791703462600708,0.6850787401199341,0.2353196442127227,0.193600594997406,-0.1995041668415069
1749027175.0547786,4.252213522879436,-1.2255195302765636,-1.541262636030383,-4.1195793628264985,4.391321973888208,-2.634491624553344,-0.05775285883787742,0.002326391941856474,-0.01276352451149946,0.027196776756594994,0.03388327820708712,-0.056126357825307845,-0.3390519022941589,0.6045376658439636,0.6796185374259949,0.2424324005842209,0.1975291669368744,-0.2222309559583664
1749027175.0548153,4.252093357017466,-1.2255133361933646,-1.5412890375256059,-4.119523021034269,4.391391147910044,-2.6346104472961467,-0.05913249266636648,0.0024368444205785087,-0.013056007704426352,0.027648310141266733,0.03459461884680145,-0.05732981626115498,-0.387497991323471,0.5810015201568604,0.6772863268852234,0.2579669654369354,0.1937059909105301,-0.2118138521909713
1749027175.0548513,4.251970674020825,-1.2255069734693294,-1.5413159842392472,-4.119465958864634,4.391461696412414,-2.6347308600777457,-0.06054015461569075,0.002535112589560221,-0.013375251735147782,0.02814673688231145,0.035354034142797905,-0.05862205297333602,-0.3628738224506378,0.574576735496521,0.6870317459106445,0.266397625207901,0.19867804646492,-0.2104541212320327
1749027175.054891,4.251845792873205,-1.2255005983894138,-1.5413434300202373,-4.119408162747136,4.3915336498317465,-2.63485276636787,-0.06197072263391646,0.002617621760374017,-0.013716539196694784,0.028701407298338484,0.036153644456223884,-0.06000012441565272,-0.3361682891845703,0.5767744779586792,0.6732138991355896,0.2750564217567444,0.1760961413383484,-0.2017498165369033
1749027175.0549304,4.2517189604059356,-1.2254943528913234,-1.5413713415169188,-4.119349593645383,4.391607033332592,-2.634976138006486,-0.0634192026125335,0.002681719080171921,-0.0140761907459256,0.029317395556296446,0.03698478649028317,-0.061456753928610504,-0.3981949388980865,0.5703681707382202,0.6598922610282898,0.2612623870372772,0.2180256843566894,-0.2124784141778946
1749027175.054968,4.251590311099652,-1.225488353616378,-1.5413997142956712,-4.119290183155555,4.3916818756333855,-2.6351010329485627,-0.06488128601659088,0.0027259155098691055,-0.01445158249308511,0.029995299986671605,0.037839399904811145,-0.06298098717997326,-0.3981949388980865,0.5703681707382202,0.6598922610282898,0.2612623870372772,0.2180256843566894,-0.2124784141778946
1749027175.0550044,4.251459838758316,-1.2254826837715422,-1.5414285840214101,-4.119229830018884,4.39175821837746,-2.63522760615454,-0.06635383751039031,0.0027499982737122855,-0.01484105940586657,0.03073154653018427,0.03871112577249218,-0.0645591402087684,-0.3436653614044189,0.5565023422241211,0.6690206527709961,0.2814307808876037,0.2004941999912262,-0.2275494039058685
1749027175.0558047,4.25132738412174,-1.2254773880791217,-1.5414580308662449,-4.119168398522585,4.391836124075191,-2.635356111112026,-0.06783523936964204,0.0027550028128024624,-0.015243785274518787,0.031519151090680216,0.0395960258838935,-0.0661759666959725,-0.3684416115283966,0.551443338394165,0.6630564332008362,0.2688599228858948,0.1772361844778061,-0.2252696454524994
1749027175.0577328,4.251192640488422,-1.2254724711560685,-1.5414881765933508,-4.11910572009287,4.391915681180387,-2.6354868908200455,-0.0693255247038711,0.0027430610104365667,-0.01565955292172612,0.032348814747919744,0.04049288168221328,-0.067815952701088,-0.3684416115283966,0.551443338394165,0.6630564332008362,0.2688599228858948,0.1772361844778061,-0.2252696454524994
1749027175.0982764,4.251055177540899,-1.2254678996754131,-1.5415191749213206,-4.119041598874535,4.391997005715806,-2.63562035859464,-0.07082625996793541,0.002717159378653604,-0.016088559548010133,0.03321017560934486,0.041403073424275745,-0.06946463175639025,-0.3675578236579895,0.5773432850837708,0.6592662930488586,0.262294590473175,0.2039853632450103,-0.2291294038295745
1749027175.098322,4.250914481561679,-1.225463608417912,-1.5415511967008102,-4.118975821312647,4.392080239595627,-2.6357569706074964,-0.07234019586156108,0.002680845705569048,-0.016531148264871922,0.034093041808327645,0.04233009356674143,-0.07110980259596662,-0.3760218918323517,0.5672419667243958,0.6654771566390991,0.280287504196167,0.2336594760417938,-0.224592924118042
1749027175.098366,4.250770007863889,-1.2254595097526348,-1.5415844120733868,-4.118908168860603,4.392165546035896,-2.6358971934206643,-0.0738707631888268,0.002637918701545047,-0.016987530617127742,0.034988472939068274,0.043278810884627754,-0.07274253246110957,-0.3887993693351745,0.5826995372772217,0.6543897390365601,0.2822518050670624,0.220464676618576,-0.2051307260990142
1749027175.0984175,4.250621239209602,-1.2254555052947826,-1.5416189720942832,-4.118838432358345,4.392253102192033,-2.6360414702872315,-0.07542151493411739,0.0025921281302768934,-0.01745752295290845,0.03588962448067045,0.04425464143233458,-0.07435784375460992,-0.3851722180843353,0.5523113012313843,0.6611796021461487,0.2686651945114136,0.2092790156602859,-0.2015872001647949
1749027175.098469,4.25046774309065,-1.2254514978770656,-1.5416549922939478,-4.118766426548258,4.392343088993028,-2.636190189489285,-0.07699560950266922,0.0025469084460105285,-0.01794033785960971,0.03679228987318742,0.04526276942624729,-0.07595501879919778,-0.4028365612030029,0.5703274607658386,0.6631057858467102,0.2637072205543518,0.1974349021911621,-0.2270829826593399
1749027175.0985153,4.250309221076254,-1.225447402043015,-1.5416925403135935,-4.11869200341802,4.392435678583826,-2.6363436571068473,-0.07859540817532598,0.0025051686968200703,-0.018434466865400304,0.03769507432239054,0.04630750142582255,-0.07753751951926745,-0.3957365751266479,0.583021342754364,0.6583923697471619,0.268291175365448,0.1989135444164276,-0.2282123267650604
1749027175.098555,4.250145544575035,-1.2254431520495488,-1.541731629081468,-4.118615063383746,4.39253102063088,-2.636502075855644,-0.08022222723918684,0.0024691610941674474,-0.018937676242054037,0.038599148444479134,0.04739176962049301,-0.07911257418294462,-0.3839639127254486,0.5910936594009399,0.6566600799560547,0.2677702307701111,0.1890501976013183,-0.2113053798675537
1749027175.0985932,4.249976773041651,-1.2254387072507917,-1.5417722161255487,-4.1185355636326255,4.392629229297484,-2.636665531059952,-0.08187624571393998,0.002440443681900734,-0.019447119295640077,0.03950758504134213,0.048516763437373704,-0.08069048878413579,-0.3971053659915924,0.5797373652458191,0.6608875393867493,0.2662323415279388,0.2091354727745056,-0.2016972750425338
1749027175.098631,4.249803152760012,-1.2254340551379743,-1.541814208732259,-4.1184535230548205,4.3927303725112266,-2.63683398449841,-0.08355654041057393,0.002419937104115563,-0.019959550061866792,0.040424370271568984,0.049681673237472065,-0.08228370532580004,-0.392084002494812,0.5772467255592346,0.6573171019554138,0.2839948832988739,0.222672164440155,-0.2085038423538208
1749027175.0986676,4.249625096525455,-1.2254292121638313,-1.541857473928071,-4.118369023091984,4.392834464457744,-2.637007276800814,-0.08526122071672798,0.0024080577276162124,-0.020471608384396527,0.04135326455613081,0.05088355555123172,-0.08390561127107539,-0.3985386490821838,0.5830827355384827,0.6602680683135986,0.2805294394493103,0.2128569036722183,-0.225077599287033
1749027175.0987048,4.2494431462451,-1.2254242221099725,-1.5419018518204304,-4.118282203776687,4.392941461737217,-2.6371851390096626,-0.08698766165357034,0.0024048988271687423,-0.020980138316632247,0.04229672959314148,0.05211734693552426,-0.08556913759920343,-0.400408536195755,0.5856549739837646,0.6583373546600342,0.2912680804729461,0.217648833990097,-0.2380716502666473
1749027175.0987418,4.249257921407982,-1.2254191515493607,-1.541947170716535,-4.118193254502297,4.393051263729186,-2.6373672134986776,-0.08873285444091972,0.0024104318767462192,-0.021482501400428688,0.04325511563006019,0.05337604712712294,-0.08728524338756126,-0.3936083316802978,0.6010003685951233,0.6573747992515564,0.2857475280761719,0.2327209264039993,-0.2181408107280731
1749027175.0987785,4.249070057130936,-1.2254140821418638,-1.5419932625158297,-4.118102399707258,4.393163718079864,-2.637553083529685,-0.09049387969153061,0.0024247048978143526,-0.021976849025516873,0.04422622688159336,0.054651065267137575,-0.08906143215786218,-0.418695867061615,0.5985050201416016,0.6449814438819885,0.2734270691871643,0.2190254926681518,-0.22191022336483
1749027175.098815,4.24888013700831,-1.2254091000864096,-1.542039976984671,-4.118009880582007,4.393278632089292,-2.637742309372435,-0.09226845712139607,0.0024480140142747746,-0.022462316869832046,0.04520528960405734,0.05593268907912893,-0.0909004673903415,-0.4197135269641876,0.556963324546814,0.6644572019577026,0.2823840975761413,0.2192900478839874,-0.2382656037807464
1749027175.098852,4.248688628193809,-1.2254042838510157,-1.5420871936554519,-4.117915934829157,4.393395789723421,-2.6379344674112457,-0.09405546316581295,0.0024810147271301197,-0.02293909944160887,0.04618527919829906,0.05721061035027604,-0.0927994657484352,-0.4197135269641876,0.556963324546814,0.6644572019577026,0.2823840975761413,0.2192900478839874,-0.2382656037807464
1749027175.0988886,4.248495827396895,-1.2253996919468986,-1.5421348303846774,-4.1178207769365995,4.3935149723822455,-2.6381291877766024,-0.09585527326029544,0.002524730600841029,-0.02340836611934967,0.04715753689225926,0.05847443564995133,-0.09474955109658345,-0.4109486043453216,0.570494532585144,0.6621512174606323,0.2988446950912475,0.2188978791236877,-0.238355666399002
1749027175.0989254,4.248301825288274,-1.225395352666056,-1.5421828480794784,-4.117724581123514,4.39363598018023,-2.6383261863195786,-0.09766980754542663,0.0025804247965457985,-0.02387200568154598,0.04811260604436257,0.05971413908808187,-0.09673622327605373,-0.4206233024597168,0.6031488180160522,0.6313630938529968,0.2899028062820434,0.2290162891149521,-0.212799996137619
1749027175.0989614,4.248106493698497,-1.2253912573845327,-1.5422312515024124,-4.117627468538165,4.393758649803824,-2.638525287669286,-0.09950223313185089,0.002649331475538351,-0.02433223140704938,0.04904121337493841,0.06092046595294859,-0.0987405018990459,-0.4206233024597168,0.6031488180160522,0.6313630938529968,0.2899028062820434,0.2290162891149521,-0.212799996137619
1749027175.0989976,4.247909496692158,-1.2253873585348865,-1.5422800862061519,-4.117529499914087,4.393882865296307,-2.6387264369260426,-0.10135636863554344,0.0027322894640736044,-0.024791121963784742,0.04993529923076255,0.06208534396141132,-0.10074076088598985,-0.4493042826652527,0.5864628553390503,0.6602877378463745,0.2917326390743255,0.2355770915746688,-0.2247911542654037
1749027175.0990336,4.247710323843002,-1.2253835727870135,-1.5423294317917418,-4.117430674446563,4.394008559831194,-2.638929698612672,-0.1032359115037599,0.002829358409054654,-0.025250193613612675,0.05078897817337243,0.06320237267595173,-0.10271503251060761,-0.4493042826652527,0.5864628553390503,0.6602877378463745,0.2917326390743255,0.2355770915746688,-0.2247911542654037
1749027175.0996993,4.247508341407623,-1.2253797892255631,-1.5423793921808184,-4.117330934608835,4.394135709563461,-2.6391352435942452,-0.10514364565488284,0.002939510735360845,-0.025710091832724713,0.051599310773221836,0.06426743003813577,-0.1046434790159851,-0.4052044749259949,0.5969265699386597,0.650536060333252,0.287493497133255,0.2388889640569687,-0.2305485904216766
1749027175.1016707,4.2473028545601785,-1.2253758813649571,-1.5424300843299275,-4.117230175239132,4.394264323690845,-2.6393433273764613,-0.10708078126180166,0.0030604775502832532,-0.026170462146106035,0.05236679860978182,0.0652793689630787,-0.1065107081705935,-0.4326301515102386,0.5947906374931335,0.6521111130714417,0.2874314486980438,0.2230913937091827,-0.2071808278560638
1749027175.1425502,4.247093172291997,-1.2253717209864687,-1.5424816272902546,-4.117128254407409,4.394394436229785,-2.6395542650569315,-0.10904654090371571,0.00318879117372981,-0.026630020348098173,0.05309556450357531,0.06624069986190327,-0.1083076249332992,-0.4019888341426849,0.5870246887207031,0.6515783667564392,0.2999215722084045,0.2175928503274917,-0.2068312168121338
1749027175.1426134,4.246878666811823,-1.225367191408502,-1.5425341333579714,-4.117025003867879,4.3945261039036385,-2.639768408120153,-0.11103805785917532,0.003320024087221322,-0.02708680314014144,0.05379322577066794,0.06715809347092745,-0.11003255731803141,-0.4482688009738922,0.5886301398277283,0.6444836854934692,0.2741232514381408,0.2160300612449646,-0.201582133769989
1749027175.1426568,4.246658821100321,-1.225362198086708,-1.542587702313331,-4.116920237970543,4.39465941138849,-2.6399861263034827,-0.11305060491474532,0.0034491871512898013,-0.027538554320738845,0.054470493183357484,0.06804251850781479,-0.11169148076922011,-0.4501346945762634,0.6019161939620972,0.6572965979576111,0.2928756177425384,0.2157097458839416,-0.1994867026805877
1749027175.142698,4.24643326095511,-1.2253566752570775,-1.5426424187300176,-4.116813761065385,4.3947944811804955,-2.640207794780137,-0.11507812107904113,0.0035712275033729507,-0.027983191873534957,0.055140532243590744,0.06890886593612709,-0.11329729126805409,-0.4665200710296631,0.6063170433044434,0.6413456201553345,0.2838945984840393,0.2014664113521576,-0.2000869661569595
1749027175.1427429,4.246201771122201,-1.2253505884333664,-1.5426983514028976,-4.116705374426604,4.394931481990696,-2.640433783805195,-0.11711394375787587,0.0036815572027253515,-0.02841929569774864,0.05581811907519629,0.0697749984164743,-0.11486821701552653,-0.3765717446804046,0.5934016704559326,0.6502573490142822,0.279992014169693,0.203134000301361,-0.2222666293382644
1749027175.1427827,4.245964298521608,-1.2253439336163916,-1.542755553405497,-4.116594884440251,4.395070628292375,-2.6406644457691795,-0.11915159595727538,0.0037765394634279715,-0.028846543265162953,0.05651862477562369,0.07066027305684293,-0.11642557913158183,-0.3765717446804046,0.5934016704559326,0.6502573490142822,0.279992014169693,0.203134000301361,-0.2222666293382644
1749027175.1428218,4.245720947536495,-1.2253367345788757,-1.5428140614108596,-4.116482113706172,4.395212165560524,-2.6409000947769696,-0.12118545061742918,0.0038538579601923306,-0.029266009595032127,0.05725687510321231,0.07158369062222808,-0.11799119514689446,-0.436465322971344,0.5782227516174316,0.64814692735672,0.2914527058601379,0.207377552986145,-0.230499729514122
1749027175.1428592,4.2454719712641,-1.225329039265004,-1.542873893717191,-4.116366915360827,4.395356340662632,-2.6411409772412866,-0.12321112497089817,0.0039127054208204495,-0.02968025976455103,0.05804595201061803,0.07256190703895062,-0.11958476166778507,-0.4255531728267669,0.5677481293678284,0.6238122582435608,0.2951149344444275,0.2293698787689209,-0.2366910278797149
1749027175.1428962,4.24521775935028,-1.2253209155715326,-1.5429350474924537,-4.116249188907847,4.395503362628864,-2.6413872370344795,-0.1252255402474071,0.003953759810834113,-0.030093203648404194,0.0588960204290913,0.07360738787329475,-0.12122155589625674,-0.4475566446781158,0.586593747138977,0.6493425965309143,0.3086756467819214,0.2296308577060699,-0.2456583678722381
1749027175.142933,4.2449588203594555,-1.2253124463469902,-1.5429974964468371,-4.116128894416576,4.3956533627998375,-2.6416388824506956,-0.12722667058830198,0.003978964089903673,-0.03050973485710588,0.05981327194859974,0.07472697824762672,-0.12291076037753716,-0.4163629412651062,0.592567503452301,0.6323791742324829,0.2978253364562988,0.2167891561985016,-0.2343152165412902
1749027175.1429698,4.24469575632384,-1.2253037236962543,-1.543061190139264,-4.116006061839758,4.395806363799541,-2.6418957628833324,-0.129213059803356,0.003991168738375744,-0.03093521308034473,0.06079907515719684,0.0759210982043224,-0.12465464041668549,-0.4326226413249969,0.59705650806427,0.6258658170700073,0.2936896085739136,0.2374002635478973,-0.2480415850877761
1749027175.1430073,4.244429228695067,-1.2252948431612214,-1.5431260556107174,-4.11588079321647,4.395962264521592,-2.642157561222388,-0.13118320834115238,0.0039937162196760955,-0.03137486156566958,0.061849410755182785,0.0771836749278855,-0.1264486890749565,-0.4495232701301574,0.5916901230812073,0.6415092349052429,0.2969021201133728,0.2481141835451126,-0.2414018362760543
1749027175.143044,4.244159917195967,-1.2252858984685,-1.5431920014107505,-4.11575325712318,4.396120844552575,-2.6424238047941264,-0.13313495018961427,0.003990038913313997,-0.031833147812879825,0.06295465328227448,0.07850280664373373,-0.12828271018064907,-0.44022998213768,0.5696370005607605,0.633703351020813,0.3030327558517456,0.2444270253181457,-0.2641631364822387
1749027175.1430807,4.243888475027803,-1.2252769772311964,-1.5432589236748693,-4.1156236762723415,4.396281787269955,-2.6426938944446166,-0.13506495543360694,0.00398331672956208,-0.03231320871378394,0.06409975125743694,0.0798620272108354,-0.1301426598374159,-0.44022998213768,0.5696370005607605,0.633703351020813,0.3030327558517456,0.2444270253181457,-0.2641631364822387
1749027175.143117,4.243615484338633,-1.225268157611567,-1.543326713891015,-4.11549230986373,4.396444717463906,-2.6429671494042095,-0.1369684908305112,0.003976212585026721,-0.03281637711070581,0.06526485631972312,0.08124192907442976,-0.13201293946997658,-0.4389815628528595,0.5836994647979736,0.6345984935760498,0.3221294283866882,0.2215640395879745,-0.2597418129444122
1749027175.1431549,4.243341414221122,-1.22525950577263,-1.5433952682439316,-4.115359431893653,4.396609247706083,-2.6432428652676845,-0.13883953155297535,0.003970685547547758,-0.03334186207183067,0.06642644062435113,0.0826218543924182,-0.13387874731939153,-0.4515476524829864,0.593620240688324,0.6378884315490723,0.3217878341674804,0.2245559245347976,-0.2665018439292907
1749027175.1431916,4.243066581420188,-1.2252510739842073,-1.5434644984731585,-4.115225306047186,4.396775027515193,-2.6435203822523703,-0.14067124053340574,0.00396787841152033,-0.033886623396783444,0.06755889475602868,0.08398141291511706,-0.13572806583457311,-0.4528755843639374,0.5850278735160828,0.6368537545204163,0.2907208204269409,0.2206876128911972,-0.2370568066835403
1749027175.143228,4.242791114299082,-1.2252428993613982,-1.5435343435774553,-4.115090158417577,4.396941789363709,-2.643799158741703,-0.14245673396794695,0.003968084704523978,-0.03444545858179524,0.06863651710992548,0.08530170499969965,-0.13755290573454365,-0.4514552056789398,0.5858616828918457,0.6344698667526245,0.2993521094322204,0.2302337884902954,-0.2545970678329468
1749027175.1432643,4.242514924100332,-1.2252350033455048,-1.543604780601217,-4.114954151204458,4.397109385264867,-2.6440788410585214,-0.1441899677703495,0.0039708076806587505,-0.0350112925027705,0.06963572661042836,0.08656624950796939,-0.13934954889128623,-0.4514552056789398,0.5858616828918457,0.6344698667526245,0.2993521094322204,0.2302337884902954,-0.2545970678329468
1749027175.1433318,4.242237691212272,-1.225227392204891,-1.5436758318936918,-4.1148173621810535,4.397277808143632,-2.6443593171734685,-0.14586654912276428,0.003974920062812514,-0.035575637178257014,0.07053728935021279,0.08776168302293028,-0.1411177245687015,-0.444752961397171,0.6040230989456177,0.6496709585189819,0.3147690892219543,0.2402885407209396,-0.2450016438961029
1749027175.1437316,4.241958874620074,-1.2252200588470752,-1.5437475662608362,-4.114679774629329,4.397447194361459,-2.64464074226715,-0.14748431807052703,0.003978917071046908,-0.036129179300022976,0.07132834241171863,0.08887830443148899,-0.1428589018134745,-0.4763024449348449,0.5912360548973083,0.6132591366767883,0.3057666420936584,0.2234335094690323,-0.2356411516666412
1749027175.1456945,4.2416777495569224,-1.2252129858475396,-1.5438200923122831,-4.114541280728905,4.397617806922847,-2.6449235278496595,-0.14904364217071964,0.003981233830306401,-0.036662456958871284,0.07200399671265445,0.08991051780754131,-0.14457414007018796,-0.4763024449348449,0.5912360548973083,0.6132591366767883,0.3057666420936584,0.2234335094690323,-0.2356411516666412
1749027175.1862917,4.241393473145467,-1.225206148996173,-1.5438935437658037,-4.114401698913771,4.3977900018160785,-2.6452082923177795,-0.1505474815569087,0.003980581119543544,-0.037166597069005484,0.07256830275602219,0.09085720052108208,-0.14626212346767858,-0.4645935595035553,0.5727145075798035,0.6345219612121582,0.2864632308483124,0.2414596527814865,-0.2743096947669983
1749027175.186339,4.24110517137081,-1.225199520339215,-1.543968058432366,-4.114260802764823,4.397964182486665,-2.645495778882919,-0.1520013631320009,0.0039762486031218874,-0.037634089206121824,0.07303440141899283,0.09172199637657263,-0.1479180268313632,-0.4672199785709381,0.5956764817237854,0.6418225765228271,0.2855764925479889,0.2193515747785568,-0.2621110081672668
1749027175.186379,4.24081203376087,-1.2251930698528084,-1.5440437547801389,-4.114118355787451,4.3981407498946385,-2.6457867556243024,-0.1534134149818358,0.003968334610654988,-0.03805955964925566,0.07342377980211579,0.09251350206238275,-0.1495336992207635,-0.4672199785709381,0.5956764817237854,0.6418225765228271,0.2855764925479889,0.2193515747785568,-0.2621110081672668
1749027175.186422,4.240513397138267,-1.2251867652765807,-1.5441207114780104,-4.113974144016387,4.398320057424608,-2.6460819188027895,-0.15479454641885698,0.003957879877188283,-0.038440483384953594,0.07376468941904304,0.09324528407008763,-0.1510993490026662,-0.446183979511261,0.5676519274711609,0.6670554280281067,0.3018332123756408,0.2245692461729049,-0.2683768272399902
1749027175.1864614,4.240208800137857,-1.2251805700356397,-1.5441989551688715,-4.113827998337998,4.398502379783066,-2.6463818208717296,-0.1561587347197149,0.003946898528559629,-0.0387777458315802,0.07408990999199555,0.09393564674697062,-0.15260654627613096,-0.4733704030513763,0.6019002199172974,0.6573041081428528,0.2962511777877807,0.2533869743347168,-0.2583029866218567
1749027175.1865,4.239897997547118,-1.2251744396409099,-1.5442784596005952,-4.113679801532286,4.39868790173297,-2.6466868374148738,-0.1575232388677632,0.003938306001311298,-0.03907595576237024,0.07443411269700778,0.09460707221867566,-0.154051986565209,-0.4378213882446289,0.5784786939620972,0.6571176052093506,0.3017240762710571,0.2395612448453903,-0.2273418605327606
1749027175.1865385,4.239580935684947,-1.225168317547228,-1.5443591558616765,-4.11352948030103,4.398876726565315,-2.6469971748909176,-0.15890846130129163,0.003935740899348891,-0.03934342343999791,0.07483108444120753,0.09528525119664007,-0.15544115154477767,-0.4642705917358398,0.5803789496421814,0.6752126812934875,0.2937625348567962,0.2207364439964294,-0.2133052945137024
1749027175.186588,4.239257701150781,-1.2251621319746517,-1.544440950321225,-4.1133769872641315,4.399068898472185,-2.6473129091691514,-0.1603371776925001,0.003943271980923377,-0.039591747295942704,0.07531105138070078,0.09599762332395824,-0.15679086253158137,-0.4269880354404449,0.5612645745277405,0.6800281405448914,0.3135103583335876,0.2191083133220672,-0.2039765268564224
1749027175.1866367,4.238928460205579,-1.2251557952975447,-1.544523745226047,-4.113222279844713,4.399264430391077,-2.647634038415059,-0.16183297877609348,0.003964982446301655,-0.03983498961208744,0.07589831948608897,0.09677139695902785,-0.15812985231856833,-0.4322076737880707,0.543402373790741,0.6837769150733948,0.309817761182785,0.2139070928096771,-0.1719691157341003
1749027175.1866765,4.238593404326356,-1.2251492070487036,-1.544607456970916,-4.113065302203257,4.399463329603516,-2.647960533840613,-0.16341799326897746,0.004004442821338905,-0.04008847059852984,0.07660942915043628,0.09763115707527235,-0.1594968901333387,-0.4307951331138611,0.5663948059082031,0.6770805716514587,0.3307363092899322,0.2312745004892349,-0.1881402432918548
1749027175.186718,4.238252712228182,-1.2251422605328854,-1.5446920282648224,-4.112905974454474,4.399665615541849,-2.6482923759180585,-0.16511021343460724,0.004064125080044594,-0.04036727868885604,0.07745197175437846,0.09859634854546602,-0.1609365728734972,-0.4444018602371216,0.577731192111969,0.660618007183075,0.3179891705513,0.2408428937196731,-0.2137385308742523
1749027175.186757,4.237906532926409,-1.2251348520047707,-1.5447774321809198,-4.112744191439871,4.399871326569759,-2.6486295694035267,-0.1669209229135498,0.0041448602038576515,-0.04068466884856007,0.07842413389611662,0.09967904198016173,-0.162493470103653,-0.4432388842105865,0.602580726146698,0.672857403755188,0.3040046095848083,0.2607748210430145,-0.2536951899528503
1749027175.1867943,4.237554989600939,-1.2251268908392217,-1.5448636680324317,-4.112579831551724,4.400080514802034,-2.6489721363811274,-0.16885275456410043,0.0042454695829102305,-0.041050567716910506,0.07951495240374405,0.10088238876137057,-0.16420571566300882,-0.4464814662933349,0.5918202996253967,0.6749695539474487,0.2857657968997955,0.255920946598053,-0.2630108892917633
1749027175.1868317,4.237198200353824,-1.2251183092318796,-1.5449507507992972,-4.112412774375936,4.40029323032442,-2.6493200915449635,-0.17089879253294715,0.004362682753413487,-0.04147040314082902,0.08070522223932737,0.10220005794807956,-0.16609926843386935,-0.482685923576355,0.5985390543937683,0.6656157374382019,0.3140868246555328,0.2428910434246063,-0.273435115814209
1749027175.1868813,4.2368363093474475,-1.2251090704119483,-1.545038697034448,-4.112242924279229,4.400509498102166,-2.6496734073768113,-0.17304294594155184,0.004491389813211335,-0.04194442973054808,0.081969013274442,0.10361676812668373,-0.16818389857027025,-0.5575252175331116,0.6108524799346924,0.6472734212875366,0.3510465919971466,0.268806517124176,-0.3108776807785034
1749027175.1869206,4.236469520499915,-1.2250991746832616,-1.5451275105715054,-4.112070235853503,4.400729291928811,-2.650031978185256,-0.1752616038910029,0.004625191375314675,-0.042467647148368655,0.08327577964061218,0.10510983573578876,-0.17045155340091367,-0.5061643123626709,0.5856682658195496,0.658043622970581,0.3543555736541748,0.2743536233901977,-0.2895537912845611
1749027175.1869583,4.236098126384674,-1.2250886626838944,-1.5452171710256406,-4.111894736815419,4.400952509672871,-2.6503955908229773,-0.1775263352110313,0.004757135455592,-0.043030318778811916,0.08459301056387074,0.10665149694142352,-0.17287722741158443,-0.4660269320011139,0.5877101421356201,0.6525595784187317,0.3241122364997864,0.2820228636264801,-0.2823086380958557
1749027175.1869955,4.235722526930667,-1.225077615350758,-1.5453076273626054,-4.111716544600448,4.401178953191884,-2.650763906994103,-0.17980715968360717,0.004880494223959366,-0.04361901094021805,0.08588923963796463,0.10821164694287576,-0.17542194115676804,-0.4660269320011139,0.5877101421356201,0.6525595784187317,0.3241122364997864,0.2820228636264801,-0.2823086380958557
1749027175.1870365,4.235343234142977,-1.2250661504572744,-1.545398798082758,-4.111535873673001,4.401408315846832,-2.6511364596688156,-0.18207578856205622,0.004989442818479359,-0.04421800622870411,0.08713706644469664,0.10976060020899739,-0.17803708097073875,-0.4648594856262207,0.5970204472541809,0.6710988283157349,0.3294784426689148,0.2601361870765686,-0.258379191160202
1749027175.187075,4.234960858854776,-1.2250544160507046,-1.5454905789116775,-4.111353030639768,4.401640181500599,-2.651512666109163,-0.18430828235121294,0.005079548707935949,-0.044810912464326697,0.08831576667900778,0.11127152160386136,-0.18066927557578727,-0.4746108651161194,0.5899497270584106,0.6809118986129761,0.3248176872730255,0.257475733757019,-0.2690035998821258
1749027175.1877034,4.234576075063101,-1.2250425812999517,-1.545582857927386,-4.111168394350629,4.401874039968237,-2.6518918608530315,-0.18648677133305974,0.0051480416744957925,-0.04538228777904902,0.089413124030842,0.11272229636602862,-0.1832651646886845,-0.4811262190341949,0.5769651532173157,0.678458034992218,0.3439101874828338,0.2758473455905914,-0.2418845146894455
1749027175.1896958,4.234189560387695,-1.2250308252501478,-1.5456755363761332,-4.1109823802852485,4.402109322284724,-2.652273349849932,-0.18860012980817512,0.005193886790953981,-0.04591911823570218,0.09042625427381105,0.11409675080011779,-0.18577570184129674,-0.4671779870986938,0.5832820534706116,0.6754755973815918,0.3260408341884613,0.2837722897529602,-0.2876377701759338
1749027175.230286,4.233801918733246,-1.2250193241141514,-1.5457685513059158,-4.1107953931487655,4.402345453877709,-2.652656480572278,-0.1906437055995496,0.00521770893540774,-0.04641200738448037,0.09136133378457047,0.11538525493707259,-0.18815987399217923,-0.4641205072402954,0.584620475769043,0.6845143437385559,0.3184893429279327,0.270762175321579,-0.299467921257019
1749027175.2303326,4.233413599463143,-1.2250082381043526,-1.5458618946611296,-4.11060777634433,4.402581917484548,-2.6530407160431513,-0.19261834744346654,0.005221615448741299,-0.04685596770970831,0.09223227225926806,0.116584801885483,-0.19038783817861332,-0.4641205072402954,0.584620475769043,0.6845143437385559,0.3184893429279327,0.270762175321579,-0.299467921257019
1749027175.2303734,4.233024830718123,-1.2249976991549503,-1.545955623760749,-4.110419768674116,4.402818314380113,-2.6534256983414375,-0.1945290352491492,0.005208946936427513,-0.0472507448727172,0.09305850014524181,0.11769866530554482,-0.19244345703194252,-0.4638703465461731,0.615592896938324,0.6748780608177185,0.3403231501579284,0.2573122978210449,-0.2706948220729828
1749027175.2304158,4.232635581070387,-1.224987800873643,-1.5460498602136057,-4.110231476437493,4.403054413408267,-2.653811290348005,-0.1963833994335751,0.005183972696206024,-0.047600655672659746,0.09386217191690008,0.11873571274127519,-0.1943260756006781,-0.4638703465461731,0.615592896938324,0.6748780608177185,0.3403231501579284,0.2573122978210449,-0.2706948220729828
1749027175.2304554,4.232245556631751,-1.224978591591944,-1.5461447771559227,-4.110042864987159,4.403290180483285,-2.6541975900180947,-0.1981903328832941,0.005151543557300987,-0.04791397343297105,0.09466518045836961,0.1197094274426818,-0.19605119183818231,-0.4502524137496948,0.5705163478851318,0.671839714050293,0.3610009849071502,0.221166044473648,-0.2118515819311142
1749027175.2304935,4.231854233922805,-1.2249700706875504,-1.5462405769661254,-4.109853769888259,4.403525784700736,-2.6545849162437882,-0.19995880074122876,0.005116715339049611,-0.04820194122775387,0.09548639669471976,0.12063667734120727,-0.19764957140853862,-0.4502524137496948,0.5705163478851318,0.671839714050293,0.3610009849071502,0.221166044473648,-0.2118515819311142
1749027175.230532,4.231460923366733,-1.2249621878621562,-1.5463374629683873,-4.109663924686098,4.403761580719623,-2.6549737691401734,-0.20169688929240345,0.00508435585329677,-0.04847752579697731,0.096339483495749,0.12153627420010912,-0.19916447114829186,-0.4574872851371765,0.5826579332351685,0.7021247148513794,0.3512554764747619,0.2449092119932174,-0.2192161530256271
1749027175.230574,4.231064853942108,-1.2249548451056955,-1.546435609318711,-4.109472999939302,4.403998070554811,-2.6553647707163917,-0.2034111169846395,0.005058751923830906,-0.04875404090535728,0.09723151068528162,0.12242739898510731,-0.2006469797607487,-0.4400012493133545,0.5790445804595947,0.6570498943328857,0.3437058925628662,0.2690958976745605,-0.26880943775177
1749027175.2306132,4.230665266877185,-1.224947901580906,-1.5465351333722022,-4.109280647062825,4.404235850499432,-2.6557585937641193,-0.20510603228544214,0.005043246704336497,-0.04904377577775234,0.0981624611603517,0.12332802259808277,-0.20214994971853678,-0.4400012493133545,0.5790445804595947,0.6570498943328857,0.3437058925628662,0.2690958976745605,-0.26880943775177
1749027175.23065,4.230261505547174,-1.2249411820968514,-1.546636074387841,-4.109086540746684,4.404475550232542,-2.6561558875664444,-0.20678411703679223,0.005039957318718256,-0.049356768856006955,0.09912560321848025,0.12425348617158946,-0.20372140921462065,-0.4475705325603485,0.5978776812553406,0.6507316827774048,0.3532753586769104,0.2674263119697571,-0.2874583601951599
1749027175.2306864,4.229853088919632,-1.2249344896723455,-1.5467383816577338,-4.108890414516208,4.404717771818336,-2.656557210074367,-0.20844599115291837,0.00504963247793373,-0.04969985946053427,0.10010862890855599,0.12521538767234036,-0.2053985524753019,-0.5177034735679626,0.5987380146980286,0.6798713803291321,0.3398874998092651,0.2640604376792907,-0.3205757737159729
1749027175.2307265,4.229439757098743,-1.2249276218312715,-1.5468419140604213,-4.108692085041818,4.404963036236368,-2.6569629770180803,-0.2100908775939985,0.005071694297748789,-0.05007611490537714,0.1010954125962974,0.12622085332653857,-0.20720332959057192,-0.4546738862991333,0.6055126786231995,0.6679486036300659,0.3569154143333435,0.2711332142353058,-0.3317791223526001
1749027175.2307642,4.2290214819147245,-1.2249203890786107,-1.5469464513456217,-4.108491462812177,4.405211743355008,-2.6573734359862455,-0.21171724187960902,0.005104466301910994,-0.05048467664160944,0.10206820056157707,0.12727218566443932,-0.20914030406852865,-0.4603774547576904,0.5946103930473328,0.65006023645401,0.3448127508163452,0.2532778084278106,-0.3008990585803985
1749027175.2308006,4.228598443360732,-1.224912633007738,-1.5470517153813335,-4.108288549900244,4.405464147921175,-2.6577886668461272,-0.2133234836471766,0.005145534619949776,-0.05092102223000626,0.10300998861294179,0.12836681701229014,-0.21119692441379062,-0.4603774547576904,0.5946103930473328,0.65006023645401,0.3448127508163452,0.2532778084278106,-0.3008990585803985
1749027175.2308366,4.228170980112524,-1.2249042411497149,-1.547157398065691,-4.108083428224949,4.40572035094269,-2.658208602726248,-0.21490855361740574,0.005192149239144245,-0.05137761021440992,0.10390679863833265,0.12949749090673668,-0.213345856534477,-0.4634333848953247,0.5845388770103455,0.6466589570045471,0.3200311064720154,0.2907508611679077,-0.2714394032955169
1749027175.2308767,4.227739525553817,-1.2248951561577834,-1.547263192226762,-4.107876242355831,4.405980304182583,-2.658633062515567,-0.21647240683284866,0.005241575769733134,-0.05184484903536941,0.10474955666492707,0.13065264484302316,-0.21554874009134664,-0.466461718082428,0.6205027103424072,0.6452401280403137,0.34427410364151,0.2648397386074066,-0.2694134712219238
1749027175.2309146,4.227304540136972,-1.2248853779774707,-1.5473688222078597,-4.1076671798722675,4.406243824954867,-2.6590617868420323,-0.21801625656779047,0.0052913588899052705,-0.052312297727406414,0.10553532065535592,0.13181703911097029,-0.21776072977938832,-0.466461718082428,0.6205027103424072,0.6452401280403137,0.34427410364151,0.2648397386074066,-0.2694134712219238
1749027175.2309513,4.22686644887944,-1.2248749588879624,-1.5474740713256092,-4.1074564509610765,4.406510618377987,-2.659494472607859,-0.21954262973949212,0.005339519760504866,-0.05276997145775076,0.1062676975750263,0.13297272154390433,-0.21993535821901744,-0.4673512578010559,0.605097770690918,0.6545743942260742,0.3441641926765442,0.2956345379352569,-0.3251285552978515
1749027175.230987,4.226425589872358,-1.2248639925012734,-1.5475788038959357,-4.107244267885067,4.406780305079899,-2.6599308049187065,-0.22105524190769307,0.0053847316851774974,-0.05320960277605937,0.10695639516465531,0.13410040911157953,-0.22202943232321784,-0.508175790309906,0.6229196786880493,0.6657827496528625,0.3240541517734527,0.3067615330219269,-0.3271349668502807
1749027175.2310252,4.225982176453178,-1.2248525988369372,-1.5476829800556138,-4.107030824434772,4.407052453628631,-2.6603704879928567,-0.22255872524189085,0.005426485549388147,-0.053625705524491515,0.10761594705208284,0.13518129866995893,-0.22400771861311347,-0.4709964990615845,0.5937803387641907,0.6691795587539673,0.3192117214202881,0.2917635440826416,-0.3365645408630371
1749027175.231711,4.225536274630471,-1.2248409081588485,-1.5477866618877292,-4.106816276300153,4.407326616763336,-2.660813275786871,-0.22405825956987654,0.005465203292503273,-0.05401629972382873,0.10826374021808674,0.13619920217445286,-0.22584705571281405,-0.477693498134613,0.5952958464622498,0.6812469363212585,0.342818021774292,0.2517098486423492,-0.2213809341192245
1749027175.2336617,4.225087798983027,-1.224829046122087,-1.5478900095077104,-4.106600725369111,4.407602368326388,-2.661258998740406,-0.22555916790376576,0.005502235224310274,-0.054383183095336914,0.10891758642284632,0.13714276893102856,-0.2275393336376606,-0.477693498134613,0.5952958464622498,0.6812469363212585,0.342818021774292,0.2517098486423492,-0.2213809341192245
1749027175.2742946,4.224636530814227,-1.2248171220283663,-1.5479932665664065,-4.1063842121961995,4.407879336129197,-2.661707579722808,-0.22706654095221265,0.005539705966867546,-0.054731687981184336,0.1095931938540695,0.13800746110299328,-0.22909267083802823,-0.4915136098861694,0.6241100430488586,0.6552507281303406,0.3460364937782287,0.2832531332969665,-0.2154498249292373
1749027175.2743394,4.224182158389408,-1.2248052210031493,-1.5480967364733962,-4.106166719337665,4.408157227222599,-2.662159034048199,-0.22858494439361884,0.005580228815828152,-0.05506994570839055,0.1103019500126594,0.1387969341626371,-0.23053027834437115,-0.4707942306995392,0.6107460260391235,0.6475707292556763,0.3514578938484192,0.2634665668010711,-0.226799726486206
1749027175.2743802,4.223724332460093,-1.224793400097487,-1.5482007527190393,-4.105948184633795,4.408435845142599,-2.662613454012415,-0.2301182327303795,0.005626547544918336,-0.055407772814826776,0.11104938600662201,0.13952354568274075,-0.23188696165443004,-0.4815485775470733,0.5851624608039856,0.6572751998901367,0.3663713037967682,0.2686749696731567,-0.2688817977905273
1749027175.2744198,4.2232627258534245,-1.2247816878448106,-1.5483056477420618,-4.1057285203971,4.408715100534268,-2.66307098301401,-0.23166945981078452,0.005681168292887982,-0.0557553566231167,0.11183457493710994,0.14020783715138238,-0.23320380842663757,-0.4760792553424835,0.5740549564361572,0.6559092402458191,0.3263495862483978,0.2301767766475677,-0.3073534369468689
1749027175.274458,4.222797085893825,-1.2247700865019198,-1.5484117245449338,-4.105507633354319,4.408995015950462,-2.6635317855010703,-0.23324086586012818,0.005746024804705326,-0.05612193502231319,0.11265056423406775,0.14087696673999459,-0.23452208568979177,-0.5237049460411072,0.6140711903572083,0.6017089486122131,0.3375476896762848,0.2818169593811035,-0.3061054348945617
1749027175.2744966,4.222327271375859,-1.2247585760098192,-1.5485192343321434,-4.105285440709891,4.409275724232746,-2.6639960181329863,-0.23483393475730793,0.005822203428642987,-0.05651465591347758,0.11348578920210169,0.14156220469381675,-0.2358775383820755,-0.4883037209510803,0.6029307246208191,0.6142352223396301,0.3688531517982483,0.2477471828460693,-0.3046416342258453
1749027175.2745342,4.221853269688831,-1.2247471188215269,-1.548628362345706,-4.105061879018037,4.4095574595039695,-2.6644638065681607,-0.23644952144861128,0.00590975199980172,-0.056937780348420286,0.11432628201729692,0.14229573687290045,-0.23729610290637498,-0.4872373938560486,0.6096681356430054,0.6229231357574463,0.3555830121040344,0.245384395122528,-0.3149511516094208
1749027175.2745724,4.221375193405743,-1.2247356651042918,-1.5487392227984214,-4.104836904305532,4.4098405406030015,-2.6649352314305346,-0.23808802919354236,0.006007599801532954,-0.05739234641062142,0.11515837101843786,0.1431071439083951,-0.2387916233913946,-0.4609287679195404,0.6005254983901978,0.6241790652275085,0.3345221579074859,0.2904185950756073,-0.3031586706638336
1749027175.274609,4.220893258595217,-1.224724158061951,-1.5488518623672425,-4.104610483797428,4.410125347966596,-2.665410325765918,-0.23974959627260164,0.006113608035901143,-0.05787633010771305,0.11597145035827525,0.14402000521275013,-0.24036566601177153,-0.4866613447666168,0.5900592803955078,0.6162825226783752,0.3308527767658233,0.2710344791412353,-0.2811648249626159
1749027175.274646,4.220407749137802,-1.224712539146515,-1.5489662704277098,-4.104382581188283,4.4104122959355685,-2.6658890846081396,-0.24143426546751032,0.006224747020374577,-0.05838524876233553,0.11676032289359581,0.14504908361244828,-0.2420091413251113,-0.4961794912815094,0.586542010307312,0.6114928722381592,0.347234696149826,0.2866967916488647,-0.2879552245140075
1749027175.274682,4.219918972605729,-1.2247007529612104,-1.5490823934719444,-4.104153138368965,4.410701803277539,-2.6663714854606018,-0.24314214104863324,0.006337369206398667,-0.058913082489205036,0.11752664026055822,0.14619846274175366,-0.24370524249838574,-0.5023384690284729,0.6119681596755981,0.6077989935874939,0.3443557024002075,0.3190990686416626,-0.3328494429588318
1749027175.2747188,4.219427213713439,-1.2246887517580427,-1.5492001511080329,-4.103922056976209,4.410994265484492,-2.666857516848031,-0.24487353711043386,0.00644753263069307,-0.059453350313890777,0.11827910262815422,0.147460862463446,-0.24543315051541684,-0.4414113163948059,0.5968905687332153,0.6091365218162537,0.3380285501480102,0.2867603898048401,-0.3145931363105774
1749027175.2747552,4.218932690714298,-1.2246764994361987,-1.5493194515256237,-4.103689183261647,4.411290032640257,-2.6673472108153278,-0.2466290743875735,0.006551332902642644,-0.06000016510607265,0.11903229705428162,0.14881819175471203,-0.24717195338620657,-0.505909264087677,0.5881808996200562,0.6147135496139526,0.3238072395324707,0.3099739551544189,-0.3099521100521087
1749027175.2747912,4.218435518734595,-1.2246639747685337,-1.5494402050025307,-4.1034542994930785,4.411589395659154,-2.6678406744634495,-0.24840963657638396,0.006645213106861864,-0.06054910298401386,0.11980429747398995,0.15024323892197394,-0.24890420761056886,-0.4365352094173431,0.585968017578125,0.6128832101821899,0.360088974237442,0.2978099286556244,-0.2661249339580536
1749027175.2748277,4.217935682760403,-1.224651173356918,-1.5495623346695704,-4.10321712427063,4.411892581532838,-2.6683381151723014,-0.2502161074996067,0.006726227749248136,-0.06109775769397532,0.12061338675282403,0.15170225732173623,-0.2506185473403913,-0.4804616272449493,0.5944135189056396,0.6135812997817993,0.3725681006908417,0.3074137270450592,-0.2488377839326858
1749027175.2748635,4.217433022330442,-1.2246381078025232,-1.549685784248226,-4.102977322954243,4.412199755833346,-2.6688398539232887,-0.25204888829935357,0.006792239339438501,-0.061645905209290024,0.12147445517275726,0.15315809827160254,-0.2523108095743607,-0.4836240410804748,0.5808230638504028,0.6066470146179199,0.3657857775688171,0.2446886152029037,-0.2447927892208099
1749027175.2748995,4.216927229735763,-1.2246248058851563,-1.5498105227552845,-4.102734528236801,4.412511029049222,-2.6693463214835784,-0.25390729602556183,0.006842033919163425,-0.06219527094708955,0.12239573120096868,0.15457349303587525,-0.25398339103579565,-0.5814014077186584,0.5870782732963562,0.6036776900291443,0.3921601772308349,0.2931846976280212,-0.2464805543422699
1749027175.2749355,4.216417863289853,-1.2246113069793654,-1.5499365461561656,-4.102488369875003,4.412826462726916,-2.6698580338618703,-0.2557890037999373,0.006875357781782993,-0.06274896025765096,0.12337647128630543,0.15591410896730776,-0.2556429844829121,-0.5147988200187683,0.585124135017395,0.5951025485992432,0.3884694874286651,0.2885783314704895,-0.298993706703186
1749027175.2749715,4.215904376767478,-1.2245976572874824,-1.5500638757569172,-4.102238511498817,4.413146071808652,-2.6703755465487853,-0.2576896609531276,0.006892892681749653,-0.06331066742398579,0.1244060743558577,0.15715109825809626,-0.25729731479518075,-0.4810722768306732,0.6140335202217102,0.5980575680732727,0.4161467850208282,0.2638174295425415,-0.3138541281223297
1749027175.2750082,4.215386165114096,-1.2245839047628617,-1.550192553107086,-4.101984691156584,4.413469820823757,-2.6708993908421372,-0.25960276182511716,0.006896191898526898,-0.06388380754892063,0.12546482804238812,0.15826298854723272,-0.25895179268895663,-0.4662435352802276,0.586126983165741,0.6014227867126465,0.4068649411201477,0.2533919215202331,-0.3298275768756866
1749027175.275679,4.214862624638923,-1.224570094751593,-1.5503226315817193,-4.101726761088372,4.4137976133971275,-2.671429998932867,-0.26151978344911625,0.006887595749664549,-0.06447071831035375,0.12652619089913983,0.15923688748172415,-0.26060697984093184,-0.5559501051902771,0.5879352688789368,0.5761911869049072,0.3925819396972656,0.2712002992630005,-0.3065603971481323
1749027175.2776845,4.214333223228945,-1.2245562670865608,-1.550454165410332,-4.1014647215581,4.414129276500272,-2.671967626712597,-0.2634306083386209,0.006870137213005799,-0.0650720591125318,0.12756023107029216,0.16006905935598612,-0.2622574368831681,-0.5528625249862671,0.6057093739509583,0.5861794352531433,0.3957305550575256,0.2754960656166076,-0.3007216155529022
1749027175.3223016,4.213797573456156,-1.224542454611636,-1.5505871973404344,-4.101198743599702,4.414464542640929,-2.672512284281812,-0.26532424222501455,0.006847435277741416,-0.06568649357638623,0.128537642163852,0.1607649737388391,-0.26389208290406563,-0.4757793843746185,0.590170681476593,0.610929012298584,0.3638821244239807,0.2754635512828827,-0.3024620413780212
1749027175.3223474,4.213255499697246,-1.2245286824396437,-1.5507217463215668,-4.100929176211555,4.414803034507898,-2.673063683906119,-0.2671897843801224,0.006823556495985054,-0.06631067934988619,0.1294336879578493,0.1613389265917546,-0.2654958390823431,-0.4732849895954132,0.6000676155090332,0.5858503580093384,0.3891815543174743,0.2751400172710418,-0.2977524399757385
1749027175.3223898,4.212707089931358,-1.2245149671960436,-1.5508577967514474,-4.100656534870063,4.415144257220101,-2.673621213806947,-0.26901753639199205,0.006802816784501496,-0.06693952237907405,0.13023149250788021,0.16181330322440612,-0.26705216131926973,-0.5267060399055481,0.6160540580749512,0.5910102128982544,0.406408280134201,0.2799058854579925,-0.3099220395088196
1749027175.322429,4.212152723707843,-1.224501316028512,-1.5509952908293183,-4.100381470334363,4.415487603024132,-2.6741839439535786,-0.2708001010600838,0.006789507777468764,-0.06756660098360368,0.130924246846981,0.16221750532907178,-0.26854604366790474,-0.5097880959510803,0.5958930253982544,0.655622124671936,0.3520841598510742,0.2722445726394653,-0.3506981134414673
1749027175.3224678,4.211593069949686,-1.2244877257949738,-1.5511341250969297,-4.100104719540953,4.415832371905227,-2.674750667131681,-0.27253333500842086,0.006787556497997662,-0.06818463891572489,0.131516087087326,0.1625865177924859,-0.26996708192424046,-0.504464864730835,0.6000746488571167,0.620026171207428,0.3502644300460815,0.2763075530529022,-0.3199471831321716
1749027175.3225064,4.211029052191628,-1.2244741831990897,-1.5512741513290598,-4.099827043626221,4.416177809023021,-2.675319974669799,-0.2742170381866369,0.006800144344840912,-0.06878591484004458,0.13202158004576062,0.16295905608695851,-0.2713121525995918,-0.4938032627105713,0.5718450546264648,0.6289318203926086,0.3498489260673523,0.2317674458026886,-0.2738568782806396
1749027175.3225443,4.210461784812092,-1.2244606666235147,-1.5514151809642205,-4.099549161300265,4.416523156000925,-2.675890360590958,-0.27585527129481857,0.006829318568957352,-0.06936254642421724,0.13246393344662946,0.16337522568765425,-0.27258721298459804,-0.5227789878845215,0.6136016845703125,0.6307233572006226,0.3701317608356476,0.241640105843544,-0.2544134855270386
1749027175.3225813,4.2098924905400485,-1.224447150033291,-1.5515569916512013,-4.099271688099535,4.416867708512464,-2.67646034104446,-0.27745621026077827,0.006875640987430905,-0.06990666572381218,0.13287222068743512,0.16387367325529859,-0.27380775735644186,-0.5227789878845215,0.6136016845703125,0.6307233572006226,0.3701317608356476,0.241640105843544,-0.2544134855270386
1749027175.3226187,4.20932241359995,-1.2244336086313603,-1.5516993345066463,-4.098995092034936,4.417210869603114,-2.6770285708319106,-0.27903149347476514,0.006937937253805232,-0.07041057010301761,0.13327803741904243,0.16448834809222593,-0.27499765314108804,-0.5056732892990112,0.597110390663147,0.6119879484176636,0.392959326505661,0.2808219790458679,-0.2811743319034576
1749027175.3226552,4.208752741104133,-1.2244200251331432,-1.55184194145437,-4.098719672723604,4.4175521892676795,-2.677593939778495,-0.2805950769498502,0.007013215834655705,-0.07086695882962704,0.1337120511737139,0.16524519991379583,-0.2761864209030996,-0.5056732892990112,0.597110390663147,0.6119879484176636,0.392959326505661,0.2808219790458679,-0.2811743319034576
1749027175.3226955,4.208184538199811,-1.2244063950039556,-1.551984533272635,-4.098445564963243,4.417891385906017,-2.6781556391654053,-0.282161667689425,0.007096804113043364,-0.07126934425825196,0.13420085995241346,0.16615931644299384,-0.2774053982607268,-0.4900386035442352,0.6104379296302795,0.6609159708023071,0.375709980726242,0.2951192855834961,-0.3102255165576935
1749027175.322734,4.2076186944509395,-1.224392729218824,-1.5521268299884912,-4.098172761391721,4.418228351339239,-2.678713198119831,-0.2837448696438618,0.007182710442996019,-0.07161266833819925,0.1347644667991585,0.16723303584129334,-0.27868348379792623,-0.5784412026405334,0.6173475384712219,0.6174134612083435,0.3939525187015533,0.3160280585289001,-0.2947012186050415
1749027175.3227708,4.207055874680122,-1.2243790540861468,-1.552268565368183,-4.097901144922265,4.4185631447596485,-2.6792664965736437,-0.28535526097356856,0.00726418423353056,-0.07189407791739877,0.1354145453916671,0.1684554127738033,-0.2800432039594468,-0.5784412026405334,0.6173475384712219,0.6174134612083435,0.3939525187015533,0.3160280585289001,-0.2947012186050415
1749027175.3228073,4.2064964679983285,-1.2243654087882703,-1.5524095065131247,-4.097630520787815,4.418895981711,-2.6798157637658684,-0.2869986893567638,0.007334416879444798,-0.07211373999949124,0.13615355335845622,0.1698031384699194,-0.28149771369455817,-0.562454342842102,0.5886765122413635,0.6572083234786987,0.3845016062259674,0.2927533388137817,-0.2960424423217773
1749027175.3228445,4.205940531609654,-1.2243518416784824,-1.5525494785497,-4.097360639271248,4.419227223769986,-2.6803615712949775,-0.2886750636272405,0.0073873041577694745,-0.07227553382009966,0.1369746661984716,0.17124273382316488,-0.28304912406489297,-0.5204933881759644,0.6013513207435608,0.6454237103462219,0.3972226679325104,0.2555589973926544,-0.3380952179431915
1749027175.322881,4.205387730035192,-1.2243384058655573,-1.552688393119501,-4.097091203015122,4.41955737369451,-2.68090482788307,-0.2903778194930708,0.007418180260988622,-0.07238745223287898,0.13786245884976794,0.17273364198912977,-0.2846883159163377,-0.5023200511932373,0.6052316427230835,0.6621776819229126,0.3964984714984894,0.2809204459190368,-0.3610919713973999
1749027175.322918,4.204837277241086,-1.224325153979715,-1.5528262772291568,-4.096821857940728,4.419887077591978,-2.6814467769178902,-0.2920940954472232,0.007424437434285341,-0.07246157571318895,0.13879424231236076,0.1742317735972007,-0.2863961636225822,-0.5464672446250916,0.5912356376647949,0.6666534543037415,0.3903886675834656,0.2902965843677521,-0.3387647867202759
1749027175.322955,4.2042878984463785,-1.224312132018974,-1.552963296221401,-4.096552173924205,4.420217129380946,-2.6819889876129523,-0.29380553913279595,0.007405956605897178,-0.07251353237816302,0.13974194490779662,0.17569308674721348,-0.28814585977268586,-0.5464672446250916,0.5912356376647949,0.6666534543037415,0.3903886675834656,0.2902965843677521,-0.3387647867202759
1749027175.3229916,4.203737835112802,-1.2242993727125482,-1.5530997628533616,-4.096281627540503,4.420548466524517,-2.68253332183342,-0.2954895969308724,0.007365286988928449,-0.07256141738138315,0.14067439422666672,0.17707686872548645,-0.2899058416256884,-0.4851702153682709,0.5868115425109863,0.6479541659355164,0.3727583289146423,0.2843389809131622,-0.3051037490367889
1749027175.3230278,4.203184915106254,-1.2242868892744516,-1.5532361254566092,-4.0960096009655445,4.420882144087099,-2.683081857656955,-0.2971211022597207,0.007307529664950634,-0.07262422085676708,0.14155981795281292,0.17834847487287764,-0.2916427516854343,-0.4851702153682709,0.5868115425109863,0.6479541659355164,0.3727583289146423,0.2843389809131622,-0.3051037490367889
1749027175.323064,4.202626698939968,-1.2242746704818281,-1.553372932157706,-4.0957354073659875,4.421219278312963,-2.6836367592601507,-0.29867396901988397,0.007239909346562457,-0.07271990846101536,0.14236836771958128,0.17948135032650145,-0.29332396848020165,-0.5225400328636169,0.6127183437347412,0.6323641538619995,0.3603861927986145,0.2680160403251648,-0.3042395114898681
1749027175.3231,4.202060695953277,-1.2242626779247445,-1.5535107738198517,-4.095458345352425,4.421560959313958,-2.684200097275163,-0.3001228470010862,0.0071710618697269895,-0.07286339441589691,0.14307449212623952,0.18045822716228108,-0.29491948323613476,-0.5197476744651794,0.5952908396720886,0.6103982925415039,0.3615317940711975,0.2560631334781647,-0.311423122882843
1749027175.3237803,4.201484627057292,-1.224250846241263,-1.5536502137278756,-4.095177776379183,4.421908141688366,-2.684773638641516,-0.30144470683823693,0.007110116752872842,-0.07306471330327954,0.14365902696333305,0.18127147493855977,-0.2964031680276859,-0.5689366459846497,0.6050182580947876,0.6097920536994934,0.3612173795700073,0.2667053937911987,-0.3209833800792694
1749027175.3258138,4.200896698011986,-1.2242390870077835,-1.5537917154593712,-4.0948932122095085,4.4222615292799565,-2.6853586355535533,-0.3026204190667937,0.0070657026936907915,-0.07332770838488545,0.1441109020151,0.18192268987515312,-0.29775367338636516,-0.5689366459846497,0.6050182580947876,0.6097920536994934,0.3612173795700073,0.2667053937911987,-0.3209833800792694
1749027175.3662694,4.200295841018594,-1.224227296335885,-1.5539355811951168,-4.0946043960264324,4.422621474513397,-2.6859556476445525,-0.3036363886744295,0.007045032413418688,-0.07364949715541787,0.14442836287058605,0.18242171427250664,-0.29895524737246604,-0.4959988892078399,0.6318975687026978,0.6148497462272644,0.3414735794067383,0.2956429123878479,-0.3265261352062225
1749027175.366314,4.199681883390019,-1.2242153650529446,-1.5540819109910213,-4.094311360582456,4.4229879127721015,-2.686564429900869,-0.3044861954916363,0.007053215935054931,-0.0740208512141861,0.14461957845373807,0.1827853419675285,-0.29999868129557117,-0.4959988892078399,0.6318975687026978,0.6148497462272644,0.3414735794067383,0.2956429123878479,-0.3265261352062225
1749027175.3663578,4.199055611253425,-1.2242031891384322,-1.5542305897356985,-4.09401445011431,4.423360347069595,-2.687183910571779,-0.305172041592172,0.007092903604900305,-0.0744274599966449,0.1447024841872211,0.18303594739627427,-0.300882405431468,-0.5660784244537354,0.6273906826972961,0.6147732734680176,0.361744076013565,0.2789462804794311,-0.3084633946418762
1749027175.366397,4.198418713242052,-1.2241906776986913,-1.5543813036199625,-4.093714299394146,4.423737888463197,-2.687812269142922,-0.3057056954437175,0.007164282969224666,-0.07485187564491136,0.14470373786828103,0.1832001648997212,-0.30161355326540473,-0.4682986140251159,0.6229450106620789,0.6473085880279541,0.342387706041336,0.2429524362087249,-0.3364335894584656
1749027175.3664346,4.1977736099962515,-1.2241777566322196,-1.554533583170179,-4.093411771566682,4.424119346383406,-2.6884471075819767,-0.3061085860723722,0.007265369775307614,-0.07527580335590825,0.14465675763262761,0.18330758677850642,-0.3022086534449877,-0.4796850681304931,0.618810772895813,0.6270739436149597,0.3367792963981628,0.2623609602451324,-0.3256279230117798
1749027175.366472,4.1971231939124065,-1.2241643678427603,-1.5546868661536046,-4.093107863693902,4.424503354254897,-2.6890856933995657,-0.30641075453334937,0.007392470319000822,-0.07568234307881669,0.14459895023101746,0.18338933900463134,-0.302693542744802,-0.5311346054077148,0.5964818596839905,0.6670424938201904,0.3746795654296875,0.2587395906448364,-0.2965453863143921
1749027175.366514,4.196470515427654,-1.2241504654085016,-1.5548405713634068,-4.092803593423994,4.424888511927128,-2.689725243889251,-0.3066485321028682,0.00754067238424752,-0.07605781755247049,0.14456838376053238,0.18347641305458842,-0.30310215327150114,-0.5663803815841675,0.6049734950065613,0.6368903517723083,0.364671379327774,0.2875970602035522,-0.3019485175609588
1749027175.3665526,4.195818456878747,-1.2241360107556343,-1.5549941733495423,-4.092499882119576,4.425273526982844,-2.690363216861998,-0.3068610792841357,0.007704252265780592,-0.07639292673827856,0.14460026927544214,0.18359777020284185,-0.30347402625523084,-0.4136050343513489,0.5901015996932983,0.6735081672668457,0.358423501253128,0.2539267539978027,-0.2804007232189178
1749027175.3665895,4.195169434703145,-1.2241209686251688,-1.555147268257279,-4.092197450101014,4.4256573394947,-2.690997572430271,-0.3070862231030657,0.00787695378529512,-0.07668312235908978,0.1447236610905398,0.18377839964922837,-0.30385071106217554,-0.4136050343513489,0.5901015996932983,0.6735081672668457,0.358423501253128,0.2539267539978027,-0.2804007232189178
1749027175.3666265,4.194525165974994,-1.2241053049675759,-1.5552996221778617,-4.09189673821593,4.426039217830128,-2.6916269734754534,-0.3073562666480316,0.008052173174315298,-0.07692826239914742,0.14495876635602137,0.18403761770671656,-0.3042715293272487,-0.4441414773464203,0.6128674149513245,0.6418861746788025,0.3696617186069488,0.300882339477539,-0.2889165580272674
1749027175.366663,4.193886525549439,-1.2240889872436413,-1.5554511961255229,-4.091597866063542,4.426418816731931,-2.6922509007278714,-0.30769451739294695,0.008223136183315714,-0.07713174345461163,0.14531519022069966,0.18438790746861922,-0.30476940120097207,-0.6145017743110657,0.6507689952850342,0.6050065755844116,0.3776669502258301,0.3170550465583801,-0.3381771743297577
1749027175.3666997,4.193253507662966,-1.2240719870905388,-1.5556021453626387,-4.09130063176248,4.426796192587196,-2.69286966972186,-0.30811314720390215,0.00838315628872749,-0.07729938149900062,0.1457913430897245,0.18483451510275667,-0.3053674602636114,-0.6145017743110657,0.6507689952850342,0.6050065755844116,0.3776669502258301,0.3170550465583801,-0.3381771743297577
1749027175.3667362,4.19262529404975,-1.2240542849839608,-1.5557527941017544,-4.091004552859252,4.427171773756478,-2.693484347726784,-0.30861269693827875,0.008526014038715531,-0.07743829690912543,0.14637509513201466,0.1853758502777519,-0.30607701349893784,-0.5109594464302063,0.6150394678115845,0.6415514945983887,0.3819425702095032,0.289385974407196,-0.3073979020118713
1749027175.3667743,4.1920004195543354,-1.2240358763807695,-1.5559035892180755,-4.0907089430815855,4.427546287152136,-2.694096579381909,-0.3091831803460833,0.00864641972969441,-0.07755596954095796,0.14704558478076155,0.1860045198460928,-0.30689708620004946,-0.5109594464302063,0.6150394678115845,0.6415514945983887,0.3819425702095032,0.289385974407196,-0.3073979020118713
1749027175.366811,4.191377014113037,-1.2240167787458194,-1.556055038952256,-4.09041301450889,4.427920647718938,-2.6947083422239384,-0.30980644561845627,0.008740452405819398,-0.0776595176908959,0.14777591074674212,0.18670864008825022,-0.30781543259488325,-0.5694238543510437,0.6042400598526001,0.6371428966522217,0.3724906146526336,0.2756315171718597,-0.3057906627655029
1749027175.366848,4.19075308797474,-1.2239970387136982,-1.556207644738305,-4.09011599007204,4.428295824588584,-2.695321665909195,-0.3104592915597408,0.008805844039260704,-0.07775518143362928,0.14853631691571612,0.18747303187677253,-0.3088106130234775,-0.5246281623840332,0.5890241265296936,0.6263189315795898,0.388174831867218,0.2845182716846466,-0.2951480448246002
1749027175.3668845,4.190126819385857,-1.2239767384038653,-1.556361835521593,-4.089817209228977,4.428672703446765,-2.6959383565417907,-0.31111681066470853,0.008842012509432944,-0.07784797235842901,0.14929744031208284,0.1882800517589071,-0.30985461423822475,-0.4933175146579742,0.5738030672073364,0.661033034324646,0.368451178073883,0.3073351383209228,-0.281656265258789
1749027175.3669207,4.189496804244264,-1.2239559997348735,-1.5565179134438432,-4.089516211719318,4.429051966017941,-2.696559766238011,-0.3117554973638642,0.008849823720443174,-0.07794145670008487,0.15003321081296608,0.18911007767994628,-0.3109155198041975,-0.4606707692146301,0.6036933064460754,0.6475337743759155,0.3505765199661255,0.3391216993331909,-0.2882090806961059
1749027175.366957,4.188862235387666,-1.2239349855816697,-1.5566760175431291,-4.08921278980807,4.429434003771467,-2.6971866383044776,-0.31235577222598115,0.008831148063678379,-0.07803763935204074,0.15072304466889833,0.1899419021992376,-0.3119598780004481,-0.529598593711853,0.6090905666351318,0.6551196575164795,0.3432236313819885,0.3484379947185516,-0.2910963594913482
1749027175.366993,4.188222992311052,-1.22391389681387,-1.556836108882955,-4.088907005968053,4.429818875598902,-2.6978190437143144,-0.3129037081505863,0.008788336877538072,-0.07813692017125015,0.1513530720590772,0.19075335578454966,-0.3129546112465065,-0.5431216955184937,0.5961462259292603,0.6306331157684326,0.3414934575557709,0.3051404953002929,-0.2913846671581268
1749027175.367782,4.187579637025891,-1.223892964689616,-1.5569979771096902,-4.088599178342857,4.4302063107054055,-2.698456408596228,-0.3133918768086254,0.008723758077129867,-0.07823811775723624,0.15191629265977175,0.19152234344528474,-0.3138684984134147,-0.4509324431419372,0.5755487084388733,0.6397026181221008,0.3451272249221802,0.2763580679893493,-0.3222731947898865
