nimar13/UR3e_dataset_trayectorias/trayectorias_ejecutadas/trapezoidal_func/trayectoria_064_result.csv
timestamp,q1,q2,q3,q4,q5,q6,qd1,qd2,qd3,qd4,qd5,qd6,tau1,tau2,tau3,tau4,tau5,tau6
1749055232.6903355,4.471141338348389,-0.4902903598598023,-0.9457934498786926,-2.4353682003416957,0.09024214744567871,0.036818623542785645,0.03163418918848038,0.005467747338116169,-0.017760733142495155,-0.01895466446876526,-0.012053435668349266,0.0005706680822186172,0.2142726480960846,-0.7723226547241211,-0.11570584774017334,0.14092469215393066,-0.5989511609077454,0.13081015646457672
1749055232.6903844,4.471217155456543,-0.49025757730517583,-0.9458362460136414,-2.4354073009886683,0.09022665023803711,0.036787062883377075,0.028927316889166832,0.003551946021616459,-0.016792889684438705,-0.01667085476219654,-0.011162104085087776,0.0005343789234757423,0.2158699631690979,-0.7874306440353394,-0.1191147193312645,0.14026154577732086,-0.6111028790473938,0.14996300637722015
1749055232.690425,4.47123384475708,-0.4902610343745728,-0.9458722472190857,-2.4354311428465785,0.0902111679315567,0.03679896146059036,0.02735215425491333,0.0027531429659575224,-0.01485576294362545,-0.015387358143925667,-0.010252728126943111,0.0004944995162077248,0.21388082206249237,-0.7944473028182983,-0.11966691166162491,0.12791627645492554,-0.5830780863761902,0.1438298225402832
1749055232.6904664,4.471304416656494,-0.49023719251666265,-0.945873498916626,-2.4354669056334437,0.0901784598827362,0.036783453077077866,0.025940177962183952,0.002193605061620474,-0.013702025637030602,-0.014085578732192516,-0.008969736285507679,0.0004588043666444719,0.19057489931583405,-0.8237501978874207,-0.12799686193466187,0.1275661289691925,-0.5748780369758606,0.13495352864265442
1749055232.690506,4.4713263511657715,-0.4902351659587403,-0.9459201693534851,-2.4354754887022914,0.09015941619873047,0.03683765232563019,0.02372651919722557,0.0016821069875732064,-0.011998330242931843,-0.013150803744792938,-0.006485398393124342,0.00047121994430199265,0.2004704773426056,-0.8447617292404175,-0.15134575963020325,0.13187633454799652,-0.5565770864486694,0.1699236035346985
1749055232.6905441,4.471381664276123,-0.4902491134456177,-0.9459442496299744,-2.4355112514891566,0.09017379581928253,0.036795228719711304,0.021357635036110878,0.001362985116429627,-0.01152087189257145,-0.011701980605721474,-0.0038386734668165445,0.0004545510746538639,0.1948455274105072,-0.8509198427200317,-0.13148358464241028,0.1374647617340088,-0.5629929304122925,0.15932895243167877
1749055232.6905823,4.471464157104492,-0.4902491134456177,-0.9459684491157532,-2.4355036220946253,0.09013889729976654,0.03678344935178757,0.018322886899113655,0.0010075843892991543,-0.010245290584862232,-0.010408568195998669,-0.0026540488470345736,0.00042972344090230763,0.20719148218631744,-0.8722680807113647,-0.14173296093940735,0.1255943328142166,-0.5505884885787964,0.1478641778230667
1749055232.6906197,4.471468925476074,-0.4902302783778687,-0.9459924101829529,-2.43554749111318,0.09015798568725586,0.036798954010009766,0.017022976651787758,0.0008648312068544328,-0.009100248105823994,-0.009942297823727131,-0.001896385452710092,0.00040588388219475746,0.20818503201007843,-0.9144937992095947,-0.1224680095911026,0.15278975665569305,-0.5455226898193359,0.15375764667987823
1749055232.6906567,4.471513271331787,-0.49024565637622075,-0.9459734559059143,-2.4355551205077113,0.09017014503479004,0.0367952361702919,0.014685514383018017,0.00030488992342725396,-0.007836281321942806,-0.00837990827858448,-0.0014536242233589292,0.0003842655860353261,0.17869241535663605,-0.8930226564407349,-0.104733407497406,0.169634148478508,-0.5190550088882446,0.13940279185771942
1749055232.6906946,4.471493721008301,-0.4902114433101197,-0.9460008144378662,-2.43557133297109,0.0901784896850586,0.03679893910884857,0.01372319832444191,0.0001218768156832084,-0.00572229502722621,-0.006012219004333019,-0.0011765259550884366,0.0003647957637440413,0.20415598154067993,-0.8927242755889893,-0.08857300132513046,0.18138468265533447,-0.5167455077171326,0.13488535583019257
1749055232.6907327,4.4715375900268555,-0.4902268213084717,-0.9460198283195496,-2.435563703576559,0.09015075862407684,0.03678346425294876,0.012477251701056957,3.172827564412728e-05,-0.004050969611853361,-0.0033533559180796146,-0.0006321597611531615,0.0003472388198133558,0.1926829069852829,-0.9347377419471741,-0.10158693045377731,0.17731250822544098,-0.5140937566757202,0.14993806183338165
1749055232.6907701,4.4715728759765625,-0.4902610343745728,-0.9460403323173523,-2.4355675182738246,0.0901784896850586,0.036779724061489105,0.0117421206086874,3.095603346991993e-07,-0.0022239037789404392,-0.001980528933927417,-0.0003300250100437552,0.00028201824170537293,0.15585947036743164,-0.9565951228141785,-0.08952408283948898,0.17830950021743774,-0.5043213963508606,0.15217657387256622
1749055232.6908078,4.471558570861816,-0.49025757730517583,-0.9460558295249939,-2.4355675182738246,0.09014610946178436,0.03679892420768738,0.00798026006668806,3.0202584877514482e-09,-0.0014777424512431026,-0.0013575912453234196,-0.0002485704608261585,0.00025809198268689215,0.14857888221740723,-0.9441350102424622,-0.10756763070821762,0.1985074132680893,-0.49459773302078247,0.15600404143333435
1749055232.690845,4.471574306488037,-0.4902504247478028,-0.9460522532463074,-2.435582777062887,0.0901975929737091,0.03679164499044418,0.004464068915694952,-0.0023512740153819323,-0.0013094332534819841,-0.0010312659433111548,-0.0001541804667795077,0.0002427793515380472,0.11723356693983078,-0.9397461414337158,-0.07078108936548233,0.22447419166564941,-0.49630409479141235,0.13005736470222473
1749055232.6908834,4.47160530090332,-0.4902903598598023,-0.9460522532463074,-2.435582777062887,0.09017014503479004,0.03681506961584091,0.002520601265132427,-0.002846525749191642,-0.00091246870579198,-0.000834077422041446,-0.00010292306978954002,0.000230104909860529,0.14101293683052063,-0.944163978099823,-0.0730559453368187,0.21927432715892792,-0.48732268810272217,0.16031093895435333
1749055232.6909206,4.471628189086914,-0.4902903598598023,-0.9460332989692688,-2.435582777062887,0.0901784896850586,0.03680424392223358,0.0012519733281806111,-0.003152831457555294,-0.0007417436572723091,-0.0006252971361391246,-8.684827480465174e-05,0.00021886244940105826,0.08682847768068314,-0.9255171418190002,-0.06113206595182419,0.2184695452451706,-0.4793137311935425,0.15428438782691956
1749055232.6909575,4.471598148345947,-0.49029381692919927,-0.9460297226905823,-2.435563703576559,0.09013161063194275,0.03674517571926117,-0.0008036398212425411,-0.002188544487580657,-0.0006352960481308401,-0.0004960496444255114,-7.817814912414178e-05,0.0002086972672259435,0.09560579061508179,-0.9641591906547546,-0.04808088392019272,0.23179315030574799,-0.47534608840942383,0.14032569527626038
1749055232.690995,4.4715895652771,-0.49033506334338384,-0.9460368156433105,-2.435563703576559,0.09015075862407684,0.036798954010009766,-0.004369583912193775,-0.0019862218759953976,-0.0005564296734519303,-0.0003540447214618325,-7.173652556957677e-05,0.00019943750521633774,0.11761586368083954,-0.9827571511268616,-0.04370390623807907,0.23156054317951202,-0.4590246081352234,0.1489364355802536
1749055232.6910322,4.471640110015869,-0.4903091949275513,-0.9460368156433105,-2.4355513058104457,0.09016299247741699,0.03679167479276657,-0.005023380275815725,-0.002480302704498172,-0.00040332478238269687,-0.0002919979451689869,-2.8987429686821997e-05,0.00019096983305644244,0.11181014776229858,-0.9810104966163635,-0.03188919275999069,0.2567432224750519,-0.45550763607025146,0.13306568562984467
1749055232.6910691,4.4715895652771,-0.4903330367854615,-0.9460487365722656,-2.4355479679503382,0.09018562734127045,0.03681136667728424,-0.004509019199758768,-0.0036260520573705435,-0.0003572206769604236,-8.823022653814405e-06,-5.122382390254643e-06,0.0001831910922192037,0.08974799513816833,-0.984383225440979,-0.023165665566921234,0.2584110200405121,-0.4511863589286804,0.14072369039058685
1749055232.691473,4.4715657234191895,-0.4903639119914551,-0.9460142850875854,-2.4355675182738246,0.09017737209796906,0.03681505471467972,-0.00445142574608326,-0.003834869246929884,-0.00024926126934587955,0.0001385664363624528,-9.051786946656648e-07,0.0001760196319082752,0.07185179740190506,-0.987372100353241,-0.007876642048358917,0.2578633427619934,-0.4436347484588623,0.13530083000659943
1749055232.6934452,4.471538066864014,-0.4903107446483155,-0.9460368156433105,-2.435563703576559,0.0901784896850586,0.03677978739142418,-0.00492603424936533,-0.0032703664619475603,-3.639841088443063e-05,0.00021650720736943185,-1.5995458113593486e-07,0.00016939203487709165,0.07472728192806244,-0.9856077432632446,-0.017025209963321686,0.2730220854282379,-0.4246795177459717,0.12544354796409607
1749055232.7342782,4.471526622772217,-0.4903107446483155,-0.9460368156433105,-2.4355551205077113,0.09021663665771484,0.03680252283811569,-0.006138389464467764,-0.002410437911748886,0.00019478972535580397,0.00023967193556018174,-2.8265649376635338e-08,0.00016324450552929193,0.051761820912361145,-0.9956474900245667,-0.00977451354265213,0.2644917666912079,-0.4423901438713074,0.13331371545791626
1749055232.7343252,4.47148323059082,-0.4902988237193604,-0.9460213780403137,-2.4355551205077113,0.09020113945007324,0.03683408722281456,-0.0067546190693974495,-0.001982848159968853,0.00030286013497971,0.00026065122801810503,-4.994836988458928e-09,0.0001575260394020006,0.08622798323631287,-1.0273405313491821,-0.005040444433689117,0.2794038951396942,-0.4230939745903015,0.15965183079242706
1749055232.7343667,4.471495151519775,-0.4903330367854615,-0.9460248947143555,-2.435563703576559,0.09013525396585464,0.03681507706642151,-0.00689852936193347,-0.0015595157165080309,0.0008072066120803356,0.0002707233070395887,-8.826401276529339e-10,0.00015219746273942292,0.08320790529251099,-1.0276097059249878,0.0008878335356712341,0.2595715820789337,-0.4365776777267456,0.14840492606163025
1749055232.7344182,4.471490383148193,-0.49030573785815434,-0.9460055828094482,-2.435582777062887,0.09015798568725586,0.03681135177612305,-0.006278837099671364,-0.001281476579606533,0.0013877921737730503,0.00028566105174832046,-1.559717632826363e-10,0.00014721679326612502,0.06393531709909439,-1.0426040887832642,-0.019218482077121735,0.2794186770915985,-0.4209030270576477,0.12179247289896011
1749055232.734465,4.471490383148193,-0.49030573785815434,-0.9460055828094482,-2.435582777062887,0.09015798568725586,0.03681135177612305,-0.006278837099671364,-0.001281476579606533,0.0013877921737730503,0.00028566105174832046,-1.559717632826363e-10,0.00014721679326612502,0.06393531709909439,-1.0426040887832642,-0.019218482077121735,0.2794186770915985,-0.4209030270576477,0.12179247289896011
1749055232.7345054,4.471485614776611,-0.4903211158565064,-0.9459972381591797,-2.43557133297109,0.09020950645208359,0.036772601306438446,-0.004919522441923618,-0.0006897961720824242,0.0017680542077869177,0.0006581324269063771,-4.870467744388929e-12,0.00013817301078233868,0.025770744308829308,-1.0533246994018555,-0.021621331572532654,0.27245309948921204,-0.419796347618103,0.127701535820961
1749055232.7345443,4.471473693847656,-0.4903176587871094,-0.9459888935089111,-2.4355436764159144,0.09017378091812134,0.03683413565158844,-0.004851730074733496,-0.0007127135177142918,0.001682575442828238,0.0007175158243626356,-8.606626696050501e-13,0.00013405572099145502,0.03869444504380226,-1.07936429977417,-0.022263452410697937,0.2762972414493561,-0.4151647686958313,0.1163107305765152
1749055232.7345834,4.471480846405029,-0.4903211158565064,-0.9459576606750488,-2.43554749111318,0.0901556983590126,0.036798954010009766,-0.005484995432198048,-0.0007346017519012094,0.0016597830690443516,0.0009729111334308982,-1.5208814025877149e-13,0.0001301755546592176,0.05271013453602791,-1.047729730606079,-0.01147530972957611,0.2851516306400299,-0.43012696504592896,0.12855644524097443
1749055232.7346215,4.471458435058594,-0.49032457292590337,-0.9459853768348694,-2.4355436764159144,0.09018929302692413,0.03679893910884857,-0.005065782926976681,-0.0007519396021962166,0.0016270162304863334,0.0011134373489767313,-2.6875567675738003e-14,0.0001265157334273681,0.0451265387237072,-1.08249032497406,-0.0064004212617874146,0.2870376408100128,-0.41931211948394775,0.1362241953611374
1749055232.7346597,4.471433639526367,-0.4903330367854615,-0.9459576606750488,-2.4355274639525355,0.09018929302692413,0.0368025004863739,-0.0047629522159695625,-0.000998476636596024,0.0015253097517415881,0.0011027222499251366,-4.7491951506422464e-15,0.00012305557902436703,0.05597812309861183,-1.068952202796936,-0.01112838089466095,0.2726633548736572,-0.4237098693847656,0.13489626348018646
1749055232.734698,4.471403121948242,-0.4903295797160645,-0.9459611773490906,-2.4355584583678187,0.09019286930561066,0.03680780529975891,-0.0036269319243729115,-0.0011310635600239038,0.0014118109829723835,0.0009659739444032311,-8.392326737825947e-16,0.00011977838585153222,0.05051048472523689,-1.066381573677063,-0.017538852989673615,0.2815525531768799,-0.4224998950958252,0.1628333330154419
1749055232.734737,4.47142219543457,-0.49032612264666753,-0.9459960460662842,-2.4355274639525355,0.09016656875610352,0.03681133687496185,-0.0029150270856916904,-0.001602484262548387,0.0012559056049212813,0.0008418930228799582,-1.4830121508791248e-16,0.00011667299986584112,0.037824731320142746,-1.043453335762024,-0.021659985184669495,0.27798911929130554,-0.43084651231765747,0.13643628358840942
1749055232.7347748,4.471472263336182,-0.4903484147838135,-0.9459888935089111,-2.4355436764159144,0.09021663665771484,0.036807768046855927,-0.0025891682598739862,-0.0014355889288708568,0.0011139303678646684,0.0007429579272866249,-2.6206383787964075e-17,0.00011372394510544837,0.029198843985795975,-1.0501070022583008,-0.019271492958068848,0.2900903820991516,-0.4340302348136902,0.13292533159255981
1749055232.7348127,4.471460342407227,-0.4903176587871094,-0.9459924101829529,-2.4355436764159144,0.09020111709833145,0.036787018179893494,-0.002473764820024371,-0.0011355302995070815,0.0009505933267064393,0.0006643878878094256,-4.630942948827605e-18,0.00011091940541518852,0.046151917427778244,-1.0493135452270508,-0.02074146270751953,0.2859865725040436,-0.4257926940917969,0.14549431204795837
1749055232.7348518,4.471391201019287,-0.49032266557727056,-0.9459612369537354,-2.4355274639525355,0.09017379581928253,0.036818645894527435,-0.0021034746896475554,-0.0009379558614455163,0.0008259302121587098,0.0006296056089922786,-8.183361906484576e-19,0.00010825131175806746,0.03707316145300865,-1.0344982147216797,-0.009450092911720276,0.28639617562294006,-0.43103867769241333,0.11975955218076706
1749055232.7348893,4.471399307250977,-0.49032612264666753,-0.945976972579956,-2.43554749111318,0.09017014503479004,0.036826856434345245,-0.00157929805573076,-0.0007989988080225885,0.0007300180732272565,0.0006165575468912721,-1.4460858064122406e-19,0.00010570804442977533,0.03803926706314087,-1.0458192825317383,-0.022639557719230652,0.2807339131832123,-0.4392860531806946,0.12330969423055649
1749055232.7349272,4.471413612365723,-0.49030573785815434,-0.9459806084632874,-2.4355436764159144,0.09015798568725586,0.03681507706642151,-0.001556473202072084,-0.0006959355669096112,0.000654085713904351,0.0005745638627558947,-2.5553853172292002e-20,0.00010328088683309034,0.04581434279680252,-1.029605746269226,-0.01975402981042862,0.2947331368923187,-0.4357881546020508,0.14629049599170685
1749055232.7349641,4.471457004547119,-0.4903415006450196,-0.945976972579956,-2.43554749111318,0.09016658365726471,0.03679896891117096,-0.001422733417712152,-0.000616439909208566,0.0005924829165451229,0.0005332231521606445,-4.515634297786314e-21,0.00010096395999426022,0.018373899161815643,-1.0260858535766602,-0.013212114572525024,0.2826753854751587,-0.44982361793518066,0.13773488998413086
1749055232.7350016,4.471470832824707,-0.4902869027904053,-0.9459612369537354,-2.435531278649801,0.09017737209796906,0.03678343445062637,-0.001223167055286467,-0.0005532498471438885,0.0005414954503066838,0.0004965914995409548,-7.97959992933291e-22,9.874809620669112e-05,0.020084790885448456,-1.0421514511108398,-0.02526824176311493,0.27025458216667175,-0.4452728033065796,0.13854406774044037
1749055232.73504,4.471391201019287,-0.49030716836962895,-0.9459888935089111,-2.4355584583678187,0.09021663665771484,0.03681135177612305,-0.0011450286256149411,-0.0004450837441254407,0.0004985988489352167,0.00046454789116978645,-1.4100790230984614e-22,9.662676166044548e-05,0.032761164009571075,-1.0308282375335693,-0.020726002752780914,0.28513002395629883,-0.4396483898162842,0.11135423928499222
1749055232.7353735,4.4713945388793945,-0.4903176587871094,-0.9459806084632874,-2.4355622730650843,0.09015075862407684,0.03680252283811569,-0.001207841676659882,-0.0003828738699667156,0.0005189825897105038,0.0004363607440609485,-2.491757586381695e-23,9.459575812797993e-05,0.024463217705488205,-1.0034775733947754,-0.016889221966266632,0.2655690610408783,-0.4298017621040344,0.10087714344263077
1749055232.7373736,4.471420764923096,-0.49028344572100835,-0.945976972579956,-2.4355436764159144,0.09018562734127045,0.0368025042116642,-0.0014893290353938937,-0.00035262442543171346,0.0004913163720630109,0.00041138764936476946,-4.4031967475857e-24,9.264806431019679e-05,0.0153829799965024,-0.9963593482971191,-0.02209259569644928,0.29174938797950745,-0.4425010085105896,0.1020125299692154
1749055232.7782698,4.471424102783203,-0.4903176587871094,-0.9459455013275146,-2.4355622730650843,0.09016656875610352,0.036798954010009766,-0.0016607949510216713,-0.0003269934095442295,0.00046039168955758214,0.00033725809771567583,-7.780910310162885e-25,9.077833237824962e-05,0.014327713288366795,-1.0032649040222168,-0.0049095675349235535,0.28742560744285583,-0.42714768648147583,0.10002224892377853
1749055232.7783165,4.471379280090332,-0.4903211158565064,-0.9459806084632874,-2.435531278649801,0.09018564224243164,0.036811381578445435,-0.0027894226368516684,-0.00030483814771287143,0.00043274086783640087,0.000286359922029078,-1.3749684108035698e-25,8.898349915398285e-05,0.025845764204859734,-0.9844775795936584,-0.013216644525527954,0.30911514163017273,-0.413749635219574,0.09922289103269577
1749055232.7783573,4.471379280090332,-0.4903211158565064,-0.9459806084632874,-2.435531278649801,0.09018564224243164,0.036811381578445435,-0.0027894226368516684,-0.00030483814771287143,0.00043274086783640087,0.000286359922029078,-1.3749684108035698e-25,8.898349915398285e-05,0.025845764204859734,-0.9844775795936584,-0.013216644525527954,0.30911514163017273,-0.413749635219574,0.09922289103269577
1749055232.7783964,4.471386432647705,-0.49032612264666753,-0.9459611773490906,-2.4355436764159144,0.09018924832344055,0.036783456802368164,-0.0038308105431497097,-0.0002153249952243641,0.0002835234045051038,0.0002966849133372307,-4.29355959556804e-27,6.381974526448175e-05,-0.02421538345515728,-0.9632099866867065,-0.006728693842887878,0.3239676356315613,-0.3774980306625366,0.07858619093894958
1749055232.7784348,4.471362590789795,-0.4903211158565064,-0.945976972579956,-2.435538431207174,0.09019754827022552,0.036807816475629807,-0.003953950945287943,-0.00015365376020781696,0.00028932123677805066,0.0002984789025504142,-7.587169238069433e-28,1.840303411881905e-05,-0.041230589151382446,-0.9418304562568665,-0.017826497554779053,0.31570369005203247,-0.37872469425201416,0.0737549364566803
1749055232.7784736,4.471362590789795,-0.49033649385485845,-0.9459611773490906,-2.4355198345580042,0.09017849713563919,0.03680778667330742,-0.005113780964165926,2.766870784398634e-05,0.0002968702174257487,0.00032313086558133364,0.000164805052918382,-7.906910468591377e-05,-0.03926607966423035,-0.9320063591003418,-0.01544332504272461,0.3099414110183716,-0.351686954498291,0.03685653954744339
1749055232.7785127,4.471373081207275,-0.4902903598598023,-0.9459454417228699,-2.435531278649801,0.09020836651325226,0.03676798194646835,-0.005967026110738516,0.00013595684140454978,0.0002828515716828406,0.000453251414000988,0.0010466185631230474,-0.0022050985135138035,-0.014186069369316101,-0.9118136167526245,-0.025920644402503967,0.33864232897758484,-0.33198386430740356,0.029833247885107994
1749055232.7785518,4.47135066986084,-0.49033649385485845,-0.9459648132324219,-2.435516496697897,0.09022560715675354,0.03676426783204079,-0.007542220875620842,0.00018799540703184903,0.0002688642416615039,0.0008302056812681258,0.0024789469316601753,-0.003790512215346098,-0.041133813560009,-0.8996166586875916,-0.035668715834617615,0.3371402621269226,-0.32960832118988037,0.03391537070274353
1749055232.7785897,4.471365928649902,-0.49032802999530034,-0.9459684491157532,-2.4355346165099085,0.0902131050825119,0.03676319122314453,-0.007572866510599852,0.00022751378128305078,0.0002561149885877967,0.0025989077985286713,0.003295048139989376,-0.004830942954868078,-0.03139612823724747,-0.8607106804847717,-0.04830573499202728,0.34500062465667725,-0.31831640005111694,0.012066945433616638
1749055232.7786279,4.471310615539551,-0.4903176587871094,-0.9459683895111084,-2.4355198345580042,0.0901939868927002,0.0367596335709095,-0.007556471507996321,0.0012318686349317431,0.0002445154532324523,0.0033360938541591167,0.004029545467346907,-0.005859846714884043,-0.06342004239559174,-0.8976297974586487,-0.07016359269618988,0.3276669383049011,-0.2748618721961975,-0.029582343995571136
1749055232.7786663,4.471336841583252,-0.4903176587871094,-0.945976972579956,-2.435507436791891,0.09020218998193741,0.036759618669748306,-0.00912870466709137,0.0013669009786099195,0.0001975943596335128,0.003315676236525178,0.005815067328512669,-0.00802804809063673,-0.08937415480613708,-0.8713797926902771,-0.08130623400211334,0.3493152856826782,-0.25488072633743286,-0.03125905245542526
1749055232.7787042,4.471298694610596,-0.4903211158565064,-0.9459924101829529,-2.4355112514891566,0.0902843102812767,0.036727190017700195,-0.010901715606451035,0.0019201949471607804,0.00015939524746499956,0.003354322165250778,0.008567998185753822,-0.010371255688369274,-0.11930575966835022,-0.876711368560791,-0.10665413737297058,0.34817272424697876,-0.2415519654750824,-0.050882190465927124
1749055232.7787418,4.471293926239014,-0.49029381692919927,-0.945976972579956,-2.4354917011656703,0.09023134410381317,0.036664657294750214,-0.011985324323177338,0.0016788728535175323,0.00011325068771839142,0.0032661964651197195,0.010689650662243366,-0.012628646567463875,-0.09445459395647049,-0.8523805737495422,-0.10977634787559509,0.35374993085861206,-0.21897298097610474,-0.04734925180673599
1749055232.778779,4.47123384475708,-0.4903211158565064,-0.9459805488586426,-2.4355112514891566,0.09033248573541641,0.03666461631655693,-0.013721774332225323,0.0014956484083086252,-0.0003104302741121501,0.0034411163069307804,0.012722496874630451,-0.014960907399654388,-0.12520423531532288,-0.8542857766151428,-0.13469667732715607,0.3601413369178772,-0.21354088187217712,-0.01646421104669571
1749055232.778817,4.4712371826171875,-0.4903176587871094,-0.9459734559059143,-2.435483594933981,0.09036483615636826,0.036651406437158585,-0.014142567291855812,0.0011857509380206466,-0.003054032800719142,0.003885198850184679,0.015286813490092754,-0.015882112085819244,-0.15322917699813843,-0.8216758966445923,-0.13143040239810944,0.3647044003009796,-0.2296370565891266,-0.03712276369333267
1749055232.7788546,4.471190929412842,-0.49032946050677495,-0.946011483669281,-2.43546785930776,0.09037669003009796,0.036596283316612244,-0.01609259471297264,0.0012679905630648136,-0.004811995662748814,0.004649438429623842,0.015943162143230438,-0.017310256138443947,-0.12554320693016052,-0.8136945962905884,-0.13167153298854828,0.37464866042137146,-0.22085051238536835,-0.03836061805486679
1749055232.7788923,4.471171855926514,-0.49024005353961186,-0.9460127353668213,-2.4354754887022914,0.0904163345694542,0.03659513592720032,-0.015990590676665306,0.0025402044411748648,-0.004443316254764795,0.005265895277261734,0.015694811940193176,-0.016933267936110497,-0.11637028306722641,-0.8220314979553223,-0.15095150470733643,0.3627687990665436,-0.24434161186218262,-0.04645831137895584
1749055232.7789297,4.471123695373535,-0.4902869027904053,-0.9460320472717285,-2.43544401744985,0.09044519066810608,0.03656351566314697,-0.015436138026416302,0.0030565280467271805,-0.004489962011575699,0.005441945977509022,0.015755001455545425,-0.016564490273594856,-0.1452459990978241,-0.8046470880508423,-0.16153457760810852,0.3934047222137451,-0.21443186700344086,-0.0538310706615448
1749055232.7789667,4.4711503982543945,-0.4903091949275513,-0.9460368156433105,-2.43544401744985,0.09041881561279297,0.036555323749780655,-0.015767453238368034,0.0028262664563953876,-0.005232395604252815,0.005626985337585211,0.016368282958865166,-0.016711551696062088,-0.12042004615068436,-0.7859509587287903,-0.17708531022071838,0.38142505288124084,-0.18811044096946716,-0.06753644347190857
1749055232.779004,4.471086502075195,-0.4902869027904053,-0.9460712671279907,-2.4354478321471156,0.09050877392292023,0.036519307643175125,-0.01637333258986473,0.00258526555262506,-0.008191059343516827,0.006244489457458258,0.016692372038960457,-0.018561197444796562,-0.1397726833820343,-0.7707118391990662,-0.1824387013912201,0.40657365322113037,-0.19027391076087952,-0.08074285089969635
1749055232.779383,4.471052169799805,-0.49030430734667974,-0.9460764527320862,-2.4354239902892054,0.09051382541656494,0.036522865295410156,-0.01754918321967125,0.0023632601369172335,-0.010369345545768738,0.00733230309560895,0.0165829099714756,-0.020813338458538055,-0.12838654220104218,-0.782501757144928,-0.16002696752548218,0.39253729581832886,-0.16228580474853516,-0.0865183174610138
1749055232.7813914,4.471030235290527,-0.4902610343745728,-0.9460799694061279,-2.4353963337340296,0.09048716723918915,0.03647104650735855,-0.018322501331567764,0.0024692662991583347,-0.010969895869493484,0.00813679676502943,0.018402498215436935,-0.02131659910082817,-0.15200553834438324,-0.7520075440406799,-0.16322261095046997,0.4205113351345062,-0.16380180418491364,-0.09691883623600006
1749055232.8263311,4.471002578735352,-0.49023158968005376,-0.9461156129837036,-2.4353724918761195,0.0905822142958641,0.03646279126405716,-0.01858130469918251,0.0031371682416647673,-0.012470425106585026,0.008761403150856495,0.019941527396440506,-0.023552818223834038,-0.16957645118236542,-0.7325523495674133,-0.1745883822441101,0.41438785195350647,-0.14881962537765503,-0.09871657192707062
1749055232.826386,4.470951080322266,-0.49024708688769536,-0.9461172223091125,-2.4353610477843226,0.09063265472650528,0.03645087778568268,-0.019258951768279076,0.003852267749607563,-0.014531470835208893,0.009986406192183495,0.02135522849857807,-0.025875471532344818,-0.18480633199214935,-0.7504465579986572,-0.17295865714550018,0.39948397874832153,-0.12983328104019165,-0.1336737871170044
1749055232.8264327,4.470896244049072,-0.49024565637622075,-0.946148157119751,-2.4353214703001917,0.09062671661376953,0.03638720512390137,-0.019051888957619667,0.004442697856575251,-0.01404614932835102,0.011358322575688362,0.02395421266555786,-0.02912210300564766,-0.18495191633701324,-0.7439932823181152,-0.17736481130123138,0.3996608555316925,-0.14857885241508484,-0.12823821604251862
1749055232.8264735,4.4708571434021,-0.4902491134456177,-0.9461840987205505,-2.435312887231344,0.09070568531751633,0.03635482117533684,-0.01985027827322483,0.005890592001378536,-0.014406985603272915,0.011706969700753689,0.025156190618872643,-0.03176902234554291,-0.20416654646396637,-0.7250216007232666,-0.19906727969646454,0.3927629888057709,-0.11214685440063477,-0.13102218508720398
1749055232.8265178,4.470843315124512,-0.4902491134456177,-0.946212112903595,-2.4352857075133265,0.09074187278747559,0.036294713616371155,-0.02125774510204792,0.00570420827716589,-0.016248494386672974,0.0119736073538661,0.028128905221819878,-0.035670068114995956,-0.18225325644016266,-0.7514972686767578,-0.18008320033550262,0.4094250202178955,-0.10029201209545135,-0.13671515882015228
1749055232.8265598,4.470792293548584,-0.4902183574489136,-0.9462406635284424,-2.4352804623045863,0.09082505851984024,0.03621919825673103,-0.022642707452178,0.005411113146692514,-0.016658686101436615,0.011876261793076992,0.030504703521728516,-0.03871215134859085,-0.19368372857570648,-0.7150908708572388,-0.1530064046382904,0.3968055546283722,-0.09225884824991226,-0.134982630610466
1749055232.8265994,4.470747470855713,-0.4902218145183106,-0.9462921023368835,-2.4352528057494105,0.09087037295103073,0.03613312169909477,-0.024070164188742638,0.005595944356173277,-0.017009830102324486,0.011708090081810951,0.034373700618743896,-0.040827296674251556,-0.19431768357753754,-0.7009454965591431,-0.1529960185289383,0.4184305667877197,-0.07917238026857376,-0.1502782553434372
1749055232.826639,4.470689296722412,-0.49015458047900395,-0.9463352560997009,-2.4352289638915003,0.09094991534948349,0.03608010336756706,-0.024750974029302597,0.006522110663354397,-0.01623043417930603,0.012365773320198059,0.03574037924408913,-0.0438980758190155,-0.19536800682544708,-0.7040460705757141,-0.18029195070266724,0.4115874171257019,-0.057990506291389465,-0.1651240736246109
1749055232.8266776,4.47067928314209,-0.49017007768664556,-0.94637131690979,-2.4352055988707484,0.09103022515773773,0.03600645065307617,-0.025821270421147346,0.007950221188366413,-0.01640896126627922,0.01236746460199356,0.038731206208467484,-0.046717267483472824,-0.19976677000522614,-0.703341543674469,-0.14808350801467896,0.42951396107673645,-0.06670434027910233,-0.15647932887077332
1749055232.826719,4.4706244468688965,-0.490142897968628,-0.9464001059532166,-2.43518128017568,0.09112515300512314,0.035906873643398285,-0.028397763147950172,0.009159560315310955,-0.016642466187477112,0.012483799830079079,0.041640669107437134,-0.04794546216726303,-0.229741632938385,-0.686708390712738,-0.15172186493873596,0.42884039878845215,-0.05400098115205765,-0.17194698750972748
1749055232.8267584,4.470583438873291,-0.4901392024806519,-0.946420431137085,-2.4351541004576625,0.09115135669708252,0.03580723702907562,-0.02871405892074108,0.008413556031882763,-0.017275720834732056,0.013085752725601196,0.04418991506099701,-0.049790702760219574,-0.23015618324279785,-0.6979000568389893,-0.16260558366775513,0.4242650866508484,-0.07238088548183441,-0.16301000118255615
1749055232.8267968,4.470492362976074,-0.49012549341235356,-0.9464721083641052,-2.435153146783346,0.09127061814069748,0.03565750643610954,-0.030374234542250633,0.009553940035402775,-0.018143774941563606,0.01181232649832964,0.04643603414297104,-0.050265971571207047,-0.24593332409858704,-0.7077778577804565,-0.13907119631767273,0.43206238746643066,-0.0435187928378582,-0.16744117438793182
1749055232.8268347,4.470448017120361,-0.4900633853724976,-0.9465309977531433,-2.4351254902281703,0.09137394279241562,0.03556843474507332,-0.03130640462040901,0.010330811142921448,-0.018175072968006134,0.010865485295653343,0.048678915947675705,-0.051527973264455795,-0.2537227272987366,-0.7000209093093872,-0.1430913358926773,0.43522441387176514,-0.03821428492665291,-0.18920552730560303
1749055232.8268764,4.470396995544434,-0.4900793594172974,-0.9465596079826355,-2.4350978336729945,0.09150522202253342,0.03544118255376816,-0.03259782865643501,0.010359172709286213,-0.018446987494826317,0.010318647138774395,0.05101403221487999,-0.05263585224747658,-0.24458730220794678,-0.7264672517776489,-0.151856929063797,0.4457851052284241,-0.035300955176353455,-0.16004693508148193
1749055232.826915,4.470328330993652,-0.49006541193041997,-0.9465920925140381,-2.4350863895811976,0.09158294647932053,0.03538687527179718,-0.03386877104640007,0.011189835146069527,-0.01897473819553852,0.010992973111569881,0.053872499614953995,-0.05402109771966934,-0.2536363899707794,-0.6904982328414917,-0.14797493815422058,0.4409143328666687,-0.042529087513685226,-0.17102675139904022
1749055232.8269527,4.470252990722656,-0.4900968831828614,-0.9466316103935242,-2.435042997399801,0.09167532622814178,0.03524745628237724,-0.03531733900308609,0.012300492264330387,-0.019319117069244385,0.01127161830663681,0.05791759490966797,-0.05625589191913605,-0.25762656331062317,-0.7031670808792114,-0.15382760763168335,0.448868989944458,-0.045912791043519974,-0.15778931975364685
1749055232.8269901,4.4701738357543945,-0.49001915872607427,-0.9466760158538818,-2.435038229028219,0.09183791279792786,0.03516713157296181,-0.03630578890442848,0.012521252036094666,-0.01997736655175686,0.011520059779286385,0.05927214398980141,-0.056645821779966354,-0.2907608151435852,-0.6754732131958008,-0.14123281836509705,0.4668481945991516,-0.0208389014005661,-0.18031665682792664
1749055232.8270316,4.470136642456055,-0.4899938863566895,-0.9467277526855469,-2.4349919758238734,0.09196531772613525,0.035015709698200226,-0.03746248781681061,0.01324313785880804,-0.020396485924720764,0.013078823685646057,0.05882556363940239,-0.05768921226263046,-0.28878119587898254,-0.7068988680839539,-0.14902590215206146,0.4613785743713379,-0.014417469501495361,-0.1860968917608261
1749055232.8270698,4.470136642456055,-0.4899938863566895,-0.9467277526855469,-2.4349919758238734,0.09196531772613525,0.035015709698200226,-0.03746248781681061,0.01324313785880804,-0.020396485924720764,0.013078823685646057,0.05882556363940239,-0.05768921226263046,-0.28878119587898254,-0.7068988680839539,-0.14902590215206146,0.4613785743713379,-0.014417469501495361,-0.1860968917608261
1749055232.8271077,4.469961643218994,-0.4899541896632691,-0.9467997550964355,-2.4349552593626917,0.09220552444458008,0.03480688855051994,-0.04203827679157257,0.013296563178300858,-0.02114584669470787,0.014470377936959267,0.06364782154560089,-0.06023281440138817,-0.2720995545387268,-0.6766613721847534,-0.1524645984172821,0.452842116355896,0.015282243490219116,-0.2072814702987671
1749055232.8271446,4.46987771987915,-0.489890531902649,-0.9468353986740112,-2.4349032841124476,0.09232187271118164,0.03466418385505676,-0.04100414365530014,0.014229505322873592,-0.021830802783370018,0.01434712577611208,0.06575953960418701,-0.06264227628707886,-0.327924519777298,-0.6744378805160522,-0.15042588114738464,0.4858107268810272,0.009040474891662598,-0.19790054857730865
1749055232.8271859,4.469785690307617,-0.4898904126933594,-0.9468833804130554,-2.4348794422545375,0.09242286533117294,0.03450584411621094,-0.043190356343984604,0.014818761497735977,-0.02211831510066986,0.014067763462662697,0.06893277913331985,-0.06357970833778381,-0.32603707909584045,-0.6992725729942322,-0.1625324785709381,0.45520448684692383,0.017808645963668823,-0.20655876398086548
1749055232.8274038,4.469705104827881,-0.48984988153491216,-0.9469158053398132,-2.4348751507201136,0.0926055982708931,0.03438074141740799,-0.04467938095331192,0.015183348208665848,-0.022625664249062538,0.014543568715453148,0.07336022704839706,-0.06559479236602783,-0.32597780227661133,-0.6977638602256775,-0.1719338446855545,0.4865211844444275,0.00636705756187439,-0.1958584040403366
1749055232.829362,4.469613075256348,-0.4897906345180054,-0.9469520449638367,-2.4348350963988246,0.09275353699922562,0.03428700193762779,-0.04797147586941719,0.015855437144637108,-0.023008771240711212,0.014798572286963463,0.07431653887033463,-0.06775655597448349,-0.28871434926986694,-0.7135894298553467,-0.16617058217525482,0.48221832513809204,0.01144900918006897,-0.20201727747917175
1749055232.870302,4.469475269317627,-0.48974795759234624,-0.946988046169281,-2.4347998104491175,0.09283127635717392,0.03409603238105774,-0.049675893038511276,0.016680629923939705,-0.023454315960407257,0.015547883696854115,0.07429835945367813,-0.07007264345884323,-0.2788119316101074,-0.7506294250488281,-0.17167623341083527,0.4701944887638092,0.015016287565231323,-0.20352241396903992
1749055232.870352,4.469402313232422,-0.4897381824306031,-0.9470359683036804,-2.4347602329649867,0.0930149108171463,0.034007132053375244,-0.047123558819293976,0.014782728627324104,-0.024168135598301888,0.016166359186172485,0.07757589221000671,-0.07106024026870728,-0.32190898060798645,-0.7012956142425537,-0.17350877821445465,0.46989190578460693,0.04825328290462494,-0.20179900527000427
1749055232.8703942,4.4693217277526855,-0.4897102874568482,-0.947113573551178,-2.434727808038229,0.0931820198893547,0.033855944871902466,-0.050108231604099274,0.016037577763199806,-0.025043921545147896,0.01687466911971569,0.08167469501495361,-0.07209225744009018,-0.3029891848564148,-0.7290693521499634,-0.18310119211673737,0.48638418316841125,0.023970331996679306,-0.1980038583278656
1749055232.8704367,4.469203472137451,-0.4896696370891114,-0.9471472501754761,-2.434715887109274,0.09334671497344971,0.033712103962898254,-0.05162286385893822,0.016012471169233322,-0.02591809257864952,0.017881544306874275,0.08580723404884338,-0.07481338083744049,-0.3020210564136505,-0.7512955665588379,-0.2039482295513153,0.47950541973114014,-0.006115211173892021,-0.23236756026744843
1749055232.8704746,4.469099044799805,-0.4896269601634522,-0.9471955299377441,-2.4346562824644984,0.09353530406951904,0.033586740493774414,-0.053640998899936676,0.016720782965421677,-0.027042176574468613,0.01826922968029976,0.08631611615419388,-0.07671152055263519,-0.3019123077392578,-0.7510250806808472,-0.18696779012680054,0.47210782766342163,0.014478306286036968,-0.21922928094863892
1749055232.870513,4.468984127044678,-0.4896095556071778,-0.9472433924674988,-2.4346171818175257,0.09372251480817795,0.0333998017013073,-0.054969750344753265,0.01603144034743309,-0.027612945064902306,0.01842763088643551,0.08846230804920197,-0.07686598598957062,-0.32540979981422424,-0.7476736307144165,-0.1852208822965622,0.4926143288612366,0.02170940861105919,-0.24204392731189728
1749055232.870554,4.468919277191162,-0.4895668786815186,-0.9473070502281189,-2.43456568340444,0.09389543533325195,0.03322429209947586,-0.05687883496284485,0.015871461480855942,-0.02796362154185772,0.01876244507730007,0.08936098217964172,-0.08121609687805176,-0.31934264302253723,-0.7286592721939087,-0.19079630076885223,0.49112802743911743,0.0024597421288490295,-0.23805755376815796
1749055232.8705928,4.468729019165039,-0.48952634752307134,-0.947335958480835,-2.4345489941039027,0.09405650943517685,0.0330667719244957,-0.05800701305270195,0.015383228659629822,-0.02910877764225006,0.01930806040763855,0.09031044691801071,-0.08359010517597198,-0.3224649429321289,-0.7401386499404907,-0.19477076828479767,0.4891889691352844,0.004034131765365601,-0.20218022167682648
1749055232.870631,4.468636512756348,-0.48947055757556157,-0.9474266767501831,-2.434497972527975,0.09426324814558029,0.032907046377658844,-0.05877019464969635,0.015111248940229416,-0.030251173302531242,0.019387388601899147,0.09149827063083649,-0.08197742700576782,-0.2966676354408264,-0.7545608878135681,-0.19551903009414673,0.4977937936782837,0.018474534153938293,-0.23395609855651855
1749055232.870669,4.468521595001221,-0.4894271653941651,-0.9474677443504333,-2.4344688854613246,0.09438929706811905,0.03272266313433647,-0.05954566225409508,0.01440212782472372,-0.03114631399512291,0.01950230449438095,0.09168041497468948,-0.0836254432797432,-0.34718501567840576,-0.7390536665916443,-0.19209469854831696,0.503698468208313,0.006759658455848694,-0.2456396222114563
1749055232.8707063,4.468428134918213,-0.4894341987422486,-0.9475432634353638,-2.4344293079771937,0.094635970890522,0.03258923813700676,-0.060232244431972504,0.014662482775747776,-0.0336822047829628,0.019417032599449158,0.09320054948329926,-0.08598612993955612,-0.35424327850341797,-0.773465096950531,-0.17734159529209137,0.5075924396514893,0.020742883905768394,-0.23699048161506653
1749055232.8707435,4.468327522277832,-0.48940201223406987,-0.947615385055542,-2.4343744717040003,0.09479649364948273,0.032396815717220306,-0.061901822686195374,0.014640357345342636,-0.032708730548620224,0.019693369045853615,0.09502167254686356,-0.08907543122768402,-0.3332711160182953,-0.7600591778755188,-0.18295583128929138,0.5134940147399902,0.013541968539357185,-0.23538970947265625
1749055232.8707807,4.4681572914123535,-0.48935921609912114,-0.9476718902587891,-2.4343463383116664,0.09497304260730743,0.0321819968521595,-0.06295417994260788,0.014363222755491734,-0.032420188188552856,0.020279115065932274,0.09791507571935654,-0.09321971237659454,-0.3451191782951355,-0.7574304938316345,-0.17706075310707092,0.507693350315094,0.010894477367401123,-0.20142653584480286
1749055232.8708181,4.468060493469238,-0.4893501561931153,-0.9477351903915405,-2.434310098687643,0.09519200772047043,0.032036494463682175,-0.06466410309076309,0.014133512042462826,-0.03358429670333862,0.021299930289387703,0.10013007372617722,-0.09165845066308975,-0.3604401648044586,-0.7394337058067322,-0.19769154489040375,0.5166544318199158,0.004307381808757782,-0.20595958828926086
1749055232.870855,4.467952728271484,-0.4893334668925782,-0.9478073120117188,-2.434258600274557,0.09535766392946243,0.03182150796055794,-0.06636424362659454,0.01406216062605381,-0.036105286329984665,0.022724313661456108,0.10171417891979218,-0.09251973032951355,-0.3389793932437897,-0.7574795484542847,-0.17691698670387268,0.5151344537734985,0.020036518573760986,-0.23308630287647247
1749055232.870892,4.467785835266113,-0.48927874982867436,-0.9478828310966492,-2.4341989956297816,0.0956171378493309,0.03164151683449745,-0.06816577911376953,0.014197874814271927,-0.035257574170827866,0.023241696879267693,0.10338925570249557,-0.09508238732814789,-0.3582529127597809,-0.7340216636657715,-0.18220287561416626,0.5147174000740051,0.03315126150846481,-0.2327532321214676
1749055232.8709328,4.467626571655273,-0.4892704051784058,-0.9479429125785828,-2.4341474972166957,0.09586380422115326,0.03142154961824417,-0.06916848570108414,0.014103112742304802,-0.034601740539073944,0.024289730936288834,0.1052454486489296,-0.09795725345611572,-0.3591265082359314,-0.7579753398895264,-0.19262570142745972,0.49494287371635437,0.029157117009162903,-0.229491725564003
1749055232.8709702,4.46755313873291,-0.4892649215510865,-0.9480233192443848,-2.434103628198141,0.09607997536659241,0.03122946433722973,-0.06866486370563507,0.01400636788457632,-0.036012839525938034,0.024902839213609695,0.11058694869279861,-0.09910748153924942,-0.36900565028190613,-0.7530472278594971,-0.2122819423675537,0.5084266662597656,0.009103246033191681,-0.21502980589866638
1749055232.8710072,4.467390537261963,-0.48919792593035893,-0.9480985999107361,-2.4340402088561,0.09628895670175552,0.031033633276820183,-0.07391607016324997,0.013745519332587719,-0.03678864240646362,0.025805143639445305,0.10902460664510727,-0.1019039899110794,-0.33447858691215515,-0.7381342053413391,-0.18989431858062744,0.5138241052627563,-0.0003008805215358734,-0.22104810178279877
1749055232.8710437,4.46721076965332,-0.4891699117473145,-0.9481744170188904,-2.4339963398375453,0.09650138765573502,0.030844807624816895,-0.07053668797016144,0.013557982631027699,-0.03761683404445648,0.025672709569334984,0.10939832031726837,-0.10010603815317154,-0.37360069155693054,-0.7295844554901123,-0.2151212990283966,0.5067272782325745,0.019820410758256912,-0.2230433076620102
1749055232.8713539,4.467106342315674,-0.4891616863063355,-0.9482547640800476,-2.4339329204955042,0.09671368449926376,0.03065197542309761,-0.07237230241298676,0.014106842689216137,-0.03868580237030983,0.02594887837767601,0.1114417091012001,-0.10332787036895752,-0.4123952090740204,-0.7576957941055298,-0.18815192580223083,0.5175772905349731,0.0047997236251831055,-0.22587950527668
1749055232.873401,4.466919422149658,-0.48912938058886724,-0.9483576416969299,-2.4338885746397914,0.09692291170358658,0.03039330430328846,-0.07727627456188202,0.014435701072216034,-0.038666144013404846,0.02551407925784588,0.11553722620010376,-0.10532888025045395,-0.3308415114879608,-0.7547056078910828,-0.20008188486099243,0.5049901604652405,-0.02105782926082611,-0.21754589676856995
1749055232.9142952,4.466753005981445,-0.48909862459216313,-0.9484261870384216,-2.4338370762267054,0.0971861407160759,0.030217071995139122,-0.07595004886388779,0.014606709592044353,-0.03857656568288803,0.026514705270528793,0.11219818145036697,-0.10320568084716797,-0.4141281843185425,-0.758303165435791,-0.21912667155265808,0.5155221223831177,-0.007345959544181824,-0.2661040723323822
1749055232.9143424,4.466647624969482,-0.48906929910693364,-0.9484981298446655,-2.4338160953917445,0.09743750095367432,0.02998514473438263,-0.07909306138753891,0.014578885398805141,-0.040487341582775116,0.02567765675485134,0.11373897641897202,-0.10489344596862793,-0.38932088017463684,-0.7572538256645203,-0.2124125063419342,0.5192545056343079,0.04552564024925232,-0.2704123556613922
1749055232.914391,4.466444969177246,-0.48903007925067143,-0.9485701322555542,-2.4337264500060023,0.09759921580553055,0.029784537851810455,-0.08141974359750748,0.014921555295586586,-0.04222550243139267,0.025018081068992615,0.11624938994646072,-0.11095675826072693,-0.36749961972236633,-0.7656404972076416,-0.18526184558868408,0.5250517725944519,0.04244758188724518,-0.25855323672294617
1749055232.914432,4.466280937194824,-0.48903007925067143,-0.9486541152000427,-2.4337169132628382,0.09782393276691437,0.02955632656812668,-0.08188913017511368,0.014497977681457996,-0.04220312461256981,0.025667855516076088,0.11939655989408493,-0.11154641956090927,-0.3528898358345032,-0.7254452705383301,-0.20106087625026703,0.5460163354873657,0.01831755042076111,-0.24712048470973969
1749055232.9144711,4.466152667999268,-0.4889853757670899,-0.9487379789352417,-2.4336382351317347,0.09810629487037659,0.029340244829654694,-0.08254726976156235,0.014139121398329735,-0.042752623558044434,0.026652636006474495,0.12048065662384033,-0.11353902518749237,-0.35636550188064575,-0.7499401569366455,-0.21089023351669312,0.5220622420310974,0.02989199012517929,-0.25474846363067627
1749055232.914509,4.466000556945801,-0.4889686864665528,-0.9488219022750854,-2.4335786304869593,0.09834428131580353,0.02908831648528576,-0.08296666294336319,0.013883295468986034,-0.0427975058555603,0.028581639751791954,0.12121497839689255,-0.11691316217184067,-0.39260154962539673,-0.7301898002624512,-0.21877352893352509,0.5419483184814453,0.04721223562955856,-0.25326308608055115
1749055232.9145477,4.465836524963379,-0.4889063400081177,-0.9489061236381531,-2.433483739892477,0.09865068644285202,0.028843821957707405,-0.08730142563581467,0.014440624974668026,-0.04439727962017059,0.029681336134672165,0.12734679877758026,-0.1205890104174614,-0.37645405530929565,-0.7447417974472046,-0.20483988523483276,0.5203086137771606,0.03085373342037201,-0.24018938839435577
1749055232.9145863,4.465661525726318,-0.4888855975917359,-0.9490138292312622,-2.4334780178465785,0.09885977953672409,0.028595751151442528,-0.08566539734601974,0.014242802746593952,-0.04429427161812782,0.03060823678970337,0.12611757218837738,-0.12473795562982559,-0.3871220350265503,-0.6986811757087708,-0.21724992990493774,0.5288171172142029,0.04581364244222641,-0.20399336516857147
1749055232.9146242,4.465442657470703,-0.48886175573382573,-0.9490858316421509,-2.433371683160299,0.09910508245229721,0.0283516775816679,-0.08770553767681122,0.014892930164933205,-0.045196887105703354,0.03238976374268532,0.12630689144134521,-0.1253073662519455,-0.40958186984062195,-0.7414694428443909,-0.217522531747818,0.5106383562088013,0.06113523989915848,-0.19077658653259277
1749055232.9146621,4.465321063995361,-0.48886175573382573,-0.9491665363311768,-2.4333001575865687,0.09938140958547592,0.02812243066728115,-0.08933038264513016,0.014885646291077137,-0.04573206230998039,0.031731266528367996,0.1318684071302414,-0.12734739482402802,-0.34509196877479553,-0.716970682144165,-0.21212881803512573,0.5173765420913696,0.026081353425979614,-0.19681106507778168
1749055232.9147,4.465087890625,-0.48881347597155766,-0.9492586851119995,-2.433268209496969,0.09971056133508682,0.027878621593117714,-0.08951899409294128,0.014862868003547192,-0.04699132964015007,0.030595524236559868,0.13301461935043335,-0.1266831010580063,-0.4096001088619232,-0.7431178092956543,-0.22874002158641815,0.512997031211853,0.04290832579135895,-0.19342637062072754
1749055232.914737,4.464918613433838,-0.48876245439562993,-0.9493664503097534,-2.4332272015013636,0.09993778169155121,0.02758285403251648,-0.09124583750963211,0.014924495480954647,-0.05001594498753548,0.03051077574491501,0.13341902196407318,-0.1263950765132904,-0.4099685847759247,-0.7328656911849976,-0.18714983761310577,0.5299439430236816,0.03769715130329132,-0.18939825892448425
1749055232.9147737,4.4647674560546875,-0.48878832281146245,-0.9495009183883667,-2.4331327877440394,0.10019838809967041,0.027338357642292976,-0.09157294034957886,0.015305966138839722,-0.04882505536079407,0.03031010925769806,0.13519935309886932,-0.1261109858751297,-0.3996160924434662,-0.7445423603057861,-0.1944577395915985,0.5441292524337769,0.03624439612030983,-0.20327159762382507
1749055232.9148107,4.46455192565918,-0.48873014867816167,-0.949589729309082,-2.433131834069723,0.10051880031824112,0.02710995264351368,-0.09165399521589279,0.015297689475119114,-0.04833168536424637,0.02986712008714676,0.1367398053407669,-0.12537617981433868,-0.39134877920150757,-0.7091189622879028,-0.2153284251689911,0.5464141368865967,0.050138235092163086,-0.2024785280227661
1749055232.914847,4.464400291442871,-0.48869390905413823,-0.9496978521347046,-2.4330293140807093,0.10075452923774719,0.02680377848446369,-0.09318478405475616,0.015187572687864304,-0.04996611177921295,0.03034321218729019,0.13826633989810944,-0.12671995162963867,-0.4480956196784973,-0.7066649794578552,-0.20803672075271606,0.569911777973175,0.05091527849435806,-0.22597122192382812
1749055232.9148843,4.464230537414551,-0.48866160333666997,-0.9497936964035034,-2.4329387150206507,0.10105469822883606,0.026586245745420456,-0.09460137784481049,0.015732163563370705,-0.05262785777449608,0.032433588057756424,0.1402229368686676,-0.12472900748252869,-0.4492773115634918,-0.6885002851486206,-0.1790495216846466,0.5364527702331543,0.040072858333587646,-0.2613362669944763
1749055232.9149218,4.464044570922852,-0.4886266750148316,-0.9499017596244812,-2.4328824482359828,0.10136525332927704,0.02633010782301426,-0.09742570668458939,0.015594357624650002,-0.051873739808797836,0.0329991951584816,0.14327266812324524,-0.12904076278209686,-0.39528292417526245,-0.7179877758026123,-0.17200374603271484,0.5653809309005737,0.03479616343975067,-0.2590293884277344
1749055232.9149585,4.463812828063965,-0.48861296594653325,-0.9499785900115967,-2.4328233204283656,0.10163483768701553,0.026057910174131393,-0.09842293709516525,0.016321875154972076,-0.050125982612371445,0.03369247168302536,0.14407089352607727,-0.12980076670646667,-0.43021267652511597,-0.7109346389770508,-0.21393431723117828,0.5472638607025146,0.020999649539589882,-0.25241613388061523
1749055232.9149947,4.463667869567871,-0.4885891240886231,-0.9500969052314758,-2.432733198205465,0.10190782696008682,0.025793559849262238,-0.0995403528213501,0.01574915461242199,-0.0527593232691288,0.034320324659347534,0.14569531381130219,-0.13046905398368835,-0.4207809567451477,-0.7117959856987,-0.19984294474124908,0.5525851249694824,0.036774761974811554,-0.26485103368759155
1749055232.9150312,4.46345329284668,-0.48853381097827153,-0.9502289891242981,-2.432714124719137,0.10224757343530655,0.025541044771671295,-0.1013297438621521,0.016345476731657982,-0.05355362966656685,0.03443589061498642,0.14834459125995636,-0.13521502912044525,-0.4330613911151886,-0.7081506252288818,-0.20186278223991394,0.5506072640419006,0.03526100516319275,-0.2889076769351959
1749055232.9153912,4.463199615478516,-0.4884721797755738,-0.9503334760665894,-2.432584901849264,0.1025904193520546,0.025217831134796143,-0.10127848386764526,0.016345957294106483,-0.05422240123152733,0.03554302453994751,0.1503499150276184,-0.14089412987232208,-0.39461272954940796,-0.6623650193214417,-0.19124387204647064,0.5511923432350159,0.0234009250998497,-0.2448306381702423
1749055232.917447,4.463015079498291,-0.48847444475207524,-0.9504414796829224,-2.4325248203673304,0.10289351642131805,0.024949077516794205,-0.10213811695575714,0.016575457528233528,-0.0559266097843647,0.037702158093452454,0.15085051953792572,-0.1411791294813156,-0.458290159702301,-0.7001265287399292,-0.17775574326515198,0.531421959400177,0.020991094410419464,-0.26717501878738403
1749055232.9582796,4.463015079498291,-0.48847444475207524,-0.9504414796829224,-2.4325248203673304,0.10289351642131805,0.024949077516794205,-0.10213811695575714,0.016575457528233528,-0.0559266097843647,0.037702158093452454,0.15085051953792572,-0.1411791294813156,-0.458290159702301,-0.7001265287399292,-0.17775574326515198,0.531421959400177,0.020991094410419464,-0.26717501878738403
1749055232.958326,4.462623119354248,-0.4884297412684937,-0.9506884813308716,-2.4323936901488246,0.10349117964506149,0.02432939223945141,-0.10715971142053604,0.017494812607765198,-0.0563027486205101,0.03688914328813553,0.1516694724559784,-0.1461164504289627,-0.4652217626571655,-0.6763404011726379,-0.17089127004146576,0.5448528528213501,0.042615797370672226,-0.23035550117492676
1749055232.958377,4.462388038635254,-0.4884093564799805,-0.9508084058761597,-2.432322164575094,0.10379990190267563,0.024095553904771805,-0.10972772538661957,0.017704956233501434,-0.05723923072218895,0.036543965339660645,0.15232433378696442,-0.14627975225448608,-0.38360336422920227,-0.6819145083427429,-0.17415273189544678,0.5519745945930481,0.048996858298778534,-0.23636431992053986
1749055232.9584181,4.462231636047363,-0.4883735936931153,-0.9509128332138062,-2.4322320423521937,0.10410746932029724,0.023779461160302162,-0.10927881300449371,0.0167987160384655,-0.057988815009593964,0.035806722939014435,0.15714441239833832,-0.14522042870521545,-0.4366861879825592,-0.6453291773796082,-0.16701871156692505,0.5555161237716675,0.03414085507392883,-0.26259374618530273
1749055232.958457,4.461934566497803,-0.48829062402758794,-0.9510326981544495,-2.43216671566152,0.1044328436255455,0.023449085652828217,-0.11123720556497574,0.01745191030204296,-0.05860769748687744,0.036634162068367004,0.15601974725723267,-0.14902794361114502,-0.4808964431285858,-0.6418853402137756,-0.18454216420650482,0.5672385096549988,0.088284432888031,-0.243650421500206
1749055232.9584985,4.461706638336182,-0.48829765737567143,-0.9511647820472717,-2.4321071110167445,0.10478687286376953,0.023137060925364494,-0.11255745589733124,0.01936761476099491,-0.05959353595972061,0.03891550377011299,0.15995067358016968,-0.14738014340400696,-0.4437776803970337,-0.6677092909812927,-0.15879423916339874,0.5763207674026489,0.06329622864723206,-0.27127981185913086
1749055232.958537,4.4615325927734375,-0.48826487482104497,-0.9512726068496704,-2.432011743585104,0.10508732497692108,0.02284425124526024,-0.11141680926084518,0.018837347626686096,-0.06014832481741905,0.03856681287288666,0.1632092148065567,-0.1468406766653061,-0.3898625373840332,-0.6464464664459229,-0.15578067302703857,0.5543417930603027,0.05991106480360031,-0.2946726679801941
1749055232.9585752,4.461289405822754,-0.4882102769664307,-0.9514046907424927,-2.431906362573141,0.10541655868291855,0.02256321720778942,-0.11369653046131134,0.0196122657507658,-0.060507792979478836,0.03995043784379959,0.16549599170684814,-0.15306627750396729,-0.44683462381362915,-0.6565456390380859,-0.14940224587917328,0.5516573786735535,0.06165260821580887,-0.2979215383529663
1749055232.958613,4.461073398590088,-0.4881618779948731,-0.9515281915664673,-2.4318562946715296,0.10576850920915604,0.02226266637444496,-0.11442534625530243,0.020259445533156395,-0.06070180609822273,0.04090803489089012,0.17130067944526672,-0.15287260711193085,-0.4346992075443268,-0.6490368843078613,-0.14093618094921112,0.5517619252204895,0.046988263726234436,-0.2991417944431305
1749055232.9586504,4.460859775543213,-0.48813827455554204,-0.9516171813011169,-2.4317575893797816,0.10612063109874725,0.021955275908112526,-0.11698228120803833,0.019960686564445496,-0.060638267546892166,0.04048071801662445,0.16960936784744263,-0.15754245221614838,-0.43729618191719055,-0.6462811231613159,-0.1629607379436493,0.5520076751708984,0.06970959156751633,-0.2956687808036804
1749055232.958688,4.460546016693115,-0.48811788976702886,-0.9517335295677185,-2.4316655598082484,0.1064152792096138,0.021641934290528297,-0.11714684218168259,0.02066682279109955,-0.060321591794490814,0.040589068084955215,0.17524930834770203,-0.16339735686779022,-0.40961819887161255,-0.6633057594299316,-0.1683020293712616,0.5491487383842468,0.04921531677246094,-0.2661551237106323
1749055232.958725,4.4603681564331055,-0.4880388540080567,-0.9518570303916931,-2.4315906963744105,0.10678976774215698,0.021239466965198517,-0.11763211339712143,0.021211806684732437,-0.06094222515821457,0.03940373659133911,0.1729786992073059,-0.16857841610908508,-0.43631401658058167,-0.6283815503120422,-0.16478273272514343,0.5679589509963989,0.06274084746837616,-0.2684440314769745
1749055232.9587617,4.4603681564331055,-0.4880388540080567,-0.9518570303916931,-2.4315906963744105,0.10678976774215698,0.021239466965198517,-0.11763211339712143,0.021211806684732437,-0.06094222515821457,0.03940373659133911,0.1729786992073059,-0.16857841610908508,-0.43631401658058167,-0.6283815503120422,-0.16478273272514343,0.5679589509963989,0.06274084746837616,-0.2684440314769745
1749055232.958799,4.459903717041016,-0.4879734081080933,-0.9521125555038452,-2.4314385853209437,0.10745877772569656,0.020596811547875404,-0.12141230702400208,0.022222377359867096,-0.06047699600458145,0.03860756382346153,0.1757689118385315,-0.16936667263507843,-0.40099436044692993,-0.6595454812049866,-0.1666635423898697,0.5738927125930786,0.06047973781824112,-0.22307971119880676
1749055232.9588354,4.459648609161377,-0.4879138034633179,-0.9522514939308167,-2.431355138818258,0.10781902819871902,0.02026526629924774,-0.12150474637746811,0.02286970429122448,-0.060630958527326584,0.038757212460041046,0.177387073636055,-0.1668986678123474,-0.4027321934700012,-0.6384282112121582,-0.19808045029640198,0.5633745193481445,0.09502007812261581,-0.2427125722169876
1749055232.958873,4.459373474121094,-0.4878228467753907,-0.9523404240608215,-2.43129887203359,0.10820204019546509,0.019932541996240616,-0.1205773800611496,0.02388114668428898,-0.06434840708971024,0.03841172158718109,0.18035836517810822,-0.16517744958400726,-0.4249178171157837,-0.6887507438659668,-0.1680983453989029,0.5795575380325317,0.10443047434091568,-0.25456956028938293
1749055232.9589097,4.459113121032715,-0.48781736314807134,-0.9524757862091064,-2.431200166741842,0.10854995250701904,0.01960829272866249,-0.1212698221206665,0.024630699306726456,-0.06409764289855957,0.04057014733552933,0.1831432580947876,-0.16372708976268768,-0.48795294761657715,-0.6767758727073669,-0.15900719165802002,0.5709920525550842,0.098985955119133,-0.3093831539154053
1749055232.9589467,4.4588727951049805,-0.487754301433899,-0.9525889158248901,-2.431112905541891,0.10891520977020264,0.019240567460656166,-0.12559035420417786,0.025245629251003265,-0.06390335410833359,0.04037098214030266,0.18755565583705902,-0.16701696813106537,-0.4578953981399536,-0.6850018501281738,-0.1808108687400818,0.5667210221290588,0.08428456634283066,-0.2988881468772888
1749055232.9589837,4.458617687225342,-0.48772461832080083,-0.9527120590209961,-2.4310480556883753,0.10926791280508041,0.018890075385570526,-0.12288250029087067,0.02507617138326168,-0.06447824090719223,0.04097077250480652,0.18975718319416046,-0.16429659724235535,-0.4305671751499176,-0.6705754995346069,-0.19915235042572021,0.5839929580688477,0.05354556441307068,-0.31271272897720337
1749055232.9590204,4.458384037017822,-0.48765452325854497,-0.9528474807739258,-2.4309336147704066,0.10966269671916962,0.018592311069369316,-0.12755082547664642,0.025431441143155098,-0.06510058790445328,0.04157908633351326,0.18875178694725037,-0.16977763175964355,-0.4165567457675934,-0.6723059415817261,-0.18706250190734863,0.5818336009979248,0.06423719227313995,-0.32017266750335693
1749055232.9593902,4.4581475257873535,-0.4875980180552979,-0.9529522061347961,-2.430847307244772,0.110043466091156,0.018231861293315887,-0.1277557760477066,0.025960508733987808,-0.06569409370422363,0.042868491262197495,0.1931367963552475,-0.1719021499156952,-0.41739964485168457,-0.660630464553833,-0.1898711919784546,0.581896185874939,0.06382650136947632,-0.2902252674102783
1749055232.961373,4.457864284515381,-0.48754342020068364,-0.9530872106552124,-2.430781980554098,0.11042755097150803,0.017860649153590202,-0.12890072166919708,0.026713088154792786,-0.06654276698827744,0.043944284319877625,0.1909196674823761,-0.17658989131450653,-0.40973442792892456,-0.6808553338050842,-0.19204482436180115,0.5868720412254333,0.06539493799209595,-0.30162379145622253
1749055233.0063016,4.4575724601745605,-0.48748667657885747,-0.9532193541526794,-2.430671354333395,0.11087832599878311,0.01750757172703743,-0.12821845710277557,0.026881203055381775,-0.06735703349113464,0.043315988034009933,0.19475612044334412,-0.181035578250885,-0.40343955159187317,-0.6943222880363464,-0.1871374547481537,0.5780701041221619,0.09174713492393494,-0.27806463837623596
1749055233.0063488,4.457300186157227,-0.48738332212481694,-0.9533788561820984,-2.430572649041647,0.11121191829442978,0.017104139551520348,-0.13171648979187012,0.02699671871960163,-0.068316251039505,0.042715590447187424,0.19309546053409576,-0.1831342726945877,-0.35672709345817566,-0.6968668699264526,-0.18300797045230865,0.5869617462158203,0.09024281799793243,-0.2811394929885864
1749055233.00639,4.4570794105529785,-0.48734207571063237,-0.9534919857978821,-2.4305039844908656,0.11165034025907516,0.01676405407488346,-0.13040712475776672,0.028550412505865097,-0.06948987394571304,0.04276227951049805,0.19695883989334106,-0.1820422261953354,-0.4663437306880951,-0.6940110325813293,-0.19900348782539368,0.5951553583145142,0.11781015992164612,-0.2741215229034424
1749055233.0064292,4.456811428070068,-0.4873134654811402,-0.9536269903182983,-2.43042053798818,0.11198361963033676,0.016402842476963997,-0.13118688762187958,0.030156956985592842,-0.07074086368083954,0.0437779575586319,0.1990203708410263,-0.18431906402111053,-0.3857605755329132,-0.7376714944839478,-0.1740199625492096,0.5953964591026306,0.1125829741358757,-0.28619644045829773
1749055233.006467,4.456489562988281,-0.4872259658626099,-0.9537555575370789,-2.4303437672057093,0.11237628757953644,0.01602761074900627,-0.13265280425548553,0.029673732817173004,-0.06971326470375061,0.045694541186094284,0.20213556289672852,-0.18101803958415985,-0.42549633979797363,-0.7398713231086731,-0.19703048467636108,0.593966543674469,0.08267531543970108,-0.31320512294769287
1749055233.0065053,4.456295013427734,-0.4871903222850342,-0.9539031386375427,-2.430233140985006,0.11285903304815292,0.015690390020608902,-0.13110984861850739,0.02898753061890602,-0.07115543633699417,0.0461944080889225,0.20503856241703033,-0.18277855217456818,-0.45699238777160645,-0.7339422106742859,-0.21045294404029846,0.5988178849220276,0.056323789060115814,-0.34376057982444763
1749055233.006543,4.456034183502197,-0.48709531248126225,-0.9540199041366577,-2.4301306209959925,0.1132429763674736,0.01528683491051197,-0.13669423758983612,0.028774550184607506,-0.07287156581878662,0.046716123819351196,0.20500421524047852,-0.18658237159252167,-0.42455750703811646,-0.7126638889312744,-0.19343093037605286,0.5910739898681641,0.09858711808919907,-0.31922435760498047
1749055233.006592,4.455707550048828,-0.48705776155505376,-0.9541828632354736,-2.4300505123534144,0.11365590244531631,0.014902806840837002,-0.13879691064357758,0.029853077605366707,-0.07071474194526672,0.047589533030986786,0.20813770592212677,-0.19004704058170319,-0.42203834652900696,-0.733794629573822,-0.2114272564649582,0.6085442304611206,0.06787730753421783,-0.3336610198020935
1749055233.006635,4.455439567565918,-0.48697860658679204,-0.9542834162712097,-2.429946561852926,0.1140330582857132,0.014510869979858398,-0.1383017897605896,0.029565269127488136,-0.0729147270321846,0.04904824495315552,0.20873099565505981,-0.19780313968658447,-0.39384087920188904,-0.7552371025085449,-0.21767880022525787,0.5941838622093201,0.04841727018356323,-0.29153889417648315
1749055233.006673,4.455193996429443,-0.4869072002223511,-0.9544709920883179,-2.4298631153502406,0.11448448151350021,0.014066464267671108,-0.14058615267276764,0.03010706789791584,-0.07406195998191833,0.0505378283560276,0.20981140434741974,-0.20430077612400055,-0.43411654233932495,-0.7421554327011108,-0.21013645827770233,0.5924835205078125,0.06619668751955032,-0.2511065602302551
1749055233.0067108,4.454867362976074,-0.4868540328792115,-0.9546147584915161,-2.429748674432272,0.11487682908773422,0.013708885759115219,-0.13872119784355164,0.03144599497318268,-0.07501514256000519,0.049598466604948044,0.2112736701965332,-0.20719431340694427,-0.4459352493286133,-0.7628712058067322,-0.20278197526931763,0.6078866124153137,0.08978314697742462,-0.23125609755516052
1749055233.006748,4.4546308517456055,-0.4868089717677613,-0.9547855854034424,-2.4296566448607386,0.11527416855096817,0.013296790421009064,-0.14077231287956238,0.031615763902664185,-0.07605065405368805,0.049325913190841675,0.2137717604637146,-0.20508921146392822,-0.3890872001647949,-0.7589668035507202,-0.20802542567253113,0.6046735644340515,0.09069519490003586,-0.21937362849712372
1749055233.0067856,4.454380989074707,-0.48674579084429936,-0.9548994898796082,-2.429567953149313,0.11573673784732819,0.012912717647850513,-0.14335189759731293,0.031118664890527725,-0.07689336687326431,0.049335598945617676,0.2166125774383545,-0.19946733117103577,-0.39450603723526,-0.7953472137451172,-0.19504457712173462,0.6045978665351868,0.08940774202346802,-0.2453150451183319
1749055233.006823,4.454073905944824,-0.4866858285716553,-0.9550516605377197,-2.429434915582174,0.11617732048034668,0.01251277793198824,-0.14352700114250183,0.030390137806534767,-0.07744796574115753,0.04980721324682236,0.21919412910938263,-0.19999690353870392,-0.4005559980869293,-0.753990113735199,-0.20327141880989075,0.5862337350845337,0.07582326978445053,-0.2606886923313141
1749055233.00686,4.453810214996338,-0.48659832895312505,-0.9552295804023743,-2.429342886010641,0.11657863110303879,0.012104134075343609,-0.14430101215839386,0.031015411019325256,-0.07776634395122528,0.05034835264086723,0.2212025225162506,-0.19488400220870972,-0.4224840998649597,-0.7869254350662231,-0.1998952478170395,0.6021652817726135,0.09026758372783661,-0.30744755268096924
1749055233.006897,4.453447341918945,-0.4865695995143433,-0.9553820490837097,-2.429232259789938,0.11709307134151459,0.011695999652147293,-0.14614897966384888,0.030739236623048782,-0.07802588492631912,0.050367437303066254,0.22207611799240112,-0.19955308735370636,-0.4246639311313629,-0.7747560739517212,-0.21078018844127655,0.6042402386665344,0.04945943504571915,-0.3063267469406128
1749055233.0069337,4.453139781951904,-0.48653634012255864,-0.9555230736732483,-2.4291583500304164,0.11750618368387222,0.011304382234811783,-0.14784486591815948,0.030163154006004333,-0.07857166230678558,0.05086439102888107,0.22345444560050964,-0.19963356852531433,-0.3972553610801697,-0.7588645815849304,-0.20545217394828796,0.6021937131881714,0.07854283601045609,-0.3373936712741852
1749055233.0069706,4.452879428863525,-0.48644180715594487,-0.9556665420532227,-2.429044385949606,0.11796259135007858,0.01091906800866127,-0.14859700202941895,0.029843883588910103,-0.0789170041680336,0.05175009369850159,0.2233228236436844,-0.20613925158977509,-0.42640766501426697,-0.7436406016349792,-0.21528145670890808,0.6142173409461975,0.06784330308437347,-0.30547407269477844
1749055233.0070083,4.4525861740112305,-0.4864012759974976,-0.9558414220809937,-2.4289590320982875,0.11837518215179443,0.010470983572304249,-0.14954261481761932,0.029777808114886284,-0.07853270322084427,0.053036440163850784,0.22483520209789276,-0.2109294980764389,-0.4022594690322876,-0.765378475189209,-0.22079125046730042,0.6113386750221252,0.09437891840934753,-0.2900436818599701
1749055233.007045,4.452286243438721,-0.4863256973079224,-0.9560180902481079,-2.42882837871694,0.11885900795459747,0.010053683072328568,-0.15091048181056976,0.029721716418862343,-0.08181530237197876,0.055017583072185516,0.2278781533241272,-0.2130931317806244,-0.4205065965652466,-0.7522357702255249,-0.18609823286533356,0.6070492267608643,0.06378019601106644,-0.2689288854598999
1749055233.007082,4.452013969421387,-0.48626919210467534,-0.9561623334884644,-2.4287172756590785,0.1192912608385086,0.00964935403317213,-0.1517961025238037,0.029861653223633766,-0.08041021227836609,0.05592592805624008,0.22905753552913666,-0.21197745203971863,-0.4145202934741974,-0.7620858550071716,-0.20724540948867798,0.5843130946159363,0.07858137786388397,-0.27690261602401733
1749055233.0071194,4.451689720153809,-0.48617954671893315,-0.9563266038894653,-2.4286138019957484,0.1197822317481041,0.009181564673781395,-0.1513918787240982,0.029774902388453484,-0.08321685343980789,0.05579328164458275,0.2325972318649292,-0.21378299593925476,-0.4533815383911133,-0.7341076731681824,-0.21580193936824799,0.5855189561843872,0.06129974126815796,-0.2529568672180176
1749055233.0074127,4.451366424560547,-0.4861300748637696,-0.9564788341522217,-2.4285136661925257,0.12025518715381622,0.008796409703791142,-0.1528879702091217,0.0301931444555521,-0.08379100263118744,0.05368670076131821,0.2326166182756424,-0.2099476456642151,-0.4784824252128601,-0.7189913392066956,-0.1891445517539978,0.6148640513420105,0.06479976326227188,-0.30343562364578247
1749055233.0093637,4.451085567474365,-0.4860958617976685,-0.9566694498062134,-2.428371091882223,0.12070751190185547,0.00829396303743124,-0.15624631941318512,0.030112585052847862,-0.08391264826059341,0.054592180997133255,0.23295249044895172,-0.21451087296009064,-0.4571020007133484,-0.7295870184898376,-0.2000339925289154,0.6023080945014954,0.06410728394985199,-0.31933364272117615
1749055233.050285,4.450754165649414,-0.4859839242747803,-0.956818163394928,-2.428268095056051,0.12117953598499298,0.007881239987909794,-0.1560697704553604,0.02893454022705555,-0.08387129008769989,0.05601174756884575,0.23367725312709808,-0.21719345450401306,-0.4662606418132782,-0.7410018444061279,-0.20076854526996613,0.5790964961051941,0.05858634412288666,-0.2964205741882324
1749055233.050334,4.450448989868164,-0.4859277766994019,-0.95695561170578,-2.428159376183981,0.12168274074792862,0.0074450368992984295,-0.15658803284168243,0.028645046055316925,-0.08423271775245667,0.05595589801669121,0.23617519438266754,-0.22318875789642334,-0.44960981607437134,-0.6908068656921387,-0.20370306074619293,0.5878754258155823,0.07304400950670242,-0.29430171847343445
1749055233.050375,4.45009708404541,-0.4859085840037842,-0.9571733474731445,-2.4280406437315882,0.12214241176843643,0.006948471534997225,-0.15921512246131897,0.029655933380126953,-0.0858442485332489,0.05570878088474274,0.23918665945529938,-0.22735454142093658,-0.4427180886268616,-0.7236133217811584,-0.21869874000549316,0.5992990732192993,0.07480988651514053,-0.2576846480369568
1749055233.0504172,4.44976282119751,-0.4858336013606568,-0.9573348760604858,-2.4279376469054164,0.12261627614498138,0.006520306225866079,-0.16136927902698517,0.029708653688430786,-0.08629114180803299,0.058269601315259933,0.24137941002845764,-0.22926224768161774,-0.4530835449695587,-0.7221760749816895,-0.20137491822242737,0.5817716121673584,0.06871753931045532,-0.24032145738601685
1749055233.0504572,4.449477672576904,-0.4857890170863648,-0.9575180411338806,-2.427809854547018,0.12307720631361008,0.006075588520616293,-0.16283558309078217,0.028885895386338234,-0.08718860149383545,0.05704078450798988,0.24193550646305084,-0.2272861748933792,-0.3951902389526367,-0.7015777826309204,-0.1913173496723175,0.5805858969688416,0.0582299530506134,-0.24072833359241486
1749055233.0504966,4.449187755584717,-0.48574479043994145,-0.9576822519302368,-2.427718301812643,0.12363210320472717,0.0056069716811180115,-0.16147048771381378,0.028527874499559402,-0.08900493383407593,0.055427998304367065,0.24651210010051727,-0.2272418588399887,-0.4805459976196289,-0.6839405298233032,-0.1993737518787384,0.5819759964942932,0.049301765859127045,-0.23897460103034973
1749055233.0505352,4.448829650878906,-0.48566587389025884,-0.9578572511672974,-2.4275833568968714,0.12408812344074249,0.005178765393793583,-0.16069212555885315,0.029772033914923668,-0.08768060058355331,0.05339784547686577,0.2430652379989624,-0.2219981700181961,-0.45866671204566956,-0.7127723693847656,-0.19649580121040344,0.6077227592468262,0.040980614721775055,-0.27873337268829346
1749055233.050573,4.448517799377441,-0.4856134218028565,-0.9580129981040955,-2.4274913273253382,0.12461189925670624,0.004773919936269522,-0.1627270132303238,0.029511308297514915,-0.08673365414142609,0.05359521135687828,0.2473100870847702,-0.2243460714817047,-0.4733465313911438,-0.6908761262893677,-0.22308644652366638,0.6137087345123291,0.046926215291023254,-0.29874086380004883
1749055233.050611,4.4481730461120605,-0.4855141204646607,-0.9581928253173828,-2.4273883304991664,0.12511716783046722,0.004336828365921974,-0.16634218394756317,0.030052484944462776,-0.0908433347940445,0.057061564177274704,0.25020551681518555,-0.2274118959903717,-0.44705310463905334,-0.6979691386222839,-0.1836075484752655,0.6000438332557678,0.055889591574668884,-0.3289884328842163
1749055233.0506482,4.447852611541748,-0.48547716558489995,-0.9583851099014282,-2.427237649957174,0.1256045401096344,0.0038563422858715057,-0.1661965250968933,0.03124931827187538,-0.08951982110738754,0.05738528445363045,0.25202053785324097,-0.23355114459991455,-0.47082042694091797,-0.700892448425293,-0.21188074350357056,0.5975637435913086,0.05781373381614685,-0.3174903392791748
1749055233.0506861,4.447507858276367,-0.48539121568713384,-0.9585767984390259,-2.427133699456686,0.12608596682548523,0.0033613606356084347,-0.17035715281963348,0.032056812196969986,-0.0909966230392456,0.05731891095638275,0.25237971544265747,-0.23847299814224243,-0.46952804923057556,-0.6886657476425171,-0.19855040311813354,0.6133848428726196,0.08350741863250732,-0.2691054940223694
1749055233.0507238,4.447152614593506,-0.4853813213161011,-0.9587689638137817,-2.4270297489561976,0.12661801278591156,0.0028654022607952356,-0.17184878885746002,0.031862664967775345,-0.09236756712198257,0.056835003197193146,0.2556077837944031,-0.23945526778697968,-0.4499329924583435,-0.6956149339675903,-0.1778590828180313,0.6136407256126404,0.08655751496553421,-0.2549290657043457
1749055233.0507612,4.4467926025390625,-0.48528631151232915,-0.9589647054672241,-2.426906724969381,0.12716065347194672,0.0024011554196476936,-0.1733776479959488,0.03173808008432388,-0.09354366362094879,0.0562271848320961,0.2531399726867676,-0.24255242943763733,-0.4086323082447052,-0.6896882653236389,-0.1539655476808548,0.6234287023544312,0.07335519045591354,-0.2445915788412094
1749055233.050799,4.446451187133789,-0.48524518430743413,-0.9591681361198425,-2.426787038842672,0.12765029072761536,0.001936518121510744,-0.17315919697284698,0.032950837165117264,-0.09419084340333939,0.05754774808883667,0.25749471783638,-0.2381896823644638,-0.46593528985977173,-0.6795254349708557,-0.1649574190378189,0.621427595615387,0.06417060643434525,-0.2843373119831085
1749055233.0508363,4.446108341217041,-0.4851730626872559,-0.9593295454978943,-2.426653047601217,0.12814238667488098,0.0014493274502456188,-0.17085076868534088,0.03252679109573364,-0.09440205246210098,0.05695099011063576,0.2577872574329376,-0.24274417757987976,-0.5004025101661682,-0.6774017214775085,-0.1773877739906311,0.6219881772994995,0.0791064202785492,-0.2753232717514038
1749055233.0508738,4.445794582366943,-0.4851171535304566,-0.9595365524291992,-2.4265605411925257,0.128693625330925,0.0009294426417909563,-0.1743788719177246,0.03275694698095322,-0.09338218718767166,0.0564875602722168,0.26130208373069763,-0.244703009724617,-0.45911791920661926,-0.6704339981079102,-0.19790828227996826,0.6397734880447388,0.09475015848875046,-0.30212175846099854
1749055233.0509112,4.445418834686279,-0.4850185674479981,-0.9597353339195251,-2.4264689884581507,0.12925338745117188,0.00045685053919442,-0.17683149874210358,0.03371809050440788,-0.0955977514386177,0.057189539074897766,0.2631537616252899,-0.2498747557401657,-0.42715001106262207,-0.6996135711669922,-0.17972615361213684,0.6507254242897034,0.08553537726402283,-0.2857946753501892
1749055233.0509484,4.445024490356445,-0.48496563852343755,-0.9599084854125977,-2.426330705682272,0.12978962063789368,-5.5615101949513246e-05,-0.17596592009067535,0.03366479650139809,-0.09460259228944778,0.060157742351293564,0.2656361162662506,-0.2544260621070862,-0.45356273651123047,-0.691217303276062,-0.18126574158668518,0.6424614191055298,0.08325912803411484,-0.2573607563972473
1749055233.0509856,4.444637298583984,-0.4849242728999634,-0.9601284265518188,-2.4262105427184046,0.13032659888267517,-0.0006135145770471695,-0.17517507076263428,0.03403853252530098,-0.09714896976947784,0.06209429353475571,0.26828324794769287,-0.2548679709434509,-0.4567217528820038,-0.6716256737709045,-0.15491625666618347,0.6311405301094055,0.05702146887779236,-0.24710409343242645
1749055233.0510218,4.4443159103393555,-0.4848249715617676,-0.9603204131126404,-2.4260789356627406,0.13087020814418793,-0.0010393301593225601,-0.1776668280363083,0.03455948084592819,-0.0949781984090805,0.060438789427280426,0.26704442501068115,-0.2544030249118805,-0.4430108666419983,-0.6684735417366028,-0.1928873360157013,0.6615203619003296,0.04418366402387619,-0.2471153736114502
1749055233.0513992,4.443943977355957,-0.48479636133227544,-0.9604929685592651,-2.4259478054442347,0.13137571513652802,-0.0015276114093225601,-0.17849652469158173,0.03503626957535744,-0.09925832599401474,0.06029296666383743,0.2712175250053406,-0.2495756596326828,-0.4409317672252655,-0.6983652710914612,-0.16755887866020203,0.6497027277946472,0.02813398838043213,-0.25353938341140747
1749055233.0533862,4.443595886230469,-0.48468609273944097,-0.9606881141662598,-2.4258133373656214,0.13197480142116547,-0.0020664373980920914,-0.17779581248760223,0.03509441018104553,-0.09626880288124084,0.062370412051677704,0.2714760899543762,-0.25202590227127075,-0.4588567614555359,-0.6935622096061707,-0.18207891285419464,0.6539934277534485,0.04749186336994171,-0.2977277934551239
1749055233.0983105,4.443273067474365,-0.48460205019030766,-0.9608683586120605,-2.425716062585348,0.13249222934246063,-0.0025427977191370132,-0.1785893440246582,0.034815799444913864,-0.09701834619045258,0.0641634464263916,0.273267924785614,-0.25110164284706116,-0.4749823808670044,-0.702518105506897,-0.17497023940086365,0.6502001285552979,0.03412914276123047,-0.28759872913360596
1749055233.098356,4.442882537841797,-0.484530047779419,-0.9610756039619446,-2.425565858880514,0.1330791562795639,-0.0030544439898889664,-0.1812736988067627,0.0360315702855587,-0.09760945290327072,0.06689503788948059,0.27141302824020386,-0.25504907965660095,-0.45401281118392944,-0.6698382496833801,-0.17861570417881012,0.6138763427734375,0.04953097179532051,-0.303324818611145
1749055233.0983987,4.442529201507568,-0.48447759569201665,-0.9612796902656555,-2.425438543359274,0.13361941277980804,-0.003621403370992482,-0.18435680866241455,0.03671092912554741,-0.09768810868263245,0.06894083321094513,0.27255919575691223,-0.2587873637676239,-0.41222047805786133,-0.694998025894165,-0.17082886397838593,0.6128754615783691,0.0882163792848587,-0.2836063504219055
1749055233.0984516,4.442114353179932,-0.48439450681719975,-0.9614594578742981,-2.425310274163717,0.13417620956897736,-0.004137818013326466,-0.18737982213497162,0.03673650324344635,-0.09979697316884995,0.06875981390476227,0.27182385325431824,-0.2584631145000458,-0.413287878036499,-0.6763315200805664,-0.1789756566286087,0.6103180646896362,0.05379633605480194,-0.28602275252342224
1749055233.098492,4.441727161407471,-0.48432596147570806,-0.9616601467132568,-2.425182958642477,0.13475148379802704,-0.004603211079732716,-0.18706393241882324,0.037232328206300735,-0.10024053603410721,0.06674809753894806,0.2754928171634674,-0.2591942846775055,-0.4165327250957489,-0.6936880350112915,-0.16055986285209656,0.6056921482086182,0.05558187514543533,-0.28809064626693726
1749055233.0985303,4.4413580894470215,-0.48428829134021,-0.9618675112724304,-2.4250132046141566,0.1352805644273758,-0.0051339308368127945,-0.18780234456062317,0.03756206855177879,-0.1006694808602333,0.06536515057086945,0.27507367730140686,-0.2606249749660492,-0.43735578656196594,-0.6883046627044678,-0.17800796031951904,0.6288585066795349,0.10676469653844833,-0.31020259857177734
1749055233.098568,4.440976142883301,-0.4841461938670655,-0.9620556831359863,-2.424885412255758,0.13583266735076904,-0.005627457295553029,-0.18715505301952362,0.03856337070465088,-0.10161183774471283,0.06821253895759583,0.277568519115448,-0.2605350613594055,-0.4347931146621704,-0.7127370834350586,-0.1349676251411438,0.6038995385169983,0.09833142161369324,-0.32274556159973145
1749055233.0986066,4.440586566925049,-0.48406656206164556,-0.9622635841369629,-2.424753805200094,0.13638515770435333,-0.006209198628560841,-0.18622468411922455,0.038585588335990906,-0.10041922330856323,0.06789033859968185,0.2793010473251343,-0.26423677802085876,-0.4392015039920807,-0.6948169469833374,-0.19529280066490173,0.5983799695968628,0.12550100684165955,-0.3123336732387543
1749055233.0986452,4.440223217010498,-0.4839863342097779,-0.9624514579772949,-2.4246379337706507,0.1369612216949463,-0.00677663484682256,-0.1890328973531723,0.039000123739242554,-0.10209803283214569,0.0674164667725563,0.27913421392440796,-0.26906490325927734,-0.43748271465301514,-0.6756963133811951,-0.15237125754356384,0.6192781329154968,0.12064358592033386,-0.27607765793800354
1749055233.0986824,4.439853668212891,-0.48392124593768315,-0.9626521468162537,-2.42447628597402,0.13753314316272736,-0.007297341023580373,-0.1912836879491806,0.03946816921234131,-0.10174582898616791,0.06731057912111282,0.282878577709198,-0.2718222737312317,-0.4478287696838379,-0.7092160582542419,-0.19174368679523468,0.6021872758865356,0.11642080545425415,-0.2675400674343109
1749055233.0987198,4.439477920532227,-0.48387713850054936,-0.9628596305847168,-2.4243551693358363,0.13813194632530212,-0.00784475008119756,-0.1926628202199936,0.03899678587913513,-0.10154271870851517,0.0666511282324791,0.28564444184303284,-0.26963531970977783,-0.42455530166625977,-0.6944147348403931,-0.17076069116592407,0.6065987348556519,0.10766301304101944,-0.2817123234272003
1749055233.0987577,4.439043045043945,-0.4837619823268433,-0.9630512595176697,-2.4241773090758265,0.1386837661266327,-0.008385960255758107,-0.19370168447494507,0.03993746638298035,-0.10316429287195206,0.06728769838809967,0.28730326890945435,-0.27009353041648865,-0.4469795227050781,-0.6883903741836548,-0.20068658888339996,0.6083183288574219,0.12867838144302368,-0.2671559453010559
1749055233.0987952,4.438669204711914,-0.48368997991595464,-0.963252067565918,-2.4240766964354457,0.1392485350370407,-0.00893718401064092,-0.1942741423845291,0.0394987054169178,-0.10395064949989319,0.06643068790435791,0.2913794219493866,-0.2693558931350708,-0.4537765681743622,-0.7154338359832764,-0.19067417085170746,0.6124391555786133,0.12995758652687073,-0.31223252415657043
1749055233.0988326,4.438270092010498,-0.48360951364550786,-0.9634716510772705,-2.4239851437010707,0.13984140753746033,-0.009457890187398732,-0.19461452960968018,0.040565479546785355,-0.10353362560272217,0.06570088863372803,0.2928563058376312,-0.27017679810523987,-0.44114813208580017,-0.7080820798873901,-0.19390380382537842,0.6281802654266357,0.12105727940797806,-0.3374049663543701
1749055233.0988698,4.4378743171691895,-0.48352141798052983,-0.963690459728241,-2.4238225422301234,0.1404755860567093,-0.010044876729146779,-0.19821277260780334,0.04051101952791214,-0.10454488545656204,0.06612827628850937,0.2950459122657776,-0.2737163007259369,-0.46008917689323425,-0.7139157056808472,-0.19401542842388153,0.6322829723358154,0.14210520684719086,-0.3213196098804474
1749055233.098907,4.437493324279785,-0.48346014440570073,-0.9638755917549133,-2.423687597314352,0.14101360738277435,-0.010534111653463185,-0.1967540979385376,0.04043971002101898,-0.10466600209474564,0.06708230823278427,0.2953527569770813,-0.2764040529727936,-0.4851337671279907,-0.7040583491325378,-0.20501887798309326,0.6398612260818481,0.143967866897583,-0.29836156964302063
1749055233.0989437,4.437081336975098,-0.4833502334407349,-0.9641071557998657,-2.4235364399352015,0.1416255533695221,-0.01114827791322881,-0.20020079612731934,0.04035506770014763,-0.10771528631448746,0.06810320913791656,0.300432950258255,-0.28103014826774597,-0.41367363929748535,-0.7026160955429077,-0.1989794224500656,0.6542823910713196,0.12574897706508636,-0.283859521150589
1749055233.0989811,4.436650276184082,-0.4832628530314942,-0.9643147587776184,-2.4234167538084925,0.1422581523656845,-0.011708561574117482,-0.2033320516347885,0.0393693745136261,-0.10607460886240005,0.06909842789173126,0.3029487729072571,-0.27762600779533386,-0.44544583559036255,-0.7016986012458801,-0.20142725110054016,0.6262256503105164,0.13704776763916016,-0.32607316970825195
1749055233.0990183,4.436291217803955,-0.4832131427577515,-0.9645528197288513,-2.4232894382872523,0.142838716506958,-0.012257401143209279,-0.20448623597621918,0.04030322656035423,-0.10884859412908554,0.07030866295099258,0.3064408004283905,-0.28191033005714417,-0.4841793477535248,-0.6848554015159607,-0.21313060820102692,0.6213008165359497,0.15347231924533844,-0.3153703808784485
1749055233.0990555,4.435892105102539,-0.4830671113780518,-0.9647504091262817,-2.42313875774526,0.14342017471790314,-0.012883488331929982,-0.20285411179065704,0.04083527997136116,-0.10700516402721405,0.07101348042488098,0.3103122115135193,-0.28557854890823364,-0.4196305274963379,-0.6930949091911316,-0.21836745738983154,0.6331340670585632,0.13085950911045074,-0.31732070446014404
1749055233.0990932,4.435468673706055,-0.4830055993846436,-0.9649348258972168,-2.422983308831686,0.14410322904586792,-0.01344472566713506,-0.20225107669830322,0.04210465028882027,-0.10844152420759201,0.07207075506448746,0.3100551962852478,-0.2886189818382263,-0.4789349436759949,-0.7111688256263733,-0.22458472847938538,0.6223902702331543,0.11877104640007019,-0.3251723647117615
1749055233.0991309,4.435080051422119,-0.4829496902278443,-0.9651820063591003,-2.422875066796774,0.1446809619665146,-0.014051262532369435,-0.20498965680599213,0.040906425565481186,-0.11119581758975983,0.07274434715509415,0.3138705790042877,-0.29160794615745544,-0.47551560401916504,-0.7076478004455566,-0.19384735822677612,0.6290878653526306,0.09906966239213943,-0.2908461093902588
1749055233.099378,4.434678554534912,-0.48283429563555913,-0.9654026031494141,-2.4226933918394984,0.14534331858158112,-0.014588658009664357,-0.20896676182746887,0.03986861929297447,-0.1118222028017044,0.07305385917425156,0.3162424564361572,-0.29200446605682373,-0.405192494392395,-0.6831080913543701,-0.18842600286006927,0.6457797288894653,0.12252342700958252,-0.2826955318450928
1749055233.1013606,4.434297561645508,-0.48275871694598393,-0.9656335711479187,-2.4225346050658167,0.14593291282653809,-0.01513702074159795,-0.20935000479221344,0.04092486947774887,-0.11105739325284958,0.07410804182291031,0.3163401186466217,-0.2918849289417267,-0.4347907602787018,-0.7124620079994202,-0.2045111209154129,0.6282172203063965,0.12065419554710388,-0.3008115887641907
1749055233.1422954,4.433815956115723,-0.48270924509082036,-0.9658966064453125,-2.4224258861937464,0.14662326872348785,-0.01571685472597295,-0.2094530314207077,0.040421031415462494,-0.11159228533506393,0.07425650209188461,0.315673828125,-0.2894069254398346,-0.42641422152519226,-0.7027077674865723,-0.20699241757392883,0.6379002332687378,0.15387490391731262,-0.31978467106819153
1749055233.1423416,4.43341064453125,-0.4825856250575562,-0.9661056399345398,-2.4222780666747035,0.14720046520233154,-0.016304794942037404,-0.2084881216287613,0.042458951473236084,-0.11301832646131516,0.0759444534778595,0.3202342092990875,-0.2920708954334259,-0.5062379837036133,-0.6910127401351929,-0.20454469323158264,0.6294628977775574,0.15143150091171265,-0.3212682902812958
1749055233.1423824,4.433006286621094,-0.48252542436633306,-0.9663490056991577,-2.4221278629698695,0.14786064624786377,-0.01690847078432256,-0.21060490608215332,0.04212310537695885,-0.11286643147468567,0.07621344178915024,0.3214704692363739,-0.29508352279663086,-0.4620651602745056,-0.7217982411384583,-0.2040444016456604,0.617193341255188,0.12753483653068542,-0.3291124701499939
1749055233.1424217,4.432589530944824,-0.48244865358386235,-0.9665697813034058,-2.42196049312734,0.14850789308547974,-0.01746827760805303,-0.21534742414951324,0.03969651833176613,-0.11392176151275635,0.07872460037469864,0.3258168697357178,-0.29856207966804504,-0.481457382440567,-0.6560577154159546,-0.22925135493278503,0.6064017415046692,0.0988517552614212,-0.3273950219154358
1749055233.1424685,4.432119369506836,-0.4823835653117676,-0.9668010473251343,-2.421805521050924,0.1491282731294632,-0.01808816591371709,-0.21792976558208466,0.04140133410692215,-0.11513175815343857,0.08009988069534302,0.329478919506073,-0.30298787355422974,-0.4007485806941986,-0.6967256665229797,-0.18474578857421875,0.5961858034133911,0.1037275642156601,-0.2907567620277405
1749055233.142507,4.431663990020752,-0.48228855550799565,-0.9670101404190063,-2.421642919579977,0.1497773975133896,-0.018715683613912404,-0.21604299545288086,0.04128475859761238,-0.11666678637266159,0.07711142301559448,0.3307154178619385,-0.3062472939491272,-0.4609629511833191,-0.6927696466445923,-0.1855802983045578,0.5985246896743774,0.11392576992511749,-0.29863661527633667
1749055233.1425467,4.431263446807861,-0.4821857971004029,-0.9672535061836243,-2.421507020989889,0.1504998505115509,-0.019318882619039357,-0.21769650280475616,0.04155784100294113,-0.11571958661079407,0.07755937427282333,0.330232709646225,-0.3041895031929016,-0.4189452528953552,-0.6696329712867737,-0.19808101654052734,0.610551118850708,0.11227820068597794,-0.31824564933776855
1749055233.1425853,4.430850505828857,-0.48211784780535893,-0.967481791973114,-2.421351572076315,0.15116040408611298,-0.01991159120668584,-0.21940875053405762,0.04155929014086723,-0.11604903638362885,0.07864972949028015,0.3310048580169678,-0.3069394528865814,-0.40615761280059814,-0.6668308973312378,-0.19358102977275848,0.5942715406417847,0.12067867070436478,-0.32342761754989624
1749055233.1426246,4.43043327331543,-0.48200877130541997,-0.9677063226699829,-2.4211775265135707,0.15180468559265137,-0.02054292360414678,-0.21723809838294983,0.04177994653582573,-0.11663428694009781,0.08050534129142761,0.3329508304595947,-0.31012454628944397,-0.48127150535583496,-0.6736128926277161,-0.200075164437294,0.5915857553482056,0.09660759568214417,-0.33619892597198486
1749055233.1426628,4.429990768432617,-0.4819341462901612,-0.9679585695266724,-2.4209982357420863,0.1524651199579239,-0.021143261586324513,-0.22124065458774567,0.042872581630945206,-0.11712846904993057,0.0817996934056282,0.33469095826148987,-0.3115561604499817,-0.5294098258018494,-0.6749504804611206,-0.19918571412563324,0.5651537179946899,0.09149733185768127,-0.3177984952926636
1749055233.1427002,4.429569244384766,-0.4818571370891114,-0.9682090282440186,-2.420865675012106,0.15320809185504913,-0.02177125612367803,-0.22505418956279755,0.043149203062057495,-0.11719060689210892,0.07881422340869904,0.3357226550579071,-0.3117726445198059,-0.44449055194854736,-0.6728853583335876,-0.21882875263690948,0.5713061690330505,0.11274453997612,-0.30929285287857056
1749055233.1427379,4.4291090965271,-0.4817956250957032,-0.9684388637542725,-2.4206911526122035,0.15383461117744446,-0.022437397633687794,-0.22507652640342712,0.04537728801369667,-0.11892012506723404,0.07416550815105438,0.33654987812042236,-0.31274348497390747,-0.4848965108394623,-0.6901954412460327,-0.186279758810997,0.604346513748169,0.10091307759284973,-0.30196934938430786
1749055233.1427753,4.428677558898926,-0.4816888135722657,-0.9686939120292664,-2.4205790958800257,0.1545426994562149,-0.02304250398744756,-0.2254062294960022,0.04535175487399101,-0.11992987245321274,0.07430024445056915,0.33912771940231323,-0.3126623332500458,-0.4682818055152893,-0.6983283758163452,-0.20326033234596252,0.6272921562194824,0.07576456665992737,-0.338180273771286
1749055233.1428127,4.428233623504639,-0.48158104837451177,-0.9689925312995911,-2.4204164944090785,0.15521198511123657,-0.02372914949526006,-0.2267347276210785,0.04315510392189026,-0.12037920206785202,0.07490699738264084,0.34199172258377075,-0.31434646248817444,-0.47720789909362793,-0.6627682447433472,-0.17499074339866638,0.6221268177032471,0.05993493273854256,-0.3272966146469116
1749055233.1428504,4.4277496337890625,-0.4815213245204468,-0.9692212343215942,-2.4202963314452113,0.15592636168003082,-0.024345223103658498,-0.22431613504886627,0.04450583830475807,-0.12166418880224228,0.07454206794500351,0.33981308341026306,-0.31561750173568726,-0.45852920413017273,-0.6647111177444458,-0.17650923132896423,0.642626941204071,0.0783209502696991,-0.3224656283855438
1749055233.142889,4.427315711975098,-0.48144014299426274,-0.9694544672966003,-2.420115133325094,0.15657921135425568,-0.024998013173238576,-0.22516801953315735,0.044789910316467285,-0.12176491320133209,0.07532228529453278,0.3396141231060028,-0.32063817977905273,-0.510563850402832,-0.6603658199310303,-0.18150776624679565,0.64473557472229,0.0964052751660347,-0.27737540006637573
1749055233.142927,4.426814556121826,-0.48132582128558354,-0.9697125554084778,-2.419990678826803,0.15725615620613098,-0.02556926408876592,-0.22963114082813263,0.047178711742162704,-0.12137078493833542,0.07660859078168869,0.34040579199790955,-0.32219189405441284,-0.49139127135276794,-0.6956120133399963,-0.20253190398216248,0.6495194435119629,0.12025657296180725,-0.2829894423484802
1749055233.1429648,4.426419258117676,-0.48122651994738774,-0.9699459671974182,-2.419835229913229,0.1579199582338333,-0.02620870271791631,-0.2320016771554947,0.045327577739953995,-0.12213455140590668,0.07785557210445404,0.3434736430644989,-0.32118096947669983,-0.49686679244041443,-0.6853364109992981,-0.18879032135009766,0.6325154304504395,0.11059731245040894,-0.29693710803985596
1749055233.1430025,4.425873279571533,-0.48111827791247563,-0.9702017307281494,-2.419664522210592,0.15863224864006042,-0.026919190083638966,-0.23256134986877441,0.0449332520365715,-0.12272103875875473,0.07896988838911057,0.3499332070350647,-0.32427865266799927,-0.4226049780845642,-0.6573774814605713,-0.1763821244239807,0.654384195804596,0.05234137922525406,-0.3143467903137207
1749055233.1430397,4.425432205200195,-0.481073336010315,-0.9704505801200867,-2.4195286236205042,0.1593284159898758,-0.02760965028871709,-0.2300657480955124,0.04660288244485855,-0.12309490144252777,0.07791350036859512,0.3531758487224579,-0.32737836241722107,-0.4757998585700989,-0.665901243686676,-0.15648913383483887,0.6564972400665283,0.046973735094070435,-0.2691476345062256
1749055233.1434007,4.425004005432129,-0.48093517244372563,-0.9707021713256836,-2.419366022149557,0.16002951562404633,-0.028250996266500294,-0.22966235876083374,0.046549297869205475,-0.1228756457567215,0.08139201253652573,0.3512488007545471,-0.32886505126953125,-0.48845577239990234,-0.6842405200004578,-0.19355174899101257,0.6418431997299194,0.05823926627635956,-0.2595987617969513
1749055233.1453478,4.424527168273926,-0.4808885616115113,-0.9709235429763794,-2.4192024670042933,0.16076435148715973,-0.028836552296773732,-0.23377324640750885,0.04675205051898956,-0.12209393084049225,0.08451785892248154,0.3501562774181366,-0.3254213333129883,-0.4927401840686798,-0.697725236415863,-0.191411554813385,0.6413426399230957,0.09708061069250107,-0.2477589249610901
1749055233.1862926,4.424002170562744,-0.4808008235744019,-0.9711824059486389,-2.4190312824644984,0.1614890992641449,-0.0294879118548792,-0.23695240914821625,0.045720335096120834,-0.12283053994178772,0.08309837430715561,0.3503815233707428,-0.32343798875808716,-0.43914806842803955,-0.661052942276001,-0.1723308116197586,0.6367460489273071,0.08522386848926544,-0.28203803300857544
1749055233.18634,4.423583984375,-0.4806862634471436,-0.9714465737342834,-2.4188481769957484,0.1621907651424408,-0.030155483876363576,-0.23545539379119873,0.0457460843026638,-0.1240961030125618,0.08452870696783066,0.35168546438217163,-0.3256329894065857,-0.4750579595565796,-0.6720607280731201,-0.18708594143390656,0.6347709894180298,0.07650794088840485,-0.2841542661190033
1749055233.186382,4.4230780601501465,-0.4805784982493897,-0.9717015624046326,-2.4186846218504847,0.16288353502750397,-0.030814949666158498,-0.2376956194639206,0.04646151140332222,-0.12510539591312408,0.08647476881742477,0.35240107774734497,-0.32510435581207275,-0.4408511519432068,-0.6719529032707214,-0.18181054294109344,0.624727725982666,0.0917898491024971,-0.3256347179412842
1749055233.1864235,4.422597885131836,-0.48049409807238774,-0.9719228148460388,-2.418490072289938,0.16358543932437897,-0.031412903462545216,-0.23805102705955505,0.04642772302031517,-0.12516085803508759,0.09105867147445679,0.35489919781684875,-0.32700201869010925,-0.5056835412979126,-0.6575933694839478,-0.17680618166923523,0.5964744687080383,0.09051172435283661,-0.32409435510635376
1749055233.186468,4.4221673011779785,-0.480410174732544,-0.972194254398346,-2.41829838375234,0.1643124520778656,-0.032139126454488576,-0.24002192914485931,0.04713981971144676,-0.12561121582984924,0.09347143024206161,0.35810211300849915,-0.32985085248947144,-0.4528160095214844,-0.6514468789100647,-0.19193872809410095,0.5681732296943665,0.0865311548113823,-0.30208611488342285
1749055233.186507,4.421664714813232,-0.48028655469927983,-0.972477376461029,-2.418150564233297,0.16501714289188385,-0.032814804707662404,-0.24105170369148254,0.046888984739780426,-0.12627150118350983,0.08962250500917435,0.3592956066131592,-0.3319401144981384,-0.5087186098098755,-0.6471474766731262,-0.18994180858135223,0.5607959032058716,0.09196406602859497,-0.3243180513381958
1749055233.1865516,4.421219825744629,-0.48023326814685063,-0.9726922512054443,-2.417955537835592,0.1657724380493164,-0.033454720173971,-0.24454987049102783,0.047203611582517624,-0.12847499549388885,0.08834053575992584,0.3621644973754883,-0.33446288108825684,-0.4306051731109619,-0.6678003072738647,-0.15420544147491455,0.5694530606269836,0.05451342836022377,-0.32566148042678833
1749055233.1865916,4.420731544494629,-0.48012228429827886,-0.972946286201477,-2.4177643261351527,0.16650071740150452,-0.03417426744569951,-0.2436276376247406,0.04699542373418808,-0.1287240833044052,0.08887290209531784,0.3604849576950073,-0.339697003364563,-0.444470077753067,-0.6565574407577515,-0.20439237356185913,0.564235270023346,0.07726322114467621,-0.29663926362991333
1749055233.1866307,4.42026948928833,-0.48005695760760503,-0.9732139706611633,-2.417588850060934,0.16723279654979706,-0.034865681325094044,-0.24238157272338867,0.04880467802286148,-0.12922874093055725,0.08769962936639786,0.3586091101169586,-0.3451656401157379,-0.4323592483997345,-0.670440137386322,-0.15944455564022064,0.554658055305481,0.10784521698951721,-0.27643507719039917
1749055233.1866684,4.419755458831787,-0.4799882930568238,-0.973462700843811,-2.417417665521139,0.1679387092590332,-0.03553468385805303,-0.2419375628232956,0.04583088308572769,-0.12902525067329407,0.08600687980651855,0.3642187714576721,-0.345489501953125,-0.5150553584098816,-0.6200608015060425,-0.17912159860134125,0.5561892986297607,0.12725353240966797,-0.27138352394104004
1749055233.1867113,4.419247627258301,-0.47981150568041997,-0.9737459421157837,-2.417262216607565,0.16869021952152252,-0.03623038927187139,-0.24602185189723969,0.04802431911230087,-0.1295192390680313,0.08358003944158554,0.3666655719280243,-0.34378594160079956,-0.5080588459968567,-0.6155546307563782,-0.18201568722724915,0.5638024210929871,0.10454793274402618,-0.2683941721916199
1749055233.1867504,4.418716907501221,-0.47977228582415776,-0.9740068316459656,-2.4170948467650355,0.1694064885377884,-0.0369489828692835,-0.2489926815032959,0.04898091033101082,-0.13008913397789001,0.08131489902734756,0.3682517111301422,-0.3415082097053528,-0.4381066560745239,-0.6605790257453918,-0.17517748475074768,0.5759127140045166,0.08527703583240509,-0.3085153102874756
