nimar13/UR3e_dataset_trayectorias/trayectorias_ejecutadas/trapezoidal_func/trayectoria_071_result.csv
timestamp,q1,q2,q3,q4,q5,q6,qd1,qd2,qd3,qd4,qd5,qd6,tau1,tau2,tau3,tau4,tau5,tau6
1749055449.6143396,4.255456924438477,-1.2257989209941407,-1.5404491424560547,-4.1212715111174525,4.389369487762451,-2.631244722996847,0.012429016642272472,0.0007443552021868527,-0.010478159412741661,-0.01376135554164648,0.007939020171761513,-0.007400512229651213,0.20335626602172852,0.60138338804245,0.7715747356414795,-0.07528802752494812,0.11534570157527924,-0.1136566549539566
1749055449.6143875,4.255500316619873,-1.2257464689067383,-1.5404694080352783,-4.121291538278097,4.389396667480469,-2.631237570439474,0.011515838094055653,0.0006746199796907604,-0.009407863020896912,-0.012256383895874023,0.005799733567982912,-0.00491349445655942,0.21357646584510803,0.5758048892021179,0.8059801459312439,-0.08240987360477448,0.09880229830741882,-0.10830827057361603
1749055449.6144295,4.255500316619873,-1.2257464689067383,-1.5404694080352783,-4.121291538278097,4.389396667480469,-2.631237570439474,0.011515838094055653,0.0006746199796907604,-0.009407863020896912,-0.012256383895874023,0.005799733567982912,-0.00491349445655942,0.21357646584510803,0.5758048892021179,0.8059801459312439,-0.08240987360477448,0.09880229830741882,-0.10830827057361603
1749055449.6144688,4.255460262298584,-1.2257617276958008,-1.5404741764068604,-4.1213277779021205,4.389398097991943,-2.631268564854757,0.007177687715739012,0.0005681224283762276,-0.0034696992952376604,-0.008121703751385212,0.002377886325120926,-0.001753469929099083,0.1400604546070099,0.5994131565093994,0.8165121674537659,-0.05109196901321411,0.04764704406261444,-0.10329301655292511
1749055449.614514,4.255465507507324,-1.2257617276958008,-1.5404586791992188,-4.121320625344747,4.3894171714782715,-2.6312101523028772,0.0043448638170957565,0.0004753632820211351,-0.0017286670627072453,-0.0053295837715268135,0.001679275301285088,-0.0007234075455926359,0.14352765679359436,0.5896695256233215,0.8105708956718445,-0.0237419456243515,0.051128044724464417,-0.09306396543979645
1749055449.6145837,4.255465507507324,-1.2257617276958008,-1.5404586791992188,-4.121320625344747,4.3894171714782715,-2.6312101523028772,0.0043448638170957565,0.0004753632820211351,-0.0017286670627072453,-0.0053295837715268135,0.001679275301285088,-0.0007234075455926359,0.14352765679359436,0.5896695256233215,0.8105708956718445,-0.0237419456243515,0.051128044724464417,-0.09306396543979645
1749055449.6146488,4.255520343780518,-1.2257531446269532,-1.5404586791992188,-4.1213678322234095,4.389420509338379,-2.631249491368429,1.2522180441010278e-05,0.0003913877881132066,-0.0008111315546557307,-0.002313736593350768,0.0003278495860286057,-0.0002906295994762331,0.1413685381412506,0.594671368598938,0.8343084454536438,-0.0031490325927734375,0.021603867411613464,-0.0800819993019104
1749055449.614716,4.25546932220459,-1.2257955831340333,-1.5404777526855469,-4.121348043481344,4.389386177062988,-2.6312065760241907,-0.004446320701390505,0.0003600619675125927,-0.0005827606073580682,-0.0017396527109667659,7.236998499138281e-05,-0.00016375374980270863,0.18577370047569275,0.6113947033882141,0.8538306355476379,0.028303399682044983,0.02210204303264618,-0.07222549617290497
1749055449.6147835,4.255461692810059,-1.225771741276123,-1.5404431819915771,-4.12130131343984,4.389369487762451,-2.631268564854757,-0.00409596087411046,0.0003333806525915861,-0.00042385078268125653,-0.0013007085071876645,1.2788536878360901e-05,-2.89370036625769e-05,0.12001314014196396,0.6191079020500183,0.880668580532074,0.023211978375911713,0.00442834198474884,-0.054206594824790955
1749055449.61485,4.255461692810059,-1.225771741276123,-1.5404431819915771,-4.12130131343984,4.389369487762451,-2.631268564854757,-0.00409596087411046,0.0003333806525915861,-0.00042385078268125653,-0.0013007085071876645,1.2788536878360901e-05,-2.89370036625769e-05,0.12001314014196396,0.6191079020500183,0.880668580532074,0.023211978375911713,0.00442834198474884,-0.054206594824790955
1749055449.6149063,4.255411148071289,-1.2257735592177887,-1.5404467582702637,-4.1213160953917445,4.389350414276123,-2.6312459150897425,-0.0033873466309159994,0.0003526081272866577,0.00026512498152442276,-0.001043035532347858,-0.001456791185773909,-5.1134720706613734e-06,0.12352553755044937,0.6096032857894897,0.8794586658477783,0.03475429117679596,-0.015151724219322205,-0.056856051087379456
1749055449.614978,4.255441188812256,-1.2257564824870606,-1.5404384136199951,-4.1212960682311,4.389381408691406,-2.631237570439474,-0.0048704594373703,0.0003812817158177495,0.001980911009013653,-6.920762825757265e-05,-0.0021095687989145517,0.001670371973887086,0.08356600999832153,0.6181536316871643,0.8666992783546448,0.0606817826628685,-0.023157790303230286,-0.03614234924316406
1749055449.615044,4.255430221557617,-1.2257409256747742,-1.5404229164123535,-4.121284385720724,4.3894124031066895,-2.631256643925802,-0.006547174882143736,0.0004760829615406692,0.002247885102406144,-1.2229714229761157e-05,-0.0016840730095282197,0.002606804948300123,0.06588170677423477,0.596907913684845,0.888500452041626,0.08782738447189331,-0.029550403356552124,-0.03999362885951996
1749055449.6151068,4.255417346954346,-1.2257099014571686,-1.5404419898986816,-4.121299882928366,4.389393329620361,-2.6312721411334437,-0.007594532333314419,0.0006917610298842192,0.0022726324386894703,-2.161118800358963e-06,-0.0012454995885491371,0.0027937660925090313,0.0928078442811966,0.6038824915885925,0.8809337019920349,0.08970222622156143,-0.03698965907096863,-0.03741677105426788
1749055449.6151657,4.255417346954346,-1.2257099014571686,-1.5404419898986816,-4.121299882928366,4.389393329620361,-2.6312721411334437,-0.007594532333314419,0.0006917610298842192,0.0022726324386894703,-2.161118800358963e-06,-0.0012454995885491371,0.0027937660925090313,0.0928078442811966,0.6038824915885925,0.8809337019920349,0.08970222622156143,-0.03698965907096863,-0.03741677105426788
1749055449.6152062,4.255417346954346,-1.2257099014571686,-1.5404419898986816,-4.121299882928366,4.389393329620361,-2.6312721411334437,-0.007594532333314419,0.0006917610298842192,0.0022726324386894703,-2.161118800358963e-06,-0.0012454995885491371,0.0027937660925090313,0.0928078442811966,0.6038824915885925,0.8809337019920349,0.08970222622156143,-0.03698965907096863,-0.03741677105426788
1749055449.6152442,4.255362033843994,-1.2257204812816163,-1.5403990745544434,-4.121303459207052,4.389384746551514,-2.6312482992755335,-0.006693895440548658,0.0023964012507349253,0.0014738133177161217,0.002732274355366826,-0.0013680971460416913,0.0015485301846638322,0.08748544752597809,0.5712515115737915,0.9088010787963867,0.10278333723545074,-0.048323556780815125,-0.024491116404533386
1749055449.6152818,4.255381107330322,-1.2257548433593293,-1.5404181480407715,-4.121284385720724,4.389369487762451,-2.6312101523028772,-0.00651054922491312,0.002057349542155862,0.00152448914013803,0.0025284469593316317,-0.001970757031813264,0.0013800367014482617,0.0972827672958374,0.5749279856681824,0.9176362752914429,0.08559942245483398,-0.08064733445644379,-0.039968401193618774
1749055449.6153188,4.255381107330322,-1.2257548433593293,-1.5404181480407715,-4.121284385720724,4.389369487762451,-2.6312101523028772,-0.00651054922491312,0.002057349542155862,0.00152448914013803,0.0025284469593316317,-0.001970757031813264,0.0013800367014482617,0.0972827672958374,0.5749279856681824,0.9176362752914429,0.08559942245483398,-0.08064733445644379,-0.039968401193618774
1749055449.6153564,4.25540018081665,-1.2256930035403748,-1.5404109954833984,-4.121272464791769,4.389366149902344,-2.6312101523028772,-0.004941157065331936,0.0014961583074182272,0.0013680994743481278,0.0030261105857789516,-0.0025437662843614817,0.0010006692027673125,0.04067961499094963,0.574594259262085,0.919757604598999,0.09168200194835663,-0.05758434534072876,-0.027036935091018677
1749055449.6153939,4.255330562591553,-1.2257204812816163,-1.540414571762085,-4.121291538278097,4.389376640319824,-2.631244722996847,-0.004852163605391979,0.0014278677990660071,0.0012729460140690207,0.003023445373401046,-0.002352450042963028,0.0010582027025520802,0.03607543557882309,0.5668464303016663,0.9215261936187744,0.12097806483507156,-0.04440939426422119,-0.03094499558210373
1749055449.6154466,4.255325794219971,-1.2257204812816163,-1.540414571762085,-4.121291538278097,4.3893303871154785,-2.6312018076526087,-0.004793005529791117,0.0014704846544191241,0.0010996400378644466,0.002495167078450322,-0.0018309708684682846,0.0016146430280059576,0.05792788416147232,0.5901011228561401,0.9334654808044434,0.10736843198537827,-0.0677073523402214,-0.027216725051403046
1749055449.6156173,4.255380153656006,-1.2257138055614014,-1.5404181480407715,-4.121276041070455,4.389391899108887,-2.6312101523028772,-0.00417328393086791,0.0014307714300230145,0.0010279498528689146,0.0019039245089516044,-0.001520178047940135,0.0027138825971633196,0.0678657591342926,0.5946958065032959,0.930033266544342,0.12789340317249298,-0.04809054732322693,-0.02838655561208725
1749055449.61739,4.255380153656006,-1.2257138055614014,-1.5404181480407715,-4.121276041070455,4.389391899108887,-2.6312101523028772,-0.00417328393086791,0.0014307714300230145,0.0010279498528689146,0.0019039245089516044,-0.001520178047940135,0.0027138825971633196,0.0678657591342926,0.5946958065032959,0.930033266544342,0.12789340317249298,-0.04809054732322693,-0.02838655561208725
1749055449.6582942,4.255347728729248,-1.2257018846324463,-1.5404026508331299,-4.121247907678121,4.38939905166626,-2.6312018076526087,-0.003180990694090724,0.001301697688177228,0.0010062461951747537,0.0014264431083574891,-0.001136700389906764,0.0027741093654185534,0.029988432303071022,0.5908703207969666,0.9305514693260193,0.11842705309391022,-0.059888482093811035,-0.039891354739665985
1749055449.6583407,4.2552971839904785,-1.2257509988597413,-1.540407419204712,-4.121247907678121,4.389354228973389,-2.631209198628561,-0.002761412877589464,0.00104901276063174,0.0009873835369944572,0.0014516700757667422,-0.0009818905964493752,0.0022320104762911797,0.042618971318006516,0.5885851979255676,0.9390905499458313,0.09747771918773651,-0.059791199862957,-0.03494089096784592
1749055449.658382,4.2552971839904785,-1.2257509988597413,-1.540407419204712,-4.121247907678121,4.389354228973389,-2.631209198628561,-0.002761412877589464,0.00104901276063174,0.0009873835369944572,0.0014516700757667422,-0.0009818905964493752,0.0022320104762911797,0.042618971318006516,0.5885851979255676,0.9390905499458313,0.09747771918773651,-0.059791199862957,-0.03494089096784592
1749055449.6584213,4.255321025848389,-1.2257665556720276,-1.5404181480407715,-4.121251722375387,4.389307498931885,-2.6312127749072474,-0.002173462649807334,0.0008781517390161753,0.0009659461793489754,0.00274036917835474,-0.0009190966375172138,0.0017393064917996526,0.029080338776111603,0.6089730262756348,0.9252923130989075,0.1065191701054573,-0.04442763328552246,-0.04116680473089218
1749055449.658459,4.255305290222168,-1.2257390779307862,-1.5404109954833984,-4.121217151681417,4.389345169067383,-2.631181065236227,-0.0016516994219273329,0.0008795358007773757,0.0007642423734068871,0.002652623225003481,-0.0007645378354936838,0.0011722579365596175,0.007319774478673935,0.6060564517974854,0.9330530166625977,0.11352518200874329,-0.06633418053388596,-0.011592142283916473
1749055449.6585007,4.255305290222168,-1.2257390779307862,-1.5404109954833984,-4.121217151681417,4.389345169067383,-2.631181065236227,-0.0016516994219273329,0.0008795358007773757,0.0007642423734068871,0.002652623225003481,-0.0007645378354936838,0.0011722579365596175,0.007319774478673935,0.6060564517974854,0.9330530166625977,0.11352518200874329,-0.06633418053388596,-0.011592142283916473
1749055449.65854,4.255321025848389,-1.2257238191417237,-1.5404300689697266,-4.1212362251677455,4.389357566833496,-2.631220881138937,-0.0012662780936807394,0.0009152688435278833,0.000694297079462558,0.001645950716920197,-0.000535785686224699,0.0009858208941295743,0.025659022852778435,0.622298002243042,0.9388275146484375,0.12252234667539597,-0.05332358181476593,-0.04278399795293808
1749055449.6585777,4.2553019523620605,-1.2257085603526612,-1.5404181480407715,-4.121255298654074,4.389345169067383,-2.631220881138937,-0.001203523250296712,0.0025495756417512894,0.0006256799679249525,0.001391878817230463,-0.00045557241537608206,0.0008824122487567365,0.0160586666315794,0.5997076034545898,0.9190372228622437,0.118639275431633,-0.08716040849685669,-0.04787342995405197
1749055449.6586154,4.255324840545654,-1.225757823591568,-1.5403990745544434,-4.121267934838766,4.389316558837891,-2.631209198628561,-0.001048329402692616,0.0032374542206525803,0.0006391470087692142,0.001283446792513132,-0.00040934671415016055,0.0007961317314766347,0.024452567100524902,0.5949247479438782,0.9259248375892639,0.154181569814682,-0.04814259707927704,-0.06587328761816025
1749055449.658653,4.255316257476807,-1.2257085603526612,-1.5403990745544434,-4.121239801446432,4.389357566833496,-2.631220881138937,-0.0008967526373453438,0.003091339487582445,0.0005957395187579095,0.00106767937541008,-0.0003743568668141961,0.0007247787434607744,0.010124962776899338,0.600548505783081,0.9139186143875122,0.14232341945171356,-0.0470738559961319,-0.0618477538228035
1749055449.65869,4.255316257476807,-1.2257085603526612,-1.5403990745544434,-4.121239801446432,4.389357566833496,-2.631220881138937,-0.0008967526373453438,0.003091339487582445,0.0005957395187579095,0.00106767937541008,-0.0003743568668141961,0.0007247787434607744,0.010124962776899338,0.600548505783081,0.9139186143875122,0.14232341945171356,-0.0470738559961319,-0.0618477538228035
1749055449.6587267,4.25527811050415,-1.2257119578174134,-1.5404109954833984,-4.121239801446432,4.3893303871154785,-2.63125187555422,-0.0008919280371628702,0.0026185144670307636,0.0004913380835205317,0.0011173721868544817,-0.0003454009420238435,0.0006235907203517854,0.00904231145977974,0.608978271484375,0.9177817106246948,0.13284143805503845,-0.06152695417404175,-0.05155915766954422
1749055449.6587648,4.255312919616699,-1.2256725591472168,-1.540414571762085,-4.12120046238088,4.38933801651001,-2.631198231373922,-0.0010542451636865735,0.0033789852168411016,0.00041799951577559114,0.0024965128395706415,-0.0002993292873725295,0.0005102432915009558,-0.004548545926809311,0.5817617177963257,0.8781394958496094,0.13519759476184845,-0.014537610113620758,-0.103315569460392
1749055449.6588016,4.255312919616699,-1.2256725591472168,-1.540414571762085,-4.12120046238088,4.38933801651001,-2.631198231373922,-0.0010542451636865735,0.0033789852168411016,0.00041799951577559114,0.0024965128395706415,-0.0002993292873725295,0.0005102432915009558,-0.004548545926809311,0.5817617177963257,0.8781394958496094,0.13519759476184845,-0.014537610113620758,-0.103315569460392
1749055449.6588383,4.255266189575195,-1.2256878179362793,-1.5404181480407715,-4.121219535867208,4.389350414276123,-2.6312173048602503,-0.003036432433873415,0.003761301515623927,0.0002562613517511636,0.0026834122836589813,-0.00022122614609543234,2.7950163712375797e-05,0.010410230606794357,0.5890984535217285,0.8559561967849731,0.16727399826049805,0.02397201955318451,-0.1368396282196045
1749055449.6588752,4.255311965942383,-1.2256793242743989,-1.5404181480407715,-4.121196886102194,4.389345169067383,-2.6312785784350794,-0.0050227949395775795,0.0036674949806183577,0.00013446524098981172,0.0031324115116149187,-0.0002013322664424777,-0.0009092862601391971,0.004894774407148361,0.6057677268981934,0.8276334404945374,0.15288516879081726,0.029173195362091064,-0.1484905481338501
1749055449.6589115,4.255269527435303,-1.2256365579417725,-1.5404109954833984,-4.121219535867208,4.389376640319824,-2.6312101523028772,-0.005597920157015324,0.0035047915298491716,6.379540718626231e-05,0.004055948927998543,-0.00015553602133877575,-0.004020641557872295,-0.03198063746094704,0.5711774826049805,0.8349208831787109,0.18121014535427094,0.039451390504837036,-0.15883246064186096
1749055449.6589487,4.25525426864624,-1.2256365579417725,-1.540414571762085,-4.121204038659567,4.389395236968994,-2.631232802067892,-0.0061688791029155254,0.0033065073657780886,4.1653847802081145e-06,0.00560359563678503,2.767469959508162e-05,-0.005813959985971451,-0.06047739088535309,0.5799801349639893,0.8041431903839111,0.1642700433731079,0.05883611738681793,-0.1652989238500595
1749055449.6589854,4.255221366882324,-1.2256179612926026,-1.540414571762085,-4.12117662052297,4.389341831207275,-2.631268564854757,-0.008072538301348686,0.0031541981734335423,2.7196986707167525e-07,0.006552159786224365,0.00022119143977761269,-0.007192333694547415,-0.101559579372406,0.5900092720985413,0.7959636449813843,0.16512596607208252,0.07810966670513153,-0.171932652592659
1749055449.6590223,4.255221366882324,-1.2256179612926026,-1.540414571762085,-4.12117662052297,4.389341831207275,-2.631268564854757,-0.008072538301348686,0.0031541981734335423,2.7196986707167525e-07,0.006552159786224365,0.00022119143977761269,-0.007192333694547415,-0.101559579372406,0.5900092720985413,0.7959636449813843,0.16512596607208252,0.07810966670513153,-0.171932652592659
1749055449.6594143,4.255213260650635,-1.2256365281394501,-1.5404300689697266,-4.1211682758727015,4.389407157897949,-2.6312764326678675,-0.012249067425727844,0.0031351654324680567,-0.002256198786199093,0.008250891231000423,0.0024820812977850437,-0.010497412644326687,-0.09193605184555054,0.5762953758239746,0.7974627017974854,0.17995405197143555,0.10411949455738068,-0.20766136050224304
1749055449.6613965,4.255213260650635,-1.2256365281394501,-1.5404300689697266,-4.1211682758727015,4.389407157897949,-2.6312764326678675,-0.012249067425727844,0.0031351654324680567,-0.002256198786199093,0.008250891231000423,0.0024820812977850437,-0.010497412644326687,-0.09193605184555054,0.5762953758239746,0.7974627017974854,0.17995405197143555,0.10411949455738068,-0.20766136050224304
1749055449.706322,4.255161285400391,-1.2256432932666321,-1.5404300689697266,-4.121119638482565,4.389372825622559,-2.6313939730273646,-0.016594910994172096,0.0031108539551496506,-0.0022655529901385307,0.009635884314775467,0.004038800019770861,-0.01740182191133499,-0.10150785744190216,0.5655501484870911,0.7684438228607178,0.17048591375350952,0.164876326918602,-0.20189760625362396
1749055449.7063696,4.255192279815674,-1.2255700391582032,-1.5404384136199951,-4.1210767231383265,4.389388561248779,-2.6313567797290247,-0.018966464325785637,0.002469197614118457,-0.0019653288181871176,0.010360863991081715,0.0054644630290567875,-0.01949029602110386,-0.06508627533912659,0.5563017129898071,0.7463226318359375,0.20125555992126465,0.17399601638317108,-0.18219999969005585
1749055449.7064106,4.255066394805908,-1.2256158155253907,-1.5404419898986816,-4.121087690392965,4.389429092407227,-2.631420437489645,-0.019572395831346512,0.0014890182064846158,-0.002115559531375766,0.010994713753461838,0.007608464919030666,-0.020818782970309258,-0.09385129064321518,0.5681867599487305,0.7398533225059509,0.1897422969341278,0.1969970315694809,-0.1579035073518753
1749055449.7064502,4.2550811767578125,-1.225619153385498,-1.540419340133667,-4.121024747888082,4.389405250549316,-2.631462875996725,-0.01898602768778801,0.0012595356674864888,-0.00324521423317492,0.012239191681146622,0.009936640039086342,-0.02103724330663681,-0.07251080870628357,0.5957103967666626,0.7327713966369629,0.19793355464935303,0.20838062465190887,-0.16847261786460876
1749055449.7064888,4.255021095275879,-1.2256347101977845,-1.5404539108276367,-4.121035715142721,4.3894476890563965,-2.6314919630633753,-0.020030230283737183,0.0012270152801647782,-0.0044886264950037,0.013167355209589005,0.012407765723764896,-0.020720357075333595,-0.08524463325738907,0.6119446158409119,0.7266408801078796,0.19673822820186615,0.21945637464523315,-0.17291191220283508
1749055449.7065277,4.255021095275879,-1.2256347101977845,-1.5404539108276367,-4.121035715142721,4.3894476890563965,-2.6314919630633753,-0.020030230283737183,0.0012270152801647782,-0.0044886264950037,0.013167355209589005,0.012407765723764896,-0.020720357075333595,-0.08524463325738907,0.6119446158409119,0.7266408801078796,0.19673822820186615,0.21945637464523315,-0.17291191220283508
1749055449.706566,4.254907131195068,-1.225588635807373,-1.5404431819915771,-4.120975156823629,4.389499187469482,-2.6316373983966272,-0.02120921202003956,0.0014630871592089534,-0.005709514953196049,0.015577795915305614,0.017917411401867867,-0.022370247170329094,-0.12516064941883087,0.5768077373504639,0.7030641436576843,0.22016914188861847,0.19526328146457672,-0.17835234105587006
1749055449.7066047,4.254882335662842,-1.2255819898894806,-1.5404741764068604,-4.120932241479391,4.3895792961120605,-2.6316540876971644,-0.022015724331140518,0.0023807899560779333,-0.006411448586732149,0.016561906784772873,0.02026728354394436,-0.022860154509544373,-0.13014206290245056,0.5711683034896851,0.7123139500617981,0.18712922930717468,0.19363458454608917,-0.18404021859169006
1749055449.706643,4.2548933029174805,-1.2255801123431702,-1.5404865741729736,-4.12091912845754,4.389584541320801,-2.631672445927755,-0.023390620946884155,0.0023822528310120106,-0.0070647671818733215,0.01698371395468712,0.02037080004811287,-0.024344002828001976,-0.13338026404380798,0.5667402744293213,0.7024912238121033,0.19365592300891876,0.17436636984348297,-0.1838088035583496
1749055449.7066815,4.2548136711120605,-1.225576714878418,-1.5404949188232422,-4.12085284809255,4.389632225036621,-2.6317697207080286,-0.02475963719189167,0.0023133326321840286,-0.007995441555976868,0.017159968614578247,0.021280385553836823,-0.02463667280972004,-0.16072271764278412,0.5798165202140808,0.6917487978935242,0.19378966093063354,0.17823244631290436,-0.1949191391468048
1749055449.7067192,4.2548136711120605,-1.225576714878418,-1.5404949188232422,-4.12085284809255,4.389632225036621,-2.6317697207080286,-0.02475963719189167,0.0023133326321840286,-0.007995441555976868,0.017159968614578247,0.021280385553836823,-0.02463667280972004,-0.16072271764278412,0.5798165202140808,0.6917487978935242,0.19378966093063354,0.17823244631290436,-0.1949191391468048
1749055449.7067575,4.254698276519775,-1.2256106299212952,-1.5405497550964355,-4.120803733865255,4.389719009399414,-2.6318541208850306,-0.026875339448451996,0.0015088930958881974,-0.01092575304210186,0.01578548364341259,0.021367473527789116,-0.028230665251612663,-0.16400766372680664,0.5960791110992432,0.7101837992668152,0.18402668833732605,0.15963073074817657,-0.18576186895370483
1749055449.7067952,4.254698276519775,-1.2256106299212952,-1.5405497550964355,-4.120803733865255,4.389719009399414,-2.6318541208850306,-0.026875339448451996,0.0015088930958881974,-0.01092575304210186,0.01578548364341259,0.021367473527789116,-0.028230665251612663,-0.16400766372680664,0.5960791110992432,0.7101837992668152,0.18402668833732605,0.15963073074817657,-0.18576186895370483
1749055449.7068331,4.25466251373291,-1.2255544823459168,-1.5405771732330322,-4.12078656772756,4.389766693115234,-2.631929937993185,-0.027894390746951103,0.001310998573899269,-0.010388961993157864,0.015924226492643356,0.021611815318465233,-0.030131205916404724,-0.18473538756370544,0.5878082513809204,0.6986725330352783,0.18176476657390594,0.1727050095796585,-0.1779850423336029
1749055449.706871,4.2545905113220215,-1.2255645555308838,-1.5405700206756592,-4.1207317314543666,4.389843940734863,-2.6319809595691126,-0.029584214091300964,0.0012420080602169037,-0.011242429725825787,0.015384461730718613,0.021470526233315468,-0.030325356870889664,-0.1880273073911667,0.582261323928833,0.6862510442733765,0.20792661607265472,0.16802507638931274,-0.18624654412269592
1749055449.7069092,4.2545342445373535,-1.2255425316146393,-1.540597915649414,-4.120710989037985,4.3898844718933105,-2.6320799032794397,-0.03115389682352543,0.001304761623032391,-0.011839092709124088,0.01509060338139534,0.02093786746263504,-0.032078418880701065,-0.18535783886909485,0.5917655229568481,0.705287516117096,0.18434181809425354,0.18086941540241241,-0.18988916277885437
1749055449.7069466,4.254391193389893,-1.2255578202060242,-1.5406736135482788,-4.120659729043478,4.389941215515137,-2.63220459619631,-0.03451898694038391,0.0017448286525905132,-0.014088362455368042,0.01535931695252657,0.0215982124209404,-0.03558220714330673,-0.2468487024307251,0.5924930572509766,0.7107707262039185,0.20459261536598206,0.18652701377868652,-0.19398283958435059
1749055449.706984,4.2543625831604,-1.2255611282638093,-1.540712833404541,-4.120627065698141,4.389981746673584,-2.6322794596301478,-0.03709971159696579,0.0018277387134730816,-0.014312871731817722,0.01608129031956196,0.021710088476538658,-0.03891474008560181,-0.21444129943847656,0.5682339668273926,0.6916895508766174,0.23353323340415955,0.17653416097164154,-0.18153294920921326
1749055449.707021,4.254266262054443,-1.2255645555308838,-1.5407295227050781,-4.120575328866476,4.390044689178467,-2.6323474089251917,-0.04002608358860016,0.0016815399285405874,-0.014746698550879955,0.017156535759568214,0.022551482543349266,-0.039062805473804474,-0.2232511043548584,0.6068930625915527,0.7075271010398865,0.24209481477737427,0.19158683717250824,-0.19022491574287415
1749055449.7070584,4.2541632652282715,-1.2255800825408478,-1.5407533645629883,-4.120535989800924,4.3900651931762695,-2.632430378590719,-0.04065673053264618,0.0016133752651512623,-0.0140739930793643,0.017986148595809937,0.022910112515091896,-0.04053221642971039,-0.2368095964193344,0.5857977867126465,0.691256046295166,0.23927097022533417,0.18772302567958832,-0.20130521059036255
1749055449.707096,4.254114151000977,-1.2255560618690033,-1.5407860279083252,-4.120499750176901,4.390097618103027,-2.6325412432300013,-0.04139263927936554,0.001494437805376947,-0.014363007619976997,0.01936674676835537,0.024762826040387154,-0.04338007792830467,-0.2506553828716278,0.5817880630493164,0.7093793749809265,0.22859680652618408,0.19607765972614288,-0.19369351863861084
1749055449.707134,4.2540507316589355,-1.2255645555308838,-1.5408295392990112,-4.120475193063253,4.390145778656006,-2.6325905958758753,-0.04482133686542511,0.0013921585632488132,-0.013856408186256886,0.01875750720500946,0.025734448805451393,-0.045518890023231506,-0.2335384488105774,0.6154309511184692,0.7120054960250854,0.24753817915916443,0.19521547853946686,-0.2086307555437088
1749055449.7074535,4.25391960144043,-1.2255370777896424,-1.540850281715393,-4.120458742181295,4.390229225158691,-2.6327205340014856,-0.0466974638402462,0.0011938828974962234,-0.014263691380620003,0.01950843445956707,0.028055520728230476,-0.048091594129800797,-0.27019768953323364,0.5902817249298096,0.7225832343101501,0.26470673084259033,0.2000679075717926,-0.20749571919441223
1749055449.7093747,4.25391960144043,-1.2255370777896424,-1.540850281715393,-4.120458742181295,4.390229225158691,-2.6327205340014856,-0.0466974638402462,0.0011938828974962234,-0.014263691380620003,0.01950843445956707,0.028055520728230476,-0.048091594129800797,-0.27019768953323364,0.5902817249298096,0.7225832343101501,0.26470673084259033,0.2000679075717926,-0.20749571919441223
1749055449.7543259,4.25385046005249,-1.2255303424647828,-1.5408704280853271,-4.120398660699362,4.3902907371521,-2.6327853838550013,-0.050928473472595215,0.0011187480995431542,-0.014006773009896278,0.020898157730698586,0.02929939143359661,-0.05012378469109535,-0.2502821683883667,0.6319921016693115,0.710794985294342,0.2632443904876709,0.2139318585395813,-0.20011481642723083
1749055449.7543726,4.253735065460205,-1.2255712908557435,-1.540909767150879,-4.1203795872130335,4.39036226272583,-2.632911745701925,-0.04929058253765106,0.0010805067140609026,-0.014481713995337486,0.02270681783556938,0.030832819640636444,-0.05195716768503189,-0.27893418073654175,0.6078788042068481,0.7312440872192383,0.27442747354507446,0.2218010276556015,-0.23982656002044678
1749055449.7544138,4.25355863571167,-1.2255337101272126,-1.540973424911499,-4.120263000527853,4.390497207641602,-2.633080069218771,-0.05428551137447357,0.0011493077035993338,-0.013984652236104012,0.025416916236281395,0.03384825214743614,-0.0563017763197422,-0.2772596478462219,0.6060647368431091,0.7130939960479736,0.26123204827308655,0.20097346603870392,-0.23708292841911316
1749055449.7544549,4.25355863571167,-1.2255337101272126,-1.540973424911499,-4.120263000527853,4.390497207641602,-2.633080069218771,-0.05428551137447357,0.0011493077035993338,-0.013984652236104012,0.025416916236281395,0.03384825214743614,-0.0563017763197422,-0.2772596478462219,0.6060647368431091,0.7130939960479736,0.26123204827308655,0.20097346603870392,-0.23708292841911316
1749055449.7544942,4.253403663635254,-1.2255526346019288,-1.5409936904907227,-4.120195766488546,4.390591144561768,-2.6332619825946253,-0.056056976318359375,0.0012676811311393976,-0.013666854240000248,0.0271824412047863,0.03529573976993561,-0.057411544024944305,-0.30239802598953247,0.6260762810707092,0.7082260847091675,0.27036795020103455,0.21750840544700623,-0.20864519476890564
1749055449.754533,4.2532958984375,-1.2255337697318573,-1.5410175323486328,-4.120115657845968,4.390622138977051,-2.6333351770984095,-0.05781475454568863,0.0018019159324467182,-0.014050336554646492,0.028467312455177307,0.03734322264790535,-0.05874665081501007,-0.30956369638442993,0.5912166237831116,0.6875767111778259,0.261473149061203,0.20136809349060059,-0.20996934175491333
1749055449.7545724,4.253087043762207,-1.2255472105792542,-1.5410656929016113,-4.119995494882101,4.39080810546875,-2.6335931460009974,-0.061701398342847824,0.00204433873295784,-0.01476050354540348,0.031468745321035385,0.03973686695098877,-0.062439512461423874,-0.3327484130859375,0.6049914360046387,0.7141487002372742,0.2599948048591614,0.1921851634979248,-0.23521862924098969
1749055449.754626,4.253087043762207,-1.2255472105792542,-1.5410656929016113,-4.119995494882101,4.39080810546875,-2.6335931460009974,-0.061701398342847824,0.00204433873295784,-0.01476050354540348,0.031468745321035385,0.03973686695098877,-0.062439512461423874,-0.3327484130859375,0.6049914360046387,0.7141487002372742,0.2599948048591614,0.1921851634979248,-0.23521862924098969
1749055449.754668,4.2528157234191895,-1.2255593997291108,-1.541141390800476,-4.119898696938986,4.3909101486206055,-2.633848015462057,-0.06582778692245483,0.001846705679781735,-0.015469225123524666,0.033196188509464264,0.04265719652175903,-0.06644044071435928,-0.3280661106109619,0.6297183632850647,0.6953003406524658,0.2609558403491974,0.1725671887397766,-0.24517491459846497
1749055449.7547069,4.252661228179932,-1.2255096596530457,-1.5411770343780518,-4.119822641412252,4.390957832336426,-2.6339877287494105,-0.0679706409573555,0.0018311041640117764,-0.014842634089291096,0.0347629152238369,0.04291881248354912,-0.06802741438150406,-0.329380065202713,0.6182061433792114,0.6976507902145386,0.2552693486213684,0.19394052028656006,-0.22425439953804016
1749055449.7547452,4.252560138702393,-1.225532130604126,-1.5412044525146484,-4.119735141793722,4.391106128692627,-2.634146515523092,-0.07003102451562881,0.0021436940878629684,-0.015229186974465847,0.03538735210895538,0.041618768125772476,-0.06942901760339737,-0.3091096580028534,0.5950107574462891,0.6792148351669312,0.2546868324279785,0.20504453778266907,-0.2421838343143463
1749055449.7547827,4.252397537231445,-1.2255353194526215,-1.5412216186523438,-4.119681736032003,4.391186714172363,-2.634293858204977,-0.07153553515672684,0.0027120180893689394,-0.015455624088644981,0.035824283957481384,0.04115084558725357,-0.07134657353162766,-0.3618216812610626,0.6155389547348022,0.6753329038619995,0.2478483021259308,0.22955875098705292,-0.22067707777023315
1749055449.7548199,4.252397537231445,-1.2255353194526215,-1.5412216186523438,-4.119681736032003,4.391186714172363,-2.634293858204977,-0.07153553515672684,0.0027120180893689394,-0.015455624088644981,0.035824283957481384,0.04115084558725357,-0.07134657353162766,-0.3618216812610626,0.6155389547348022,0.6753329038619995,0.2478483021259308,0.22955875098705292,-0.22067707777023315
1749055449.7548578,4.252147674560547,-1.2254890662482758,-1.5412657260894775,-4.119506021539205,4.3913655281066895,-2.634597365056173,-0.07515396177768707,0.00261509045958519,-0.017181629315018654,0.0386265330016613,0.04554051160812378,-0.0763813778758049,-0.3741699159145355,0.5870227217674255,0.6693873405456543,0.24267295002937317,0.2173188477754593,-0.22833409905433655
1749055449.7548974,4.251976013183594,-1.2254706186107178,-1.5413329601287842,-4.1194311581053675,4.39144229888916,-2.6347127596484583,-0.07634610682725906,0.0022614295594394207,-0.016990093514323235,0.03866986930370331,0.04692037031054497,-0.07643149048089981,-0.39011865854263306,0.5863475799560547,0.6739192605018616,0.23609590530395508,0.20887675881385803,-0.22709520161151886
1749055449.7549374,4.251976013183594,-1.2254706186107178,-1.5413329601287842,-4.1194311581053675,4.39144229888916,-2.6347127596484583,-0.07634610682725906,0.0022614295594394207,-0.016990093514323235,0.03866986930370331,0.04692037031054497,-0.07643149048089981,-0.39011865854263306,0.5863475799560547,0.6739192605018616,0.23609590530395508,0.20887675881385803,-0.22709520161151886
1749055449.7549746,4.251657009124756,-1.2255044740489502,-1.5414050817489624,-4.119274755517477,4.3916215896606445,-2.635042730961935,-0.07904931902885437,0.001910233753733337,-0.0181253831833601,0.03759647160768509,0.04753497987985611,-0.08190334588289261,-0.42373237013816833,0.6246583461761475,0.6605110168457031,0.2663784325122833,0.19746865332126617,-0.21802401542663574
1749055449.7550113,4.251657009124756,-1.2255044740489502,-1.5414050817489624,-4.119274755517477,4.3916215896606445,-2.635042730961935,-0.07904931902885437,0.001910233753733337,-0.0181253831833601,0.03759647160768509,0.04753497987985611,-0.08190334588289261,-0.42373237013816833,0.6246583461761475,0.6605110168457031,0.2663784325122833,0.19746865332126617,-0.21802401542663574
1749055449.7550492,4.251500606536865,-1.2254996460727234,-1.541440725326538,-4.119225641290182,4.391778469085693,-2.63520318666567,-0.08575519919395447,0.0022318896371871233,-0.019103147089481354,0.038598522543907166,0.05082589387893677,-0.08174493908882141,-0.3852141499519348,0.6169362664222717,0.6629520654678345,0.25858259201049805,0.20540665090084076,-0.23203042149543762
1749055449.7551076,4.251168727874756,-1.2254424852183838,-1.54152512550354,-4.119065424005026,4.39196252822876,-2.63552171388735,-0.08634182065725327,0.003515769960358739,-0.01968621462583542,0.040979210287332535,0.05278154835104942,-0.08471551537513733,-0.4081721007823944,0.6191983222961426,0.6548304557800293,0.27384716272354126,0.2166592925786972,-0.23001177608966827
1749055449.755148,4.251035690307617,-1.2254345279983063,-1.5415573120117188,-4.118973632852072,4.392119407653809,-2.6357272307025355,-0.08952556550502777,0.0032757059670984745,-0.020231274887919426,0.04057377204298973,0.05217466130852699,-0.08778267353773117,-0.3857135474681854,0.5711098313331604,0.6491991281509399,0.28790414333343506,0.20025499165058136,-0.23862698674201965
1749055449.7551854,4.250836372375488,-1.2254649561694642,-1.5416163206100464,-4.118890424767965,4.392153739929199,-2.6359081904040735,-0.09098555147647858,0.0027451799251139164,-0.02136223204433918,0.042010076344013214,0.05121167004108429,-0.0936664566397667,-0.4155465364456177,0.5954576730728149,0.6673665046691895,0.27856481075286865,0.21771110594272614,-0.2042207419872284
1749055449.7553804,4.250636100769043,-1.225407139664032,-1.5416728258132935,-4.118781467477316,4.392242431640625,-2.636125628148214,-0.09245909005403519,0.002287738025188446,-0.022105740383267403,0.04358949884772301,0.05273514986038208,-0.09187736362218857,-0.42130687832832336,0.6092292666435242,0.6688319444656372,0.28304582834243774,0.23575279116630554,-0.21085447072982788
1749055449.7573571,4.250425815582275,-1.2254412931254883,-1.5417122840881348,-4.118716856042379,4.392380237579346,-2.636301581059591,-0.09407929331064224,0.002245727926492691,-0.021937554702162743,0.04535272344946861,0.055311184376478195,-0.09280380606651306,-0.3968120515346527,0.5985875725746155,0.6656996011734009,0.2603812515735626,0.21653874218463898,-0.2388320416212082
1749055449.798278,4.250255584716797,-1.2254482072642823,-1.5417251586914062,-4.118616720239157,4.392507076263428,-2.6364808718310755,-0.09768465906381607,0.0025449967943131924,-0.022159958258271217,0.045487355440855026,0.057364776730537415,-0.09569776058197021,-0.39070209860801697,0.6099580526351929,0.6551523208618164,0.2730444073677063,0.2186432182788849,-0.20592378079891205
1749055449.798325,4.250064373016357,-1.225425736313202,-1.5417733192443848,-4.1185485325255335,4.392615795135498,-2.636691157017843,-0.09652135521173477,0.0032403888180851936,-0.02282727137207985,0.04659122973680496,0.05699950456619263,-0.0977289006114006,-0.4084421694278717,0.5937126874923706,0.6461749076843262,0.28302139043807983,0.21780584752559662,-0.22679518163204193
1749055449.7983656,4.2498369216918945,-1.2254446309855958,-1.54180908203125,-4.118449111978048,4.392723560333252,-2.6368632952319544,-0.10053840279579163,0.003349997801706195,-0.023745952174067497,0.04585262015461922,0.05798611417412758,-0.09890716522932053,-0.4208725094795227,0.6141443848609924,0.6536768674850464,0.28323930501937866,0.23918463289737701,-0.2182801216840744
1749055449.7984054,4.249629020690918,-1.2254205507091065,-1.5418691635131836,-4.118368526498312,4.3928070068359375,-2.6370542685138147,-0.09930688142776489,0.0031418646685779095,-0.02413865551352501,0.046696145087480545,0.05931611731648445,-0.09957196563482285,-0.4218372106552124,0.615808367729187,0.6527421474456787,0.2998654544353485,0.24599605798721313,-0.2076415717601776
1749055449.798444,4.249429225921631,-1.2254019242576142,-1.5419204235076904,-4.118268867532247,4.392943859100342,-2.637284819279806,-0.10184343159198761,0.0034301565028727055,-0.02394171804189682,0.0496295802295208,0.06134798005223274,-0.10128185898065567,-0.44182342290878296,0.5968929529190063,0.6376246809959412,0.3028118908405304,0.24663300812244415,-0.2277500331401825
1749055449.7984834,4.24922513961792,-1.225390003328659,-1.541968584060669,-4.118152757684225,4.3931379318237305,-2.6374533812152308,-0.10520684719085693,0.0037372014485299587,-0.024462681263685226,0.051020510494709015,0.06361395120620728,-0.10458964854478836,-0.41200926899909973,0.6193736791610718,0.6484445929527283,0.27382251620292664,0.2316281497478485,-0.21959015727043152
1749055449.798522,4.248966693878174,-1.225417212848999,-1.5420162677764893,-4.118076225320333,4.3932366371154785,-2.6377063433276575,-0.10661118477582932,0.003360946662724018,-0.02586849220097065,0.051687899976968765,0.0653294026851654,-0.1041218563914299,-0.4095851182937622,0.6120831966400146,0.6456457376480103,0.3023810088634491,0.22450146079063416,-0.20397844910621643
1749055449.7985601,4.248758316040039,-1.2253967088511963,-1.5420644283294678,-4.117964168588156,4.393374919891357,-2.6378913561450403,-0.10898172855377197,0.0035170894116163254,-0.02635207027196884,0.05295006185770035,0.06678354740142822,-0.10388223081827164,-0.4051079750061035,0.5949782729148865,0.6651655435562134,0.30342069268226624,0.21962898969650269,-0.2565707862377167
1749055449.7985978,4.248549461364746,-1.2253845495036622,-1.542112112045288,-4.117875238458151,4.393556118011475,-2.638078753148214,-0.11130110919475555,0.0037060140166431665,-0.025927269831299782,0.05259402096271515,0.06797535717487335,-0.10494087636470795,-0.40146902203559875,0.5828913450241089,0.6446011662483215,0.3161594569683075,0.21179404854774475,-0.2577783763408661
1749055449.798636,4.248549461364746,-1.2253845495036622,-1.542112112045288,-4.117875238458151,4.393556118011475,-2.638078753148214,-0.11130110919475555,0.0037060140166431665,-0.025927269831299782,0.05259402096271515,0.06797535717487335,-0.10494087636470795,-0.40146902203559875,0.5828913450241089,0.6446011662483215,0.3161594569683075,0.21179404854774475,-0.2577783763408661
1749055449.798674,4.248070240020752,-1.2253931921771546,-1.5422675609588623,-4.117643734017843,4.393757343292236,-2.6385820547686976,-0.11461804062128067,0.0034443307667970657,-0.027978191152215004,0.05470532178878784,0.06924255937337875,-0.11079714447259903,-0.39584875106811523,0.6019649505615234,0.6392305493354797,0.3138066232204437,0.20838700234889984,-0.2231905609369278
1749055449.798712,4.2478814125061035,-1.2253387433341523,-1.5422923564910889,-4.117554803887838,4.39389705657959,-2.6387937704669397,-0.11582693457603455,0.0036579566076397896,-0.028691943734884262,0.05595794692635536,0.06910257041454315,-0.11350619792938232,-0.39099735021591187,0.6032937169075012,0.6620327234268188,0.2955927848815918,0.23041845858097076,-0.23068973422050476
1749055449.798749,4.247587203979492,-1.2253420811942597,-1.5423524379730225,-4.117407222787374,4.394009590148926,-2.6390255133258265,-0.12142015993595123,0.0037706387229263783,-0.02836303412914276,0.05733302980661392,0.06977631151676178,-0.11633279919624329,-0.4089072048664093,0.5835540294647217,0.6438450813293457,0.29912757873535156,0.22979480028152466,-0.23636750876903534
1749055449.7987876,4.247348308563232,-1.225348786716797,-1.542385220527649,-4.117322584191793,4.394190788269043,-2.6392789522754114,-0.11974910646677017,0.0036912732757627964,-0.029579613357782364,0.0580935999751091,0.0709267109632492,-0.11966370791196823,-0.4245120882987976,0.578618049621582,0.6423788070678711,0.30027639865875244,0.25460299849510193,-0.21935617923736572
1749055449.798825,4.247122764587402,-1.2253642541221161,-1.542475700378418,-4.1171869240202845,4.394321918487549,-2.6395369211779993,-0.12260506302118301,0.0035370998084545135,-0.03008490800857544,0.0587029829621315,0.07362379133701324,-0.12234913557767868,-0.37225106358528137,0.5778903961181641,0.6521311402320862,0.3056790232658386,0.24066738784313202,-0.21860969066619873
1749055449.7988622,4.247122764587402,-1.2253642541221161,-1.542475700378418,-4.1171869240202845,4.394321918487549,-2.6395369211779993,-0.12260506302118301,0.0035370998084545135,-0.03008490800857544,0.0587029829621315,0.07362379133701324,-0.12234913557767868,-0.37225106358528137,0.5778903961181641,0.6521311402320862,0.3056790232658386,0.24066738784313202,-0.21860969066619873
1749055449.7989,4.246674060821533,-1.2253630024245759,-1.5425649881362915,-4.116942306558126,4.394629001617432,-2.6399772802936,-0.12484129518270493,0.0034374152310192585,-0.029747042804956436,0.06144506484270096,0.0760098323225975,-0.1257728487253189,-0.43615758419036865,0.5816298127174377,0.6374584436416626,0.305661678314209,0.22680088877677917,-0.23839177191257477
1749055449.7989373,4.246674060821533,-1.2253630024245759,-1.5425649881362915,-4.116942306558126,4.394629001617432,-2.6399772802936,-0.12484129518270493,0.0034374152310192585,-0.029747042804956436,0.06144506484270096,0.0760098323225975,-0.1257728487253189,-0.43615758419036865,0.5816298127174377,0.6374584436416626,0.305661678314209,0.22680088877677917,-0.23839177191257477
1749055449.7989748,4.24615478515625,-1.225305662756302,-1.5427191257476807,-4.116709371606344,4.394902229309082,-2.6404905954944056,-0.13011501729488373,0.002957009244710207,-0.032014619559049606,0.061908986419439316,0.07765094935894012,-0.12697212398052216,-0.430549681186676,0.5910403728485107,0.6534770727157593,0.2973248064517975,0.21873198449611664,-0.21064236760139465
1749055449.7990124,4.245913982391357,-1.2253247064403077,-1.5427757501602173,-4.116554399529928,4.395084857940674,-2.640738550816671,-0.13267681002616882,0.002926476299762726,-0.032482173293828964,0.06243935972452164,0.07826639711856842,-0.12746959924697876,-0.4195348024368286,0.6113980412483215,0.6535953283309937,0.30656200647354126,0.22632679343223572,-0.20631267130374908
1749055449.7993894,4.245619297027588,-1.225316361790039,-1.5428197383880615,-4.116437336007589,4.395318031311035,-2.6410353819476526,-0.1370648443698883,0.0030285660177469254,-0.032172076404094696,0.06495995074510574,0.07930487394332886,-0.12925727665424347,-0.41036340594291687,0.6172611117362976,0.6377378702163696,0.3132851719856262,0.24038706719875336,-0.23389190435409546
1749055449.8013637,4.245369911193848,-1.2252902549556275,-1.54290771484375,-4.11631764988088,4.395432949066162,-2.641290012990133,-0.1355140656232834,0.0033148149959743023,-0.03230024129152298,0.06471196562051773,0.08131758868694305,-0.12974081933498383,-0.44341185688972473,0.5978970527648926,0.6306220293045044,0.29534852504730225,0.23876774311065674,-0.23319323360919952
1749055449.8422885,4.245095252990723,-1.2253045600703736,-1.5429714918136597,-4.1161540947356166,4.395572662353516,-2.6415579954730433,-0.13866232335567474,0.003505518427118659,-0.032898809760808945,0.0654422864317894,0.08219611644744873,-0.1316012442111969,-0.43022918701171875,0.5766547322273254,0.631207287311554,0.31734031438827515,0.20988047122955322,-0.24498702585697174
1749055449.8423367,4.244818210601807,-1.225309209232666,-1.5430363416671753,-4.116025587121481,4.395758628845215,-2.6418398062335413,-0.14068318903446198,0.0034186297561973333,-0.033749207854270935,0.06626398861408234,0.07966736704111099,-0.13306471705436707,-0.39475199580192566,0.590180516242981,0.6423394680023193,0.31075340509414673,0.2564536929130554,-0.2618716359138489
1749055449.842378,4.244818210601807,-1.225309209232666,-1.5430363416671753,-4.116025587121481,4.395758628845215,-2.6418398062335413,-0.14068318903446198,0.0034186297561973333,-0.033749207854270935,0.06626398861408234,0.07966736704111099,-0.13306471705436707,-0.39475199580192566,0.590180516242981,0.6423394680023193,0.31075340509414673,0.2564536929130554,-0.2618716359138489
1749055449.8424227,4.2445068359375,-1.225269303922989,-1.543127417564392,-4.115909238854879,4.395910739898682,-2.6420958677874964,-0.14188475906848907,0.003279084572568536,-0.03410107642412186,0.06761980056762695,0.08053983747959137,-0.13615144789218903,-0.40634992718696594,0.6136335730552673,0.6431607604026794,0.31286925077438354,0.2590710520744324,-0.23111674189567566
1749055449.8424623,4.24394416809082,-1.2252420646003266,-1.5432398319244385,-4.115644355813497,4.396280765533447,-2.642669979725973,-0.1427079737186432,0.003366398625075817,-0.03499499335885048,0.06742707639932632,0.08805470168590546,-0.13791215419769287,-0.4426552355289459,0.6136310696601868,0.6325500011444092,0.32531824707984924,0.2248646467924118,-0.2701539397239685
1749055449.8425047,4.243687629699707,-1.2252884370139618,-1.5433000326156616,-4.115480800668234,4.396432876586914,-2.6429253260241907,-0.14492027461528778,0.003453492419794202,-0.03556498512625694,0.06871394068002701,0.09091819077730179,-0.14556409418582916,-0.45470863580703735,0.5996699929237366,0.6336820125579834,0.3184889554977417,0.20568953454494476,-0.24655190110206604
1749055449.8425434,4.243687629699707,-1.2252884370139618,-1.5433000326156616,-4.115480800668234,4.396432876586914,-2.6429253260241907,-0.14492027461528778,0.003453492419794202,-0.03556498512625694,0.06871394068002701,0.09091819077730179,-0.14556409418582916,-0.45470863580703735,0.5996699929237366,0.6336820125579834,0.3184889554977417,0.20568953454494476,-0.24655190110206604
1749055449.8425813,4.243056297302246,-1.225244091158249,-1.5434672832489014,-4.115192791024679,4.3968095779418945,-2.643546168004171,-0.15274612605571747,0.0038429119158536196,-0.03639456629753113,0.07287812232971191,0.08959999680519104,-0.14841964840888977,-0.4511895477771759,0.6104468703269958,0.6296352744102478,0.31345123052597046,0.23752805590629578,-0.25380760431289673
1749055449.8426197,4.242736339569092,-1.2252405446818848,-1.5435434579849243,-4.115071197549337,4.396973609924316,-2.643806282673971,-0.15286532044410706,0.003952226135879755,-0.036751795560121536,0.07246134430170059,0.0913240984082222,-0.15003466606140137,-0.42725542187690735,0.6084386706352234,0.6282220482826233,0.31717637181282043,0.22818684577941895,-0.2502071261405945
1749055449.8426569,4.242736339569092,-1.2252405446818848,-1.5435434579849243,-4.115071197549337,4.396973609924316,-2.643806282673971,-0.15286532044410706,0.003952226135879755,-0.036751795560121536,0.07246134430170059,0.0913240984082222,-0.15003466606140137,-0.42725542187690735,0.6084386706352234,0.6282220482826233,0.31717637181282043,0.22818684577941895,-0.2502071261405945
1749055449.8426986,4.242231369018555,-1.2252286237529297,-1.5437065362930298,-4.114782472650045,4.397393226623535,-2.6444976965533655,-0.15615235269069672,0.0031590464059263468,-0.03938994184136391,0.07545220106840134,0.09332272410392761,-0.15299560129642487,-0.4582558870315552,0.6209185719490051,0.6458434462547302,0.3237428069114685,0.25864431262016296,-0.25886625051498413
1749055449.8427374,4.242231369018555,-1.2252286237529297,-1.5437065362930298,-4.114782472650045,4.397393226623535,-2.6444976965533655,-0.15615235269069672,0.0031590464059263468,-0.03938994184136391,0.07545220106840134,0.09332272410392761,-0.15299560129642487,-0.4582558870315552,0.6209185719490051,0.6458434462547302,0.3237428069114685,0.25864431262016296,-0.25886625051498413
1749055449.8427746,4.241540431976318,-1.2251901787570496,-1.5438517332077026,-4.114458461801046,4.397741317749023,-2.645099703465597,-0.16050133109092712,0.0040635643526911736,-0.038671333342790604,0.08037525415420532,0.09414051473140717,-0.15106253325939178,-0.40441077947616577,0.6026625633239746,0.6409503817558289,0.26884421706199646,0.24690119922161102,-0.2728145718574524
1749055449.8428113,4.241189479827881,-1.2252358061126252,-1.5439547300338745,-4.114278932610983,4.397939682006836,-2.6454034487353724,-0.1594519317150116,0.004522198345512152,-0.038711585104465485,0.07954176515340805,0.09817066788673401,-0.15633705258369446,-0.49278688430786133,0.6198977828025818,0.6283811330795288,0.29163649678230286,0.23624123632907867,-0.2725754380226135
1749055449.8428483,4.241189479827881,-1.2252358061126252,-1.5439547300338745,-4.114278932610983,4.397939682006836,-2.6454034487353724,-0.1594519317150116,0.004522198345512152,-0.038711585104465485,0.07954176515340805,0.09817066788673401,-0.15633705258369446,-0.49278688430786133,0.6198977828025818,0.6283811330795288,0.29163649678230286,0.23624123632907867,-0.2725754380226135
1749055449.8428848,4.24057674407959,-1.2251854997924347,-1.544122576713562,-4.113998075524801,4.398345470428467,-2.6460605303393763,-0.16756899654865265,0.003802409628406167,-0.04291541874408722,0.07668405026197433,0.09760300815105438,-0.15999498963356018,-0.4469922184944153,0.6286298632621765,0.6932128071784973,0.3244233727455139,0.26121556758880615,-0.26054564118385315
1749055449.8429217,4.240240573883057,-1.2251926225474854,-1.5441784858703613,-4.113802810708517,4.398551940917969,-2.646414343510763,-0.1676754653453827,0.0044899736531078815,-0.041312672197818756,0.07850616425275803,0.09861192852258682,-0.1646563857793808,-0.42695149779319763,0.628523588180542,0.6676151752471924,0.3134840726852417,0.23437456786632538,-0.22922207415103912
1749055449.8429627,4.239869594573975,-1.225196198826172,-1.5442712306976318,-4.113688846627706,4.398755073547363,-2.6467257181750696,-0.1699807345867157,0.004203027579933405,-0.04049539193511009,0.07993112504482269,0.10303523391485214,-0.16886217892169952,-0.4568321108818054,0.6208902597427368,0.6651960611343384,0.3068316578865051,0.23170113563537598,-0.23912939429283142
1749055449.8430007,4.239869594573975,-1.225196198826172,-1.5442712306976318,-4.113688846627706,4.398755073547363,-2.6467257181750696,-0.1699807345867157,0.004203027579933405,-0.04049539193511009,0.07993112504482269,0.10303523391485214,-0.16886217892169952,-0.4568321108818054,0.6208902597427368,0.6651960611343384,0.3068316578865051,0.23170113563537598,-0.23912939429283142
1749055449.843037,4.239192008972168,-1.2251724165729065,-1.5444581508636475,-4.113329311410421,4.399114608764648,-2.6474300066577356,-0.1745114028453827,0.004905094858258963,-0.04349738731980324,0.07809914648532867,0.10137935727834702,-0.17318402230739594,-0.41768479347229004,0.5994565486907959,0.670772910118103,0.33385857939720154,0.24321375787258148,-0.20689085125923157
1749055449.8433554,4.239192008972168,-1.2251724165729065,-1.5444581508636475,-4.113329311410421,4.399114608764648,-2.6474300066577356,-0.1745114028453827,0.004905094858258963,-0.04349738731980324,0.07809914648532867,0.10137935727834702,-0.17318402230739594,-0.41768479347229004,0.5994565486907959,0.670772910118103,0.33385857939720154,0.24321375787258148,-0.20689085125923157
1749055449.845343,4.239192008972168,-1.2251724165729065,-1.5444581508636475,-4.113329311410421,4.399114608764648,-2.6474300066577356,-0.1745114028453827,0.004905094858258963,-0.04349738731980324,0.07809914648532867,0.10137935727834702,-0.17318402230739594,-0.41768479347229004,0.5994565486907959,0.670772910118103,0.33385857939720154,0.24321375787258148,-0.20689085125923157
1749055449.8862906,4.23817253112793,-1.2251256567290802,-1.5447027683258057,-4.112840314904684,4.399731159210205,-2.6483948866473597,-0.17741714417934418,0.004342719912528992,-0.043556373566389084,0.0825471505522728,0.10336685180664062,-0.1708347350358963,-0.46723514795303345,0.6037736535072327,0.6768592596054077,0.3398100435733795,0.2545721232891083,-0.25117257237434387
1749055449.886337,4.23779296875,-1.2251137656024476,-1.5448139905929565,-4.112676521340841,4.39996862411499,-2.6487415472613733,-0.18164385855197906,0.004465372767299414,-0.043967582285404205,0.08616847544908524,0.10530930012464523,-0.17085783183574677,-0.41758960485458374,0.6136420369148254,0.668398380279541,0.3242711126804352,0.2715665102005005,-0.2502133548259735
1749055449.886378,4.237398624420166,-1.2251482468894501,-1.544883131980896,-4.112500091592306,4.4001851081848145,-2.6491194407092493,-0.18234993517398834,0.004736780654639006,-0.04431784152984619,0.08435113728046417,0.10763489454984665,-0.1718062460422516,-0.40239217877388,0.588188111782074,0.6752916574478149,0.3310920000076294,0.28298264741897583,-0.2854030132293701
1749055449.886417,4.237004280090332,-1.2251050931266327,-1.545009732246399,-4.112363239327902,4.400409698486328,-2.6494513193713587,-0.18315084278583527,0.004825789015740156,-0.044722773134708405,0.08403240144252777,0.10961165279150009,-0.17255663871765137,-0.4786158502101898,0.6240385174751282,0.6825969219207764,0.3560590147972107,0.28166118264198303,-0.29954150319099426
1749055449.8864553,4.236651420593262,-1.2251399618438263,-1.545066237449646,-4.112160583535665,4.400590896606445,-2.6498127619372767,-0.18607358634471893,0.005272772163152695,-0.04481195658445358,0.08505432307720184,0.11221229285001755,-0.18221542239189148,-0.4127615988254547,0.5927134156227112,0.6688637733459473,0.36220258474349976,0.25838780403137207,-0.2603567838668823
1749055449.8864937,4.236276149749756,-1.2251352232745667,-1.545181155204773,-4.1120013199248255,4.4007954597473145,-2.6501949469195765,-0.18569260835647583,0.00503807608038187,-0.0447482131421566,0.08757520467042923,0.11359138041734695,-0.18251071870326996,-0.403964638710022,0.598930299282074,0.6744693517684937,0.37141939997673035,0.24603036046028137,-0.27730152010917664
1749055449.8865314,4.235938549041748,-1.2250740689090271,-1.5452650785446167,-4.111807962457174,4.401079177856445,-2.6505802313434046,-0.1867302656173706,0.0047391969710588455,-0.04535742849111557,0.09116258472204208,0.11436875909566879,-0.18624572455883026,-0.4302102029323578,0.6133175492286682,0.6790454387664795,0.33869558572769165,0.25238803029060364,-0.2558976411819458
1749055449.8865755,4.235586166381836,-1.2251075369170685,-1.5453609228134155,-4.111671825448507,4.4012651443481445,-2.6509316603290003,-0.1882384717464447,0.004723899532109499,-0.045551545917987823,0.08989967405796051,0.11557032912969589,-0.18747501075267792,-0.42740824818611145,0.6087291836738586,0.6816196441650391,0.34860119223594666,0.27036523818969727,-0.24200017750263214
1749055449.8866153,4.235210418701172,-1.224999563103058,-1.5454531908035278,-4.111475606957907,4.401505470275879,-2.6513331572162073,-0.18993064761161804,0.004324778914451599,-0.046256717294454575,0.09008528292179108,0.11685089766979218,-0.18650759756565094,-0.4398537278175354,0.6250003576278687,0.6812094449996948,0.3444840908050537,0.25888878107070923,-0.25044381618499756
1749055449.8866527,4.234799861907959,-1.225076512699463,-1.545518159866333,-4.1113022766509,4.401744842529297,-2.651700798665182,-0.19102363288402557,0.00503963977098465,-0.0467582568526268,0.09228052198886871,0.11839588731527328,-0.1899602860212326,-0.46910765767097473,0.6090832352638245,0.676629900932312,0.3472643494606018,0.2463841289281845,-0.23372460901737213
1749055449.8866904,4.234424114227295,-1.2250453394702454,-1.5456370115280151,-4.111075063745016,4.4019646644592285,-2.6520710627185267,-0.1944325715303421,0.005746316630393267,-0.04650145396590233,0.09454629570245743,0.11770427227020264,-0.1847461611032486,-0.43964579701423645,0.5999122262001038,0.6812670826911926,0.33681654930114746,0.2530781626701355,-0.2719619572162628
1749055449.8867285,4.234021186828613,-1.2250245374492188,-1.5457327365875244,-4.110914608041281,4.402234077453613,-2.65242582956423,-0.1955583095550537,0.006596415303647518,-0.047215536236763,0.09531257301568985,0.11786763370037079,-0.18736769258975983,-0.44090521335601807,0.5964621901512146,0.66935133934021,0.35728099942207336,0.26791977882385254,-0.2934160828590393
1749055449.8867664,4.2336201667785645,-1.225045309667923,-1.5458061695098877,-4.110690971414083,4.402456283569336,-2.6528237501727503,-0.1952662467956543,0.005996431224048138,-0.04816557466983795,0.09658413380384445,0.11798349022865295,-0.18924807012081146,-0.42420920729637146,0.5895525217056274,0.684477686882019,0.3253391981124878,0.25097334384918213,-0.2913111746311188
1749055449.8868046,4.233227729797363,-1.224988804464676,-1.545933485031128,-4.110505243340963,4.402682304382324,-2.6532650629626673,-0.19704529643058777,0.005630794912576675,-0.048250552266836166,0.09576704353094101,0.11506640911102295,-0.19318130612373352,-0.43925741314888,0.6017300486564636,0.6866077184677124,0.3383976221084595,0.2966827154159546,-0.3004125952720642
1749055449.8868415,4.232824802398682,-1.2249971491149445,-1.5460209846496582,-4.110294004479879,4.4029316902160645,-2.6536484400378626,-0.20027108490467072,0.0049655856564641,-0.048634301871061325,0.0963081493973732,0.11578790098428726,-0.1990032196044922,-0.45979297161102295,0.6038804650306702,0.6831011772155762,0.3326827883720398,0.3205050230026245,-0.26847362518310547
1749055449.8868787,4.232824802398682,-1.2249971491149445,-1.5460209846496582,-4.110294004479879,4.4029316902160645,-2.6536484400378626,-0.20027108490467072,0.0049655856564641,-0.048634301871061325,0.0963081493973732,0.11578790098428726,-0.1990032196044922,-0.45979297161102295,0.6038804650306702,0.6831011772155762,0.3326827883720398,0.3205050230026245,-0.26847362518310547
1749055449.8869233,4.232047080993652,-1.2249540251544495,-1.5462126731872559,-4.10994090656423,4.403451442718506,-2.654433790837423,-0.203205868601799,0.005725367926061153,-0.04889311641454697,0.09748316556215286,0.12297587096691132,-0.20620845258235931,-0.4242546558380127,0.5976980924606323,0.6706460118293762,0.35245203971862793,0.2599368691444397,-0.22500531375408173
1749055449.8869622,4.232047080993652,-1.2249540251544495,-1.5462126731872559,-4.10994090656423,4.403451442718506,-2.654433790837423,-0.203205868601799,0.005725367926061153,-0.04889311641454697,0.09748316556215286,0.12297587096691132,-0.20620845258235931,-0.4242546558380127,0.5976980924606323,0.6706460118293762,0.35245203971862793,0.2599368691444397,-0.22500531375408173
1749055449.8869994,4.231590270996094,-1.2249419850162049,-1.5463054180145264,-4.109748502770895,4.403731822967529,-2.654816214238302,-0.20462021231651306,0.006386511493474245,-0.050379280000925064,0.09786845743656158,0.12360361218452454,-0.20533031225204468,-0.4329967498779297,0.5896660089492798,0.6922289729118347,0.3176693916320801,0.2521911859512329,-0.2169433832168579
1749055449.887036,4.230814456939697,-1.2249337297729035,-1.5465126037597656,-4.109347721139425,4.404179096221924,-2.6556125322925013,-0.20721998810768127,0.004910798277705908,-0.047829922288656235,0.0988270491361618,0.12580226361751556,-0.2033843845129013,-0.44522616267204285,0.5918518304824829,0.6375911235809326,0.3563074469566345,0.28116941452026367,-0.26416802406311035
1749055449.8874023,4.230379581451416,-1.224932239656784,-1.5466084480285645,-4.109140296975607,4.404414653778076,-2.6560431162463587,-0.21026864647865295,0.004604616202414036,-0.049556031823158264,0.09887959808111191,0.1271432787179947,-0.2009711116552353,-0.45715653896331787,0.592670738697052,0.6601647138595581,0.38488179445266724,0.28508293628692627,-0.2925730347633362
1749055449.8893843,4.229943752288818,-1.22492869318042,-1.5467125177383423,-4.108948131600851,4.404677867889404,-2.6564059893237513,-0.21341294050216675,0.004750037100166082,-0.051773641258478165,0.10133497416973114,0.12910275161266327,-0.20378325879573822,-0.47034600377082825,0.5947273373603821,0.6694204211235046,0.3635312020778656,0.26342520117759705,-0.3268759846687317
1749055449.930291,4.229484558105469,-1.224908397798874,-1.5468244552612305,-4.108743330041403,4.404918670654297,-2.656851355229513,-0.21518254280090332,0.006223828531801701,-0.05036119744181633,0.10249771177768707,0.13470368087291718,-0.2081459015607834,-0.4299817681312561,0.5831584930419922,0.6576435565948486,0.36355626583099365,0.25572627782821655,-0.30022069811820984
1749055449.9303415,4.229091644287109,-1.2249048513225098,-1.546925663948059,-4.10854234317922,4.4052042961120605,-2.657285992299215,-0.21731019020080566,0.00633485522121191,-0.04992731660604477,0.10299699753522873,0.1335582286119461,-0.21377986669540405,-0.39635732769966125,0.58028644323349,0.6365854144096375,0.34794068336486816,0.23636922240257263,-0.2883074879646301
1749055449.9303832,4.228687763214111,-1.224908397798874,-1.5470213890075684,-4.108345171014303,4.405436992645264,-2.657719437276022,-0.21582435071468353,0.005496112629771233,-0.051151931285858154,0.1060938760638237,0.13147033751010895,-0.2187715619802475,-0.44192802906036377,0.5778969526290894,0.6481702923774719,0.36483222246170044,0.2583649158477783,-0.2912173569202423
1749055449.9304368,4.228687763214111,-1.224908397798874,-1.5470213890075684,-4.108345171014303,4.405436992645264,-2.657719437276022,-0.21582435071468353,0.005496112629771233,-0.051151931285858154,0.1060938760638237,0.13147033751010895,-0.2187715619802475,-0.44192802906036377,0.5778969526290894,0.6481702923774719,0.36483222246170044,0.2583649158477783,-0.2912173569202423
1749055449.9304986,4.227745532989502,-1.2248653036407013,-1.5472285747528076,-4.107901474038595,4.405947208404541,-2.65861159959902,-0.2184046506881714,0.00385115179233253,-0.05279381573200226,0.10609778016805649,0.13355445861816406,-0.22181731462478638,-0.46304774284362793,0.6136264204978943,0.6629360318183899,0.3476082980632782,0.27050715684890747,-0.25614210963249207
1749055449.930563,4.227324485778809,-1.224884347324707,-1.547363519668579,-4.107681652108663,4.40622615814209,-2.6590667406665247,-0.22216826677322388,0.00495106028392911,-0.053257010877132416,0.10590600222349167,0.13267694413661957,-0.21771736443042755,-0.44967785477638245,0.6139636635780334,0.6583446860313416,0.36922553181648254,0.2891538739204407,-0.2794266939163208
1749055449.9306087,4.226868629455566,-1.2248653036407013,-1.5474600791931152,-4.107488533059591,4.4064788818359375,-2.659499470387594,-0.22329123318195343,0.005392455030232668,-0.05362217128276825,0.10894966125488281,0.1340169757604599,-0.2197011113166809,-0.4616635739803314,0.5917566418647766,0.6509647369384766,0.3655044436454773,0.27256736159324646,-0.3082966208457947
1749055449.930648,4.226429462432861,-1.2248256665519257,-1.5475608110427856,-4.107225080529684,4.406721115112305,-2.6599534193622034,-0.22524134814739227,0.0061124167405068874,-0.05482310429215431,0.11266613751649857,0.13607652485370636,-0.21938692033290863,-0.4898860454559326,0.6130773425102234,0.6642890572547913,0.3114714026451111,0.27472761273384094,-0.3097238540649414
1749055449.9306865,4.225956439971924,-1.2248641115478058,-1.5476571321487427,-4.1069964371123255,4.40706205368042,-2.6603880564319056,-0.22566449642181396,0.005986410658806562,-0.05485488101840019,0.10794737190008163,0.13851749897003174,-0.22500605881214142,-0.4346674680709839,0.5797362327575684,0.6530228853225708,0.3577267527580261,0.2884668707847595,-0.3217673897743225
1749055449.9307249,4.225956439971924,-1.2248641115478058,-1.5476571321487427,-4.1069964371123255,4.40706205368042,-2.6603880564319056,-0.22566449642181396,0.005986410658806562,-0.05485488101840019,0.10794737190008163,0.13851749897003174,-0.22500605881214142,-0.4346674680709839,0.5797362327575684,0.6530228853225708,0.3577267527580261,0.2884668707847595,-0.3217673897743225
1749055449.9307697,4.225037574768066,-1.2248328489116211,-1.54789137840271,-4.1065761051573695,4.407620429992676,-2.6613240877734583,-0.22849582135677338,0.004993958864361048,-0.05566902458667755,0.10941781103610992,0.13987748324871063,-0.23720237612724304,-0.4640367031097412,0.6021326184272766,0.6682557463645935,0.3546666204929352,0.273357093334198,-0.222427636384964
1749055449.9308155,4.225037574768066,-1.2248328489116211,-1.54789137840271,-4.1065761051573695,4.407620429992676,-2.6613240877734583,-0.22849582135677338,0.004993958864361048,-0.05566902458667755,0.10941781103610992,0.13987748324871063,-0.23720237612724304,-0.4640367031097412,0.6021326184272766,0.6682557463645935,0.3546666204929352,0.273357093334198,-0.222427636384964
1749055449.9308538,4.22407865524292,-1.2248161894134064,-1.548107624053955,-4.10609831432485,4.408254146575928,-2.662241045628683,-0.233299121260643,0.0061425454914569855,-0.055245768278837204,0.1105688288807869,0.14085035026073456,-0.2312321960926056,-0.4616621136665344,0.601327121257782,0.6395349502563477,0.33421140909194946,0.28127819299697876,-0.26535895466804504
1749055449.9308927,4.223649501800537,-1.224788562660553,-1.5482308864593506,-4.1058789692320765,4.408514022827148,-2.6627188364612024,-0.23512767255306244,0.006175321061164141,-0.057999137789011,0.11099543422460556,0.14278841018676758,-0.23067720234394073,-0.48433709144592285,0.6099663972854614,0.6495038866996765,0.3786642551422119,0.26613643765449524,-0.26514357328414917
1749055449.9309304,4.223649501800537,-1.224788562660553,-1.5482308864593506,-4.1058789692320765,4.408514022827148,-2.6627188364612024,-0.23512767255306244,0.006175321061164141,-0.057999137789011,0.11099543422460556,0.14278841018676758,-0.23067720234394073,-0.48433709144592285,0.6099663972854614,0.6495038866996765,0.3786642551422119,0.26613643765449524,-0.26514357328414917
1749055449.930968,4.223204612731934,-1.2247655552676697,-1.548319935798645,-4.105686088601583,4.408797740936279,-2.6631842295276087,-0.235904261469841,0.0061443573795259,-0.056477054953575134,0.11496245861053467,0.14356452226638794,-0.2290094941854477,-0.5127156376838684,0.6191322207450867,0.6357495784759521,0.34648019075393677,0.2649106979370117,-0.3366665244102478
1749055449.9310052,4.222132205963135,-1.2247331899455567,-1.5485635995864868,-4.105245491067404,4.409375190734863,-2.664116684590475,-0.2439325600862503,0.006139887496829033,-0.05760693922638893,0.1123460978269577,0.1442030519247055,-0.23614439368247986,-0.4385361075401306,0.6196496486663818,0.6071470975875854,0.38112929463386536,0.240907222032547,-0.33759188652038574
1749055449.9310422,4.221683502197266,-1.2247248452952881,-1.5486713647842407,-4.105016370812887,4.409689426422119,-2.6645987669574183,-0.24518141150474548,0.00618137838318944,-0.05796414613723755,0.1180482804775238,0.14197179675102234,-0.2413996011018753,-0.46603524684906006,0.6081957817077637,0.6205616593360901,0.3683682978153229,0.27636954188346863,-0.3117639720439911
1749055449.9310799,4.221238613128662,-1.2247557801059266,-1.5487754344940186,-4.104788681069845,4.409964561462402,-2.6650686899768274,-0.24693772196769714,0.006440077908337116,-0.05913658067584038,0.12139634788036346,0.14580698311328888,-0.24659283459186554,-0.536329984664917,0.6006426811218262,0.6061691045761108,0.3630409836769104,0.2812628448009491,-0.31097185611724854
1749055449.931117,4.220703125,-1.2247201365283509,-1.548911213874817,-4.10455908397817,4.4102277755737305,-2.665586058293478,-0.24970951676368713,0.006445154547691345,-0.06006809324026108,0.12130139023065567,0.14678536355495453,-0.2497732937335968,-0.4709453880786896,0.6109694242477417,0.6167816519737244,0.35820654034614563,0.26823869347572327,-0.3068915903568268
1749055449.9314234,4.22019100189209,-1.224716530447342,-1.5490349531173706,-4.104304214517111,4.410549163818359,-2.666069571171896,-0.2471957802772522,0.005724505987018347,-0.060706205666065216,0.12357346713542938,0.1479278951883316,-0.2478702962398529,-0.4376767575740814,0.5957555770874023,0.6374846696853638,0.3580320477485657,0.2692304253578186,-0.29097461700439453
1749055449.93343,4.2197113037109375,-1.224669800405838,-1.5491509437561035,-4.104063173333639,4.410820484161377,-2.666562620793478,-0.2479470819234848,0.005829248111695051,-0.060841336846351624,0.12425196170806885,0.14795173704624176,-0.24995237588882446,-0.4599640369415283,0.6200079917907715,0.6326485276222229,0.35189229249954224,0.3036428689956665,-0.3009262979030609
1749055449.978303,4.219199180603027,-1.2246769231608887,-1.5492866039276123,-4.103803535500997,4.411116123199463,-2.667037312184469,-0.25059208273887634,0.005692473612725735,-0.06130029633641243,0.12558956444263458,0.1493656486272812,-0.2506260275840759,-0.471727192401886,0.6125809550285339,0.6230682134628296,0.35287773609161377,0.3083304166793823,-0.33289480209350586
1749055449.97835,4.218652248382568,-1.2246614557555695,-1.5493909120559692,-4.103570362130636,4.4114274978637695,-2.667582337056295,-0.25168028473854065,0.00579296937212348,-0.06221838295459747,0.1248435378074646,0.14911925792694092,-0.2559162676334381,-0.46811404824256897,0.6018476486206055,0.6333149075508118,0.35397836565971375,0.3180009722709656,-0.30624091625213623
1749055449.978391,4.218155860900879,-1.2246599358371277,-1.5494914054870605,-4.103314777413839,4.411725997924805,-2.668065849934713,-0.2523877024650574,0.005720878951251507,-0.0627627819776535,0.12327829003334045,0.15272262692451477,-0.2621474862098694,-0.49376070499420166,0.5836490392684937,0.6304980516433716,0.35178083181381226,0.31368473172187805,-0.2751110792160034
1749055449.9784305,4.217667579650879,-1.2246722143939515,-1.5496397018432617,-4.1030620537199916,4.412034034729004,-2.6686270872699183,-0.2505358159542084,0.00606392091140151,-0.06290927529335022,0.12328198552131653,0.1607753038406372,-0.2631133198738098,-0.5212597846984863,0.6253912448883057,0.627426028251648,0.3737466633319855,0.2851722240447998,-0.2603866755962372
1749055449.9784687,4.217109680175781,-1.2246290010264893,-1.5497783422470093,-4.102812667886251,4.412396430969238,-2.6691458860980433,-0.25332674384117126,0.005664220079779625,-0.06220916286110878,0.12396322190761566,0.1595989614725113,-0.26321351528167725,-0.5175952315330505,0.6362314820289612,0.6068817973136902,0.37832945585250854,0.27793675661087036,-0.2577996551990509
1749055449.9785068,4.216651439666748,-1.2246397000602265,-1.5498859882354736,-4.102569242516989,4.4126877784729,-2.6696303526507776,-0.2563175857067108,0.006564965471625328,-0.06292783468961716,0.12336491048336029,0.1594928652048111,-0.2577619254589081,-0.5030527710914612,0.6287369132041931,0.5929818153381348,0.3758687674999237,0.2674023509025574,-0.24651822447776794
1749055449.9785445,4.216131687164307,-1.2246239644340058,-1.5500372648239136,-4.102308174172872,4.413018226623535,-2.6701913515674036,-0.2613227665424347,0.0067462497390806675,-0.06302458047866821,0.12400300800800323,0.15991586446762085,-0.25799617171287537,-0.48601439595222473,0.6314786076545715,0.6153255105018616,0.4057648181915283,0.2668027877807617,-0.28773024678230286
1749055449.9785824,4.21560001373291,-1.2246516209891816,-1.5501304864883423,-4.1020406685271205,4.413361549377441,-2.6706703344928187,-0.2619704008102417,0.006854590959846973,-0.06254683434963226,0.12656711041927338,0.1588098108768463,-0.25572338700294495,-0.46728163957595825,0.6174985766410828,0.5818943977355957,0.387299120426178,0.2503848373889923,-0.3271718919277191
1749055449.9786205,4.215080738067627,-1.224565253858902,-1.5502663850784302,-4.101787706414694,4.413710594177246,-2.6712079683886927,-0.2615963816642761,0.006273726932704449,-0.06355680525302887,0.12946918606758118,0.15841610729694366,-0.2606711685657501,-0.5144814252853394,0.6122825741767883,0.5938420295715332,0.3760265111923218,0.2879500389099121,-0.31732624769210815
1749055449.978659,4.21457576751709,-1.224553422336914,-1.550410270690918,-4.10152330021047,4.413987159729004,-2.6717732588397425,-0.2635711133480072,0.006012685131281614,-0.06416754424571991,0.131340891122818,0.15955296158790588,-0.2644053101539612,-0.5263378620147705,0.6287673115730286,0.57340407371521,0.34710198640823364,0.2799403965473175,-0.31042832136154175
1749055449.9786983,4.2139739990234375,-1.2245534521392365,-1.5505305528640747,-4.101274391213888,4.4143171310424805,-2.6722803751574915,-0.26814004778862,0.007179803214967251,-0.06751817464828491,0.1338430494070053,0.16028790175914764,-0.2644537687301636,-0.5219022035598755,0.5926205515861511,0.6311891674995422,0.32565268874168396,0.2866136133670807,-0.3040391802787781
1749055449.978736,4.213457107543945,-1.2245569986156006,-1.5506466627120972,-4.101017852822775,4.4146294593811035,-2.672818724309103,-0.270524799823761,0.007195973303169012,-0.06563438475131989,0.13150286674499512,0.16197256743907928,-0.2667023241519928,-0.48531216382980347,0.6184725761413574,0.5891684293746948,0.3640451431274414,0.2927035391330719,-0.2790578603744507
1749055449.9787736,4.212948799133301,-1.224513517027237,-1.5507971048355103,-4.100742002526754,4.4149675369262695,-2.673384491597311,-0.2703603506088257,0.0073400442488491535,-0.06617967784404755,0.1308605670928955,0.1633603870868683,-0.2671104669570923,-0.4775976538658142,0.5967485308647156,0.5944582223892212,0.3517710268497467,0.26904746890068054,-0.33186882734298706
1749055449.9788117,4.212948799133301,-1.224513517027237,-1.5507971048355103,-4.100742002526754,4.4149675369262695,-2.673384491597311,-0.2703603506088257,0.0073400442488491535,-0.06617967784404755,0.1308605670928955,0.1633603870868683,-0.2671104669570923,-0.4775976538658142,0.5967485308647156,0.5944582223892212,0.3517710268497467,0.26904746890068054,-0.33186882734298706
1749055449.9788492,4.211908340454102,-1.2244537037662049,-1.5510737895965576,-4.100212951699728,4.4156293869018555,-2.674427096043722,-0.27491995692253113,0.0076235197484493256,-0.06871884316205978,0.13175930082798004,0.16356849670410156,-0.2727496325969696,-0.5206801891326904,0.5941569805145264,0.6284723877906799,0.33592164516448975,0.25690555572509766,-0.3105161190032959
1749055449.9788864,4.211908340454102,-1.2244537037662049,-1.5510737895965576,-4.100212951699728,4.4156293869018555,-2.674427096043722,-0.27491995692253113,0.0076235197484493256,-0.06871884316205978,0.13175930082798004,0.16356849670410156,-0.2727496325969696,-0.5206801891326904,0.5941569805145264,0.6284723877906799,0.33592164516448975,0.25690555572509766,-0.3105161190032959
1749055449.9789367,4.210765838623047,-1.2245075863650818,-1.5513578653335571,-4.099691530267233,4.416323661804199,-2.6755431334124964,-0.28060802817344666,0.007314812391996384,-0.07042301446199417,0.13198867440223694,0.1685536801815033,-0.2805565297603607,-0.4726657569408417,0.5924181938171387,0.6264473795890808,0.35375118255615234,0.23376865684986115,-0.283295601606369
1749055449.9789765,4.210224628448486,-1.224445418720581,-1.5514894723892212,-4.09942688564443,4.416707515716553,-2.6761489550219935,-0.28067439794540405,0.007572169881314039,-0.06994786858558655,0.13155731558799744,0.16832424700260162,-0.28018274903297424,-0.5066659450531006,0.6082508563995361,0.6219146847724915,0.3709634840488434,0.258550226688385,-0.2678299844264984
1749055449.9790142,4.209656238555908,-1.2244562071612854,-1.5516124963760376,-4.099147459069723,4.416996479034424,-2.676683489476339,-0.27990901470184326,0.007930499501526356,-0.07018692791461945,0.1319478303194046,0.1702297180891037,-0.27759066224098206,-0.5264387726783752,0.6201861500740051,0.6221100687980652,0.36786749958992004,0.22072678804397583,-0.29355955123901367
1749055449.9790523,4.209076881408691,-1.2244249147227784,-1.5517845153808594,-4.09889092067861,4.417333126068115,-2.6772847811328333,-0.2865745723247528,0.006921553518623114,-0.06950006633996964,0.13245674967765808,0.16573072969913483,-0.2798329293727875,-0.5328755974769592,0.6180015802383423,0.6039322018623352,0.39574533700942993,0.27817511558532715,-0.28384625911712646
1749055449.9790914,4.20852518081665,-1.2244010430625458,-1.5519475936889648,-4.098649164239401,4.417693614959717,-2.677789036427633,-0.2911472022533417,0.0068790605291724205,-0.07278487831354141,0.13655906915664673,0.1648605763912201,-0.2792424261569977,-0.47419473528862,0.6152142882347107,0.6446620225906372,0.3563757836818695,0.2993326783180237,-0.3131742477416992
1749055449.9791284,4.207974433898926,-1.2243853372386475,-1.5520447492599487,-4.098334690133566,4.418075084686279,-2.6783631483661097,-0.2894921600818634,0.006601993925869465,-0.07055382430553436,0.13606448471546173,0.16695162653923035,-0.28291216492652893,-0.46787798404693604,0.6116780042648315,0.6168056726455688,0.3739120662212372,0.3038639426231384,-0.31440624594688416
1749055449.9793627,4.207335948944092,-1.2243852776340027,-1.5521851778030396,-4.098057886163229,4.418356418609619,-2.6789220015155237,-0.28591054677963257,0.0072038122452795506,-0.07213626801967621,0.13845477998256683,0.16989286243915558,-0.28488612174987793,-0.5426739454269409,0.6165162920951843,0.6250463128089905,0.3666841983795166,0.28833693265914917,-0.2886325418949127
1749055449.981404,4.207335948944092,-1.2243852776340027,-1.5521851778030396,-4.098057886163229,4.418356418609619,-2.6789220015155237,-0.28591054677963257,0.0072038122452795506,-0.07213626801967621,0.13845477998256683,0.16989286243915558,-0.28488612174987793,-0.5426739454269409,0.6165162920951843,0.6250463128089905,0.3666841983795166,0.28833693265914917,-0.2886325418949127
1749055450.0223134,4.206194877624512,-1.2243460577777405,-1.5524957180023193,-4.097489257852072,4.419058799743652,-2.680105749760763,-0.29755595326423645,0.007085603196173906,-0.07303198426961899,0.14118513464927673,0.1769348680973053,-0.2861388623714447,-0.5242687463760376,0.599888026714325,0.6353755593299866,0.35690999031066895,0.29185646772384644,-0.319329172372818
1749055450.0223598,4.205583095550537,-1.2243183118155976,-1.5526362657546997,-4.097180028954977,4.41940450668335,-2.680671517048971,-0.2970145046710968,0.007345208432525396,-0.07444888353347778,0.14299695193767548,0.1758740097284317,-0.2873280644416809,-0.5044420957565308,0.6304206252098083,0.649208128452301,0.34839221835136414,0.2680898606777191,-0.32393303513526917
1749055450.0224006,4.205005645751953,-1.2243567866138,-1.5527760982513428,-4.096876998940939,4.419732570648193,-2.6812570730792444,-0.2983185052871704,0.007553413975983858,-0.07529772073030472,0.14364181458950043,0.17495593428611755,-0.29094451665878296,-0.4304276704788208,0.6256757378578186,0.6593263745307922,0.3402904272079468,0.27752840518951416,-0.319968044757843
1749055450.02244,4.204417705535889,-1.2243516010097046,-1.5529201030731201,-4.09659542659902,4.4201340675354,-2.6818628946887415,-0.2979770302772522,0.007670616265386343,-0.07605301588773727,0.14426188170909882,0.17800593376159668,-0.29558491706848145,-0.5475584268569946,0.6046996712684631,0.6628963947296143,0.32779461145401,0.2707202434539795,-0.3088749051094055
1749055450.022478,4.203834056854248,-1.2243361932090302,-1.5530803203582764,-4.096267124215597,4.420453071594238,-2.6824260393725794,-0.30356523394584656,0.007400382775813341,-0.07548391073942184,0.14426179230213165,0.17915889620780945,-0.2988468110561371,-0.49817872047424316,0.5962551236152649,0.6793014407157898,0.3193053603172302,0.27081039547920227,-0.2920067608356476
1749055450.0225163,4.203228950500488,-1.2242739361575623,-1.5532081127166748,-4.095963378945822,4.420901298522949,-2.6830433050738733,-0.30400776863098145,0.007285037077963352,-0.07493286579847336,0.14519888162612915,0.1813831478357315,-0.2982969284057617,-0.45433419942855835,0.6096318364143372,0.6625262498855591,0.31589457392692566,0.27636510133743286,-0.2954995334148407
1749055450.0225549,4.202621936798096,-1.2242811483195801,-1.5533331632614136,-4.0956789455809535,4.421265602111816,-2.683626715336935,-0.30180642008781433,0.007133099250495434,-0.07353731989860535,0.14403581619262695,0.18414336442947388,-0.298137366771698,-0.49251407384872437,0.60738605260849,0.6550426483154297,0.3056708574295044,0.26060202717781067,-0.28429293632507324
1749055450.0225928,4.202004909515381,-1.2242764693549653,-1.5534838438034058,-4.095375438729757,4.421586036682129,-2.6842480341540735,-0.2994534373283386,0.007206685375422239,-0.07256075739860535,0.14340612292289734,0.18477311730384827,-0.29948294162750244,-0.513627827167511,0.5949344635009766,0.6277660727500916,0.3147733211517334,0.24789762496948242,-0.3063066601753235
1749055450.0226307,4.201412677764893,-1.2242449086955567,-1.5536242723464966,-4.095094820062155,4.421929359436035,-2.684897247944967,-0.30382269620895386,0.007215740624815226,-0.0723540261387825,0.14311423897743225,0.18473024666309357,-0.2983701825141907,-0.537693202495575,0.6297975778579712,0.6214960217475891,0.31278979778289795,0.24688541889190674,-0.31488776206970215
1749055450.0226693,4.2008233070373535,-1.224240170126297,-1.5537490844726562,-4.094819208184713,4.422322750091553,-2.6854260603534144,-0.3076767921447754,0.006906131282448769,-0.0728132426738739,0.1427789032459259,0.1843688189983368,-0.2990662157535553,-0.5294020175933838,0.638893187046051,0.6038128137588501,0.3302358388900757,0.2632136046886444,-0.33648768067359924
1749055450.022708,4.200168609619141,-1.2242089074901124,-1.5539277791976929,-4.094527622262472,4.422666072845459,-2.686063353215353,-0.30963319540023804,0.00726515706628561,-0.0739176943898201,0.1461440771818161,0.18515649437904358,-0.30248400568962097,-0.5002295970916748,0.6000272035598755,0.6163480877876282,0.2915899157524109,0.2735702395439148,-0.2965099811553955
1749055450.0227468,4.199599742889404,-1.2241969865611573,-1.5540944337844849,-4.094239374200338,4.423029899597168,-2.686668936406271,-0.30660778284072876,0.007990621030330658,-0.07494641095399857,0.14529386162757874,0.18445611000061035,-0.30110037326812744,-0.49233731627464294,0.6246463656425476,0.6144282817840576,0.3157532513141632,0.2543138563632965,-0.3101559281349182
1749055450.0227847,4.198959827423096,-1.2241660815528412,-1.5542116165161133,-4.0939678154387416,4.423400402069092,-2.687279287968771,-0.30812883377075195,0.00783236138522625,-0.07663139700889587,0.14402800798416138,0.18385180830955505,-0.30445268750190735,-0.5244908332824707,0.6136289238929749,0.6338561177253723,0.3206590414047241,0.2889903485774994,-0.3151904344558716
1749055450.022823,4.198959827423096,-1.2241660815528412,-1.5542116165161133,-4.0939678154387416,4.423400402069092,-2.687279287968771,-0.30812883377075195,0.00783236138522625,-0.07663139700889587,0.14402800798416138,0.18385180830955505,-0.30445268750190735,-0.5244908332824707,0.6136289238929749,0.6338561177253723,0.3206590414047241,0.2889903485774994,-0.3151904344558716
1749055450.0228612,4.197734832763672,-1.2241803270629426,-1.554543137550354,-4.093394657174581,4.424142360687256,-2.688472096120016,-0.31309980154037476,0.0076561542227864265,-0.07682569324970245,0.14420479536056519,0.1841983199119568,-0.3085281550884247,-0.4581054449081421,0.6150467395782471,0.6359197497367859,0.3103935718536377,0.27052807807922363,-0.3071560859680176
1749055450.0228994,4.197734832763672,-1.2241803270629426,-1.554543137550354,-4.093394657174581,4.424142360687256,-2.688472096120016,-0.31309980154037476,0.0076561542227864265,-0.07682569324970245,0.14420479536056519,0.1841983199119568,-0.3085281550884247,-0.4581054449081421,0.6150467395782471,0.6359197497367859,0.3103935718536377,0.27052807807922363,-0.3071560859680176
1749055450.0229366,4.1970906257629395,-1.2241681081107636,-1.554682970046997,-4.093076129952902,4.424545764923096,-2.6890669504748743,-0.3102110028266907,0.007970396429300308,-0.0797925740480423,0.14373470842838287,0.1849461793899536,-0.30955493450164795,-0.47406837344169617,0.5936239361763,0.6781591176986694,0.3269122838973999,0.2885812520980835,-0.30452507734298706
1749055450.0229738,4.195854663848877,-1.2241166395,-1.554998517036438,-4.0925034485259,4.425212383270264,-2.6903355757342737,-0.314548134803772,0.007340892683714628,-0.0776771754026413,0.1440388411283493,0.18677648901939392,-0.3105085790157318,-0.5234676003456116,0.6207062602043152,0.6344717144966125,0.3523699641227722,0.301902174949646,-0.2902400493621826
1749055450.0230107,4.1952409744262695,-1.2240734857371827,-1.555151343345642,-4.092208524743551,4.4256463050842285,-2.6909762064563196,-0.31437942385673523,0.007763436064124107,-0.07889271527528763,0.14396673440933228,0.18873390555381775,-0.30724796652793884,-0.47939589619636536,0.6277238726615906,0.6680207848548889,0.35689300298690796,0.29047566652297974,-0.3071225881576538
1749055450.023049,4.194507122039795,-1.22406159461055,-1.5552948713302612,-4.091927906075949,4.425991535186768,-2.691622320805685,-0.3139403760433197,0.008515962399542332,-0.07736276835203171,0.14505590498447418,0.19302904605865479,-0.3084818422794342,-0.4896559417247772,0.6395314931869507,0.6360589861869812,0.3610481321811676,0.28100478649139404,-0.3308925926685333
1749055450.0245173,4.194507122039795,-1.22406159461055,-1.5552948713302612,-4.091927906075949,4.425991535186768,-2.691622320805685,-0.3139403760433197,0.008515962399542332,-0.07736276835203171,0.14505590498447418,0.19302904605865479,-0.3084818422794342,-0.4896559417247772,0.6395314931869507,0.6360589861869812,0.3610481321811676,0.28100478649139404,-0.3308925926685333
1749055450.0254478,4.193936824798584,-1.2240341764739533,-1.5554627180099487,-4.091636081735128,4.4264020919799805,-2.6922128836261194,-0.31471502780914307,0.00805940106511116,-0.07723589986562729,0.15079335868358612,0.19125580787658691,-0.3114757835865021,-0.5313100218772888,0.6140629649162292,0.627303957939148,0.33271676301956177,0.2791520953178406,-0.30909380316734314
1749055450.0662751,4.192625999450684,-1.2240100067904969,-1.5557698011398315,-4.091044803658956,4.427189350128174,-2.6934340635882776,-0.31565332412719727,0.008298179134726524,-0.07708806544542313,0.1493174284696579,0.1909978836774826,-0.3114877939224243,-0.44366660714149475,0.6208158731460571,0.6490906476974487,0.3500027358531952,0.26653993129730225,-0.29579734802246094
1749055450.066321,4.192625999450684,-1.2240100067904969,-1.5557698011398315,-4.091044803658956,4.427189350128174,-2.6934340635882776,-0.31565332412719727,0.008298179134726524,-0.07708806544542313,0.1493174284696579,0.1909978836774826,-0.3114877939224243,-0.44366660714149475,0.6208158731460571,0.6490906476974487,0.3500027358531952,0.26653993129730225,-0.29579734802246094
1749055450.0663621,4.191397190093994,-1.2239931386760254,-1.556080937385559,-4.090436359445089,4.427891254425049,-2.6947060267077845,-0.3115253746509552,0.007638297509402037,-0.07711274176836014,0.15097355842590332,0.18976713716983795,-0.313493937253952,-0.5026513934135437,0.5990035533905029,0.6369229555130005,0.33701539039611816,0.280854731798172,-0.3046838045120239
1749055450.0664022,4.191397190093994,-1.2239931386760254,-1.556080937385559,-4.090436359445089,4.427891254425049,-2.6947060267077845,-0.3115253746509552,0.007638297509402037,-0.07711274176836014,0.15097355842590332,0.18976713716983795,-0.313493937253952,-0.5026513934135437,0.5990035533905029,0.6369229555130005,0.33701539039611816,0.280854731798172,-0.3046838045120239
1749055450.066442,4.190717697143555,-1.2240122717669983,-1.5562570095062256,-4.09010185817861,4.428315162658691,-2.695331398640768,-0.31589046120643616,0.008219502866268158,-0.07761923968791962,0.15279796719551086,0.19174940884113312,-0.3149622678756714,-0.4968871772289276,0.6141919493675232,0.6261699795722961,0.34061795473098755,0.2629891335964203,-0.28577378392219543
1749055450.0664809,4.189471244812012,-1.223953590994217,-1.556553602218628,-4.089496513406271,4.429090976715088,-2.6965723673449915,-0.31481221318244934,0.007674554828554392,-0.07765883952379227,0.15085703134536743,0.1887296885251999,-0.3132777512073517,-0.4550645649433136,0.6137025356292725,0.6614285111427307,0.3288362920284271,0.3007962107658386,-0.28721722960472107
1749055450.06652,4.1888017654418945,-1.2239643198302765,-1.556721568107605,-4.089153905908102,4.42949104309082,-2.6971893946277063,-0.31235194206237793,0.007645393256098032,-0.07845336943864822,0.1510753035545349,0.18827863037586212,-0.31188347935676575,-0.479733407497406,0.6340105533599854,0.6429247856140137,0.34037649631500244,0.2829294800758362,-0.3285994827747345
1749055450.066559,4.188207626342773,-1.2239416700652619,-1.5568773746490479,-4.088876386682028,4.429846286773682,-2.6978591124164026,-0.3155975341796875,0.007703918032348156,-0.07836249470710754,0.1506022810935974,0.1916431337594986,-0.3106514513492584,-0.466941773891449,0.611683189868927,0.6520023941993713,0.32993799448013306,0.2771214246749878,-0.30844971537590027
1749055450.0665972,4.1875901222229,-1.2239092153361817,-1.5570173263549805,-4.088576456109518,4.430244445800781,-2.6984577814685267,-0.31692689657211304,0.009085890837013721,-0.0777246281504631,0.15210643410682678,0.18909937143325806,-0.3121323585510254,-0.4029082953929901,0.602353572845459,0.6486940979957581,0.3219018280506134,0.28648728132247925,-0.31140604615211487
1749055450.066636,4.1875901222229,-1.2239092153361817,-1.5570173263549805,-4.088576456109518,4.430244445800781,-2.6984577814685267,-0.31692689657211304,0.009085890837013721,-0.0777246281504631,0.15210643410682678,0.18909937143325806,-0.3121323585510254,-0.4029082953929901,0.602353572845459,0.6486940979957581,0.3219018280506134,0.28648728132247925,-0.31140604615211487
1749055450.0666745,4.186266899108887,-1.2238937479308625,-1.557305932044983,-4.087972780267233,4.4309773445129395,-2.6996758619891565,-0.31004947423934937,0.007563412189483643,-0.07648400962352753,0.15112988650798798,0.19065974652767181,-0.31667742133140564,-0.47382989525794983,0.6057688593864441,0.6181010603904724,0.3457983732223511,0.27400919795036316,-0.291116327047348
1749055450.066712,4.185626983642578,-1.223866031771042,-1.557449460029602,-4.0876811943449916,4.431390285491943,-2.700336519871847,-0.31204092502593994,0.007078417576849461,-0.07687342166900635,0.1564904898405075,0.19069835543632507,-0.31332895159721375,-0.5064586400985718,0.6318094730377197,0.6445163488388062,0.31495609879493713,0.27934443950653076,-0.29288437962532043
1749055450.066749,4.184994220733643,-1.2238454979709168,-1.5576242208480835,-4.087401052514547,4.431704998016357,-2.7009690443622034,-0.31405192613601685,0.00815827026963234,-0.07749835401773453,0.1512572467327118,0.1904020458459854,-0.3140864372253418,-0.4068896472454071,0.6207740306854248,0.6390299201011658,0.3220616579055786,0.2542829215526581,-0.2966783344745636
1749055450.0667868,4.184408664703369,-1.223825291996338,-1.5577961206436157,-4.087088724175924,4.4321136474609375,-2.7016218344317835,-0.3120473623275757,0.008040294051170349,-0.07821497321128845,0.15026482939720154,0.1893407106399536,-0.3144369125366211,-0.4989219307899475,0.6021333932876587,0.6316054463386536,0.3433457016944885,0.31744498014450073,-0.30977243185043335
1749055450.066832,4.183765888214111,-1.2238097947886963,-1.5579638481140137,-4.086773296395773,4.432446479797363,-2.7022553125964563,-0.3130788803100586,0.008152157999575138,-0.079534150660038,0.1534169465303421,0.18941178917884827,-0.31795400381088257,-0.5387153625488281,0.5795284509658813,0.6545059084892273,0.3238973617553711,0.3088216483592987,-0.317257285118103
1749055450.0668726,4.183765888214111,-1.2238097947886963,-1.5579638481140137,-4.086773296395773,4.432446479797363,-2.7022553125964563,-0.3130788803100586,0.008152157999575138,-0.079534150660038,0.1534169465303421,0.18941178917884827,-0.31795400381088257,-0.5387153625488281,0.5795284509658813,0.6545059084892273,0.3238973617553711,0.3088216483592987,-0.317257285118103
1749055450.0669105,4.182552337646484,-1.223754809503891,-1.5582563877105713,-4.086169620553488,4.4332380294799805,-2.703508440648214,-0.3159443736076355,0.008481026627123356,-0.07921567559242249,0.15108279883861542,0.19284601509571075,-0.31713277101516724,-0.44059109687805176,0.5882758498191833,0.6672928929328918,0.3563622832298279,0.2697320580482483,-0.2750355303287506
1749055450.0669482,4.181935787200928,-1.2237654489329834,-1.5584123134613037,-4.085889001885885,4.433574199676514,-2.704123560582296,-0.3165331184864044,0.007837197743356228,-0.07855836302042007,0.15219025313854218,0.19263577461242676,-0.3138916492462158,-0.39678874611854553,0.5814266204833984,0.6755242347717285,0.32222625613212585,0.28845322132110596,-0.2875102460384369
1749055450.0669858,4.181935787200928,-1.2237654489329834,-1.5584123134613037,-4.085889001885885,4.433574199676514,-2.704123560582296,-0.3165331184864044,0.007837197743356228,-0.07855836302042007,0.15219025313854218,0.19263577461242676,-0.3138916492462158,-0.39678874611854553,0.5814266204833984,0.6755242347717285,0.32222625613212585,0.28845322132110596,-0.2875102460384369
1749055450.067023,4.180683135986328,-1.2237411004355927,-1.5587395429611206,-4.085301776925558,4.434361934661865,-2.7053714434253138,-0.3145211338996887,0.007178436033427715,-0.07761646807193756,0.1508762240409851,0.19076374173164368,-0.3082508146762848,-0.5068475008010864,0.6018746495246887,0.6304851174354553,0.33030325174331665,0.31380194425582886,-0.32471686601638794
1749055450.0673783,4.180062770843506,-1.2237051290324708,-1.558888554573059,-4.085013052026266,4.434780597686768,-2.705982033406393,-0.3176456093788147,0.007433814462274313,-0.07951848208904266,0.1485258787870407,0.1923067271709442,-0.30825933814048767,-0.4346608817577362,0.5854743123054504,0.6766427755355835,0.3383500277996063,0.29691705107688904,-0.3155291974544525
1749055450.0693667,4.179432392120361,-1.2236547035029908,-1.5590479373931885,-4.08470954517507,4.435172080993652,-2.7066033522235315,-0.3153485953807831,0.007771302945911884,-0.07679852098226547,0.1522035449743271,0.19440284371376038,-0.31023767590522766,-0.46032705903053284,0.6121280789375305,0.6427068114280701,0.37641751766204834,0.27594709396362305,-0.3190654516220093
1749055450.110282,4.179432392120361,-1.2236547035029908,-1.5590479373931885,-4.08470954517507,4.435172080993652,-2.7066033522235315,-0.3153485953807831,0.007771302945911884,-0.07679852098226547,0.1522035449743271,0.19440284371376038,-0.31023767590522766,-0.46032705903053284,0.6121280789375305,0.6427068114280701,0.37641751766204834,0.27594709396362305,-0.3190654516220093
1749055450.1103294,4.178803443908691,-1.2236654919436951,-1.5592315196990967,-4.084401985208029,4.4355669021606445,-2.707273785267965,-0.3136265277862549,0.007217467296868563,-0.07823769748210907,0.15018272399902344,0.19591057300567627,-0.3098442256450653,-0.5051855444908142,0.6076895594596863,0.6355165839195251,0.36225324869155884,0.2729188799858093,-0.2924058437347412
1749055450.1103704,4.17752742767334,-1.2236691278270264,-1.5595276355743408,-4.083773752252096,4.436305999755859,-2.7085655371295374,-0.31704849004745483,0.006494694389402866,-0.07804138958454132,0.15430618822574615,0.19258752465248108,-0.31123819947242737,-0.4559006989002228,0.6098185181617737,0.6735112071037292,0.37143540382385254,0.24877910315990448,-0.2982531189918518
1749055450.1104136,4.17752742767334,-1.2236691278270264,-1.5595276355743408,-4.083773752252096,4.436305999755859,-2.7085655371295374,-0.31704849004745483,0.006494694389402866,-0.07804138958454132,0.15430618822574615,0.19258752465248108,-0.31123819947242737,-0.4559006989002228,0.6098185181617737,0.6735112071037292,0.37143540382385254,0.24877910315990448,-0.2982531189918518
1749055450.1104538,4.176945209503174,-1.2236572068980713,-1.5596766471862793,-4.083465953866476,4.436715126037598,-2.7091646830188196,-0.31873390078544617,0.006174759473651648,-0.07921480387449265,0.15102021396160126,0.1951691210269928,-0.3135930895805359,-0.4397144913673401,0.6007583737373352,0.675240695476532,0.34740906953811646,0.24906787276268005,-0.30921870470046997
1749055450.1104932,4.175702095031738,-1.223621205692627,-1.5600354671478271,-4.082837959329122,4.437501430511475,-2.7104442755328577,-0.31739717721939087,0.006897259969264269,-0.080836720764637,0.1513068675994873,0.19405342638492584,-0.3165653347969055,-0.46724021434783936,0.6127269864082336,0.7057815194129944,0.3456715941429138,0.25783389806747437,-0.22992709279060364
1749055450.1105323,4.175702095031738,-1.223621205692627,-1.5600354671478271,-4.082837959329122,4.437501430511475,-2.7104442755328577,-0.31739717721939087,0.006897259969264269,-0.080836720764637,0.1513068675994873,0.19405342638492584,-0.3165653347969055,-0.46724021434783936,0.6127269864082336,0.7057815194129944,0.3456715941429138,0.25783389806747437,-0.22992709279060364
1749055450.1105742,4.174363613128662,-1.223609284763672,-1.5603433847427368,-4.082242151299948,4.438215255737305,-2.711649004613058,-0.31703639030456543,0.007808874826878309,-0.07638711482286453,0.14875954389572144,0.19050054252147675,-0.3052321970462799,-0.46961599588394165,0.6108430027961731,0.6803757548332214,0.3573809564113617,0.27583077549934387,-0.2903437316417694
1749055450.1106138,4.174363613128662,-1.223609284763672,-1.5603433847427368,-4.082242151299948,4.438215255737305,-2.711649004613058,-0.31703639030456543,0.007808874826878309,-0.07638711482286453,0.14875954389572144,0.19050054252147675,-0.3052321970462799,-0.46961599588394165,0.6108430027961731,0.6803757548332214,0.3573809564113617,0.27583077549934387,-0.2903437316417694
1749055450.1106517,4.173730850219727,-1.2235818666270752,-1.5604963302612305,-4.081966062585348,4.438632488250732,-2.712271753941671,-0.3162604868412018,0.006432627327740192,-0.07848067581653595,0.14789441227912903,0.18803969025611877,-0.30518025159835815,-0.4671294093132019,0.6427794694900513,0.6879253387451172,0.36669832468032837,0.2732853293418884,-0.30470773577690125
1749055450.110689,4.172508716583252,-1.223557786350586,-1.5608301162719727,-4.081374546090597,4.439416885375977,-2.713522736226217,-0.31912824511528015,0.007062509655952454,-0.07640423625707626,0.14633333683013916,0.18598558008670807,-0.3068765699863434,-0.4711626470088959,0.6442077159881592,0.6843069195747375,0.4109417796134949,0.3044860363006592,-0.32393378019332886
1749055450.1107404,4.172508716583252,-1.223557786350586,-1.5608301162719727,-4.081374546090597,4.439416885375977,-2.713522736226217,-0.31912824511528015,0.007062509655952454,-0.07640423625707626,0.14633333683013916,0.18598558008670807,-0.3068765699863434,-0.4711626470088959,0.6442077159881592,0.6843069195747375,0.4109417796134949,0.3044860363006592,-0.32393378019332886
1749055450.1107838,4.171265125274658,-1.2235289377025147,-1.5611628293991089,-4.080802341500753,4.440186977386475,-2.714783016835348,-0.316828191280365,0.007668093778192997,-0.07669008523225784,0.15004505217075348,0.1887342482805252,-0.3107967674732208,-0.45354902744293213,0.6123485565185547,0.6843486428260803,0.39318975806236267,0.26716697216033936,-0.30611735582351685
1749055450.1108215,4.171265125274658,-1.2235289377025147,-1.5611628293991089,-4.080802341500753,4.440186977386475,-2.714783016835348,-0.316828191280365,0.007668093778192997,-0.07669008523225784,0.15004505217075348,0.1887342482805252,-0.3107967674732208,-0.45354902744293213,0.6123485565185547,0.6843486428260803,0.39318975806236267,0.26716697216033936,-0.30611735582351685
1749055450.1108582,4.169981479644775,-1.2235062283328553,-1.5614383220672607,-4.080182930032247,4.440964698791504,-2.7160356680499476,-0.317381352186203,0.00838269479572773,-0.07674306631088257,0.15363824367523193,0.1890270859003067,-0.3135913908481598,-0.48591428995132446,0.6127632260322571,0.6879485249519348,0.38792720437049866,0.22839024662971497,-0.2923678159713745
