nimar13/UR3e_dataset_trayectorias/trayectorias_ejecutadas/trapezoidal_func/trayectoria_127_result.csv
timestamp,q1,q2,q3,q4,q5,q6,qd1,qd2,qd3,qd4,qd5,qd6,tau1,tau2,tau3,tau4,tau5,tau6
1749056880.1782956,1.0292205810546875,-1.0683112901500245,-0.13163304328918457,1.5461041170307617,1.2068767547607422,-0.37248355547060186,-0.0028327656909823418,-0.0025625957641750574,0.003036823822185397,-0.0019649004098027945,-0.00027489199419505894,-0.0002971758949570358,0.06386621296405792,-0.841171145439148,-0.476847767829895,-0.245261549949646,-0.21324847638607025,-0.09152823686599731
1749056880.1783507,1.0291733741760254,-1.0683231514743348,-0.13162946701049805,1.5460724073597412,1.2068767547607422,-0.3724253813373011,-0.0025325499009341,-0.0022268935572355986,0.0024602049961686134,-0.002496750093996525,-0.000264783768216148,-0.0002853901241905987,0.0727376937866211,-0.8627729415893555,-0.4737727642059326,-0.24416977167129517,-0.21292302012443542,-0.09632980823516846
1749056880.178407,1.029176950454712,-1.0683301252177735,-0.13163304328918457,1.5460762220570068,1.2069200277328491,-0.3724454084979456,-0.0026872800663113594,-0.0019294298253953457,0.0019822262693196535,-0.003317882539704442,-0.0002443465346004814,-0.00027450377820059657,0.06727848947048187,-0.8900511264801025,-0.44242793321609497,-0.2592228353023529,-0.21538414061069489,-0.07165604829788208
1749056880.1784515,1.0291577577590942,-1.0683420461467286,-0.13163304328918457,1.5460445123859863,1.2068694829940796,-0.3724268118487757,-0.002813136437907815,-0.0014616863336414099,0.002225539879873395,-0.003364869626238942,-0.00021949238725937903,-0.00026441755471751094,0.08392143249511719,-0.8882017135620117,-0.4473632574081421,-0.25147682428359985,-0.2202218621969223,-0.08936208486557007
1749056880.1784928,1.0291614532470703,-1.0683420461467286,-0.13163302838802338,1.5460480886646728,1.2068995237350464,-0.37243730226625615,-0.002733931876718998,-0.0012853251537308097,0.0024660376366227865,-0.003031206550076604,-0.00020930834580212831,-0.00025504702352918684,0.07093584537506104,-0.8812625408172607,-0.4475030303001404,-0.24542483687400818,-0.2330348789691925,-0.09647274017333984
1749056880.1785333,1.0291577577590942,-1.0683574241450806,-0.13158990442752838,1.5460325914570312,1.206908106803894,-0.37243730226625615,-0.00237582647241652,-0.0012101753382012248,0.003211205592378974,-0.0026373204309493303,-0.000202080569579266,-0.0002463182609062642,0.06793589890003204,-0.8954070806503296,-0.45506036281585693,-0.253650426864624,-0.22170011699199677,-0.09747156500816345
1749056880.1785717,1.0291416645050049,-1.0683335822871705,-0.1315898895263672,1.5460435587116699,1.2068694829940796,-0.37243730226625615,-0.0024226573295891285,-0.0011493100319057703,0.0032339610625058413,-0.0024693533778190613,-0.0001957062049768865,-0.00023816713655833155,0.08817315101623535,-0.8904571533203125,-0.445980429649353,-0.24591583013534546,-0.22753994166851044,-0.09416797757148743
1749056880.1786091,1.02915358543396,-1.0683728617480774,-0.13156573474407196,1.5460399824329834,1.2068456411361694,-0.37243730226625615,-0.002221211325377226,-0.0010024633957073092,0.0026132501661777496,-0.002758775604888797,-0.00018979553715325892,-0.00023053867334965616,0.06749650835990906,-0.8988548517227173,-0.4448336958885193,-0.237253338098526,-0.2203926295042038,-0.09185713529586792
1749056880.1786497,1.0291117429733276,-1.0683643978885193,-0.13160063326358795,1.5460590559193115,1.2069045305252075,-0.37244922319521123,-0.0018966174684464931,-0.0008799814386293292,0.002162655582651496,-0.0028387615457177162,-0.0001842413330450654,-0.00022338359849527478,0.05847972631454468,-0.9049555063247681,-0.4371088147163391,-0.2563938498497009,-0.22105711698532104,-0.08887439966201782
1749056880.1786888,1.0291721820831299,-1.0682993692210694,-0.13159705698490143,1.5460280615040283,1.2068767547607422,-0.3724454084979456,-0.0014759748009964824,-0.000716894690413028,0.0018599304603412747,-0.0024328522849828005,-0.00017900130478665233,-0.00021665972599294037,0.08310803771018982,-0.8928811550140381,-0.445553183555603,-0.24279555678367615,-0.24133382737636566,-0.09317304193973541
1749056880.1787264,1.0291805267333984,-1.0683266681483765,-0.13158877193927765,1.5460161405750732,1.206850290298462,-0.3724406401263636,-0.0013640689430758357,-0.0006132564158178866,0.001507825218141079,-0.0019320613937452435,-0.0001740573497954756,-0.0002103289880324155,0.08042190223932266,-0.9018682241439819,-0.44145843386650085,-0.24203404784202576,-0.24938921630382538,-0.10144567489624023
1749056880.1787639,1.0291345119476318,-1.0683678549579163,-0.13154993951320648,1.5460435587116699,1.2068384885787964,-0.372411076222555,-0.0011480804532766342,-0.0005396038177423179,0.0013905400410294533,-0.0013700170675292611,-0.00016937701730057597,-0.00020435765327420086,0.07956115901470184,-0.8826332688331604,-0.44024449586868286,-0.253578245639801,-0.23615090548992157,-0.10724744200706482
1749056880.1788013,1.0291876792907715,-1.0683728021434327,-0.13158875703811646,1.5460161405750732,1.2068922519683838,-0.3724454084979456,-0.0009900678414851427,-0.0004817969456780702,0.0013137386413291097,-0.0010306662879884243,-0.00016493868315592408,-0.00019871600670740008,0.10794612020254135,-0.8899977207183838,-0.44008830189704895,-0.25225943326950073,-0.25110679864883423,-0.10625138878822327
1749056880.1788385,1.0291154384613037,-1.0683232110789795,-0.13158512115478516,1.5460435587116699,1.2068767547607422,-0.37243730226625615,-0.0008702317136339843,-0.00043518401798792183,0.001356836291961372,-0.0008321677451021969,-0.00016073213191702962,-0.00019337759295012802,0.05762703716754913,-0.9036204218864441,-0.4379631578922272,-0.24762685596942902,-0.24493981897830963,-0.10509032011032104
1749056880.1788754,1.029176950454712,-1.0683351320079346,-0.13156570494174957,1.5460280615040283,1.2068493366241455,-0.37246781984438115,-0.0007763979956507683,-0.0003967965312767774,0.001295467372983694,-0.0006999119068495929,-0.0001645155716687441,-0.00018831866327673197,0.06908290088176727,-0.88609778881073,-0.4359869956970215,-0.2692730128765106,-0.26908552646636963,-0.09432682394981384
1749056880.1789122,1.0291650295257568,-1.0683078330806275,-0.13156931102275848,1.5460435587116699,1.2068575620651245,-0.37243730226625615,-0.0007007973035797477,-0.0003646338591352105,0.0012396486708894372,-0.0006045871996320784,-0.0001721907319733873,-0.00018351753533352166,0.06628929823637009,-0.8642983436584473,-0.4385635256767273,-0.246985524892807,-0.2520764470100403,-0.10228961706161499
1749056880.1789496,1.029191255569458,-1.0683077734759827,-0.13156935572624207,1.5460471349903564,1.2068334817886353,-0.3724253813373011,-0.0006385757005773485,-0.0003372970677446574,0.0011727276723831892,-0.0006176357856020331,-0.0001701753935776651,-0.00017895550990942866,0.07417736947536469,-0.87996506690979,-0.4388614296913147,-0.24539092183113098,-0.25185418128967285,-0.10791739821434021
1749056880.1789868,1.0291345119476318,-1.0683609408191224,-0.13158877193927765,1.5460471349903564,1.2068877220153809,-0.3724611441241663,-0.0005865733837708831,-0.00031377331470139325,0.0011246103094890714,-0.0005672631086781621,-0.00016660055553074926,-0.0001746147172525525,0.06974034011363983,-0.8599945306777954,-0.44433075189590454,-0.24570856988430023,-0.2657201588153839,-0.10160717368125916
1749056880.179024,1.0291805267333984,-1.0683385890773316,-0.13157296180725098,1.5460125642963867,1.2068731784820557,-0.3724454084979456,-0.0005423762486316264,-0.0002933177165687084,0.0009411266655661166,-0.0005154937389306724,-0.00016289250925183296,-0.00017047961591742933,0.09032627940177917,-0.8737205862998962,-0.44752514362335205,-0.24786457419395447,-0.2635800242424011,-0.09532678127288818
1749056880.1790648,1.029176950454712,-1.0683420461467286,-0.13159599900245667,1.5460280615040283,1.2069045305252075,-0.37243730226625615,-0.00046145988744683564,-0.00027536551351659,0.0008984315791167319,-0.000470894476165995,-0.00015930141671560705,-0.00016653569764457643,0.10912448912858963,-0.8749819993972778,-0.45797473192214966,-0.23396119475364685,-0.2622005343437195,-0.1191662847995758
1749056880.1791763,1.0291996002197266,-1.0683574241450806,-0.13157296180725098,1.5460471349903564,1.2068612575531006,-0.3724597136126917,-0.00041262590093538165,-0.0002594853285700083,0.0008116272510960698,-0.0004331089148763567,-0.000155855028424412,-0.0001627703313715756,0.07383406162261963,-0.8502534627914429,-0.44418448209762573,-0.24732233583927155,-0.2653343379497528,-0.12114229798316956
1749056880.180425,1.0291757583618164,-1.0683385890773316,-0.13157296180725098,1.5460280615040283,1.2068767547607422,-0.372443977986471,-0.0003870886575896293,-0.0002453363558743149,0.0007206156733445823,-0.0004008653631899506,-0.00015255037578754127,-0.0001591713516972959,0.07523677498102188,-0.8396018743515015,-0.45841658115386963,-0.2567216157913208,-0.2801077365875244,-0.10278531908988953
1749056880.2222917,1.0291650295257568,-1.0683420461467286,-0.13156573474407196,1.5460471349903564,1.2068694829940796,-0.3724406401263636,-0.0003646628756541759,-0.0002326511312276125,0.0007141412352211773,-0.0003731338947545737,-0.00014938674576114863,-0.00015572815027553588,0.1055203229188919,-0.8486849069595337,-0.44179826974868774,-0.25198566913604736,-0.27953100204467773,-0.106588214635849
1749056880.2223377,1.029150128364563,-1.0683266681483765,-0.1315608024597168,1.5460316377827148,1.2068922519683838,-0.3724783102618616,-0.0003447189519647509,-0.00022121297661215067,0.0006684644613415003,-0.00034898234298452735,-0.00011608062777668238,-0.0001524308609077707,0.12149889767169952,-0.8348472118377686,-0.4484137296676636,-0.2536923289299011,-0.2719936966896057,-0.10708290338516235
1749056880.222391,1.0291614532470703,-1.0683420461467286,-0.1315571516752243,1.5460435587116699,1.206852912902832,-0.37243730226625615,-0.0003268339787609875,-0.00021084777836222202,0.0006129172979854047,-0.00032774993451312184,-9.56854855758138e-05,-0.00014927035954315215,0.12721139192581177,-0.8395729064941406,-0.4389953017234802,-0.23384903371334076,-0.280068576335907,-0.11635172367095947
1749056880.222432,1.0291608572006226,-1.0683027666858216,-0.1315608024597168,1.5460435587116699,1.2068959474563599,-0.37243730226625615,-0.0003107038792222738,-0.00020141017739661038,0.00056487787514925,-0.0003508308727759868,-9.685083205113187e-05,-0.0001462381478631869,0.11726544052362442,-0.8604303598403931,-0.44632071256637573,-0.2468472272157669,-0.28340423107147217,-0.12661287188529968
1749056880.2224708,1.029184103012085,-1.0683728021434327,-0.13158018887043,1.5460316377827148,1.2068803310394287,-0.3724454084979456,-0.00011259203165536746,-0.0001927809207700193,0.0004723951278720051,-0.0003392496146261692,-0.00010380525782238692,-0.00012612099817488343,0.09287353605031967,-0.8276149034500122,-0.4436544179916382,-0.23264092206954956,-0.27920839190483093,-0.1274392306804657
1749056880.2225094,1.0291650295257568,-1.0683420461467286,-0.13156931102275848,1.5460435587116699,1.2068684101104736,-0.37243730226625615,-8.757315663387999e-05,-0.00015962794714141637,0.00038725321064703166,-0.0003231167502235621,-0.00011754658044083044,-9.76327937678434e-05,0.09822750091552734,-0.8210166692733765,-0.44948428869247437,-0.23708085715770721,-0.2823578417301178,-0.12033990025520325
1749056880.2225478,1.0291996002197266,-1.0683232110789795,-0.13157296180725098,1.5460316377827148,1.2068299055099487,-0.3724611441241663,-8.33249359857291e-05,-0.00014216758427210152,0.00035384512739256024,-0.0003075706190429628,-0.0001321676536463201,-9.109688107855618e-05,0.13952040672302246,-0.8297427296638489,-0.4466164708137512,-0.2202831357717514,-0.29479971528053284,-0.1287778913974762
1749056880.2225854,1.029150128364563,-1.0683266681483765,-0.13160426914691925,1.5460352140614013,1.206852912902832,-0.37243730226625615,-4.022595385322347e-05,-0.00013666131417267025,0.0003278282529208809,-0.0002932838106062263,-0.0006807998288422823,-8.849888399709016e-05,0.12393520027399063,-0.8197023868560791,-0.4611436724662781,-0.2447233349084854,-0.29905208945274353,-0.1302661895751953
1749056880.2226226,1.0291614532470703,-1.0683335822871705,-0.13157661259174347,1.5460435587116699,1.2068575620651245,-0.3724301497088831,-3.852023382933112e-06,-0.00013166222197469324,0.0003055611450690776,-0.00028022442711517215,-0.0008076224476099014,-8.665199857205153e-05,0.15151342749595642,-0.8065338134765625,-0.462453156709671,-0.23013120889663696,-0.29366081953048706,-0.1494586169719696
1749056880.2226603,1.0291961431503296,-1.0683574241450806,-0.13157659769058228,1.5460280615040283,1.2069118022918701,-0.3724301497088831,-3.758267652642644e-08,-9.627502004150301e-05,0.00028612103778868914,-0.0002682930207811296,-0.000853255158290267,-9.728778968565166e-05,0.17027637362480164,-0.8068529367446899,-0.4738243520259857,-0.24695509672164917,-0.3031753599643707,-0.1479925513267517
1749056880.2227037,1.029176950454712,-1.0683455032161255,-0.13157661259174347,1.5460352140614013,1.2068407535552979,-0.37245256105531865,-3.6667938130285904e-10,-9.202561341226101e-05,0.00026899194926954806,-0.00025732943322509527,-0.0013400581665337086,-0.00011133253428852186,0.21248143911361694,-0.7808796167373657,-0.4806729555130005,-0.24181315302848816,-0.3247235417366028,-0.16882070899009705
1749056880.2227426,1.0292043685913086,-1.0683077734759827,-0.13154888153076172,1.546050711269043,1.2068995237350464,-0.3724902311908167,0.0035495031625032425,2.1778536392957903e-05,0.000253826699918136,-0.00024721684167161584,-0.0014474022900685668,-0.0004560394154395908,0.17725954949855804,-0.7955471873283386,-0.48504483699798584,-0.2215023934841156,-0.3261672854423523,-0.19317200779914856
1749056880.222781,1.0291805267333984,-1.0683266681483765,-0.13156437873840332,1.5459999281116943,1.2068840265274048,-0.37248355547060186,0.005272827576845884,6.99381489539519e-05,0.00024026942264754325,-0.0002378843491896987,-0.0021801830735057592,-0.0027145955245941877,0.1866883784532547,-0.7652188539505005,-0.5030673742294312,-0.24249786138534546,-0.3365709185600281,-0.1791921854019165
1749056880.2228222,1.0291733741760254,-1.0683455032161255,-0.13154888153076172,1.5460316377827148,1.2068456411361694,-0.3724420706378382,0.005488934926688671,9.826469613472e-05,0.0001855974260251969,-0.0002292264107381925,-0.0032763120252639055,-0.004682016093283892,0.21890141069889069,-0.7741124629974365,-0.5121558904647827,-0.2443007230758667,-0.3416866660118103,-0.17608100175857544
1749056880.222861,1.0291733741760254,-1.0683147472194214,-0.13154888153076172,1.5460197168537597,1.2068601846694946,-0.3725040594684046,0.006179371848702431,9.795816004043445e-05,0.0001738686260068789,-0.0002211684186477214,-0.004301459062844515,-0.0054817707277834415,0.2578517198562622,-0.769333004951477,-0.5310531854629517,-0.24572253227233887,-0.3391195237636566,-0.17402780055999756
1749056880.2228987,1.0292080640792847,-1.0683574241450806,-0.1315608024597168,1.5460316377827148,1.2068142890930176,-0.3725040594684046,0.007787154521793127,9.455935651203617e-05,0.00012980618339497596,-0.00021366996224969625,-0.005520862061530352,-0.006605804432183504,0.3014565408229828,-0.777910590171814,-0.5448524951934814,-0.23217207193374634,-0.36319977045059204,-0.18921542167663574
1749056880.222948,1.029217004776001,-1.0683370393565674,-0.13154888153076172,1.5460352140614013,1.2068324089050293,-0.3725317160235804,0.00878367479890585,9.135992149822414e-05,-1.1275397810095455e-05,-0.00020665930060204118,-0.007600635755807161,-0.0097352284938097,0.33575528860092163,-0.7823008298873901,-0.5640884041786194,-0.2527950406074524,-0.3623766005039215,-0.19408750534057617
1749056880.222992,1.029229760169983,-1.0683182042888184,-0.1315608024597168,1.5460280615040283,1.2068133354187012,-0.37257415453066045,0.01184630487114191,8.836953202262521e-05,-0.00018901779549196362,-0.00020008756837341934,-0.009961769916117191,-0.012241585180163383,0.2924708425998688,-0.7950503826141357,-0.5683431029319763,-0.2589361071586609,-0.3586691915988922,-0.18608462810516357
1749056880.2230313,1.029229760169983,-1.0683266681483765,-0.13157661259174347,1.5460197168537597,1.2067540884017944,-0.37257558504213506,0.013047575950622559,8.556903048884124e-05,-0.00029845634708181024,-0.0002165843907278031,-0.011909287422895432,-0.013715166598558426,0.3193260133266449,-0.8082772493362427,-0.5810336470603943,-0.2570636570453644,-0.38635820150375366,-0.21633675694465637
1749056880.2230692,1.0292919874191284,-1.0683112901500245,-0.1315692961215973,1.5460197168537597,1.206791639328003,-0.3725960890399378,0.015478353947401047,5.557189797400497e-05,-0.0016264894511550665,-0.00017570951604284346,-0.013826427049934864,-0.016510140150785446,0.32113388180732727,-0.8551448583602905,-0.5796717405319214,-0.2657293677330017,-0.40080684423446655,-0.2080206573009491
1749056880.2231886,1.0293283462524414,-1.0683301252177735,-0.1315535008907318,1.5460235315510253,1.2067519426345825,-0.3726442495929163,0.01677056774497032,2.9515003916458227e-05,-0.002328241243958473,-0.00018796593940351158,-0.017031922936439514,-0.019535036757588387,0.3673000931739807,-0.871933102607727,-0.5954525470733643,-0.26858824491500854,-0.38268932700157166,-0.20514918863773346
1749056880.224344,1.0293364524841309,-1.0683420461467286,-0.13158018887043,1.5460197168537597,1.2066738605499268,-0.3726871649371546,0.02022170089185238,8.271859769592993e-06,-0.0024665871169418097,-0.0012375481892377138,-0.01888798177242279,-0.021296679973602295,0.33571749925613403,-0.8979738354682922,-0.5986143946647644,-0.2815569341182709,-0.4093528091907501,-0.18055199086666107
1749056880.2663007,1.0293375253677368,-1.0683266681483765,-0.13156931102275848,1.5460235315510253,1.2066497802734375,-0.37272817293276006,0.021414102986454964,8.07052842333178e-08,-0.0023191936779767275,-0.001996404957026243,-0.019992997869849205,-0.02315003238618374,0.32479149103164673,-0.9244664311408997,-0.601346492767334,-0.26625746488571167,-0.4067309498786926,-0.17371298372745514
1749056880.2663643,1.0294314622879028,-1.0683266681483765,-0.13158512115478516,1.5459725099750976,1.206636905670166,-0.3727486769305628,0.021544255316257477,7.874095819815352e-10,-0.002197785535827279,-0.0028058509342372417,-0.022383136674761772,-0.02408463880419731,0.32446545362472534,-0.9477359652519226,-0.6167848706245422,-0.29187360405921936,-0.3992120921611786,-0.15673255920410156
1749056880.2664173,1.0294359922409058,-1.0683062833598633,-0.13160794973373413,1.5459918218800048,1.2065227031707764,-0.37283450761903936,0.021709073334932327,7.682445825329953e-12,-0.0025258862879127264,-0.003099886467680335,-0.024437757208943367,-0.02277699112892151,0.32528403401374817,-0.946664035320282,-0.6263611912727356,-0.2863784730434418,-0.4056098461151123,-0.15687358379364014
1749056880.2664623,1.0295042991638184,-1.0683182042888184,-0.13157296180725098,1.5459918218800048,1.2065372467041016,-0.3728597799884241,0.02256573736667633,-0.0019144967664033175,-0.0033768562134355307,-0.0034415635745972395,-0.027125170454382896,-0.022562650963664055,0.3587433099746704,-0.9830843210220337,-0.630896806716919,-0.25840798020362854,-0.37359437346458435,-0.16281995177268982
1749056880.266502,1.0295281410217285,-1.0683455032161255,-0.13159704208374023,1.546018286342285,1.2064107656478882,-0.37292701402773076,0.023039881139993668,-0.003657388035207987,-0.004415081813931465,-0.003987844102084637,-0.027305224910378456,-0.0211379062384367,0.36985892057418823,-0.9655376672744751,-0.6445977091789246,-0.30351096391677856,-0.3680347502231598,-0.147747203707695
1749056880.2665408,1.0296801328659058,-1.0683301252177735,-0.13159705698490143,1.5459560590931396,1.2063627243041992,-0.372962776814596,0.02376256138086319,-0.004084722138941288,-0.005109377205371857,-0.004338586702942848,-0.026994822546839714,-0.020723434165120125,0.3423793911933899,-0.9874407649040222,-0.6341162919998169,-0.29771459102630615,-0.35552114248275757,-0.15381762385368347
1749056880.2665787,1.0296592712402344,-1.0683420461467286,-0.13159704208374023,1.5459715563007812,1.2063571214675903,-0.3729952017413538,0.024985643103718758,-0.004682406783103943,-0.004965577274560928,-0.00423851003870368,-0.025994334369897842,-0.020771196112036705,0.34944650530815125,-0.9907819628715515,-0.6487231850624084,-0.31295886635780334,-0.3520805239677429,-0.16232560575008392
1749056880.266617,1.0296835899353027,-1.0683658880046387,-0.13159704208374023,1.545947714442871,1.206316590309143,-0.37304670015443975,0.02589821070432663,-0.00627887761220336,-0.005166607443243265,-0.004618636332452297,-0.02472599409520626,-0.018768154084682465,0.3264883756637573,-1.002478003501892,-0.6818311214447021,-0.3119893968105316,-0.35448169708251953,-0.16081078350543976
1749056880.266658,1.0297468900680542,-1.0683847826770325,-0.1316053718328476,1.545928640956543,1.2062103748321533,-0.3730705420123499,0.02692575193941593,-0.007441183086484671,-0.005616474896669388,-0.005462447181344032,-0.024701004847884178,-0.019985638558864594,0.3487216830253601,-1.0218086242675781,-0.6776505708694458,-0.31573486328125,-0.33826109766960144,-0.18442094326019287
1749056880.2666967,1.0297913551330566,-1.0683812660029908,-0.13163304328918457,1.5459322172352294,1.2062046527862549,-0.3731306234942835,0.028190195560455322,-0.007903407327830791,-0.0066254837438464165,-0.006078220903873444,-0.02310684137046337,-0.021497804671525955,0.33276307582855225,-1.0363273620605469,-0.6769950985908508,-0.3278508186340332,-0.3433745801448822,-0.17151188850402832
1749056880.2667341,1.029894471168518,-1.0684055846980591,-0.13167953491210938,1.5459033685871582,1.206109881401062,-0.3731940428363245,0.029645975679159164,-0.008860255591571331,-0.007274877279996872,-0.007221560459583998,-0.022589409723877907,-0.02160368114709854,0.3467257618904114,-1.0651271343231201,-0.6786230802536011,-0.34187111258506775,-0.34604284167289734,-0.1727864146232605
1749056880.2667716,1.0298991203308105,-1.0684294265559693,-0.131653293967247,1.545891447658203,1.2061244249343872,-0.37321454683412725,0.0315689742565155,-0.010286296717822552,-0.007971485145390034,-0.007608983665704727,-0.021493684500455856,-0.023411637172102928,0.3294868469238281,-1.043303370475769,-0.6863505244255066,-0.32876056432724,-0.3303437829017639,-0.188768669962883
1749056880.2668085,1.0299826860427856,-1.0684259694865723,-0.13166508078575134,1.5458990770527343,1.2060341835021973,-0.37329274812807256,0.03246062248945236,-0.012017792090773582,-0.008923962712287903,-0.008127918466925621,-0.02031882479786873,-0.024274377152323723,0.3434339761734009,-1.06681227684021,-0.6791383028030396,-0.32395878434181213,-0.35076355934143066,-0.17340023815631866
1749056880.2668488,1.030085802078247,-1.0684463542750855,-0.13170403242111206,1.5458871561237792,1.2060091495513916,-0.37333423296083623,0.03454963490366936,-0.01233632955700159,-0.009314663708209991,-0.009202226996421814,-0.020342543721199036,-0.02562510222196579,0.34684839844703674,-1.0558618307113647,-0.6824584007263184,-0.3421463072299957,-0.34879034757614136,-0.15966632962226868
1749056880.2668953,1.0301733016967773,-1.0684777063182374,-0.13172055780887604,1.5458752351948242,1.2059332132339478,-0.3734043280230921,0.03592879697680473,-0.01330513134598732,-0.009040589444339275,-0.010526862926781178,-0.0200519897043705,-0.027172749862074852,0.33871206641197205,-1.0647624731063843,-0.6880373358726501,-0.33700111508369446,-0.3532527685165405,-0.20314373075962067
1749056880.2669423,1.0302371978759766,-1.0685252708247681,-0.1317482888698578,1.545816107387207,1.2059330940246582,-0.37341434160341436,0.03721671178936958,-0.014043635688722134,-0.009271142072975636,-0.011267436668276787,-0.020698651671409607,-0.02833317220211029,0.3313065469264984,-1.089470386505127,-0.7051622271537781,-0.34238970279693604,-0.36776915192604065,-0.19364063441753387
1749056880.2669816,1.0302857160568237,-1.0685218137553711,-0.13174104690551758,1.5458077627369384,1.2059084177017212,-0.3734706083880823,0.03794141858816147,-0.015019270591437817,-0.010123319923877716,-0.011424657888710499,-0.02266859821975231,-0.030599895864725113,0.3667360544204712,-1.0926157236099243,-0.7033186554908752,-0.3784613013267517,-0.3735452890396118,-0.21891814470291138
1749056880.2670188,1.0303453207015991,-1.068553940658905,-0.13176876306533813,1.545811577434204,1.2058025598526,-0.37358409563173467,0.04114200919866562,-0.015611190348863602,-0.010576507076621056,-0.012287827208638191,-0.023953083902597427,-0.03253689035773277,0.3304876387119293,-1.109752893447876,-0.7065053582191467,-0.3421488404273987,-0.3894464373588562,-0.20109745860099792
1749056880.267056,1.030456781387329,-1.068553940658905,-0.1317734569311142,1.5457603174396972,1.2057656049728394,-0.3736217657672327,0.04176277667284012,-0.01541916374117136,-0.010972684249281883,-0.012841517105698586,-0.027520038187503815,-0.03514109551906586,0.35234346985816956,-1.0868220329284668,-0.7000856399536133,-0.3506011664867401,-0.3873576521873474,-0.2125585377216339
1749056880.2670932,1.0305094718933105,-1.068608598118164,-0.13184793293476105,1.5457357603260498,1.2057220935821533,-0.37373620668520147,0.04303234815597534,-0.015194025821983814,-0.011844741180539131,-0.01374117936939001,-0.02978641167283058,-0.03862610459327698,0.35038304328918457,-1.0963754653930664,-0.7086411714553833,-0.35529229044914246,-0.380612850189209,-0.20696263015270233
1749056880.267336,1.0306282043457031,-1.0686291021159668,-0.13184072077274323,1.545715256328247,1.205674171447754,-0.37377721468080694,0.045079439878463745,-0.014485059306025505,-0.012605738826096058,-0.013687590137124062,-0.033118925988674164,-0.04061036556959152,0.36859527230262756,-1.121695876121521,-0.6827470660209656,-0.3453120291233063,-0.39085227251052856,-0.21827571094036102
1749056880.2684326,1.0307307243347168,-1.068641023044922,-0.13188757002353668,1.5456949907490234,1.2055829763412476,-0.37390405336488897,0.04663017392158508,-0.014903535135090351,-0.012997278943657875,-0.013515684753656387,-0.035303737968206406,-0.04285455122590065,0.36504632234573364,-1.1093329191207886,-0.6979066133499146,-0.3579120934009552,-0.3903985619544983,-0.20510470867156982
1749056880.310287,1.0308111906051636,-1.0687388342669983,-0.13190411031246185,1.5456556516834716,1.205494999885559,-0.37399512926210576,0.04786364734172821,-0.014630177989602089,-0.012655156664550304,-0.013594415038824081,-0.03754138946533203,-0.04485924914479256,0.3672229051589966,-1.0979801416397095,-0.6865044832229614,-0.34779149293899536,-0.3950890302658081,-0.1931205689907074
1749056880.3103344,1.0308996438980103,-1.0687234562686463,-0.13191279768943787,1.5456155973621826,1.2054380178451538,-0.37405282655824834,0.049456968903541565,-0.014970510266721249,-0.013025017455220222,-0.01338461134582758,-0.0415324792265892,-0.04665710777044296,0.3873489499092102,-1.107483983039856,-0.6904666423797607,-0.347784161567688,-0.3834696412086487,-0.21624663472175598
1749056880.3103757,1.030971646308899,-1.068749265079834,-0.13192956149578094,1.5456031995960693,1.2053693532943726,-0.37416392961610967,0.05020938068628311,-0.014212748035788536,-0.012799023650586605,-0.012530106119811535,-0.043201152235269547,-0.04926253482699394,0.39964017271995544,-1.1146259307861328,-0.6944420337677002,-0.3381716012954712,-0.39359116554260254,-0.23513033986091614
1749056880.310415,1.0311062335968018,-1.0687696498683472,-0.1319417804479599,1.545532150859497,1.205254316329956,-0.3742597738849085,0.05384976789355278,-0.014581087976694107,-0.012751009315252304,-0.011836237274110317,-0.046998485922813416,-0.05346645042300224,0.38754045963287354,-1.1177339553833008,-0.6926723718643188,-0.3504481017589569,-0.37275099754333496,-0.19856950640678406
1749056880.310468,1.0312303304672241,-1.0688361686519166,-0.13201244175434113,1.5455712515064697,1.2051811218261719,-0.3743522802935999,0.055026501417160034,-0.014286410994827747,-0.012556545436382294,-0.011602720245718956,-0.04908568412065506,-0.05520934984087944,0.37260594964027405,-1.1429823637008667,-0.6714009046554565,-0.3801996111869812,-0.362099826335907,-0.20827318727970123
1749056880.3105376,1.031334400177002,-1.0688290756991883,-0.13202929496765137,1.5455350118824462,1.2050453424453735,-0.37449437776674444,0.054003968834877014,-0.014781201258301735,-0.011968180537223816,-0.01142818108201027,-0.050316423177719116,-0.05684319883584976,0.41703203320503235,-1.141856074333191,-0.6794557571411133,-0.3683392405509949,-0.36706802248954773,-0.21461200714111328
1749056880.3106074,1.0314303636550903,-1.0688913029483338,-0.13205337524414062,1.545511170024536,1.2049107551574707,-0.3745935598956507,0.057041704654693604,-0.01481724251061678,-0.012717731297016144,-0.011413566768169403,-0.0528842955827713,-0.056402720510959625,0.413962721824646,-1.165465235710144,-0.6851460337638855,-0.3684409260749817,-0.3587331771850586,-0.22029656171798706
1749056880.3106766,1.0315027236938477,-1.0689047139934083,-0.1320808082818985,1.5454718309589843,1.2048147916793823,-0.3747018019305628,0.060856204479932785,-0.015779227018356323,-0.012520905584096909,-0.01211228221654892,-0.05527301877737045,-0.057975683361291885,0.3764941990375519,-1.1493406295776367,-0.6754865050315857,-0.37772253155708313,-0.3343701660633087,-0.2514040470123291
1749056880.3107436,1.0316733121871948,-1.0689444106868287,-0.13210129737854004,1.5454980570026855,1.2047139406204224,-0.3748105208026331,0.0627952367067337,-0.015402299351990223,-0.013398593291640282,-0.011801285669207573,-0.05523205175995827,-0.06200767681002617,0.38868629932403564,-1.1870696544647217,-0.6657969951629639,-0.35906481742858887,-0.3528006076812744,-0.21749527752399445
1749056880.310811,1.0317773818969727,-1.0689752262881775,-0.1321253776550293,1.5454503732868652,1.2046023607254028,-0.37492210069765264,0.06419115513563156,-0.017020465806126595,-0.012993155978620052,-0.011852636933326721,-0.053783711045980453,-0.06389228254556656,0.4216366708278656,-1.1508725881576538,-0.6781994700431824,-0.37049952149391174,-0.3462420105934143,-0.23749761283397675
1749056880.3108792,1.0319240093231201,-1.0689921540072937,-0.13216859102249146,1.5454386907764892,1.2044739723205566,-0.37508994737734014,0.06745996326208115,-0.01618308573961258,-0.012607994489371777,-0.011778347194194794,-0.05453883484005928,-0.06724614650011063,0.39277487993240356,-1.162906289100647,-0.6832393407821655,-0.3841594457626343,-0.3698313236236572,-0.22224017977714539
1749056880.3109472,1.03207528591156,-1.0690053862384339,-0.1321890503168106,1.5454065042683105,1.204350233078003,-0.37521678606142217,0.0692814439535141,-0.01636367104947567,-0.012501946650445461,-0.012215958908200264,-0.05787520483136177,-0.06956226378679276,0.40684911608695984,-1.17047917842865,-0.680944561958313,-0.3961063325405121,-0.3539746403694153,-0.20592257380485535
1749056880.3110151,1.0322426557540894,-1.0690829914859314,-0.13219738006591797,1.5453592973896484,1.2043170928955078,-0.3753879706012171,0.07136387377977371,-0.01691056415438652,-0.01226474717259407,-0.012181069701910019,-0.05900116637349129,-0.07039657235145569,0.40591931343078613,-1.1833657026290894,-0.682088315486908,-0.4006107449531555,-0.34533512592315674,-0.2100996971130371
1749056880.3110816,1.032374382019043,-1.0690879982760926,-0.1322488933801651,1.5453547674366455,1.2041850090026855,-0.37553197542299444,0.07325977087020874,-0.017086535692214966,-0.013008726760745049,-0.0123974047601223,-0.05984703078866005,-0.07031121850013733,0.4043092727661133,-1.2016907930374146,-0.6832424998283386,-0.4128168225288391,-0.37176603078842163,-0.22076104581356049
1749056880.31115,1.032374382019043,-1.0690879982760926,-0.1322488933801651,1.5453547674366455,1.2041850090026855,-0.37553197542299444,0.07325977087020874,-0.017086535692214966,-0.013008726760745049,-0.0123974047601223,-0.05984703078866005,-0.07031121850013733,0.4043092727661133,-1.2016907930374146,-0.6832424998283386,-0.4128168225288391,-0.37176603078842163,-0.22076104581356049
1749056880.311219,1.0326616764068604,-1.0691529673388978,-0.13228513300418854,1.5453063684650878,1.2038873434066772,-0.3758309523211878,0.07688981294631958,-0.018159933388233185,-0.013928765431046486,-0.013780804350972176,-0.06207152456045151,-0.07474303990602493,0.3873123228549957,-1.1797796487808228,-0.6836496591567993,-0.427156537771225,-0.35715973377227783,-0.2078593671321869
1749056880.3112874,1.0328137874603271,-1.069204644565918,-0.13234029710292816,1.5452946859547119,1.203774333000183,-0.37592870393861944,0.0779978558421135,-0.017636319622397423,-0.01325263362377882,-0.014696666970849037,-0.06288169324398041,-0.07699798047542572,0.39707547426223755,-1.210007667541504,-0.6913995742797852,-0.4141806364059448,-0.383617639541626,-0.19851350784301758
1749056880.311355,1.0329689979553223,-1.06923200309787,-0.13234856724739075,1.5452429491230468,1.203618049621582,-0.37611514726747686,0.07731267809867859,-0.0181039497256279,-0.013644530437886715,-0.015313049778342247,-0.06391222029924393,-0.0778566524386406,0.42489778995513916,-1.2266525030136108,-0.6939182281494141,-0.41071587800979614,-0.3923325836658478,-0.21092739701271057
1749056880.3114228,1.033159852027893,-1.0692677062800904,-0.1323690563440323,1.5452381807514648,1.2034320831298828,-0.3762896696673792,0.0845484659075737,-0.01863977313041687,-0.014027100056409836,-0.0162088330835104,-0.06511682271957397,-0.07804251462221146,0.39568379521369934,-1.2379353046417236,-0.6994397640228271,-0.4398471713066101,-0.3929225206375122,-0.21313288807868958
1749056880.3114913,1.0333013534545898,-1.0692885679057618,-0.13240894675254822,1.545198841685913,1.203338384628296,-0.37643129030336553,0.0820496454834938,-0.019978825002908707,-0.015004228800535202,-0.017236001789569855,-0.06800640374422073,-0.08043043315410614,0.38399040699005127,-1.2474665641784668,-0.6887534260749817,-0.43306946754455566,-0.3893827795982361,-0.22142300009727478
1749056880.3116436,1.0334523916244507,-1.0693551462939759,-0.13241362571716309,1.5451463895985107,1.2032102346420288,-0.3766563574420374,0.08410254865884781,-0.021035239100456238,-0.014597563073039055,-0.017590470612049103,-0.06851518899202347,-0.08117110282182693,0.43801844120025635,-1.2640753984451294,-0.7052615880966187,-0.44309288263320923,-0.39359569549560547,-0.20754003524780273
1749056880.312416,1.0336121320724487,-1.069388048057892,-0.13244105875492096,1.5450989443012695,1.2030155658721924,-0.3767769972430628,0.08526576310396194,-0.021789968013763428,-0.015137972310185432,-0.018400534987449646,-0.06909915059804916,-0.08179295063018799,0.4099199175834656,-1.247280478477478,-0.6960582733154297,-0.44948792457580566,-0.4063490927219391,-0.22629034519195557
1749056880.3542867,1.0337603092193604,-1.0694390696338196,-0.1324770599603653,1.5450782018848876,1.2029500007629395,-0.3769639174090784,0.08718045055866241,-0.02237735688686371,-0.0155395632609725,-0.019136924296617508,-0.06907425075769424,-0.08254128694534302,0.4345463514328003,-1.2499791383743286,-0.7003821730613708,-0.4390203654766083,-0.4184816777706146,-0.22766372561454773
1749056880.354354,1.0339903831481934,-1.069462851887085,-0.13252519071102142,1.5450231271931152,1.2027480602264404,-0.377143685017721,0.09048034250736237,-0.02322995476424694,-0.01676853746175766,-0.020191973075270653,-0.072220578789711,-0.08382639288902283,0.43313536047935486,-1.2678704261779785,-0.683198869228363,-0.44929906725883484,-0.4346213936805725,-0.21735289692878723
1749056880.3544266,1.0341813564300537,-1.0695040983012696,-0.13253745436668396,1.5449861723133544,1.2026543617248535,-0.3772648016559046,0.09288756549358368,-0.024467594921588898,-0.01688288152217865,-0.020060019567608833,-0.07629796117544174,-0.08539707958698273,0.4269622266292572,-1.2529826164245605,-0.6900083422660828,-0.44813308119773865,-0.42710748314857483,-0.25754693150520325
1749056880.354497,1.034368634223938,-1.0695831936648865,-0.1325889229774475,1.544973536128662,1.2025142908096313,-0.37747174898256475,0.09424791485071182,-0.025140807032585144,-0.01740221306681633,-0.02117108553647995,-0.07710783183574677,-0.0891512781381607,0.4185194969177246,-1.258354663848877,-0.6880925297737122,-0.4453144669532776,-0.4232141971588135,-0.21918059885501862
1749056880.3545659,1.034528374671936,-1.0696188372424622,-0.13259004056453705,1.5449060636707763,1.2023147344589233,-0.37766725221742803,0.0962718203663826,-0.025371206924319267,-0.017674028873443604,-0.021652953699231148,-0.07678525894880295,-0.09056604653596878,0.4358968436717987,-1.255499005317688,-0.6909978985786438,-0.45022591948509216,-0.45249080657958984,-0.23771297931671143
1749056880.354634,1.0347356796264648,-1.0696517390063782,-0.1326608955860138,1.5448548036762695,1.2021712064743042,-0.3778470198260706,0.09811019897460938,-0.02544822357594967,-0.017580252140760422,-0.02307850308716297,-0.08138152211904526,-0.09085579961538315,0.452095627784729,-1.2797722816467285,-0.6939437389373779,-0.43860670924186707,-0.4646284580230713,-0.26085221767425537
1749056880.3547027,1.034951090812683,-1.0697111648372193,-0.13270056247711182,1.5448097425648193,1.2020305395126343,-0.3780415693866175,0.10039873421192169,-0.025261307135224342,-0.01839408278465271,-0.023866277188062668,-0.08405806124210358,-0.0922871008515358,0.41431140899658203,-1.2990624904632568,-0.6990693807601929,-0.4390852749347687,-0.45895320177078247,-0.24138253927230835
1749056880.3547704,1.0351394414901733,-1.0697747629931946,-0.13270163536071777,1.544762297267578,1.2018541097640991,-0.37821799913515264,0.10131627321243286,-0.02645997330546379,-0.018822692334651947,-0.023898418992757797,-0.09029529988765717,-0.09678814560174942,0.4120483994483948,-1.2809783220291138,-0.6904650926589966,-0.4442954659461975,-0.42480266094207764,-0.2533121109008789
1749056880.354836,1.03538978099823,-1.0698258441737671,-0.13276921212673187,1.5447138982960205,1.2016113996505737,-0.3783786932574671,0.1058279275894165,-0.02774198167026043,-0.01868080534040928,-0.02483241632580757,-0.09271840006113052,-0.10216313600540161,0.39312636852264404,-1.2701762914657593,-0.7029610872268677,-0.44250157475471497,-0.4037114679813385,-0.23851284384727478
1749056880.3549044,1.0355429649353027,-1.0698670905879517,-0.13278579711914062,1.5446814733692626,1.2014544010162354,-0.37862903276552373,0.10425903648138046,-0.028782453387975693,-0.019505983218550682,-0.024901416152715683,-0.09376335889101028,-0.10172590613365173,0.4373261034488678,-1.2860732078552246,-0.7088135480880737,-0.4322931468486786,-0.4198422133922577,-0.25302785634994507
1749056880.3549736,1.0355429649353027,-1.0698670905879517,-0.13278579711914062,1.5446814733692626,1.2014544010162354,-0.37862903276552373,0.10425903648138046,-0.028782453387975693,-0.019505983218550682,-0.024901416152715683,-0.09376335889101028,-0.10172590613365173,0.4373261034488678,-1.2860732078552246,-0.7088135480880737,-0.4322931468486786,-0.4198422133922577,-0.25302785634994507
1749056880.355041,1.0359808206558228,-1.0699972671321412,-0.13290487229824066,1.5445856291004638,1.2009730339050293,-0.3790548483477991,0.10940134525299072,-0.029277414083480835,-0.02083496004343033,-0.025099974125623703,-0.10156479477882385,-0.10983682423830032,0.431893527507782,-1.3248257637023926,-0.6929530501365662,-0.4507126212120056,-0.36794421076774597,-0.22157518565654755
1749056880.3551075,1.0362045764923096,-1.0700882834247132,-0.1329214721918106,1.5445057588764648,1.2007873058319092,-0.3792789618121546,0.11148082464933395,-0.029676107689738274,-0.021456342190504074,-0.02604888752102852,-0.10422269254922867,-0.11230030655860901,0.43510085344314575,-1.3154011964797974,-0.693318784236908,-0.4344233572483063,-0.3422375023365021,-0.215431347489357
1749056880.3551757,1.0364667177200317,-1.0701105755618592,-0.1329660415649414,1.5444575983234863,1.200610876083374,-0.37953216234316045,0.11271222680807114,-0.03091687522828579,-0.021428797394037247,-0.02592267468571663,-0.1028243824839592,-0.11447060108184814,0.42304128408432007,-1.3114302158355713,-0.6791578531265259,-0.454555869102478,-0.35292723774909973,-0.18857184052467346
1749056880.3552432,1.0366870164871216,-1.070200876598694,-0.13302113115787506,1.544409914607666,1.2003753185272217,-0.37975770631899053,0.11535544693470001,-0.030986253172159195,-0.02152763493359089,-0.02632880210876465,-0.10125732421875,-0.11604129523038864,0.4938162863254547,-1.3881802558898926,-0.7204431295394897,-0.44823840260505676,-0.3728385865688324,-0.21732504665851593
1749056880.3553095,1.036906361579895,-1.0702525538257142,-0.13307271897792816,1.5443529325672607,1.2001436948776245,-0.3799803892718714,0.119178906083107,-0.03359641134738922,-0.022543445229530334,-0.02660917490720749,-0.10081993043422699,-0.1159282848238945,0.40732085704803467,-1.3126983642578125,-0.6952505111694336,-0.44811856746673584,-0.3535553514957428,-0.2073010802268982
1749056880.3553765,1.0371812582015991,-1.0703281921199341,-0.13310544192790985,1.5442980962940673,1.1999592781066895,-0.38019067445863897,0.12178757786750793,-0.034216053783893585,-0.022635413333773613,-0.027354354038834572,-0.0997999906539917,-0.11622005701065063,0.4192996025085449,-1.3063431978225708,-0.6961231827735901,-0.45722904801368713,-0.35735905170440674,-0.2191823124885559
1749056880.355444,1.0374280214309692,-1.0703841012767334,-0.13312220573425293,1.5442609029957275,1.1997272968292236,-0.3804562727557581,0.12024936825037003,-0.03327897563576698,-0.022280188277363777,-0.028456423431634903,-0.09936640411615372,-0.11651039123535156,0.41427624225616455,-1.3290380239486694,-0.7007063627243042,-0.447489470243454,-0.36847853660583496,-0.2314949482679367
1749056880.3555124,1.037660002708435,-1.0704491895488282,-0.1331978738307953,1.5441810327717285,1.1996102333068848,-0.380683724080221,0.12494444102048874,-0.03217475116252899,-0.022763876244425774,-0.02866627834737301,-0.09894246608018875,-0.11634156107902527,0.44994765520095825,-1.374542236328125,-0.7200747728347778,-0.4487215578556061,-0.3940996825695038,-0.2321425825357437
1749056880.3555813,1.0379267930984497,-1.0704974693110962,-0.13324570655822754,1.5441371637531738,1.1993407011032104,-0.38091975847353154,0.12565740942955017,-0.03455880284309387,-0.023307951167225838,-0.02887607365846634,-0.10073191672563553,-0.11847291886806488,0.42057961225509644,-1.351700782775879,-0.7018206715583801,-0.4446679949760437,-0.39234495162963867,-0.23628117144107819
1749056880.3557398,1.038185954093933,-1.0706070822528382,-0.13330088555812836,1.5440918642231445,1.199175238609314,-0.38114720979799444,0.12780503928661346,-0.037219490855932236,-0.023152707144618034,-0.028604602441191673,-0.10306811332702637,-0.11873330920934677,0.41277140378952026,-1.3346918821334839,-0.705905556678772,-0.4558250904083252,-0.40945813059806824,-0.25287511944770813
1749056880.3564038,1.0384104251861572,-1.070640818481781,-0.13334539532661438,1.5440444189259033,1.1989787817001343,-0.3814023176776331,0.12968887388706207,-0.03745501860976219,-0.02298775501549244,-0.030229225754737854,-0.10475315153598785,-0.12405308336019516,0.4360542893409729,-1.3402913808822632,-0.7188434600830078,-0.4399394989013672,-0.4335210919380188,-0.22888928651809692
1749056880.3985136,1.0386806726455688,-1.0707562130740662,-0.1333777755498886,1.5439376074024658,1.1987553834915161,-0.381629769002096,0.13150033354759216,-0.03827400505542755,-0.0240107960999012,-0.02961309440433979,-0.10966309159994125,-0.12331511080265045,0.4591945707798004,-1.3399244546890259,-0.7249102592468262,-0.443237841129303,-0.41072696447372437,-0.25732144713401794
1749056880.398589,1.0389717817306519,-1.0708240133574982,-0.13342931866645813,1.5438925462910156,1.198539137840271,-0.3818901220904749,0.13383999466896057,-0.03987472876906395,-0.025674862787127495,-0.03018367663025856,-0.11027534306049347,-0.12475848197937012,0.4115816652774811,-1.3146121501922607,-0.6886955499649048,-0.44674670696258545,-0.404760479927063,-0.23943504691123962
1749056880.3986588,1.0392087697982788,-1.070887104873993,-0.13348110020160675,1.5438293653675537,1.1983391046524048,-0.38215715089906865,0.13381865620613098,-0.03999088704586029,-0.026627762243151665,-0.030950643122196198,-0.11397702991962433,-0.1279728263616562,0.4187648594379425,-1.318078875541687,-0.7016596794128418,-0.45310819149017334,-0.43521520495414734,-0.2611248195171356
1749056880.3987284,1.0394647121429443,-1.0709677797606965,-0.13352897763252258,1.5437530714222412,1.1980669498443604,-0.3824051062213343,0.13628026843070984,-0.04063672199845314,-0.02516532689332962,-0.03184562548995018,-0.11971109360456467,-0.1316734403371811,0.4776637554168701,-1.3243408203125,-0.7140377163887024,-0.4440438151359558,-0.41133010387420654,-0.26584088802337646
1749056880.3987963,1.0397722721099854,-1.071043239240982,-0.13355812430381775,1.5436968046375732,1.197772741317749,-0.3826840559588831,0.13920749723911285,-0.041706107556819916,-0.024165594950318336,-0.033045146614313126,-0.12538163363933563,-0.13331973552703857,0.42180225253105164,-1.3106164932250977,-0.7388394474983215,-0.43454644083976746,-0.35024964809417725,-0.24512238800525665
1749056880.3988633,1.0400235652923584,-1.071151004438736,-0.13361787796020508,1.543593092555664,1.197551965713501,-0.38293344179262334,0.1431245654821396,-0.04168829694390297,-0.02490827813744545,-0.03349363058805466,-0.12315689772367477,-0.13647931814193726,0.4123956263065338,-1.2935121059417725,-0.723797619342804,-0.4393875300884247,-0.3576228618621826,-0.23900647461414337
1749056880.3989305,1.0402997732162476,-1.071200655107834,-0.13368192315101624,1.5435566145130615,1.1972599029541016,-0.3832500616656702,0.1427019089460373,-0.04252108186483383,-0.02616402693092823,-0.033884771168231964,-0.12473975121974945,-0.13849538564682007,0.4340190887451172,-1.3396610021591187,-0.7258344292640686,-0.4263976812362671,-0.37355703115463257,-0.24637536704540253
1749056880.3989975,1.0405687093734741,-1.0713033837131043,-0.13374529778957367,1.5434962946125488,1.1970587968826294,-0.3835385481463831,0.144800066947937,-0.0427456758916378,-0.02693166770040989,-0.03388587385416031,-0.12488803267478943,-0.1390770673751831,0.4595176875591278,-1.3409634828567505,-0.7265245914459229,-0.4256661534309387,-0.3708392381668091,-0.2566767632961273
1749056880.399064,1.0408523082733154,-1.0714026850513,-0.13381263613700867,1.5434321600147705,1.1967763900756836,-0.38382178941835576,0.14899058640003204,-0.044211722910404205,-0.027607133612036705,-0.03346051275730133,-0.12540040910243988,-0.14133793115615845,0.471215158700943,-1.3376989364624023,-0.7304264307022095,-0.4215432107448578,-0.3845885097980499,-0.24839574098587036
1749056880.3991313,1.0412068367004395,-1.0714363616755982,-0.1338377445936203,1.5433835226246337,1.196547269821167,-0.3840854803668421,0.14892517030239105,-0.04529469460248947,-0.027932072058320045,-0.032910387963056564,-0.12602080404758453,-0.1411440074443817,0.45076918601989746,-1.2867872714996338,-0.7195330858230591,-0.4373456835746765,-0.3596264719963074,-0.2562338709831238
1749056880.399197,1.0414800643920898,-1.0715511304191132,-0.1338820606470108,1.5433155733295898,1.1962518692016602,-0.38436967531313115,0.1479312628507614,-0.04464250057935715,-0.028228381648659706,-0.03335573151707649,-0.12351088970899582,-0.14518308639526367,0.4791605770587921,-1.3151254653930664,-0.7218239903450012,-0.43360191583633423,-0.38336870074272156,-0.24466462433338165
1749056880.3992634,1.041774868965149,-1.0716594916633149,-0.13397347927093506,1.5432006555744628,1.1960084438323975,-0.3846953550921839,0.15238432586193085,-0.04467446729540825,-0.02835635468363762,-0.0341603122651577,-0.12236571311950684,-0.14242540299892426,0.4405516982078552,-1.350502371788025,-0.7096368670463562,-0.4316665530204773,-0.4204697906970978,-0.28185391426086426
1749056880.3993301,1.0421066284179688,-1.071746901874878,-0.13401803374290466,1.543193979854248,1.1957732439041138,-0.3849371115313929,0.15398009121418,-0.04591931402683258,-0.029350901022553444,-0.03354831784963608,-0.1211589053273201,-0.14415231347084045,0.4564623534679413,-1.3210742473602295,-0.7185417413711548,-0.4364266097545624,-0.43558287620544434,-0.27194875478744507
1749056880.3993962,1.042395830154419,-1.0718616408160706,-0.13407811522483826,1.543095512981079,1.1955475807189941,-0.3852627913104456,0.1562213897705078,-0.04778308793902397,-0.02964981086552143,-0.03375121206045151,-0.12708212435245514,-0.14985062181949615,0.43091002106666565,-1.2952454090118408,-0.7089613080024719,-0.44073107838630676,-0.42443886399269104,-0.25624269247055054
1749056880.3994591,1.0427237749099731,-1.0719574254802247,-0.13413825631141663,1.5430707174488525,1.1953113079071045,-0.3856089750873011,0.1578957736492157,-0.047360293567180634,-0.03063129261136055,-0.0336507186293602,-0.12655532360076904,-0.14986369013786316,0.47023850679397583,-1.3181467056274414,-0.7214400172233582,-0.4466584324836731,-0.4580563008785248,-0.2712389826774597
1749056880.3995254,1.0430350303649902,-1.072042779331543,-0.13419798016548157,1.5429670053669433,1.1950204372406006,-0.385874096547262,0.16088977456092834,-0.0463981069624424,-0.032254789024591446,-0.0342758372426033,-0.12976165115833282,-0.15393464267253876,0.500862717628479,-1.356767177581787,-0.7125078439712524,-0.44694235920906067,-0.4690828323364258,-0.2613447904586792
1749056880.3995917,1.0433627367019653,-1.0721337658217927,-0.13426658511161804,1.5429231363483886,1.1947325468063354,-0.38621265092958623,0.16413994133472443,-0.04968901351094246,-0.032683975994586945,-0.03565806522965431,-0.1360917091369629,-0.1575133502483368,0.45475390553474426,-1.3281081914901733,-0.7016857862472534,-0.4400355815887451,-0.4641987681388855,-0.2534288763999939
1749056880.3996582,1.0436830520629883,-1.0722190004638215,-0.13437362015247345,1.5428189474293212,1.194468379020691,-0.38652068773378545,0.16598454117774963,-0.048382196575403214,-0.031205955892801285,-0.03528972715139389,-0.14045113325119019,-0.15895356237888336,0.43262919783592224,-1.3010871410369873,-0.7082225680351257,-0.4413905441761017,-0.429260790348053,-0.23981256783008575
1749056880.3997245,1.0439988374710083,-1.0723491472056885,-0.13439013063907623,1.542778654689453,1.1941800117492676,-0.3868668715106409,0.1629275381565094,-0.05215582996606827,-0.031067706644535065,-0.0359545461833477,-0.1429309844970703,-0.1597759872674942,0.4666195511817932,-1.2672427892684937,-0.7154117822647095,-0.46973466873168945,-0.44389188289642334,-0.2574753165245056
1749056880.3997905,1.04436194896698,-1.0724260669997712,-0.13447405397891998,1.5427061754414062,1.1939114332199097,-0.3871982733355921,0.16497109830379486,-0.047990601509809494,-0.0318913497030735,-0.03685890510678291,-0.14726081490516663,-0.16050870716571808,0.4577946662902832,-1.3115121126174927,-0.7080907225608826,-0.45179957151412964,-0.403270423412323,-0.24763841927051544
1749056880.3999565,1.0446782112121582,-1.0725602072528382,-0.13453444838523865,1.542630358333252,1.1935731172561646,-0.38749438921083623,0.1678684651851654,-0.0476718544960022,-0.03207987919449806,-0.03598925843834877,-0.1504562348127365,-0.16066747903823853,0.46180933713912964,-1.3498116731643677,-0.7086321711540222,-0.4540955722332001,-0.3974161744117737,-0.2564693093299866
1749056880.4004157,1.0450419187545776,-1.0726212126067658,-0.13459427654743195,1.5425457197376709,1.1933114528656006,-0.3878520170794886,0.17025822401046753,-0.049263011664152145,-0.033594727516174316,-0.036357343196868896,-0.15115687251091003,-0.16042160987854004,0.4240363836288452,-1.329323649406433,-0.6959021687507629,-0.4603790044784546,-0.3802263140678406,-0.25355085730552673
1749056880.4425082,1.0454096794128418,-1.0727449518493195,-0.13468557596206665,1.5424901682087402,1.1929486989974976,-0.38813764253725225,0.1747421771287918,-0.05006786435842514,-0.03386642038822174,-0.03569449111819267,-0.15047842264175415,-0.15988168120384216,0.46242737770080566,-1.3498992919921875,-0.6816278100013733,-0.4734598994255066,-0.3699258863925934,-0.265705943107605
1749056880.4425848,1.045750379562378,-1.072828934793808,-0.1347421556711197,1.5424019533344726,1.1926994323730469,-0.3884795347796839,0.17452429234981537,-0.05111536756157875,-0.0329718254506588,-0.036585498601198196,-0.1484040766954422,-0.16381050646305084,0.46222853660583496,-1.34554123878479,-0.7041313052177429,-0.474977970123291,-0.4134428799152374,-0.2830401659011841
1749056880.4426565,1.0461252927780151,-1.0729052883437653,-0.13479000329971313,1.5423106390186767,1.1923644542694092,-0.38879138628114873,0.17675140500068665,-0.0517708994448185,-0.032415494322776794,-0.03909057378768921,-0.14783084392547607,-0.16439275443553925,0.429228276014328,-1.3450605869293213,-0.7010861039161682,-0.4664473533630371,-0.4232292175292969,-0.2601913511753082
1749056880.4427254,1.0464612245559692,-1.0730325442603608,-0.13485869765281677,1.542257233256958,1.192123293876648,-0.389137093220846,0.17889493703842163,-0.052524320781230927,-0.033875323832035065,-0.03736871853470802,-0.14868608117103577,-0.16577397286891937,0.4225269556045532,-1.3291058540344238,-0.7112141251564026,-0.4868549108505249,-0.4201964735984802,-0.2983244061470032
1749056880.4427938,1.0468178987503052,-1.0731327396682282,-0.1349339783191681,1.5421661573597412,1.1917725801467896,-0.38946563402284795,0.17886224389076233,-0.05333280935883522,-0.034536439925432205,-0.03702101856470108,-0.15299952030181885,-0.17235440015792847,0.43867629766464233,-1.3275097608566284,-0.7017418146133423,-0.48137885332107544,-0.39695894718170166,-0.2685666084289551
1749056880.442862,1.0472403764724731,-1.073247419004776,-0.13497857749462128,1.5421098905750732,1.1915040016174316,-0.3897746245013636,0.17951293289661407,-0.05348733440041542,-0.03391285985708237,-0.03797183185815811,-0.15244722366333008,-0.17304082214832306,0.4351442754268646,-1.339570164680481,-0.6975488662719727,-0.49754244089126587,-0.4224303662776947,-0.29144901037216187
1749056880.44293,1.0472403764724731,-1.073247419004776,-0.13497857749462128,1.5421098905750732,1.1915040016174316,-0.3897746245013636,0.17951293289661407,-0.05348733440041542,-0.03391285985708237,-0.03797183185815811,-0.15244722366333008,-0.17304082214832306,0.4351442754268646,-1.339570164680481,-0.6975488662719727,-0.49754244089126587,-0.4224303662776947,-0.29144901037216187
1749056880.4430003,1.047940969467163,-1.0734441143325348,-0.1351228654384613,1.5419296461292724,1.1909111738204956,-0.3905246893512171,0.18243283033370972,-0.05502312257885933,-0.03505094349384308,-0.03926790878176689,-0.16136528551578522,-0.17937138676643372,0.45852410793304443,-1.3250430822372437,-0.7110833525657654,-0.4895089268684387,-0.42838650941848755,-0.253917396068573
1749056880.4430697,1.0482819080352783,-1.0735797745040436,-0.13518664240837097,1.5418731409260253,1.1905641555786133,-0.39088422456850225,0.18318739533424377,-0.05584817752242088,-0.034347280859947205,-0.0392310731112957,-0.16243211925029755,-0.17877055704593658,0.45611315965652466,-1.3339844942092896,-0.6949647068977356,-0.4845099151134491,-0.4098438620567322,-0.27312812209129333
1749056880.4431384,1.0486493110656738,-1.0736720722964783,-0.1352391391992569,1.5417849260517578,1.1902055740356445,-0.39126569429506475,0.18676480650901794,-0.05708247423171997,-0.03442094475030899,-0.03922721743583679,-0.16290079057216644,-0.18190144002437592,0.5064201951026917,-1.3785942792892456,-0.7501750588417053,-0.49698835611343384,-0.4407958388328552,-0.2742365598678589
1749056880.4432063,1.0490249395370483,-1.073814020758011,-0.13533064723014832,1.5417012411304931,1.1899043321609497,-0.3916524092303675,0.19456976652145386,-0.060007400810718536,-0.03645988553762436,-0.04012716934084892,-0.1653456687927246,-0.1812388002872467,0.5384102463722229,-1.3918997049331665,-0.7524307370185852,-0.513143002986908,-0.44195300340652466,-0.29049766063690186
1749056880.4432733,1.0494356155395508,-1.0738875728896637,-0.13537122309207916,1.541597529048584,1.1895670890808105,-0.39199620882143194,0.1957934945821762,-0.059972215443849564,-0.03811206296086311,-0.04194355010986328,-0.16639135777950287,-0.1867479383945465,0.39074236154556274,-1.269183874130249,-0.6821902394294739,-0.5178017020225525,-0.3861790895462036,-0.27534088492393494
1749056880.44334,1.0497967004776,-1.0740078848651429,-0.1354507952928543,1.5415329176136474,1.1892167329788208,-0.392310921345846,0.19061440229415894,-0.059546299278736115,-0.036896929144859314,-0.04315093532204628,-0.16403016448020935,-0.18680106103420258,0.484139621257782,-1.2864261865615845,-0.7086780071258545,-0.5028619170188904,-0.4090420603752136,-0.28578662872314453
1749056880.443406,1.0502046346664429,-1.0741616648486634,-0.13553857803344727,1.541464014644287,1.1888805627822876,-0.39276296297182256,0.19202303886413574,-0.0568927600979805,-0.036283135414123535,-0.04417497292160988,-0.16124634444713593,-0.18941721320152283,0.47032928466796875,-1.3204424381256104,-0.7187654972076416,-0.5052592158317566,-0.4646950364112854,-0.2889087498188019
1749056880.443473,1.0506513118743896,-1.0742625159076233,-0.13560667634010315,1.5413808065601806,1.1885327100753784,-0.3931186834918421,0.19606156647205353,-0.05338045582175255,-0.03737430274486542,-0.04488633573055267,-0.16782499849796295,-0.19217726588249207,0.4892066717147827,-1.4065176248550415,-0.723463773727417,-0.5016016364097595,-0.4393375813961029,-0.2591024935245514
1749056880.4435403,1.051016092300415,-1.074386255150177,-0.1356789767742157,1.5412766176411132,1.1882240772247314,-0.39350587526430303,0.19946572184562683,-0.05842113494873047,-0.038299113512039185,-0.04580041766166687,-0.1668735146522522,-0.19521799683570862,0.41949865221977234,-1.3086450099945068,-0.6852181553840637,-0.5182183384895325,-0.4334006905555725,-0.27015507221221924
1749056880.4436066,1.0514591932296753,-1.074490563278534,-0.1357627809047699,1.5411874490925292,1.1879703998565674,-0.3938968817340296,0.19801393151283264,-0.059926893562078476,-0.036818571388721466,-0.046837352216243744,-0.16929945349693298,-0.1962721049785614,0.4190116822719574,-1.2802737951278687,-0.7023897767066956,-0.5157137513160706,-0.4457447826862335,-0.2641913592815399
1749056880.443673,1.0517970323562622,-1.074594722395279,-0.1358385682106018,1.5410725313374023,1.1875721216201782,-0.3942964712726038,0.1986866146326065,-0.05631907656788826,-0.03785325586795807,-0.047769222408533096,-0.1712648868560791,-0.19619742035865784,0.48413628339767456,-1.3845853805541992,-0.7463738918304443,-0.5042902231216431,-0.45658746361732483,-0.2734628915786743
1749056880.44374,1.0522366762161255,-1.0747338992408295,-0.1359153389930725,1.5409797865101318,1.187212347984314,-0.3947256247149866,0.20380628108978271,-0.059902191162109375,-0.039902232587337494,-0.04918554052710533,-0.17459793388843536,-0.19624708592891693,0.5276906490325928,-1.3876287937164307,-0.7133259773254395,-0.4921649694442749,-0.47718673944473267,-0.28522151708602905
1749056880.4438062,1.052679419517517,-1.0748724204352875,-0.13600686192512512,1.5408918100544433,1.1869112253189087,-0.3951018492328089,0.20550884306430817,-0.06323430687189102,-0.04353928938508034,-0.05018649250268936,-0.17995578050613403,-0.196527898311615,0.43236303329467773,-1.2835510969161987,-0.6699523329734802,-0.49271833896636963,-0.4395558536052704,-0.2829356789588928
1749056880.4439697,1.0530333518981934,-1.0749816459468384,-0.13609062135219574,1.5407959657856445,1.1865439414978027,-0.3954880873309534,0.2057313770055771,-0.0616554357111454,-0.04373382776975632,-0.05005456507205963,-0.1818513423204422,-0.1986386924982071,0.4996016025543213,-1.3233697414398193,-0.6671960949897766,-0.49274203181266785,-0.4526330530643463,-0.2997909188270569
1749056880.444412,1.0534251928329468,-1.0751326543143769,-0.13618671894073486,1.540715141887329,1.1861768960952759,-0.3958957831012171,0.20884336531162262,-0.06131618842482567,-0.04164912924170494,-0.050673115998506546,-0.18360286951065063,-0.19876670837402344,0.4885896146297455,-1.362001657485962,-0.6737123131752014,-0.4683952331542969,-0.4463149309158325,-0.3126133680343628
1749056880.490548,1.0538839101791382,-1.075231985454895,-0.13625548779964447,1.5405914026447753,1.1857770681381226,-0.39633399644960576,0.2106674164533615,-0.06244292110204697,-0.04143833369016647,-0.05123668536543846,-0.18417659401893616,-0.20208445191383362,0.44689175486564636,-1.3585484027862549,-0.701160192489624,-0.47316974401474,-0.43315908312797546,-0.3159100413322449
1749056880.4906263,1.0542964935302734,-1.0753720265677948,-0.1363271176815033,1.5404488283344726,1.1854244470596313,-0.3967073599444788,0.212922140955925,-0.06257995963096619,-0.043327122926712036,-0.05210033804178238,-0.1854131668806076,-0.2045850157737732,0.39772313833236694,-1.3079919815063477,-0.6636402606964111,-0.47234439849853516,-0.4434434175491333,-0.2993088364601135
1749056880.490699,1.0547900199890137,-1.075519011621811,-0.1364268660545349,1.5403820711323242,1.1850641965866089,-0.3971446196185511,0.2112739086151123,-0.06129930913448334,-0.0423484742641449,-0.05202072858810425,-0.18867795169353485,-0.20934204757213593,0.451535701751709,-1.330071210861206,-0.65689617395401,-0.4518653154373169,-0.43019506335258484,-0.29324400424957275
1749056880.4907682,1.0552113056182861,-1.0756008487990876,-0.13650742173194885,1.5402511793323974,1.1846678256988525,-0.3975570837603968,0.21102744340896606,-0.06064442917704582,-0.041523244231939316,-0.051974520087242126,-0.18691764771938324,-0.21119312942028046,0.4827955663204193,-1.357025384902954,-0.6760790944099426,-0.45835500955581665,-0.42713481187820435,-0.2819581627845764
1749056880.4908357,1.055649995803833,-1.0757211607745667,-0.1365988403558731,1.5401744085499267,1.1842960119247437,-0.3979762236224573,0.2142125517129898,-0.06298455595970154,-0.04284847900271416,-0.0537528321146965,-0.19062268733978271,-0.2138279676437378,0.4805848300457001,-1.3476938009262085,-0.6631994843482971,-0.45196956396102905,-0.4259999692440033,-0.2554076611995697
1749056880.4909048,1.0560352802276611,-1.0758631986430665,-0.13669101893901825,1.5400544840046386,1.1838964223861694,-0.398414436970846,0.2170383334159851,-0.06400284171104431,-0.042634379118680954,-0.0536191388964653,-0.19478118419647217,-0.21163010597229004,0.4794725775718689,-1.337572455406189,-0.6433316469192505,-0.4244306981563568,-0.41006308794021606,-0.2664376497268677
1749056880.490972,1.0565026998519897,-1.0759917956641694,-0.13675962388515472,1.5399617391773681,1.1834768056869507,-0.3988149801837366,0.22079381346702576,-0.06718514114618301,-0.04227136820554733,-0.051158759742975235,-0.1939963549375534,-0.21553950011730194,0.4768034815788269,-1.3042961359024048,-0.6697490811347961,-0.43851202726364136,-0.4034572243690491,-0.2549404203891754
1749056880.4910395,1.0569429397583008,-1.0761197966388245,-0.13684023916721344,1.5398623186298828,1.18314790725708,-0.3992417494403284,0.22278165817260742,-0.06518198549747467,-0.043240878731012344,-0.04919283464550972,-0.19256730377674103,-0.21332332491874695,0.49582526087760925,-1.3199042081832886,-0.6556329727172852,-0.4407845437526703,-0.4034575819969177,-0.27625980973243713
1749056880.4911065,1.0574134588241577,-1.0762981337359925,-0.136943519115448,1.5397378641315917,1.1827746629714966,-0.3996956984149378,0.22340989112854004,-0.06791429966688156,-0.04341275244951248,-0.04884851723909378,-0.1922038048505783,-0.21584510803222656,0.46406012773513794,-1.3214895725250244,-0.6671555638313293,-0.4489566683769226,-0.4150351881980896,-0.2853074073791504
1749056880.4911752,1.0578503608703613,-1.076395408516266,-0.1370115578174591,1.5396613317677001,1.1823173761367798,-0.4001420179950159,0.22645100951194763,-0.07129963487386703,-0.043103549629449844,-0.04974910989403725,-0.1902211457490921,-0.2203836739063263,0.4431006908416748,-1.2952038049697876,-0.6655455231666565,-0.4326435327529907,-0.4223560690879822,-0.27063316106796265
1749056880.4912415,1.0582683086395264,-1.076541469698288,-0.1371271014213562,1.539564772243164,1.1819442510604858,-0.4005048910724085,0.22863717377185822,-0.06930023431777954,-0.042942970991134644,-0.04990439489483833,-0.1918339878320694,-0.22357815504074097,0.4972683787345886,-1.2976332902908325,-0.6699396371841431,-0.4239964783191681,-0.46946704387664795,-0.25971871614456177
1749056880.491308,1.0587095022201538,-1.0766780835441132,-0.13719560205936432,1.539484663600586,1.1815409660339355,-0.40106422105898076,0.23275721073150635,-0.07004981487989426,-0.04324241727590561,-0.04799431934952736,-0.19214770197868347,-0.22592073678970337,0.48910483717918396,-1.3313934803009033,-0.6809954047203064,-0.4613301455974579,-0.44746458530426025,-0.2575419545173645
1749056880.4913738,1.0592260360717773,-1.0768137139132996,-0.13725194334983826,1.5393528181263427,1.1812037229537964,-0.40151960054506475,0.23494400084018707,-0.07065675407648087,-0.043728914111852646,-0.04764380306005478,-0.19491422176361084,-0.22692787647247314,0.41235142946243286,-1.2557650804519653,-0.6664156913757324,-0.4479159712791443,-0.46565115451812744,-0.23595716059207916
1749056880.4914398,1.0596524477005005,-1.0769346815398713,-0.13733944296836853,1.5392762857624511,1.1807498931884766,-0.40193158784975225,0.23411250114440918,-0.06967855989933014,-0.04334929585456848,-0.049139354377985,-0.19955863058567047,-0.2250068038702011,0.4181309938430786,-1.293246865272522,-0.6855642795562744,-0.4646003544330597,-0.4411332607269287,-0.23853358626365662
1749056880.4915056,1.0601580142974854,-1.0770943027785798,-0.1374322772026062,1.5391763883778076,1.1803816556930542,-0.4024089018451136,0.23285427689552307,-0.06686301529407501,-0.04292754456400871,-0.049372073262929916,-0.2006503790616989,-0.22376243770122528,0.5150189399719238,-1.4000951051712036,-0.700299084186554,-0.4497450590133667,-0.4585198760032654,-0.2786927819252014
1749056880.4915712,1.0606229305267334,-1.0772328537753602,-0.13753560185432434,1.539064570064209,1.180027723312378,-0.40278512636293584,0.23613455891609192,-0.07030928879976273,-0.04392087459564209,-0.04882514104247093,-0.20358476042747498,-0.2216106802225113,0.4772584140300751,-1.319789171218872,-0.6838036775588989,-0.4714908003807068,-0.44368240237236023,-0.29235199093818665
1749056880.4916365,1.0610947608947754,-1.0773921769908448,-0.13763131201267242,1.5389806467243652,1.1795934438705444,-0.4032514731036585,0.2390512377023697,-0.07003641873598099,-0.044691745191812515,-0.046773165464401245,-0.20397545397281647,-0.22521822154521942,0.515406608581543,-1.3190354108810425,-0.6879314184188843,-0.4987720847129822,-0.465383917093277,-0.32377588748931885
1749056880.4917016,1.0615657567977905,-1.0775006276420136,-0.13769978284835815,1.538860483760498,1.1791881322860718,-0.4037287870990198,0.24016056954860687,-0.0693691074848175,-0.04606129974126816,-0.0473986379802227,-0.2048947811126709,-0.22862085700035095,0.48647540807724,-1.2974916696548462,-0.674226701259613,-0.4926004111766815,-0.45428043603897095,-0.29659754037857056
1749056880.4917674,1.062056064605713,-1.0776604276946564,-0.13779617846012115,1.538764162654541,1.1787139177322388,-0.40418893495668584,0.242962047457695,-0.06946034729480743,-0.046084169298410416,-0.04894839972257614,-0.203216552734375,-0.2338704764842987,0.5069570541381836,-1.3678414821624756,-0.6987258791923523,-0.49551284313201904,-0.49519267678260803,-0.31848248839378357
1749056880.491832,1.0625478029251099,-1.0777610701373597,-0.13790768384933472,1.5386995512196044,1.178336262702942,-0.4046719709979456,0.24283470213413239,-0.0707700103521347,-0.04765184968709946,-0.04886450245976448,-0.20537178218364716,-0.2373109608888626,0.4706816077232361,-1.317667007446289,-0.6617261171340942,-0.5034564733505249,-0.49299535155296326,-0.28036871552467346
1749056880.4918997,1.0630197525024414,-1.0778813821128388,-0.13798825442790985,1.5385758119770507,1.177892804145813,-0.40516978899110967,0.24447092413902283,-0.07142864167690277,-0.0484364852309227,-0.050352342426776886,-0.21114976704120636,-0.24161699414253235,0.47491323947906494,-1.3179560899734497,-0.6668303608894348,-0.51422119140625,-0.44905930757522583,-0.25284650921821594
1749056880.4919643,1.063499927520752,-1.078107402925827,-0.13808771967887878,1.538475676173828,1.1774885654449463,-0.4056304136859339,0.24651913344860077,-0.06985757499933243,-0.04664979130029678,-0.0505426749587059,-0.21263280510902405,-0.23692646622657776,0.48134279251098633,-1.3280832767486572,-0.6741737127304077,-0.5167964696884155,-0.4473740756511688,-0.28137117624282837
1749056880.4921331,1.0640226602554321,-1.0782305759242554,-0.13819923996925354,1.5383829313465576,1.1769856214523315,-0.4060934225665491,0.2509613633155823,-0.07074037194252014,-0.04584822803735733,-0.05127725377678871,-0.22133274376392365,-0.23896688222885132,0.48891255259513855,-1.3564372062683105,-0.6990636587142944,-0.5181050300598145,-0.41520190238952637,-0.2908676266670227
1749056880.4924107,1.0645262002944946,-1.0784017604640503,-0.13826072216033936,1.5382866102406005,1.1765811443328857,-0.40655690828432256,0.25307390093803406,-0.07272230088710785,-0.04912262782454491,-0.05208316817879677,-0.22187404334545135,-0.24164482951164246,0.46453598141670227,-1.3099884986877441,-0.6574375629425049,-0.5325027704238892,-0.3915822505950928,-0.31093257665634155
1749056880.5345047,1.0650076866149902,-1.078535721903183,-0.1383686363697052,1.5381592947193603,1.1761337518692017,-0.40710956255068,0.2535483241081238,-0.07296917587518692,-0.04782339185476303,-0.053634289652109146,-0.22314238548278809,-0.2478935718536377,0.4188934862613678,-1.3508470058441162,-0.6757838129997253,-0.5195049047470093,-0.37647613883018494,-0.28140318393707275
1749056880.534581,1.0655122995376587,-1.0786627394011994,-0.13846494257450104,1.538055105800293,1.175705075263977,-0.4076131025897425,0.253106951713562,-0.07525786012411118,-0.0480625182390213,-0.05531187728047371,-0.21972161531448364,-0.25395137071609497,0.5352803468704224,-1.348200798034668,-0.6880192756652832,-0.5297340750694275,-0.39377444982528687,-0.25471845269203186
1749056880.5346508,1.0660189390182495,-1.0788183969310303,-0.13856810331344604,1.537954254741333,1.1752245426177979,-0.4081042448626917,0.2581248879432678,-0.07754633575677872,-0.04914670065045357,-0.05657045915722847,-0.2172754555940628,-0.25732412934303284,0.5325806736946106,-1.2516535520553589,-0.6709347367286682,-0.5199242830276489,-0.40373897552490234,-0.21449042856693268
1749056880.5347195,1.0665383338928223,-1.0789364737323304,-0.13864484429359436,1.5378224092670898,1.1748636960983276,-0.4085963408099573,0.262002557516098,-0.07645457983016968,-0.04969456046819687,-0.05745464563369751,-0.2155134528875351,-0.25636187195777893,0.47956371307373047,-1.2799904346466064,-0.6683311462402344,-0.5322248935699463,-0.3965541422367096,-0.2131827175617218
1749056880.5347881,1.0670872926712036,-1.0791000586799164,-0.13873621821403503,1.5377141672321777,1.1744282245635986,-0.40911895433534795,0.262065052986145,-0.07704807817935944,-0.048869162797927856,-0.058686841279268265,-0.2166213095188141,-0.2511647045612335,0.4713726043701172,-1.2798097133636475,-0.6732279062271118,-0.5274518132209778,-0.44805213809013367,-0.23585692048072815
1749056880.5348556,1.0670872926712036,-1.0791000586799164,-0.13873621821403503,1.5377141672321777,1.1744282245635986,-0.40911895433534795,0.262065052986145,-0.07704807817935944,-0.048869162797927856,-0.058686841279268265,-0.2166213095188141,-0.2511647045612335,0.4713726043701172,-1.2798097133636475,-0.6732279062271118,-0.5274518132209778,-0.44805213809013367,-0.23585692048072815
1749056880.534922,1.0680835247039795,-1.0793774288943787,-0.13893693685531616,1.5374900537678222,1.1734932661056519,-0.41009742418398076,0.2638661861419678,-0.07684535533189774,-0.048631809651851654,-0.05967705696821213,-0.22617249190807343,-0.249544158577919,0.4978850185871124,-1.3354703187942505,-0.710949182510376,-0.5293026566505432,-0.45274996757507324,-0.3139447569847107
1749056880.5349903,1.0686805248260498,-1.079556481247284,-0.1390208601951599,1.5373501020618896,1.173040747642517,-0.41060001054872686,0.26438018679618835,-0.07726733386516571,-0.050701018422842026,-0.061797019094228745,-0.2303158938884735,-0.2503211796283722,0.5034272074699402,-1.2998501062393188,-0.6859034895896912,-0.5075114965438843,-0.40682968497276306,-0.31091931462287903
1749056880.5350578,1.0691701173782349,-1.0797394973090668,-0.13914428651332855,1.537252588863037,1.1725810766220093,-0.41114598909486944,0.2667591869831085,-0.07605069875717163,-0.05123385041952133,-0.0633649230003357,-0.2316465824842453,-0.25632408261299133,0.5439624190330505,-1.3288600444793701,-0.6919834017753601,-0.5215834975242615,-0.3988650143146515,-0.30162420868873596
1749056880.5351238,1.0697110891342163,-1.079852656727173,-0.13924896717071533,1.5371171671101074,1.172113299369812,-0.41164952913393194,0.27056625485420227,-0.0750894844532013,-0.051185738295316696,-0.06419075280427933,-0.22871603071689606,-0.2584298849105835,0.6322268843650818,-1.439548134803772,-0.721079409122467,-0.5020700693130493,-0.46183711290359497,-0.30914506316185
1749056880.5351906,1.0702852010726929,-1.0800127548030396,-0.1393333524465561,1.5369812685200195,1.1716150045394897,-0.41218835512270147,0.2769239544868469,-0.08015014231204987,-0.05424511805176735,-0.06535626202821732,-0.22886912524700165,-0.26301056146621704,0.4472794532775879,-1.323606252670288,-0.6771166920661926,-0.4692290425300598,-0.4549480974674225,-0.2725379765033722
1749056880.5352578,1.0708260536193848,-1.0801581305316468,-0.13943760097026825,1.5368684965321044,1.1711418628692627,-0.4127152601825159,0.27323758602142334,-0.07617129385471344,-0.05235566198825836,-0.06677564233541489,-0.2281961888074875,-0.25811296701431274,0.47779637575149536,-1.3405587673187256,-0.6653116941452026,-0.4778136610984802,-0.4409380853176117,-0.30983269214630127
1749056880.5353227,1.071401596069336,-1.0803087812713166,-0.13955628871917725,1.5367323595234375,1.1706775426864624,-0.41323739687074834,0.27322807908058167,-0.07430130243301392,-0.05016803368926048,-0.06770599633455276,-0.23183372616767883,-0.2602444589138031,0.4951178729534149,-1.3695659637451172,-0.6897232532501221,-0.48315370082855225,-0.4425845742225647,-0.3137545883655548
1749056880.5353887,1.071882724761963,-1.0804842871478577,-0.13968020677566528,1.5365966993519287,1.1701698303222656,-0.41375619569887334,0.27649322152137756,-0.07721848785877228,-0.050383832305669785,-0.06802584230899811,-0.23452483117580414,-0.2623620927333832,0.526901125907898,-1.3942264318466187,-0.71780925989151,-0.4676540493965149,-0.44738176465034485,-0.34990155696868896
1749056880.5354548,1.0724375247955322,-1.080621288423874,-0.1397535353899002,1.536432905788086,1.1697521209716797,-0.41430694261659795,0.28024473786354065,-0.07590813934803009,-0.05383749306201935,-0.06738252192735672,-0.2416178286075592,-0.27069729566574097,0.5577275156974792,-1.4244937896728516,-0.7184527516365051,-0.455750972032547,-0.4021458625793457,-0.3326994776725769
1749056880.5355213,1.0730372667312622,-1.0808049601367493,-0.13988082110881805,1.5363318163105468,1.169236183166504,-0.4148786703692835,0.2854245901107788,-0.07966281473636627,-0.0559614859521389,-0.06625054031610489,-0.24529783427715302,-0.27672699093818665,0.499906063079834,-1.4023878574371338,-0.6669574975967407,-0.44969576597213745,-0.3682171106338501,-0.28653594851493835
1749056880.5355885,1.0735470056533813,-1.0809682470611115,-0.1399536430835724,1.5361909109302978,1.1687612533569336,-0.4154308477984827,0.2817685008049011,-0.08071280270814896,-0.053216319531202316,-0.06734174489974976,-0.2450828105211258,-0.2782244086265564,0.5594558119773865,-1.3893158435821533,-0.7091531157493591,-0.4572755694389343,-0.3817650377750397,-0.25253498554229736
1749056880.5356555,1.0741488933563232,-1.0811174374869843,-0.14004972577095032,1.5360588270374755,1.1682884693145752,-0.41600114503969365,0.28591781854629517,-0.08189483731985092,-0.05380447208881378,-0.06906656920909882,-0.24218973517417908,-0.2752179205417633,0.5706127285957336,-1.3694181442260742,-0.7026692628860474,-0.43067675828933716,-0.40853410959243774,-0.2558341920375824
1749056880.535722,1.0746816396713257,-1.0813164871982117,-0.1401580423116684,1.535907192821167,1.1678086519241333,-0.41655189195741826,0.29071202874183655,-0.08376976102590561,-0.056118644773960114,-0.06846269965171814,-0.23752234876155853,-0.2709190845489502,0.4861096441745758,-1.3829545974731445,-0.7024487257003784,-0.4289935529232025,-0.4341219663619995,-0.2856987714767456
1749056880.5357893,1.0752745866775513,-1.0814415377429505,-0.1403011977672577,1.5357865530201416,1.1673126220703125,-0.4170640150653284,0.29202166199684143,-0.08513542264699936,-0.05550521984696388,-0.06457898765802383,-0.24107888340950012,-0.2708413302898407,0.465402752161026,-1.3317500352859497,-0.6811124086380005,-0.43782395124435425,-0.4311283826828003,-0.30870965123176575
1749056880.535954,1.0758532285690308,-1.0816490811160584,-0.14037787914276123,1.5356432634541015,1.1668554544448853,-0.41759044328798467,0.28915855288505554,-0.08439244329929352,-0.052810169756412506,-0.06299421936273575,-0.24088139832019806,-0.27006930112838745,0.49221721291542053,-1.339432954788208,-0.7067038416862488,-0.46810078620910645,-0.45752596855163574,-0.35016927123069763
1749056880.5364244,1.0764687061309814,-1.081802175646164,-0.1405014544725418,1.535545750255249,1.166330337524414,-0.4181450049029749,0.29111233353614807,-0.08405297249555588,-0.05474886670708656,-0.0629587396979332,-0.2445649951696396,-0.2755596339702606,0.53984534740448,-1.338032603263855,-0.7167421579360962,-0.4586184620857239,-0.4708626866340637,-0.35099801421165466
1749056880.578504,1.077074646949768,-1.0820012253573914,-0.1405976265668869,1.535398169154785,1.1658523082733154,-0.41874629655946904,0.294531911611557,-0.0840863436460495,-0.054990004748106,-0.06214229762554169,-0.24695338308811188,-0.2799578607082367,0.5638220310211182,-1.3559538125991821,-0.7221906185150146,-0.46898943185806274,-0.4546743929386139,-0.321519136428833
1749056880.5785813,1.0776468515396118,-1.0821347695640107,-0.14071771502494812,1.5352808672138671,1.1653722524642944,-0.419286076222555,0.29601359367370605,-0.08479468524456024,-0.05543689802289009,-0.06297805905342102,-0.24969227612018585,-0.28456512093544006,0.5416247844696045,-1.372324824333191,-0.7063277363777161,-0.47139227390289307,-0.4536806344985962,-0.31978148221969604
1749056880.5786514,1.0782089233398438,-1.082314984207489,-0.1408221423625946,1.5351697641560058,1.164888858795166,-0.419837776814596,0.2973032295703888,-0.08484755456447601,-0.05724036321043968,-0.06387607008218765,-0.250947505235672,-0.2829837501049042,0.5173802375793457,-1.365281343460083,-0.6952853798866272,-0.46659350395202637,-0.44276565313339233,-0.3358421325683594
1749056880.5787215,1.0788248777389526,-1.0825176698020478,-0.14096148312091827,1.5350724893757324,1.1643069982528687,-0.42041236559023076,0.30048540234565735,-0.08807636797428131,-0.05690963566303253,-0.06114117428660393,-0.2508946657180786,-0.28486186265945435,0.5319798588752747,-1.3440232276916504,-0.7163909077644348,-0.49277040362358093,-0.4654720723628998,-0.3546966016292572
1749056880.578791,1.0794438123703003,-1.0827014607242127,-0.14105437695980072,1.5349480348774414,1.1638383865356445,-0.42096454301943,0.30147749185562134,-0.0855744332075119,-0.05752810835838318,-0.059300921857357025,-0.2567192614078522,-0.2906947731971741,0.5459583401679993,-1.3660598993301392,-0.6979485750198364,-0.500377893447876,-0.47965115308761597,-0.3680570721626282
1749056880.5788605,1.0800975561141968,-1.0828586977771302,-0.1411704570055008,1.5348049837299804,1.1632914543151855,-0.421605412160055,0.30491477251052856,-0.08632978796958923,-0.05855664983391762,-0.06069808825850487,-0.2554172873497009,-0.29904505610466003,0.4655214250087738,-1.3633320331573486,-0.6884973049163818,-0.5193942785263062,-0.48513805866241455,-0.28731629252433777
1749056880.5789306,1.0806976556777954,-1.0830613535693665,-0.14129789173603058,1.5346728998371582,1.162791132926941,-0.4222367445575159,0.3044460713863373,-0.08850891143083572,-0.058710068464279175,-0.06348370760679245,-0.26169249415397644,-0.30216097831726074,0.4725722372531891,-1.3285436630249023,-0.6978437304496765,-0.5289517045021057,-0.44388121366500854,-0.24224050343036652
1749056880.5789983,1.0813076496124268,-1.083203212623932,-0.14139877259731293,1.5345486837574462,1.1622520685195923,-0.4228299299823206,0.30292293429374695,-0.08568823337554932,-0.05868839845061302,-0.06516318023204803,-0.2621825635433197,-0.2968304753303528,0.497259259223938,-1.3552018404006958,-0.6863743662834167,-0.5168206095695496,-0.4536910951137543,-0.2782679796218872
1749056880.579067,1.0818991661071777,-1.0833906096271058,-0.1415260136127472,1.534439964885376,1.1617437601089478,-0.42342931429018194,0.3056563436985016,-0.08708006143569946,-0.058658525347709656,-0.06686659157276154,-0.2612609565258026,-0.29219022393226624,0.5489339232444763,-1.3804140090942383,-0.7061886787414551,-0.51273512840271,-0.45385491847991943,-0.3005822002887726
1749056880.5791335,1.0825309753417969,-1.08360909045253,-0.14164619147777557,1.5342880922504882,1.1612306833267212,-0.4239919821368616,0.3107546865940094,-0.08844071626663208,-0.05939345806837082,-0.06762337684631348,-0.26355141401290894,-0.2917056679725647,0.45749542117118835,-1.340509057044983,-0.6920718550682068,-0.51973557472229,-0.4291498363018036,-0.31973138451576233
1749056880.5792,1.083190679550171,-1.0837664765170594,-0.14177444577217102,1.5341598230549316,1.1606870889663696,-0.4245560804950159,0.3080716133117676,-0.08928313851356506,-0.05964115262031555,-0.06802923232316971,-0.26313742995262146,-0.29181864857673645,0.4531138241291046,-1.3427064418792725,-0.679518461227417,-0.5258485078811646,-0.4809507131576538,-0.3531743586063385
1749056880.579267,1.0837913751602173,-1.08394609511409,-0.14190998673439026,1.5340234476276855,1.160191535949707,-0.4251154104815882,0.3082003593444824,-0.09056146442890167,-0.05984729528427124,-0.0687815397977829,-0.2645464241504669,-0.2969045341014862,0.42678335309028625,-1.2779128551483154,-0.6634611487388611,-0.5044780373573303,-0.4388410449028015,-0.3280055522918701
1749056880.5793328,1.0844507217407227,-1.0841074150851746,-0.14199525117874146,1.5338794428059082,1.1596170663833618,-0.4257853666888636,0.30932825803756714,-0.08925200253725052,-0.05898048356175423,-0.0711500495672226,-0.2667502164840698,-0.3008609116077423,0.51958167552948,-1.337821125984192,-0.6925266981124878,-0.5149955153465271,-0.43605828285217285,-0.3276256322860718
1749056880.5793993,1.0850743055343628,-1.0843191009810944,-0.14212271571159363,1.5337623792835693,1.159061312675476,-0.426399056111471,0.31128618121147156,-0.09423168003559113,-0.05824132636189461,-0.07343528419733047,-0.27133500576019287,-0.3027123808860779,0.497114896774292,-1.2544885873794556,-0.691234827041626,-0.503828763961792,-0.422956645488739,-0.2815806567668915
1749056880.5794663,1.0856791734695435,-1.0845148426345368,-0.1422622948884964,1.533618374461792,1.1585476398468018,-0.4269526640521448,0.31619498133659363,-0.09172656387090683,-0.05818928778171539,-0.07527478784322739,-0.27360963821411133,-0.3012354075908661,0.4130735397338867,-1.2692012786865234,-0.7079063653945923,-0.4808850884437561,-0.4007880687713623,-0.3284553289413452
1749056880.5795321,1.086327075958252,-1.0847071570209046,-0.14236634969711304,1.5334619718739013,1.1579763889312744,-0.4275863806353968,0.3112950026988983,-0.09591358155012131,-0.061687570065259933,-0.075658418238163,-0.2705669701099396,-0.3016362190246582,0.3973546326160431,-1.2211872339248657,-0.6781356930732727,-0.47273552417755127,-0.40663859248161316,-0.3232654929161072
1749056880.5795982,1.086992859840393,-1.0848943156054993,-0.1424865424633026,1.5333019930073242,1.1574797630310059,-0.42817432085146123,0.30634912848472595,-0.08955641090869904,-0.057459160685539246,-0.07585250586271286,-0.2686755359172821,-0.3058795630931854,0.4683760702610016,-1.2912681102752686,-0.680741548538208,-0.4639512598514557,-0.4054378271102905,-0.2904816269874573
1749056880.5796638,1.0876184701919556,-1.0850480657866974,-0.14259950816631317,1.5331460672565917,1.15688955783844,-0.4287813345538538,0.3118603229522705,-0.08776464313268661,-0.05676142871379852,-0.07657484710216522,-0.2694772779941559,-0.3096863329410553,0.4577777683734894,-1.3087388277053833,-0.7061611413955688,-0.46692314743995667,-0.4204738438129425,-0.2688560485839844
1749056880.5797284,1.0882577896118164,-1.0852248531631012,-0.14271105825901031,1.5330051618763427,1.1563390493392944,-0.42945796648134404,0.3135073184967041,-0.08868175745010376,-0.0599481575191021,-0.07657148689031601,-0.2685130536556244,-0.30860933661460876,0.4613269865512848,-1.359510898590088,-0.7070416212081909,-0.43840473890304565,-0.44857412576675415,-0.2550966441631317
1749056880.579794,1.0888622999191284,-1.0854135614684601,-0.14283955097198486,1.5328575807758789,1.1558339595794678,-0.430094067250387,0.3117767572402954,-0.09056022018194199,-0.06199835613369942,-0.07191747426986694,-0.2729698419570923,-0.30631470680236816,0.40056443214416504,-1.29637610912323,-0.6556825041770935,-0.4660545885562897,-0.4064418077468872,-0.2318142205476761
1749056880.5799565,1.0895096063613892,-1.0856162172606965,-0.14297522604465485,1.5326930719562988,1.1552621126174927,-0.4306109587298792,0.3133822977542877,-0.08939716964960098,-0.06024198234081268,-0.07077278196811676,-0.272441029548645,-0.3032568395137787,0.4473564028739929,-1.3168044090270996,-0.6806131601333618,-0.48343780636787415,-0.40872079133987427,-0.2746567726135254
1749056880.580451,1.0901178121566772,-1.0858049255660553,-0.14312312006950378,1.5325447756000976,1.1547297239303589,-0.4312632719623011,0.3121398389339447,-0.09047452360391617,-0.06176263093948364,-0.07085257023572922,-0.2698207199573517,-0.30057215690612793,0.4244462847709656,-1.2913830280303955,-0.6604114770889282,-0.46429479122161865,-0.37562131881713867,-0.3134446144104004
1749056880.6225064,1.0907254219055176,-1.0860074621490021,-0.14323964715003967,1.532428427333496,1.1542223691940308,-0.4318435827838343,0.31593969464302063,-0.0911453366279602,-0.06249628961086273,-0.07052982598543167,-0.27066323161125183,-0.30293023586273193,0.397771954536438,-1.2782673835754395,-0.6403473615646362,-0.45591384172439575,-0.3677689731121063,-0.3125384747982025
1749056880.6225827,1.091376543045044,-1.086125598554947,-0.143390953540802,1.5322682100483398,1.1536701917648315,-0.4324691931353968,0.3133125603199005,-0.09074798226356506,-0.06267330050468445,-0.0707518607378006,-0.2648353576660156,-0.3045275807380676,0.3799610435962677,-1.253737449645996,-0.6038884520530701,-0.4616621136665344,-0.43680837750434875,-0.2819264829158783
1749056880.622654,1.091965675354004,-1.0862988990596314,-0.1434917151927948,1.5321525770374755,1.1531505584716797,-0.43307334581484014,0.3117169439792633,-0.09026748687028885,-0.061729807406663895,-0.06870609521865845,-0.2632719874382019,-0.30566170811653137,0.40899407863616943,-1.2938865423202515,-0.6169675588607788,-0.4678157567977905,-0.4405395984649658,-0.28172364830970764
1749056880.6227212,1.0926088094711304,-1.0865135949901124,-0.14360828697681427,1.5320233541676025,1.1526176929473877,-0.43366700807680303,0.31197628378868103,-0.09091775864362717,-0.06015973538160324,-0.06649831682443619,-0.266801655292511,-0.3002908527851105,0.4166969060897827,-1.2488806247711182,-0.6285502314567566,-0.4910787045955658,-0.4435774087905884,-0.33057835698127747
1749056880.6227882,1.0932526588439941,-1.086709128027298,-0.1437126249074936,1.5318912702747802,1.1520549058914185,-0.4342311064349573,0.31522324681282043,-0.08982294797897339,-0.059561192989349365,-0.06493537873029709,-0.2679484188556671,-0.30200567841529846,0.4088778793811798,-1.2848930358886719,-0.63381427526474,-0.5002396106719971,-0.44402989745140076,-0.30563849210739136
1749056880.6228566,1.09382164478302,-1.086873398428299,-0.14386418461799622,1.5317868429371337,1.1515390872955322,-0.4348338286029261,0.3119340240955353,-0.09401275217533112,-0.05958527326583862,-0.0652494877576828,-0.2689233124256134,-0.3054884970188141,0.4048449695110321,-1.1787863969802856,-0.6253629326820374,-0.5128346681594849,-0.4348829984664917,-0.3336109519004822
1749056880.622926,1.094508171081543,-1.087089405660965,-0.14395302534103394,1.5316385465809326,1.1510112285614014,-0.43546849886049444,0.31337353587150574,-0.09153751283884048,-0.06068471446633339,-0.06380947679281235,-0.2678264081478119,-0.31101885437965393,0.5232288837432861,-1.2808655500411987,-0.6655144095420837,-0.5219131708145142,-0.4611113965511322,-0.29408854246139526
1749056880.6229942,1.0951049327850342,-1.087288574581482,-0.1441078633069992,1.5314954954334716,1.1504592895507812,-0.43609935442079717,0.3176611065864563,-0.09580057859420776,-0.06213882192969322,-0.06447028368711472,-0.2674815058708191,-0.3146091103553772,0.4140473008155823,-1.2144337892532349,-0.597808837890625,-0.5321633815765381,-0.44953611493110657,-0.23759008944034576
1749056880.6230607,1.0956897735595703,-1.087445006971695,-0.14420047402381897,1.5313665109821777,1.1499420404434204,-0.4366863409625452,0.3168472349643707,-0.0894458144903183,-0.05911031737923622,-0.06663685292005539,-0.27253761887550354,-0.3146841526031494,0.3666824698448181,-1.2563142776489258,-0.6336754560470581,-0.5375166535377502,-0.4368451237678528,-0.21943265199661255
1749056880.6231277,1.0963940620422363,-1.087630258207657,-0.1443168669939041,1.5312344270893554,1.1494226455688477,-0.4373367468463343,0.3150756061077118,-0.08988232165575027,-0.059178777039051056,-0.06760367751121521,-0.2736159563064575,-0.3064069151878357,0.41683968901634216,-1.256191611289978,-0.64892578125,-0.5266837477684021,-0.45045825839042664,-0.25051355361938477
1749056880.6231945,1.0969951152801514,-1.0878034693053742,-0.1444212794303894,1.5310978132435302,1.1488242149353027,-0.43794566789735967,0.3110200762748718,-0.08999768644571304,-0.059180352836847305,-0.06864221394062042,-0.27511659264564514,-0.30267801880836487,0.4608007073402405,-1.268602967262268,-0.6366956830024719,-0.5268321633338928,-0.42393672466278076,-0.2701133191585541
1749056880.6232607,1.0976078510284424,-1.0879984659007569,-0.14452920854091644,1.5309497553059082,1.1483032703399658,-0.4385760466205042,0.3159066140651703,-0.09125765413045883,-0.05907173827290535,-0.06989488750696182,-0.27447986602783203,-0.3027394115924835,0.5121663808822632,-1.2856825590133667,-0.6446663737297058,-0.5167325139045715,-0.44277846813201904,-0.31683969497680664
1749056880.623328,1.0982823371887207,-1.0881976944259186,-0.1446685492992401,1.5308019357868652,1.1477476358413696,-0.4391673246966761,0.31958359479904175,-0.08956104516983032,-0.058954447507858276,-0.07208189368247986,-0.27001556754112244,-0.30557820200920105,0.39560070633888245,-1.2565935850143433,-0.6448477506637573,-0.5056033730506897,-0.41951611638069153,-0.276028037071228
1749056880.6233945,1.0988707542419434,-1.0883318048766633,-0.1447886973619461,1.5306264597126464,1.1472398042678833,-0.4397652784930628,0.31543266773223877,-0.0912356972694397,-0.060134388506412506,-0.07402738183736801,-0.26900380849838257,-0.3066196143627167,0.38837891817092896,-1.2761290073394775,-0.623255729675293,-0.49623140692710876,-0.42768844962120056,-0.2712174952030182
1749056880.623462,1.0994700193405151,-1.0885037046721955,-0.14491243660449982,1.5305098730274658,1.1466871500015259,-0.44036895433534795,0.3117065131664276,-0.08666830509901047,-0.059927280992269516,-0.07529830187559128,-0.26359519362449646,-0.3017616271972656,0.5103754997253418,-1.2803974151611328,-0.6294167637825012,-0.4899238348007202,-0.4849153459072113,-0.2810048460960388
1749056880.6235278,1.100122094154358,-1.0887454611114045,-0.14502879977226257,1.530334396953247,1.146151065826416,-0.4409993330584925,0.31624069809913635,-0.08722671866416931,-0.059872522950172424,-0.07495149224996567,-0.2667493522167206,-0.30191075801849365,0.47547832131385803,-1.3173344135284424,-0.6375901699066162,-0.48030203580856323,-0.4604582190513611,-0.29787570238113403
1749056880.6235929,1.1007870435714722,-1.0889187914184113,-0.14513345062732697,1.530181570644043,1.145615577697754,-0.4415701071368616,0.31835755705833435,-0.09148714691400528,-0.05954193323850632,-0.07695507258176804,-0.27296391129493713,-0.30333489179611206,0.45886507630348206,-1.283709168434143,-0.6407613158226013,-0.46369218826293945,-0.4755318760871887,-0.29780757427215576
1749056880.6236598,1.1013916730880737,-1.0890592199615021,-0.1452568769454956,1.5300442415424804,1.1450917720794678,-0.4422076384173792,0.31891775131225586,-0.0902969166636467,-0.06036604568362236,-0.07738601416349411,-0.2772386372089386,-0.30663493275642395,0.3884141147136688,-1.2819873094558716,-0.6180080771446228,-0.42207959294319153,-0.43707019090652466,-0.29415205121040344
1749056880.623726,1.1020424365997314,-1.089310036306717,-0.14539262652397156,1.5298406320759277,1.144515037536621,-0.44282704988588506,0.3181859254837036,-0.09068078547716141,-0.05981836095452309,-0.0761793926358223,-0.2764020562171936,-0.30927592515945435,0.4305298924446106,-1.28205144405365,-0.6440029740333557,-0.4049134850502014,-0.4185984134674072,-0.287984162569046
1749056880.6237917,1.102634072303772,-1.0894435507110138,-0.14550094306468964,1.5297321516224365,1.1439440250396729,-0.44345313707460576,0.31685104966163635,-0.09353376179933548,-0.05846242979168892,-0.07552547007799149,-0.2748962342739105,-0.3065111041069031,0.4380122721195221,-1.251664400100708,-0.6633716821670532,-0.41818204522132874,-0.4265710413455963,-0.2895002067089081
1749056880.623948,1.1033130884170532,-1.0896358352950593,-0.14559803903102875,1.5295633512684326,1.143470048904419,-0.4440215269671839,0.31996139883995056,-0.09447485953569412,-0.058840081095695496,-0.0744694322347641,-0.2723276615142822,-0.3062164783477783,0.37601494789123535,-1.200382947921753,-0.6321316361427307,-0.41383200883865356,-0.44811517000198364,-0.257937490940094
1749056880.624442,1.1039201021194458,-1.0898250204375763,-0.14575287699699402,1.5294193464466552,1.1428927183151245,-0.44468480745424444,0.31733378767967224,-0.09221575409173965,-0.05825851112604141,-0.0727536678314209,-0.2710926830768585,-0.30512192845344543,0.3476701080799103,-1.213954210281372,-0.6548262238502502,-0.40654101967811584,-0.42293864488601685,-0.29326701164245605
1749056880.6703079,1.1045401096343994,-1.0899957877448578,-0.1458611935377121,1.529299183482788,1.142358660697937,-0.44525462785829717,0.3139442503452301,-0.0898442491889,-0.05809561163187027,-0.07326166331768036,-0.27682873606681824,-0.3023615777492523,0.4731142222881317,-1.2791656255722046,-0.6646276116371155,-0.4255853593349457,-0.42257821559906006,-0.315031498670578
1749056880.6703546,1.1045401096343994,-1.0899957877448578,-0.1458611935377121,1.529299183482788,1.142358660697937,-0.44525462785829717,0.3139442503452301,-0.0898442491889,-0.05809561163187027,-0.07326166331768036,-0.27682873606681824,-0.3023615777492523,0.4731142222881317,-1.2791656255722046,-0.6646276116371155,-0.4255853593349457,-0.42257821559906006,-0.315031498670578
1749056880.670395,1.1051794290542603,-1.0901863139918824,-0.14595003426074982,1.5291432577320556,1.1417561769485474,-0.4458964506732386,0.31597062945365906,-0.09055554866790771,-0.058242227882146835,-0.07094216346740723,-0.279805064201355,-0.30229294300079346,0.4692559540271759,-1.2403122186660767,-0.6519087553024292,-0.40048640966415405,-0.3713436722755432,-0.30910754203796387
1749056880.6704338,1.1064454317092896,-1.0905365508845826,-0.1462092101573944,1.5288423734852294,1.140656590461731,-0.44711047807802373,0.3192785978317261,-0.0897102952003479,-0.05847114324569702,-0.06666736304759979,-0.27661949396133423,-0.3024001121520996,0.40296703577041626,-1.2271015644073486,-0.6426266431808472,-0.43839317560195923,-0.32749468088150024,-0.280412495136261
1749056880.6704714,1.1070537567138672,-1.090770499115326,-0.1463066190481186,1.5287412840076904,1.1400927305221558,-0.447728459035055,0.3157021999359131,-0.08852805942296982,-0.058317601680755615,-0.06625331938266754,-0.270023375749588,-0.3035775125026703,0.45035746693611145,-1.2929295301437378,-0.6793762445449829,-0.434531569480896,-0.3597700595855713,-0.28473538160324097
1749056880.6705098,1.1076931953430176,-1.0908964437297364,-0.1464264690876007,1.5285703378864746,1.1395752429962158,-0.4483135382281702,0.315034955739975,-0.08756785839796066,-0.061793290078639984,-0.06353531032800674,-0.2659189999103546,-0.30395185947418213,0.4881024956703186,-1.281617522239685,-0.6223289370536804,-0.43731868267059326,-0.4115818738937378,-0.285179078578949
1749056880.6705475,1.1083259582519531,-1.0910697442344208,-0.14655406773090363,1.5284766393848876,1.1389812231063843,-0.4489496389972132,0.3159365952014923,-0.09076768904924393,-0.05862617492675781,-0.06513241678476334,-0.26564598083496094,-0.30486083030700684,0.4333536922931671,-1.2389235496520996,-0.6376432776451111,-0.439114511013031,-0.4047561287879944,-0.2792201340198517
1749056880.6705856,1.108996033668518,-1.0912367564490815,-0.14668621122837067,1.5283211904713134,1.1385070085525513,-0.4495919386493128,0.31625914573669434,-0.0859881043434143,-0.057616669684648514,-0.06595177948474884,-0.26940178871154785,-0.30408531427383423,0.4052811861038208,-1.3367509841918945,-0.6710768342018127,-0.43802642822265625,-0.40259692072868347,-0.27749842405319214
1749056880.6706228,1.1096160411834717,-1.0914323192885895,-0.14680637419223785,1.5282048422047119,1.1379361152648926,-0.45016462007631475,0.3140020966529846,-0.08985473215579987,-0.05861035734415054,-0.06394379585981369,-0.27034521102905273,-0.30170750617980957,0.445595920085907,-1.312014102935791,-0.6881493330001831,-0.45505329966545105,-0.38536909222602844,-0.26562508940696716
1749056880.6706605,1.1102280616760254,-1.0915971857360383,-0.14694571495056152,1.528092547053955,1.1373893022537231,-0.45078736940492803,0.3150533437728882,-0.08908678591251373,-0.06073109433054924,-0.06272918730974197,-0.2677781581878662,-0.30071231722831726,0.4699085056781769,-1.280846357345581,-0.6276223659515381,-0.45392173528671265,-0.37701669335365295,-0.2905057668685913
1749056880.6706975,1.110897183418274,-1.0918006759933014,-0.14702722430229187,1.5279597479053955,1.1369069814682007,-0.45132762590517217,0.31688156723976135,-0.09054744988679886,-0.057855479419231415,-0.06471717357635498,-0.2646423876285553,-0.2959558367729187,0.45385149121284485,-1.3094037771224976,-0.6728762984275818,-0.4631553888320923,-0.3978614807128906,-0.30144214630126953
1749056880.6707342,1.1115288734436035,-1.091958687906601,-0.14714708924293518,1.527808590526245,1.1363834142684937,-0.45198327699770147,0.31680309772491455,-0.09278349578380585,-0.05902204290032387,-0.06508088856935501,-0.26623210310935974,-0.2978026270866394,0.3788333535194397,-1.2425626516342163,-0.6613912582397461,-0.45840030908584595,-0.3828374147415161,-0.30644169449806213
1749056880.6707714,1.1121692657470703,-1.0921456974795838,-0.14728286862373352,1.5276760297962646,1.1357935667037964,-0.45256311098207647,0.31358155608177185,-0.09215205907821655,-0.05953335016965866,-0.06520017236471176,-0.26397424936294556,-0.30038362741470337,0.45948076248168945,-1.2775300741195679,-0.6724438071250916,-0.46268394589424133,-0.4616307020187378,-0.33371156454086304
1749056880.6708078,1.1128097772598267,-1.092314140205719,-0.14737901091575623,1.5275320249744873,1.135276198387146,-0.45315438905824834,0.31430041790008545,-0.09183763712644577,-0.059229493141174316,-0.06460557878017426,-0.2685776650905609,-0.30108511447906494,0.4729846119880676,-1.265069842338562,-0.6706498265266418,-0.45288658142089844,-0.4194636046886444,-0.3087942600250244
1749056880.6708446,1.1134207248687744,-1.0925183159163971,-0.14748719334602356,1.5274149614521484,1.13469660282135,-0.453775707875387,0.31745895743370056,-0.09577366709709167,-0.05861425772309303,-0.06531548500061035,-0.2719826400279999,-0.30360934138298035,0.43330490589141846,-1.2371249198913574,-0.6845359802246094,-0.46362999081611633,-0.3974316120147705,-0.2832684814929962
1749056880.670881,1.1140693426132202,-1.0926962953856965,-0.14762304723262787,1.5272554594227294,1.1341290473937988,-0.4543660322772425,0.31645315885543823,-0.08973650634288788,-0.05817491188645363,-0.06670277565717697,-0.27119341492652893,-0.3051287829875946,0.33709853887557983,-1.2834750413894653,-0.6817633509635925,-0.44936925172805786,-0.360310435295105,-0.2725169360637665
