nimar13/UR3e_dataset_trayectorias/trayectorias_ejecutadas/trapezoidal_func/trayectoria_021_result.csv
timestamp,q1,q2,q3,q4,q5,q6,qd1,qd2,qd3,qd4,qd5,qd6,tau1,tau2,tau3,tau4,tau5,tau6
1749053880.802371,2.957285165786743,-0.2588687700084229,-1.5220402479171753,-0.12934167802844243,-5.322371784840719,3.6872613430023193,0.0031685924623161554,0.0042715962044894695,-0.010546493344008923,0.0007249804330058396,-0.016915448009967804,0.013573632575571537,0.16939494013786316,-0.9151756763458252,-0.08948059380054474,-0.15251417458057404,0.003510579466819763,0.1266421526670456
1749053880.802424,2.9573092460632324,-0.25886137903247075,-1.5220533609390259,-0.1293230813792725,-5.322396282349722,3.687281608581543,0.002131227869540453,0.0029404209926724434,-0.008800552226603031,0.0006499182200059295,-0.0153130441904068,0.012506062164902687,0.17103499174118042,-0.9053212404251099,-0.06427361816167831,-0.16665227711200714,0.00776982307434082,0.1319541484117508
1749053880.8024645,2.9573092460632324,-0.2588496965220948,-1.5220613479614258,-0.1293230813792725,-5.322451297436849,3.68727445602417,0.0016453448915854096,0.0020868757274001837,-0.006497909314930439,0.0005889080348424613,-0.013936241157352924,0.010939236730337143,0.16463470458984375,-0.9304773807525635,-0.07682565599679947,-0.16143004596233368,0.003195136785507202,0.15447227656841278
1749053880.8025026,2.957305669784546,-0.2588568490794678,-1.5220458507537842,-0.12930782259021,-5.322424952183859,3.6873178482055664,0.00025671979528851807,0.0014221018645912409,-0.003950230777263641,0.0005384269170463085,-0.011970282532274723,0.009373258799314499,0.15760117769241333,-0.9713226556777954,-0.07963012903928757,-0.17558108270168304,0.009898528456687927,0.1420297473669052
1749053880.8025393,2.9573006629943848,-0.2588568490794678,-1.5220613479614258,-0.129338340168335,-5.322426025067465,3.6872878074645996,6.8152075982652605e-06,0.0006494480767287314,-0.0024630760308355093,0.0004959293873980641,-0.010781506076455116,0.0076155285350978374,0.1603924185037613,-0.9680253267288208,-0.07257240265607834,-0.17114193737506866,0.03139840066432953,0.11653347313404083
1749053880.8025796,2.9572741985321045,-0.2588687700084229,-1.5220613479614258,-0.12934167802844243,-5.322507862244741,3.687319040298462,6.649329975516594e-08,0.00017808460688684136,-0.0016930501442402601,0.0004596503567881882,-0.008736778981983662,0.005705486983060837,0.14066538214683533,-0.9502689838409424,-0.06744499504566193,-0.1755431741476059,0.04714934527873993,0.10547305643558502
1749053880.8026178,2.9573163986206055,-0.2588266891292115,-1.5220577716827393,-0.12932641923937993,-5.322550956402914,3.6873693466186523,6.487488879436398e-10,1.4567347534466535e-05,-0.0011328401742503047,0.00042834642226807773,-0.0055250199511647224,0.003929315134882927,0.12765371799468994,-0.9912604093551636,-0.05214347690343857,-0.18078763782978058,0.06947149336338043,0.08167074620723724
1749053880.8026552,2.9572887420654297,-0.25884588182482915,-1.522080898284912,-0.1293538373759766,-5.322485033665792,3.6873226165771484,6.329587028119921e-12,1.421278739144327e-07,-0.0008669404778629541,0.00040103550418280065,-0.003317785682156682,0.0024808747693896294,0.1061260849237442,-1.0041916370391846,-0.04374884441494942,-0.18007822334766388,0.08625264465808868,0.07369077205657959
1749053880.8026927,2.9572741985321045,-0.2588814061931153,-1.5220613479614258,-0.1293230813792725,-5.322488669549124,3.687330961227417,-0.0008241262985393405,1.3866858772360047e-09,-0.0007239585975185037,0.0003769932663999498,-0.002101986901834607,0.0010737627744674683,0.09891089797019958,-1.0302599668502808,-0.03736814856529236,-0.18004514276981354,0.10413572192192078,0.09081564843654633
1749053880.8027425,2.9572815895080566,-0.2588969034007569,-1.5220422744750977,-0.12937255323443608,-5.32247776189913,3.687350034713745,-0.001614498207345605,-0.0027264999225735664,-0.0005637519061565399,0.00035568836028687656,-0.0015673013404011726,0.0002443191478960216,0.10533368587493896,-0.992027759552002,-0.03409149497747421,-0.16444359719753265,0.10818924009799957,0.06782050430774689
1749053880.8027835,2.9572575092315674,-0.25887031972918706,-1.5220422744750977,-0.12932641923937993,-5.322511378918783,3.6873226165771484,-0.0018947632052004337,-0.0027325907722115517,-0.00044182493002153933,0.0003366610035300255,-0.000477868365123868,4.317375714890659e-05,0.11982626467943192,-1.0060665607452393,-0.002395026385784149,-0.196459099650383,0.1221999078989029,0.0629546269774437
1749053880.8028214,2.957280397415161,-0.25885410726580815,-1.5220385789871216,-0.1293230813792725,-5.322445217763082,3.687326192855835,-0.0017384756356477737,-0.0024583004415035248,-0.0003904507611878216,0.00031956128077581525,-8.444436389254406e-05,7.6292562880553305e-06,0.11164039373397827,-1.0265568494796753,-0.01506398618221283,-0.1695968061685562,0.14362676441669464,0.040937840938568115
1749053880.8028584,2.9572887420654297,-0.25888951242480474,-1.5220385789871216,-0.12935729444537358,-5.322452370320455,3.687326192855835,-0.0015334978234022856,-0.0020178211852908134,-0.00027036588289774954,0.00015267757407855242,-1.4922205082257278e-05,-0.00056566356215626,0.11519377678632736,-1.0505839586257935,0.017162121832370758,-0.1763557642698288,0.14572755992412567,0.038972899317741394
1749053880.802898,2.9572887420654297,-0.25887031972918706,-1.5220732688903809,-0.1293230813792725,-5.322467927132742,3.6873226165771484,-0.0013958337949588895,-0.0016128127463161945,6.35477845207788e-05,9.864162711892277e-05,0.0013039044570177794,-0.0022544299717992544,0.10736323148012161,-1.0543125867843628,0.001023225486278534,-0.17706145346164703,0.17057238519191742,0.030742816627025604
1749053880.8029387,2.9572575092315674,-0.25887401521716313,-1.5220733880996704,-0.129338340168335,-5.322421375905172,3.687333583831787,-0.001085586380213499,-0.003080231137573719,0.0002220699388999492,8.578573033446446e-05,0.002377249300479889,-0.0033321359660476446,0.09895569086074829,-1.0810261964797974,0.02395421266555786,-0.178587406873703,0.1690649837255478,0.04640290141105652
1749053880.8029768,2.957249164581299,-0.2589206260493775,-1.5220422744750977,-0.12933488309893804,-5.322455946599142,3.6872832775115967,-0.0013251783093437552,-0.004903879482299089,0.0003236135235056281,8.050099859246984e-05,0.002154318382963538,-0.00357726588845253,0.09898386150598526,-1.048239827156067,0.02208711951971054,-0.180076465010643,0.17016096413135529,0.041627105325460434
1749053880.8030133,2.9571986198425293,-0.2589133542827149,-1.5220661163330078,-0.12935395658526616,-5.3224321643458765,3.687302350997925,-0.0023583699949085712,-0.005284815561026335,0.0007824641070328653,7.680754060856998e-05,0.0018727239221334457,-0.0031358038540929556,0.1070890724658966,-1.042085886001587,0.020435519516468048,-0.15921585261821747,0.17555738985538483,0.028420250862836838
1749053880.8030498,2.9572300910949707,-0.2589133542827149,-1.5220577716827393,-0.129338340168335,-5.3224127928363245,3.687302350997925,-0.002847167430445552,-0.004220040049403906,0.0011428974103182554,7.361760799540207e-05,0.0016313240630552173,-0.002544561866670847,0.09308350086212158,-1.0700922012329102,0.03326050192117691,-0.1659131944179535,0.17919610440731049,0.03673503175377846
1749053880.8030865,2.9572408199310303,-0.2589133542827149,-1.5220732688903809,-0.12931962430987554,-5.322414163743154,3.687286853790283,-0.002694603055715561,-0.00351561582647264,0.0011205821065232158,7.071664731483907e-05,0.0015365590807050467,-0.0021573316771537066,0.11495047062635422,-1.0920733213424683,0.030852891504764557,-0.17860890924930573,0.20221926271915436,0.015248913317918777
1749053880.8031228,2.957228660583496,-0.25889046609912114,-1.5220385789871216,-0.12932641923937993,-5.322406891976492,3.687286853790283,-0.002228609286248684,-0.003209364367648959,0.0010869513498619199,6.804095028201118e-05,0.0014600517461076379,-0.0023205468896776438,0.112123042345047,-1.0845478773117065,0.027457579970359802,-0.16288642585277557,0.2044714242219925,0.014283094555139542
1749053880.8031595,2.9572372436523438,-0.25895996511492925,-1.522025465965271,-0.12934167802844243,-5.322417799626486,3.6873061656951904,-0.0016472666757181287,-0.0033330402802675962,0.0010728428605943918,6.556037988048047e-05,0.001491929986514151,-0.002506967866793275,0.11339710652828217,-1.094107985496521,0.02220766991376877,-0.16447699069976807,0.21544037759304047,0.016671549528837204
1749053880.803196,2.957256317138672,-0.2589060825160523,-1.5220458507537842,-0.12934167802844243,-5.322459642087118,3.687297821044922,-0.0012616384774446487,-0.0034174316097050905,0.0011565614258870482,6.325615686364472e-05,0.001639931695535779,-0.0027785662095993757,0.1212310642004013,-1.1005334854125977,0.02396967262029648,-0.16146324574947357,0.21843759715557098,0.020500268787145615
1749053880.803414,2.957256555557251,-0.25892169893298345,-1.5220533609390259,-0.12931116045031743,-5.322404448186056,3.6872942447662354,-0.0010224271100014448,-0.0027322787791490555,0.0011585240717977285,6.110801041359082e-05,0.0016899120528250933,-0.0027796949725598097,0.11628734320402145,-1.1302311420440674,0.01898372918367386,-0.1636216789484024,0.21652863919734955,0.02642083540558815
1749053880.8054006,2.9572527408599854,-0.25894446790728765,-1.5220290422439575,-0.12931962430987554,-5.3224297801600855,3.687235116958618,-0.0008594569517299533,-0.0024081417359411716,0.0010457324096933007,5.910006075282581e-05,0.0015482351882383227,-0.0026332582347095013,0.09011667221784592,-1.1023077964782715,0.028900466859340668,-0.16520865261554718,0.21135590970516205,0.011862296611070633
1749053880.8462827,2.9572372436523438,-0.2589060825160523,-1.5220290422439575,-0.12932641923937993,-5.3224127928363245,3.687262535095215,-0.000860528729390353,-0.0019082179060205817,0.001037990441545844,5.722122295992449e-05,0.0013728151097893715,-0.002424922538921237,0.12407242506742477,-1.1027381420135498,0.022021986544132233,-0.16071639955043793,0.22854973375797272,0.012414108961820602
1749053880.8463273,2.957226276397705,-0.25894077241931157,-1.5220458507537842,-0.12932641923937993,-5.322401944790975,3.687262535095215,-0.0007603847770951688,-0.001285138656385243,0.0008549477206543088,5.54578255105298e-05,0.0011131466599181294,-0.002183845965191722,0.1029137447476387,-1.1291108131408691,0.02215322107076645,-0.14951421320438385,0.23092122375965118,0.025487404316663742
1749053880.8463717,2.9572720527648926,-0.25894077241931157,-1.5220253467559814,-0.12934167802844243,-5.322390083466665,3.6872506141662598,-0.000678485375829041,-0.001131496042944491,0.0008517083479091525,5.3799165470991284e-05,0.0010193411726504564,-0.0018696773331612349,0.07608282566070557,-1.132291316986084,0.031341902911663055,-0.15328335762023926,0.2272588461637497,0.025619100779294968
1749053880.8464112,2.9572646617889404,-0.25895269334826665,-1.5220290422439575,-0.12932641923937993,-5.322444085274832,3.6872541904449463,-0.0006124443607404828,-0.0009794163051992655,0.000742985459510237,5.2237937779864296e-05,0.0009680790244601667,-0.0017597394762560725,0.10864832252264023,-1.0950273275375366,0.032716892659664154,-0.14804671704769135,0.24226771295070648,0.03572584316134453
1749053880.846448,2.9572408199310303,-0.25893719614062505,-1.522065281867981,-0.12932641923937993,-5.322409156952993,3.6872661113739014,-0.0005582044832408428,-0.0008293327409774065,0.0006531935650855303,5.957340545137413e-05,0.0008825944969430566,-0.001553664798848331,0.11487416177988052,-1.1174403429031372,0.028630435466766357,-0.16442380845546722,0.2276884764432907,0.029154706746339798
1749053880.8464856,2.957256317138672,-0.25896890581164556,-1.522013545036316,-0.12934167802844243,-5.32246315876116,3.6872506141662598,-0.0005127572221681476,-0.0007188367308117449,0.0005827861605212092,7.112804451026022e-05,0.0008596446132287383,-0.00131006701849401,0.09791533648967743,-1.131587266921997,0.03446219861507416,-0.151741161942482,0.22948972880840302,-0.007070582360029221
1749053880.8465276,2.957256317138672,-0.25893719614062505,-1.5220329761505127,-0.12934501588854985,-5.322400871907369,3.687227725982666,-0.00047415620065294206,-0.0007388907251879573,0.0005259502795524895,7.156235369620845e-05,0.0007898681215010583,-0.0011447439901530743,0.11282046139240265,-1.124776840209961,0.03225579112768173,-0.1398468166589737,0.22963093221187592,-0.004973080009222031
1749053880.8465664,2.957268238067627,-0.25896532953295903,-1.5220210552215576,-0.12933488309893804,-5.322444085274832,3.6872506141662598,-0.0004409617686178535,-0.0006622065557166934,0.0005375773180276155,7.011388515820727e-05,0.0007020074408501387,-0.001085864845663309,0.09869541227817535,-1.115389347076416,0.02619434893131256,-0.14060744643211365,0.22661849856376648,0.012338448315858841
1749053880.8466036,2.9572527408599854,-0.2589577001384278,-1.5220210552215576,-0.1293230813792725,-5.32242858806719,3.6872386932373047,-0.00041211245115846395,-0.0005992118967697024,0.0005120675778016448,6.840893183834851e-05,0.0007366411155089736,-0.0010208871681243181,0.11982637643814087,-1.088356375694275,0.014843881130218506,-0.14878389239311218,0.2401268184185028,0.016042694449424744
1749053880.84664,2.9572408199310303,-0.25895996511492925,-1.5220329761505127,-0.12932641923937993,-5.322400871907369,3.6872661113739014,-0.0003867868217639625,-0.0005471522454172373,0.0004746534687001258,8.494545181747526e-05,0.0008121787686832249,-0.0009332678164355457,0.12141191959381104,-1.0905197858810425,0.02154732495546341,-0.1345987617969513,0.2444092035293579,0.010835215449333191
1749053880.8466792,2.957221508026123,-0.25892527521166997,-1.522017478942871,-0.12932975709948735,-5.32237679163088,3.6872541904449463,-0.0003644264070317149,-0.000503415591083467,0.000441355281509459,8.61196022015065e-05,0.001636100118048489,-0.0008328971453011036,0.1493455171585083,-1.0934312343597412,0.007863648235797882,-0.14433862268924713,0.24301356077194214,0.007216349244117737
1749053880.8467166,2.9572336673736572,-0.25893719614062505,-1.5220365524291992,-0.12931116045031743,-5.322397236024038,3.6872541904449463,-0.00018387704039923847,-0.0004661607672460377,0.0004125215345993638,8.466032159049064e-05,0.0021865994203835726,-0.0006898416322655976,0.11489293724298477,-1.093639850616455,-0.003160424530506134,-0.1457854062318802,0.25613337755203247,0.029523953795433044
1749053880.8467536,2.9572527408599854,-0.2589298051646729,-1.5220402479171753,-0.12934501588854985,-5.322381798421041,3.6872386932373047,-0.00010237142123514786,-0.0004373184056021273,0.00038716240669600666,7.574780465802178e-05,0.0024179520551115274,-0.0005894014029763639,0.140239417552948,-1.075918197631836,0.006021454930305481,-0.14355303347110748,0.24398458003997803,0.027550943195819855
1749053880.8467898,2.9572336673736572,-0.25893719614062505,-1.5220173597335815,-0.1293451350978394,-5.3223804275142115,3.687281847000122,-5.298857649904676e-05,-0.000141233264002949,0.00036467364407144487,7.09419182385318e-05,0.0027054212987422943,-0.0005192453972995281,0.16994896531105042,-1.0522183179855347,0.002528376877307892,-0.14284448325634003,0.2540636658668518,0.017204254865646362
1749053880.846826,2.957256317138672,-0.2589615148356934,-1.5220365524291992,-0.12932641923937993,-5.322360996400015,3.687223196029663,-1.4579607523046434e-05,-0.00012856913963332772,0.0003447642084211111,6.793976353947073e-05,0.002825329778715968,-0.0005396450869739056,0.18051713705062866,-1.0691535472869873,-0.01198069378733635,-0.15250666439533234,0.28249412775039673,0.009544819593429565
1749053880.846862,2.9572372436523438,-0.25894077241931157,-1.5220329761505127,-0.12932641923937993,-5.322318081055776,3.6872386932373047,-1.4224747246771585e-07,-0.00011997352703474462,0.0003268735599704087,6.541329639730975e-05,0.003597394097596407,-0.0005617646384052932,0.16862255334854126,-1.051056981086731,-0.006978772580623627,-0.15477941930294037,0.2867357134819031,-0.004126369953155518
1749053880.8468988,2.9572300910949707,-0.2589563888362427,-1.5220365524291992,-0.12933321416888433,-5.322360996400015,3.6872541904449463,-1.3878526106125832e-09,-7.418738823616877e-05,0.0003109383396804333,6.310900062089786e-05,0.004573438316583633,-0.0005887176375836134,0.2213110625743866,-1.0405237674713135,-0.016757700592279434,-0.1592467576265335,0.2976703941822052,-0.006788477301597595
1749053880.8469377,2.9572720527648926,-0.25893719614062505,-1.5220497846603394,-0.12932975709948735,-5.322418932114736,3.6872267723083496,0.0021136272698640823,-5.3105137340025976e-05,0.00011366315447958186,6.0967915487708524e-05,0.005822139326483011,-0.0007270239875651896,0.22588172554969788,-1.043177604675293,-0.027827564626932144,-0.16739408671855927,0.32279157638549805,-0.0013644248247146606
1749053880.8469746,2.957268238067627,-0.2589408916286011,-1.522017478942871,-0.12932641923937993,-5.322387639676229,3.6872494220733643,0.003412109101191163,-4.999131124350242e-05,9.587366366758943e-05,5.897015580558218e-05,0.007431635633111,-0.000880974403116852,0.199788898229599,-1.032411813735962,-0.021947689354419708,-0.1763186901807785,0.3432149291038513,-0.0031453222036361694
1749053880.847011,2.9572842121124268,-0.2589491170695801,-1.522017478942871,-0.12931449831042485,-5.322309438382284,3.6872189044952393,0.0031467049848288298,-4.877455239693518e-07,9.028014028444886e-05,5.709900869987905e-05,0.0095981415361166,-0.002120728138834238,0.2259812355041504,-1.0433378219604492,-0.03610712289810181,-0.18004824221134186,0.3580055236816406,-0.020493239164352417
1749053880.8473997,2.957242012023926,-0.2589023870280762,-1.522017478942871,-0.12929590166125493,-5.322292868291036,3.687230348587036,0.00297698937356472,-4.758740956845031e-09,8.593053644290194e-05,5.5342199630104005e-05,0.012587340548634529,-0.0030667122919112444,0.2316007912158966,-1.036515712738037,-0.04506125673651695,-0.1867484301328659,0.35619068145751953,-0.026406310498714447
1749053880.8493407,2.957273244857788,-0.2588978570750733,-1.5220329761505127,-0.12930782259021,-5.322289232407705,3.6871800422668457,0.0029236716218292713,-4.642916259789409e-11,8.201177115552127e-05,5.3691474022343755e-05,0.014661472290754318,-0.0032731937244534492,0.2761310636997223,-1.0391522645950317,-0.04060742259025574,-0.20463718473911285,0.36422020196914673,-0.027150921523571014
1749053880.890298,2.957266092300415,-0.25893719614062505,-1.522005558013916,-0.12932641923937993,-5.322228912507192,3.687180280685425,0.004060215316712856,-4.5299105178725485e-13,7.84268049756065e-05,3.7187186535447836e-05,0.01684015616774559,-0.00396310817450285,0.24214699864387512,-1.0380117893218994,-0.04707995429635048,-0.20833949744701385,0.366340309381485,-0.024362437427043915
1749053880.8903456,2.9572935104370117,-0.2589215797236939,-1.522005558013916,-0.12932975709948735,-5.322220627461569,3.6871836185455322,0.005238198209553957,-4.41965571196354e-15,7.51602856325917e-05,2.7298623535898514e-05,0.01924833655357361,-0.004871028941124678,0.24149703979492188,-1.0600839853286743,-0.05062427371740341,-0.21731604635715485,0.35691502690315247,-0.0418204627931118
1749053880.890385,2.9573237895965576,-0.25896890581164556,-1.5220210552215576,-0.12934167802844243,-5.3221532742129725,3.687171697616577,0.0055980682373046875,-4.312084261432808e-17,7.21476026228629e-05,1.0848975762201007e-05,0.01966153457760811,-0.0060593863017857075,0.27452489733695984,-1.0639294385910034,-0.05107473209500313,-0.22548441588878632,0.3502397835254669,-0.033935241401195526
1749053880.8904226,2.9572465419769287,-0.2589215797236939,-1.5220497846603394,-0.12932641923937993,-5.322164122258322,3.6871790885925293,0.006824597250670195,-4.2071308098302553e-19,5.2376413805177435e-05,1.917127747219638e-06,0.01860136166214943,-0.007834424264729023,0.28341472148895264,-1.0601760149002075,-0.05147886276245117,-0.24184726178646088,0.34301990270614624,-0.03899327665567398
1749053880.8904638,2.9573211669921875,-0.2589408916286011,-1.5220210552215576,-0.12932641923937993,-5.322112623845236,3.687167167663574,0.007847804576158524,-4.104731924603814e-21,3.4551412682048976e-05,3.3877657301673025e-07,0.018042972311377525,-0.008495953865349293,0.2804329991340637,-1.0910956859588623,-0.043831270188093185,-0.25899574160575867,0.37246066331863403,-0.053043097257614136
1749053880.890503,2.9573259353637695,-0.25891418874774175,-1.5220210552215576,-0.12932641923937993,-5.322033111249105,3.6871159076690674,0.009099473245441914,-4.004825303664891e-23,3.227658453397453e-05,5.98653784322778e-08,0.01812993362545967,-0.010045255534350872,0.2749263048171997,-1.108457326889038,-0.04933302477002144,-0.26566261053085327,0.3583887219429016,-0.04922909662127495
1749053880.8905401,2.9573452472686768,-0.2589336198619385,-1.5220246315002441,-0.1293230813792725,-5.32202130952944,3.687107563018799,0.009438388049602509,-3.9073503369999807e-25,3.109042518190108e-05,-0.0012867352925240993,0.018124958500266075,-0.01040160283446312,0.29517513513565063,-1.1112221479415894,-0.05264487490057945,-0.2708224058151245,0.3699262738227844,-0.06260210275650024
1749053880.8905761,2.9573607444763184,-0.25892169893298345,-1.5220210552215576,-0.12936242044482427,-5.321953896676199,3.68709135055542,0.009678893722593784,-3.812248132050293e-27,3.0050590794417076e-05,-0.002882949775084853,0.018814867362380028,-0.010579907335340977,0.29839837551116943,-1.1195826530456543,-0.030685700476169586,-0.28243929147720337,0.38609951734542847,-0.06722448766231537
1749053880.890613,2.957373857498169,-0.25895269334826665,-1.5220365524291992,-0.12933488309893804,-5.321925226842062,3.6870832443237305,0.012111888267099857,-3.71946093196791e-29,2.9079423256916925e-05,-0.003500713501125574,0.020135216414928436,-0.011926217004656792,0.30673614144325256,-1.129690408706665,-0.051535844802856445,-0.28687968850135803,0.3681536316871643,-0.07411541789770126
1749053880.8906498,2.9574437141418457,-0.258933500652649,-1.5220210552215576,-0.1293504995158692,-5.321909670029775,3.6870713233947754,0.011854201555252075,-3.6289313818218177e-31,2.816651795001235e-05,-0.0030287306290119886,0.0200833510607481,-0.01346751768141985,0.2837960720062256,-1.1333370208740234,-0.025496706366539,-0.3076821565628052,0.392835795879364,-0.08701200038194656
1749053880.8906858,2.957444906234741,-0.2589298051646729,-1.5220365524291992,-0.12938113630328374,-5.3218218127833765,3.687040090560913,0.011973046697676182,-3.540605882408023e-33,2.7313993996358477e-05,-0.003370058024302125,0.021679427474737167,-0.014465738087892532,0.29440009593963623,-1.1656932830810547,-0.02705617994070053,-0.32875898480415344,0.4034074544906616,-0.09074363112449646
1749053880.8907213,2.9574363231658936,-0.258933500652649,-1.5220246315002441,-0.12937434137377934,-5.321862641965048,3.6870152950286865,0.012671800330281258,-0.0010067182593047619,2.6509569579502568e-05,-0.005146597512066364,0.023541796952486038,-0.014144551940262318,0.30862921476364136,-1.1645195484161377,-0.024986632168293,-0.3329175114631653,0.4077855944633484,-0.06716056913137436
1749053880.8907576,2.9574882984161377,-0.25896890581164556,-1.52200186252594,-0.12936754644427495,-5.321772579346792,3.686948537826538,0.01235979050397873,-0.0024338208604604006,4.9766771553549916e-05,-0.006987794768065214,0.024166859686374664,-0.01382609736174345,0.32744982838630676,-1.1376253366470337,-0.023828133940696716,-0.33253952860832214,0.39460599422454834,-0.0724564716219902
1749053880.890794,2.9574615955352783,-0.2589453023723145,-1.522017478942871,-0.1293984216502686,-5.321720782910482,3.686924695968628,0.013634920120239258,-0.002631288720294833,4.99560555908829e-05,-0.008112219162285328,0.026026636362075806,-0.013799694366753101,0.3275178372859955,-1.1508383750915527,-0.013590697199106216,-0.33753857016563416,0.4038378596305847,-0.07673830538988113
1749053880.89083,2.9575324058532715,-0.25896890581164556,-1.5220210552215576,-0.12942250192675786,-5.3216538468943995,3.6869194507598877,0.01330602914094925,-0.002470040926709771,4.8706722736824304e-05,-0.008536948822438717,0.026735922321677208,-0.013992058113217354,0.3635132610797882,-1.1653116941452026,-0.018453672528266907,-0.34938284754753113,0.41054457426071167,-0.09411105513572693
1749053880.890867,2.9575603008270264,-0.25896532953295903,-1.5219744443893433,-0.12946875513110356,-5.321656052266256,3.6868491172790527,0.015080404467880726,-0.0025742000434547663,4.742615783470683e-05,-0.009481792338192463,0.02940446138381958,-0.013491290621459484,0.32597604393959045,-1.181298851966858,0.0020254626870155334,-0.36193981766700745,0.40696847438812256,-0.10769720375537872
1749053880.8909032,2.957568645477295,-0.2589577001384278,-1.522005558013916,-0.1294669669917603,-5.321576778088705,3.686845302581787,0.01488550566136837,-0.0033139230217784643,5.755782694905065e-05,-0.01153885293751955,0.029476312920451164,-0.013155128806829453,0.32812532782554626,-1.194894790649414,0.010895781219005585,-0.3677251935005188,0.40299108624458313,-0.11929559707641602
1749053880.8909392,2.9575769901275635,-0.2590126556209107,-1.5220210552215576,-0.12948604047808843,-5.321492675934927,3.686852216720581,0.01655513606965542,-0.003945228178054094,6.68157372274436e-05,-0.01147864107042551,0.03142959251999855,-0.013780449517071247,0.3003763258457184,-1.1917248964309692,0.010249994695186615,-0.35051044821739197,0.43693411350250244,-0.12658292055130005
1749053880.8909752,2.957624912261963,-0.2589739126018067,-1.522017478942871,-0.12950976312670903,-5.321460251008169,3.686793088912964,0.017111802473664284,-0.004640711937099695,6.587820098502561e-05,-0.011118456721305847,0.03285500407218933,-0.015218806453049183,0.303920179605484,-1.1957777738571167,0.030970871448516846,-0.36706340312957764,0.44809234142303467,-0.12662428617477417
1749053880.891011,2.9576923847198486,-0.25897856176409917,-1.522005558013916,-0.12953420103106694,-5.3213810364352625,3.686734676361084,0.016513675451278687,-0.004941933322697878,8.298857574118301e-05,-0.011033301241695881,0.03546483442187309,-0.015956109389662743,0.2878439426422119,-1.2155945301055908,0.03791306912899017,-0.37403959035873413,0.43706244230270386,-0.12362600117921829
1749053880.8913796,2.9577438831329346,-0.25899775445971684,-1.5220210552215576,-0.12954600275073247,-5.321293238793508,3.6867763996124268,0.016279075294733047,-0.005000883247703314,7.314359390875325e-05,-0.01100145373493433,0.03796893358230591,-0.016829144209623337,0.2940429449081421,-1.2131528854370117,0.06129368394613266,-0.37204885482788086,0.45363667607307434,-0.14918693900108337
1749053880.8933709,2.957749843597412,-0.25899775445971684,-1.5220402479171753,-0.12955792367968755,-5.321225885544912,3.6867055892944336,0.016198843717575073,-0.005088747013360262,0.00014007097342982888,-0.01135415118187666,0.03902881219983101,-0.018966911360621452,0.27595847845077515,-1.2380095720291138,0.05479858070611954,-0.4041937291622162,0.47036662697792053,-0.13623103499412537
1749053880.9383132,2.957796573638916,-0.25903721273455815,-1.5220365524291992,-0.12959738195452886,-5.321149233971731,3.6866583824157715,0.016623662784695625,-0.006645310670137405,0.0020801567006856203,-0.012109749019145966,0.04136653617024422,-0.01955191232264042,0.305458664894104,-1.233872652053833,0.05273987352848053,-0.4002916216850281,0.47937560081481934,-0.1588442474603653
1749053880.938358,2.957828998565674,-0.2590096753886719,-1.522005558013916,-0.1296333831599732,-5.321099702511923,3.6866655349731445,0.016257498413324356,-0.00746552087366581,0.0030304393731057644,-0.013099795207381248,0.04366660490632057,-0.02031131088733673,0.27648353576660156,-1.2214785814285278,0.03930502384901047,-0.40320584177970886,0.49454301595687866,-0.1604485660791397
1749053880.9383974,2.9578373432159424,-0.25904543817553716,-1.521993637084961,-0.12963874757800298,-5.320985500012533,3.686570644378662,0.016170967370271683,-0.007540828548371792,0.0029245230834931135,-0.014375783503055573,0.0458986721932888,-0.022279277443885803,0.2845422327518463,-1.2293972969055176,0.04313371330499649,-0.4121035933494568,0.4912766218185425,-0.16619060933589935
1749053880.9384356,2.9578769207000732,-0.25907714784655766,-1.521993637084961,-0.1296662849238892,-5.3209161202060145,3.6866044998168945,0.015763884410262108,-0.007416254840791225,0.002575130667537451,-0.013646898791193962,0.049174197018146515,-0.022975049912929535,0.278247594833374,-1.2513281106948853,0.07284299284219742,-0.4059501886367798,0.4991326630115509,-0.18601413071155548
1749053880.9384723,2.957961082458496,-0.259066180591919,-1.5219817161560059,-0.1296866697124024,-5.320819739495413,3.6864750385284424,0.01636696048080921,-0.008301260881125927,0.0023700338788330555,-0.01455635391175747,0.05255158990621567,-0.025239547714591026,0.2444961667060852,-1.2697020769119263,0.0687074139714241,-0.4266386926174164,0.4880613684654236,-0.1949869841337204
1749053880.9385092,2.95798397064209,-0.2591164869121094,-1.5219972133636475,-0.12972946584735112,-5.320704523717062,3.6864635944366455,0.015838196501135826,-0.009145017713308334,0.002323437947779894,-0.015778928995132446,0.05334772914648056,-0.026499563828110695,0.2808033227920532,-1.24131441116333,0.08603572100400925,-0.4199974238872528,0.48649004101753235,-0.19041655957698822
1749053880.9385457,2.9579885005950928,-0.25909002244982915,-1.5219852924346924,-0.12979979932818608,-5.320608441029684,3.6864190101623535,0.015546890906989574,-0.009789099916815758,0.0038872184231877327,-0.01646193489432335,0.052934251725673676,-0.028466658666729927,0.29196518659591675,-1.2469426393508911,0.08184162527322769,-0.42155301570892334,0.5146819949150085,-0.19804708659648895
1749053880.938582,2.9579849243164062,-0.25911374509844975,-1.5219852924346924,-0.1298169654658814,-5.320488278065817,3.6863741874694824,0.016181165352463722,-0.009343152865767479,0.0051962584257125854,-0.016401952132582664,0.054519422352313995,-0.030391398817300797,0.28027641773223877,-1.2632920742034912,0.06841284781694412,-0.43537938594818115,0.537563681602478,-0.19778335094451904
1749053880.9386187,2.9580414295196533,-0.2591802638820191,-1.5219541788101196,-0.12981541574511724,-5.3203598896609705,3.6863338947296143,0.01657979004085064,-0.010083543136715889,0.00520844804123044,-0.017340244725346565,0.05801454931497574,-0.03254915773868561,0.2836989164352417,-1.2741715908050537,0.06951135396957397,-0.4427146911621094,0.541006863117218,-0.19421133399009705
1749053880.9386544,2.9580726623535156,-0.25916917741809087,-1.5219614505767822,-0.12984283388171391,-5.320237342511312,3.686278820037842,0.017528170719742775,-0.010140925645828247,0.004827595315873623,-0.018197065219283104,0.06044779345393181,-0.03444583714008331,0.29802536964416504,-1.280166506767273,0.0713399201631546,-0.43549588322639465,0.5241589546203613,-0.21354395151138306
1749053880.9386902,2.9581124782562256,-0.25917382658038335,-1.5219578742980957,-0.12990625322375493,-5.320140246544973,3.6861841678619385,0.017423542216420174,-0.010885371826589108,0.005150971468538046,-0.019049154594540596,0.06288983672857285,-0.03658599406480789,0.2833523154258728,-1.2807530164718628,0.07697486877441406,-0.43741217255592346,0.5388239622116089,-0.21291925013065338
1749053880.9387264,2.958195209503174,-0.25923247755084233,-1.521949052810669,-0.12994904935870366,-5.3199883739100855,3.686147451400757,0.01766582578420639,-0.011782887391746044,0.005496927537024021,-0.019566228613257408,0.06718699634075165,-0.037553612142801285,0.2846783399581909,-1.26498544216156,0.08123703300952911,-0.4598624110221863,0.5339322090148926,-0.22340735793113708
1749053880.9387622,2.958189010620117,-0.25924141824755864,-1.5219563245773315,-0.12996609628710942,-5.31985176006426,3.6860878467559814,0.017871709540486336,-0.011476113460958004,0.006265375297516584,-0.020232008770108223,0.06859534978866577,-0.03940540552139282,0.28147590160369873,-1.2808520793914795,0.060861602425575256,-0.46475422382354736,0.5386772751808167,-0.2241048812866211
1749053880.9387982,2.958204746246338,-0.25924499452624516,-1.5219179391860962,-0.13002653539691167,-5.319727961217062,3.6859655380249023,0.017801854759454727,-0.012232921086251736,0.006597940344363451,-0.020554164424538612,0.06797069311141968,-0.042999546974897385,0.27858948707580566,-1.295158863067627,0.09022469073534012,-0.4672693610191345,0.5660537481307983,-0.20222315192222595
1749053880.938834,2.958280563354492,-0.2592925590327759,-1.5219060182571411,-0.13003499925646977,-5.319568101559774,3.685866594314575,0.01869211159646511,-0.013058256357908249,0.006574178580194712,-0.022673379629850388,0.06924861669540405,-0.045935362577438354,0.3074425458908081,-1.2763352394104004,0.09239409118890762,-0.46624308824539185,0.5454013347625732,-0.19382987916469574
1749053880.9388695,2.958285093307495,-0.25930078447375493,-1.521897792816162,-0.1300862592509766,-5.319443349038259,3.6857945919036865,0.0193133857101202,-0.012959115207195282,0.007053550332784653,-0.021999705582857132,0.0731130838394165,-0.046485159546136856,0.28676414489746094,-1.2888938188552856,0.08612554520368576,-0.47704577445983887,0.5660932064056396,-0.19941125810146332
1749053880.9389057,2.95833683013916,-0.2592972081950684,-1.521885871887207,-0.13014979780230718,-5.319271270428793,3.685706615447998,0.018988465890288353,-0.012565440498292446,0.00796038843691349,-0.022866396233439445,0.07603375613689423,-0.046405620872974396,0.29655444622039795,-1.2832434177398682,0.09380107372999191,-0.4828232526779175,0.5559737682342529,-0.19984063506126404
1749053880.9389415,2.958341598510742,-0.25935645521197515,-1.521842122077942,-0.13023539007220464,-5.319123689328329,3.6856534481048584,0.019821638241410255,-0.01104714348912239,0.008457548916339874,-0.02441967837512493,0.07734108716249466,-0.04726124927401543,0.29595446586608887,-1.2971289157867432,0.08398754149675369,-0.4726458191871643,0.5722295641899109,-0.19922499358654022
1749053880.9389772,2.9584126472473145,-0.2593645614436646,-1.5218493938446045,-0.13023395956073003,-5.318948094044821,3.6855390071868896,0.020940817892551422,-0.011811023578047752,0.008179333992302418,-0.024819066748023033,0.07735784351825714,-0.049245741218328476,0.28579816222190857,-1.2899534702301025,0.08706008642911911,-0.4862850308418274,0.5651397705078125,-0.20084042847156525
1749053880.939013,2.958444833755493,-0.2593692106059571,-1.5218532085418701,-0.13029714048419194,-5.318827215825216,3.6854467391967773,0.021054381504654884,-0.011613168753683567,0.008334186859428883,-0.02592592127621174,0.0795457512140274,-0.05172614008188248,0.32333940267562866,-1.3199414014816284,0.10653664916753769,-0.4958113431930542,0.6022799611091614,-0.17895346879959106
1749053880.939049,2.958442449569702,-0.2594049733928223,-1.5218567848205566,-0.13036199033770757,-5.31865889230837,3.6853277683258057,0.021966220811009407,-0.01126124244183302,0.008720922283828259,-0.026199761778116226,0.08142682164907455,-0.0528138242661953,0.31224325299263,-1.322058916091919,0.10093092173337936,-0.48867225646972656,0.5755881667137146,-0.16134583950042725
1749053880.9390845,2.9585132598876953,-0.2594403785518189,-1.5218133926391602,-0.13040979326281743,-5.318444732819692,3.685255527496338,0.023122631013393402,-0.011514624580740929,0.008652597665786743,-0.02692054584622383,0.08461198955774307,-0.05321580916643143,0.30389800667762756,-1.3379707336425781,0.11694368720054626,-0.5123027563095093,0.5851580500602722,-0.16355669498443604
1749053880.9393682,2.958580732345581,-0.259452299480774,-1.521785855293274,-0.13043494642291265,-5.318310562764303,3.6851136684417725,0.02385282702744007,-0.0112304100766778,0.008282728493213654,-0.027062321081757545,0.08777449280023575,-0.05320661514997482,0.30218705534935,-1.3285942077636719,0.11348342895507812,-0.4921010434627533,0.5749558806419373,-0.16314658522605896
1749053880.941396,2.9586081504821777,-0.2594568294337769,-1.5217703580856323,-0.13050229967150884,-5.318107489739553,3.68502140045166,0.023829970508813858,-0.011308498680591583,0.008573451079428196,-0.028109779581427574,0.08998634666204453,-0.05410372093319893,0.28572699427604675,-1.3360399007797241,0.10853725671768188,-0.5289977192878723,0.5824716091156006,-0.14926569163799286
1749053880.9823012,2.9586572647094727,-0.25950344026599126,-1.5217931270599365,-0.13058991849932866,-5.317967180405752,3.684901475906372,0.0245046429336071,-0.01125719491392374,0.00937687885016203,-0.02871481329202652,0.09192515909671783,-0.054325561970472336,0.3124864101409912,-1.3251874446868896,0.10561040043830872,-0.5190848112106323,0.5811668038368225,-0.15187641978263855
1749053880.9823472,2.9586970806121826,-0.2595086854747315,-1.521749496459961,-0.1306343835643311,-5.31773150364031,3.684790849685669,0.025704266503453255,-0.011281193234026432,0.00891635101288557,-0.03003878891468048,0.09523225575685501,-0.05424943193793297,0.3101997375488281,-1.3563588857650757,0.12401536107063293,-0.5135780572891235,0.5783436298370361,-0.15750394761562347
1749053880.9823883,2.9587955474853516,-0.25950129449877934,-1.521744966506958,-0.1306942266276856,-5.317574266587393,3.68472957611084,0.025810668244957924,-0.01207715179771185,0.009444870986044407,-0.031066959723830223,0.09834393113851547,-0.053412824869155884,0.3021036982536316,-1.3352173566818237,0.1013738363981247,-0.5098953247070312,0.5650784969329834,-0.1492588222026825
1749053880.9824305,2.958813428878784,-0.25955672681842046,-1.5217257738113403,-0.13073499620471196,-5.317366305981771,3.684603214263916,0.025779342278838158,-0.011644707061350346,0.009535670280456543,-0.032041192054748535,0.10067198425531387,-0.05357182025909424,0.2934591472148895,-1.3482643365859985,0.12288714945316315,-0.5126250982284546,0.553396999835968,-0.1555408090353012
1749053880.9824688,2.958880662918091,-0.259565071468689,-1.5217175483703613,-0.13081438959155278,-5.317154888306753,3.6844990253448486,0.025964878499507904,-0.011703931726515293,0.009766777977347374,-0.03127521649003029,0.10164599120616913,-0.053805187344551086,0.3178422749042511,-1.3734382390975952,0.11136698722839355,-0.5230028033256531,0.5545350313186646,-0.15247203409671783
1749053880.982506,2.958944320678711,-0.2596206229976197,-1.5216937065124512,-0.13087447107348638,-5.316938583050863,3.6843881607055664,0.026777423918247223,-0.012548553757369518,0.010638495907187462,-0.03263755887746811,0.10291533917188644,-0.05427376553416252,0.3058475852012634,-1.3420109748840332,0.11630256474018097,-0.5282214283943176,0.5599294304847717,-0.15438339114189148
1749053880.9825425,2.958953857421875,-0.25961323202166753,-1.5216691493988037,-0.13092692316088872,-5.316734556351797,3.6842989921569824,0.028038902208209038,-0.012779285199940205,0.01012576837092638,-0.03337455913424492,0.1035512313246727,-0.054950665682554245,0.29755088686943054,-1.3412628173828125,0.11408919095993042,-0.5107437968254089,0.5479753613471985,-0.16718319058418274
1749053880.982582,2.9590559005737305,-0.25962145746264653,-1.5216729640960693,-0.13101013124499516,-5.31652278104891,3.684180974960327,0.028021274134516716,-0.013118508271872997,0.009616950526833534,-0.03376759961247444,0.10815082490444183,-0.055650223046541214,0.31148695945739746,-1.358546257019043,0.13184824585914612,-0.521187424659729,0.5384923815727234,-0.16391721367835999
1749053880.9826193,2.959089517593384,-0.25964172304187016,-1.5216574668884277,-0.13106663644824224,-5.316313866768972,3.684088706970215,0.02792860008776188,-0.013101453892886639,0.01033756323158741,-0.034189481288194656,0.10691531002521515,-0.05615714564919472,0.3408074975013733,-1.3532042503356934,0.13130635023117065,-0.5397196412086487,0.5242016315460205,-0.19685547053813934
1749053880.982656,2.9591445922851562,-0.25967426717791753,-1.5216330289840698,-0.13113029420886235,-5.316046957169668,3.6839730739593506,0.028549935668706894,-0.013643927872180939,0.010830339044332504,-0.03531462326645851,0.10575908422470093,-0.057428788393735886,0.3357745110988617,-1.3747872114181519,0.1471504271030426,-0.5449084639549255,0.5655347108840942,-0.19755442440509796
1749053880.9826922,2.9591963291168213,-0.25972457349810796,-1.5216283798217773,-0.1311832231334229,-5.315885130559103,3.6838431358337402,0.029523976147174835,-0.013399260118603706,0.011004885658621788,-0.03721659630537033,0.10568700730800629,-0.05812324211001396,0.3482949137687683,-1.3565417528152466,0.13972924649715424,-0.5375847816467285,0.5532495975494385,-0.18313615024089813
1749053880.9827282,2.9592370986938477,-0.25977130353961186,-1.5215973854064941,-0.13127072275195317,-5.315646235142843,3.6837146282196045,0.02977972850203514,-0.013643433339893818,0.011325009167194366,-0.03767145425081253,0.11084834486246109,-0.05906832218170166,0.3380879759788513,-1.372635841369629,0.13842123746871948,-0.5271431803703308,0.5491835474967957,-0.18740077316761017
1749053880.9827676,2.9593164920806885,-0.25976868093524175,-1.5215847492218018,-0.1313668054393311,-5.315414373074667,3.6836302280426025,0.030334893614053726,-0.01412265282124281,0.011243194341659546,-0.03885933756828308,0.10975194722414017,-0.059494636952877045,0.35071226954460144,-1.348467230796814,0.14688090980052948,-0.5108082294464111,0.5724788308143616,-0.19950437545776367
1749053880.982804,2.959376573562622,-0.2598012250712891,-1.5215647220611572,-0.13142319143328862,-5.315220896397726,3.6835033893585205,0.03094029240310192,-0.015404137782752514,0.011440346017479897,-0.03916068747639656,0.11012245714664459,-0.060122933238744736,0.3518500030040741,-1.3647140264511108,0.14398527145385742,-0.5361936688423157,0.5938502550125122,-0.20716948807239532
1749053880.98284,2.959460496902466,-0.2598131460002442,-1.5215373039245605,-0.1314951938441773,-5.314992551003591,3.6833596229553223,0.03193975239992142,-0.015199937857687473,0.011279013939201832,-0.039701953530311584,0.11367606371641159,-0.06030600145459175,0.3312685191631317,-1.3636056184768677,0.14311428368091583,-0.5205005407333374,0.5700099468231201,-0.2108984738588333
1749053880.9828773,2.9595086574554443,-0.259856180553772,-1.521528959274292,-0.13156743467364507,-5.3147411982165735,3.683236598968506,0.03337963670492172,-0.015396987088024616,0.011066095903515816,-0.04052764177322388,0.11672775447368622,-0.059241026639938354,0.3559392988681793,-1.3805832862854004,0.15699312090873718,-0.5277358293533325,0.567388117313385,-0.2326584756374359
1749053880.9829168,2.9595420360565186,-0.25985761106524663,-1.5214853286743164,-0.13167090833697515,-5.314532403145925,3.683105230331421,0.033819425851106644,-0.01578107662498951,0.011755344457924366,-0.041428085416555405,0.11893190443515778,-0.06253478676080704,0.31033387780189514,-1.3723430633544922,0.1416696459054947,-0.5317099094390869,0.5483753681182861,-0.2261238992214203
1749053880.9829535,2.959609270095825,-0.25987787664447026,-1.521477222442627,-0.13174744070086675,-5.314330641423361,3.6829819679260254,0.032671503722667694,-0.01658065803349018,0.011643237434327602,-0.042330458760261536,0.11904985457658768,-0.06490323692560196,0.3398611843585968,-1.3684214353561401,0.13744808733463287,-0.5260385274887085,0.5607208609580994,-0.22172033786773682
1749053880.9829898,2.95973539352417,-0.2599484485438843,-1.5214533805847168,-0.1318231385997315,-5.314031664525167,3.6828701496124268,0.034012120217084885,-0.016299689188599586,0.01161542721092701,-0.0413653589785099,0.12355080246925354,-0.06486126780509949,0.33324116468429565,-1.3767036199569702,0.15078115463256836,-0.5265883803367615,0.5374857783317566,-0.2193114459514618
1749053880.983026,2.9597651958465576,-0.2599920791438599,-1.5214414596557617,-0.13189549863848882,-5.313772026692526,3.68274188041687,0.03510009124875069,-0.015156479552388191,0.012043459340929985,-0.04174799844622612,0.12321916967630386,-0.06295569241046906,0.31265148520469666,-1.4010035991668701,0.14014290273189545,-0.5129327774047852,0.5500968098640442,-0.24819648265838623
1749053880.9833786,2.959848403930664,-0.2600322526744385,-1.521424412727356,-0.1320067209056397,-5.313536349927084,3.682591199874878,0.03524500131607056,-0.016657227650284767,0.011334193870425224,-0.04297162964940071,0.12270738929510117,-0.06386657059192657,0.33763688802719116,-1.3999824523925781,0.14403757452964783,-0.5160366892814636,0.5610677003860474,-0.24807852506637573
1749053880.9854689,2.959916830062866,-0.260028676395752,-1.5213890075683594,-0.13206310689959722,-5.313292984162466,3.682483196258545,0.036569155752658844,-0.01706201769411564,0.011750376783311367,-0.04256068542599678,0.12245355546474457,-0.06555497646331787,0.3127000629901886,-1.4056402444839478,0.14709177613258362,-0.5418075323104858,0.5770795345306396,-0.25051528215408325
1749053881.0262868,2.9599852561950684,-0.26008089006457524,-1.5213725566864014,-0.13214738786730962,-5.313064638768331,3.6823248863220215,0.03801898658275604,-0.017142366617918015,0.0118698850274086,-0.04411720857024193,0.1268312931060791,-0.06790941208600998,0.3086852431297302,-1.3894774913787842,0.12903162837028503,-0.5128854513168335,0.5662640929222107,-0.2253832370042801
1749053881.0263329,2.960092067718506,-0.26011307657275395,-1.5213295221328735,-0.1322431129268189,-5.312807325516836,3.682196855545044,0.03721453249454498,-0.016069166362285614,0.011619491502642632,-0.04370862990617752,0.1242232546210289,-0.0723266527056694,0.3318633735179901,-1.409868836402893,0.14779339730739594,-0.5190475583076477,0.5885604023933411,-0.24129241704940796
1749053881.0263748,2.960184335708618,-0.26014120996508794,-1.5213367938995361,-0.13234682500872808,-5.312567238007681,3.682072639465332,0.03751015290617943,-0.01673753187060356,0.012043789960443974,-0.04505209997296333,0.1268012523651123,-0.07376860827207565,0.3134942352771759,-1.4203909635543823,0.14212407171726227,-0.509885847568512,0.585672914981842,-0.2254839390516281
1749053881.026414,2.9602408409118652,-0.26018042982135015,-1.5213441848754883,-0.13241525114093022,-5.312288705502645,3.6819169521331787,0.03926065191626549,-0.016898466274142265,0.011507529765367508,-0.04560495540499687,0.12787847220897675,-0.07144183665513992,0.3184146285057068,-1.4191104173660278,0.14208774268627167,-0.5143918395042419,0.6040642857551575,-0.23907941579818726
1749053881.026451,2.9603044986724854,-0.26021261632952886,-1.521281361579895,-0.13253910959277349,-5.312024597321646,3.6817750930786133,0.03900959715247154,-0.017470167949795723,0.011884639970958233,-0.04553130269050598,0.13016359508037567,-0.07359194755554199,0.3110849857330322,-1.4146183729171753,0.1480862945318222,-0.4990822672843933,0.613025963306427,-0.24428057670593262
1749053881.026491,2.9603729248046875,-0.2602643531611939,-1.52126944065094,-0.13259156168017583,-5.311794761811392,3.681607723236084,0.03932642191648483,-0.01796668954193592,0.01152927614748478,-0.04485999047756195,0.13295885920524597,-0.07738595455884933,0.3043827712535858,-1.444205403327942,0.14211253821849823,-0.5043172836303711,0.6125389337539673,-0.23184572160243988
1749053881.0265286,2.9604532718658447,-0.26028092325244145,-1.5212455987930298,-0.13268764436755376,-5.311520103608267,3.6814708709716797,0.040259841829538345,-0.01794424280524254,0.011675002984702587,-0.04307035729289055,0.13573697209358215,-0.07918184995651245,0.29642951488494873,-1.4274468421936035,0.16069720685482025,-0.5331592559814453,0.620675802230835,-0.21751508116722107
1749053881.0265658,2.960521697998047,-0.2603084605983277,-1.521256446838379,-0.1327718061259766,-5.311262611542837,3.6812806129455566,0.04025569185614586,-0.018449746072292328,0.01193708460777998,-0.04278424754738808,0.13994063436985016,-0.08048813790082932,0.305770605802536,-1.4419655799865723,0.1591767966747284,-0.522666871547699,0.6142978072166443,-0.20008258521556854
1749053881.0266035,2.9606213569641113,-0.2603721183589478,-1.521204948425293,-0.1328907769969483,-5.310977641736166,3.681156635284424,0.04076436161994934,-0.018931007012724876,0.011546226218342781,-0.044409506022930145,0.14254967868328094,-0.08083838224411011,0.3055703341960907,-1.4424848556518555,0.15310248732566833,-0.5087948441505432,0.5955411195755005,-0.19829833507537842
1749053881.0266404,2.9607090950012207,-0.26039596021685796,-1.521185040473938,-0.1329518121531983,-5.310623888169424,3.680959701538086,0.041487447917461395,-0.01890590600669384,0.012343057431280613,-0.04495399445295334,0.1451772153377533,-0.08120695501565933,0.3101029098033905,-1.4510407447814941,0.15912918746471405,-0.5139504671096802,0.5943124294281006,-0.1877555251121521
1749053881.026677,2.9607930183410645,-0.2604130071452637,-1.5211923122406006,-0.1330670875361939,-5.310369137917654,3.6808149814605713,0.04196997731924057,-0.019553331658244133,0.012144112028181553,-0.046696875244379044,0.14751456677913666,-0.08045963197946548,0.31763482093811035,-1.4635549783706665,0.18198272585868835,-0.5192010402679443,0.5848186612129211,-0.21923404932022095
1749053881.0267134,2.9609131813049316,-0.2604716581157227,-1.5211492776870728,-0.13314767301593022,-5.310038928185598,3.680647611618042,0.04216829314827919,-0.0205877386033535,0.012182172387838364,-0.04721079766750336,0.1489531397819519,-0.08216384053230286,0.31032347679138184,-1.4432384967803955,0.16332699358463287,-0.4953500032424927,0.5746062994003296,-0.20444948971271515
1749053881.0267494,2.960953712463379,-0.2605162423900147,-1.5211446285247803,-0.13327510774646,-5.309741679822103,3.6804957389831543,0.04257841408252716,-0.020741354674100876,0.01253581140190363,-0.047872114926576614,0.14933139085769653,-0.08237665891647339,0.3045675754547119,-1.4397534132003784,0.1729491502046585,-0.5123021006584167,0.5833380818367004,-0.20932993292808533
1749053881.0267859,2.9610342979431152,-0.260559157734253,-1.5210974216461182,-0.13334842145953374,-5.309435848389761,3.6803128719329834,0.04298765957355499,-0.02043699286878109,0.01275832112878561,-0.047163501381874084,0.15249702334403992,-0.0825156569480896,0.30210375785827637,-1.444431185722351,0.19095756113529205,-0.49560651183128357,0.5513362884521484,-0.2197360098361969
1749053881.0268219,2.9611449241638184,-0.2605648797801514,-1.5210891962051392,-0.13343615949664311,-5.30914414325823,3.680149555206299,0.0426703542470932,-0.020902127027511597,0.013740782625973225,-0.0457032211124897,0.14761270582675934,-0.08115294575691223,0.3052240312099457,-1.4743854999542236,0.16726544499397278,-0.5227415561676025,0.5654975175857544,-0.1981380432844162
1749053881.0268574,2.961193799972534,-0.2606244844249268,-1.521069049835205,-0.1335163873485108,-5.308841947709219,3.680009126663208,0.04430239275097847,-0.021698612719774246,0.013543476350605488,-0.04565984010696411,0.14837096631526947,-0.08108124136924744,0.30364084243774414,-1.478635311126709,0.1846104860305786,-0.5273755788803101,0.6287267208099365,-0.23097681999206543
1749053881.0268936,2.961317777633667,-0.2606298488429566,-1.521045207977295,-0.13359661520037847,-5.3085835615741175,3.6798417568206787,0.04398765787482262,-0.02224499173462391,0.014115179888904095,-0.0457322895526886,0.15486590564250946,-0.08278529345989227,0.2922534644603729,-1.4628013372421265,0.17876176536083221,-0.5412910580635071,0.5790865421295166,-0.23849785327911377
1749053881.0269299,2.961373805999756,-0.26066263139758306,-1.5210275650024414,-0.13374336183581548,-5.308232788239614,3.6796586513519287,0.04215022176504135,-0.02219269797205925,0.013904571533203125,-0.04722914472222328,0.15446428954601288,-0.0841652899980545,0.3513942062854767,-1.4701907634735107,0.1860150247812271,-0.5315788984298706,0.6236346364021301,-0.2310793399810791
1749053881.0269659,2.9614858627319336,-0.2607606214335938,-1.520980954170227,-0.13381202638659673,-5.307967011128561,3.6794912815093994,0.04644720256328583,-0.02286551520228386,0.014386639930307865,-0.04706588760018349,0.15831652283668518,-0.08209864050149918,0.3215544521808624,-1.4629158973693848,0.19856271147727966,-0.5435835123062134,0.6053531169891357,-0.2560608386993408
1749053881.0270016,2.961573362350464,-0.26080413282427983,-1.520972728729248,-0.13393958032641606,-5.307631079350607,3.6793291568756104,0.044070225208997726,-0.02296331524848938,0.014045337215065956,-0.047384846955537796,0.1624576449394226,-0.08410825580358505,0.32750552892684937,-1.4765400886535645,0.18372176587581635,-0.5442609190940857,0.594291627407074,-0.23448634147644043
1749053881.0273871,2.9616575241088867,-0.260864333515503,-1.5209208726882935,-0.13399656236682134,-5.307292465363638,3.6791727542877197,0.043595265597105026,-0.02327118255198002,0.014744550921022892,-0.0487247109413147,0.16478949785232544,-0.0856565311551094,0.3645282983779907,-1.4762810468673706,0.19374001026153564,-0.5503665208816528,0.6009141206741333,-0.26324617862701416
1749053881.0293481,2.9617185592651367,-0.26088900983844,-1.5208970308303833,-0.1340843004039307,-5.306954626237051,3.6790053844451904,0.044590193778276443,-0.023216335102915764,0.015132403932511806,-0.048145316541194916,0.17044419050216675,-0.09091299027204514,0.3356530964374542,-1.4736427068710327,0.19210070371627808,-0.5594956874847412,0.5619361996650696,-0.2342686504125595
1749053881.0703235,2.961806058883667,-0.2609202426723023,-1.5208767652511597,-0.13417680681262212,-5.306595567856924,3.678814172744751,0.04701567068696022,-0.023449625819921494,0.015519628301262856,-0.048792410641908646,0.16858264803886414,-0.09270451217889786,0.33881497383117676,-1.4877350330352783,0.20332254469394684,-0.5796092748641968,0.5857182741165161,-0.20510146021842957
1749053881.0703688,2.961956262588501,-0.2609766286662598,-1.5208368301391602,-0.13428886354479985,-5.306263033543722,3.678591251373291,0.04877053573727608,-0.023908579722046852,0.014917125925421715,-0.05005558580160141,0.17276601493358612,-0.09283778071403503,0.3357684016227722,-1.470846176147461,0.19688664376735687,-0.566981852054596,0.5640508532524109,-0.22943982481956482
1749053881.0704129,2.9620368480682373,-0.2610243123820801,-1.5208125114440918,-0.13438482702288823,-5.305919114743368,3.6784119606018066,0.046092599630355835,-0.023854289203882217,0.01564943976700306,-0.051531124860048294,0.17031343281269073,-0.09583193808794022,0.33862435817718506,-1.4892096519470215,0.18993094563484192,-0.564748227596283,0.5484273433685303,-0.20874947309494019
1749053881.0704517,2.962141275405884,-0.26109524190936284,-1.5207887887954712,-0.13448889673266606,-5.305612508450643,3.678208827972412,0.04823474958539009,-0.02323237992823124,0.015447533689439297,-0.05305934697389603,0.1699116975069046,-0.09690024703741074,0.35317152738571167,-1.5012176036834717,0.19380724430084229,-0.5849382281303406,0.5816935896873474,-0.19806721806526184
1749053881.07049,2.962249279022217,-0.26112385213885503,-1.5207524299621582,-0.13462002695117192,-5.305260543023245,3.678025960922241,0.04956619814038277,-0.023856686428189278,0.015781743451952934,-0.053491752594709396,0.17020972073078156,-0.09863609075546265,0.32304126024246216,-1.49763822555542,0.192069411277771,-0.571729302406311,0.5798669457435608,-0.17452429234981537
1749053881.0705278,2.9623141288757324,-0.26114876688037114,-1.5207324028015137,-0.1346932214549561,-5.3049243728267115,3.67785382270813,0.0501990020275116,-0.025314878672361374,0.01505572721362114,-0.0547172985970974,0.17112484574317932,-0.09916365146636963,0.2918207347393036,-1.4963687658309937,0.19263751804828644,-0.5747770667076111,0.604234516620636,-0.20021528005599976
1749053881.070568,2.9624414443969727,-0.2612791818431397,-1.5207085609436035,-0.13484819353137212,-5.30459171930422,3.6776280403137207,0.05007081851363182,-0.024889318272471428,0.015359409153461456,-0.05572943761944771,0.1728283166885376,-0.09893594682216644,0.32894167304039,-1.492634654045105,0.2128179967403412,-0.5616026520729065,0.59395432472229,-0.17864947021007538
1749053881.0706058,2.962509870529175,-0.26125629365954595,-1.5206921100616455,-0.13494427621875005,-5.304220620785848,3.6774239540100098,0.0506993867456913,-0.02601257711648941,0.016116969287395477,-0.0574965700507164,0.175156831741333,-0.0979575514793396,0.33238279819488525,-1.5034629106521606,0.20008602738380432,-0.5630371570587158,0.5990278720855713,-0.19283318519592285
1749053881.0706422,2.962629795074463,-0.2613513034633179,-1.5206328630447388,-0.1350608629039307,-5.303887490426199,3.677255868911743,0.0503840297460556,-0.02709772065281868,0.016326557844877243,-0.057914506644010544,0.17688623070716858,-0.09830860048532486,0.31997084617614746,-1.4759752750396729,0.19666683673858643,-0.5593669414520264,0.602008581161499,-0.18644724786281586
1749053881.070679,2.9627139568328857,-0.26137597978625493,-1.5206084251403809,-0.13518066823992925,-5.303523723279135,3.6770801544189453,0.05064371973276138,-0.02753014676272869,0.017221570014953613,-0.057506732642650604,0.1792093962430954,-0.09748212993144989,0.3345218896865845,-1.4954314231872559,0.18619734048843384,-0.5666301250457764,0.609535276889801,-0.1820743978023529
1749053881.070719,2.962806224822998,-0.26142414033923345,-1.5205841064453125,-0.13527675092730718,-5.303140465413229,3.6768620014190674,0.05147320032119751,-0.027743102982640266,0.0163218192756176,-0.05799012631177902,0.18047666549682617,-0.09559446573257446,0.35362258553504944,-1.4844547510147095,0.22572612762451172,-0.5722203850746155,0.6097215414047241,-0.2127404808998108
1749053881.0707555,2.962914228439331,-0.2614763540080567,-1.5205365419387817,-0.13538964212451177,-5.302790764962332,3.6766862869262695,0.052015818655490875,-0.026825081557035446,0.01651230826973915,-0.05941636487841606,0.18281348049640656,-0.09649471938610077,0.3338361084461212,-1.4957754611968994,0.2058744728565216,-0.5797750353813171,0.6293641328811646,-0.2160402238368988
1749053881.0707915,2.963041305541992,-0.26152832925830083,-1.5205438137054443,-0.13556380689654546,-5.302425746117727,3.6764795780181885,0.05156698450446129,-0.026345016434788704,0.016324015334248543,-0.06084195151925087,0.18348518013954163,-0.09541005641222,0.3444816470146179,-1.494187593460083,0.2130267322063446,-0.557148277759552,0.614804744720459,-0.22685329616069794
1749053881.0708275,2.9631612300872803,-0.26160772264514165,-1.5204763412475586,-0.13567300260577397,-5.302042309437887,3.6762495040893555,0.05458516255021095,-0.029285261407494545,0.01614762842655182,-0.061438899487257004,0.18409264087677002,-0.0973731279373169,0.3397436738014221,-1.498685359954834,0.21289801597595215,-0.561381459236145,0.6172646880149841,-0.22000020742416382
1749053881.0708673,2.963277816772461,-0.26164336622271733,-1.5204682350158691,-0.13579686105761724,-5.301716510449545,3.676088333129883,0.055563125759363174,-0.029657000675797462,0.016542689874768257,-0.06341869384050369,0.1884228140115738,-0.09808753430843353,0.3130751848220825,-1.479637861251831,0.21519863605499268,-0.5385745167732239,0.5995690822601318,-0.22783896327018738
1749053881.070904,2.963408946990967,-0.2617003482631226,-1.520416259765625,-0.135921911602356,-5.301312867795126,3.6758899688720703,0.055049777030944824,-0.02917814813554287,0.01722019724547863,-0.06354136765003204,0.18979166448116302,-0.09694590419530869,0.30309635400772095,-1.496655821800232,0.23473265767097473,-0.5237697958946228,0.6223652362823486,-0.2297552078962326
1749053881.07094,2.9634783267974854,-0.261787013416626,-1.5203801393508911,-0.13605769098315434,-5.3009249607669275,3.6756601333618164,0.054920997470617294,-0.029199331998825073,0.01851056143641472,-0.06410516798496246,0.19309109449386597,-0.09863658249378204,0.3339081406593323,-1.5072234869003296,0.2084866762161255,-0.5259700417518616,0.6233943104743958,-0.2568924129009247
1749053881.0709755,2.9635934829711914,-0.2618273061564942,-1.520359992980957,-0.13619311273608403,-5.300497416649954,3.6754651069641113,0.05466737970709801,-0.030274569988250732,0.01824297197163105,-0.06315276771783829,0.19613017141819,-0.10190916806459427,0.34241387248039246,-1.496410846710205,0.21013697981834412,-0.5525627136230469,0.6188983917236328,-0.2653840482234955
1749053881.0710151,2.9636669158935547,-0.2619103950313111,-1.5203242301940918,-0.13630600393328862,-5.300100926552908,3.6752421855926514,0.057492826133966446,-0.03185831755399704,0.016921306028962135,-0.06335604935884476,0.20151962339878082,-0.10805005580186844,0.3126663267612457,-1.4684289693832397,0.2341737449169159,-0.526068925857544,0.6204832792282104,-0.21748819947242737
1749053881.0710526,2.963810920715332,-0.261931375866272,-1.5202878713607788,-0.13642986238513188,-5.299714867268698,3.675077438354492,0.05566694214940071,-0.031200038269162178,0.017500726506114006,-0.062276095151901245,0.20041124522686005,-0.10704732686281204,0.3201260566711426,-1.4765604734420776,0.2412908673286438,-0.5396744608879089,0.5651635527610779,-0.22933059930801392
1749053881.0713813,2.963953971862793,-0.2619951528361817,-1.5202593803405762,-0.1365460914424439,-5.299264613782064,3.674858570098877,0.05549163743853569,-0.031066840514540672,0.018084445968270302,-0.06338052451610565,0.1992976814508438,-0.11040765047073364,0.3669813275337219,-1.4921996593475342,0.22068831324577332,-0.5431365966796875,0.6124498248100281,-0.22865578532218933
1749053881.0733662,2.9640932083129883,-0.2620827716640015,-1.5202115774154663,-0.1366977256587525,-5.298870627080099,3.674619436264038,0.05709916353225708,-0.03151218965649605,0.01907787285745144,-0.06440076977014542,0.19856734573841095,-0.11383382976055145,0.36462509632110596,-1.4976707696914673,0.21973460912704468,-0.5450488328933716,0.6022489666938782,-0.2093818038702011
1749053881.1143074,2.9641902446746826,-0.2621111434749146,-1.5201760530471802,-0.13679464281115727,-5.298451487218038,3.6743576526641846,0.0604836568236351,-0.031521450728178024,0.018925456330180168,-0.0641612783074379,0.20009613037109375,-0.11430411785840988,0.27358710765838623,-1.4572125673294067,0.23516790568828583,-0.533248245716095,0.5859745144844055,-0.2089047133922577
1749053881.114351,2.9642982482910156,-0.262214259510376,-1.520140290260315,-0.13690252721820073,-5.298007074986593,3.6741762161254883,0.05768737196922302,-0.03152477741241455,0.018436161801218987,-0.06187146157026291,0.20063677430152893,-0.11576914042234421,0.28798606991767883,-1.4921139478683472,0.23786050081253052,-0.5414649844169617,0.5976296067237854,-0.1915767937898636
1749053881.1143904,2.9644460678100586,-0.26225562513385015,-1.5201232433319092,-0.13705428064379888,-5.297645155583517,3.67392635345459,0.05822068825364113,-0.03171485662460327,0.019176173955202103,-0.061756331473588943,0.20319275557994843,-0.11564252525568008,0.33606135845184326,-1.47965407371521,0.2226930558681488,-0.573622465133667,0.5958800315856934,-0.18788978457450867
1749053881.114428,2.9645540714263916,-0.2623506349376221,-1.5200839042663574,-0.1371815961650391,-5.297205750142233,3.6737148761749268,0.059158872812986374,-0.03221335634589195,0.01852521114051342,-0.0649934709072113,0.20591339468955994,-0.11380770057439804,0.3379542827606201,-1.475702166557312,0.22950947284698486,-0.5497066378593445,0.5921018123626709,-0.20600302517414093
1749053881.1144657,2.964705467224121,-0.2624071401408692,-1.5200600624084473,-0.13727505624804692,-5.296800974999563,3.673475503921509,0.05915052443742752,-0.03284798562526703,0.01827244646847248,-0.06407646089792252,0.20722198486328125,-0.11295371502637863,0.3211919665336609,-1.4733887910842896,0.244329571723938,-0.5610803365707397,0.5923780202865601,-0.20393899083137512
1749053881.1145027,2.9648048877716064,-0.26246293008837895,-1.520007610321045,-0.1374299091151734,-5.296364549790518,3.673264265060425,0.05897720903158188,-0.032411832362413406,0.019111523404717445,-0.0653090626001358,0.20893040299415588,-0.10984067618846893,0.33257830142974854,-1.49479341506958,0.2547340393066406,-0.578744649887085,0.5716768503189087,-0.23001502454280853
1749053881.1145399,2.9648900032043457,-0.26250751436267095,-1.5199875831604004,-0.13757772863421636,-5.295986119900839,3.672990560531616,0.05891302227973938,-0.03286878019571304,0.019589943811297417,-0.06595118343830109,0.20829683542251587,-0.11224718391895294,0.35687440633773804,-1.4781038761138916,0.23729343712329865,-0.5681498050689697,0.5988126993179321,-0.23039507865905762
1749053881.1145763,2.964998245239258,-0.26262982309375005,-1.5199439525604248,-0.1376747649959107,-5.295527402554647,3.6727864742279053,0.05896979942917824,-0.032367970794439316,0.018818693235516548,-0.06487485766410828,0.20873481035232544,-0.114606574177742,0.3665459156036377,-1.499367594718933,0.2588801681995392,-0.5959564447402954,0.5743261575698853,-0.21858224272727966
1749053881.1146128,2.96513032913208,-0.26267536104235845,-1.5199310779571533,-0.137814001446106,-5.295095030461447,3.6725432872772217,0.06090905889868736,-0.032598741352558136,0.019003456458449364,-0.06473877280950546,0.20618396997451782,-0.11051922291517258,0.3580020070075989,-1.4914698600769043,0.23930074274539948,-0.5879250764846802,0.6135611534118652,-0.22674807906150818
1749053881.1146495,2.9652585983276367,-0.2627229255488892,-1.519848108291626,-0.13796694696459966,-5.2947298924075525,3.6723134517669678,0.060937702655792236,-0.03248114138841629,0.01941649802029133,-0.06632677465677261,0.2077326625585556,-0.11172276735305786,0.32928919792175293,-1.4946597814559937,0.2571672201156616,-0.587928831577301,0.6266241073608398,-0.2519197463989258
1749053881.114686,2.9653754234313965,-0.26276810586962895,-1.519843578338623,-0.1380867523005982,-5.294313255940573,3.6720824241638184,0.062358561903238297,-0.032086633145809174,0.01937808096408844,-0.06855938583612442,0.21001023054122925,-0.11561280488967896,0.3255158066749573,-1.508244514465332,0.26357775926589966,-0.5918617248535156,0.6301730871200562,-0.2594059407711029
1749053881.1147223,2.9655072689056396,-0.2628556054881592,-1.519788146018982,-0.13822730005297856,-5.293849293385641,3.6718389987945557,0.06239040940999985,-0.03225626051425934,0.02003050036728382,-0.0698612779378891,0.21588939428329468,-0.11890267580747604,0.35146406292915344,-1.4891902208328247,0.25790107250213623,-0.5749212503433228,0.6209925413131714,-0.23354846239089966
1749053881.1147587,2.96563458442688,-0.26292236269030766,-1.5197397470474243,-0.1383785766414185,-5.293405000363485,3.671624183654785,0.0659007653594017,-0.03380383178591728,0.020227408036589622,-0.0703245997428894,0.2197544425725937,-0.11851503700017929,0.3043520450592041,-1.5091089010238647,0.2644001245498657,-0.5738959908485413,0.6194437742233276,-0.241366446018219
1749053881.114795,2.965801239013672,-0.2630072397044678,-1.5197232961654663,-0.13855750978503423,-5.292910102997915,3.6713807582855225,0.06198638677597046,-0.03327583894133568,0.02052874118089676,-0.07084259390830994,0.22711528837680817,-0.12282151728868484,0.37418073415756226,-1.4845131635665894,0.26256200671195984,-0.5983719229698181,0.5803878903388977,-0.22764356434345245
1749053881.1148303,2.965879201889038,-0.26306648672137456,-1.5196714401245117,-0.1386823219111939,-5.292413596306936,3.671097993850708,0.06251346319913864,-0.03161678463220596,0.02097284607589245,-0.07295462489128113,0.22491946816444397,-0.12566892802715302,0.36941060423851013,-1.522162675857544,0.24395614862442017,-0.5707197189331055,0.5850635170936584,-0.20155364274978638
1749053881.114866,2.9660451412200928,-0.2631151241115113,-1.519639492034912,-0.1388349098018189,-5.291941765938894,3.6708791255950928,0.06664241850376129,-0.032223403453826904,0.021528776735067368,-0.07394260913133621,0.22786682844161987,-0.12724769115447998,0.33009031414985657,-1.5358333587646484,0.2617967426776886,-0.5682988166809082,0.5786359310150146,-0.2051151841878891
1749053881.114902,2.966200828552246,-0.26317043722186284,-1.5195751190185547,-0.1389826101115723,-5.291532162819998,3.6705965995788574,0.06419782340526581,-0.03348736837506294,0.020682452246546745,-0.07529151439666748,0.22749115526676178,-0.1287175714969635,0.3275774121284485,-1.5027426481246948,0.28048408031463623,-0.5659939646720886,0.5686156153678894,-0.2094050794839859
1749053881.1149373,2.9663069248199463,-0.26327379167590337,-1.519551396369934,-0.13916643083605962,-5.291075591241018,3.670337677001953,0.06572938710451126,-0.03279341384768486,0.021848993375897408,-0.07653744518756866,0.2286609411239624,-0.12777788937091827,0.35314491391181946,-1.5358158349990845,0.24895763397216797,-0.5453375577926636,0.5770282745361328,-0.20123346149921417
1749053881.114973,2.966461658477783,-0.2633308929255982,-1.5195037126541138,-0.13933439672503667,-5.290625993405477,3.6700587272644043,0.06724048405885696,-0.03418576344847679,0.02189183048903942,-0.07780737429857254,0.22993989288806915,-0.1277843862771988,0.3489896357059479,-1.547363042831421,0.24337545037269592,-0.5374900698661804,0.5729426741600037,-0.1884826421737671
1749053881.115009,2.966583013534546,-0.2633865636638184,-1.5194555521011353,-0.13947124898944097,-5.290134731923239,3.6698007583618164,0.0678754672408104,-0.03586183115839958,0.021788783371448517,-0.08142092823982239,0.23333393037319183,-0.1269576996564865,0.3328416347503662,-1.509437918663025,0.25943124294281006,-0.5127718448638916,0.5599040389060974,-0.18681852519512177
1749053881.1153738,2.9666872024536133,-0.26343460500750737,-1.5194354057312012,-0.13963969171557622,-5.289634946976797,3.6695446968078613,0.06716003268957138,-0.03333663567900658,0.022080544382333755,-0.07910525798797607,0.23538370430469513,-0.12593932449817657,0.3183235824108124,-1.5246305465698242,0.2725751996040344,-0.5161834955215454,0.55728679895401,-0.20403151214122772
1749053881.1173508,2.9668385982513428,-0.26352234304461675,-1.5193556547164917,-0.13981838644061284,-5.289228145276205,3.6693058013916016,0.06732095777988434,-0.03213319182395935,0.022585542872548103,-0.07584938406944275,0.2362898886203766,-0.12508410215377808,0.35618239641189575,-1.5595859289169312,0.2655561566352844,-0.5235297083854675,0.5613629817962646,-0.20135194063186646
1749053881.1582887,2.9670021533966064,-0.26356621206317143,-1.519323468208313,-0.13993938386950688,-5.2887566725360315,3.6690778732299805,0.06698450446128845,-0.03349852189421654,0.022673271596431732,-0.07580923289060593,0.23750656843185425,-0.12715761363506317,0.361529678106308,-1.5497292280197144,0.2624080777168274,-0.5358121395111084,0.549509584903717,-0.22087910771369934
1749053881.1583338,2.9670870304107666,-0.26368554056201177,-1.5192872285842896,-0.1401115220836182,-5.288249735032217,3.6688039302825928,0.06788739562034607,-0.035575296729803085,0.02293907292187214,-0.07612673193216324,0.23570342361927032,-0.12354452162981033,0.3564649820327759,-1.5623135566711426,0.2483774572610855,-0.5267691612243652,0.5902376770973206,-0.24936208128929138
1749053881.1583726,2.9672465324401855,-0.26376064241442876,-1.5192264318466187,-0.14027471960101323,-5.287811104451315,3.668552875518799,0.06907181441783905,-0.036288071423769,0.023025918751955032,-0.07678091526031494,0.23685583472251892,-0.12621097266674042,0.3388361930847168,-1.5306955575942993,0.28019070625305176,-0.528645932674408,0.594791829586029,-0.2393179088830948
1749053881.1584108,2.9673988819122314,-0.2638135713389893,-1.5191909074783325,-0.14041157186541753,-5.287319604550497,3.6683058738708496,0.06928538531064987,-0.035932525992393494,0.022949224337935448,-0.07741229981184006,0.2386278659105301,-0.13228048384189606,0.35765203833580017,-1.5304040908813477,0.2585800886154175,-0.5089053511619568,0.6281337141990662,-0.23089411854743958
1749053881.1584482,2.9674837589263916,-0.263863281612732,-1.5191551446914673,-0.14057500780139165,-5.286846105252401,3.668015241622925,0.06991741806268692,-0.035321641713380814,0.02307533659040928,-0.07311935722827911,0.2423555701971054,-0.1323145180940628,0.3614318072795868,-1.5429645776748657,0.27346569299697876,-0.556250810623169,0.6455451846122742,-0.22795464098453522
1749053881.1584857,2.9676434993743896,-0.26392777383837895,-1.5190603733062744,-0.14070804536853032,-5.286306742821829,3.667724847793579,0.07022152841091156,-0.03586526960134506,0.02369081787765026,-0.0711415484547615,0.24863523244857788,-0.1340794414281845,0.3512295186519623,-1.5759550333023071,0.24340349435806274,-0.5672724843025208,0.6327535510063171,-0.23757219314575195
1749053881.1585224,2.9678101539611816,-0.263998345737793,-1.5190503597259521,-0.1408401292613526,-5.28581411043276,3.6674461364746094,0.070998415350914,-0.03706846758723259,0.024033255875110626,-0.0726771280169487,0.2561589777469635,-0.13694395124912262,0.37816423177719116,-1.5530281066894531,0.25917771458625793,-0.5783886909484863,0.5777295827865601,-0.21834585070610046
1749053881.158567,2.9679744243621826,-0.2641013425639649,-1.5189905166625977,-0.1409927171519776,-5.2853214780436915,3.667187213897705,0.0728062093257904,-0.03703011944890022,0.02473418042063713,-0.07488372176885605,0.25494837760925293,-0.13797521591186523,0.3525303900241852,-1.554091215133667,0.2644190788269043,-0.5699059963226318,0.5705215930938721,-0.19966407120227814
1749053881.1586058,2.96811842918396,-0.2641889613917847,-1.5189385414123535,-0.14116449773822026,-5.284796957169668,3.6669116020202637,0.072020523250103,-0.03787471354007721,0.024625705555081367,-0.07499633729457855,0.25718966126441956,-0.13902847468852997,0.33647066354751587,-1.5401030778884888,0.25181347131729126,-0.5798617005348206,0.5591573715209961,-0.2192527800798416
1749053881.1586468,2.9682776927948,-0.26423831403765874,-1.5188874006271362,-0.14129658163104253,-5.284300688897268,3.66664457321167,0.07184998691082001,-0.038321904838085175,0.0242764875292778,-0.07493098080158234,0.2556772232055664,-0.13720154762268066,0.36892929673194885,-1.5486215353012085,0.25576668977737427,-0.5833795070648193,0.59674471616745,-0.22432559728622437
1749053881.1586843,2.968402624130249,-0.26436062276873784,-1.5188308954238892,-0.1414681237987061,-5.283815447484152,3.666369915008545,0.07533414661884308,-0.03905225172638893,0.02428111433982849,-0.0753236785531044,0.2574555277824402,-0.13619746267795563,0.36377114057540894,-1.5418769121170044,0.26906290650367737,-0.6059014797210693,0.6007987856864929,-0.2350376844406128
1749053881.158721,2.968562126159668,-0.26440151155505376,-1.5187791585922241,-0.14163656652484136,-5.283288125191824,3.666083812713623,0.07460758835077286,-0.03937332704663277,0.024632101878523827,-0.07695811986923218,0.2594785690307617,-0.13849258422851562,0.33781012892723083,-1.5415349006652832,0.25035589933395386,-0.6060056090354919,0.6200403571128845,-0.2454593926668167
1749053881.158758,2.968721628189087,-0.26449771345172124,-1.5187345743179321,-0.14177699506793218,-5.282712284718649,3.6658127307891846,0.07417110353708267,-0.039866551756858826,0.024884851649403572,-0.07950489223003387,0.2623007893562317,-0.13841694593429565,0.35314300656318665,-1.5647635459899902,0.2421501874923706,-0.5935386419296265,0.6246126890182495,-0.24356091022491455
1749053881.158794,2.968881130218506,-0.2645852130702515,-1.5186827182769775,-0.14196057737384038,-5.282195870076315,3.6655688285827637,0.07528955489397049,-0.0410747155547142,0.025185124948620796,-0.08234144002199173,0.26770177483558655,-0.13845740258693695,0.375754714012146,-1.5331352949142456,0.25204914808273315,-0.5870384573936462,0.6279401779174805,-0.27955469489097595
1749053881.1588302,2.969025135040283,-0.2646576923182984,-1.5186387300491333,-0.14211328447375493,-5.2816625277148646,3.6652348041534424,0.07586828619241714,-0.04190479964017868,0.02550206333398819,-0.08324966579675674,0.2666115462779999,-0.14455753564834595,0.3441135287284851,-1.5094349384307861,0.23897188901901245,-0.5913915038108826,0.6115055084228516,-0.2532510757446289
1749053881.158867,2.969165325164795,-0.26470597208056645,-1.518578052520752,-0.14228494585070806,-5.281199876462118,3.664975881576538,0.0767458900809288,-0.041396576911211014,0.025522874668240547,-0.0846729651093483,0.2697693407535553,-0.14533637464046478,0.36778178811073303,-1.4966081380844116,0.24537713825702667,-0.5695762634277344,0.5918197631835938,-0.24798734486103058
1749053881.1589031,2.969348907470703,-0.2647935909083863,-1.5185269117355347,-0.1424688857844849,-5.280652228985922,3.6646575927734375,0.07730916142463684,-0.041227929294109344,0.025540025904774666,-0.08667711913585663,0.2711615264415741,-0.14729435741901398,0.38825395703315735,-1.544306755065918,0.24841275811195374,-0.5834592580795288,0.6234813332557678,-0.2555309534072876
1749053881.1589386,2.9694581031799316,-0.2648664277843018,-1.5184749364852905,-0.1426728528789063,-5.2800955216037195,3.6643624305725098,0.07728534191846848,-0.04210783541202545,0.02526128478348255,-0.08918681740760803,0.27455973625183105,-0.1511639654636383,0.34899434447288513,-1.5277814865112305,0.2569562494754791,-0.5635289549827576,0.6070787310600281,-0.2339254766702652
1749053881.1589746,2.9696691036224365,-0.26494653642687993,-1.5184465646743774,-0.14284105718646245,-5.279515568410055,3.664036750793457,0.0770568698644638,-0.04094789922237396,0.025818636640906334,-0.09119732677936554,0.2746524214744568,-0.15306702256202698,0.36504051089286804,-1.5274651050567627,0.26087889075279236,-0.5471426844596863,0.616341769695282,-0.231044203042984
1749053881.159011,2.9698009490966797,-0.26506228864703374,-1.518354892730713,-0.1430334609797974,-5.278963152562277,3.663729190826416,0.08053616434335709,-0.04194537177681923,0.027196280658245087,-0.09247038513422012,0.2791866958141327,-0.1542768031358719,0.33110809326171875,-1.5419580936431885,0.24355238676071167,-0.5241093039512634,0.6139872074127197,-0.2143462896347046
1749053881.1594036,2.9700121879577637,-0.2651342910579224,-1.5183347463607788,-0.14319761217150884,-5.278386656438009,3.6634268760681152,0.07688084989786148,-0.04201098531484604,0.027573004364967346,-0.09230762720108032,0.2773067355155945,-0.15355288982391357,0.38215458393096924,-1.5250403881072998,0.2166711688041687,-0.5404974818229675,0.598237156867981,-0.2244381159543991
1749053881.1614301,2.970128297805786,-0.26521368444476323,-1.5182663202285767,-0.1434055131724854,-5.277788464223043,3.6631200313568115,0.07837027311325073,-0.04171823710203171,0.026497308164834976,-0.09141576290130615,0.2796400189399719,-0.1534966230392456,0.39492473006248474,-1.5321376323699951,0.22891344130039215,-0.528313398361206,0.5900583863258362,-0.23414134979248047
1749053881.2022893,2.970249652862549,-0.265297607784607,-1.5182263851165771,-0.14356978357348638,-5.2773006598102015,3.6628317832946777,0.0804237425327301,-0.03978213667869568,0.02494850754737854,-0.09408353269100189,0.2793269455432892,-0.1515156328678131,0.35155582427978516,-1.5484691858291626,0.2553289532661438,-0.5192006230354309,0.6105237603187561,-0.22929681837558746
1749053881.202336,2.970405340194702,-0.26540179670367436,-1.5181856155395508,-0.143781380062439,-5.276760284100668,3.6624948978424072,0.07917294651269913,-0.04248972609639168,0.025115765631198883,-0.09261857718229294,0.28257298469543457,-0.15200743079185486,0.3555851876735687,-1.533167839050293,0.25760385394096375,-0.49466463923454285,0.6231878399848938,-0.23706161975860596
1749053881.2023761,2.970644235610962,-0.26547379911456304,-1.5181299448013306,-0.1439696115306397,-5.276129428540365,3.662215232849121,0.08084766566753387,-0.042440518736839294,0.02669382095336914,-0.08805480599403381,0.2853856086730957,-0.1536988466978073,0.3774425983428955,-1.5247992277145386,0.2567879557609558,-0.5432373881340027,0.6412209272384644,-0.2207881510257721
1749053881.2024188,2.9707844257354736,-0.2655736964992066,-1.5180933475494385,-0.14410300672564702,-5.275611702595846,3.661900520324707,0.08138251304626465,-0.04431748762726784,0.0268748439848423,-0.08819185197353363,0.28658556938171387,-0.15208302438259125,0.328446626663208,-1.5072028636932373,0.25255030393600464,-0.522704541683197,0.6318648457527161,-0.2283938080072403
1749053881.2024584,2.9709439277648926,-0.2656378310969849,-1.5180342197418213,-0.14430613935504155,-5.275074307118551,3.661590576171875,0.08208902180194855,-0.042066045105457306,0.026132116094231606,-0.0870463103055954,0.28921404480934143,-0.15106099843978882,0.34041309356689453,-1.5206950902938843,0.2662401497364044,-0.5417060852050781,0.6118864417076111,-0.24745190143585205
1749053881.202497,2.9711081981658936,-0.2657180589488526,-1.5180208683013916,-0.14449460924182134,-5.274460021649496,3.661252021789551,0.08175359666347504,-0.040513958781957626,0.02641131542623043,-0.08918692171573639,0.29281169176101685,-0.15566220879554749,0.35688066482543945,-1.5633275508880615,0.26953551173210144,-0.5399985909461975,0.6167371869087219,-0.24155907332897186
1749053881.2025347,2.9712603092193604,-0.26583321512255864,-1.5179498195648193,-0.1446625751307984,-5.273944918309347,3.660963773727417,0.08243349194526672,-0.04234443977475166,0.02775821089744568,-0.08650072664022446,0.2914915978908539,-0.1535341739654541,0.37988048791885376,-1.5721017122268677,0.2577010989189148,-0.5432707071304321,0.6499021053314209,-0.2655462920665741
1749053881.202576,2.971416473388672,-0.265960769062378,-1.51789391040802,-0.1448466342738648,-5.273310128842489,3.6606802940368652,0.08317799121141434,-0.043346989899873734,0.02615012787282467,-0.08544426411390305,0.29422488808631897,-0.1566152125597,0.3329675495624542,-1.518690586090088,0.26160553097724915,-0.5805241465568542,0.6385783553123474,-0.2690069079399109
1749053881.2026134,2.9715888500213623,-0.26601286352191167,-1.5178613662719727,-0.14499528825793462,-5.272753183041708,3.660350799560547,0.08387643843889236,-0.04286455363035202,0.02485518902540207,-0.0881989374756813,0.29692789912223816,-0.15861056745052338,0.3258383274078369,-1.499345064163208,0.2750852406024933,-0.5501237511634827,0.636141300201416,-0.268898069858551
1749053881.20265,2.971783399581909,-0.26611347616229253,-1.5177901983261108,-0.14519472539935308,-5.2720986048327845,3.659996509552002,0.08405116945505142,-0.04175532981753349,0.025170227512717247,-0.08914069086313248,0.3028597831726074,-0.15880237519741058,0.3385039269924164,-1.5370796918869019,0.2834434509277344,-0.5611235499382019,0.6075623035430908,-0.26643264293670654
1749053881.202687,2.9719789028167725,-0.26618118703875737,-1.5177457332611084,-0.14537961900744634,-5.271540943776266,3.6597137451171875,0.08375620096921921,-0.04161180928349495,0.02677454985678196,-0.0905473530292511,0.3015086054801941,-0.15975366532802582,0.3725455403327942,-1.550656795501709,0.2897934913635254,-0.5613027811050415,0.6119929552078247,-0.252121239900589
1749053881.2027266,2.9721386432647705,-0.2662423414042969,-1.5177173614501953,-0.14556725442919927,-5.270935122166769,3.659379005432129,0.08311137557029724,-0.04150606691837311,0.02799946255981922,-0.0924348533153534,0.30451643466949463,-0.16062188148498535,0.3634306490421295,-1.536040186882019,0.2625567615032196,-0.5519833564758301,0.5856592655181885,-0.2625559866428375
1749053881.2027664,2.9723193645477295,-0.2663573783687134,-1.5176572799682617,-0.14572759092364507,-5.270291034375326,3.6590254306793213,0.08676894009113312,-0.04226553812623024,0.02778824232518673,-0.09469074755907059,0.30365702509880066,-0.1619553565979004,0.32900843024253845,-1.5323350429534912,0.25765374302864075,-0.5490436553955078,0.6054643392562866,-0.2586926817893982
1749053881.202803,2.9724717140197754,-0.26642103612933354,-1.5176126956939697,-0.14595122755084233,-5.269716922436849,3.6587259769439697,0.0830555260181427,-0.041496310383081436,0.027354037389159203,-0.09719570726156235,0.3043064773082733,-0.15936583280563354,0.3638814687728882,-1.516900658607483,0.27540427446365356,-0.5353693962097168,0.5839555859565735,-0.2794647812843323
1749053881.2028391,2.97265887260437,-0.2665479940227051,-1.5175334215164185,-0.14616270483050542,-5.269105140362875,3.658406972885132,0.08521097898483276,-0.04192410036921501,0.02746618539094925,-0.09966553747653961,0.30480995774269104,-0.1649872213602066,0.37001776695251465,-1.5639514923095703,0.27110233902931213,-0.5083661675453186,0.6022295951843262,-0.2668793201446533
1749053881.2028787,2.9728195667266846,-0.266628698711731,-1.517488956451416,-0.1463596385768433,-5.268430296574728,3.6580843925476074,0.08602746576070786,-0.042656123638153076,0.027609772980213165,-0.10048827528953552,0.30485183000564575,-0.16489331424236298,0.3059907555580139,-1.5445071458816528,0.27239301800727844,-0.5134903788566589,0.6108794212341309,-0.25408875942230225
1749053881.2029161,2.973007917404175,-0.2667045158198853,-1.5174293518066406,-0.14655144632373052,-5.267903033887045,3.657715320587158,0.08545687794685364,-0.042769905179739,0.02912725880742073,-0.10207952558994293,0.3020111620426178,-0.16647057235240936,0.3602426052093506,-1.5440113544464111,0.2674318552017212,-0.49373212456703186,0.5882259607315063,-0.2631182074546814
1749053881.2029524,2.9731664657592773,-0.26678486288104253,-1.517380714416504,-0.1467558902553101,-5.267211977635519,3.6574344635009766,0.08688637614250183,-0.04354896768927574,0.027218922972679138,-0.10276726633310318,0.3027038276195526,-0.1684526950120926,0.3304643929004669,-1.5555481910705566,0.26201534271240234,-0.47286826372146606,0.593475878238678,-0.24530400335788727
1749053881.202989,2.973330497741699,-0.2668531698039551,-1.5173168182373047,-0.1469443601420899,-5.2665801684009,3.657080888748169,0.08809103816747665,-0.04414490610361099,0.027224961668252945,-0.0990033745765686,0.30312150716781616,-0.1691644936800003,0.3362099826335907,-1.5457051992416382,0.2826302945613861,-0.48629409074783325,0.6075875163078308,-0.25034794211387634
1749053881.203028,2.9735260009765625,-0.26696093500170903,-1.51727294921875,-0.14717121542010503,-5.266006056462423,3.6567423343658447,0.08678476512432098,-0.04407002031803131,0.02778000943362713,-0.09806502610445023,0.3035963773727417,-0.16939327120780945,0.3506058156490326,-1.5373055934906006,0.2759470045566559,-0.501066267490387,0.6287472248077393,-0.2600735127925873
1749053881.203406,2.973659038543701,-0.26704855382952886,-1.5172123908996582,-0.1473596853068848,-5.2653741280185145,3.6563925743103027,0.0874282568693161,-0.04640568047761917,0.028465479612350464,-0.09803683310747147,0.30785149335861206,-0.1690576821565628,0.361843466758728,-1.5032234191894531,0.2794326841831207,-0.49995291233062744,0.6324852705001831,-0.23987415432929993
1749053881.2053843,2.973850965499878,-0.26712556303057866,-1.5171329975128174,-0.14753277719531255,-5.264819089566366,3.6560420989990234,0.08888466656208038,-0.047212034463882446,0.02867726981639862,-0.09881620109081268,0.3080728054046631,-0.16858580708503723,0.3625892400741577,-1.5166629552841187,0.26352280378341675,-0.4849822521209717,0.623223602771759,-0.24129308760166168
1749053881.246287,2.9740259647369385,-0.2672524017146607,-1.5170927047729492,-0.14772828043017583,-5.2641558090793055,3.6557300090789795,0.08717627823352814,-0.045437391847372055,0.028395861387252808,-0.09430698305368423,0.31084227561950684,-0.1684211641550064,0.3715211749076843,-1.534999132156372,0.26704907417297363,-0.5172973871231079,0.6061326265335083,-0.27718791365623474
1749053881.2463336,2.974228620529175,-0.2673172515681763,-1.5170289278030396,-0.14791353166613774,-5.26352030435671,3.6554107666015625,0.08818984031677246,-0.0481833815574646,0.028310071676969528,-0.09326788783073425,0.31262505054473877,-0.1685078740119934,0.38616254925727844,-1.5223431587219238,0.26779675483703613,-0.5375697612762451,0.6193079352378845,-0.2858661115169525
1749053881.2463737,2.974397897720337,-0.26741667211566167,-1.516952633857727,-0.1480812591365357,-5.262872163449423,3.6550798416137695,0.09252093732357025,-0.0478937141597271,0.028763579204678535,-0.09372630715370178,0.31489038467407227,-0.1730019599199295,0.3151622414588928,-1.5010267496109009,0.2803708612918854,-0.5424809455871582,0.6168724298477173,-0.26043701171875
1749053881.2464128,2.9745378494262695,-0.26751621187243657,-1.5168932676315308,-0.1483122867396851,-5.262273852025167,3.654710054397583,0.08954301476478577,-0.04948713257908821,0.02970692701637745,-0.09464216977357864,0.3168831765651703,-0.17103905975818634,0.39183440804481506,-1.4893466234207153,0.26418957114219666,-0.5671906471252441,0.61314857006073,-0.2801237106323242
1749053881.246451,2.9747142791748047,-0.2676083606532593,-1.516821265220642,-0.1484695237926026,-5.2616217772113245,3.6543641090393066,0.0910581573843956,-0.046834174543619156,0.030461950227618217,-0.09501902759075165,0.3176066279411316,-0.1734379082918167,0.35753369331359863,-1.5241590738296509,0.27221745252609253,-0.5640323758125305,0.6041480302810669,-0.28591591119766235
1749053881.2464883,2.9749529361724854,-0.2677202981761475,-1.5167604684829712,-0.14866145074877934,-5.260941211377279,3.6540138721466064,0.0912429615855217,-0.04646775871515274,0.03095378912985325,-0.09627356380224228,0.3194783926010132,-0.175013929605484,0.3972848951816559,-1.548532485961914,0.24824807047843933,-0.5796342492103577,0.5818482041358948,-0.28261715173721313
1749053881.2465265,2.9751291275024414,-0.26781614244494634,-1.516684889793396,-0.1488381189158936,-5.260248724614279,3.6536550521850586,0.0912918895483017,-0.04841341823339462,0.030027536675333977,-0.09945452958345413,0.32173457741737366,-0.17672991752624512,0.3915407359600067,-1.5090181827545166,0.26269906759262085,-0.5472725033760071,0.5977158546447754,-0.28704485297203064
1749053881.2465637,2.975332021713257,-0.26791568220172124,-1.5166410207748413,-0.1490456622890015,-5.259635631238119,3.6533119678497314,0.09104104340076447,-0.047789063304662704,0.030748430639505386,-0.10178321599960327,0.31957706809043884,-0.17908045649528503,0.38535863161087036,-1.5176149606704712,0.25833573937416077,-0.5604312419891357,0.614648163318634,-0.2800852060317993
1749053881.2466002,2.9754579067230225,-0.2679959100535889,-1.5165646076202393,-0.14926548421893315,-5.2589948813067835,3.6529464721679688,0.09210623055696487,-0.04756390303373337,0.03178706392645836,-0.10307057946920395,0.3215632736682892,-0.17913901805877686,0.4273013472557068,-1.5313503742218018,0.23994246125221252,-0.5767608880996704,0.6181589365005493,-0.2764739394187927
1749053881.246637,2.975665330886841,-0.2680881780437012,-1.5165208578109741,-0.14946968973193364,-5.258358422909872,3.6526224613189697,0.0938732847571373,-0.0482444167137146,0.030513806268572807,-0.10825669765472412,0.3284646272659302,-0.1799107939004898,0.4140412509441376,-1.5409117937088013,0.2340322732925415,-0.5465962886810303,0.5911428928375244,-0.28133365511894226
1749053881.246692,2.9758644104003906,-0.2681684058955689,-1.5164680480957031,-0.14969785631213384,-5.257681910191671,3.652252197265625,0.09528210759162903,-0.04641363397240639,0.02861880138516426,-0.11167481541633606,0.33026382327079773,-0.18068459630012512,0.34079599380493164,-1.5304431915283203,0.25491172075271606,-0.527233362197876,0.5920564532279968,-0.27721962332725525
1749053881.246758,2.9761030673980713,-0.26827724397692876,-1.5164190530776978,-0.14994152009997563,-5.257029596959249,3.6518661975860596,0.0953943058848381,-0.04784797504544258,0.028805378824472427,-0.11221960932016373,0.32987266778945923,-0.18096953630447388,0.37311020493507385,-1.51234769821167,0.25577107071876526,-0.4994090497493744,0.6013529896736145,-0.28922533988952637
1749053881.246822,2.976217031478882,-0.268329457645752,-1.516356110572815,-0.1501506131938477,-5.25641113916506,3.651489019393921,0.09547338634729385,-0.047091465443372726,0.03049847111105919,-0.11024446785449982,0.3290793299674988,-0.18418774008750916,0.3795589804649353,-1.5407092571258545,0.2470751702785492,-0.500332236289978,0.6127759218215942,-0.27395352721214294
1749053881.246885,2.9763898849487305,-0.2684534353068848,-1.5162997245788574,-0.15039797246966558,-5.255692426358358,3.651109218597412,0.09700006246566772,-0.04788542911410332,0.029944976791739464,-0.11464511603116989,0.32947319746017456,-0.18409059941768646,0.4003716707229614,-1.5625872611999512,0.2386973798274994,-0.4851110577583313,0.6405667066574097,-0.26373395323753357
1749053881.2469523,2.9766440391540527,-0.2685839694789429,-1.5162322521209717,-0.15062613904986577,-5.255030457173483,3.6507391929626465,0.0962529331445694,-0.04795268550515175,0.029238132759928703,-0.11268552392721176,0.33259883522987366,-0.18683180212974548,0.341313898563385,-1.5442734956741333,0.2707937955856323,-0.4608248174190521,0.6240825653076172,-0.25538086891174316
1749053881.2470174,2.9768359661102295,-0.2686522764018555,-1.516168475151062,-0.15085430563006597,-5.25433844724764,3.650439500808716,0.09644123166799545,-0.047616034746170044,0.030302783474326134,-0.10853548347949982,0.33427780866622925,-0.18743237853050232,0.3844609558582306,-1.5391383171081543,0.2636237144470215,-0.49566349387168884,0.623365044593811,-0.2284175157546997
1749053881.2470746,2.977067470550537,-0.26877232015643315,-1.5161360502243042,-0.15106649816546636,-5.253668848668234,3.6500027179718018,0.09818616509437561,-0.0482596680521965,0.030672593042254448,-0.10594004392623901,0.3355439305305481,-0.18847884237766266,0.33722153306007385,-1.5564700365066528,0.2504703998565674,-0.47607308626174927,0.6094498038291931,-0.22832980751991272
1749053881.24713,2.9772472381591797,-0.268868164425232,-1.5160883665084839,-0.15131373823199468,-5.25299317041506,3.6496360301971436,0.09756898134946823,-0.048298634588718414,0.02944263070821762,-0.1086639016866684,0.3389143943786621,-0.18772979080677032,0.40107184648513794,-1.560081124305725,0.2533148229122162,-0.496218740940094,0.5751176476478577,-0.2382686734199524
1749053881.247191,2.977447509765625,-0.26895590246234136,-1.516047477722168,-0.15151460588488774,-5.2522961536990564,3.649296283721924,0.0987699031829834,-0.049045026302337646,0.02815444953739643,-0.10644341260194778,0.34210121631622314,-0.18699876964092255,0.36464184522628784,-1.5532443523406982,0.2852959632873535,-0.48075807094573975,0.6140283346176147,-0.23949803411960602
1749053881.2472599,2.977670669555664,-0.26906712472949224,-1.5159993171691895,-0.1517149967006226,-5.251670185719625,3.6488986015319824,0.09996699541807175,-0.049792930483818054,0.02918548695743084,-0.10487790405750275,0.34771203994750977,-0.1869805008172989,0.3422207832336426,-1.5294904708862305,0.2905808091163635,-0.506184458732605,0.5892965793609619,-0.2421758770942688
1749053881.2474234,2.9778778553009033,-0.2691785854152222,-1.515908122062683,-0.15192301691088872,-5.250926677380697,3.6485133171081543,0.09775780886411667,-0.0499257855117321,0.030850453302264214,-0.10444886982440948,0.3480042517185211,-0.1878867745399475,0.38283684849739075,-1.5656503438949585,0.2543303966522217,-0.5063427686691284,0.6022709608078003,-0.2588895559310913
1749053881.249345,2.9780197143554688,-0.26929159582171636,-1.5158789157867432,-0.1521584552577515,-5.250253740941183,3.6481847763061523,0.10172596573829651,-0.05095316469669342,0.030006932094693184,-0.10625009983778,0.3481448292732239,-0.1900445520877838,0.3604688048362732,-1.5355194807052612,0.277905136346817,-0.5171287059783936,0.5742763876914978,-0.23842522501945496
1749053881.2905266,2.978214979171753,-0.26940305650744634,-1.5158188343048096,-0.1523553890040894,-5.249560300503866,3.6477787494659424,0.09860692173242569,-0.05386411398649216,0.030019139871001244,-0.10726673901081085,0.3451022207736969,-0.18896493315696716,0.38607537746429443,-1.4805374145507812,0.2960052192211151,-0.5067295432090759,0.6137993931770325,-0.25328904390335083
1749053881.290601,2.978437900543213,-0.2694987815669556,-1.5157709121704102,-0.15255566061053472,-5.248836461697714,3.6473772525787354,0.1015937551856041,-0.05156503990292549,0.03073524311184883,-0.10888893902301788,0.3460181951522827,-0.18945425748825073,0.383602112531662,-1.537323236465454,0.27994468808174133,-0.5220102071762085,0.6298657655715942,-0.26702871918678284
1749053881.2906697,2.9786574840545654,-0.2696257394603272,-1.5156831741333008,-0.15277202547106938,-5.248161856328146,3.6469831466674805,0.09985920786857605,-0.050834089517593384,0.031595099717378616,-0.11067479103803635,0.34863704442977905,-0.1920665204524994,0.4215447008609772,-1.5462205410003662,0.27941322326660156,-0.5253100395202637,0.6438220739364624,-0.2518607974052429
1749053881.2907376,2.9788577556610107,-0.2696986955455323,-1.5156201124191284,-0.15300758302722173,-5.247472349797384,3.6466124057769775,0.10248149931430817,-0.05318016558885574,0.031573761254549026,-0.11440803855657578,0.35245102643966675,-0.19331806898117065,0.3720201253890991,-1.5291481018066406,0.27166828513145447,-0.4972838759422302,0.6403936743736267,-0.2732725739479065
1749053881.2908034,2.978999376296997,-0.2698064607432862,-1.5155285596847534,-0.1532474321177979,-5.246754829083578,3.646214723587036,0.10412664711475372,-0.056297026574611664,0.03201647102832794,-0.11660562455654144,0.35491058230400085,-0.1960800588130951,0.3554733693599701,-1.4726948738098145,0.271029531955719,-0.4708252549171448,0.5940029621124268,-0.24979083240032196
1749053881.2908702,2.97924542427063,-0.26991482198748784,-1.5155067443847656,-0.15347571790728765,-5.246038858090536,3.6458120346069336,0.1031733974814415,-0.05339109152555466,0.0327841192483902,-0.114986352622509,0.35535821318626404,-0.19674454629421234,0.38799506425857544,-1.4709720611572266,0.2793225049972534,-0.4849066734313965,0.6435167789459229,-0.23275089263916016
1749053881.290937,2.9794421195983887,-0.2700382036021729,-1.5154471397399902,-0.15374334276232915,-5.24530274072756,3.6454482078552246,0.10363609343767166,-0.05231215059757233,0.03332887217402458,-0.11946754902601242,0.35755452513694763,-0.1975903958082199,0.39973199367523193,-1.542898416519165,0.257327675819397,-0.45052844285964966,0.6677569150924683,-0.20957453548908234
1749053881.291002,2.979654550552368,-0.2701184314540406,-1.515339970588684,-0.1539488595775147,-5.2445589939700525,3.6450355052948,0.1043928936123848,-0.054071035236120224,0.03340793401002884,-0.11587928235530853,0.36534184217453003,-0.19479508697986603,0.37172436714172363,-1.505786657333374,0.26791059970855713,-0.4549534022808075,0.6282010078430176,-0.2437906265258789
1749053881.2910693,2.979889392852783,-0.27028150976214604,-1.5152798891067505,-0.15418072164569097,-5.243848983441488,3.6446456909179688,0.10407593846321106,-0.05484781041741371,0.0338045172393322,-0.11381417512893677,0.37007761001586914,-0.19805195927619934,0.3746090829372406,-1.5039010047912598,0.27401304244995117,-0.48530954122543335,0.6103054881095886,-0.2251981496810913
1749053881.2911355,2.980069398880005,-0.2703738969615479,-1.5151915550231934,-0.15442080915484624,-5.243117157612936,3.6442437171936035,0.10454563051462173,-0.05407402291893959,0.03392549976706505,-0.11478013545274734,0.3686257600784302,-0.1986350417137146,0.3958345651626587,-1.4967968463897705,0.26694127917289734,-0.4725925922393799,0.5982955694198608,-0.2204229086637497
1749053881.2911997,2.9802587032318115,-0.2704697412303467,-1.5151352882385254,-0.15464909494433599,-5.242403570805685,3.643860101699829,0.1052178218960762,-0.054250579327344894,0.03453109785914421,-0.1150565966963768,0.36889734864234924,-0.20074060559272766,0.4062279462814331,-1.5106492042541504,0.2501930594444275,-0.46759122610092163,0.6316182613372803,-0.25307103991508484
1749053881.2912638,2.9804625511169434,-0.27057381094012456,-1.5150638818740845,-0.15486176431689458,-5.241687599812643,3.643446922302246,0.10608754307031631,-0.054780080914497375,0.03330355882644653,-0.11064264178276062,0.37042364478111267,-0.20453907549381256,0.40044113993644714,-1.51266610622406,0.25627198815345764,-0.5135260820388794,0.6503574848175049,-0.21798163652420044
1749053881.2913282,2.9806976318359375,-0.2706741851619263,-1.515031099319458,-0.15509684503588872,-5.240932647381918,3.6430370807647705,0.10931869596242905,-0.054247040301561356,0.03235584497451782,-0.1115371435880661,0.3739505112171173,-0.2065005898475647,0.3903725743293762,-1.4973853826522827,0.2706543207168579,-0.5216039419174194,0.6263221502304077,-0.2120661437511444
1749053881.2913928,2.9808743000030518,-0.2708328527263184,-1.5149586200714111,-0.1552940172008057,-5.240160051976339,3.6426491737365723,0.10501553118228912,-0.05282622203230858,0.032935116440057755,-0.11266385763883591,0.37550175189971924,-0.2070317417383194,0.39952948689460754,-1.508582353591919,0.2740572988986969,-0.5260555148124695,0.6028119325637817,-0.20194609463214874
1749053881.2914572,2.981112480163574,-0.27089400709185796,-1.5148746967315674,-0.1555449527553101,-5.239476982747213,3.642216205596924,0.10851497203111649,-0.05266614630818367,0.03397798165678978,-0.11127163469791412,0.37518393993377686,-0.2054969072341919,0.42585042119026184,-1.5106960535049438,0.27362215518951416,-0.54443359375,0.6314080953598022,-0.2241075187921524
1749053881.2915218,2.9813404083251953,-0.2710253757289429,-1.5148189067840576,-0.15576572835955815,-5.238673035298483,3.6417713165283203,0.1081896498799324,-0.05277027562260628,0.03447796031832695,-0.11445609480142593,0.3760298788547516,-0.20356689393520355,0.46207064390182495,-1.6007357835769653,0.2405289113521576,-0.5824897289276123,0.7030600905418396,-0.25608378648757935
