nimar13/UR3e_dataset_trayectorias/trayectorias_ejecutadas/trapezoidal_func/trayectoria_141_result.csv
timestamp,q1,q2,q3,q4,q5,q6,qd1,qd2,qd3,qd4,qd5,qd6,tau1,tau2,tau3,tau4,tau5,tau6
1749057373.0864732,2.73319935798645,-1.7143689594664515,0.4512084166156214,-0.09543712556872563,-5.003619138394491,1.250936508178711,-0.003717591753229499,-0.0006679483340121806,-0.00026461310335434973,0.0003573133726604283,0.0014935252256691456,0.0003598831535782665,0.12762802839279175,-0.5105568170547485,-0.6776115298271179,-0.3041670620441437,0.0762641578912735,0.13628771901130676
1749057373.0865219,2.7332375049591064,-1.714365144769186,0.4512274901019495,-0.09542162836108403,-5.0036659876452845,1.2509276866912842,-0.0037714019417762756,-0.0006912449025548995,-0.00025394465774297714,0.0003430559590924531,0.0022285666782408953,0.00034283456625416875,0.11524394899606705,-0.5198698043823242,-0.6792323589324951,-0.311630517244339,0.06675036251544952,0.129579097032547
1749057373.0865622,2.7332029342651367,-1.714334627191061,0.45123464265932256,-0.09546835840258794,-5.0036495367633265,1.250995397567749,-0.003382284427061677,-0.0006640209467150271,-0.0002441032265778631,0.0003279137017671019,0.002387603744864464,0.0003272580506745726,0.0865250751376152,-0.5013203620910645,-0.6838243007659912,-0.28790849447250366,0.07481883466243744,0.133195161819458
1749057373.0866008,2.7331836223602295,-1.7143503628172816,0.4512117544757288,-0.09546478212390141,-5.00364596048464,1.250948429107666,-0.002542321104556322,-0.0011949670733883977,-0.00023499671078752726,0.0002952817885670811,0.0021307256538420916,0.0003130188852082938,0.08164464682340622,-0.48589590191841125,-0.6607921123504639,-0.30890145897865295,0.07464639842510223,0.149140864610672
1749057373.086639,2.7331717014312744,-1.7143413029112757,0.45123130479921514,-0.09543712556872563,-5.003602329884664,1.250948429107666,-0.0024237148463726044,-0.001774785341694951,-0.00022654492931906134,0.0002732627035584301,0.0017734469147399068,0.00030017629615031183,0.09688907116651535,-0.5094412565231323,-0.6708112955093384,-0.29419225454330444,0.10559608042240143,0.13145172595977783
1749057373.0866766,2.7332029342651367,-1.7143813572325648,0.4512274901019495,-0.09543712556872563,-5.0036577622043055,1.2508975267410278,-0.002713775262236595,-0.002205814467743039,-0.00021868011390324682,0.0002936470846179873,0.001813292969018221,0.00025741852005012333,0.07615350931882858,-0.504214882850647,-0.6697300672531128,-0.30493274331092834,0.09505458176136017,0.12141239643096924
1749057373.0867143,2.7331788539886475,-1.714334627191061,0.4512274901019495,-0.09542520463977056,-5.003579441701071,1.2509329319000244,-0.002918470883741975,-0.0024576294235885143,-0.00021134302369318902,0.0003164864319842309,0.0026271441020071507,0.00023917207727208734,0.06706555932760239,-0.49503639340400696,-0.6723028421401978,-0.3067982494831085,0.09456677734851837,0.14820393919944763
1749057373.086758,2.7331907749176025,-1.7143932781615199,0.4512274901019495,-0.09543712556872563,-5.003594104443685,1.2509329319000244,-0.002931036055088043,-0.0021905892062932253,-0.0002044826978817582,0.00031843932811170816,0.003417778993025422,0.00022632743639405817,0.08859754353761673,-0.4971695840358734,-0.6679666042327881,-0.307833194732666,0.07935307919979095,0.13051888346672058
1749057373.0867958,2.7331738471984863,-1.7143813572325648,0.4512084166156214,-0.09543712556872563,-5.003586832677023,1.2509639263153076,-0.002665420062839985,-0.0017959156539291143,-0.00019805347255896777,0.00033108502975665033,0.0030234369914978743,0.00021534456755034626,0.08830822259187698,-0.5056471824645996,-0.6624022126197815,-0.300398051738739,0.09088163077831268,0.13801977038383484
1749057373.086834,2.733182430267334,-1.7143966160216273,0.4511964956866663,-0.09540970743212895,-5.003602329884664,1.2509713172912598,-0.002509340178221464,-0.001455948338843882,-0.00019201663963031024,0.00033093997626565397,0.0024814128410071135,0.0002054762444458902,0.07294758409261703,-0.5034198760986328,-0.6720390319824219,-0.28818124532699585,0.10582716763019562,0.1315886676311493
1749057373.0868707,2.733194351196289,-1.7143398723998011,0.4512274901019495,-0.09542878091845708,-5.003578249608175,1.2509639263153076,-0.0021038155537098646,-0.0015264085959643126,-0.00018633666331879795,0.000520060770213604,0.0019744539167732,0.00019649513706099242,0.08463514596223831,-0.5129947662353516,-0.6727235317230225,-0.3004824221134186,0.11486782133579254,0.14847439527511597
1749057373.086908,2.7331666946411133,-1.7143932781615199,0.45123130479921514,-0.09545298040423589,-5.003555480633871,1.2509758472442627,-0.0015738335205242038,-0.0019311821088194847,-0.0001809834357118234,0.0005259940517134964,0.0013237219536677003,0.00018826867744792253,0.08922015875577927,-0.5068296194076538,-0.679503858089447,-0.30382296442985535,0.10542364418506622,0.12233856320381165
1749057373.0869455,2.7331738471984863,-1.7144133053221644,0.4512117544757288,-0.09541328371081548,-5.003633681927816,1.2509639263153076,-0.001310860738158226,-0.002794975182041526,-0.0001759287843015045,0.0005353195010684431,0.0011394874891266227,0.00018070157966576517,0.09638593345880508,-0.49130919575691223,-0.6750226020812988,-0.27453377842903137,0.11016269028186798,0.12944117188453674
1749057373.086983,2.73313570022583,-1.7143894634642542,0.4512117544757288,-0.09540970743212895,-5.003590408955709,1.2509448528289795,-0.0012261183001101017,-0.0026947646401822567,-0.0001711492077447474,0.0005165563779883087,0.0010784859769046307,0.00019357471319381148,0.0637940838932991,-0.490091472864151,-0.6796206831932068,-0.29370471835136414,0.11047403514385223,0.13660207390785217
1749057373.087025,2.733154773712158,-1.7143861256041468,0.4512274901019495,-0.09542520463977056,-5.003590408955709,1.250913143157959,-0.0011709077516570687,-0.0025122493971139193,-0.0001666223834035918,0.0004766439669765532,0.0010475317249074578,0.00017896038480103016,0.07904966920614243,-0.5083473920822144,-0.6899479627609253,-0.28745153546333313,0.09375794231891632,0.14029845595359802
1749057373.0870636,2.7331979274749756,-1.714429040948385,0.4512274901019495,-0.09540970743212895,-5.003578249608175,1.2509411573410034,-0.0010437655728310347,-0.0020852612797170877,-0.00016232870984822512,0.0004979399964213371,0.0009430117206647992,0.00018655190069694072,0.08276822417974472,-0.5145707130432129,-0.6950976252555847,-0.2926103174686432,0.09125091135501862,0.1264137625694275
1749057373.0871005,2.733182430267334,-1.7143827877440394,0.4512274901019495,-0.09542162836108403,-5.003609601651327,1.2509448528289795,-0.0008735271403566003,-0.001985742710530758,-0.00015825095761101693,0.0004940818762406707,0.0007933361339382827,0.00018559067393653095,0.08672595769166946,-0.5136818885803223,-0.6782741546630859,-0.2905356287956238,0.10449476540088654,0.13525155186653137
1749057373.0871377,2.7331702709198,-1.7143947086729945,0.4512274901019495,-0.09542520463977056,-5.0035709778415125,1.2509448528289795,-0.0007313724490813911,-0.0022088433615863323,-0.00015437287220265716,0.000495054991915822,0.0007497707847505808,0.00018035498214885592,0.09425093978643417,-0.5237711668014526,-0.685467004776001,-0.28728172183036804,0.09710098803043365,0.1443740725517273
1749057373.0871751,2.7331655025482178,-1.7144133053221644,0.4512274901019495,-0.09542878091845708,-5.003560010586874,1.2509639263153076,-0.0006290299934335053,-0.002218550071120262,-0.00016663917631376535,0.0005136888357810676,0.0006942109321244061,0.00017468229634687304,0.09701868146657944,-0.5291388034820557,-0.6793437004089355,-0.2875261604785919,0.10304509103298187,0.11917584389448166
1749057373.0872116,2.7331788539886475,-1.7144414387144984,0.45123130479921514,-0.09539778650317388,-5.003585521374838,1.2509639263153076,-0.000551828125026077,-0.0028704318683594465,-0.00016782009333837777,0.0005567244370467961,0.0006213287706486881,0.00016924132069107145,0.10940805822610855,-0.48931336402893066,-0.6802858710289001,-0.2791540026664734,0.09046141803264618,0.13097533583641052
1749057373.0872486,2.7331666946411133,-1.7144185505309046,0.4511964956866663,-0.09541328371081548,-5.003614250813619,1.2509520053863525,-0.0004915178869850934,-0.0038911611773073673,-0.00016432092525064945,0.0005903878482058644,0.000558124331291765,0.0001641030248720199,0.09874802082777023,-0.48590755462646484,-0.6983243227005005,-0.2833154499530792,0.08540226519107819,0.13029879331588745
1749057373.087286,2.7331788539886475,-1.714402814904684,0.45125133195985967,-0.09541328371081548,-5.0036131779300135,1.2509448528289795,-0.0004430976405274123,-0.003790298942476511,-0.00016067542310338467,0.0006199142662808299,0.000505864096339792,0.00015926147170830518,0.0895906612277031,-0.5043045878410339,-0.6991462707519531,-0.279360830783844,0.0874747782945633,0.14007288217544556
1749057373.0874014,2.7331440448760986,-1.7143994770445765,0.45123464265932256,-0.09539778650317388,-5.0035709778415125,1.250948429107666,-0.00040336494566872716,-0.0030815224163234234,-0.00015716918278485537,0.0010383138433098793,0.00046244115219451487,0.00015469893696717918,0.08379491418600082,-0.4918558597564697,-0.7071545124053955,-0.29761141538619995,0.10849286615848541,0.13538965582847595
1749057373.0884082,2.733189582824707,-1.7144462070860804,0.4512117544757288,-0.09540970743212895,-5.003605906163351,1.2509448528289795,-0.00037017479189671576,-0.0027490295469760895,-0.00015381160483229905,0.0011581956641748548,0.00042584689799696207,0.00015039011486805975,0.09495355933904648,-0.5235260128974915,-0.7013214826583862,-0.2675776481628418,0.08942960202693939,0.1376679539680481
1749057373.1305723,2.7331631183624268,-1.714461465875143,0.4512084166156214,-0.0954013627818604,-5.003574554120199,1.250960350036621,-0.000342030223691836,-0.002537225838750601,-0.00015059443830978125,0.0012533196713775396,0.0003946737269870937,0.00014631295925937593,0.09428402036428452,-0.5193763375282288,-0.71881502866745,-0.2820262014865875,0.08121974766254425,0.12854522466659546
1749057373.1306534,2.7331464290618896,-1.7144962749876917,0.45123130479921514,-0.0953856271556397,-5.003614250813619,1.250960350036621,-0.0002608015201985836,-0.002871030941605568,-0.00010338582069380209,0.0014542031567543745,0.000367747968994081,0.00014245312195271254,0.12316889315843582,-0.5064021944999695,-0.7170602679252625,-0.2872748374938965,0.09157134592533112,0.1294911503791809
1749057373.1307275,2.733201503753662,-1.7144705257811488,0.45121890703310186,-0.09540493906054692,-5.003609601651327,1.250948429107666,-0.0002375754847889766,-0.003388468874618411,-0.00010444006329635158,0.0014592800289392471,0.00034424549085088074,0.00013879116158932447,0.10301821678876877,-0.5051149129867554,-0.6990050077438354,-0.2785099744796753,0.07915599644184113,0.1390073597431183
1749057373.130798,2.733189582824707,-1.7144891224303187,0.4512274901019495,-0.09540493906054692,-5.003567401562826,1.2509758472442627,-0.00022281068959273398,-0.00336844171397388,-0.00011068738967878744,0.0015036746626719832,0.00032360092154704034,0.00013531163858715445,0.1156991496682167,-0.49666929244995117,-0.725479245185852,-0.280852347612381,0.08884303271770477,0.13968396186828613
1749057373.1308727,2.733182430267334,-1.7144705257811488,0.45121890703310186,-0.09538920343432622,-5.003609601651327,1.2509676218032837,-0.00016270317428279668,-0.003486023284494877,-0.00013490315177477896,0.0014132426586002111,0.0003052855608984828,0.00013200411922298372,0.13489094376564026,-0.49429863691329956,-0.7113589644432068,-0.2830454409122467,0.08061455190181732,0.12561535835266113
1749057373.1309426,2.7331631183624268,-1.7144819698729457,0.4511964956866663,-0.09542055547747808,-5.003617827092306,1.250920295715332,-0.00014875100168865174,-0.0033340882509946823,-0.0005367518169805408,0.0013180761598050594,0.000288919429294765,0.000128853993373923,0.13997405767440796,-0.49009454250335693,-0.717467188835144,-0.277910053730011,0.07977791130542755,0.1327061951160431
1749057373.1310127,2.7331979274749756,-1.7145048580565394,0.45121890703310186,-0.09540493906054692,-5.003617827092306,1.2509411573410034,-0.0001409368123859167,-0.004212024621665478,-0.0010147043503820896,0.0012173537397757173,0.0002742423093877733,0.00012584960495587438,0.13484379649162292,-0.46103644371032715,-0.7156850099563599,-0.27130645513534546,0.07560615241527557,0.12171883136034012
1749057373.1310825,2.733175277709961,-1.7145325146117152,0.45121890703310186,-0.09540851533923345,-5.003586713467733,1.2509567737579346,-0.00013394378765951842,-0.003569723339751363,-0.0010594582417979836,0.0011330287670716643,0.0002963978622574359,0.0001229836925631389,0.11844851821660995,-0.5029812455177307,-0.690760612487793,-0.27847692370414734,0.09029428660869598,0.12613782286643982
1749057373.1311522,2.733229160308838,-1.714485307733053,0.45120031038393194,-0.09538920343432622,-5.003633681927816,1.250960350036621,-0.00012854833039455116,-0.003138391301035881,-0.0012579732574522495,0.0011114836670458317,0.00028898887103423476,0.00012024481111438945,0.14067208766937256,-0.49109184741973877,-0.7048544883728027,-0.26995226740837097,0.06945110857486725,0.12144748121500015
1749057373.1312213,2.733201503753662,-1.7145024738707484,0.4511917273150843,-0.09535820901904302,-5.003621522580282,1.2509593963623047,9.895989205688238e-05,-0.002837816020473838,-0.0012546282960101962,0.0011064575519412756,0.00027736625634133816,0.00011762456415453926,0.12228838354349136,-0.4921250343322754,-0.6917275786399841,-0.2743842899799347,0.07899738848209381,0.13043242692947388
1749057373.1312885,2.7331788539886475,-1.714518209496969,0.45121556917299444,-0.09537728250537114,-5.0035709778415125,1.2509448528289795,9.584480721969157e-05,-0.0025581088848412037,-0.0011247817892581224,0.0012662587687373161,0.000265850976575166,0.00011511724005686119,0.16433587670326233,-0.48679453134536743,-0.704930305480957,-0.26245424151420593,0.07200588285923004,0.13082841038703918
1749057373.1313581,2.733147621154785,-1.7145334682860316,0.45120031038393194,-0.09540851533923345,-5.003617827092306,1.2509567737579346,9.10189701244235e-05,-0.002465085592120886,-0.0010151780443266034,0.001347854151390493,0.0002551048237364739,0.00011271420225966722,0.1441512107849121,-0.485737681388855,-0.7068044543266296,-0.2674654424190521,0.07818867266178131,0.12145669013261795
1749057373.1314282,2.7331666946411133,-1.7145058117308558,0.45118838945497686,-0.09535820901904302,-5.003581825886862,1.2509905099868774,0.00011617591371759772,-0.0027021546848118305,-0.000985412043519318,0.0016253680223599076,0.00024518463760614395,0.00011040873505407944,0.13757026195526123,-0.4997291564941406,-0.7170353531837463,-0.27827829122543335,0.07849295437335968,0.1466505229473114
1749057373.1314726,2.7331666946411133,-1.7145058117308558,0.45118838945497686,-0.09535820901904302,-5.003581825886862,1.2509905099868774,0.00011617591371759772,-0.0027021546848118305,-0.000985412043519318,0.0016253680223599076,0.00024518463760614395,0.00011040873505407944,0.13757026195526123,-0.4997291564941406,-0.7170353531837463,-0.27827829122543335,0.07849295437335968,0.1466505229473114
1749057373.1315114,2.7331788539886475,-1.7145220241942347,0.45118838945497686,-0.09537728250537114,-5.0035627524005335,1.250948429107666,0.00015204267401713878,-0.0027870722115039825,-0.0008496243972331285,0.0017359221819788218,0.00023599754786118865,9.515374404145405e-05,0.11795132607221603,-0.48998045921325684,-0.7148493528366089,-0.2750127911567688,0.07384993135929108,0.12261191010475159
1749057373.1315494,2.733201503753662,-1.7145616016783656,0.4511950651751917,-0.09538085878405766,-5.003583137189047,1.2509639263153076,0.00018887690384872258,-0.0025941908825188875,-0.0009689977741800249,0.0017551565542817116,0.00021954273688606918,8.940604311646894e-05,0.14915671944618225,-0.48516127467155457,-0.7278640270233154,-0.2726411819458008,0.09069211781024933,0.11979493498802185
1749057373.1315913,2.7331979274749756,-1.7145420513548792,0.45118838945497686,-0.09534628809008794,-5.0036131779300135,1.2509448528289795,0.000541966874152422,-0.002629622584208846,-0.001718313549645245,0.0016033792635425925,0.0002121470170095563,9.783868881640956e-05,0.13634082674980164,-0.4957902133464813,-0.7192692756652832,-0.2921992242336273,0.08619506657123566,0.11340852826833725
1749057373.1316292,2.7331631183624268,-1.7145582638182582,0.4512069861041468,-0.09535832822833257,-5.0035709778415125,1.2509167194366455,0.0004940044018439949,-0.0027380099054425955,-0.0023222973104566336,0.0013258790131658316,0.0002052273921435699,8.573307422921062e-05,0.12292083352804184,-0.48732301592826843,-0.7088257670402527,-0.28240126371383667,0.09910471737384796,0.1007639467716217
1749057373.1316671,2.7332050800323486,-1.7145544491209925,0.4511798063861292,-0.09535701692614751,-5.003617827092306,1.250960350036621,0.00044522140524350107,-0.002517989370971918,-0.0023756991140544415,0.001191725954413414,0.00019875522411894053,8.23519512778148e-05,0.14850205183029175,-0.4615806043148041,-0.7267356514930725,-0.27739694714546204,0.10682369768619537,0.08628934621810913
1749057373.1317046,2.733175277709961,-1.7145420513548792,0.4511764685260218,-0.09534986436877446,-5.003590408955709,1.2509558200836182,0.0004051250871270895,-0.002082322258502245,-0.0027628405950963497,0.0011288586538285017,0.0002125228347722441,7.49436003388837e-05,0.1307026743888855,-0.49270352721214294,-0.7270604372024536,-0.27159661054611206,0.12960036098957062,0.06283718347549438
1749057373.1318185,2.733194351196289,-1.7145577869811,0.4511764685260218,-0.09533770502124028,-5.003586832677023,1.2509722709655762,0.0003716542269103229,-0.0015682500088587403,-0.003025858895853162,0.0010906070237979293,0.0001894289453048259,6.512321851914749e-05,0.1130773052573204,-0.46899333596229553,-0.73779296875,-0.261837363243103,0.14803530275821686,0.0519801527261734
1749057373.1323931,2.733201503753662,-1.7145658932127894,0.451148811970846,-0.09535344064746099,-5.003598753605978,1.250960350036621,0.0003432944358792156,-0.0012150713009759784,-0.0039330702275037766,0.0009961117757484317,0.00021249895507935435,1.0386245776317082e-05,0.10781111568212509,-0.46360042691230774,-0.7384510040283203,-0.26515910029411316,0.1400028020143509,0.023706406354904175
1749057373.1782973,2.7331702709198,-1.7145148716368617,0.451148811970846,-0.09535701692614751,-5.003597680722372,1.250948429107666,0.0002558351552579552,-0.000991511158645153,-0.004447561223059893,0.0009794422658160329,0.002209227532148361,-7.962105155456811e-05,0.1229872927069664,-0.4958249032497406,-0.7344460487365723,-0.2683892548084259,0.15089337527751923,0.024013012647628784
1749057373.1783452,2.7331907749176025,-1.7145763836302699,0.4511526266681116,-0.09535713613543706,-5.003567282353536,1.250948429107666,0.00018065713811665773,-0.0008375128381885588,-0.0053126076236367226,0.001013286761008203,0.00556911202147603,-0.0038273895625025034,0.09527643769979477,-0.4591693580150604,-0.7348401546478271,-0.281931072473526,0.1782521903514862,-0.007615290582180023
1749057373.1783864,2.733154773712158,-1.7145420513548792,0.45117074648012334,-0.09534485757861333,-5.003554407750265,1.250908613204956,-0.00023629958741366863,-0.0007249658810906112,-0.005385573487728834,0.001071960898116231,0.007145112846046686,-0.006818829104304314,0.06608247011899948,-0.4401037395000458,-0.7297313809394836,-0.275341272354126,0.1824750006198883,-0.007490880787372589
1749057373.1784253,2.733208656311035,-1.7145387134947718,0.45111257234682256,-0.09533412874255376,-5.003522698079244,1.2509121894836426,-0.00042757956543937325,-0.0006391006172634661,-0.005773184821009636,0.0011407585116103292,0.008402560837566853,-0.009472519159317017,0.07708524912595749,-0.421548455953598,-0.7272221446037292,-0.276863157749176,0.20347410440444946,0.008891180157661438
1749057373.178464,2.7331702709198,-1.714562555352682,0.45112783113588506,-0.09533770502124028,-5.003542248402731,1.2508883476257324,-0.0019313934026286006,-0.0005714303115382791,-0.006834006402641535,0.001139938016422093,0.009922919794917107,-0.010211857967078686,0.03925667703151703,-0.43660590052604675,-0.7461766004562378,-0.28953981399536133,0.19921112060546875,-0.02195274829864502
1749057373.178502,2.733201503753662,-1.7145544491209925,0.4511035124408167,-0.09535713613543706,-5.003483478222982,1.2508724927902222,-0.0025214010383933783,-0.0005167262861505151,-0.006583641283214092,0.001134244492277503,0.012608506716787815,-0.011474928818643093,0.02762967348098755,-0.4239543378353119,-0.7349449992179871,-0.27389198541641235,0.2189558744430542,-0.023809373378753662
1749057373.1785402,2.7331199645996094,-1.7145544491209925,0.4511144796954554,-0.0953257840922852,-5.003458921109335,1.250860333442688,-0.0027628312818706036,-0.00041823432547971606,-0.006684662774205208,0.0012384935980662704,0.015217830426990986,-0.014321394264698029,0.018280282616615295,-0.4002346098423004,-0.7424987554550171,-0.28573912382125854,0.22480303049087524,-0.05365607887506485
1749057373.178578,2.733154773712158,-1.7145348987975062,0.45109254518617803,-0.0953257840922852,-5.003445927296774,1.2508316040039062,-0.003044667886570096,-0.0003616625035647303,-0.007008344866335392,0.0011982567375525832,0.01817280426621437,-0.015722496435046196,0.016284242272377014,-0.37505099177360535,-0.7445160150527954,-0.28974711894989014,0.22125135362148285,-0.02326679229736328
1749057373.1786153,2.7331702709198,-1.7145348987975062,0.4510563055621546,-0.09531040609393315,-5.0033748785602015,1.2508002519607544,-0.00496183754876256,-0.00026983392308466136,-0.007635484915226698,0.001067930250428617,0.020016543567180634,-0.015752669423818588,0.009746424853801727,-0.37967416644096375,-0.7398729920387268,-0.2921261191368103,0.23868924379348755,-0.023962482810020447
1749057373.1786528,2.7331271171569824,-1.7145453892149867,0.45103723207582647,-0.09530170381579595,-5.0033785740481775,1.2507643699645996,-0.006584061309695244,3.479867154965177e-05,-0.008084778673946857,0.001028380822390318,0.02180405892431736,-0.01529514230787754,0.0028809309005737305,-0.3570709526538849,-0.7464098334312439,-0.2813003659248352,0.20836728811264038,-0.021724969148635864
1749057373.1786897,2.733137845993042,-1.7145577869811,0.4510443846331995,-0.09533293664965825,-5.0033584276782435,1.2507206201553345,-0.008318069390952587,0.0002518187102396041,-0.009233427233994007,0.0009173991857096553,0.021674703806638718,-0.015425506047904491,-0.020447909832000732,-0.3384285867214203,-0.7558751702308655,-0.3006395399570465,0.20486073195934296,-0.03134417533874512
1749057373.1787267,2.733142852783203,-1.7145196400084437,0.4509852568255823,-0.09533293664965825,-5.003251139317648,1.2507197856903076,-0.00893268920481205,0.0014551206259056926,-0.009527158923447132,0.0007872788119129837,0.020144835114479065,-0.01522799488157034,0.00014226138591766357,-0.3406766653060913,-0.7523233890533447,-0.2841287851333618,0.20240691304206848,-0.04537422955036163
1749057373.1787636,2.73307204246521,-1.714503904382223,0.450996224080221,-0.0953257840922852,-5.003238979970114,1.25070059299469,-0.010603799484670162,0.001983007648959756,-0.00991946179419756,0.0007179409731179476,0.019173340871930122,-0.014780322089791298,-0.040130481123924255,-0.3516075611114502,-0.7378828525543213,-0.2643079161643982,0.22017404437065125,-0.0732850581407547
1749057373.1788008,2.733086347579956,-1.7145453892149867,0.4509685675250452,-0.09533663213763433,-5.003253523503439,1.2506680488586426,-0.011235580779612064,0.0017334938747808337,-0.010843656957149506,0.0006875608814880252,0.01824241876602173,-0.015162689611315727,-0.02611355483531952,-0.33330491185188293,-0.7408397793769836,-0.29511329531669617,0.22513531148433685,-0.07466591894626617
1749057373.178838,2.733039617538452,-1.7145382366576136,0.45097572008241826,-0.0953102868846436,-5.003166977559225,1.2506438493728638,-0.012780609540641308,0.0013735615648329258,-0.01008586585521698,0.0006193441804498434,0.016910728067159653,-0.016817210242152214,-0.021110303699970245,-0.27830955386161804,-0.7414914965629578,-0.2899632453918457,0.24513915181159973,-0.0947105884552002
1749057373.178879,2.733034610748291,-1.7145229778685511,0.4509356657611292,-0.09531743944201665,-5.003123466168539,1.250604271888733,-0.013393256813287735,0.0014319319743663073,-0.010533769614994526,0.0006317294319160283,0.01628471165895462,-0.017180144786834717,-0.026335284113883972,-0.25535011291503906,-0.7521201372146606,-0.276731938123703,0.2537536919116974,-0.10686324536800385
1749057373.1789172,2.7330105304718018,-1.7145334682860316,0.4508774916278284,-0.09531743944201665,-5.003071848546163,1.250528335571289,-0.014307008124887943,0.0027903090231120586,-0.011326638981699944,0.0005861135432496667,0.016513824462890625,-0.01865558885037899,-0.060398735105991364,-0.24779567122459412,-0.7471649646759033,-0.3036702275276184,0.24997097253799438,-0.13170462846755981
1749057373.1789541,2.7329554557800293,-1.7145267925658167,0.4508722464190882,-0.09531743944201665,-5.003113929425375,1.250516414642334,-0.014790496788918972,0.005513232666999102,-0.011189630255103111,0.0005382673698477447,0.016465654596686363,-0.020506838336586952,-0.04299153387546539,-0.2574020326137543,-0.7431367635726929,-0.2889581620693207,0.254300981760025,-0.12223409116268158
1749057373.178991,2.732970952987671,-1.7145253620543421,0.45084840456117803,-0.09531743944201665,-5.0030673185931605,1.2504719495773315,-0.015194852836430073,0.005085075739771128,-0.011845527216792107,0.000496184395160526,0.01644049398601055,-0.02170398272573948,-0.08776627480983734,-0.26053789258003235,-0.7474476099014282,-0.2954544126987457,0.2615646719932556,-0.11384479701519012
1749057373.179028,2.732950448989868,-1.714518209496969,0.4508469740497034,-0.0953102868846436,-5.003029767666952,1.2504359483718872,-0.015466666780412197,0.0041205789893865585,-0.01215408369898796,0.0005067118327133358,0.0178389810025692,-0.02256808802485466,-0.054059166461229324,-0.22520852088928223,-0.7411593198776245,-0.2869342565536499,0.2676631510257721,-0.13257163763046265
1749057373.1790645,2.7329025268554688,-1.7144910297789515,0.4507973829852503,-0.09531386316333013,-5.0030370394336146,1.2503840923309326,-0.01505278516560793,0.004269896075129509,-0.012155171483755112,0.00048649540985934436,0.018473997712135315,-0.024168115109205246,-0.05212591588497162,-0.21146708726882935,-0.7447389364242554,-0.2944923937320709,0.2919391989707947,-0.14042453467845917
1749057373.1791008,2.7328832149505615,-1.7144977054991664,0.4507954756366175,-0.09531863153491216,-5.002950493489401,1.2503321170806885,-0.014446423389017582,0.006024414207786322,-0.012961694970726967,0.00045800290536135435,0.019589191302657127,-0.024197399616241455,-0.05394447594881058,-0.21654126048088074,-0.7335196733474731,-0.286848247051239,0.2922027111053467,-0.15191614627838135
1749057373.179208,2.7328736782073975,-1.7144977054991664,0.45077544847597295,-0.09531743944201665,-5.002949539815084,1.2502682209014893,-0.014250179752707481,0.006560332607477903,-0.01288276631385088,0.0004323321918491274,0.02262961119413376,-0.02597201243042946,-0.11260353028774261,-0.20261363685131073,-0.7320414781570435,-0.29695042967796326,0.28889214992523193,-0.1566189080476761
1749057373.1804492,2.7328028678894043,-1.7144786320128382,0.4507234732257288,-0.09529800832781987,-5.002890412007467,1.2502517700195312,-0.014323188923299313,0.008150055073201656,-0.013652329333126545,0.0003668181598186493,0.02413189597427845,-0.027139149606227875,-0.09005147218704224,-0.22906182706356049,-0.7405251860618591,-0.2884480655193329,0.27694499492645264,-0.1433955729007721
1749057373.222274,2.732806444168091,-1.7144671879210414,0.45069963136781865,-0.09531743944201665,-5.002802673970358,1.2501990795135498,-0.01460951380431652,0.008775096386671066,-0.013594290241599083,0.0003341232077218592,0.025739522650837898,-0.02954677864909172,-0.10839594155550003,-0.20035748183727264,-0.7355371117591858,-0.29419785737991333,0.2990340292453766,-0.16890770196914673
1749057373.2223415,2.732773780822754,-1.7144390545287074,0.4506567160235804,-0.09535701692614751,-5.002817217503683,1.2500964403152466,-0.01449509896337986,0.00895986519753933,-0.014343654736876488,0.0003100913600064814,0.027300871908664703,-0.03145911172032356,-0.10261020064353943,-0.18954120576381683,-0.7161712050437927,-0.28724634647369385,0.2860124707221985,-0.1719539612531662
1749057373.2223928,2.732761859893799,-1.714430948297018,0.4506328741656702,-0.09531386316333013,-5.002776328717367,1.2500749826431274,-0.015120516531169415,0.009056526236236095,-0.01371154934167862,0.00028990849386900663,0.02838279865682125,-0.03461206331849098,-0.14298281073570251,-0.1705663800239563,-0.7246473431587219,-0.28581392765045166,0.3094201683998108,-0.1743391454219818
1749057373.222435,2.732682704925537,-1.7144414387144984,0.4505966345416468,-0.09531386316333013,-5.00270396867861,1.2499868869781494,-0.014899241738021374,0.009720704518258572,-0.013869630172848701,0.000272309232968837,0.02987510897219181,-0.03469483181834221,-0.12980371713638306,-0.15903036296367645,-0.7190974950790405,-0.2864077389240265,0.31900554895401,-0.18611903488636017
1749057373.2224743,2.7327017784118652,-1.7143789730467738,0.45056039491762334,-0.09533293664965825,-5.002629343663351,1.2499496936798096,-0.015743499621748924,0.01038697175681591,-0.01346944272518158,0.0002743201912380755,0.031019890680909157,-0.03745913878083229,-0.15128961205482483,-0.1624830663204193,-0.7217265963554382,-0.2877853214740753,0.3284038007259369,-0.18790149688720703
1749057373.2225144,2.732638120651245,-1.7144013843932093,0.4505556265460413,-0.0953400892070313,-5.002569142972128,1.2498736381530762,-0.01675530895590782,0.010376247577369213,-0.014182673767209053,0.00028547924011945724,0.03333914652466774,-0.040526777505874634,-0.14184372127056122,-0.1374969482421875,-0.710748553276062,-0.29750218987464905,0.33894556760787964,-0.20839640498161316
1749057373.222553,2.732579469680786,-1.714365144769186,0.45051271120180303,-0.09531040609393315,-5.002500716839926,1.2497584819793701,-0.017248762771487236,0.011003529652953148,-0.013950921595096588,0.00027545361081138253,0.03579604625701904,-0.0422682911157608,-0.16660457849502563,-0.12246998399496078,-0.7082504630088806,-0.28461530804634094,0.32870885729789734,-0.21890461444854736
1749057373.2225912,2.732609272003174,-1.7143308124937953,0.4504764715777796,-0.09533293664965825,-5.00245982805361,1.2496707439422607,-0.01789713092148304,0.012571179307997227,-0.013494059443473816,0.0002628412621561438,0.03743864595890045,-0.04426756128668785,-0.17257070541381836,-0.13109277188777924,-0.7235628962516785,-0.2776510715484619,0.3540534973144531,-0.22340735793113708
1749057373.2226293,2.732522964477539,-1.71429504970693,0.450475041066305,-0.09533293664965825,-5.002334300671713,1.2495827674865723,-0.0187787227332592,0.012694571167230606,-0.013510379008948803,0.00025076844030991197,0.038817860186100006,-0.04717846214771271,-0.14884167909622192,-0.11086182296276093,-0.7297664284706116,-0.29233691096305847,0.34495967626571655,-0.22257310152053833
1749057373.2226672,2.732530117034912,-1.714283128777975,0.4504316488849085,-0.09532101572070317,-5.002294961606161,1.2494592666625977,-0.019598089158535004,0.0131835313513875,-0.01416849810630083,0.00023965684522408992,0.0408252589404583,-0.04989520087838173,-0.2078220397233963,-0.11313982307910919,-0.7272958159446716,-0.30426427721977234,0.36715906858444214,-0.20690926909446716
1749057373.2227046,2.732478380203247,-1.7143165073790492,0.45042354265321904,-0.09530528009448247,-5.00221556821932,1.2494101524353027,-0.021043365821242332,0.01227306853979826,-0.014402344822883606,0.0002606571651995182,0.04333580285310745,-0.05079050362110138,-0.1873825341463089,-0.1080036386847496,-0.7160091400146484,-0.29474130272865295,0.35855114459991455,-0.19663472473621368
1749057373.2227414,2.732407569885254,-1.7142321072020472,0.4503839651690882,-0.0953412812999268,-5.002082292233602,1.249282956123352,-0.02247820980846882,0.012899106368422508,-0.014958983287215233,0.00025555025786161423,0.046269092708826065,-0.053881943225860596,-0.1961524784564972,-0.09805796295404434,-0.7218180894851685,-0.2859920263290405,0.3597843647003174,-0.23935861885547638
1749057373.222778,2.7324135303497314,-1.7142301998534144,0.4503291288958948,-0.09533293664965825,-5.0020321051227015,1.2491744756698608,-0.024841709062457085,0.012980417348444462,-0.01513220276683569,0.00024651442072354257,0.04769470542669296,-0.05772332102060318,-0.2001943141222,-0.06978938728570938,-0.7327905893325806,-0.2870124578475952,0.3549589514732361,-0.20957596600055695
1749057373.2228146,2.73235821723938,-1.7141872845091761,0.45030004182924444,-0.09530885637316899,-5.001910273228781,1.2490742206573486,-0.025281134992837906,0.013462217524647713,-0.015835609287023544,0.00023739231983199716,0.048566460609436035,-0.05998929217457771,-0.20578882098197937,-0.08232367783784866,-0.7177090644836426,-0.29972803592681885,0.3531576693058014,-0.19558444619178772
1749057373.222851,2.7322754859924316,-1.7141629658141078,0.45028859773744756,-0.0952945512584229,-5.001867119465963,1.2489393949508667,-0.025849075987935066,0.012820602394640446,-0.016237324103713036,0.00024009632761590183,0.04837586730718613,-0.05981249734759331,-0.18758457899093628,-0.08958910405635834,-0.7459555268287659,-0.2856041193008423,0.3882737457752228,-0.20834726095199585
1749057373.2228878,2.7322897911071777,-1.714158674279684,0.4502523581134241,-0.09529812753710942,-5.00172466436495,1.2488386631011963,-0.02630593441426754,0.01306463684886694,-0.017078572884202003,0.0002485423756297678,0.04866096377372742,-0.060715749859809875,-0.20430323481559753,-0.0739138275384903,-0.735592782497406,-0.2606950104236603,0.42544615268707275,-0.2288367748260498
1749057373.2229245,2.7321901321411133,-1.7140847645201625,0.45020896593202764,-0.09530528009448247,-5.001612965260641,1.2487187385559082,-0.02809583954513073,0.013553018681704998,-0.01729830726981163,0.00024310816661454737,0.051392700523138046,-0.06377778202295303,-0.24115687608718872,-0.08707118034362793,-0.7383792996406555,-0.29451489448547363,0.41760584712028503,-0.20705965161323547
1749057373.222961,2.7321503162384033,-1.7140447101988734,0.4501884619342249,-0.09532113492999272,-5.001458350812094,1.248598575592041,-0.02941923402249813,0.014200999401509762,-0.01800047978758812,0.0002376340125920251,0.05413505434989929,-0.06716042011976242,-0.22124649584293365,-0.06982937455177307,-0.7357529401779175,-0.2868745028972626,0.42213377356529236,-0.18921051919460297
1749057373.222997,2.7320854663848877,-1.7140518627562464,0.45014793077577764,-0.09532101572070317,-5.00144595304598,1.248423457145691,-0.02996218018233776,0.013870839029550552,-0.018411705270409584,0.00022811612871009856,0.056219544261693954,-0.0690152570605278,-0.2493201047182083,-0.06516844034194946,-0.7556257843971252,-0.26593708992004395,0.4160574674606323,-0.19324374198913574
1749057373.2230337,2.7320375442504883,-1.7140504322447718,0.45010120073427373,-0.09532816827807622,-5.001300398503439,1.2483189105987549,-0.031416863203048706,0.014323354698717594,-0.018506338819861412,0.00024874601513147354,0.05732201412320137,-0.07075967639684677,-0.2474757432937622,-0.04465223476290703,-0.7458739876747131,-0.28372544050216675,0.4370828866958618,-0.19035667181015015
1749057373.2232442,2.7320048809051514,-1.7140194378294886,0.4500530401812952,-0.09530885637316899,-5.0011319557773035,1.2481977939605713,-0.03363005816936493,0.01537350844591856,-0.019407721236348152,0.0002469094470143318,0.059286464005708694,-0.07027014344930649,-0.22023476660251617,-0.05979038029909134,-0.7625045776367188,-0.2917541265487671,0.45407068729400635,-0.202156662940979
1749057373.2255154,2.7318944931030273,-1.71397127727651,0.45001727739443,-0.0953245919993897,-5.0010390917407435,1.2479921579360962,-0.033214885741472244,0.015602773055434227,-0.020251912996172905,0.0002700723416637629,0.06095360219478607,-0.07219655811786652,-0.2316875457763672,-0.035543352365493774,-0.7510443925857544,-0.2875988781452179,0.445305198431015,-0.19812649488449097
1749057373.2662761,2.7318296432495117,-1.7139512501158656,0.4500005880938929,-0.09530528009448247,-5.00093645254244,1.2478832006454468,-0.03295425698161125,0.015454480424523354,-0.020802199840545654,0.00027779373340308666,0.06241298094391823,-0.07403338700532913,-0.2568844258785248,-0.028986666351556778,-0.7582443952560425,-0.2765406370162964,0.4549345374107361,-0.21421469748020172
1749057373.2663255,2.731762409210205,-1.7139393291869105,0.4499762693988245,-0.09528978288684087,-5.000829521809713,1.2477223873138428,-0.035058557987213135,0.01591596193611622,-0.021607672795653343,0.0002870950265787542,0.0652477890253067,-0.07533861696720123,-0.2737983465194702,-0.03522249311208725,-0.7503975629806519,-0.29015952348709106,0.47038406133651733,-0.2051679491996765
1749057373.266388,2.7316746711730957,-1.713921686212057,0.44991952577699834,-0.09530528009448247,-5.000650827084677,1.2476146221160889,-0.03684178739786148,0.016070347279310226,-0.02249324880540371,0.00039125821786001325,0.06750395894050598,-0.07456306368112564,-0.23615539073944092,-0.022837407886981964,-0.7462512254714966,-0.30577409267425537,0.4649679362773895,-0.21548119187355042
1749057373.266435,2.731661319732666,-1.7138759098448695,0.4498804251300257,-0.09530170381579595,-5.000540677701132,1.2474502325057983,-0.0375078022480011,0.017142580822110176,-0.023305770009756088,0.0005135947139933705,0.06992118805646896,-0.07592099159955978,-0.28461307287216187,-0.01547291874885559,-0.7388189435005188,-0.2951955199241638,0.4665859341621399,-0.21920990943908691
1749057373.2664745,2.7315738201141357,-1.713839670220846,0.44981652895082647,-0.09532816827807622,-5.000367347394125,1.2472782135009766,-0.038453567773103714,0.017013991251587868,-0.02378045953810215,0.0005571707733906806,0.0728670060634613,-0.07750741392374039,-0.2607128918170929,-0.041914232075214386,-0.7434927225112915,-0.2829250395298004,0.4836905598640442,-0.24384787678718567
1749057373.266514,2.7314813137054443,-1.7138105831541957,0.4497597853290003,-0.0953245919993897,-5.000211421643392,1.247110366821289,-0.04028094559907913,0.01741892285645008,-0.024790829047560692,0.0005584166501648724,0.0766303762793541,-0.07810605317354202,-0.25840944051742554,-0.019860826432704926,-0.7419009208679199,-0.2780996561050415,0.45604804158210754,-0.23252570629119873
1749057373.2665677,2.731363534927368,-1.713783403436178,0.449716869984762,-0.09530528009448247,-5.000097576771871,1.2469035387039185,-0.04150134697556496,0.017853669822216034,-0.02525782398879528,0.0005561549332924187,0.07799647003412247,-0.07826478779315948,-0.27218419313430786,-0.0018659532070159912,-0.7435348629951477,-0.2833191752433777,0.45539969205856323,-0.24038386344909668
1749057373.266619,2.731297492980957,-1.7137471638121546,0.4496529738055628,-0.09527786195788579,-4.999929014836447,1.2467788457870483,-0.042019810527563095,0.01888442039489746,-0.025816218927502632,0.0005787113914266229,0.08094444125890732,-0.08296193182468414,-0.2926252484321594,-0.009776949882507324,-0.7409335970878601,-0.2848741114139557,0.47309356927871704,-0.24675026535987854
1749057373.2666583,2.731218099594116,-1.7136646709837855,0.4495933691607874,-0.09530885637316899,-4.9997264782535,1.2466145753860474,-0.04338672384619713,0.019804159179329872,-0.026453811675310135,0.0006959743914194405,0.08306336402893066,-0.08560239523649216,-0.2963675260543823,-0.01244470477104187,-0.7518099546432495,-0.2812628448009491,0.46931979060173035,-0.2368433028459549
1749057373.266696,2.731137752532959,-1.7136718235411585,0.44956809679140264,-0.09530885637316899,-4.9995649496661585,1.246415138244629,-0.0449320450425148,0.020614782348275185,-0.027336012572050095,0.0006956238066777587,0.08576416969299316,-0.08339449763298035,-0.26929524540901184,0.0026073604822158813,-0.7507122159004211,-0.2916344702243805,0.4455597400665283,-0.26642659306526184
1749057373.266735,2.7310378551483154,-1.7136737308897914,0.4495161215411585,-0.09527786195788579,-4.999396626149313,1.246262788772583,-0.045446038246154785,0.020018672570586205,-0.02819106914103031,0.0006783654680475593,0.0873546302318573,-0.08622013032436371,-0.2914915084838867,0.008152678608894348,-0.746421754360199,-0.28381627798080444,0.4327585697174072,-0.2597888708114624
1749057373.2667773,2.731004238128662,-1.713618894616598,0.44944793382753545,-0.09530528009448247,-4.999231759701864,1.2461143732070923,-0.04652005061507225,0.020594507455825806,-0.028623322024941444,0.0006135759758763015,0.08789540082216263,-0.08907236903905869,-0.3027077615261078,0.019581928849220276,-0.7423039078712463,-0.2849756181240082,0.4358317255973816,-0.25863879919052124
1749057373.2668154,2.730876922607422,-1.7135950527586878,0.4493616263019007,-0.09529693544421391,-4.99904448190798,1.2458715438842773,-0.04714859277009964,0.02030486799776554,-0.029346633702516556,0.0005835936754010618,0.08883391320705414,-0.09450382739305496,-0.28384947776794434,0.018045857548713684,-0.7369498014450073,-0.2892617881298065,0.4545273184776306,-0.25413355231285095
1749057373.2668524,2.73079776763916,-1.7135316334166468,0.44932824770082647,-0.09529335916552739,-4.998884622250692,1.2457109689712524,-0.04806412756443024,0.02111494354903698,-0.030558057129383087,0.0005743768415413797,0.08965665102005005,-0.09847448021173477,-0.32751551270484924,0.03664340078830719,-0.7387722134590149,-0.27628952264785767,0.4679962396621704,-0.2322322428226471
1749057373.2668893,2.7307193279266357,-1.713503976861471,0.44925243059267217,-0.09527070940051274,-4.998683754597799,1.2455185651779175,-0.04945898428559303,0.02245020680129528,-0.03063788264989853,0.0005334792658686638,0.091094009578228,-0.098684161901474,-0.32180055975914,0.05321503430604935,-0.7387427091598511,-0.28772640228271484,0.4574413299560547,-0.25206953287124634
1749057373.2669306,2.7305970191955566,-1.713428636590475,0.44917327562441045,-0.09529335916552739,-4.99852162996401,1.2453266382217407,-0.0503745973110199,0.023469483479857445,-0.02980065904557705,0.0005326686077751219,0.09456326067447662,-0.10255537927150726,-0.3347679376602173,0.029373548924922943,-0.7580498456954956,-0.28184840083122253,0.4569665789604187,-0.23271608352661133
1749057373.2669683,2.7305009365081787,-1.7134391270079554,0.44911319414247686,-0.09527786195788579,-4.99834114709963,1.245079517364502,-0.05090514197945595,0.02278083562850952,-0.030565224587917328,0.000517306150868535,0.095917709171772,-0.10704959183931351,-0.34747880697250366,0.0212518572807312,-0.7595936059951782,-0.2847878634929657,0.45749345421791077,-0.22345827519893646
1749057373.267005,2.730384349822998,-1.7133633098998011,0.44905311266054326,-0.09529335916552739,-4.998145524655477,1.2448714971542358,-0.05163247883319855,0.0229306872934103,-0.03175406530499458,0.000479605863802135,0.0932467132806778,-0.10835269093513489,-0.3574642241001129,0.05494525283575058,-0.759118914604187,-0.2720538079738617,0.4783957600593567,-0.21183761954307556
1749057373.2670412,2.7302966117858887,-1.7132965526976527,0.44898826280702764,-0.09526570261035161,-4.997918311749594,1.244655728340149,-0.053146522492170334,0.02343464456498623,-0.03362000733613968,0.00043072926928289235,0.09558477252721786,-0.1098669096827507,-0.35645124316215515,0.0674227923154831,-0.7459920644760132,-0.2846333384513855,0.46794092655181885,-0.22345441579818726
1749057373.2670827,2.730146646499634,-1.71327604869985,0.44889671007265264,-0.09529335916552739,-4.997674886380331,1.244462490081787,-0.05429220572113991,0.023955311626195908,-0.03526505455374718,0.00043650789302773774,0.09798944741487503,-0.11120326071977615,-0.3612697124481201,0.07351396232843399,-0.7598506212234497,-0.26099178194999695,0.5006202459335327,-0.2019738107919693
1749057373.267191,2.7300732135772705,-1.7132040462889613,0.44883710542787725,-0.09528143823657231,-4.997521464024679,1.2442225217819214,-0.055529989302158356,0.024734610691666603,-0.035646550357341766,0.000426944752689451,0.1024436503648758,-0.1115180030465126,-0.32986605167388916,0.06925216317176819,-0.7219700813293457,-0.2633996605873108,0.45649242401123047,-0.21839313209056854
1749057373.2683678,2.7299580574035645,-1.713168283502096,0.4487569967852991,-0.09528143823657231,-4.997323934231893,1.24396812915802,-0.05792168527841568,0.025442607700824738,-0.0349394828081131,0.000447245838586241,0.1017611101269722,-0.113031767308712,-0.35151633620262146,0.08980719745159149,-0.7261542677879333,-0.276359498500824,0.4572291970252991,-0.20127679407596588
1749057373.3143458,2.729902505874634,-1.7131253681578578,0.44868499437441045,-0.09531231344256597,-4.997119490300314,1.2437396049499512,-0.05815757066011429,0.026685182005167007,-0.03460591658949852,0.00043163588270545006,0.1027088463306427,-0.11319682002067566,-0.3786703646183014,0.07887217402458191,-0.7493641972541809,-0.27443915605545044,0.49639660120010376,-0.22932139039039612
1749057373.314402,2.729759454727173,-1.7130466900267542,0.44859391847719365,-0.09529693544421391,-4.996920291577474,1.2434961795806885,-0.06222190335392952,0.02742692083120346,-0.036634352058172226,0.00045359102659858763,0.10679247230291367,-0.11538970470428467,-0.3283807337284088,0.08761290460824966,-0.7421417832374573,-0.2619223892688751,0.4749702215194702,-0.22263473272323608
1749057373.3144634,2.7296478748321533,-1.7130123577513636,0.4485099951373499,-0.09527786195788579,-4.9966575543033045,1.2432993650436401,-0.06001276522874832,0.02810201793909073,-0.03777291998267174,0.0005039931274950504,0.1098080649971962,-0.11430840194225311,-0.3572365641593933,0.09379155933856964,-0.7219298481941223,-0.27354326844215393,0.4753899574279785,-0.2165130376815796
1749057373.314506,2.729469060897827,-1.71295227626943,0.4484604040728968,-0.09526212633166509,-4.996422235165731,1.2430943250656128,-0.06120918318629265,0.028451161459088326,-0.03785783424973488,0.0006139599136076868,0.11279179155826569,-0.11885467171669006,-0.3803130090236664,0.09225047379732132,-0.7417859435081482,-0.2587659955024719,0.46331244707107544,-0.22891537845134735
1749057373.3145447,2.7293715476989746,-1.7129203281798304,0.4483879248248499,-0.09527786195788579,-4.996203843747274,1.2428436279296875,-0.06399772316217422,0.028798440471291542,-0.0386667475104332,0.0007065852405503392,0.11374986916780472,-0.11958160251379013,-0.37493187189102173,0.10981473326683044,-0.737646758556366,-0.25047215819358826,0.47689759731292725,-0.23267725110054016
1749057373.3145823,2.7292561531066895,-1.712832590142721,0.44828540483583623,-0.09529693544421391,-4.995970074330465,1.2425720691680908,-0.06382893025875092,0.029950780794024467,-0.03919355571269989,0.0009304408449679613,0.11876657605171204,-0.11919193714857101,-0.3482232093811035,0.09234295785427094,-0.7350977063179016,-0.26368722319602966,0.4437820613384247,-0.26835769414901733
1749057373.3146205,2.7290844917297363,-1.7128240070738734,0.4482010046588343,-0.09528501451525884,-4.995695177708761,1.242335319519043,-0.06325214356184006,0.030086541548371315,-0.039692360907793045,0.0013435987057164311,0.11787937581539154,-0.12195418775081635,-0.4111241102218628,0.10226009786128998,-0.745301365852356,-0.274314820766449,0.4292279779911041,-0.2691311836242676
1749057373.3146586,2.7289955615997314,-1.712736269036764,0.44811708131899053,-0.09528143823657231,-4.995519940053121,1.2420871257781982,-0.0658525675535202,0.030881045386195183,-0.04034353792667389,0.00135916902218014,0.11694838851690292,-0.12810230255126953,-0.389748215675354,0.10241977870464325,-0.7416716814041138,-0.26037779450416565,0.44296059012413025,-0.24887368083000183
1749057373.3146966,2.728856086730957,-1.712654253045553,0.4480488936053675,-0.09528143823657231,-4.995263759289877,1.2418314218521118,-0.06809205561876297,0.031036285683512688,-0.040693677961826324,0.0014591001672670245,0.11807981878519058,-0.1284649521112442,-0.3706742823123932,0.11606539785861969,-0.7535132169723511,-0.25982213020324707,0.4494924545288086,-0.2598339021205902
1749057373.3147347,2.728750467300415,-1.7125631771483363,0.4479454199420374,-0.09528143823657231,-4.995028678570883,1.2416062355041504,-0.06758785247802734,0.03189771622419357,-0.04172899201512337,0.0013887339737266302,0.1218247264623642,-0.13179120421409607,-0.3627898693084717,0.10687652230262756,-0.7458604574203491,-0.24987730383872986,0.4343171715736389,-0.25147226452827454
1749057373.3147714,2.728602647781372,-1.7125565014281214,0.44788104692568,-0.09526570261035161,-4.9947829882251185,1.2413347959518433,-0.06958191096782684,0.032181400805711746,-0.04221136122941971,0.0013406559592112899,0.11823371797800064,-0.13529227674007416,-0.38746747374534607,0.10169154405593872,-0.722183108329773,-0.247042715549469,0.45779335498809814,-0.2486533522605896
1749057373.3148122,2.72843599319458,-1.7124773464598597,0.44781190553774053,-0.09528871000323491,-4.994526569043295,1.2410199642181396,-0.06967711448669434,0.03252636268734932,-0.042468395084142685,0.0013135301414877176,0.12013224512338638,-0.13795962929725647,-0.3532988429069519,0.10253114998340607,-0.7414317727088928,-0.2553398907184601,0.467535138130188,-0.22816994786262512
1749057373.31485,2.728295087814331,-1.7124024830260218,0.4476817289935511,-0.09524519861254888,-4.994321886693136,1.2407548427581787,-0.0722423791885376,0.032994210720062256,-0.04263501241803169,0.0013854893622919917,0.12286970019340515,-0.13952802121639252,-0.35835450887680054,0.0901879370212555,-0.750983715057373,-0.2559218108654022,0.47515934705734253,-0.21965259313583374
1749057373.3148878,2.728142499923706,-1.7123648128905238,0.4476202170001429,-0.09526927888903813,-4.994104329739706,1.2404838800430298,-0.07120383530855179,0.03397480398416519,-0.04366070032119751,0.0016610631719231606,0.12455356866121292,-0.13931843638420105,-0.3371982276439667,0.09566454589366913,-0.7314985394477844,-0.2671854794025421,0.4762968122959137,-0.2376422882080078
1749057373.314925,2.728046417236328,-1.7122537098326625,0.4475329558001917,-0.09525354326281743,-4.99383253255953,1.24019193649292,-0.06983448565006256,0.034696344286203384,-0.04329860210418701,0.0018764922861009836,0.12535405158996582,-0.13793696463108063,-0.38669508695602417,0.09977266192436218,-0.7341070175170898,-0.2676430344581604,0.4928700923919678,-0.25613337755203247
1749057373.3149612,2.7278952598571777,-1.7121898136534632,0.44742137590517217,-0.09524162233386235,-4.993560496960775,1.239923119544983,-0.07382222265005112,0.034414589405059814,-0.04412350803613663,0.0020609053317457438,0.12704353034496307,-0.1400512456893921,-0.35921603441238403,0.08903083950281143,-0.7368715405464172,-0.2558736205101013,0.48321107029914856,-0.2319246232509613
1749057373.3149984,2.7278952598571777,-1.7121898136534632,0.44742137590517217,-0.09524162233386235,-4.993560496960775,1.239923119544983,-0.07382222265005112,0.034414589405059814,-0.04412350803613663,0.0020609053317457438,0.12704353034496307,-0.1400512456893921,-0.35921603441238403,0.08903083950281143,-0.7368715405464172,-0.2558736205101013,0.48321107029914856,-0.2319246232509613
1749057373.3150346,2.727726936340332,-1.7121874294676722,0.4473217169391077,-0.09522970140490727,-4.993283931409017,1.2396349906921387,-0.07210592925548553,0.03523898497223854,-0.04369383677840233,0.0020569649059325457,0.13023342192173004,-0.1387934535741806,-0.36030101776123047,0.10564270615577698,-0.7524077296257019,-0.2603060305118561,0.4627498388290405,-0.26343077421188354
1749057373.3150716,2.7274577617645264,-1.7120362720885218,0.4471810499774378,-0.09522970140490727,-4.99275511900057,1.2391107082366943,-0.07411950081586838,0.035551272332668304,-0.04419049248099327,0.0019319261191412807,0.13488347828388214,-0.1445445418357849,-0.35112154483795166,0.06870929896831512,-0.7762231230735779,-0.25421127676963806,0.46370527148246765,-0.24687807261943817
1749057373.3151088,2.7272706031799316,-1.7119137249388636,0.44708472887148076,-0.0952487748912354,-4.992490355168478,1.2388031482696533,-0.07455014437437057,0.03568093478679657,-0.04511743038892746,0.0016585973789915442,0.13653996586799622,-0.14304322004318237,-0.34416359663009644,0.10778973996639252,-0.7578447461128235,-0.26404425501823425,0.43289321660995483,-0.2451605498790741
1749057373.3151467,2.7271344661712646,-1.7118493519225062,0.4470170179950159,-0.09523685396228032,-4.992236797009603,1.2385234832763672,-0.07532496750354767,0.03576648235321045,-0.04521249234676361,0.0015610555419698358,0.136816143989563,-0.1456901729106903,-0.31700992584228516,0.1112966388463974,-0.7544513940811157,-0.25420933961868286,0.4222593903541565,-0.251822292804718
1749057373.3151836,2.7269856929779053,-1.7117701969542445,0.4469240347491663,-0.0952487748912354,-4.991977159176962,1.2382465600967407,-0.07469891756772995,0.03634828329086304,-0.045296214520931244,0.001475730212405324,0.13545510172843933,-0.14764836430549622,-0.32182958722114563,0.07718256860971451,-0.7666011452674866,-0.25677013397216797,0.42576897144317627,-0.22494766116142273
1749057373.315275,2.7268223762512207,-1.711698671380514,0.44682056108583623,-0.09524865568194585,-4.99173087278475,1.2378922700881958,-0.07443763315677643,0.03630353510379791,-0.04491511732339859,0.0015920910518616438,0.13376137614250183,-0.14926515519618988,-0.30143022537231445,0.05382099375128746,-0.7561776041984558,-0.2694697678089142,0.4058132767677307,-0.2269018590450287
1749057373.316371,2.7266972064971924,-1.7116285763182582,0.4467371145831507,-0.09522493303332524,-4.991456333790914,1.2376081943511963,-0.07152554392814636,0.034231092780828476,-0.044778626412153244,0.0016363393515348434,0.1312732696533203,-0.14784425497055054,-0.32165583968162537,0.07436823844909668,-0.77461177110672,-0.25181543827056885,0.4024023115634918,-0.20912079513072968
1749057373.358303,2.726560115814209,-1.7115737400450648,0.44660979906191045,-0.09518654764208989,-4.991223160420553,1.2373466491699219,-0.07187844067811966,0.03390899673104286,-0.046497367322444916,0.002019522711634636,0.12576349079608917,-0.14424613118171692,-0.348860502243042,0.09197960793972015,-0.7528414726257324,-0.2502442002296448,0.44966986775398254,-0.22520361840724945
1749057373.35835,2.726439952850342,-1.7114621601500453,0.4465292135821741,-0.09518309057269292,-4.990920607243673,1.2370741367340088,-0.07266149669885635,0.03740375488996506,-0.04480097442865372,0.0019477359019219875,0.12596404552459717,-0.14278462529182434,-0.40100735425949097,0.12786519527435303,-0.7512279152870178,-0.26562222838401794,0.49902188777923584,-0.23403194546699524
1749057373.3583908,2.7262492179870605,-1.7113901577391566,0.4464648405658167,-0.09521277368579106,-4.990675393735067,1.236743688583374,-0.07567787915468216,0.03791079297661781,-0.04342044144868851,0.001976621802896261,0.1312575489282608,-0.14190518856048584,-0.3642841875553131,0.10389932245016098,-0.7832854986190796,-0.27549347281455994,0.460248202085495,-0.24388408660888672
1749057373.3584297,2.7261204719543457,-1.7113028965392054,0.4463842550860804,-0.09520562112841802,-4.99043053785433,1.2364751100540161,-0.0759456530213356,0.03777828812599182,-0.04417023807764053,0.0018986661452800035,0.1310584992170334,-0.14288903772830963,-0.3489491641521454,0.10521498322486877,-0.7713345289230347,-0.26269006729125977,0.4638950228691101,-0.24539834260940552
1749057373.3584678,2.7259521484375,-1.711224218408102,0.4463155905352991,-0.09521277368579106,-4.99017566839327,1.2362066507339478,-0.07640263438224792,0.039485469460487366,-0.045828234404325485,0.002217246452346444,0.13367792963981628,-0.14319558441638947,-0.3328962028026581,0.09292928874492645,-0.7684573531150818,-0.26484909653663635,0.46603327989578247,-0.2451086789369583
1749057373.358506,2.7258129119873047,-1.7111278973021449,0.44621259370912725,-0.09516985834155278,-4.989891235028402,1.2358990907669067,-0.07485431432723999,0.03949239104986191,-0.046301182359457016,0.0025555777829140425,0.13653922080993652,-0.1453542560338974,-0.35880881547927856,0.07592015713453293,-0.7523722052574158,-0.2399158775806427,0.4672929048538208,-0.23060764372348785
1749057373.3585436,2.7256433963775635,-1.711071630517477,0.4461248556720179,-0.09518177927050786,-4.989571277295248,1.2355989217758179,-0.07898452132940292,0.04085749015212059,-0.044048573821783066,0.00323821185156703,0.13799436390399933,-0.14356796443462372,-0.31107035279273987,0.05792992562055588,-0.7843660116195679,-0.2793034315109253,0.43787285685539246,-0.27429282665252686
1749057373.358582,2.7255160808563232,-1.7110067806639613,0.44601661363710576,-0.09516985834155278,-4.989308540021078,1.2353025674819946,-0.07384341955184937,0.04038649797439575,-0.045438770204782486,0.0032842482905834913,0.13884146511554718,-0.14495964348316193,-0.3472507894039154,0.06523985415697098,-0.7861890196800232,-0.28812238574028015,0.42742255330085754,-0.26220473647117615
1749057373.3586202,2.7253670692443848,-1.7109571895995082,0.4459283987628382,-0.0951734346202393,-4.988992635403768,1.2350034713745117,-0.073827363550663,0.03737321123480797,-0.04698524251580238,0.003129964927211404,0.1428786814212799,-0.14762289822101593,-0.3860495090484619,0.09846535325050354,-0.7646471261978149,-0.2762090563774109,0.44167834520339966,-0.23396934568881989
1749057373.3586578,2.7252144813537598,-1.710862775842184,0.44583207765688115,-0.09515412271533208,-4.98875874677767,1.2347108125686646,-0.07741887867450714,0.037280913442373276,-0.04788907617330551,0.002725970698520541,0.14310410618782043,-0.14877887070178986,-0.35204994678497314,0.11099844425916672,-0.7633830308914185,-0.2748262882232666,0.40356898307800293,-0.24719120562076569
1749057373.3586957,2.7250547409057617,-1.7107755146422328,0.4457138220416468,-0.09516127527270513,-4.988494459782736,1.2344386577606201,-0.07466768473386765,0.03976498916745186,-0.0472932867705822,0.0022585170809179544,0.14141225814819336,-0.15032032132148743,-0.38832980394363403,0.08849910646677017,-0.7581093907356262,-0.2576836943626404,0.41285789012908936,-0.2351708710193634
1749057373.3587344,2.724891424179077,-1.7106911144652308,0.4456294218646448,-0.09516127527270513,-4.988253180180685,1.2341346740722656,-0.07706522941589355,0.04074598103761673,-0.04664650559425354,0.0017351811984553933,0.14259837567806244,-0.15156470239162445,-0.3935469090938568,0.08274511992931366,-0.7737141251564026,-0.2832831144332886,0.419852077960968,-0.2497328519821167
1749057373.3587708,2.7247700691223145,-1.7106381855406703,0.445533577595846,-0.09513862550769048,-4.987933818493978,1.2338343858718872,-0.07802079617977142,0.04107559472322464,-0.04682718589901924,0.0013626925647258759,0.14337290823459625,-0.15186810493469238,-0.36952462792396545,0.038478780537843704,-0.7779005169868469,-0.2724188566207886,0.40175119042396545,-0.24799902737140656
1749057373.358808,2.7245705127716064,-1.7105394802489222,0.44540626207460576,-0.09515412271533208,-4.987650577222006,1.2335153818130493,-0.07893412560224533,0.040142353624105453,-0.0480172373354435,0.0013221044791862369,0.1403506100177765,-0.1526869386434555,-0.3481716811656952,0.10241857171058655,-0.7827836871147156,-0.26606228947639465,0.43217766284942627,-0.2587651312351227
1749057373.358845,2.724438428878784,-1.710463663140768,0.44532949129213506,-0.09516485155139165,-4.987412397061483,1.2332152128219604,-0.07955823838710785,0.04076433181762695,-0.048223234713077545,0.0013172845356166363,0.13888074457645416,-0.15628482401371002,-0.39788612723350525,0.10148052126169205,-0.7719302773475647,-0.2779662013053894,0.4327402412891388,-0.24873510003089905
1749057373.3588822,2.7242751121520996,-1.710360666314596,0.4452455679522913,-0.09516127527270513,-4.987109724675314,1.2328912019729614,-0.07962235063314438,0.041364703327417374,-0.04850343242287636,0.0014053890481591225,0.13792644441127777,-0.15480726957321167,-0.35464048385620117,0.0911082923412323,-0.7945899963378906,-0.26903244853019714,0.45875421166419983,-0.25390976667404175
1749057373.3589337,2.724126100540161,-1.7102920017638148,0.4451029936419886,-0.095142201786377,-4.986844364796774,1.2326018810272217,-0.08171823620796204,0.04170211777091026,-0.05138807371258736,0.0018079481087625027,0.13984696567058563,-0.1537790447473526,-0.3908016085624695,0.08371752500534058,-0.7580593824386597,-0.27131471037864685,0.48834556341171265,-0.2794484496116638
1749057373.3589723,2.723935127258301,-1.7102319202818812,0.4450448195086878,-0.09512193620715337,-4.986482683812277,1.2322742938995361,-0.0810527503490448,0.04213753715157509,-0.05033451318740845,0.0020270782988518476,0.1434701532125473,-0.1608457863330841,-0.3760717511177063,0.10819163918495178,-0.7714020013809204,-0.2763242721557617,0.49745047092437744,-0.27685827016830444
1749057373.3590088,2.7237932682037354,-1.7101127109923304,0.4449213186847132,-0.09514935434375005,-4.986175362263815,1.2319347858428955,-0.08121858537197113,0.0427321158349514,-0.05050622299313545,0.002134306589141488,0.14602747559547424,-0.1609944999217987,-0.39160969853401184,0.07442227751016617,-0.7918595671653748,-0.268179327249527,0.4980558454990387,-0.26407110691070557
1749057373.359045,2.7236177921295166,-1.7100559673705042,0.44485265413393194,-0.09511490285906987,-4.985924188290731,1.2315984964370728,-0.08657515794038773,0.041795823723077774,-0.05209977924823761,0.0020977845415472984,0.1479649543762207,-0.1635865569114685,-0.3408506512641907,0.11614725738763809,-0.7807461023330688,-0.2702406048774719,0.4697495102882385,-0.24197150766849518
1749057373.3591511,2.7234065532684326,-1.7099830112852992,0.44470245042909795,-0.0951565069011231,-4.985554281865255,1.2312672138214111,-0.08342156559228897,0.0436163954436779,-0.05515333637595177,0.0019121887162327766,0.15076088905334473,-0.16573156416416168,-0.35900241136550903,0.09390095621347427,-0.7545496821403503,-0.2850016951560974,0.4517565965652466,-0.24048177897930145
1749057373.3604398,2.7232658863067627,-1.7098919353880824,0.4446061293231409,-0.09513743341479497,-4.985284153615133,1.2309626340866089,-0.08502694964408875,0.043212343007326126,-0.05420343950390816,0.001768638612702489,0.15233246982097626,-0.16660548746585846,-0.3618568480014801,0.09341280162334442,-0.754631757736206,-0.2789483070373535,0.4315655827522278,-0.2670951783657074
1749057373.4022748,2.723109722137451,-1.7097660503783167,0.44448930421938115,-0.09513743341479497,-4.984944407139913,1.2306694984436035,-0.08580672740936279,0.04173338785767555,-0.0534156933426857,0.0016253782669082284,0.15252774953842163,-0.16807229816913605,-0.34443289041519165,0.12580637633800507,-0.7553466558456421,-0.2812202572822571,0.45038455724716187,-0.2451924979686737
1749057373.402321,2.722913980484009,-1.7097426853575648,0.44438487688173467,-0.09512551248583989,-4.984678808842794,1.2302863597869873,-0.0858076959848404,0.042726267129182816,-0.055452506989240646,0.0014768103137612343,0.1556362360715866,-0.1691276580095291,-0.38653746247291565,0.11893831193447113,-0.7556117177009583,-0.26283204555511475,0.42285874485969543,-0.2679000496864319
1749057373.4023616,2.7227373123168945,-1.7096015415587367,0.44426137605776006,-0.09514100969348149,-4.984339300786154,1.2299542427062988,-0.08630494028329849,0.043643079698085785,-0.05589069798588753,0.0013826395152136683,0.15249426662921906,-0.17011524736881256,-0.3968466520309448,0.13317076861858368,-0.754971444606781,-0.25684863328933716,0.4295780062675476,-0.2841809093952179
1749057373.4024005,2.7226157188415527,-1.7095285854735316,0.44418412843813115,-0.09512551248583989,-4.984039012585775,1.2296143770217896,-0.08691544830799103,0.04682692140340805,-0.056637633591890335,0.001333278021775186,0.15296590328216553,-0.17093873023986816,-0.35599976778030396,0.09155355393886566,-0.7414344549179077,-0.27592408657073975,0.4701058268547058,-0.2731771469116211
1749057373.4024386,2.7223923206329346,-1.7094527683653773,0.44406444231142217,-0.09512551248583989,-4.983672801648275,1.2292506694793701,-0.08684328198432922,0.04636375606060028,-0.05635244399309158,0.0014411890879273415,0.1542975902557373,-0.17139309644699097,-0.37826767563819885,0.07083799690008163,-0.7630681395530701,-0.27541667222976685,0.45904064178466797,-0.28022193908691406
1749057373.4024768,2.7222278118133545,-1.7093883953490199,0.4439323584185999,-0.09514458597216802,-4.983454291020529,1.2289303541183472,-0.08755719661712646,0.04257994517683983,-0.056724049150943756,0.0016908088000491261,0.1541052758693695,-0.1759358048439026,-0.36269351840019226,0.13716183602809906,-0.7617415189743042,-0.2579004764556885,0.47640788555145264,-0.26921403408050537
1749057373.4025145,2.7220559120178223,-1.7092763386168421,0.44378596941103154,-0.09511335313830571,-4.983107153569357,1.2285822629928589,-0.08869513869285583,0.04517620801925659,-0.056913819164037704,0.001959925051778555,0.15635693073272705,-0.17468862235546112,-0.3826621472835541,0.12250043451786041,-0.753075361251831,-0.26997020840644836,0.48868024349212646,-0.30534130334854126
1749057373.402552,2.721879482269287,-1.7091738186278285,0.4436886946307581,-0.09511692941699224,-4.982790295277731,1.2282028198242188,-0.08988038450479507,0.04637201875448227,-0.05724732205271721,0.0018110644305124879,0.16158032417297363,-0.17941483855247498,-0.389068603515625,0.11486059427261353,-0.7531926035881042,-0.2716894745826721,0.4779345989227295,-0.2825017273426056
1749057373.4025886,2.7216813564300537,-1.7090932331480921,0.44355661073793584,-0.09510977685961919,-4.982403699551718,1.2278428077697754,-0.0895221084356308,0.04551710560917854,-0.05756938084959984,0.0015155270230025053,0.16380509734153748,-0.18014928698539734,-0.40194204449653625,0.13709497451782227,-0.769828736782074,-0.26720744371414185,0.4853673279285431,-0.27488765120506287
1749057373.4026263,2.7215118408203125,-1.7090093098082484,0.44343358675111944,-0.09512908876452641,-4.982043210660116,1.227482795715332,-0.09287361800670624,0.046550363302230835,-0.05817999690771103,0.0012549441307783127,0.16785651445388794,-0.18372628092765808,-0.3383955657482147,0.11747695505619049,-0.7617913484573364,-0.27269941568374634,0.4718818962574005,-0.2968497574329376
1749057373.4026637,2.721303939819336,-1.7089101276793421,0.44334441820253545,-0.09512551248583989,-4.9817145506488245,1.2271190881729126,-0.09074617922306061,0.04669298604130745,-0.058816343545913696,0.0011603021994233131,0.17220453917980194,-0.18679258227348328,-0.40765824913978577,0.13962417840957642,-0.7603365778923035,-0.25630491971969604,0.4192788898944855,-0.2916203737258911
1749057373.4027007,2.721123695373535,-1.7088023624815882,0.443186108266012,-0.09509427965197759,-4.981412951146261,1.2267543077468872,-0.09645812958478928,0.04708992689847946,-0.059076473116874695,0.001144856447353959,0.17009811103343964,-0.1865534633398056,-0.36609795689582825,0.11912888288497925,-0.7529433965682983,-0.2577088475227356,0.43662792444229126,-0.29553064703941345
1749057373.4027379,2.7209506034851074,-1.7087179623045863,0.4430730978595179,-0.09510143220935063,-4.9810643831836146,1.22635817527771,-0.09367724508047104,0.04710685461759567,-0.059904806315898895,0.0012022271985188127,0.1717759072780609,-0.19227267801761627,-0.3894306719303131,0.13749125599861145,-0.7567057013511658,-0.2589530348777771,0.4463496208190918,-0.27813786268234253
1749057373.402775,2.7207705974578857,-1.7086602650084437,0.44294912019838506,-0.09509427965197759,-4.980704371129171,1.225939154624939,-0.09626470506191254,0.048243969678878784,-0.06107808277010918,0.0013149650767445564,0.16932854056358337,-0.19061987102031708,-0.38212233781814575,0.12071346491575241,-0.7349448204040527,-0.25951337814331055,0.4355611205101013,-0.27995920181274414
1749057373.4028413,2.7205541133880615,-1.708522459069723,0.4428141752826136,-0.09511692941699224,-4.980326120053427,1.2255902290344238,-0.09747583419084549,0.048618920147418976,-0.06197121739387512,0.001800224301405251,0.17037330567836761,-0.19326405227184296,-0.3673277199268341,0.1327761560678482,-0.7505191564559937,-0.2700845003128052,0.46136558055877686,-0.27116283774375916
1749057373.4028854,2.72037410736084,-1.7084266148009242,0.44271690050234014,-0.09507019937548833,-4.979997221623556,1.225182056427002,-0.09741757065057755,0.048842653632164,-0.06281596422195435,0.001980540109798312,0.17152947187423706,-0.19341659545898438,-0.37068596482276917,0.14010044932365417,-0.7349481582641602,-0.26083463430404663,0.4606437087059021,-0.2758105397224426
1749057373.4029236,2.720107316970825,-1.7083574734129847,0.44259339967836553,-0.09508951128039556,-4.979648772870199,1.2247741222381592,-0.09821460396051407,0.04940485581755638,-0.06357938051223755,0.002158884424716234,0.17392441630363464,-0.19639229774475098,-0.38573625683784485,0.12402615696191788,-0.7341992259025574,-0.26678764820098877,0.46660614013671875,-0.28314027190208435
1749057373.4029608,2.7199654579162598,-1.7082458935179652,0.4424179236041468,-0.09507735193286138,-4.9792566935168665,1.2243900299072266,-0.09731309860944748,0.04963313788175583,-0.06413078308105469,0.002110337372869253,0.17644958198070526,-0.19892147183418274,-0.4002915024757385,0.12351997196674347,-0.7513831853866577,-0.25252223014831543,0.485491007566452,-0.2741492688655853
1749057373.4029977,2.7197768688201904,-1.7081495724120082,0.4423015753375452,-0.09507377565417485,-4.978936020527975,1.2240217924118042,-0.09996703267097473,0.05023951455950737,-0.06578225642442703,0.0022198036313056946,0.17877386510372162,-0.20117264986038208,-0.3612506091594696,0.12378942221403122,-0.7197047472000122,-0.25868743658065796,0.4653492867946625,-0.28733542561531067
1749057373.4030352,2.7195656299591064,-1.7080141506590785,0.44216615358461553,-0.09505446374926763,-4.978568379079,1.2235795259475708,-0.0995631143450737,0.050379954278469086,-0.06340388208627701,0.0022543207742273808,0.18091531097888947,-0.20214110612869263,-0.41964900493621826,0.1260983943939209,-0.7523350119590759,-0.2537934184074402,0.47571855783462524,-0.2618899345397949
1749057373.403157,2.7193455696105957,-1.7079493008055628,0.44206124940981084,-0.09508951128039556,-4.978156630192892,1.223210334777832,-0.10368192940950394,0.051223333925008774,-0.0630677193403244,0.0023074569180607796,0.1826239675283432,-0.20244237780570984,-0.349303662776947,0.13390375673770905,-0.7465102076530457,-0.259019136428833,0.4675072133541107,-0.2835749089717865
1749057373.40444,2.7190945148468018,-1.7078191242613734,0.4419329802142542,-0.0950651925853272,-4.977784220372335,1.222778081893921,-0.10231718420982361,0.05156597122550011,-0.06737468391656876,0.0024390649050474167,0.18950589001178741,-0.20234128832817078,-0.42198020219802856,0.15477174520492554,-0.7303026914596558,-0.24713145196437836,0.47491806745529175,-0.29718419909477234
1749057373.4462886,2.7189130783081055,-1.7077175579466761,0.4417818228351038,-0.0950651925853272,-4.97743004957308,1.222351312637329,-0.10449493676424026,0.052483633160591125,-0.06478122621774673,0.0026266637723892927,0.18925690650939941,-0.20436131954193115,-0.3929425776004791,0.13991685211658478,-0.7643001675605774,-0.2599925100803375,0.4511256217956543,-0.2988106608390808
1749057373.4463398,2.7187387943267822,-1.7076770267882289,0.44164973894228154,-0.0950651925853272,-4.976991478596823,1.2219420671463013,-0.10511108487844467,0.05299742892384529,-0.06553014367818832,0.0027365165296941996,0.19311395287513733,-0.20880451798439026,-0.3777199685573578,0.1286875456571579,-0.7628806233406067,-0.2612111568450928,0.42625221610069275,-0.29417866468429565
1749057373.4463837,2.718473434448242,-1.7075449428954066,0.44153005281557256,-0.09503431737933354,-4.9766743818866175,1.2215303182601929,-0.10658060014247894,0.05234275385737419,-0.06711027026176453,0.002797360997647047,0.19090142846107483,-0.20828185975551605,-0.36132267117500305,0.15231037139892578,-0.764628529548645,-0.24737855792045593,0.4631292223930359,-0.3007364273071289
1749057373.446424,2.7182726860046387,-1.7074305019774378,0.4413703123675745,-0.09506876886401372,-4.97621471086611,1.2210910320281982,-0.10648591816425323,0.05491982027888298,-0.06779810786247253,0.0024113813415169716,0.19207042455673218,-0.21418000757694244,-0.42388445138931274,0.13275447487831116,-0.7568328976631165,-0.24120935797691345,0.4606667160987854,-0.29829511046409607
1749057373.4464636,2.71807599067688,-1.7072869739928187,0.44126588502992803,-0.09504492700610356,-4.975847307835714,1.2206122875213623,-0.10795082151889801,0.0529615581035614,-0.06794749200344086,0.0020489932503551245,0.1945611983537674,-0.2140529304742813,-0.37099629640579224,0.13500754535198212,-0.7513832449913025,-0.24770969152450562,0.48369163274765015,-0.2938350439071655
1749057373.446502,2.7178597450256348,-1.707186838189596,0.4411252180682581,-0.09506042421374516,-4.9754807392703455,1.2202340364456177,-0.10874384641647339,0.054037004709243774,-0.06753427535295486,0.001988376025110483,0.196337029337883,-0.2171637862920761,-0.38709884881973267,0.13330957293510437,-0.7777748703956604,-0.24827808141708374,0.45256102085113525,-0.2781505286693573
1749057373.44654,2.7176241874694824,-1.707125803033346,0.4410002867328089,-0.09506042421374516,-4.9750582615481775,1.219801664352417,-0.10813543200492859,0.05406421795487404,-0.070163294672966,0.001960165100172162,0.1980116218328476,-0.21870329976081848,-0.3764469027519226,0.13262321054935455,-0.7638471722602844,-0.24604445695877075,0.4669998288154602,-0.26988306641578674
1749057373.4465783,2.7173962593078613,-1.7070023022093714,0.44082528749574834,-0.09501727045092778,-4.974661652241842,1.2193145751953125,-0.11073262989521027,0.056564752012491226,-0.0687253549695015,0.0021212631836533546,0.20261532068252563,-0.22285741567611694,-0.3950863778591156,0.10642454773187637,-0.7660598754882812,-0.25941553711891174,0.44740724563598633,-0.25650525093078613
1749057373.4466157,2.717156171798706,-1.7068444691100062,0.4406970183001917,-0.09503276765856938,-4.9742459694491785,1.2188163995742798,-0.10836116969585419,0.0547625869512558,-0.06906743347644806,0.002434472320601344,0.20069602131843567,-0.22003746032714844,-0.4448326826095581,0.14998212456703186,-0.7809156179428101,-0.2555595636367798,0.4833797514438629,-0.2761317789554596
1749057373.446653,2.71695613861084,-1.7067505321898402,0.4405177275287073,-0.09499831617388921,-4.973888460789816,1.2184277772903442,-0.11443637311458588,0.05666806921362877,-0.07218647003173828,0.002809973666444421,0.20525634288787842,-0.2232920080423355,-0.3930946886539459,0.16328464448451996,-0.7734948396682739,-0.2624067962169647,0.47529327869415283,-0.2839229106903076
1749057373.4466903,2.7166693210601807,-1.7066427669920863,0.44040185609926397,-0.09501727045092778,-4.973413530980245,1.217971920967102,-0.11280345916748047,0.058368150144815445,-0.07092220336198807,0.0029554746579378843,0.20639456808567047,-0.22512231767177582,-0.3915587067604065,0.10223079472780228,-0.7823529243469238,-0.2573460042476654,0.4615161716938019,-0.26477187871932983
1749057373.4467275,2.7164881229400635,-1.7065044842162074,0.4402573744403284,-0.09499462068591313,-4.973059598599569,1.217496633529663,-0.1143832802772522,0.05707335099577904,-0.07142209261655807,0.00265738507732749,0.2080042064189911,-0.2284594178199768,-0.3563867211341858,0.13048793375492096,-0.7861410975456238,-0.2543668746948242,0.465785950422287,-0.2546887993812561
1749057373.446765,2.7162294387817383,-1.7064043484129847,0.4401291052447718,-0.0949898523143311,-4.972627464924948,1.2170354127883911,-0.1146063506603241,0.05644742399454117,-0.0734875425696373,0.0024871339555829763,0.21012307703495026,-0.2323840856552124,-0.417907178401947,0.18494543433189392,-0.7632421851158142,-0.25020870566368103,0.48876556754112244,-0.2623561918735504
1749057373.4468062,2.7160239219665527,-1.7063237629332484,0.43996888795961553,-0.0950208467296143,-4.9722071329699915,1.2166069746017456,-0.11653681844472885,0.058262813836336136,-0.07440535724163055,0.0024237497709691525,0.21297982335090637,-0.2351679652929306,-0.3326864242553711,0.11742044240236282,-0.7790380716323853,-0.26386818289756775,0.45853734016418457,-0.2485681176185608
1749057373.4468446,2.7157888412475586,-1.7061716518797816,0.439829174672262,-0.09499342859301763,-4.971771184598104,1.216142177581787,-0.11700760573148727,0.05847415328025818,-0.07507438212633133,0.002537383697926998,0.21498996019363403,-0.2349187433719635,-0.35726693272590637,0.09905076771974564,-0.7731924057006836,-0.25023165345191956,0.47208666801452637,-0.23759424686431885
1749057373.446881,2.7155418395996094,-1.7060686550536097,0.43968183199037725,-0.0949741166881104,-4.971326772366659,1.2156397104263306,-0.11902480572462082,0.056675348430871964,-0.0764014944434166,0.0028559635393321514,0.21531417965888977,-0.2329157143831253,-0.3760026693344116,0.11986740678548813,-0.7422582507133484,-0.2677589952945709,0.4593389630317688,-0.26895567774772644
1749057373.446921,2.715296983718872,-1.70595182994985,0.4395411650287073,-0.09499342859301763,-4.970922056828634,1.2151869535446167,-0.11496207118034363,0.057091761380434036,-0.07739606499671936,0.002919664140790701,0.21792258322238922,-0.23108962178230286,-0.40496766567230225,0.15304207801818848,-0.7438963651657104,-0.26389050483703613,0.42676448822021484,-0.2637280523777008
1749057373.4469614,2.7151002883911133,-1.7058044872679652,0.4393728415118616,-0.09497769296679692,-4.970517460499899,1.2147153615951538,-0.11945366859436035,0.05816812440752983,-0.07712347060441971,0.002454709494486451,0.21772915124893188,-0.2314237654209137,-0.3776640295982361,0.1814747154712677,-0.7688441872596741,-0.23719976842403412,0.45203590393066406,-0.29724201560020447
1749057373.4469984,2.714841365814209,-1.7057229481139125,0.43922549882997686,-0.09498484552416997,-4.970062200223104,1.214248538017273,-0.11710958182811737,0.06110939756035805,-0.07770897448062897,0.0020511678885668516,0.2212202548980713,-0.23347881436347961,-0.4140283167362213,0.08814506232738495,-0.7532212138175964,-0.2567925453186035,0.4497778117656708,-0.31353577971458435
1749057373.447035,2.714566469192505,-1.7055651150145472,0.43907291093935186,-0.09496934831652837,-4.969640795384542,1.2137728929519653,-0.11875005066394806,0.05810020491480827,-0.07844392210245132,0.0019742276053875685,0.22209487855434418,-0.2367204874753952,-0.4097873568534851,0.1529926359653473,-0.7501079440116882,-0.2600676715373993,0.461956262588501,-0.30099987983703613
1749057373.447145,2.7143545150756836,-1.7054797611632289,0.43891698518861944,-0.09496577203784184,-4.96915048757662,1.2133278846740723,-0.11918853223323822,0.0595487505197525,-0.0789339691400528,0.0020145841408520937,0.22480528056621552,-0.24121543765068054,-0.4475041627883911,0.18358737230300903,-0.7496108412742615,-0.2424621880054474,0.46259909868240356,-0.2923092544078827
1749057373.448373,2.7140986919403076,-1.7053371868529261,0.4387458006488245,-0.09496934831652837,-4.968689505253927,1.212821125984192,-0.12234866619110107,0.06351297348737717,-0.07846557348966599,0.00288898847065866,0.22541747987270355,-0.24496197700500488,-0.42156654596328735,0.11418400704860687,-0.7565934062004089,-0.25009843707084656,0.47689589858055115,-0.292218416929245
1749057373.4902806,2.713869571685791,-1.705212732354635,0.4385893980609339,-0.09497292459521489,-4.968234244977133,1.2123051881790161,-0.12387419492006302,0.06232067197561264,-0.0784086361527443,0.003342687850818038,0.2256239354610443,-0.2498994916677475,-0.3987179100513458,0.10502730309963226,-0.7603645920753479,-0.2734113931655884,0.47608232498168945,-0.2676527500152588
1749057373.4903271,2.7136054039001465,-1.7050687275328578,0.43843347231020147,-0.09494193017993169,-4.967769447957174,1.211828589439392,-0.12406189739704132,0.060879211872816086,-0.07830251753330231,0.0031835725530982018,0.23157760500907898,-0.24680165946483612,-0.3967239260673523,0.10927879810333252,-0.7687357664108276,-0.2610863149166107,0.46920138597488403,-0.2889695167541504
1749057373.490369,2.713346242904663,-1.7049690685667933,0.4382579962359827,-0.09496934831652837,-4.96735650697817,1.2113173007965088,-0.12455178052186966,0.06147920340299606,-0.07801515609025955,0.002926961053162813,0.22951556742191315,-0.24983081221580505,-0.45258671045303345,0.12159013003110886,-0.778501033782959,-0.253841757774353,0.4846968650817871,-0.29720228910446167
1749057373.4904082,2.7130701541900635,-1.7048565349974574,0.4380901495562952,-0.09492977083239751,-4.966872755681173,1.2107776403427124,-0.12654589116573334,0.06225031614303589,-0.08212770521640778,0.0030979965813457966,0.23365458846092224,-0.25371459126472473,-0.36981019377708435,0.13712824881076813,-0.7602245211601257,-0.24958917498588562,0.4564175009727478,-0.3139282464981079
1749057373.4904459,2.7128183841705322,-1.7046863041319789,0.4380000273333948,-0.09494908273730474,-4.966412846242086,1.2102855443954468,-0.13089442253112793,0.06171650439500809,-0.0808769091963768,0.0035792377311736345,0.23128189146518707,-0.25845563411712646,-0.3767339885234833,0.1430208384990692,-0.7755538821220398,-0.2547513246536255,0.48501041531562805,-0.26971060037612915
1749057373.4904847,2.7125630378723145,-1.7045699558653773,0.4378011862384241,-0.09491069734606938,-4.965944592152731,1.2097376585006714,-0.12756754457950592,0.061643730849027634,-0.08194898813962936,0.00349842244759202,0.23121987283229828,-0.2636709213256836,-0.3914480209350586,0.13780295848846436,-0.768649697303772,-0.25064656138420105,0.5000362396240234,-0.2459385097026825
1749057373.4905233,2.712372064590454,-1.7044412098326625,0.4376447836505335,-0.09490950525317388,-4.965505782757894,1.2092297077178955,-0.12828877568244934,0.06201864778995514,-0.08312603086233139,0.003001230536028743,0.23398622870445251,-0.2650619447231293,-0.3697141408920288,0.13654875755310059,-0.7594844102859497,-0.2642296254634857,0.5108751654624939,-0.22732557356357574
1749057373.490561,2.7120542526245117,-1.7043405971922816,0.43747026125063115,-0.09490592897448735,-4.964972440396444,1.2087323665618896,-0.12759864330291748,0.06274480372667313,-0.08314895629882812,0.0024764197878539562,0.23703445494174957,-0.2630631923675537,-0.3917674422264099,0.10978624224662781,-0.7765130400657654,-0.2597001791000366,0.5052149295806885,-0.22197698056697845
1749057373.4905982,2.7117786407470703,-1.7042204342284144,0.4373057524310511,-0.09489376962695317,-4.964565459881918,1.2081804275512695,-0.1291482001543045,0.06371784210205078,-0.08379074931144714,0.0021131925750523806,0.23754894733428955,-0.2606831192970276,-0.3944554030895233,0.09858553111553192,-0.7497292757034302,-0.27203434705734253,0.4851721525192261,-0.25175341963768005
1749057373.4906359,2.711538791656494,-1.7040511570372523,0.4371221701251429,-0.09490092218432622,-4.964059178029196,1.207688331604004,-0.1304057538509369,0.06499253958463669,-0.08425017446279526,0.0022408936638385057,0.24151071906089783,-0.2552538216114044,-0.4197661876678467,0.11271112412214279,-0.7640631198883057,-0.2623506784439087,0.48531049489974976,-0.28902849555015564
1749057373.490673,2.7112433910369873,-1.7039123974242152,0.43696624437441045,-0.09488542497668462,-4.963585917149679,1.2071914672851562,-0.13373443484306335,0.06578239798545837,-0.08499200642108917,0.0028464782517403364,0.24172474443912506,-0.2599520981311798,-0.3664763867855072,0.09408614039421082,-0.7799897789955139,-0.25973695516586304,0.4835200309753418,-0.29067525267601013
1749057373.4907157,2.711038112640381,-1.7037908039488734,0.4367788473712366,-0.09486992776904302,-4.963102165852682,1.2066528797149658,-0.13172729313373566,0.06655717641115189,-0.08510319888591766,0.0031263157725334167,0.24551895260810852,-0.26155227422714233,-0.404268354177475,0.10827374458312988,-0.7408566474914551,-0.264044851064682,0.47393906116485596,-0.3088380992412567
1749057373.4907546,2.7107467651367188,-1.703651567498678,0.43664294878114873,-0.09484703958544927,-4.962606255208151,1.2061125040054321,-0.13374342024326324,0.06654265522956848,-0.08325550705194473,0.00322331627830863,0.24827659130096436,-0.26567602157592773,-0.3458656966686249,0.10795211791992188,-0.7914279103279114,-0.27232885360717773,0.4803808331489563,-0.2985960841178894
1749057373.4907923,2.7104551792144775,-1.7035147152342738,0.43647796312441045,-0.09487350404772954,-4.962122146283285,1.2056084871292114,-0.13498327136039734,0.0669366642832756,-0.08737631142139435,0.0029832441359758377,0.25070205330848694,-0.2667429447174072,-0.39025935530662537,0.10956045985221863,-0.7725827693939209,-0.25847551226615906,0.4750111699104309,-0.3033415675163269
1749057373.4908292,2.710158586502075,-1.7034036121764125,0.4362552801715296,-0.09485776842150884,-4.961621228848593,1.2050127983093262,-0.13608846068382263,0.06637750566005707,-0.08548019081354141,0.003070133738219738,0.2520521581172943,-0.26705238223075867,-0.37588024139404297,0.08421298861503601,-0.7712210416793823,-0.2612954080104828,0.49176865816116333,-0.28212472796440125
1749057373.4908671,2.709894895553589,-1.703259607354635,0.4361065069781702,-0.09486492097888188,-4.961140815411703,1.2044968605041504,-0.13443998992443085,0.06962418556213379,-0.08799868077039719,0.0036693208385258913,0.2540353834629059,-0.27046120166778564,-0.387851357460022,0.07375988364219666,-0.7726218104362488,-0.2678583562374115,0.505210280418396,-0.3220667839050293
1749057373.4909043,2.7096502780914307,-1.7031003437437953,0.4359377066241663,-0.09483368814501958,-4.9606643358813685,1.2039521932601929,-0.13640081882476807,0.0662514790892601,-0.08894040435552597,0.0031503387726843357,0.25352561473846436,-0.269840270280838,-0.3884093761444092,0.1340697556734085,-0.7750246524810791,-0.2659495174884796,0.4775297939777374,-0.33103352785110474
1749057373.4909415,2.709386110305786,-1.702980180779928,0.43575746217836553,-0.09486492097888188,-4.960100356732504,1.2033649682998657,-0.1355941891670227,0.06665775179862976,-0.08965743333101273,0.002686082385480404,0.2581707537174225,-0.276784747838974,-0.403287410736084,0.1104799211025238,-0.7415504455566406,-0.25287994742393494,0.45540106296539307,-0.2939201593399048
1749057373.4909778,2.7090864181518555,-1.7028900585570277,0.43557435670961553,-0.09482653558764653,-4.959612075482504,1.2028162479400635,-0.13823623955249786,0.07026166468858719,-0.08954376727342606,0.0023613327648490667,0.2592982053756714,-0.28403663635253906,-0.3802156448364258,0.10611366480588913,-0.7633082866668701,-0.25609543919563293,0.46367841958999634,-0.3016369640827179
1749057373.4910147,2.7087998390197754,-1.7027045689024867,0.4353583494769495,-0.09483368814501958,-4.9590835014926355,1.2022451162338257,-0.13699600100517273,0.06807930767536163,-0.0901733934879303,0.0021970951929688454,0.26082026958465576,-0.28645503520965576,-0.45315977931022644,0.07056430727243423,-0.7515329122543335,-0.2609870135784149,0.47720637917518616,-0.24446555972099304
1749057373.4911294,2.7085118293762207,-1.7025948963561,0.435190502797262,-0.09484918535266118,-4.958560053502218,1.201653242111206,-0.1382824033498764,0.06858551502227783,-0.09056863933801651,0.0022160413209348917,0.26244407892227173,-0.2834846079349518,-0.40900203585624695,0.12431957572698593,-0.7684460282325745,-0.2523907423019409,0.4701724648475647,-0.23999105393886566
1749057373.4923964,2.708228588104248,-1.7024232349791468,0.4350069204913538,-0.09484918535266118,-4.958054248486654,1.2010891437530518,-0.14152416586875916,0.06972765922546387,-0.09089279919862747,0.0021829570177942514,0.26287734508514404,-0.281949907541275,-0.38954347372055054,0.11232173442840576,-0.7701597809791565,-0.25487375259399414,0.4675862193107605,-0.23737330734729767
1749057373.5383017,2.7079455852508545,-1.7023159466185511,0.4348333517657679,-0.09482534349475102,-4.957545344029562,1.2005552053451538,-0.14241796731948853,0.06979666650295258,-0.09144356101751328,0.0023618885315954685,0.262271910905838,-0.27882590889930725,-0.4172046184539795,0.12025117129087448,-0.7789466977119446,-0.24103470146656036,0.5012099146842957,-0.33042529225349426
1749057373.538348,2.7076685428619385,-1.702191015283102,0.4346578756915491,-0.09482534349475102,-4.956990067158834,1.2000116109848022,-0.14454105496406555,0.07037656754255295,-0.09158700704574585,0.002729545347392559,0.264392614364624,-0.27869880199432373,-0.39784687757492065,0.1060464084148407,-0.7635199427604675,-0.24312236905097961,0.4714876413345337,-0.34613436460494995
1749057373.5383885,2.707446336746216,-1.7020708523192347,0.4344895521747034,-0.09480638921771245,-4.956469957028524,1.1994402408599854,-0.1440853625535965,0.07021908462047577,-0.091889388859272,0.0030575236305594444,0.2671818137168884,-0.28339317440986633,-0.41255319118499756,0.10713256150484085,-0.7686102390289307,-0.24955135583877563,0.4916132092475891,-0.34017661213874817
1749057373.5384276,2.70710825920105,-1.7018891773619593,0.43426305452455694,-0.09477861345324712,-4.955968443547384,1.1988556385040283,-0.14813239872455597,0.07035323232412338,-0.09257227182388306,0.003998586442321539,0.26630038022994995,-0.28821292519569397,-0.4225364327430725,0.13348352909088135,-0.7796004414558411,-0.2702926695346832,0.5056300163269043,-0.3236493170261383
1749057373.538466,2.7067973613739014,-1.7017723522581996,0.4340861479388636,-0.09481699884448247,-4.955397907887594,1.1982641220092773,-0.14462080597877502,0.07126602530479431,-0.09248939156532288,0.004278790671378374,0.2682412266731262,-0.29292410612106323,-0.4645218849182129,0.13196323812007904,-0.7693531513214111,-0.26928481459617615,0.5280359983444214,-0.29920047521591187
1749057373.5385034,2.706533432006836,-1.701620718041891,0.4339092413531702,-0.09478576601062016,-4.954828683529989,1.1976759433746338,-0.14641685783863068,0.07135127484798431,-0.09592152386903763,0.003876241622492671,0.27125057578086853,-0.2913784086704254,-0.3909706473350525,0.10425320267677307,-0.759166419506073,-0.2622614800930023,0.5218425393104553,-0.33050522208213806
1749057373.5385406,2.706275701522827,-1.701472898522848,0.43368703523744756,-0.09480126321826177,-4.954277221356527,1.1971031427383423,-0.14840508997440338,0.07440230995416641,-0.09342539310455322,0.003121090354397893,0.2764553129673004,-0.2936999201774597,-0.4266575276851654,0.062410153448581696,-0.8066028356552124,-0.260122150182724,0.5007094144821167,-0.3347592055797577
1749057373.538577,2.705991506576538,-1.701332231561178,0.4335134665118616,-0.09477742136035161,-4.953676883374349,1.1964962482452393,-0.1481497585773468,0.06974874436855316,-0.09659893810749054,0.0026173852384090424,0.27363094687461853,-0.2987576425075531,-0.42402851581573486,0.1500856578350067,-0.7890468239784241,-0.2697286307811737,0.4731585383415222,-0.3313024640083313
1749057373.538614,2.7056374549865723,-1.701188703576559,0.4333151022540491,-0.09481187284503179,-4.95315915742983,1.1959079504013062,-0.1513722538948059,0.07092335820198059,-0.09474357962608337,0.002181587740778923,0.2749042809009552,-0.3059396743774414,-0.41606077551841736,0.1516282856464386,-0.7871079444885254,-0.25078874826431274,0.4635767638683319,-0.310778945684433
1749057373.5386548,2.7053098678588867,-1.7010566196837367,0.43314868608583623,-0.09478934228930669,-4.9526031653033655,1.1952718496322632,-0.15317648649215698,0.07543381303548813,-0.09553830325603485,0.0022672051563858986,0.275333970785141,-0.3094249367713928,-0.4152221083641052,0.09640510380268097,-0.7967813611030579,-0.2545500099658966,0.4845295548439026,-0.2814321517944336
1749057373.5386922,2.7050676345825195,-1.700909277001852,0.4329188505755823,-0.09478576601062016,-4.952007714902059,1.194648027420044,-0.15384067595005035,0.07187270373106003,-0.09663234651088715,0.002581706503406167,0.27500119805336,-0.3068937659263611,-0.4425075650215149,0.14656534790992737,-0.7816720604896545,-0.2518537938594818,0.4810241162776947,-0.2915616035461426
1749057373.538729,2.704744815826416,-1.7007729015746058,0.4327457586871546,-0.09477742136035161,-4.951466504727499,1.1940524578094482,-0.15356329083442688,0.07412689179182053,-0.0997677594423294,0.0028144384268671274,0.27603527903556824,-0.3015528917312622,-0.47029173374176025,0.16144299507141113,-0.7783231735229492,-0.2452237755060196,0.5153511166572571,-0.3087110221385956
1749057373.5387654,2.7044763565063477,-1.7006408176817835,0.4325183073626917,-0.09477384508166509,-4.950881425534384,1.193404197692871,-0.15545132756233215,0.0759156122803688,-0.09796633571386337,0.0027379868552088737,0.28023749589920044,-0.3012980818748474,-0.39595916867256165,0.1338731050491333,-0.7782267928123474,-0.26192304491996765,0.4765225648880005,-0.32261961698532104
1749057373.5388012,2.704122543334961,-1.7004624805846156,0.43233043352235967,-0.09477742136035161,-4.950290385876791,1.192811369895935,-0.15662738680839539,0.07715176045894623,-0.10011304914951324,0.0030217377934604883,0.2816622257232666,-0.3051411211490631,-0.4158805012702942,0.10750849545001984,-0.7953137159347534,-0.2535988688468933,0.44566580653190613,-0.32937297224998474
1749057373.5388372,2.7038414478302,-1.700341363946432,0.43215734163393194,-0.0947461885264893,-4.949750248585836,1.1922125816345215,-0.15694057941436768,0.07507380098104477,-0.10038383305072784,0.0035564808640629053,0.2822015881538391,-0.30974650382995605,-0.44344210624694824,0.0956987664103508,-0.7559659481048584,-0.24177776277065277,0.4469086229801178,-0.3465648293495178
1749057373.5388727,2.703564405441284,-1.7002092800536097,0.4319418112384241,-0.0947306913188477,-4.94921595255007,1.1915769577026367,-0.15802109241485596,0.0749242901802063,-0.10221686959266663,0.0038690294604748487,0.2821447551250458,-0.3109915256500244,-0.439025342464447,0.15619437396526337,-0.7468227744102478,-0.2528608739376068,0.46056485176086426,-0.2864754796028137
1749057373.5389092,2.7032251358032227,-1.6999951801695765,0.43171817461122686,-0.09472592294726567,-4.948628608380453,1.1909466981887817,-0.15908074378967285,0.07530306279659271,-0.10170749574899673,0.0038014925085008144,0.2784952223300934,-0.31190502643585205,-0.4333190321922302,0.15459708869457245,-0.7499904036521912,-0.26578035950660706,0.48733383417129517,-0.3038999140262604
1749057373.5389497,2.7029058933258057,-1.6998478374876917,0.4315140883075159,-0.09473784387622075,-4.94804817834963,1.1903109550476074,-0.15950801968574524,0.07335527241230011,-0.10222635418176651,0.0034899525344371796,0.2812395691871643,-0.31321150064468384,-0.4194374680519104,0.16426421701908112,-0.7743602395057678,-0.253421813249588,0.5193824768066406,-0.32176661491394043
1749057373.538987,2.7029058933258057,-1.6998478374876917,0.4315140883075159,-0.09473784387622075,-4.94804817834963,1.1903109550476074,-0.15950801968574524,0.07335527241230011,-0.10222635418176651,0.0034899525344371796,0.2812395691871643,-0.31321150064468384,-0.4194374680519104,0.16426421701908112,-0.7743602395057678,-0.253421813249588,0.5193824768066406,-0.32176661491394043
1749057373.5390236,2.702547550201416,-1.6996990642943324,0.4312790075885218,-0.09470661104235845,-4.947487060223715,1.1897108554840088,-0.16261392831802368,0.07602519541978836,-0.10300160199403763,0.003127641510218382,0.28503257036209106,-0.3148329257965088,-0.381610631942749,0.15607525408267975,-0.7713368535041809,-0.2528608739376068,0.5269127488136292,-0.3249049782752991
1749057373.53906,2.7019119262695312,-1.6994344196715296,0.4308989683734339,-0.09471376359973149,-4.94629413286318,1.188395380973816,-0.16306282579898834,0.07622193545103073,-0.10249481350183487,0.0031360818538814783,0.2911154627799988,-0.32551702857017517,-0.4246982932090759,0.1796192079782486,-0.7872645854949951,-0.2517401874065399,0.4524655044078827,-0.2670347988605499
1749057373.5390968,2.7015793323516846,-1.6992556057372035,0.43066674867738897,-0.09471733987841802,-4.945678655301229,1.1876951456069946,-0.1631755828857422,0.08062417805194855,-0.10330066084861755,0.0031858296133577824,0.29260310530662537,-0.3269605338573456,-0.4530470669269562,0.14093783497810364,-0.7753346562385559,-0.24434225261211395,0.4764295518398285,-0.26516327261924744
1749057373.539212,2.7012829780578613,-1.6991459331908167,0.43046266237367803,-0.09469826639208989,-4.945097510014669,1.1870545148849487,-0.16391348838806152,0.07786428183317184,-0.10490094870328903,0.003208160400390625,0.292990505695343,-0.32057926058769226,-0.42799437046051025,0.12187018990516663,-0.7536688446998596,-0.24605588614940643,0.45277830958366394,-0.27820247411727905
1749057373.5403757,2.700928211212158,-1.6989976368346156,0.43026620546449834,-0.09471733987841802,-4.944524351750509,1.1863744258880615,-0.16501159965991974,0.07843257486820221,-0.1058693528175354,0.0036040341947227716,0.2939615249633789,-0.3194039463996887,-0.4638168215751648,0.17724546790122986,-0.7442626953125,-0.24874912202358246,0.4818100035190582,-0.3172985911369324
1749057373.5862968,2.700638771057129,-1.6988069019713343,0.43006593385805303,-0.09468992174182134,-4.943928662930624,1.185750126838684,-0.16636888682842255,0.08355415612459183,-0.1065656840801239,0.004303179681301117,0.297593891620636,-0.3222387433052063,-0.41684529185295105,0.0890003889799118,-0.7481420636177063,-0.2487952560186386,0.45873141288757324,-0.3298015594482422
1749057373.5863435,2.7002909183502197,-1.6986166439452113,0.42985803285707647,-0.09469349802050786,-4.943288985882894,1.1851611137390137,-0.16831466555595398,0.07999501377344131,-0.10875176638364792,0.0044366419315338135,0.2955687642097473,-0.32525432109832764,-0.4008941352367401,0.13224931061267853,-0.7586515545845032,-0.2637411653995514,0.4578004479408264,-0.30429089069366455
1749057373.5863843,2.700014114379883,-1.698498865167135,0.42965728441347295,-0.09467454374346929,-4.942758504544393,1.1844847202301025,-0.16803224384784698,0.08160698413848877,-0.10668244957923889,0.0034741628915071487,0.29652875661849976,-0.3275693655014038,-0.43832677602767944,0.1332630217075348,-0.751798689365387,-0.25026312470436096,0.450167179107666,-0.3082035779953003
1749057373.5864232,2.6996116638183594,-1.6983276806273402,0.4294536749469202,-0.09469349802050786,-4.942139331494467,1.1838014125823975,-0.16828888654708862,0.08245451003313065,-0.10845229029655457,0.0030367947183549404,0.29797813296318054,-0.3249911963939667,-0.4433930516242981,0.12649887800216675,-0.751844584941864,-0.23765327036380768,0.4959369897842407,-0.33594778180122375
1749057373.586462,2.6992762088775635,-1.6981102428831996,0.429237190877096,-0.09466584146533208,-4.941543642674581,1.183176040649414,-0.16757546365261078,0.08198776841163635,-0.10812532901763916,0.0030269064009189606,0.2958945035934448,-0.32736727595329285,-0.45309725403785706,0.13564196228981018,-0.72955322265625,-0.2321607619524002,0.5205926895141602,-0.3212969899177551
1749057373.5865,2.6989197731018066,-1.6979767284789027,0.4290092627154749,-0.09466584146533208,-4.940903488789694,1.182496428489685,-0.16908515989780426,0.08192938566207886,-0.11022479832172394,0.0035318743903189898,0.2998027205467224,-0.3326718211174011,-0.43208935856819153,0.15026399493217468,-0.7172982692718506,-0.24119259417057037,0.525280237197876,-0.33109408617019653
1749057373.5865383,2.6985998153686523,-1.6978169880309046,0.42878944078554326,-0.0946536821177979,-4.940353337918417,1.181827425956726,-0.17287148535251617,0.0825900211930275,-0.1107858270406723,0.004189442843198776,0.3083908259868622,-0.3400499224662781,-0.44781553745269775,0.14761686325073242,-0.7071612477302551,-0.2539732754230499,0.48539841175079346,-0.30008465051651
1749057373.586576,2.6982641220092773,-1.6976682148375453,0.42855817476381475,-0.09464533746752934,-4.939673964177267,1.1811203956604004,-0.17221562564373016,0.0835660994052887,-0.11172738671302795,0.005067874677479267,0.3138779401779175,-0.3430929183959961,-0.4124603867530823,0.14038850367069244,-0.7317702770233154,-0.24876268208026886,0.4793139696121216,-0.2566714286804199
1749057373.5866144,2.697908878326416,-1.6974503002562464,0.4283645788775843,-0.09462626398120122,-4.9390767256366175,1.1804656982421875,-0.1738528609275818,0.08274176716804504,-0.1096525490283966,0.005429455544799566,0.31619590520858765,-0.34399810433387756,-0.422995924949646,0.17116349935531616,-0.7151351571083069,-0.25069716572761536,0.4719429612159729,-0.26607051491737366
1749057373.5866532,2.6975491046905518,-1.69730867962026,0.42811423936952764,-0.09462984025988774,-4.938437287007467,1.1797831058502197,-0.1747387796640396,0.0878305733203888,-0.10957721620798111,0.00457672867923975,0.31502243876457214,-0.3438815772533417,-0.40515953302383423,0.09300828725099564,-0.757983386516571,-0.25525495409965515,0.4585980474948883,-0.27045708894729614
1749057373.586693,2.6971700191497803,-1.6971336803831996,0.4279444853412073,-0.09462125719104009,-4.937858645115988,1.179083228111267,-0.17547181248664856,0.08291167765855789,-0.10982471704483032,0.0033310584258288145,0.3137548565864563,-0.34216535091400146,-0.3874378204345703,0.15921860933303833,-0.7410972714424133,-0.24928413331508636,0.4768062233924866,-0.32642051577568054
