nimar13/UR3e_dataset_trayectorias/trayectorias_ejecutadas/trapezoidal_func/trayectoria_108_result.csv
timestamp,q1,q2,q3,q4,q5,q6,qd1,qd2,qd3,qd4,qd5,qd6,tau1,tau2,tau3,tau4,tau5,tau6
1749056332.682299,0.8079026937484741,-0.5673058790019532,-1.0024091005325317,2.2197632032581787,0.4476222097873688,-2.777255121861593,0.00030213757418096066,-0.0029956852085888386,0.0027845879085361958,-0.004417817573994398,0.0002256007574032992,0.0026012274902313948,0.15046198666095734,-0.9410915374755859,0.017557933926582336,0.11802332103252411,-0.2983233332633972,-0.03140494227409363
1749056332.6823463,0.8078873157501221,-0.5673332971385499,-1.0024158954620361,2.219747706050537,0.44769251346588135,-2.7772515455829065,9.256438352167606e-05,-0.0024911349173635244,0.002673848532140255,-0.004712042398750782,0.0006616446189582348,0.003358421614393592,0.1543087214231491,-0.9368373155593872,0.012257052585482597,0.1268077939748764,-0.29539746046066284,-0.011102885007858276
1749056332.6823874,0.8078523874282837,-0.5673069518855591,-1.0024158954620361,2.2197322088428955,0.44764599204063416,-2.777267042790548,8.219655137509108e-05,-0.0020294568967074156,0.003047157311812043,-0.004231832455843687,0.0008229867089539766,0.0036748223938047886,0.1468118578195572,-0.9859276413917542,0.01929357647895813,0.13118289411067963,-0.3044007122516632,-0.022240638732910156
1749056332.6824267,0.8078873157501221,-0.5673524898341675,-1.0024158954620361,2.2197229105183105,0.44766485691070557,-2.777224842702047,7.854921568650752e-05,-0.002113571623340249,0.003546340623870492,-0.004285110160708427,0.001294984482228756,0.0037812197115272284,0.1484874039888382,-0.965299129486084,0.018292807042598724,0.12898999452590942,-0.2945702373981476,-0.011714816093444824
1749056332.6824648,0.8079293966293335,-0.5673261445811768,-1.0023999214172363,2.2196919161030273,0.4477028548717499,-2.777224842702047,7.526409899583086e-05,-0.002139883814379573,0.003614178393036127,-0.003725620685145259,0.001594774192199111,0.0038374208379536867,0.14287324249744415,-0.9706053137779236,0.021220341324806213,0.12932629883289337,-0.3044118285179138,-0.004114389419555664
1749056332.6825068,0.8078790307044983,-0.5673608344844361,-1.0024278163909912,2.219695492381714,0.4477008581161499,-2.7772467772113245,7.224320142995566e-05,-0.002060734434053302,0.0034294878132641315,-0.0032751988619565964,0.0014803174417465925,0.0035938036162406206,0.1347840279340744,-0.9409360885620117,0.02859996259212494,0.12987461686134338,-0.30214810371398926,-0.020374536514282227
1749056332.682545,0.8079146146774292,-0.5673524898341675,-1.0023999214172363,2.219714565868042,0.44769740104675293,-2.777219835911886,6.94555274094455e-05,-0.0017753479769453406,0.0028759227134287357,-0.002890456235036254,0.0012581144692376256,0.00334335258230567,0.15836001932621002,-0.9772594571113586,0.03775423765182495,0.12744398415088654,-0.29329365491867065,-0.009274601936340332
1749056332.6825826,0.8079026937484741,-0.5673261445811768,-1.0023915767669678,2.2197109895893554,0.4476820230484009,-2.7772234121905726,6.687489803880453e-05,-0.0017376928590238094,0.0025527470279484987,-0.0023620983120054007,0.0010752282105386257,0.002897775499150157,0.1552206575870514,-0.9682636857032776,0.027800334617495537,0.11393409967422485,-0.3103313446044922,-0.0121040940284729
1749056332.6826196,0.8079111576080322,-0.56735713899646,-1.0023796558380127,2.2196990686604003,0.4476701021194458,-2.7772164980517786,6.447928171837702e-05,-0.00141648028511554,0.002616944257169962,-0.00196597957983613,0.0009355089860036969,0.00275341235101223,0.1717180460691452,-0.9645525217056274,0.03839471563696861,0.11841291189193726,-0.3079719543457031,-0.00820586085319519
1749056332.6826572,0.807890772819519,-0.5673332971385499,-1.0023915767669678,2.2197300630756835,0.44768548011779785,-2.7772234121905726,6.224936078069732e-05,-0.0013198100496083498,0.002615506760776043,-0.0016738539561629295,0.0008274651481769979,0.0026678796857595444,0.14935922622680664,-0.98493492603302,0.02151220664381981,0.11324650049209595,-0.30806833505630493,-0.0007898211479187012
1749056332.6826952,0.8078873157501221,-0.5673769277385254,-1.0023831129074097,2.219714565868042,0.4476735591888428,-2.777207914982931,6.016843326506205e-05,-0.00111651630140841,0.002551321405917406,-0.0013614264316856861,0.0007417939486913383,0.00243399734608829,0.158163920044899,-0.9814959168434143,0.02252211607992649,0.10762414336204529,-0.3164445161819458,0.0065958499908447266
1749056332.6827326,0.8079062104225159,-0.5673733514598389,-1.0023865699768066,2.219714565868042,0.4476735591888428,-2.7772114912616175,5.822225284646265e-05,-0.0008836198248900473,0.0026909601874649525,-0.001031112507916987,0.0006722495891153812,0.002235223539173603,0.1480874866247177,-0.9642601013183594,0.025643836706876755,0.1209859848022461,-0.3148075342178345,0.01412995159626007
1749056332.6827703,0.8079026937484741,-0.5673497480205079,-1.0024137496948242,2.2196835714527587,0.4476924240589142,-2.777245823537008,5.6398046581307426e-05,-0.0007097425404936075,0.002196266781538725,-0.000963487836997956,0.0006146678351797163,0.0020271267276257277,0.17491203546524048,-0.9654858112335205,0.03125852718949318,0.12406650185585022,-0.3136054277420044,0.005632162094116211
1749056332.682808,0.8078803420066833,-0.5673697751811524,-1.0023761987686157,2.2196919161030273,0.4476771056652069,-2.7771995703326624,5.4684627684764564e-05,-0.0007222091662697494,0.0017906654393300414,-0.0008802489028312266,0.0005661992472596467,0.0017398754134774208,0.1686873733997345,-0.9671643376350403,0.04057499021291733,0.11407485604286194,-0.3112461566925049,-0.0062163472175598145
1749056332.6828449,0.8079146146774292,-0.5673659604838868,-1.0023831129074097,2.2196990686604003,0.4476735591888428,-2.7772186438189905,5.307219544192776e-05,-0.0006469084182754159,0.0013704256853088737,-0.0008298237808048725,0.0005248303059488535,0.0015796809457242489,0.15610365569591522,-0.9517459869384766,0.02141125500202179,0.1177409291267395,-0.3136555552482605,0.018112599849700928
1749056332.6828823,0.8079026937484741,-0.5673261445811768,-1.0023831129074097,2.2196990686604003,0.44769251346588135,-2.7772186438189905,5.155221151653677e-05,-0.0006640140200033784,0.0012233589077368379,-0.0007431957055814564,0.0004891096614301205,0.0014713065465912223,0.1475352942943573,-0.9492968320846558,0.025345908477902412,0.1098688393831253,-0.31726282835006714,-0.012066066265106201
1749056332.6829195,0.807918131351471,-0.5673416417888184,-1.0023831129074097,2.219679995174072,0.4476613402366638,-2.777203146611349,5.0116836064262316e-05,-0.0006087958463467658,0.0010561809176579118,-0.0007428011740557849,0.00045794720062986016,0.0012656968319788575,0.1766817420721054,-0.9483674168586731,0.04538644850254059,0.09923990070819855,-0.3183671832084656,0.004456937313079834
1749056332.6829557,0.807918131351471,-0.5673416417888184,-1.0023831129074097,2.219679995174072,0.4476613402366638,-2.777203146611349,5.0116836064262316e-05,-0.0006087958463467658,0.0010561809176579118,-0.0007428011740557849,0.00045794720062986016,0.0012656968319788575,0.1766817420721054,-0.9483674168586731,0.04538644850254059,0.09923990070819855,-0.3183671832084656,0.004456937313079834
1749056332.6829927,0.8079043626785278,-0.56735713899646,-1.0023592710494995,2.2196871477314453,0.4476889371871948,-2.777180020009176,4.8759269702713937e-05,-0.0005552194779738784,0.0009678369387984276,-0.0006855224492028356,0.0004305254260543734,0.00113225681707263,0.15316402912139893,-0.938880980014801,0.0363517627120018,0.14164787530899048,-0.31851160526275635,0.010765746235847473
1749056332.6830337,0.8078873157501221,-0.567385272388794,-1.0023523569107056,2.2196835714527587,0.44763898849487305,-2.777187172566549,4.6253393520601094e-05,-0.00047200327389873564,0.0008037133375182748,-0.0005154052632860839,0.000384488987037912,0.0010881650960072875,0.19644224643707275,-0.9368770718574524,0.043963558971881866,0.1067979633808136,-0.30354321002960205,0.00191459059715271
1749056332.6831443,0.80787193775177,-0.5673306745341797,-1.0023950338363647,2.2197062212177734,0.44768548011779785,-2.7772186438189905,4.5094620872987434e-05,-0.00043908890802413225,0.0007230971241369843,-0.0004612128541339189,0.0003649798163678497,0.0011115607339888811,0.17499582469463348,-0.9236806035041809,0.02957700565457344,0.1338387429714203,-0.3222660422325134,-0.007114842534065247
1749056332.6844187,0.8078838586807251,-0.56735713899646,-1.002386450767517,2.2196835714527587,0.44768548011779785,-2.777195994053976,4.399250610731542e-05,-0.0004104783001821488,0.0006570371915586293,-0.00041796406731009483,0.00034735622466541827,0.001093535334803164,0.1756569743156433,-0.9206059575080872,0.03355775028467178,0.12532737851142883,-0.3290032148361206,-0.0020635873079299927
1749056332.7263005,0.8078992366790771,-0.5673497480205079,-1.0023642778396606,2.219679995174072,0.4476543962955475,-2.777187172566549,4.294293830753304e-05,-0.00038536550709977746,0.0006020378787070513,-0.0003823245642706752,0.0003313578199595213,0.0010173238115385175,0.18550458550453186,-0.9087426066398621,0.03495144471526146,0.11737608909606934,-0.33574289083480835,0.005563691258430481
1749056332.7263615,0.80787193775177,-0.5673342508128663,-1.0023711919784546,2.2197062212177734,0.4476889371871948,-2.777210299168722,4.194234134047292e-05,-0.0003647540870588273,0.0004419415781740099,-0.00035230827052146196,0.0003167690010741353,0.0009607309475541115,0.1705152988433838,-0.906705915927887,0.03890780359506607,0.1286085546016693,-0.315332293510437,0.009277835488319397
1749056332.726406,0.8078924417495728,-0.5673150581172486,-1.0023677349090576,2.219695492381714,0.44771483540534973,-2.777156416569845,4.09872955060564e-05,-0.00013761621084995568,0.00037021987373009324,-0.0003266743151471019,0.00030341141973622143,0.000884248991496861,0.18418897688388824,-0.8997998833656311,0.029020488262176514,0.12812365591526031,-0.33959394693374634,0.005314156413078308
1749056332.7264464,0.8078770637512207,-0.567348913555481,-1.0023523569107056,2.2196871477314453,0.4476735591888428,-2.7771835962878626,4.0074755816021934e-05,-0.00012602355855051428,0.00037284070276655257,-0.0003045246412511915,0.00029113556956872344,0.000796136271674186,0.19668914377689362,-0.895441472530365,0.04030933231115341,0.11283022165298462,-0.3326135277748108,-0.010831013321876526
1749056332.7264862,0.8079111576080322,-0.5673105281642457,-1.0023865699768066,2.219668074245117,0.4476201832294464,-2.7772186438189905,3.9201990148285404e-05,-0.00011775594612117857,0.0003767619782593101,-0.0002851929166354239,0.0002798150817397982,0.0006944584310986102,0.18905819952487946,-0.9089959263801575,0.03211744502186775,0.1403156816959381,-0.33945000171661377,-0.013236954808235168
1749056332.726525,0.8079215884208679,-0.567348913555481,-1.0023677349090576,2.219656153316162,0.4476509094238281,-2.7771995703326624,3.836644100374542e-05,-0.00011052477930206805,0.0003540135221555829,-0.0002681578043848276,0.0002693424466997385,0.0006043954635970294,0.2123725861310959,-0.9229993224143982,0.03580591455101967,0.13209038972854614,-0.3400736451148987,-0.006380602717399597
1749056332.7265632,0.8078838586807251,-0.5673535627177735,-1.0023558139801025,2.21970979749646,0.4476544260978699,-2.777175251637594,3.756573278224096e-05,-0.00010413003474241123,0.0003592941502574831,-0.00025306985480710864,0.00025962566724047065,0.0005330112180672586,0.20703454315662384,-0.9115793704986572,0.028164830058813095,0.1350671648979187,-0.3491215705871582,-0.013482049107551575
1749056332.726601,0.8078838586807251,-0.5673497480205079,-1.0023523569107056,2.2197062212177734,0.4476544260978699,-2.777187172566549,3.679777364595793e-05,-5.080990740680136e-05,0.0003633953456301242,-0.00023958289239089936,0.00025058590108528733,0.0005528285983018577,0.23142041265964508,-0.8971180319786072,0.020547635853290558,0.134564608335495,-0.3335793614387512,-0.00947694480419159
1749056332.726639,0.8078838586807251,-0.5673416417888184,-1.0023438930511475,2.2196835714527587,0.4476631283760071,-2.777175251637594,3.606057362048887e-05,-4.6680837840540335e-05,0.00034510804107412696,-0.00022746159811504185,0.00024215471057686955,0.0005134179373271763,0.22022117674350739,-0.8688358664512634,0.021392416208982468,0.13189725577831268,-0.34532076120376587,-0.013034477829933167
1749056332.7266774,0.8078838586807251,-0.5673733514598389,-1.0023523569107056,2.2196716505238037,0.4476509094238281,-2.777156416569845,3.535235009621829e-05,-4.436486051417887e-05,0.00032727891812101007,-0.00021650813869200647,0.00023427252017427236,0.00047088644350878894,0.19497397541999817,-0.8764067888259888,0.0154695063829422,0.13929787278175354,-0.3267425298690796,-0.004544302821159363
1749056332.7267156,0.8078838586807251,-0.5673380655101319,-1.002362608909607,2.2196716505238037,0.4476805627346039,-2.777187172566549,3.467141868895851e-05,-4.228026227792725e-05,0.00031111895805224776,-0.0002065619482891634,0.00022688761237077415,0.0004578538937494159,0.21384762227535248,-0.870747983455658,0.025916028767824173,0.15311069786548615,-0.3410869836807251,0.0050815194845199585
1749056332.7267537,0.8078957796096802,-0.5673380655101319,-1.0023558139801025,2.2197181421467285,0.4477043151855469,-2.7771907488452356,3.401619687792845e-05,-4.080422968399944e-06,0.0002964739687740803,-0.00019748271733988076,0.00021995430870447308,0.0004596312646754086,0.21451275050640106,-0.8778136372566223,0.011236179620027542,0.14678657054901123,-0.34334927797317505,0.005003765225410461
1749056332.7267916,0.80787193775177,-0.5673177999309083,-1.0023558139801025,2.2196990686604003,0.44768548011779785,-2.7771716753589075,3.338530950713903e-05,-3.9811080654317266e-08,0.00028314554947428405,-0.00018918082059826702,0.00021343214029911906,0.0004785108903888613,0.2045890837907791,-0.858874499797821,0.02167736366391182,0.15556113421916962,-0.33935070037841797,0.014292225241661072
1749056332.726832,0.8078838586807251,-0.5673535627177735,-1.0023558139801025,2.2196871477314453,0.44762367010116577,-2.7771976629840296,3.277737778262235e-05,-3.884210730831228e-10,0.00027096469420939684,-0.00018154524150304496,0.00020728596427943558,0.00048536754911765456,0.22077740728855133,-0.8352366089820862,0.014905354008078575,0.16614533960819244,-0.35076040029525757,0.016942426562309265
1749056332.7268693,0.8078908324241638,-0.5673224490932007,-1.0023404359817505,2.219690724010132,0.44769248366355896,-2.777156178151266,3.219118661945686e-05,-3.789671701448505e-12,0.00025978853227570653,-0.00015455586253665388,0.0002014837955357507,0.0005928759928792715,0.22849169373512268,-0.8602020740509033,-0.0009018220007419586,0.17041027545928955,-0.33266329765319824,0.04123832285404205
1749056332.7269065,0.807918131351471,-0.5673380655101319,-1.0023558139801025,2.219702644939087,0.4476959705352783,-2.7771788279162806,4.5862587285228074e-05,-3.697433323597045e-14,0.00024949791259132326,-0.0001254207600140944,0.00019599754887167364,0.002314079785719514,0.22559715807437897,-0.8260214924812317,0.00840504840016365,0.18048539757728577,-0.34026801586151123,0.042141228914260864
1749056332.7269437,0.8079026937484741,-0.5673452180675049,-1.0023523569107056,2.219702644939087,0.4476613998413086,-2.777170483266012,4.6603945520473644e-05,-3.6074402657643645e-16,0.00023999215045478195,-3.784288128372282e-05,0.0001908024278236553,0.004919617436826229,0.2621630132198334,-0.8152090907096863,-0.0051446594297885895,0.17539924383163452,-0.34166115522384644,0.04763190448284149
1749056332.7269804,0.807875394821167,-0.5673608344844361,-1.0023404359817505,2.2196990686604003,0.4476771056652069,-2.7771204153644007,4.582790279528126e-05,-3.519637376391188e-18,0.00023118448734749109,0.00010991193994414061,0.0001725358742987737,0.0064031584188342094,0.2524458169937134,-0.8248307108879089,-0.025188419967889786,0.187458336353302,-0.3625308573246002,0.04087449610233307
1749056332.7270174,0.8078873157501221,-0.5673224490932007,-1.0023711919784546,2.219714565868042,0.4476770758628845,-2.777146641408102,4.5063196012051776e-05,-3.4339714890019906e-20,0.00022299926786217839,0.0009259451762773097,0.0001602958800503984,0.007763732690364122,0.2457168847322464,-0.8138746619224548,-0.03421374782919884,0.21657943725585938,-0.3498251736164093,0.04487636685371399
1749056332.727054,0.8078873157501221,-0.5673297208598633,-1.0023711919784546,2.219714565868042,0.4476771056652069,-2.777112070714132,4.432344576343894e-05,-3.3503909667500984e-22,0.0002156053378712386,0.0019955020397901535,0.0001549635489936918,0.00928320549428463,0.265848308801651,-0.7978728413581848,-0.0220811627805233,0.21044909954071045,-0.34828129410743713,0.043167173862457275
1749056332.72716,0.8078804016113281,-0.5673261445811768,-1.0023711919784546,2.219702644939087,0.44765788316726685,-2.7770841757403772,4.360755701782182e-05,-3.2688443481618307e-24,0.00010033914441009983,0.0027742895763367414,0.00015100304153747857,0.011713911779224873,0.23778943717479706,-0.7824684977531433,-0.01531251147389412,0.21861760318279266,-0.3661872446537018,0.05979438126087189
1749056332.728425,0.8079180717468262,-0.5673031371882935,-1.0023558139801025,2.219714565868042,0.4476701021194458,-2.7770450750934046,4.2914463847409934e-05,0.0005754599696956575,8.860552043188363e-05,0.0024575379211455584,0.00014742548228241503,0.013973861932754517,0.2679259777069092,-0.7983055114746094,-0.020101670175790787,0.23503272235393524,-0.3587779700756073,0.05597658455371857
1749056332.7703023,0.8078524470329285,-0.5673213762095948,-1.0023523569107056,2.2197229105183105,0.4476425349712372,-2.777024571095602,4.2243078496539965e-05,0.0006333005148917437,8.402355160797015e-05,0.0022050824481993914,0.00014404636749532074,0.014779469929635525,0.24884437024593353,-0.7940126061439514,-0.020380590111017227,0.25236523151397705,-0.37416911125183105,0.06414660811424255
1749056332.7703629,0.8079146146774292,-0.5673452180675049,-1.002374529838562,2.219726486796997,0.4477165937423706,-2.776984755192892,4.159234231337905e-05,0.0006637966143898666,8.024738053791225e-05,0.002333443146198988,0.00014082463167142123,0.01573312096297741,0.2732962965965271,-0.806548535823822,-0.010792102664709091,0.25733786821365356,-0.3931434452533722,0.0899595320224762
1749056332.770409,0.8078837990760803,-0.5673524898341675,-1.0023592710494995,2.2197229105183105,0.44765785336494446,-2.776926581059591,4.096136399311945e-05,0.0005940819391980767,7.681992428842932e-05,0.00349440798163414,0.00010441999620525166,0.018514830619096756,0.2794988751411438,-0.8256308436393738,-0.0073915570974349976,0.28379905223846436,-0.38640180230140686,0.07428468763828278
1749056332.7704496,0.8078992366790771,-0.5673105281642457,-1.002374529838562,2.219766779536865,0.44766488671302795,-2.7769632975207728,4.0349252230953425e-05,0.0005352016305550933,7.367476791841909e-05,0.005565665662288666,5.182274981052615e-05,0.020649051293730736,0.2856866717338562,-0.8216750025749207,-0.0246318019926548,0.27858954668045044,-0.411505788564682,0.06861375272274017
1749056332.770487,0.8079026937484741,-0.5673452180675049,-1.0023523569107056,2.219747706050537,0.44765785336494446,-2.7769275347339075,3.975514118792489e-05,0.0004869268159382045,7.077736518112943e-05,0.006590032484382391,2.5475466827629134e-05,0.01948891021311283,0.259608656167984,-0.8423012495040894,-0.01699858158826828,0.2581294775009155,-0.40595993399620056,0.06930258870124817
1749056332.7705252,0.8078649640083313,-0.5673142236522217,-1.0023677349090576,2.2197679716297607,0.4476771056652069,-2.7768502871142786,3.9178295992314816e-05,0.00044664053712040186,6.809909973526374e-05,0.007702575996518135,4.501782314036973e-06,0.01882682368159294,0.2718064785003662,-0.8344422578811646,-0.016436927020549774,0.2817612886428833,-0.4186198115348816,0.05924022197723389
1749056332.7705634,0.8079061508178711,-0.5673105281642457,-1.0023558139801025,2.2198025423237304,0.4476509094238281,-2.776813809071676,3.8617930840700865e-05,0.0003460226289462298,6.561630289070308e-05,0.007795038633048534,7.955121645863983e-07,0.018088918179273605,0.2564021050930023,-0.8401181101799011,0.0021928735077381134,0.27530473470687866,-0.446140319108963,0.07797566056251526
1749056332.7706008,0.8078957200050354,-0.5673142236522217,-1.0023677349090576,2.219834251994751,0.44772353768348694,-2.7768316904651087,3.807340544881299e-05,0.00031938208849169314,6.330820178845897e-05,0.007835878990590572,1.405753522476516e-07,0.01760055124759674,0.2731417417526245,-0.8405722975730896,0.0007901079952716827,0.3087383806705475,-0.4559272229671478,0.08650841563940048
1749056332.7706378,0.8078649640083313,-0.5673177999309083,-1.0023711919784546,2.2198425966450195,0.44766485691070557,-2.776773277913229,3.7543981306953356e-05,0.0002981947618536651,6.115692667663097e-05,0.009202084504067898,-0.0015963956248015165,0.017969658598303795,0.27530932426452637,-0.8524121642112732,0.0007908344268798828,0.3032916188240051,-0.4576198160648346,0.10587900131940842
1749056332.7706757,0.807890772819519,-0.5673608344844361,-1.0023558139801025,2.2198235231586914,0.44765785336494446,-2.77674109140505,3.7029112718300894e-05,0.0002294271980645135,7.364734483417124e-05,0.010914920829236507,-0.002656847471371293,0.018832338973879814,0.25344353914260864,-0.8711037039756775,0.01800399087369442,0.3096420168876648,-0.46539434790611267,0.10180065035820007
1749056332.7707133,0.8079061508178711,-0.5673416417888184,-1.0023711919784546,2.2198590475269775,0.44766485691070557,-2.7767167727099817,3.652814848464914e-05,0.00021069015201646835,8.491360495099798e-05,0.0116904741153121,-0.003428152296692133,0.01878049410879612,0.26574382185935974,-0.8779742121696472,0.018854573369026184,0.30972060561180115,-0.47038111090660095,0.11913188546895981
1749056332.770751,0.8079061508178711,-0.56735713899646,-1.002386450767517,2.2198983865925292,0.44770288467407227,-2.776658598576681,3.6040561099071056e-05,0.00015429644554387778,8.318462641909719e-05,0.01302413921803236,-0.004012899938970804,0.019859451800584793,0.2552851438522339,-0.8983354568481445,0.019985783845186234,0.2988208532333374,-0.48030826449394226,0.1186228021979332
1749056332.7707884,0.8078838586807251,-0.5673380655101319,-1.0023592710494995,2.219906731242798,0.44762563705444336,-2.776632849370138,3.556584124453366e-05,0.00014147422916721553,0.000100690835097339,0.013854059390723705,-0.004763216711580753,0.021608881652355194,0.2691996991634369,-0.9288082718849182,0.03353574126958847,0.3073214888572693,-0.48711082339286804,0.12559467554092407
1749056332.7708292,0.8078838586807251,-0.5673380655101319,-1.0023592710494995,2.219906731242798,0.44762563705444336,-2.776632849370138,3.556584124453366e-05,0.00014147422916721553,0.000100690835097339,0.013854059390723705,-0.004763216711580753,0.021608881652355194,0.2691996991634369,-0.9288082718849182,0.03353574126958847,0.3073214888572693,-0.48711082339286804,0.12559467554092407
1749056332.7708678,0.8078908324241638,-0.5673733514598389,-1.0023404359817505,2.219970389003418,0.4475826919078827,-2.776529852543966,3.4652923204703256e-05,-0.00017569372721482068,0.00014596547407563776,0.015923047438263893,-0.007807941175997257,0.024859881028532982,0.2728714644908905,-0.9192728996276855,0.05724186822772026,0.2799936532974243,-0.5017411112785339,0.1374303251504898
1749056332.7709053,0.8079026937484741,-0.567348913555481,-1.0023438930511475,2.2199906545826416,0.44755855202674866,-2.776454750691549,3.4213808248750865e-05,-0.00021683161321561784,0.00024317791394423693,0.016009239479899406,-0.008855772204697132,0.02653876319527626,0.21701790392398834,-0.9275601506233215,0.07054735720157623,0.29645049571990967,-0.516056478023529,0.14485639333724976
1749056332.7709463,0.8079062104225159,-0.5673023027232666,-1.0023438930511475,2.2200113969990234,0.44756200909614563,-2.776438061391012,3.378569090273231e-05,-0.00020951252372469753,0.003313869470730424,0.015783105045557022,-0.010298953391611576,0.028378689661622047,0.21672403812408447,-0.9530477523803711,0.053059935569763184,0.28670260310173035,-0.516371488571167,0.14585649967193604
1749056332.770985,0.8079652786254883,-0.5673535627177735,-1.0023285150527954,2.220031662578247,0.44751235842704773,-2.7763939539538782,3.33681600750424e-05,-0.00024251797003671527,0.004071791190654039,0.015003029257059097,-0.01135150995105505,0.02957700751721859,0.22556795179843903,-0.9525076746940613,0.04878012090921402,0.2750270962715149,-0.5116569399833679,0.15069828927516937
1749056332.7710226,0.807892382144928,-0.5673342508128663,-1.0023200511932373,2.2201217848011474,0.44752630591392517,-2.7763424555407923,3.296082286396995e-05,-0.0006163651705719531,0.0038694902323186398,0.014628909528255463,-0.012474867515265942,0.03112066350877285,0.22424711287021637,-0.9492433667182922,0.06248326227068901,0.2980192005634308,-0.5105825066566467,0.1566033959388733
1749056332.77106,0.8078957796096802,-0.5673697751811524,-1.0023285150527954,2.2201108175465087,0.4474662244319916,-2.776254717503683,3.256331547163427e-05,-0.0008138961857184768,0.0036933126393705606,0.014592606574296951,-0.013616525568068027,0.03232767432928085,0.20732168853282928,-0.9683277606964111,0.07234251499176025,0.2985808849334717,-0.5085029602050781,0.15395139157772064
1749056332.771303,0.8079026937484741,-0.5673806232265015,-1.0023040771484375,2.220193787212036,0.4474504888057709,-2.7761791388141077,3.2175266824197024e-05,-0.0009096506983041763,0.004290456883609295,0.015109655447304249,-0.014560927636921406,0.035813093185424805,0.18649213016033173,-0.9715742468833923,0.07274307310581207,0.279560923576355,-0.5100117921829224,0.1627313494682312
1749056332.7724032,0.8079293966293335,-0.5673416417888184,-1.0023040771484375,2.2202107149311523,0.4474264681339264,-2.7761083284961146,3.179636405548081e-05,-0.0013046807143837214,0.004709653556346893,0.015140511095523834,-0.016414552927017212,0.03764186426997185,0.1796671599149704,-0.9736024737358093,0.08264796435832977,0.29736799001693726,-0.514151394367218,0.18193285167217255
1749056332.8142967,0.8079111576080322,-0.5673608344844361,-1.002307653427124,2.2202071386524658,0.4473631978034973,-2.7760279814349573,3.142627974739298e-05,-0.0014017203357070684,0.005326878745108843,0.01470758207142353,-0.018169017508625984,0.039197444915771484,0.1692146211862564,-1.0015993118286133,0.07372714579105377,0.2876124680042267,-0.4956541955471039,0.1905689537525177
1749056332.8143563,0.8078992366790771,-0.5673497480205079,-1.002311110496521,2.2202393251606445,0.44733062386512756,-2.775940481816427,5.582552944360941e-07,-0.0013587839202955365,0.0059149134904146194,0.01424857135862112,-0.017977425828576088,0.04258256405591965,0.15954840183258057,-1.0125198364257812,0.06601851433515549,0.28827711939811707,-0.49847060441970825,0.17539311945438385
1749056332.8143995,0.8078992366790771,-0.5673497480205079,-1.002299189567566,2.2202793794819335,0.44732916355133057,-2.7758801619159144,-1.3165383279556409e-05,-0.00155502965208143,0.006495750974863768,0.014773014932870865,-0.018032029271125793,0.0425051786005497,0.1575317531824112,-1.018884301185608,0.0762675404548645,0.28900212049484253,-0.48337092995643616,0.19142790138721466
1749056332.814439,0.8079146146774292,-0.5673497480205079,-1.0022531747817993,2.220318480128906,0.4472707509994507,-2.7757540384875696,-1.3107475751894526e-05,-0.0016168039292097092,0.00658373674377799,0.014714398421347141,-0.017685892060399055,0.04412965849041939,0.15650703012943268,-1.044816255569458,0.07940328121185303,0.29088929295539856,-0.47212207317352295,0.19556620717048645
1749056332.8144784,0.8078250288963318,-0.5673623842052002,-1.0022718906402588,2.220357819194458,0.44725367426872253,-2.7756853739367884,-1.2920610060973559e-05,-0.0022169628646224737,0.006397265009582043,0.01468288991600275,-0.015690002590417862,0.04714379832148552,0.15333107113838196,-1.0289077758789062,0.0840030163526535,0.2840422987937927,-0.4739903509616852,0.19568264484405518
1749056332.814517,0.8078803420066833,-0.5673743051341553,-1.0022445917129517,2.2203823763081054,0.44721099734306335,-2.775612179433004,-1.2737759789160918e-05,-0.003141223220154643,0.006770493928343058,0.014518598094582558,-0.013556192629039288,0.05084705352783203,0.12626616656780243,-1.0344781875610352,0.08570565283298492,0.3044736981391907,-0.47479256987571716,0.19290930032730103
1749056332.8145552,0.8078992366790771,-0.5673778814128418,-1.0022201538085938,2.2203869062611084,0.4471784830093384,-2.7754936853991907,-2.1158732124604285e-05,-0.003722194116562605,0.007999109104275703,0.015546909533441067,-0.012470266781747341,0.05393219366669655,0.11033874750137329,-1.0316663980484009,0.06494517624378204,0.29506051540374756,-0.47412461042404175,0.19580607116222382
1749056332.8145945,0.8078873157501221,-0.5674007695964356,-1.0022237300872803,2.2204226690479736,0.4472007751464844,-2.775381867085592,-2.4735623810556717e-05,-0.004112669266760349,0.008406777866184711,0.016169440001249313,-0.012038953602313995,0.056197602301836014,0.0932738333940506,-1.0221683979034424,0.08301739394664764,0.3048313856124878,-0.4872191548347473,0.19192983210086823
1749056332.814633,0.8078770041465759,-0.5674244922450562,-1.0022118091583252,2.2204553323933105,0.44713032245635986,-2.775273386632101,-3.653563544503413e-05,-0.004179369658231735,0.007873570546507835,0.01648757793009281,-0.010883884504437447,0.0575396753847599,0.08757604658603668,-1.0578988790512085,0.09344206750392914,0.29229477047920227,-0.48339325189590454,0.19199329614639282
1749056332.814671,0.8078649640083313,-0.5673898023417969,-1.0021657943725586,2.220498247737549,0.4471184015274048,-2.7751501242267054,-4.8100799176609144e-05,-0.004619319923222065,0.007546869106590748,0.017197830602526665,-0.01027753110975027,0.059576958417892456,0.07687859237194061,-1.0475900173187256,0.10945969820022583,0.2985166013240814,-0.48718154430389404,0.19076935946941376
1749056332.8147082,0.8079215884208679,-0.5673670333674927,-1.002184510231018,2.220545931453369,0.4471096992492676,-2.775015656148092,-0.0005371803417801857,-0.005495188292115927,0.008134922944009304,0.01879575476050377,-0.009899156168103218,0.061370376497507095,0.07663937658071518,-1.0539385080337524,0.08478501439094543,0.30487892031669617,-0.4954844117164612,0.18550549447536469
1749056332.8147457,0.8078873157501221,-0.567401723270752,-1.0021566152572632,2.2205821710773925,0.4470632076263428,-2.7748680750476282,-0.0005856367060914636,-0.005890252999961376,0.008795041590929031,0.01937568373978138,-0.010185083374381065,0.06156444549560547,0.05935746431350708,-1.0790674686431885,0.10185480117797852,0.3065679371356964,-0.49756506085395813,0.1973496526479721
1749056332.8147826,0.8078684210777283,-0.5674172204783936,-1.0021363496780396,2.220611258144043,0.4470858573913574,-2.7747483889209192,-0.000631181348580867,-0.0071412608958780766,0.00848227646201849,0.019808627665042877,-0.010859365575015545,0.06276407092809677,0.05963222682476044,-1.0582196712493896,0.09631840139627457,0.310267835855484,-0.5030707716941833,0.22934436798095703
1749056332.8148196,0.8079026937484741,-0.5674529832652588,-1.0021398067474365,2.2206546503254394,0.4470393657684326,-2.7746368090258997,-0.0012926978524774313,-0.007722841575741768,0.008861321024596691,0.020670155063271523,-0.011665182188153267,0.06408125162124634,0.05075198784470558,-1.0555170774459839,0.09500612318515778,0.3118034899234772,-0.5114122629165649,0.25096696615219116
1749056332.8148577,0.8079026937484741,-0.5674618047526856,-1.0021238327026367,2.2207059103199462,0.447037935256958,-2.7745006720172327,-0.0014503037091344595,-0.008083865977823734,0.009189274162054062,0.020885532721877098,-0.012348205782473087,0.066258504986763,0.028554199263453484,-1.067123293876648,0.10331352055072784,0.31956052780151367,-0.5311015844345093,0.24120311439037323
1749056332.8148947,0.8078510761260986,-0.5674618047526856,-1.0020813941955566,2.2207225996204834,0.4470173418521881,-2.7743690649615687,-0.0021726747509092093,-0.008088378235697746,0.00872148759663105,0.02178211510181427,-0.013369519263505936,0.06863414496183395,0.02848636545240879,-1.078345537185669,0.12166499346494675,0.3132084608078003,-0.529018759727478,0.24279606342315674
1749056332.8149312,0.8078476190567017,-0.5674418968013306,-1.00210702419281,2.2207862573811035,0.44695547223091125,-2.774181906376974,-0.0026611476205289364,-0.00831958930939436,0.009395542554557323,0.02302352339029312,-0.014634822495281696,0.07407455891370773,0.02837473712861538,-1.058862328529358,0.11074191331863403,0.32138776779174805,-0.5375062227249146,0.2036411166191101
1749056332.8149683,0.8078510761260986,-0.5674700301936646,-1.002079725265503,2.220806522960327,0.4469505250453949,-2.77405029932131,-0.002498736372217536,-0.008126580156385899,0.010702865198254585,0.02384657971560955,-0.016159286722540855,0.07476209849119186,0.04083197936415672,-1.082613468170166,0.11617959290742874,0.3245227336883545,-0.537063479423523,0.2180115282535553
1749056332.8150055,0.8078978657722473,-0.5675167602351685,-1.0020748376846313,2.2208666044422607,0.44694042205810547,-2.7739384810077112,-0.002276013372465968,-0.008347947150468826,0.010143495164811611,0.02539268136024475,-0.01627180352807045,0.07334963232278824,0.0036330483853816986,-1.0876402854919434,0.11059761047363281,0.3126175105571747,-0.5188808441162109,0.2362952083349228
1749056332.8150425,0.8078790307044983,-0.567521409397461,-1.0020281076431274,2.2209231096455078,0.44688689708709717,-2.7737441698657435,-0.002482663607224822,-0.007854361087083817,0.009973998181521893,0.026073861867189407,-0.016990097239613533,0.07511239498853683,0.009201902896165848,-1.112303376197815,0.13408416509628296,0.3249554932117462,-0.5477367639541626,0.24774369597434998
1749056332.815143,0.8078439831733704,-0.5674672883800049,-1.0020196437835693,2.220989866847656,0.4467802941799164,-2.77360445657839,-0.002797317923977971,-0.008274023421108723,0.010698553174734116,0.027077466249465942,-0.018754029646515846,0.07752491533756256,-0.0017295069992542267,-1.1125469207763672,0.12044528126716614,0.29916560649871826,-0.5539833903312683,0.23778218030929565
1749056332.8163795,0.8078699707984924,-0.5675251048854371,-1.0019923448562622,2.2210189539143066,0.44681838154792786,-2.773459021245138,-0.003536369651556015,-0.00874687172472477,0.010808994993567467,0.02740875817835331,-0.019743463024497032,0.0824187695980072,0.009958438575267792,-1.1035664081573486,0.1399960219860077,0.3249947428703308,-0.5289639234542847,0.24281759560108185
1749056332.8623118,0.8078237771987915,-0.5675856632045289,-1.0019804239273071,2.221095247859619,0.4467929005622864,-2.7732847372638147,-0.0042401994578540325,-0.008631189353764057,0.011131263338029385,0.028842344880104065,-0.020427273586392403,0.0851384624838829,0.008124016225337982,-1.120284914970398,0.12039116770029068,0.3149668574333191,-0.5323870182037354,0.23010443150997162
1749056332.8623664,0.8078545331954956,-0.5675819677165528,-1.001953125,2.2211426931568603,0.44670721888542175,-2.7731173674212855,-0.004526711534708738,-0.009007742628455162,0.010981468483805656,0.030079161748290062,-0.021211188286542892,0.08583194762468338,-0.03213920816779137,-1.1299809217453003,0.13090957701206207,0.30675047636032104,-0.525655210018158,0.23866905272006989
1749056332.862415,0.8078426122665405,-0.5676011604121705,-1.0019322633743286,2.221221848125122,0.4466589689254761,-2.7729654947863978,-0.004886717069894075,-0.009116866625845432,0.010748961940407753,0.03145661577582359,-0.020853498950600624,0.08482802659273148,-0.006423497572541237,-1.110985279083252,0.13824716210365295,0.3047066032886505,-0.5386000871658325,0.24782754480838776
1749056332.8624723,0.8077929615974426,-0.5676531356624146,-1.0019476413726807,2.22129408895459,0.44661107659339905,-2.7727938334094446,-0.004423708654940128,-0.009078445844352245,0.01098756492137909,0.03133923560380936,-0.021088166162371635,0.08916378766298294,-0.04986995458602905,-1.123220443725586,0.13435542583465576,0.3098948001861572,-0.5302249193191528,0.24757397174835205
1749056332.8625386,0.8078083395957947,-0.5676332277110596,-1.0019084215164185,2.221369429225586,0.44659423828125,-2.7725523153888147,-0.004262454807758331,-0.009187821298837662,0.01081234123557806,0.03255486860871315,-0.021893130615353584,0.09025757014751434,-0.02659607119858265,-1.151536226272583,0.14362609386444092,0.2983657419681549,-0.5462519526481628,0.2678329646587372
1749056332.862588,0.8077914714813232,-0.5676420491984864,-1.0018999576568604,2.2214254575916748,0.4465343952178955,-2.772402826939718,-0.004804134368896484,-0.009779033251106739,0.01018806453794241,0.032747358083724976,-0.021265879273414612,0.09230341017246246,-0.05231499671936035,-1.1347718238830566,0.1443505883216858,0.30697521567344666,-0.5356388688087463,0.25970399379730225
1749056332.8626275,0.8077880144119263,-0.5676694673350831,-1.0018513202667236,2.2214981752583007,0.4465484619140625,-2.772212807332174,-0.005453689955174923,-0.009921114891767502,0.01072816550731659,0.0328378900885582,-0.02165314182639122,0.09388487040996552,-0.031854063272476196,-1.1320728063583374,0.1443096101284027,0.30710649490356445,-0.5600392818450928,0.2457062304019928
1749056332.862666,0.8077719807624817,-0.5676897329143067,-1.0018359422683716,2.2215544420429687,0.446455180644989,-2.7720328013049524,-0.006351841613650322,-0.010605743154883385,0.01067367848008871,0.034214042127132416,-0.02324497513473034,0.09593911468982697,-0.04283320903778076,-1.1376549005508423,0.1584954559803009,0.2876998782157898,-0.5564606785774231,0.24693912267684937
1749056332.8627038,0.8077600002288818,-0.5677370590022583,-1.001808762550354,2.221614046687744,0.44635581970214844,-2.771829430256979,-0.006489921361207962,-0.010046972893178463,0.011000407859683037,0.03323976695537567,-0.024129698053002357,0.09696582704782486,-0.05401984229683876,-1.1168467998504639,0.1541195809841156,0.3015633225440979,-0.5472583174705505,0.25592610239982605
1749056332.86275,0.8077860474586487,-0.5677223962596436,-1.0017849206924438,2.2216741281696777,0.44633522629737854,-2.771637503300802,-0.006601502187550068,-0.010195539332926273,0.011013873852789402,0.033733222633600235,-0.02528112567961216,0.09792516380548477,-0.039247315376996994,-1.166574478149414,0.1513098031282425,0.288535475730896,-0.5388478636741638,0.25875192880630493
1749056332.8627932,0.8077517151832581,-0.5677223962596436,-1.0017882585525513,2.221761627788208,0.4463062286376953,-2.771423880253927,-0.006687026005238295,-0.009973760694265366,0.010896659456193447,0.03380163758993149,-0.02427923120558262,0.10120321810245514,-0.05044342204928398,-1.1607236862182617,0.15719953179359436,0.2948257029056549,-0.5538304448127747,0.26318612694740295
1749056332.8628306,0.8077587485313416,-0.5677544635585328,-1.0017638206481934,2.221818132991455,0.44621211290359497,-2.7712274233447474,-0.006421708967536688,-0.010001791641116142,0.01126880943775177,0.034039922058582306,-0.02490055374801159,0.10122786462306976,-0.03557806834578514,-1.1487467288970947,0.14977869391441345,0.3002925515174866,-0.5540521740913391,0.24428081512451172
1749056332.862879,0.8077433109283447,-0.567789153461792,-1.0017554759979248,2.221874161357544,0.44620683789253235,-2.771027151738302,-0.007132763508707285,-0.010020511224865913,0.010951537638902664,0.034229956567287445,-0.02484535053372383,0.10312268882989883,-0.06353875249624252,-1.1567766666412354,0.17050229012966156,0.31066009402275085,-0.559826672077179,0.2527797222137451
1749056332.8629196,0.8077194690704346,-0.56780560434375,-1.0017316341400146,2.2219621378132324,0.4461587071418762,-2.7708123365985315,-0.00749928830191493,-0.010399426333606243,0.01123717613518238,0.03485964611172676,-0.02593700960278511,0.1049119085073471,-0.041910722851753235,-1.1513941287994385,0.15906089544296265,0.2973611354827881,-0.547944962978363,0.2335301786661148
1749056332.8629572,0.8077418208122253,-0.5678373140147706,-1.001685619354248,2.2220496374317626,0.4460783004760742,-2.770592991505758,-0.0066480995155870914,-0.009979735128581524,0.011809725314378738,0.0353049710392952,-0.026515988633036613,0.1049092635512352,-0.07165815681219101,-1.1735916137695312,0.17247657477855682,0.30963608622550964,-0.5354321599006653,0.2348654866218567
1749056332.862995,0.8076956272125244,-0.5678373140147706,-1.0016764402389526,2.2221216398426513,0.44605445861816406,-2.770400110875265,-0.006063236389309168,-0.010249937884509563,0.011848201975226402,0.035268887877464294,-0.02656109444797039,0.10520658642053604,-0.09132572263479233,-1.1541774272918701,0.16411182284355164,0.30491238832473755,-0.5498359799385071,0.25741198658943176
1749056332.863033,0.8076956272125244,-0.5678612750819703,-1.001668095588684,2.2221783834644775,0.4459531307220459,-2.7702084223376673,-0.006767995189875364,-0.010703147388994694,0.012659402564167976,0.03579418733716011,-0.02707967348396778,0.10606566816568375,-0.08171142637729645,-1.1715625524520874,0.17300449311733246,0.28816115856170654,-0.5499370098114014,0.25373873114585876
1749056332.863071,0.8077075481414795,-0.5678659242442627,-1.001663088798523,2.2222651678272705,0.44593101739883423,-2.769989792500631,-0.007607098203152418,-0.01031290739774704,0.012370355427265167,0.03618977218866348,-0.026942679658532143,0.10839226841926575,-0.08703921735286713,-1.189673900604248,0.17230752110481262,0.2958186864852905,-0.5498906373977661,0.2666458189487457
1749056332.8631082,0.8076250553131104,-0.5678859514049073,-1.0016460418701172,2.222306175822876,0.44585204124450684,-2.769771401082174,-0.007769976742565632,-0.010830475948750973,0.012505898252129555,0.03578275442123413,-0.028254352509975433,0.11115077137947083,-0.09894076734781265,-1.197587013244629,0.17954131960868835,0.2923359274864197,-0.5464648604393005,0.2174898087978363
1749056332.8631465,0.807659387588501,-0.5679406684688111,-1.0015965700149536,2.222409649486206,0.44581955671310425,-2.7695158163653772,-0.007389191538095474,-0.011467725969851017,0.012582894414663315,0.036869823932647705,-0.028726208955049515,0.11012992262840271,-0.08569042384624481,-1.171504259109497,0.173793762922287,0.3139932155609131,-0.5488675236701965,0.2797132730484009
1749056332.8631835,0.807655930519104,-0.5679223102382203,-1.0015716552734375,2.2224971491047363,0.44575974345207214,-2.7693002859698694,-0.007528824266046286,-0.009830323979258537,0.012667450122535229,0.03812393173575401,-0.030066227540373802,0.11106257885694504,-0.12856167554855347,-1.2020511627197266,0.19830197095870972,0.30916333198547363,-0.5358469486236572,0.26744040846824646
1749056332.8632207,0.8076201677322388,-0.5679570001414795,-1.0015513896942139,2.2225536543079834,0.44568774104118347,-2.769088331853048,-0.007748214993625879,-0.009491107426583767,0.01335365790873766,0.038091447204351425,-0.030721763148903847,0.11674611270427704,-0.11948004364967346,-1.2166125774383545,0.17155052721500397,0.3009400963783264,-0.544276773929596,0.24024689197540283
1749056332.8633313,0.8076201677322388,-0.5679570001414795,-1.0015513896942139,2.2225536543079834,0.44568774104118347,-2.769088331853048,-0.007748214993625879,-0.009491107426583767,0.01335365790873766,0.038091447204351425,-0.030721763148903847,0.11674611270427704,-0.11948004364967346,-1.2166125774383545,0.17155052721500397,0.3009400963783264,-0.544276773929596,0.24024689197540283
1749056332.86439,0.8075997829437256,-0.5679927629283448,-1.0014842748641968,2.2226971822926025,0.4455520510673523,-2.768587652836935,-0.007734989281743765,-0.009654922410845757,0.014003249816596508,0.03902330622076988,-0.030323300510644913,0.11814940720796585,-0.1037634015083313,-1.2088696956634521,0.19235284626483917,0.3238431513309479,-0.56167072057724,0.26387637853622437
1749056332.9063084,0.807583749294281,-0.5680291217616578,-1.0014759302139282,2.222797079677246,0.44554197788238525,-2.7683566252337855,-0.007509187795221806,-0.009923524223268032,0.013636388815939426,0.03964919224381447,-0.0303459782153368,0.1204664409160614,-0.11917251348495483,-1.2131171226501465,0.19545197486877441,0.29607295989990234,-0.5352224111557007,0.24926458299160004
1749056332.9063625,0.8075720071792603,-0.5680410426906128,-1.001455545425415,2.222900076503418,0.44545483589172363,-2.7681201140033167,-0.008740977384150028,-0.010395567864179611,0.014304340817034245,0.04121936485171318,-0.031363122165203094,0.12187428027391434,-0.09464876353740692,-1.1974399089813232,0.1945468783378601,0.31156182289123535,-0.5357716083526611,0.2596200704574585
1749056332.9064052,0.8075635433197021,-0.5680409234813233,-1.0014129877090454,2.222949429149292,0.445379376411438,-2.7678921858416956,-0.008687055669724941,-0.010536476038396358,0.014069761149585247,0.04447747766971588,-0.030670493841171265,0.12488260120153427,-0.1036665141582489,-1.2013883590698242,0.19904695451259613,0.31330588459968567,-0.5540084838867188,0.2525269687175751
1749056332.9064445,0.807555079460144,-0.5680611890605469,-1.001388430595398,2.2230452734180908,0.4453244209289551,-2.7676647345172327,-0.0081122275441885,-0.01156758051365614,0.015108336694538593,0.04520067945122719,-0.03192993625998497,0.12533754110336304,-0.13041952252388,-1.2216994762420654,0.17866557836532593,0.3035460412502289,-0.5655760765075684,0.25041478872299194
1749056332.9064834,0.8075657486915588,-0.5681130451015015,-1.0013529062271118,2.223101778621338,0.4452509880065918,-2.767416302357809,-0.00837684702128172,-0.012095262296497822,0.015081627294421196,0.04446167126297951,-0.0322381891310215,0.13071414828300476,-0.12730282545089722,-1.1958961486816406,0.19509516656398773,0.31080955266952515,-0.5459967255592346,0.23320484161376953
1749056332.9065237,0.8074844479560852,-0.5681093496135254,-1.0013408660888672,2.223201199168823,0.4451686441898346,-2.7671268622027796,-0.009329667314887047,-0.010595514439046383,0.01567309908568859,0.04325876012444496,-0.034290067851543427,0.1280166357755661,-0.11095086485147476,-1.214444637298584,0.1986006498336792,0.3235231339931488,-0.5352869629859924,0.24475423991680145
1749056332.9065628,0.8075069785118103,-0.5681217473796387,-1.0013234615325928,2.2233285146900634,0.44512030482292175,-2.766892973576681,-0.009170795790851116,-0.011428509838879108,0.015152305364608765,0.04339567944407463,-0.03485199064016342,0.1277133822441101,-0.10655788332223892,-1.1935384273529053,0.19784164428710938,0.31816762685775757,-0.5301145315170288,0.271950364112854
1749056332.9066007,0.8074641823768616,-0.5681767028621216,-1.0012961626052856,2.223416252727173,0.44501253962516785,-2.7666171232806605,-0.00932183489203453,-0.01034572720527649,0.015275636687874794,0.04476889967918396,-0.034925177693367004,0.129657581448555,-0.10994993895292282,-1.2103214263916016,0.22150680422782898,0.3533037304878235,-0.5177556276321411,0.2471928745508194
1749056332.9066389,0.8074830770492554,-0.5682011407664795,-1.0012599229812622,2.223477287883423,0.4449765682220459,-2.766350571309225,-0.009329727850854397,-0.012376422993838787,0.015653545036911964,0.04655510187149048,-0.03570779040455818,0.1333114206790924,-0.13189589977264404,-1.2317311763763428,0.21881932020187378,0.31099897623062134,-0.49548059701919556,0.24503107368946075
1749056332.906677,0.8074249029159546,-0.5681584638408204,-1.001251459121704,2.22355763494458,0.44489234685897827,-2.7661214510547083,-0.009286805987358093,-0.012530173175036907,0.01650475710630417,0.04602646082639694,-0.0356396809220314,0.1318233162164688,-0.14794984459877014,-1.2174421548843384,0.2090209722518921,0.3191056251525879,-0.5123856663703918,0.2763137221336365
1749056332.9067144,0.80745929479599,-0.5682056707194825,-1.0012152194976807,2.2236732679554443,0.44482067227363586,-2.7658243815051478,-0.009278244338929653,-0.011326278559863567,0.016945194453001022,0.0467868447303772,-0.03703916072845459,0.13434313237667084,-0.1443490982055664,-1.2288264036178589,0.21046923100948334,0.32380664348602295,-0.5072867274284363,0.2734951674938202
1749056332.906752,0.8074319362640381,-0.5682533544353028,-1.0011794567108154,2.223761721248291,0.444733202457428,-2.7655254046069544,-0.010031810030341148,-0.012566640973091125,0.016292095184326172,0.04809965565800667,-0.03838811069726944,0.1368977129459381,-0.1520601212978363,-1.2182867527008057,0.21950507164001465,0.30818885564804077,-0.5086996555328369,0.2784197926521301
1749056332.9067893,0.8074039816856384,-0.5682459634593506,-1.00112783908844,2.2238802152821044,0.444680392742157,-2.765214745198385,-0.010231216438114643,-0.012333862483501434,0.016873661428689957,0.04901149496436119,-0.03712310269474983,0.13978886604309082,-0.1227416917681694,-1.229191541671753,0.22666963934898376,0.3080994188785553,-0.511409342288971,0.26890382170677185
1749056332.9068267,0.807420015335083,-0.5682968658259888,-1.0010920763015747,2.2239689069935302,0.44463083148002625,-2.764937941228048,-0.010113026946783066,-0.01256787683814764,0.017144665122032166,0.04930363968014717,-0.037053175270557404,0.1425171047449112,-0.12650583684444427,-1.2357522249221802,0.2159547209739685,0.3280792236328125,-0.5120647549629211,0.2658982276916504
1749056332.9068642,0.8073872327804565,-0.5682942432216187,-1.001052975654602,2.224087877864502,0.4445497393608093,-2.764662806187765,-0.011148366145789623,-0.012973692268133163,0.017914697527885437,0.048619166016578674,-0.03574826195836067,0.1436670571565628,-0.16250774264335632,-1.2252432107925415,0.22553324699401855,0.3141363561153412,-0.5491740107536316,0.23919714987277985
1749056332.906902,0.8073564171791077,-0.5683725637248536,-1.0010284185409546,2.2241574960895996,0.4444332718849182,-2.7643523851977747,-0.011336348950862885,-0.012987906113266945,0.01805819943547249,0.04733140766620636,-0.036023303866386414,0.14620625972747803,-0.15762367844581604,-1.2332249879837036,0.22260697185993195,0.3352348208427429,-0.5249177813529968,0.25167858600616455
1749056332.9069395,0.8073514699935913,-0.5683699411204834,-1.0009962320327759,2.2242955404468994,0.44434234499931335,-2.7640543619738978,-0.01179343368858099,-0.013475794345140457,0.017910389229655266,0.0483943335711956,-0.03757912665605545,0.1450474113225937,-0.1602458953857422,-1.221313714981079,0.21989139914512634,0.328499436378479,-0.5228406190872192,0.2524324357509613
1749056332.906977,0.8073083162307739,-0.5684009355357666,-1.0009440183639526,2.2243808942982177,0.44426199793815613,-2.763785425816671,-0.010762257501482964,-0.012501854449510574,0.018361208960413933,0.05103381350636482,-0.03864477202296257,0.1461566835641861,-0.15168721973896027,-1.2450411319732666,0.22698795795440674,0.3216530680656433,-0.4908893406391144,0.274398535490036
1749056332.9070144,0.8072690367698669,-0.5684247773936768,-1.000939130783081,2.2245229917713623,0.4442123472690582,-2.763498369847433,-0.010418154299259186,-0.013515687547624111,0.018476683646440506,0.05154232308268547,-0.0384758785367012,0.14566461741924286,-0.13405263423919678,-1.2391613721847534,0.207017719745636,0.31517767906188965,-0.4943259060382843,0.27514031529426575
1749056332.9070518,0.8072501420974731,-0.5684803289226075,-1.0008846521377563,2.2245847421833496,0.4441440999507904,-2.7632420698748987,-0.010937421582639217,-0.013088910840451717,0.01825718767940998,0.05207670480012894,-0.03825381398200989,0.1465091109275818,-0.14360371232032776,-1.2078465223312378,0.23398631811141968,0.3157476782798767,-0.49035999178886414,0.28261345624923706
1749056332.9071598,0.8072794675827026,-0.5685232442668458,-1.0008329153060913,2.2246925073811035,0.4440769851207733,-2.762930695210592,-0.01120337750762701,-0.014048447832465172,0.018946649506688118,0.0522552989423275,-0.037085678428411484,0.14999468624591827,-0.1506853997707367,-1.2540444135665894,0.23562346398830414,0.3140069246292114,-0.5070176124572754,0.2834278345108032
1749056332.9083805,0.8072311878204346,-0.5685159725001832,-1.0008007287979126,2.2248002725788574,0.4439968466758728,-2.7625864187823694,-0.011829794384539127,-0.013967483304440975,0.018877752125263214,0.05208130553364754,-0.036445487290620804,0.15098783373832703,-0.1518234759569168,-1.235662579536438,0.2274504005908966,0.3037235140800476,-0.4938181936740875,0.27284184098243713
1749056332.9503114,0.8071823120117188,-0.5685413640788575,-1.0007836818695068,2.2249085146137695,0.44388648867607117,-2.762308661137716,-0.010617612861096859,-0.014200090430676937,0.018846606835722923,0.05262007564306259,-0.03806483745574951,0.152430459856987,-0.15764933824539185,-1.2325764894485474,0.2311900407075882,0.30629870295524597,-0.5087468028068542,0.28661850094795227
1749056332.9503615,0.807180643081665,-0.5685376685908814,-1.000728726387024,2.225013180369995,0.443787157535553,-2.761981789265768,-0.010384664870798588,-0.013411443680524826,0.01958867348730564,0.05291062220931053,-0.03794088959693909,0.15844637155532837,-0.14800727367401123,-1.2493765354156494,0.2273240089416504,0.30765166878700256,-0.5167911052703857,0.2634212076663971
1749056332.9504037,0.8071617484092712,-0.5685771268657227,-1.0006963014602661,2.2251364427753906,0.44375669956207275,-2.7616737524615687,-0.010137355886399746,-0.014076074585318565,0.019521892070770264,0.053202103823423386,-0.0374256893992424,0.1586572378873825,-0.19463467597961426,-1.251035213470459,0.23162215948104858,0.3165331184864044,-0.5127682685852051,0.2604820728302002
1749056332.950444,0.8071253895759583,-0.5686128896525879,-1.0006630420684814,2.225247784251831,0.4436658024787903,-2.761350456868307,-0.010601126588881016,-0.01331867091357708,0.01959609054028988,0.05406194552779198,-0.03778183460235596,0.1603579819202423,-0.16610215604305267,-1.2667908668518066,0.22215348482131958,0.31011763215065,-0.5351411700248718,0.2664358615875244
1749056332.9504876,0.8071051836013794,-0.5686410230449219,-1.0006051063537598,2.225336475963257,0.44360920786857605,-2.761001173649923,-0.010269299149513245,-0.013732538558542728,0.020121848210692406,0.055007923394441605,-0.03720685839653015,0.1637488454580307,-0.172118678689003,-1.2482316493988037,0.23654544353485107,0.3159469962120056,-0.5341041088104248,0.2584554851055145
1749056332.9505281,0.8071309924125671,-0.5686802429011841,-1.0005756616592407,2.225460930461548,0.4435529112815857,-2.7606852690326136,-0.010475842282176018,-0.014122029766440392,0.02121080458164215,0.05560557171702385,-0.03743083029985428,0.1636139452457428,-0.17167900502681732,-1.2688379287719727,0.2203478366136551,0.3164180815219879,-0.5376835465431213,0.2646902799606323
1749056332.9505668,0.8070967197418213,-0.5687238735011597,-1.000509262084961,2.2255722719379882,0.4434535801410675,-2.760350052510397,-0.010677007026970387,-0.014658614061772823,0.01986132189631462,0.056610096246004105,-0.038531459867954254,0.17031040787696838,-0.17331677675247192,-1.2684521675109863,0.21834483742713928,0.32630395889282227,-0.5509758591651917,0.2265234738588333
1749056332.950605,0.8071070909500122,-0.5687216085246583,-1.000491738319397,2.2257038789936523,0.44338157773017883,-2.760042730961935,-0.010883435606956482,-0.01458122581243515,0.020136673003435135,0.05595037713646889,-0.03845813497900963,0.16733449697494507,-0.15232983231544495,-1.2880269289016724,0.2311076521873474,0.3172561824321747,-0.556595504283905,0.2394694685935974
1749056332.9506466,0.8070366382598877,-0.5687765640071412,-1.0004559755325317,2.2258030611225585,0.44329383969306946,-2.759688679371969,-0.01118628028780222,-0.015183728188276291,0.020423751324415207,0.057919081300497055,-0.039005596190690994,0.16852253675460815,-0.16342993080615997,-1.2514861822128296,0.2342001497745514,0.3099477291107178,-0.5537510514259338,0.23366674780845642
1749056332.9506857,0.8070247173309326,-0.5687454503825684,-1.0003855228424072,2.2259322839924316,0.4432361125946045,-2.7593377272235315,-0.011217011138796806,-0.014544530771672726,0.02097516506910324,0.059120189398527145,-0.03947601094841957,0.16917037963867188,-0.16401249170303345,-1.2637683153152466,0.2253444492816925,0.30107954144477844,-0.5643669366836548,0.2408805936574936
1749056332.9507244,0.8069974184036255,-0.568773941402771,-1.0003527402877808,2.226024551982544,0.4431501626968384,-2.759005848561422,-0.01012699119746685,-0.014944950118660927,0.02130233682692051,0.057545021176338196,-0.03945814445614815,0.16964855790138245,-0.17589348554611206,-1.2773231267929077,0.22133517265319824,0.3123548626899719,-0.5654723048210144,0.2641155421733856
1749056332.950762,0.8069841265678406,-0.568855957393982,-1.0003044605255127,2.226116581554077,0.4430389404296875,-2.758655373250143,-0.010031435638666153,-0.014888466335833073,0.02147185429930687,0.05688606947660446,-0.039448365569114685,0.1715502291917801,-0.1738007366657257,-1.2843689918518066,0.23616203665733337,0.3399925231933594,-0.5705501437187195,0.26359713077545166
1749056332.9508028,0.806968092918396,-0.5688448709300538,-1.000287652015686,2.226252480144165,0.4429700970649719,-2.758296076451437,-0.009925838559865952,-0.015124304220080376,0.02125854603946209,0.05977112799882889,-0.04053318873047829,0.17545054852962494,-0.17626187205314636,-1.3130161762237549,0.22530019283294678,0.32894957065582275,-0.590248167514801,0.23340818285942078
1749056332.9508417,0.8069218993186951,-0.5688925546458741,-1.0002366304397583,2.2263845640369873,0.442882776260376,-2.757949415837423,-0.010631405748426914,-0.015138543210923672,0.02112257294356823,0.05931204929947853,-0.04088527709245682,0.17810885608196259,-0.20868095755577087,-1.2872482538223267,0.2482871413230896,0.32233327627182007,-0.5965958833694458,0.23616695404052734
1749056332.9508784,0.806906521320343,-0.5689324897578736,-1.0002037286758423,2.226539297694824,0.44283685088157654,-2.7575939337359827,-0.011420364491641521,-0.015873495489358902,0.021545693278312683,0.06034030020236969,-0.041719913482666016,0.1815773844718933,-0.1753731369972229,-1.283491849899292,0.23851150274276733,0.34537434577941895,-0.6036449670791626,0.22686748206615448
1749056332.9509168,0.806906521320343,-0.5689324897578736,-1.0002037286758423,2.226539297694824,0.44283685088157654,-2.7575939337359827,-0.011420364491641521,-0.015873495489358902,0.021545693278312683,0.06034030020236969,-0.041719913482666016,0.1815773844718933,-0.1753731369972229,-1.283491849899292,0.23851150274276733,0.34537434577941895,-0.6036449670791626,0.22686748206615448
1749056332.950958,0.8068497776985168,-0.5689848226359864,-1.0001351833343506,2.2267603117176513,0.4426186978816986,-2.756899897252218,-0.010428237728774548,-0.016341326758265495,0.021786734461784363,0.06342879682779312,-0.04477293789386749,0.17993614077568054,-0.21214672923088074,-1.2882648706436157,0.2307654470205307,0.31568554043769836,-0.5990808010101318,0.2316807359457016
1749056332.950996,0.8068343997001648,-0.569043831234314,-1.0000715255737305,2.226879759425781,0.4425264894962311,-2.7565372625934046,-0.01100853644311428,-0.0160941481590271,0.02193310670554638,0.06309860199689865,-0.04464780166745186,0.17761194705963135,-0.17095133662223816,-1.3007246255874634,0.2363581508398056,0.3098575174808502,-0.6113710403442383,0.231683611869812
1749056332.9510334,0.8068603277206421,-0.5690760177424927,-1.000020146369934,2.226973696345947,0.4424735903739929,-2.756209198628561,-0.010107019916176796,-0.016490476205945015,0.022217076271772385,0.061442092061042786,-0.044739969074726105,0.17649656534194946,-0.18999294936656952,-1.2829785346984863,0.22343100607395172,0.33173948526382446,-0.6249958872795105,0.2766113877296448
1749056332.95107,0.8067972660064697,-0.569138841038086,-0.999972403049469,2.2271196085163574,0.4423428475856781,-2.7558260599719446,-0.010293831117451191,-0.01680213399231434,0.0222957544028759,0.06275472790002823,-0.04760826751589775,0.17777101695537567,-0.17315810918807983,-1.299471378326416,0.21636363863945007,0.34914425015449524,-0.6155433058738708,0.2744700014591217
1749056332.9511857,0.8067938089370728,-0.5691204828074952,-0.9999396204948425,2.2272049623676757,0.4422176778316498,-2.7554412523852747,-0.010326000861823559,-0.017198218032717705,0.022654788568615913,0.06480523198843002,-0.05005449801683426,0.17695678770542145,-0.2009442299604416,-1.3001831769943237,0.2373289167881012,0.34049662947654724,-0.6030754446983337,0.2971748113632202
1749056332.9524198,0.8067812323570251,-0.5691791337779541,-0.9998919367790222,2.2273873525806884,0.4421977400779724,-2.755073372517721,-0.010908744297921658,-0.017914259806275368,0.02221710793673992,0.06680265069007874,-0.05114474520087242,0.18307949602603912,-0.19195771217346191,-1.305886149406433,0.2564786374568939,0.3163222074508667,-0.5789072513580322,0.2736009955406189
1749056332.9942896,0.8067301511764526,-0.5691661399653931,-0.9998556971549988,2.2274996477314453,0.442093163728714,-2.7547059694873255,-0.010391472838819027,-0.017210114747285843,0.022280069068074226,0.06649060547351837,-0.05037776008248329,0.1842602789402008,-0.19161128997802734,-1.2970277070999146,0.234464630484581,0.3210919499397278,-0.5856332778930664,0.28902944922447205
1749056332.994337,0.8067455887794495,-0.5692319434932251,-0.9997926354408264,2.22767083227124,0.4419470727443695,-2.754291597996847,-0.010887857526540756,-0.017785193398594856,0.02264534682035446,0.06626629829406738,-0.04993343725800514,0.18966858088970184,-0.18101686239242554,-1.286990761756897,0.22846895456314087,0.33854803442955017,-0.5914603471755981,0.26077672839164734
1749056332.9943788,0.806694507598877,-0.5692688983729859,-0.9997474551200867,2.227782889003418,0.4418823719024658,-2.7539432684527796,-0.010598045773804188,-0.018142733722925186,0.02248755469918251,0.06625231355428696,-0.05024978518486023,0.1916310340166092,-0.20803488790988922,-1.3117929697036743,0.24211567640304565,0.32850146293640137,-0.5938891768455505,0.2613680362701416
1749056332.9944184,0.8066819310188293,-0.569300727253296,-0.9996997117996216,2.2279152113148193,0.44175517559051514,-2.7535300890551966,-0.01028346549719572,-0.01815127395093441,0.02307938039302826,0.0675162822008133,-0.05254374444484711,0.19230806827545166,-0.22088055312633514,-1.3160462379455566,0.24006254971027374,0.3295751214027405,-0.5909647941589355,0.25383460521698
1749056332.994457,0.8066853880882263,-0.5693329137614747,-0.9996328353881836,2.2280000883289794,0.4416593909263611,-2.7531309763537806,-0.010481168515980244,-0.01856699027121067,0.02388216182589531,0.06788600236177444,-0.053196582943201065,0.1948145180940628,-0.2275182157754898,-1.303366780281067,0.21879208087921143,0.32650113105773926,-0.5812193155288696,0.238260880112648
1749056332.9944952,0.8066806197166443,-0.5693727296641846,-0.9995844960212708,2.228198452586792,0.44155508279800415,-2.752758804951803,-0.010667236521840096,-0.01896665059030056,0.023588567972183228,0.06812301278114319,-0.054263532161712646,0.1916298121213913,-0.20270563662052155,-1.2906190156936646,0.2287156581878662,0.34680187702178955,-0.5694522857666016,0.24442501366138458
1749056332.994533,0.8066567182540894,-0.5694204133800049,-0.9995488524436951,2.2283145624348144,0.44141945242881775,-2.752411667500631,-0.010815315879881382,-0.018461352214217186,0.022853879258036613,0.06875653564929962,-0.056713469326496124,0.1958002895116806,-0.2234296351671219,-1.30600106716156,0.23936964571475983,0.3551454544067383,-0.5460015535354614,0.2665916681289673
1749056332.9945707,0.8066105246543884,-0.5694449704936524,-0.999485194683075,2.2284549909779052,0.4412960708141327,-2.7520135084735315,-0.011196084320545197,-0.018311304971575737,0.02303633652627468,0.07085340470075607,-0.05641425400972366,0.19493044912815094,-0.21669156849384308,-1.3217931985855103,0.2449638694524765,0.33715441823005676,-0.5546172857284546,0.27848535776138306
1749056332.9946089,0.8066120743751526,-0.5694722694209595,-0.999455988407135,2.228583498592041,0.44117265939712524,-2.751575295125143,-0.011502756737172604,-0.0189211368560791,0.022747643291950226,0.07067874073982239,-0.05509485676884651,0.19948498904705048,-0.1806202381849289,-1.3318161964416504,0.24608951807022095,0.32757943868637085,-0.5547617673873901,0.2860492765903473
1749056332.9946458,0.806531548500061,-0.5695318740657349,-0.9994202256202698,2.22874300062146,0.441049188375473,-2.7511475721942347,-0.011416979134082794,-0.019047778099775314,0.022912750020623207,0.07135675102472305,-0.05460299924015999,0.20418381690979004,-0.21770885586738586,-1.3291821479797363,0.24406948685646057,0.3520941138267517,-0.5473975539207458,0.2679060697555542
1749056332.9946837,0.8065589070320129,-0.569529728298523,-0.9993601441383362,2.2288710313984375,0.4410223364830017,-2.7506945768939417,-0.010980089195072651,-0.01949043944478035,0.02380889095366001,0.07222303003072739,-0.055783361196517944,0.20839589834213257,-0.22737734019756317,-1.3180433511734009,0.23519590497016907,0.3420277237892151,-0.5438347458839417,0.26005059480667114
1749056332.9947205,0.8065028190612793,-0.5696157974055787,-0.999320387840271,2.2290310102650146,0.4408523738384247,-2.750291411076681,-0.011286447755992413,-0.01937491074204445,0.023812171071767807,0.07333558052778244,-0.057478006929159164,0.2098555564880371,-0.2117919772863388,-1.3293930292129517,0.2428649365901947,0.3262368440628052,-0.5214534997940063,0.23161998391151428
1749056332.9947577,0.8064720034599304,-0.5696122211268921,-0.9992677569389343,2.2291785913654785,0.44071680307388306,-2.7498603502856653,-0.012033202685415745,-0.019420599564909935,0.023957129567861557,0.07339106500148773,-0.05748782679438591,0.21069441735744476,-0.23685838282108307,-1.3408571481704712,0.24303756654262543,0.34511303901672363,-0.5285338759422302,0.2266080230474472
1749056332.9947948,0.8064753413200378,-0.5696686071208497,-0.9992159605026245,2.2293221193500976,0.4406124949455261,-2.749427858983175,-0.011560801416635513,-0.02040194533765316,0.02457716502249241,0.07423792779445648,-0.05714626982808113,0.2085089385509491,-0.2351115494966507,-1.3388692140579224,0.24588215351104736,0.33453309535980225,-0.5219175219535828,0.21453548967838287
1749056332.9948328,0.806458592414856,-0.5696888727000733,-0.999167799949646,2.229482336635254,0.44052717089653015,-2.7489779631244105,-0.01123804971575737,-0.020723722875118256,0.025212816894054413,0.07524970173835754,-0.056345902383327484,0.20946070551872253,-0.23827660083770752,-1.3097869157791138,0.2333013415336609,0.33565497398376465,-0.5041746497154236,0.22984781861305237
1749056332.9948697,0.8064382076263428,-0.5697525304606934,-0.9991351962089539,2.2296225267597656,0.4404035210609436,-2.7485435644732874,-0.01109807938337326,-0.020481783896684647,0.024893278256058693,0.07505332678556442,-0.05530032888054848,0.2037312388420105,-0.2377202808856964,-1.3159492015838623,0.23855310678482056,0.3392925262451172,-0.5077199935913086,0.27030739188194275
1749056332.994907,0.8064187169075012,-0.5698272746852417,-0.999072253704071,2.2297908502766113,0.4402576982975006,-2.7481489817248743,-0.011222544126212597,-0.020289847627282143,0.023976199328899384,0.07566492259502411,-0.054470889270305634,0.2083338350057602,-0.22904962301254272,-1.3384274244308472,0.25580161809921265,0.34031081199645996,-0.5190896391868591,0.28037160634994507
1749056332.9949439,0.8063914179801941,-0.5698517125895997,-0.999039351940155,2.229937954539917,0.4402272403240204,-2.747772995625631,-0.01120984647423029,-0.0212030578404665,0.02373041957616806,0.07738540321588516,-0.053933750838041306,0.21027980744838715,-0.22495844960212708,-1.3418179750442505,0.24933767318725586,0.3223573863506317,-0.5206598043441772,0.2975664436817169
1749056332.9949815,0.8063816428184509,-0.5698918861201783,-0.9989764094352722,2.2300748068043212,0.4400574266910553,-2.7473230997668665,-0.011524070985615253,-0.020685404539108276,0.02480931393802166,0.07981889694929123,-0.054980579763650894,0.21426019072532654,-0.25682157278060913,-1.3429888486862183,0.2554823160171509,0.3221534788608551,-0.5311390161514282,0.27950796484947205
1749056332.9950185,0.8063403367996216,-0.5699163240245362,-0.9989316463470459,2.2302588659473876,0.4399615526199341,-2.7468608061419886,-0.012343675829470158,-0.020438415929675102,0.02563110738992691,0.07889893651008606,-0.055014703422784805,0.21906748414039612,-0.22678500413894653,-1.3159972429275513,0.256601482629776,0.3246642053127289,-0.5282251834869385,0.27090930938720703
1749056332.9951322,0.8062801361083984,-0.5699638885310669,-0.9988421201705933,2.230398579234741,0.43989652395248413,-2.7463951746570032,-0.01195451058447361,-0.021568747237324715,0.02595839649438858,0.07660715281963348,-0.054097119718790054,0.22033940255641937,-0.24427449703216553,-1.3207027912139893,0.25975024700164795,0.33306819200515747,-0.5258982181549072,0.25633111596107483
1749056332.9963825,0.8062801957130432,-0.5699804586223145,-0.9987894296646118,2.2305893140980224,0.4397476315498352,-2.7459469477282923,-0.012725993059575558,-0.022544678300619125,0.025959137827157974,0.07742267102003098,-0.053863104432821274,0.2223368138074875,-0.23556622862815857,-1.3240739107131958,0.2555582523345947,0.35305920243263245,-0.543216347694397,0.2472762167453766
1749056333.0383172,0.8062872290611267,-0.5700478118709107,-0.998786985874176,2.2307302194782714,0.43965667486190796,-2.74547249475588,-0.011982790194451809,-0.022685732692480087,0.026312680914998055,0.07837988436222076,-0.05386840179562569,0.22066837549209595,-0.25560739636421204,-1.3378338813781738,0.2636144161224365,0.34085994958877563,-0.568101704120636,0.2942720055580139
1749056333.0383635,0.8062669038772583,-0.5701198142817994,-0.9987241625785828,2.2309016424366455,0.43956083059310913,-2.745049540196554,-0.012600435875356197,-0.022831080481410027,0.026663048192858696,0.08173289895057678,-0.05390192195773125,0.22223018109798431,-0.24092820286750793,-1.3235419988632202,0.2681640088558197,0.3323213458061218,-0.5633805990219116,0.2939918339252472
1749056333.0384088,0.8062465190887451,-0.5701244634440918,-0.9986640810966492,2.231022282237671,0.43943363428115845,-2.7445784250842493,-0.01242086198180914,-0.02213417924940586,0.026999307796359062,0.08251886814832687,-0.0543331578373909,0.22381314635276794,-0.27155864238739014,-1.314695119857788,0.26516374945640564,0.30605947971343994,-0.5889055728912354,0.2975139319896698
1749056333.0384483,0.8061760663986206,-0.5702147048762818,-0.9986163973808289,2.2311906057545166,0.439336359500885,-2.7441466490374964,-0.012732173316180706,-0.021963417530059814,0.0270265843719244,0.08031068742275238,-0.05495471879839897,0.22848375141620636,-0.24403293430805206,-1.3473646640777588,0.2695298492908478,0.3423798084259033,-0.5916845202445984,0.30853962898254395
1749056333.038487,0.8061640858650208,-0.5702001613429566,-0.9985828995704651,2.2313894468494873,0.43922102451324463,-2.7436376253711146,-0.012976456433534622,-0.022972071543335915,0.027157651260495186,0.07875680178403854,-0.05585252121090889,0.23289331793785095,-0.24781906604766846,-1.3452584743499756,0.26100361347198486,0.33718276023864746,-0.6096359491348267,0.27248188853263855
1749056333.0385299,0.8061779737472534,-0.5702914756587525,-0.998504102230072,2.231518431300781,0.4391322731971741,-2.74319035211672,-0.012802185490727425,-0.02370411343872547,0.02758871763944626,0.07995359599590302,-0.05834849178791046,0.23571044206619263,-0.2553463578224182,-1.3336116075515747,0.2554006278514862,0.3470729887485504,-0.5902034044265747,0.25833797454833984
1749056333.0385685,0.8061501979827881,-0.5702923101237793,-0.9984361529350281,2.231654568309448,0.43901583552360535,-2.742711369191305,-0.013313356786966324,-0.023191628977656364,0.0285316314548254,0.08148914575576782,-0.05936579033732414,0.23808780312538147,-0.2539161443710327,-1.3161569833755493,0.24805495142936707,0.34566837549209595,-0.6091069579124451,0.2515775263309479
1749056333.038607,0.8060766458511353,-0.5703798097423096,-0.9983760714530945,2.2318343359180908,0.43887317180633545,-2.742279116307394,-0.013218075037002563,-0.023493148386478424,0.029649287462234497,0.08115838468074799,-0.060442693531513214,0.24049419164657593,-0.25700515508651733,-1.3255497217178345,0.2376326620578766,0.33807051181793213,-0.5943371653556824,0.25361117720603943
1749056333.0386443,0.8060528635978699,-0.5704515737346192,-0.9983311295509338,2.231994791621826,0.43873822689056396,-2.741765801106588,-0.013779331929981709,-0.024597594514489174,0.029309876263141632,0.08053454011678696,-0.06163724511861801,0.2358947992324829,-0.2745579481124878,-1.298149585723877,0.24332037568092346,0.37820345163345337,-0.5999687910079956,0.29536172747612
1749056333.0386822,0.8060543537139893,-0.570460633640625,-0.9982490539550781,2.232158823604248,0.4386252760887146,-2.7413438002215784,-0.013154963031411171,-0.02518976293504238,0.02796764485538006,0.08200561255216599,-0.06536657363176346,0.23975402116775513,-0.28469789028167725,-1.3350721597671509,0.2576897144317627,0.35864225029945374,-0.5854854583740234,0.3125050663948059
1749056333.0387228,0.8060305118560791,-0.5705191654017945,-0.9981924295425415,2.232337399119995,0.4384707510471344,-2.7408440748797815,-0.013810882344841957,-0.023804420605301857,0.028799647465348244,0.08187198638916016,-0.06613630056381226,0.2401740550994873,-0.2547270357608795,-1.338010311126709,0.26087862253189087,0.37319833040237427,-0.5828118324279785,0.3349352478981018
1749056333.0387607,0.8059878349304199,-0.5705830615809937,-0.9981508851051331,2.232517643565796,0.438407838344574,-2.740335289631979,-0.01370226964354515,-0.023354539647698402,0.03007296845316887,0.08369080722332001,-0.0652415081858635,0.24487356841564178,-0.26229870319366455,-1.33066725730896,0.2450837790966034,0.39854761958122253,-0.5970910787582397,0.3350009322166443
1749056333.0387971,0.8059878349304199,-0.5705886644176026,-0.9980541467666626,2.2326783376881103,0.43824103474617004,-2.739835325871603,-0.01431348454207182,-0.023880887776613235,0.02991221845149994,0.08719949424266815,-0.06653689593076706,0.2502514719963074,-0.2528466582298279,-1.3087871074676514,0.2526892423629761,0.36387744545936584,-0.5740411877632141,0.31786081194877625
1749056333.038834,0.8059396743774414,-0.5706247848323365,-0.9979974627494812,2.2328342634388427,0.4380904734134674,-2.7393017450915735,-0.014179371297359467,-0.024493614211678505,0.029787007719278336,0.08550922572612762,-0.06943681836128235,0.25216740369796753,-0.2729937434196472,-1.2953459024429321,0.2454213947057724,0.36736851930618286,-0.5557052493095398,0.31271085143089294
1749056333.0388706,0.8059192895889282,-0.5707035821727295,-0.9979365468025208,2.233029289836548,0.4379931092262268,-2.738833252583639,-0.014813657850027084,-0.025458309799432755,0.030690306797623634,0.08580362051725388,-0.07038558274507523,0.2550240755081177,-0.27278316020965576,-1.287082552909851,0.24212628602981567,0.36848825216293335,-0.5681865215301514,0.27900832891464233
1749056333.0389073,0.8059108257293701,-0.5707828563502808,-0.9978925585746765,2.2331930834003906,0.4378299415111542,-2.7383387724505823,-0.014709101989865303,-0.025324122980237007,0.030798224732279778,0.08754558116197586,-0.07262597233057022,0.2573462128639221,-0.2620130181312561,-1.3056203126907349,0.23637285828590393,0.3751809000968933,-0.5359333753585815,0.312869131565094
1749056333.038948,0.8058592081069946,-0.5708082479289551,-0.9978172183036804,2.233395739192627,0.43768617510795593,-2.7378416697131556,-0.015369758009910583,-0.02519388496875763,0.03002569079399109,0.09129945933818817,-0.07344900071620941,0.2567421793937683,-0.25203025341033936,-1.2968366146087646,0.23577827215194702,0.3616964519023895,-0.5034127235412598,0.3270758390426636
1749056333.038986,0.8058324456214905,-0.5708787602237244,-0.9977756142616272,2.2335755068012695,0.4374956488609314,-2.7373314539538782,-0.014848154038190842,-0.025028705596923828,0.029618121683597565,0.09351594746112823,-0.06986033916473389,0.2601391673088074,-0.25827741622924805,-1.3160738945007324,0.2555215060710907,0.34947317838668823,-0.5161566734313965,0.30938488245010376
1749056333.0390227,0.8058205842971802,-0.5708885353854676,-0.9977042078971863,2.2337490755268554,0.43740683794021606,-2.7367895285235804,-0.015227630734443665,-0.02493857778608799,0.031185805797576904,0.09020926058292389,-0.06802245229482651,0.2646110951900482,-0.27128830552101135,-1.3005294799804688,0.24108664691448212,0.35928842425346375,-0.5451241135597229,0.31365177035331726
1749056333.0390625,0.8057911396026611,-0.5709840816310425,-0.9976435899734497,2.2339321809956054,0.4372733235359192,-2.7363129297839563,-0.014987686648964882,-0.025347014889121056,0.03089207038283348,0.08990713953971863,-0.06854232400655746,0.2682983875274658,-0.27765846252441406,-1.2957099676132202,0.22886411845684052,0.36809733510017395,-0.5249085426330566,0.2904791831970215
1749056333.0391793,0.8057091236114502,-0.5710543555072327,-0.9975869059562683,2.234080954188965,0.4371449947357178,-2.735767666493551,-0.015373517759144306,-0.025083959102630615,0.030686870217323303,0.09092714637517929,-0.06876175105571747,0.27068376541137695,-0.28009945154190063,-1.3054925203323364,0.2410946935415268,0.3785091042518616,-0.5228029489517212,0.2824799120426178
1749056333.0403926,0.8057007193565369,-0.5710917872241517,-0.9975114464759827,2.2343038755604248,0.43694743514060974,-2.7352011839496058,-0.015123941004276276,-0.02526135928928852,0.030663860961794853,0.09171532094478607,-0.06783443689346313,0.27129411697387695,-0.313647985458374,-1.2955474853515625,0.23592635989189148,0.3646478056907654,-0.5250433683395386,0.2685478627681732
1749056333.082294,0.8057267069816589,-0.5711118143847962,-0.9974604845046997,2.234475298518799,0.4368380010128021,-2.7346940676318567,-0.01559362281113863,-0.02497987076640129,0.03036680817604065,0.0918576568365097,-0.06639060378074646,0.272093802690506,-0.2634318470954895,-1.3218008279800415,0.24096408486366272,0.3749108910560608,-0.543057918548584,0.28165483474731445
1749056333.0823398,0.8056749701499939,-0.5711563390544434,-0.9974038004875183,2.2346603113361816,0.43670976161956787,-2.7341347376452845,-0.015315092168748379,-0.025193948298692703,0.030206335708498955,0.09288746118545532,-0.06515107303857803,0.269391268491745,-0.2665441632270813,-1.3126484155654907,0.24141255021095276,0.3668128252029419,-0.5470873117446899,0.2876630127429962
1749056333.0823832,0.8056202530860901,-0.571230487232544,-0.9973244071006775,2.234828396434448,0.4365622103214264,-2.7335930506335657,-0.015569265931844711,-0.02570764161646366,0.030379286035895348,0.0923958569765091,-0.06465756893157959,0.2711256742477417,-0.28037092089653015,-1.317853331565857,0.25044500827789307,0.3642140030860901,-0.5505788326263428,0.29449090361595154
1749056333.0824223,0.8056042790412903,-0.5712796610644837,-0.997271716594696,2.235020561809204,0.43645793199539185,-2.7330270449267786,-0.015527831390500069,-0.026170648634433746,0.03071591816842556,0.0923180878162384,-0.06358150392770767,0.27168330550193787,-0.2793395519256592,-1.2805899381637573,0.23852023482322693,0.3632323741912842,-0.5588994026184082,0.2954394519329071
1749056333.082461,0.8055721521377563,-0.5713346165469666,-0.9972047805786133,2.235243483180664,0.4363139271736145,-2.7325313727008265,-0.015845390036702156,-0.025303451344370842,0.030436992645263672,0.09237204492092133,-0.06268642842769623,0.2700130343437195,-0.29342925548553467,-1.3131276369094849,0.24236449599266052,0.3531133532524109,-0.57305508852005,0.29591554403305054
1749056333.0825047,0.8055329322814941,-0.5713599485209961,-0.9971327185630798,2.2354163366505126,0.43618208169937134,-2.7320037523852747,-0.01584795117378235,-0.024310948327183723,0.03031397983431816,0.09181208908557892,-0.06278645247220993,0.2713635265827179,-0.29374516010284424,-1.328437328338623,0.23194590210914612,0.38036826252937317,-0.5660535097122192,0.26509591937065125
1749056333.082544,0.8055398464202881,-0.5714394015124817,-0.9971004724502563,2.2355965810963134,0.43605491518974304,-2.731443230305807,-0.01567014865577221,-0.02482910454273224,0.03066781908273697,0.09318788349628448,-0.06272879987955093,0.2742006480693817,-0.27791351079940796,-1.3008208274841309,0.24857154488563538,0.38160333037376404,-0.5896482467651367,0.2994472086429596
1749056333.0825818,0.8054797649383545,-0.5714713496020813,-0.9970466494560242,2.2357727724262695,0.43590426445007324,-2.730927054082052,-0.016725609079003334,-0.025061866268515587,0.0309434924274683,0.09211614727973938,-0.06297922134399414,0.2723843455314636,-0.261380672454834,-1.3036000728607178,0.2418050616979599,0.37421393394470215,-0.6118950843811035,0.3175521492958069
1749056333.08262,0.8054713010787964,-0.571499840622284,-0.9969558715820312,2.235929413432739,0.43579837679862976,-2.7303651014911097,-0.015978289768099785,-0.025407960638403893,0.031195413321256638,0.09354244917631149,-0.06404528021812439,0.2755833566188812,-0.28879648447036743,-1.3125290870666504,0.25790461897850037,0.3891891539096832,-0.6029018759727478,0.3023452162742615
1749056333.0826576,0.8054713010787964,-0.571499840622284,-0.9969558715820312,2.235929413432739,0.43579837679862976,-2.7303651014911097,-0.015978289768099785,-0.025407960638403893,0.031195413321256638,0.09354244917631149,-0.06404528021812439,0.2755833566188812,-0.28879648447036743,-1.3125290870666504,0.25790461897850037,0.3891891539096832,-0.6029018759727478,0.3023452162742615
1749056333.082696,0.8053958415985107,-0.571639673118927,-0.9968516230583191,2.2363356786915283,0.43553435802459717,-2.729260269795553,-0.016110802069306374,-0.025582682341337204,0.03175831958651543,0.09405022114515305,-0.06833845376968384,0.279426246881485,-0.2833798825740814,-1.2950129508972168,0.25081872940063477,0.4040881395339966,-0.5933075547218323,0.2781612277030945
1749056333.0827367,0.8053719997406006,-0.5716946882060547,-0.996787428855896,2.236527128810547,0.43539172410964966,-2.728671137486593,-0.016702692955732346,-0.02530990168452263,0.03219975531101227,0.09583228826522827,-0.06901296973228455,0.28307026624679565,-0.28896191716194153,-1.3167648315429688,0.264293372631073,0.3949478268623352,-0.5932666659355164,0.276050329208374
1749056333.0827742,0.8053357601165771,-0.5717191261104126,-0.9967162013053894,2.2366999822803955,0.43530288338661194,-2.7281530539142054,-0.01657182164490223,-0.02538309432566166,0.032359182834625244,0.09697811305522919,-0.06783320009708405,0.2803698480129242,-0.2814375162124634,-1.3006449937820435,0.2441691756248474,0.39512479305267334,-0.6218059062957764,0.2787664532661438
1749056333.0828118,0.80527263879776,-0.5717786115458985,-0.9966408014297485,2.236919565791748,0.43513187766075134,-2.7275942007647913,-0.016055705025792122,-0.025155678391456604,0.03248126804828644,0.09746269881725311,-0.06793725490570068,0.28166070580482483,-0.29460570216178894,-1.3239991664886475,0.2625484764575958,0.40462642908096313,-0.6013613343238831,0.30845367908477783
1749056333.0828493,0.8052447438240051,-0.5718230766109009,-0.9965721368789673,2.2371432024189453,0.43498411774635315,-2.7270403544055384,-0.016368160024285316,-0.025481941178441048,0.03296274691820145,0.1022648960351944,-0.07180062681436539,0.28418585658073425,-0.28577306866645813,-1.3087401390075684,0.24581432342529297,0.3699915409088135,-0.613666832447052,0.2854533791542053
1749056333.0828867,0.8052056431770325,-0.5718743962100525,-0.9965153336524963,2.2373317915150146,0.4348679482936859,-2.726466480885641,-0.016014236956834793,-0.025096634402871132,0.03314485773444176,0.10254866629838943,-0.0734841376543045,0.28615227341651917,-0.2752957046031952,-1.319751501083374,0.24359750747680664,0.3702293634414673,-0.6152046322822571,0.3075462281703949
1749056333.082924,0.805192232131958,-0.5719500345042725,-0.9964122772216797,2.2375010687061767,0.4347498416900635,-2.7259348074542444,-0.017115700989961624,-0.025480153039097786,0.033402178436517715,0.10090859234333038,-0.07641331106424332,0.2869482934474945,-0.3108240067958832,-1.3354581594467163,0.2445177137851715,0.40767061710357666,-0.6170910596847534,0.2983132004737854
1749056333.0829604,0.8051523566246033,-0.5719593328288575,-0.9963714480400085,2.237715645427368,0.4345645010471344,-2.7253099123584192,-0.01705799624323845,-0.025329625234007835,0.03382864221930504,0.10050667822360992,-0.07803333550691605,0.29166993498802185,-0.2816212475299835,-1.3292654752731323,0.24538429081439972,0.38710400462150574,-0.5946060419082642,0.25920167565345764
1749056333.082998,0.8051291704177856,-0.5720111292651673,-0.996311366558075,2.2379352289387207,0.43439987301826477,-2.7247069517718714,-0.01670326665043831,-0.02537407912313938,0.0338614284992218,0.10422476381063461,-0.07676935940980911,0.29415783286094666,-0.28067004680633545,-1.3393278121948242,0.2371557205915451,0.3618687391281128,-0.59697425365448,0.2522727847099304
1749056333.0830355,0.8050311207771301,-0.5720786613276978,-0.9962358474731445,2.2381202417561035,0.43424418568611145,-2.724129025136129,-0.016804451122879982,-0.025430794805288315,0.03380648046731949,0.10497771948575974,-0.07614290714263916,0.290658563375473,-0.2699020504951477,-1.3537179231643677,0.22488340735435486,0.33635541796684265,-0.5952906012535095,0.2741720676422119
1749056333.083144,0.8050417900085449,-0.5721069735339661,-0.9961791634559631,2.2383271890827636,0.43405017256736755,-2.723523203526632,-0.016631292179226875,-0.0264494176954031,0.033597979694604874,0.09942504018545151,-0.07756958901882172,0.291248619556427,-0.28914862871170044,-1.336539387702942,0.23416291177272797,0.36182868480682373,-0.5941410064697266,0.28175386786460876
1749056333.0843923,0.8050298094749451,-0.5721713465503235,-0.9960767030715942,2.238516016597412,0.43392059206962585,-2.722929064427511,-0.016956401988863945,-0.025377491489052773,0.033801306039094925,0.09996296465396881,-0.07828036695718765,0.2911604642868042,-0.2773413062095642,-1.3497626781463623,0.2267616093158722,0.39993107318878174,-0.5796040296554565,0.28155818581581116
1749056333.1262794,0.8049821853637695,-0.5722079438022156,-0.9960233569145203,2.238719626063965,0.4337453842163086,-2.722389284764425,-0.016824642196297646,-0.02563653513789177,0.033966049551963806,0.09983266890048981,-0.07744938135147095,0.28991958498954773,-0.27326351404190063,-1.353004813194275,0.22904162108898163,0.38528162240982056,-0.5751963257789612,0.2739236354827881
1749056333.126325,0.8049767017364502,-0.5722597402385254,-0.9959598183631897,2.2388884264179687,0.43358102440834045,-2.7217872778521937,-0.016946496441960335,-0.025127608329057693,0.03435355797410011,0.09924924373626709,-0.07837016880512238,0.29261213541030884,-0.2907342314720154,-1.3779687881469727,0.23566338419914246,0.38878780603408813,-0.5789526700973511,0.2678450047969818
1749056333.1263683,0.804940938949585,-0.5723266762546082,-0.9958838224411011,2.239131374950073,0.43343374133110046,-2.7212002913104456,-0.01621096394956112,-0.02606799639761448,0.03412635251879692,0.10098763555288315,-0.07764526456594467,0.2912530303001404,-0.29315632581710815,-1.3694729804992676,0.2448168247938156,0.4080756604671478,-0.5669308304786682,0.2839309275150299
1749056333.1264076,0.8048737645149231,-0.5723555845073243,-0.9957972764968872,2.239334745998047,0.43331071734428406,-2.7205994764911097,-0.016353199258446693,-0.027702173218131065,0.03417009487748146,0.09991063177585602,-0.07626534253358841,0.29461973905563354,-0.32192519307136536,-1.3372657299041748,0.23757460713386536,0.4081004559993744,-0.5610489249229431,0.268167644739151
1749056333.126446,0.8048501014709473,-0.5724077385715027,-0.9957557916641235,2.2395669656940917,0.43312036991119385,-2.719985548649923,-0.01585059054195881,-0.02709360606968403,0.03420523554086685,0.10439502447843552,-0.07579310238361359,0.29465606808662415,-0.31310561299324036,-1.349210500717163,0.2469472885131836,0.3881043791770935,-0.5738495588302612,0.281950443983078
1749056333.1264846,0.8048570156097412,-0.5724477928927918,-0.9956989884376526,2.2397586542316894,0.4329577684402466,-2.7193713823901575,-0.01571737416088581,-0.02749442867934704,0.034425701946020126,0.10372965037822723,-0.07417580485343933,0.2952258288860321,-0.317796528339386,-1.349671483039856,0.2324579358100891,0.38227757811546326,-0.578924834728241,0.2949269711971283
1749056333.1265225,0.8047794699668884,-0.5725189012340088,-0.9956116676330566,2.239943667049072,0.43281692266464233,-2.718764607106344,-0.01645967923104763,-0.028717517852783203,0.03399008512496948,0.10228633135557175,-0.07428330928087234,0.2969013750553131,-0.31954705715179443,-1.320616364479065,0.24298618733882904,0.38903552293777466,-0.5758807063102722,0.27002736926078796
1749056333.1265602,0.8047730922698975,-0.5726184409907837,-0.9955551028251648,2.240147038097046,0.4326972961425781,-2.7181926409350794,-0.016385195776820183,-0.029149943962693214,0.03342348337173462,0.10441890358924866,-0.07417672872543335,0.29512789845466614,-0.3092637360095978,-1.3248590230941772,0.24317197501659393,0.3957756459712982,-0.5885040760040283,0.2656576931476593
1749056333.1265974,0.8047457933425903,-0.5726779264262696,-0.9954831004142761,2.2403547006794433,0.4325479567050934,-2.717572037373678,-0.017039380967617035,-0.028824089094996452,0.03472892940044403,0.10830395668745041,-0.07451359927654266,0.29785987734794617,-0.33247166872024536,-1.320988416671753,0.2323388308286667,0.38215845823287964,-0.5788739323616028,0.2693655490875244
1749056333.1266346,0.8047407865524292,-0.5727184575847168,-0.9954144358634949,2.2405826288410644,0.43237850069999695,-2.7169926802264612,-0.0168288704007864,-0.0280745979398489,0.03575941175222397,0.10975144803524017,-0.0745130404829979,0.2972293794155121,-0.3050742745399475,-1.346081018447876,0.23659081757068634,0.341418981552124,-0.5797127485275269,0.28719544410705566
1749056333.1266718,0.8046548962593079,-0.5728023213199158,-0.9953667521476746,2.240802450770996,0.4322930574417114,-2.716414753590719,-0.017024490982294083,-0.0272348802536726,0.03475385159254074,0.1072763204574585,-0.07322999835014343,0.2991728186607361,-0.31687861680984497,-1.378061056137085,0.23211652040481567,0.3793952465057373,-0.6245735883712769,0.3112950921058655
1749056333.1267104,0.8046464920043945,-0.5728389185718079,-0.995272159576416,2.2410151201435546,0.4321284294128418,-2.715794388447897,-0.017143461853265762,-0.03062482364475727,0.03334053233265877,0.10888703912496567,-0.07576201856136322,0.30223339796066284,-0.318205326795578,-1.3118650913238525,0.24949803948402405,0.37335941195487976,-0.6099345684051514,0.3120914399623871
1749056333.1267478,0.8046135306358337,-0.5728819531253357,-0.9952002763748169,2.2411998945423584,0.43196025490760803,-2.7151475588427942,-0.016992921009659767,-0.029863199219107628,0.03458702564239502,0.10862312465906143,-0.07711650431156158,0.30343642830848694,-0.3192308247089386,-1.3257238864898682,0.2625461518764496,0.3822372257709503,-0.6044400334358215,0.30029428005218506
1749056333.1267853,0.8045918345451355,-0.5729228419116517,-0.9951242804527283,2.241438074702881,0.43181312084198,-2.7145536581622522,-0.01784261129796505,-0.029528802260756493,0.03570162504911423,0.10855171829462051,-0.07689908146858215,0.3079397678375244,-0.3205902874469757,-1.334609031677246,0.2447134107351303,0.3851397633552551,-0.6199639439582825,0.29343336820602417
1749056333.126823,0.8045198321342468,-0.5730022352984925,-0.9950711131095886,2.241635485286377,0.4316295087337494,-2.713907305394308,-0.01746036857366562,-0.029325099661946297,0.03580281138420105,0.10966432094573975,-0.08072107285261154,0.3062480390071869,-0.2949163317680359,-1.348633050918579,0.23636415600776672,0.3822011351585388,-0.625426709651947,0.30085867643356323
1749056333.1268597,0.8044751286506653,-0.5730581444552918,-0.9950025677680969,2.2418545919605712,0.43144306540489197,-2.7132888476001185,-0.017404938116669655,-0.02929610386490822,0.037110958248376846,0.10898144543170929,-0.08255698531866074,0.3085271120071411,-0.3391932249069214,-1.3471542596817017,0.2512264549732208,0.3725064992904663,-0.6164590120315552,0.27067235112190247
1749056333.1268969,0.804466724395752,-0.5731456440738221,-0.9948999285697937,2.2420589166828613,0.43131422996520996,-2.71265417734255,-0.017642736434936523,-0.029944250360131264,0.036506302654743195,0.10806731134653091,-0.08259416371583939,0.31002429127693176,-0.3321411609649658,-1.315830945968628,0.2347503900527954,0.41615140438079834,-0.5761769413948059,0.28330177068710327
1749056333.126935,0.8044539093971252,-0.5732131165317078,-0.9948244094848633,2.2422866064259033,0.43114134669303894,-2.711984936391012,-0.01779114082455635,-0.02953261137008667,0.03517613187432289,0.10876753181219101,-0.08332345634698868,0.3095164895057678,-0.3236716687679291,-1.3290027379989624,0.26052165031433105,0.4037787914276123,-0.5941488742828369,0.30903345346450806
1749056333.1269722,0.8044070601463318,-0.573230580692627,-0.9947558045387268,2.242487354869507,0.43098893761634827,-2.711393419896261,-0.01854114793241024,-0.030204610899090767,0.03598510101437569,0.11079014092683792,-0.08476964384317398,0.31153473258018494,-0.34109991788864136,-1.3501458168029785,0.2478678822517395,0.4074091911315918,-0.5780086517333984,0.3001139163970947
1749056333.127009,0.8043594360351562,-0.5733456772616883,-0.9946985840797424,2.242722435588501,0.43078163266181946,-2.710769240056173,-0.01883503794670105,-0.03088090755045414,0.03741857782006264,0.11090127378702164,-0.08637760579586029,0.3147236406803131,-0.324458509683609,-1.3341959714889526,0.24742746353149414,0.41900601983070374,-0.5688601732254028,0.31234148144721985
1749056333.1271176,0.8043314814567566,-0.5733585518649598,-0.9946147799491882,2.2429465490528564,0.4305912256240845,-2.7101615110980433,-0.018624143674969673,-0.03086662106215954,0.037690892815589905,0.11150138825178146,-0.0898236408829689,0.3161320388317108,-0.3417626619338989,-1.3371639251708984,0.23875713348388672,0.4030366539955139,-0.5438106656074524,0.32209354639053345
1749056333.1283896,0.8042719960212708,-0.5734534424594422,-0.9945273995399475,2.2431818681904296,0.43040651082992554,-2.7095239798175257,-0.018986262381076813,-0.03129099681973457,0.03718673065304756,0.1124470978975296,-0.08690633624792099,0.31923580169677734,-0.3300415873527527,-1.3170766830444336,0.24995630979537964,0.4200948476791382,-0.5294370651245117,0.36204543709754944
1749056333.1702938,0.8042202591896057,-0.5735056561282654,-0.9944748878479004,2.2434024053760986,0.4302848279476166,-2.7088475863086146,-0.018867013975977898,-0.03118829056620598,0.037059251219034195,0.11409542709589005,-0.08471684157848358,0.32182854413986206,-0.31085723638534546,-1.30961275100708,0.26026636362075806,0.4192759394645691,-0.5441055297851562,0.336803674697876
1749056333.1703396,0.8042035102844238,-0.5735693734935303,-0.994418203830719,2.243649407024048,0.430063933134079,-2.708200518284933,-0.01855122298002243,-0.03145947679877281,0.03756799176335335,0.11580291390419006,-0.08394811302423477,0.32520079612731934,-0.3356052041053772,-1.3281461000442505,0.2557007372379303,0.3912353217601776,-0.5600583553314209,0.3325992822647095
1749056333.17038,0.8041676878929138,-0.5736029905131836,-0.9943184852600098,2.2439018922993164,0.4298923909664154,-2.707517925892965,-0.019030747935175896,-0.031773123890161514,0.03775631636381149,0.11967019736766815,-0.08334831148386002,0.32830387353897095,-0.3162413537502289,-1.3193217515945435,0.2437898814678192,0.38634002208709717,-0.5455599427223206,0.3196713328361511
1749056333.1704195,0.8041160702705383,-0.5736818474582215,-0.9942428469657898,2.244176073665283,0.4297468066215515,-2.706913773213522,-0.019154435023665428,-0.031778015196323395,0.03728911280632019,0.12004157155752182,-0.08346182107925415,0.32796353101730347,-0.32725217938423157,-1.340362310409546,0.2712266445159912,0.3698194921016693,-0.5258724689483643,0.3332728445529938
1749056333.1704578,0.8041026592254639,-0.5737107557109375,-0.9941434860229492,2.2443622785755615,0.42955282330513,-2.7062538305865687,-0.01885252818465233,-0.03288491442799568,0.03922608494758606,0.11926019936800003,-0.08162473887205124,0.3313138484954834,-0.31784719228744507,-1.3083491325378418,0.24379056692123413,0.3712814450263977,-0.5776079297065735,0.3206685185432434
1749056333.1704965,0.8040475249290466,-0.5738176268390198,-0.9940869212150574,2.2446178632923584,0.42940232157707214,-2.705602471028463,-0.019635921344161034,-0.0321139357984066,0.03895599767565727,0.1182936578989029,-0.08095284551382065,0.33461493253707886,-0.31226927042007446,-1.3064452409744263,0.2459689974784851,0.37352484464645386,-0.5755710005760193,0.31932997703552246
1749056333.1705344,0.804006814956665,-0.573862151508667,-0.9940031170845032,2.2448767858692626,0.42926353216171265,-2.7049525419818323,-0.019242603331804276,-0.032193515449762344,0.03703936189413071,0.12138525396585464,-0.07928086072206497,0.3397093713283539,-0.3165034055709839,-1.3146475553512573,0.2745460867881775,0.35437315702438354,-0.5851006507873535,0.3051292300224304
1749056333.1705723,0.8039719462394714,-0.5739651483348389,-0.9939465522766113,2.2450944620319824,0.4290870130062103,-2.7042790094958704,-0.01857542060315609,-0.03187834098935127,0.03740044683218002,0.11620846390724182,-0.08089560270309448,0.3398769497871399,-0.3160390257835388,-1.3172626495361328,0.2805870473384857,0.3599355220794678,-0.5855280160903931,0.3293312191963196
1749056333.1706097,0.8039719462394714,-0.5739651483348389,-0.9939465522766113,2.2450944620319824,0.4290870130062103,-2.7042790094958704,-0.01857542060315609,-0.03187834098935127,0.03740044683218002,0.11620846390724182,-0.08089560270309448,0.3398769497871399,-0.3160390257835388,-1.3172626495361328,0.2805870473384857,0.3599355220794678,-0.5855280160903931,0.3293312191963196
1749056333.1706471,0.8039159774780273,-0.5740817946246644,-0.9937710165977478,2.2455693918415527,0.4287441074848175,-2.7028570810901087,-0.018773935735225677,-0.03192199394106865,0.03886283189058304,0.11481394618749619,-0.08189523220062256,0.3416510224342346,-0.33888232707977295,-1.3167123794555664,0.280570924282074,0.38617175817489624,-0.6235065460205078,0.352005273103714
1749056333.170684,0.8038641810417175,-0.5741574329188843,-0.993714451789856,2.245797558421753,0.428607314825058,-2.7021759192096155,-0.019149547442793846,-0.03355475142598152,0.0404387004673481,0.1142120435833931,-0.0852765366435051,0.3456948399543762,-0.34076541662216187,-1.322857141494751,0.2745344042778015,0.3877888321876526,-0.6030088663101196,0.3428022861480713
1749056333.1707237,0.8038132190704346,-0.5742013615420838,-0.9936396479606628,2.246025248164795,0.4284391701221466,-2.7014790217029017,-0.020257286727428436,-0.03278448432683945,0.039001911878585815,0.114156574010849,-0.08349071443080902,0.34967026114463806,-0.3439156413078308,-1.303022027015686,0.2778175473213196,0.3865569531917572,-0.6055266261100769,0.30583441257476807
1749056333.170761,0.8037683367729187,-0.5743045967868348,-0.9935746192932129,2.2462336260029296,0.42826125025749207,-2.700780693684713,-0.019795017316937447,-0.031788479536771774,0.0379561185836792,0.11497996002435684,-0.08481600135564804,0.3485293984413147,-0.3449748754501343,-1.3290801048278809,0.3087480068206787,0.4114825129508972,-0.6107531189918518,0.32921236753463745
1749056333.1707978,0.8037641048431396,-0.5743527573398133,-0.9934865832328796,2.2464656072803955,0.42811885476112366,-2.700104538594381,-0.01880500651896,-0.0317528210580349,0.04000650718808174,0.11796616017818451,-0.0884421095252037,0.34830716252326965,-0.35137367248535156,-1.3129281997680664,0.28107237815856934,0.41397422552108765,-0.6182082295417786,0.3001190721988678
1749056333.1708345,0.8037282228469849,-0.5744212430766602,-0.9934027791023254,2.2466930586048584,0.4279097318649292,-2.699392382298605,-0.019727803766727448,-0.03287872299551964,0.041074808686971664,0.12227058410644531,-0.09180894494056702,0.34932005405426025,-0.3459054231643677,-1.2930058240890503,0.28071683645248413,0.4049377739429474,-0.6032496690750122,0.331327348947525
1749056333.1708715,0.8036766052246094,-0.5744307798198243,-0.9933377504348755,2.2469300466724853,0.4276990592479706,-2.6986833254443567,-0.019870053976774216,-0.03146834298968315,0.0415070466697216,0.11987552046775818,-0.09566483646631241,0.35114341974258423,-0.34278184175491333,-1.3149555921554565,0.29367437958717346,0.4252227544784546,-0.5871973633766174,0.36324989795684814
1749056333.170909,0.8036750555038452,-0.5745101732066651,-0.9932159781455994,2.2472006517597656,0.4275466501712799,-2.697995726262228,-0.02006748877465725,-0.03159458190202713,0.04134342446923256,0.12180448323488235,-0.09250205755233765,0.3565497398376465,-0.3391011357307434,-1.3529990911483765,0.27442073822021484,0.4293596148490906,-0.5986643433570862,0.3356165885925293
1749056333.170946,0.8035890460014343,-0.5746215742877503,-0.9931196570396423,2.2474409776875,0.42741161584854126,-2.6972931067096155,-0.020848099142313004,-0.03428107127547264,0.041910842061042786,0.12900951504707336,-0.0939292460680008,0.35955509543418884,-0.3253575563430786,-1.311293363571167,0.2870960533618927,0.3909292221069336,-0.5880416035652161,0.3382042646408081
