nimar13/UR3e_dataset_trayectorias/trayectorias_ejecutadas/trapezoidal_func/trayectoria_103_result.csv
timestamp,q1,q2,q3,q4,q5,q6,qd1,qd2,qd3,qd4,qd5,qd6,tau1,tau2,tau3,tau4,tau5,tau6
1749056207.1223047,4.666784286499023,-1.457029403453209,-1.1811997890472412,-3.2661010227599085,-0.3080509344684046,4.103207588195801,0.0040025715716183186,0.00043454175465740263,-0.0011160916183143854,-0.0014757681638002396,-0.0007977423956617713,0.002913231961429119,0.1748519092798233,0.8935852646827698,0.8460610508918762,0.20715729892253876,-0.33713459968566895,0.11596640944480896
1749056207.1223516,4.666787624359131,-1.4570259016803284,-1.1812307834625244,-3.2661129436888636,-0.30801612535585576,4.103172779083252,0.0024962371680885553,0.0003962636983487755,-0.0008922067354433239,-0.0010967082343995571,-0.0006982830818742514,0.0015862943837419152,0.12152911722660065,0.8924227952957153,0.8641592860221863,0.2026715725660324,-0.32973700761795044,0.0936882495880127
1749056207.1223931,4.666745662689209,-1.457038128083088,-1.1812273263931274,-3.2661010227599085,-0.3080247084247034,4.103179931640625,6.5044172515627e-05,0.00036418373929336667,-0.0007439236505888402,-0.000875422265380621,-0.0006266015116125345,0.000880289648193866,0.13819757103919983,0.9001157879829407,0.8640719056129456,0.22424660623073578,-0.3178727626800537,0.09658452123403549
1749056207.1224365,4.666742324829102,-1.4570415777019043,-1.1811997890472412,-3.2660819492735804,-0.3080328146563929,4.103211402893066,6.346103873511311e-07,0.0003369114419911057,-0.0005288670072332025,-0.000629645015578717,-0.0005694078281521797,0.0006124856881797314,0.10751853883266449,0.9154154658317566,0.8661914467811584,0.23436947166919708,-0.2977231442928314,0.10212036967277527
1749056207.1224759,4.666745662689209,-1.4570036095431824,-1.1811962127685547,-3.26610865215444,-0.3080361525165003,4.103167533874512,-0.004459126386791468,0.00031343972659669816,-0.0004480329807847738,-0.0004235768283251673,-0.0005220184102654457,-0.00025895985891111195,0.12894560396671295,0.9045146703720093,0.8878200650215149,0.25141072273254395,-0.31438538432121277,0.07101104408502579
1749056207.122514,4.6667561531066895,-1.4570258793285866,-1.1811962127685547,-3.2660891018309535,-0.3080247084247034,4.103179931640625,-0.004738267511129379,0.00029302536859177053,-0.00034979244810529053,0.0002507053141016513,-0.0004819424939341843,-0.0005875337519682944,0.10139642655849457,0.8947482705116272,0.8911673426628113,0.2601616382598877,-0.29614371061325073,0.07879740744829178
1749056207.1225514,4.6667561531066895,-1.4570639294436951,-1.1811842918395996,-3.26607670406484,-0.3080089727984827,4.103183746337891,-0.003698932006955147,0.0002751088759396225,-0.00027177485753782094,0.0010560726514086127,-0.00044764127233065665,-0.0015066133346408606,0.09807990491390228,0.8936148285865784,0.9227957129478455,0.2506425380706787,-0.28984320163726807,0.06621705740690231
1749056207.1225889,4.6667256355285645,-1.4570346784642716,-1.1811878681182861,-3.2660581074156703,-0.30798656145204717,4.103183746337891,-0.0033557573333382607,0.0002592573291622102,-3.635500615928322e-05,0.0020552778150886297,-0.000417896022554487,-0.001795161166228354,0.07787489145994186,0.9146925806999207,0.9054923057556152,0.2447110265493393,-0.2840213179588318,0.06674250960350037
1749056207.1226268,4.666709899902344,-1.4570569557002564,-1.181175947189331,-3.2660967312254847,-0.3080247084247034,4.103167533874512,-0.00453530577942729,0.0002451326872687787,0.00021871979697607458,0.0020558014512062073,-0.0001959592627827078,-0.0024219509214162827,0.038631729781627655,0.8935851454734802,0.9265696406364441,0.26693230867385864,-0.27849796414375305,0.0632670596241951
1749056207.1226645,4.666736125946045,-1.4570949909142037,-1.1811878681182861,-3.266080518762106,-0.3079937140094202,4.103175163269043,-0.005664960015565157,0.00023246837372425944,0.00028882731567136943,0.001924269599840045,-0.0001237749238498509,-0.0031407324131578207,0.06776667386293411,0.9146602749824524,0.9210405945777893,0.25168848037719727,-0.2796211242675781,0.036731310188770294
1749056207.1227057,4.666697978973389,-1.4570258942297478,-1.1811878681182861,-3.2660843334593714,-0.3080089727984827,4.103147506713867,-0.0067150709219276905,0.00026383218937553465,0.0003476190904621035,0.0016238114330917597,-6.895187107147649e-05,-0.0036833263002336025,0.09042627364397049,0.8972312211990356,0.9268860220909119,0.27530503273010254,-0.28862547874450684,0.04528900235891342
1749056207.1227448,4.666677474975586,-1.4570105162313958,-1.1811723709106445,-3.266080518762106,-0.30801231065859014,4.103187561035156,-0.006847989279776812,0.00025282325805164874,0.0009720168891362846,0.0014431742019951344,-5.196785423322581e-05,-0.0034707810264080763,0.07186970859766006,0.9122315049171448,0.9271941184997559,0.2777337431907654,-0.27295738458633423,0.0350269079208374
1749056207.1227825,4.666672229766846,-1.4570451018265267,-1.181175947189331,-3.266100069085592,-0.3080232779132288,4.103163719177246,-0.006706011015921831,0.0002813704777508974,0.0010372608667239547,0.0012354492209851742,-4.694119706982747e-05,-0.003087371587753296,0.07857267558574677,0.89487224817276,0.9363429546356201,0.277485728263855,-0.2708497643470764,0.049598053097724915
1749056207.12282,4.666668891906738,-1.4569916439107438,-1.1811878681182861,-3.26610865215444,-0.3080251852618616,4.103147506713867,-0.0064050061628222466,0.0003079833695665002,0.0008836608612909913,0.0009413626976311207,-2.90584794129245e-05,-0.002716502407565713,0.07828125357627869,0.8777852654457092,0.9300118088722229,0.2869846224784851,-0.27546432614326477,0.049223173409700394
1749056207.1228576,4.666633129119873,-1.4570020970753212,-1.181175947189331,-3.26607670406484,-0.30802852312196904,4.103116512298584,-0.005709261633455753,0.0002853657060768455,0.000760063820052892,0.0008076084777712822,-5.134937964612618e-06,-0.0025731283240020275,0.0633733868598938,0.8847407698631287,0.9335775971412659,0.27802854776382446,-0.27590620517730713,0.039702244102954865
1749056207.1228948,4.666652202606201,-1.4570021343282242,-1.1811914443969727,-3.2660967312254847,-0.30803233781923467,4.103116512298584,-0.005133052356541157,0.0003615003952290863,0.000719238945748657,0.0007556949858553708,-9.073975206774776e-07,-0.002617754740640521,0.07258903980255127,0.8720142841339111,0.9337102770805359,0.30060631036758423,-0.2814522087574005,0.018068496137857437
1749056207.1229322,4.666621208190918,-1.4569901761463662,-1.1811914443969727,-3.2661038837828578,-0.30802709261049444,4.103116512298584,-0.004767643287777901,0.0019861485343426466,0.0006878694402985275,0.0007619468960911036,-1.6034665861752728e-07,-0.0025767856277525425,0.11190971732139587,0.8633379936218262,0.9559314250946045,0.29841023683547974,-0.27073997259140015,0.02295682579278946
1749056207.1229696,4.6666059494018555,-1.456993655567505,-1.181175947189331,-3.266092916528219,-0.30799752870668584,4.103135585784912,-0.004425340332090855,0.0018236947944387794,0.0006657610647380352,0.0007283521117642522,-2.8334934398799305e-08,-0.002617868361994624,0.07819251716136932,0.8572073578834534,0.9512403607368469,0.2873649597167969,-0.2761222720146179,0.040202707052230835
1749056207.123008,4.66660213470459,-1.456993655567505,-1.181175947189331,-3.26607670406484,-0.30801278749574834,4.103135585784912,-0.003960065543651581,0.0014719160972163081,0.0006449423381127417,0.0007067183032631874,-5.007080083885285e-09,-0.00236407364718616,0.06619852781295776,0.8685154318809509,0.9562564492225647,0.3024129271507263,-0.2794067859649658,0.031266409903764725
1749056207.1230462,4.666570663452148,-1.4569591593793412,-1.1811723709106445,-3.266092916528219,-0.3080046812640589,4.103151321411133,-0.003758614882826805,0.0012219005730003119,0.0005941741983406246,0.0006768811144866049,-8.848036192610209e-10,-0.002187666716054082,0.07404819875955582,0.8818567395210266,0.950698733329773,0.30466902256011963,-0.27597594261169434,0.03339400887489319
1749056207.1231568,4.666559219360352,-1.4569901910475274,-1.1811950206756592,-3.2660652599730433,-0.3080084959613245,4.103116512298584,-0.0034195473417639732,0.0010444400832057,0.00047832573181949556,0.000644187384750694,-1.5635408245895377e-10,-0.0019953346345573664,0.06593204289674759,0.8417928814888,0.9611457586288452,0.30407261848449707,-0.2795587182044983,0.027912110090255737
1749056207.1244173,4.666619777679443,-1.456986741428711,-1.1811723709106445,-3.2660728893675746,-0.30801231065859014,4.103104591369629,-0.0028385077603161335,0.0009120324975810945,0.0004974539624527097,0.0006279703229665756,-2.7629410911944596e-11,-0.0018636351451277733,0.04925910383462906,0.8694602251052856,0.9567718505859375,0.29541856050491333,-0.2666345238685608,0.030415326356887817
1749056207.166386,4.666588306427002,-1.4570279878428956,-1.1811878681182861,-3.2660652599730433,-0.30802852312196904,4.103107929229736,-0.002312412718310952,0.0006652448792010546,0.0005359312053769827,0.0006391527131199837,-4.882406978712339e-12,-0.0017374656163156033,0.06415072828531265,0.8718085289001465,0.9498512744903564,0.2853964567184448,-0.2789624333381653,0.011634018272161484
1749056207.1664572,4.6665778160095215,-1.457009033565857,-1.181175947189331,-3.2660495243468226,-0.30801231065859014,4.103134632110596,-0.0015664946986362338,0.0005760739441029727,0.0005650343955494463,0.0006000153953209519,-8.627725270327069e-13,-0.0016606678254902363,0.07701680809259415,0.8659846186637878,0.9560772180557251,0.2935280203819275,-0.2812351882457733,0.047535259276628494
1749056207.1665227,4.666581153869629,-1.4570055839470406,-1.1811442375183105,-3.2660843334593714,-0.3080509344684046,4.103123664855957,-0.0013526298571377993,0.0006020529544912279,0.0007176488288678229,0.0005512813222594559,-1.5246097028083494e-13,-0.001538660260848701,0.03669441491365433,0.8933874368667603,0.9582524299621582,0.2805063724517822,-0.2809521555900574,0.03522753342986107
1749056207.1665738,4.6665849685668945,-1.456993655567505,-1.1811795234680176,-3.2660652599730433,-0.3080199400531214,4.103100776672363,-0.0010974209289997816,0.0005501732230186462,0.0007713346858508885,0.0005482016131281853,-2.6941453286507232e-14,-0.0014177736593410373,0.052810825407505035,0.8834538459777832,0.9452210664749146,0.2819879651069641,-0.28977540135383606,0.044802553951740265
1749056207.1666152,4.666592121124268,-1.45701256514106,-1.1811567544937134,-3.2660843334593714,-0.3080199400531214,4.103127479553223,-0.000911979703232646,0.0005816988996230066,0.000668357009999454,0.0005311308777891099,-4.760837618502257e-15,-0.0012235542526468635,0.0703996941447258,0.8899539113044739,0.9567208290100098,0.2861024737358093,-0.27719253301620483,0.03741893172264099
1749056207.1666539,4.666576862335205,-1.4569901835969468,-1.1812106370925903,-3.2660380802550257,-0.30798846880068,4.103111743927002,-0.0007800092571415007,0.0005849724402651191,0.0005823929095640779,0.0004984747502021492,-8.41290010932357e-16,-0.001051809056662023,0.06203865259885788,0.8862332701683044,0.9653160572052002,0.28457850217819214,-0.2801262140274048,0.03215485438704491
1749056207.1666932,4.666619777679443,-1.457024411564209,-1.181175947189331,-3.2660652599730433,-0.30799752870668584,4.103099822998047,-0.0007912450819276273,0.0005616364069283009,0.0005155079415999353,0.00046684316475875676,-1.4866477751074178e-16,-0.0008440642268396914,0.06865129619836807,0.88234943151474,0.9561131000518799,0.27779537439346313,-0.28612220287323,0.031196460127830505
1749056207.166731,4.666586875915527,-1.4570209470442315,-1.1811878681182861,-3.26605286220693,-0.30801612535585576,4.10310697555542,-0.0007059386116452515,0.000562810804694891,0.00046248181024566293,0.00043849271605722606,-2.6270625943057394e-17,-0.0007002900820225477,0.06769406050443649,0.8944585919380188,0.9614592790603638,0.28359460830688477,-0.29262328147888184,0.037213921546936035
1749056207.1667688,4.66660213470459,-1.4569866594723244,-1.181147813796997,-3.2660843334593714,-0.30800086656679326,4.103111743927002,-0.0002502797869965434,0.0005864343838766217,0.00041932842577807605,0.0004133177862968296,-4.642295175554283e-18,-0.0006034067482687533,0.07517772167921066,0.8714104294776917,0.9722737073898315,0.28973686695098877,-0.28940117359161377,0.03334440290927887
1749056207.1668067,4.666590213775635,-1.4569625791958352,-1.1811442375183105,-3.2660566769041957,-0.3080232779132288,4.103099822998047,-0.000209512552828528,0.0005558604025281966,0.00038351453258655965,0.00039085926255211234,-8.203423104290518e-19,-0.0005312724970281124,0.053763262927532196,0.876629114151001,0.950318455696106,0.27316105365753174,-0.29532697796821594,0.022532913833856583
1749056207.1668444,4.666600704193115,-1.4570040938309212,-1.181175947189331,-3.2660652599730433,-0.30800086656679326,4.103107929229736,-0.00018755525525193661,0.0005854624323546886,0.00035339451278559864,0.00037070861435495317,-1.449630921571884e-19,-0.00047482733498327434,0.07189638167619705,0.9039923548698425,0.9574739933013916,0.280394971370697,-0.2977854013442993,0.037479326128959656
1749056207.1668818,4.666659355163574,-1.456993655567505,-1.1811723709106445,-3.266069074670309,-0.3080199400531214,4.103123664855957,-0.00016983762907329947,0.0006122974446043372,0.0003276448114775121,0.0003525451757013798,-2.5616499178995822e-20,-0.00045813265023753047,0.0495050773024559,0.899764358997345,0.9574700593948364,0.261887788772583,-0.2940034866333008,0.03832976520061493
1749056207.166919,4.666609287261963,-1.4569779646447678,-1.1811479330062866,-3.266069074670309,-0.30800086656679326,4.103076934814453,-0.0001551989553263411,0.0009440404246561229,0.00036219359026290476,0.000336076773237437,-4.526703896930963e-21,-0.00046008132630959153,0.04269174486398697,0.8759711980819702,0.9535654783248901,0.24623362720012665,-0.30049872398376465,0.04518652334809303
1749056207.1669557,4.666546821594238,-1.4569971945932885,-1.181175947189331,-3.2660566769041957,-0.30804378191103154,4.103107929229736,-0.00014287675730884075,0.0010833961423486471,0.00034289032919332385,0.00032107485458254814,-7.9991601456855355e-22,-0.0004306230111978948,0.05617772787809372,0.8868157267570496,0.973247766494751,0.24359045922756195,-0.3079357445240021,0.046742625534534454
1749056207.166994,4.666623592376709,-1.4569779571941872,-1.181167721748352,-3.266069074670309,-0.3080199400531214,4.103099822998047,-0.00013236133963800967,0.0018088117940351367,0.0003622458898462355,0.00030736293410882354,-1.4135356222585227e-22,-0.00039995217230170965,0.09866214543581009,0.869179368019104,0.9771974086761475,0.2281717211008072,-0.29838743805885315,0.04195133596658707
1749056207.1670313,4.666616439819336,-1.4569901835969468,-1.1811723709106445,-3.266061922112936,-0.3079779783831995,4.103099822998047,-0.00016523820522706956,0.0019280220149084926,0.00035425173700787127,0.00027373837656341493,-2.4978657363708214e-23,-0.0003725446294993162,0.05872444063425064,0.8626900911331177,0.9825853109359741,0.2259192317724228,-0.3008420467376709,0.04991649463772774
1749056207.1670759,4.6665940284729,-1.4569779720953484,-1.1811795234680176,-3.2660581074156703,-0.30803233781923467,4.103127479553223,-0.00017289715469814837,0.001540176454000175,0.0003808903566095978,0.00025122889201156795,-4.4139903369213864e-24,-0.00034850352676585317,0.04776131361722946,0.8775638937950134,0.9955297708511353,0.19924117624759674,-0.294941246509552,0.039877668023109436
1749056207.1671157,4.666574478149414,-1.456966095869877,-1.181175947189331,-3.2660728893675746,-0.3080394903766077,4.103076934814453,-0.00021636049496009946,0.0012685538968071342,0.00030740167130716145,6.952307012397796e-05,-7.799983980774998e-25,-0.0003273464972153306,-0.00882624089717865,0.8684640526771545,0.9979715347290039,0.1731448620557785,-0.29689478874206543,0.04615724831819534
1749056207.167153,4.666574478149414,-1.4569814962199708,-1.1811604499816895,-3.2660967312254847,-0.30798131624330694,4.103111743927002,-0.00038123707054182887,0.0010783307952806354,0.00037449324736371636,1.2285455341043416e-05,-1.3783390655401595e-25,-0.0003086189099121839,-0.02612101286649704,0.8726174235343933,1.0019545555114746,0.14812390506267548,-0.29350048303604126,0.05127325281500816
1749056207.1671906,4.666588306427002,-1.4569814962199708,-1.1811795234680176,-3.2660967312254847,-0.30801278749574834,4.103127479553223,-0.0036109141074121,0.0009377519018016756,0.00042021702392958105,-0.0008432773756794631,-2.4356695205536988e-26,-0.0002642849285621196,-0.003507174551486969,0.8319225311279297,1.0145020484924316,0.12881417572498322,-0.2925494313240051,0.08286268264055252
1749056207.167306,4.666515827178955,-1.456993655567505,-1.181164026260376,-3.26610865215444,-0.30801612535585576,4.103099822998047,-0.0061387792229652405,0.0008296270971186459,0.0015582978958263993,-0.003567454870790243,-4.30408364715615e-27,-0.00023448796127922833,0.007041938602924347,0.8164479732513428,1.0087864398956299,0.13916681706905365,-0.29385173320770264,0.07134602963924408
1749056207.168428,4.666580677032471,-1.4570006367615242,-1.181164026260376,-3.266104837457174,-0.30807811418642217,4.103115558624268,-0.006328761577606201,0.0006540119647979736,0.0018226306419819593,-0.004687739536166191,-7.605766980577409e-28,-0.00022016458387952298,-0.005144849419593811,0.7869272232055664,1.0224131345748901,0.13823412358760834,-0.28583788871765137,0.06867966055870056
1749056207.2102792,4.666533470153809,-1.4569971945932885,-1.1811678409576416,-3.2661010227599085,-0.308054272328512,4.103107929229736,-0.0072168633341789246,0.00059308554045856,0.002144675003364682,-0.005880887620151043,-1.3440188783753823e-28,-0.00017530698096379638,-0.028382979333400726,0.7631675601005554,1.029944896697998,0.1046476811170578,-0.27946361899375916,0.11367596685886383
1749056207.210325,4.666545867919922,-1.4569591146758576,-1.181136131286621,-3.26613249401235,-0.3080399672137659,4.103080749511719,-0.00863837730139494,0.00019222358241677284,0.0021833472419530153,-0.007455678191035986,-2.3750220504013741e-29,-0.0001385752111673355,-0.05825062096118927,0.739962100982666,1.0252751111984253,0.10195694863796234,-0.2791770100593567,0.11253039538860321
1749056207.2103665,4.666537284851074,-1.4569814962199708,-1.1811516284942627,-3.266144414941305,-0.30801612535585576,4.103142738342285,-0.011605774983763695,2.8416896384442225e-05,0.002261518267914653,-0.009083476848900318,-4.196913183961173e-30,-4.529294528765604e-05,-0.10368598997592926,0.7188977599143982,1.056161880493164,0.07944248616695404,-0.2803560495376587,0.11452359706163406
1749056207.2104056,4.66648530960083,-1.4569745150259514,-1.1811552047729492,-3.266168256799215,-0.30804378191103154,4.103088855743408,-0.011995792388916016,2.772524965166667e-07,0.002955782925710082,-0.011299878358840942,-7.416385700015866e-31,0.0001312784879701212,-0.06972997635602951,0.6682817339897156,1.0568877458572388,0.07736759632825851,-0.2888413965702057,0.12307118624448776
1749056207.2104445,4.666492462158203,-1.4569779497436066,-1.1811277866363525,-3.266207357446188,-0.30801231065859014,4.103104591369629,-0.013634160161018372,-0.003256730269640684,0.004732868634164333,-0.013859483413398266,-1.3105531269083195e-31,0.0009174190345220268,-0.10557455569505692,0.6828885674476624,1.0475833415985107,0.058479420840740204,-0.26984885334968567,0.12862850725650787
1749056207.2104833,4.666501045227051,-1.4570055317929764,-1.1811085939407349,-3.2662397823729457,-0.3080175558673304,4.1031317710876465,-0.015695154666900635,-0.00526723125949502,0.005609431304037571,-0.0171086173504591,-2.315884913845969e-32,0.0020183438900858164,-0.12380726635456085,0.6549507975578308,1.0394282341003418,0.08706989139318466,-0.27290356159210205,0.13648301362991333
1749056207.210521,4.666444301605225,-1.4570209693959733,-1.1810966730117798,-3.266263624230856,-0.30803233781923467,4.103170871734619,-0.018223533406853676,-0.004614063538610935,0.006580679677426815,-0.01828940398991108,-4.0924112160168215e-33,0.0029206869658082724,-0.113807313144207,0.6585554480552673,1.0384143590927124,0.09223731607198715,-0.26685282588005066,0.16836315393447876
1749056207.2105598,4.666417121887207,-1.4569986400059243,-1.1811039447784424,-3.2663032017149867,-0.3080089727984827,4.103112697601318,-0.0189213827252388,-0.004462377168238163,0.007039420772343874,-0.019232172518968582,-7.231720224785409e-34,0.003434848040342331,-0.08179694414138794,0.6039031147956848,1.0529948472976685,0.09618432819843292,-0.251591295003891,0.16581599414348602
1749056207.2105975,4.666353225708008,-1.4570140105536957,-1.1810920238494873,-3.266327043572897,-0.3079937140094202,4.103140354156494,-0.019291646778583527,-0.0062733860686421394,0.00794664304703474,-0.020068611949682236,-1.2779208903690693e-34,0.0037917387671768665,-0.11155211925506592,0.6064774990081787,1.059411644935608,0.09452347457408905,-0.24743884801864624,0.13714195787906647
1749056207.2106354,4.666318893432617,-1.4570380982807656,-1.1810681819915771,-3.266386171380514,-0.3079937140094202,4.103175163269043,-0.019830314442515373,-0.008144319988787174,0.008287821896374226,-0.019986022263765335,-2.2582205012287292e-35,0.0047220950946211815,-0.11772088706493378,0.5967665910720825,1.0551457405090332,0.08793570101261139,-0.2402222752571106,0.17573890089988708
1749056207.210673,4.666318893432617,-1.4570380982807656,-1.1810681819915771,-3.266386171380514,-0.3079937140094202,4.103175163269043,-0.019830314442515373,-0.008144319988787174,0.008287821896374226,-0.019986022263765335,-2.2582205012287292e-35,0.0047220950946211815,-0.11772088706493378,0.5967665910720825,1.0551457405090332,0.08793570101261139,-0.2402222752571106,0.17573890089988708
1749056207.21071,4.6662421226501465,-1.4570741069367905,-1.1810438632965088,-3.2664667568602503,-0.30804711977113897,4.103179931640625,-0.01985596865415573,-0.011860423721373081,0.010428558103740215,-0.02041507512331009,-7.051654489571117e-37,0.006928676273673773,-0.17293845117092133,0.5576086044311523,1.0822317600250244,0.0935918390750885,-0.23961326479911804,0.20707234740257263
1749056207.2107472,4.666204929351807,-1.457116813664772,-1.181016445159912,-3.2665096722044886,-0.30801612535585576,4.103211402893066,-0.021796373650431633,-0.01343676820397377,0.010416241362690926,-0.02157021127641201,-1.2461014083884063e-37,0.007821543142199516,-0.17003732919692993,0.5420560240745544,1.084790825843811,0.10033665597438812,-0.22832688689231873,0.19021031260490417
1749056207.2107844,4.666177272796631,-1.4571360138109704,-1.1809766292572021,-3.266569276849264,-0.30802852312196904,4.103207588195801,-0.0233522467315197,-0.014800692908465862,0.01078860368579626,-0.022831741720438004,-2.2019918589193852e-38,0.00967358611524105,-0.1686435341835022,0.5523150563240051,1.1138396263122559,0.11479068547487259,-0.2260584831237793,0.18305635452270508
1749056207.2108212,4.66611385345459,-1.4571339425495644,-1.1809558868408203,-3.2666098080077113,-0.30801612535585576,4.1032233238220215,-0.02481849305331707,-0.014520198106765747,0.012318983674049377,-0.023598741739988327,-3.89115079910951e-39,0.011639009229838848,-0.16405300796031952,0.5318482518196106,1.1007145643234253,0.11482725292444229,-0.2087554931640625,0.20856539905071259
1749056207.2108583,4.666093349456787,-1.4571804267219086,-1.1809284687042236,-3.266642232934469,-0.30800086656679326,4.103274345397949,-0.025185424834489822,-0.014246202073991299,0.012838991358876228,-0.024414271116256714,0.00010300362919224426,0.01216734480112791,-0.15687844157218933,0.5101984143257141,1.0976349115371704,0.09967373311519623,-0.21935147047042847,0.1970173716545105
1749056207.2108955,4.665991306304932,-1.4571975034526368,-1.1809272766113281,-3.266712804833883,-0.3080080191241663,4.1033101081848145,-0.026435021311044693,-0.014065059833228588,0.01370096206665039,-0.025231774896383286,0.00014989064948167652,0.014528151601552963,-0.1791153848171234,0.4960962235927582,1.0959373712539673,0.10742843896150589,-0.20582732558250427,0.2070654332637787
1749056207.2109323,4.665919303894043,-1.4572321635535737,-1.1808927059173584,-3.2667604885497035,-0.30799752870668584,4.103302955627441,-0.028386812657117844,-0.0143983643501997,0.013732693158090115,-0.025812234729528427,0.0014323751674965024,0.01613675057888031,-0.16725537180900574,0.5185073018074036,1.0929495096206665,0.10086219757795334,-0.19729715585708618,0.19311898946762085
1749056207.210974,4.665878772735596,-1.4572730523398896,-1.1808843612670898,-3.2668239078917445,-0.30798846880068,4.103339195251465,-0.029216626659035683,-0.015005170367658138,0.014007608406245708,-0.026889048516750336,0.0017560492269694805,0.016637444496154785,-0.15479505062103271,0.49752020835876465,1.1023977994918823,0.09257644414901733,-0.2035066783428192,0.19633153080940247
1749056207.211012,4.665826797485352,-1.4572968271425744,-1.1808252334594727,-3.2668525181212367,-0.3080046812640589,4.103397846221924,-0.02868695557117462,-0.015764612704515457,0.013355785980820656,-0.027083810418844223,0.0016951037105172873,0.015713756904006004,-0.15726277232170105,0.47976940870285034,1.1068121194839478,0.08038783818483353,-0.19775721430778503,0.17388617992401123
1749056207.2111213,4.665743827819824,-1.4573398244431992,-1.180862545967102,-3.266911645928854,-0.3079612890826624,4.10340690612793,-0.02951979637145996,-0.015707409009337425,0.013234102167189121,-0.028806468471884727,0.0017051852773874998,0.014887089841067791,-0.2114708423614502,0.49099263548851013,1.11411452293396,0.09696973860263824,-0.18191412091255188,0.1811024695634842
1749056207.2124054,4.665729522705078,-1.4573534292033692,-1.1808159351348877,-3.2669836483397425,-0.3080084959613245,4.1034417152404785,-0.03170140087604523,-0.016910338774323463,0.013545027934014797,-0.03061767667531967,0.001833840156905353,0.015117425471544266,-0.20499733090400696,0.4741523563861847,1.1189539432525635,0.08660523593425751,-0.19263577461242676,0.17868682742118835
1749056207.254314,4.665657997131348,-1.4573961433819314,-1.180760383605957,-3.267043252984518,-0.3079612890826624,4.103470802307129,-0.03343135491013527,-0.017407137900590897,0.01361751276999712,-0.03239903971552849,0.0019463893258944154,0.014715319499373436,-0.20803925395011902,0.48232826590538025,1.1293320655822754,0.10320013016462326,-0.17488816380500793,0.18000981211662292
1749056207.2543676,4.66562557220459,-1.4574545261314888,-1.180736780166626,-3.2671219311156214,-0.3079493681537073,4.103489398956299,-0.034234777092933655,-0.016893204301595688,0.013820997439324856,-0.032468780875205994,0.0022172715980559587,0.014014613814651966,-0.21307049691677094,0.4499678313732147,1.1315219402313232,0.09580951184034348,-0.1648503839969635,0.1799464076757431
1749056207.2544196,4.665538787841797,-1.4574682277492066,-1.1807129383087158,-3.2671715221800746,-0.30801564851869756,4.103506088256836,-0.03492898494005203,-0.018208008259534836,0.01400107704102993,-0.03510289266705513,0.002188215497881174,0.013562392443418503,-0.2331392765045166,0.45032986998558044,1.1396863460540771,0.11938305199146271,-0.1565711796283722,0.19549572467803955
1749056207.2544615,4.665428638458252,-1.4574852746776124,-1.1806848049163818,-3.267265935937399,-0.3079455534564417,4.1035614013671875,-0.03644143417477608,-0.018738729879260063,0.014368312433362007,-0.03697837144136429,0.0020254328846931458,0.014160857535898685,-0.23789462447166443,0.44110262393951416,1.139432668685913,0.09950854629278183,-0.14475443959236145,0.18762409687042236
1749056207.2545006,4.665421485900879,-1.4574937236360093,-1.1806528568267822,-3.2673098049559535,-0.3079913298236292,4.10358190536499,-0.03869515284895897,-0.01987346075475216,0.015242047607898712,-0.03789586201310158,0.002039319835603237,0.014325454831123352,-0.2580798864364624,0.4479373097419739,1.1461247205734253,0.11778032779693604,-0.1390610635280609,0.18583956360816956
1749056207.2545393,4.665322780609131,-1.4575334203294297,-1.180629014968872,-3.2674056492247523,-0.3079717795001429,4.1036057472229,-0.04091174900531769,-0.020686296746134758,0.016145506873726845,-0.03918220102787018,0.0025821723975241184,0.014303424395620823,-0.244723379611969,0.45669516921043396,1.1318178176879883,0.11643965542316437,-0.11663729697465897,0.20402860641479492
1749056207.2545774,4.665231704711914,-1.4576191318086167,-1.180605173110962,-3.2674924335875453,-0.3079875151263636,4.103648662567139,-0.041785385459661484,-0.021009307354688644,0.016254141926765442,-0.04003188759088516,0.0034325458109378815,0.014851093292236328,-0.2862532436847687,0.41920414566993713,1.1408170461654663,0.09769763052463531,-0.13215407729148865,0.20269088447093964
1749056207.2546167,4.665139675140381,-1.4576205921224137,-1.1805880069732666,-3.267595430413717,-0.3079445997821253,4.103665351867676,-0.04577690362930298,-0.021337004378437996,0.016671201214194298,-0.04049329832196236,0.003844816004857421,0.01641775481402874,-0.24271740019321442,0.4331327974796295,1.1400461196899414,0.09256823360919952,-0.12327828258275986,0.18105602264404297
1749056207.2546556,4.665078163146973,-1.4576946657947083,-1.1805367469787598,-3.2676402531065882,-0.3079445997821253,4.103708744049072,-0.04696924239397049,-0.021864017471671104,0.01776866614818573,-0.040916960686445236,0.004139705095440149,0.016650468111038208,-0.23774626851081848,0.40772783756256104,1.1510696411132812,0.10478439182043076,-0.12329042702913284,0.1853671371936798
1749056207.254694,4.66502571105957,-1.4577237230590363,-1.1805123090744019,-3.2677279911436976,-0.3079755941974085,4.1037445068359375,-0.04602624848484993,-0.023442598059773445,0.01793394610285759,-0.04067070037126541,0.0044832671992480755,0.017113428562879562,-0.2899080514907837,0.3935343027114868,1.1427981853485107,0.08000560104846954,-0.10908687859773636,0.1885240375995636
1749056207.2547328,4.6648945808410645,-1.457776540224888,-1.1804611682891846,-3.2678305111327113,-0.3079484144793909,4.1037373542785645,-0.0498080849647522,-0.024376364424824715,0.0184293482452631,-0.043586116284132004,0.004888871684670448,0.01780467852950096,-0.2926521897315979,0.3806561231613159,1.1438958644866943,0.08764331787824631,-0.11162558943033218,0.1883019506931305
1749056207.2547705,4.664817810058594,-1.4578003895333786,-1.1804289817810059,-3.2678948841490687,-0.307901684437887,4.103765487670898,-0.0516599677503109,-0.02488802932202816,0.019145507365465164,-0.04418754577636719,0.005326588172465563,0.018568063154816628,-0.30044323205947876,0.3784148097038269,1.1533377170562744,0.07962395250797272,-0.09891126304864883,0.2113693654537201
1749056207.254808,4.664637088775635,-1.4578328740647812,-1.1804118156433105,-3.268013139764303,-0.30790883699526006,4.103824138641357,-0.05498221516609192,-0.02492622844874859,0.019427964463829994,-0.04598761722445488,0.006090381182730198,0.01939832605421543,-0.27348458766937256,0.39190196990966797,1.1529062986373901,0.08912987262010574,-0.10289935022592545,0.20775653421878815
1749056207.2548459,4.6645588874816895,-1.457912140791752,-1.1803534030914307,-3.268074174920553,-0.30792075792421514,4.103860378265381,-0.05298100784420967,-0.025435201823711395,0.01998233236372471,-0.04804408550262451,0.006481199059635401,0.020383823662996292,-0.3193630576133728,0.3325343430042267,1.1544196605682373,0.10469482839107513,-0.09124282747507095,0.20132304728031158
1749056207.2548835,4.664440155029297,-1.457948127096035,-1.1803243160247803,-3.268172880212301,-0.30789310136903936,4.103904724121094,-0.055994175374507904,-0.02660556510090828,0.021064620465040207,-0.049790192395448685,0.006889866665005684,0.02116709016263485,-0.3361699879169464,0.3340400457382202,1.168366551399231,0.09915719926357269,-0.08706103265285492,0.18074314296245575
1749056207.2549207,4.664371013641357,-1.4580183711699028,-1.180269479751587,-3.2682959041991175,-0.3078811804400843,4.1039557456970215,-0.0581231527030468,-0.027627073228359222,0.020836561918258667,-0.05151257663965225,0.007704761810600758,0.02102961391210556,-0.3289695978164673,0.3267890214920044,1.157667636871338,0.08090958744287491,-0.08883801102638245,0.1941511332988739
1749056207.2549624,4.664205074310303,-1.4580300387791176,-1.1802175045013428,-3.2683760128416957,-0.3078802267657679,4.104007244110107,-0.05961845815181732,-0.028054874390363693,0.020720982924103737,-0.05145048350095749,0.008834678679704666,0.022078758105635643,-0.31081846356391907,0.3253187835216522,1.158226490020752,0.07851924002170563,-0.08588379621505737,0.19725869596004486
1749056207.2550008,4.66412353515625,-1.458108739261963,-1.180181860923767,-3.2685028515257777,-0.30784494081606084,4.104048252105713,-0.060118962079286575,-0.029664218425750732,0.021221132948994637,-0.05271931365132332,0.008641926571726799,0.022468505427241325,-0.3554074168205261,0.3028465509414673,1.169920802116394,0.06760255992412567,-0.07732998579740524,0.20118121802806854
1749056207.2550385,4.663968086242676,-1.4581946742585679,-1.1801527738571167,-3.2685872517027796,-0.30781394640077764,4.104118824005127,-0.0626029446721077,-0.031115697696805,0.0218841340392828,-0.05467598885297775,0.008943909779191017,0.02304716221988201,-0.3208457827568054,0.33472567796707153,1.1851094961166382,0.07307352125644684,-0.07878326624631882,0.19566909968852997
1749056207.2550762,4.663880348205566,-1.458254837696888,-1.1801015138626099,-3.2687260113158167,-0.3078091780291956,4.10415506362915,-0.06503390520811081,-0.03209745138883591,0.022000981494784355,-0.057948462665081024,0.009523947723209858,0.02423410303890705,-0.34187018871307373,0.3058829605579376,1.2040199041366577,0.07636614888906479,-0.06764482706785202,0.20356279611587524
1749056207.255187,4.663763999938965,-1.4583198738149186,-1.1800658702850342,-3.2688304386534632,-0.30780059496034795,4.104182720184326,-0.06708765029907227,-0.03346071019768715,0.022664161399006844,-0.059372976422309875,0.01021574530750513,0.024457501247525215,-0.3182257413864136,0.3104134798049927,1.2038402557373047,0.08595740050077438,-0.08190111070871353,0.1978287547826767
1749056207.2563922,4.663599967956543,-1.4583796498230477,-1.1800487041473389,-3.2689529858031214,-0.307749096547262,4.104227542877197,-0.06912149488925934,-0.03417683020234108,0.022985439747571945,-0.06023027002811432,0.010012218728661537,0.02557116188108921,-0.33837035298347473,0.28612184524536133,1.2054986953735352,0.06584399938583374,-0.06899592280387878,0.20781512558460236
1749056207.2982864,4.663421630859375,-1.4584824603847046,-1.179997444152832,-3.2690845928587855,-0.307749096547262,4.104282379150391,-0.07057331502437592,-0.03532223030924797,0.02380211092531681,-0.06467477232217789,0.009752192534506321,0.025304177775979042,-0.3394380807876587,0.31851938366889954,1.2403188943862915,0.10902330279350281,-0.081739142537117,0.19794902205467224
1749056207.298333,4.663269519805908,-1.458518461590149,-1.179933786392212,-3.2692157230772914,-0.307749096547262,4.104361534118652,-0.07267208397388458,-0.03647333383560181,0.024464739486575127,-0.06439128518104553,0.009154642932116985,0.025954393669962883,-0.348618745803833,0.3159938454627991,1.2447582483291626,0.058036237955093384,-0.08243568241596222,0.19888581335544586
1749056207.2983737,4.663148403167725,-1.4585991886309166,-1.1799206733703613,-3.26934351543569,-0.30775243440736944,4.1043829917907715,-0.07326056063175201,-0.03742934390902519,0.025363057851791382,-0.06278035789728165,0.009037641808390617,0.027085592970252037,-0.35054317116737366,0.2836015820503235,1.2370647192001343,0.06740747392177582,-0.049836184829473495,0.1920597106218338
1749056207.2984123,4.663148403167725,-1.4585991886309166,-1.1799206733703613,-3.26934351543569,-0.30775243440736944,4.1043829917907715,-0.07326056063175201,-0.03742934390902519,0.025363057851791382,-0.06278035789728165,0.009037641808390617,0.027085592970252037,-0.35054317116737366,0.2836015820503235,1.2370647192001343,0.06740747392177582,-0.049836184829473495,0.1920597106218338
1749056207.2984502,4.6628804206848145,-1.4586929020336648,-1.1797770261764526,-3.269585748712057,-0.3077052275287073,4.104537487030029,-0.07575328648090363,-0.04087546467781067,0.02757737599313259,-0.06586534529924393,0.009684933349490166,0.02914011850953102,-0.38988637924194336,0.3101915717124939,1.2331911325454712,0.073000468313694,-0.06543020904064178,0.1926116794347763
1749056207.2984884,4.662681579589844,-1.4588233989528199,-1.1797140836715698,-3.2697483501830042,-0.30766231218446904,4.104569435119629,-0.07759280502796173,-0.04074356332421303,0.027628066018223763,-0.06747937947511673,0.010587704367935658,0.029400717467069626,-0.3646862804889679,0.2901892364025116,1.2365846633911133,0.056186240166425705,-0.0783369392156601,0.18751272559165955
1749056207.2985263,4.66256046295166,-1.4589264926365395,-1.1796503067016602,-3.269853254357809,-0.30763370195497686,4.1046061515808105,-0.07984836399555206,-0.04002361372113228,0.029265936464071274,-0.06957683712244034,0.010735610499978065,0.028833316639065742,-0.3918200135231018,0.27544263005256653,1.245281457901001,0.07636506110429764,-0.06661254167556763,0.185343399643898
1749056207.2985635,4.662400245666504,-1.4589827743223687,-1.1796092987060547,-3.269984861413473,-0.3076265493976038,4.104707717895508,-0.08200586587190628,-0.04176761209964752,0.030568305402994156,-0.07094171643257141,0.010161726735532284,0.029795877635478973,-0.44600802659988403,0.23519684374332428,1.2460870742797852,0.06557364761829376,-0.05210192874073982,0.20377126336097717
1749056207.2986014,4.662217617034912,-1.4591027286699791,-1.179553508758545,-3.2701665363707484,-0.3076375166522425,4.104709148406982,-0.08576823025941849,-0.043307747691869736,0.03097926266491413,-0.07279516756534576,0.009641059674322605,0.029759680852293968,-0.3435276448726654,0.2529285252094269,1.2445957660675049,0.05054435133934021,-0.060880791395902634,0.20365716516971588
1749056207.2986383,4.662057399749756,-1.4591470968774338,-1.1794934272766113,-3.2703095875182093,-0.30763370195497686,4.104808330535889,-0.08498352020978928,-0.04534425958991051,0.03241929039359093,-0.0756518766283989,0.009461852721869946,0.03086729720234871,-0.41243427991867065,0.26839137077331543,1.2509186267852783,0.06171376258134842,-0.036390554159879684,0.19496473670005798
1749056207.2986755,4.6618571281433105,-1.4592742931893845,-1.179398536682129,-3.2704526386656703,-0.3075822035418909,4.104848861694336,-0.09036759287118912,-0.04558530077338219,0.03382215276360512,-0.07827723026275635,0.009350000880658627,0.03004148229956627,-0.3564736545085907,0.27728110551834106,1.2460745573043823,0.069602832198143,-0.045464832335710526,0.2196570634841919
1749056207.2987123,4.661685943603516,-1.4593701374581833,-1.1793545484542847,-3.270623823205465,-0.3076098600970667,4.104939937591553,-0.08787371218204498,-0.044236376881599426,0.03457369655370712,-0.07949605584144592,0.009562169201672077,0.032510947436094284,-0.4389241337776184,0.20966143906116486,1.2485347986221313,0.06327947974205017,-0.036080747842788696,0.21554118394851685
1749056207.2987494,4.6614990234375,-1.4594610941461106,-1.1792670488357544,-3.27079500774526,-0.30752689043153936,4.104976654052734,-0.09115883708000183,-0.04710455983877182,0.03511383384466171,-0.0811079740524292,0.010088576935231686,0.03297097235918045,-0.4392481744289398,0.2390613853931427,1.2388726472854614,0.056737057864665985,-0.025847434997558594,0.19572722911834717
1749056207.2987866,4.661348819732666,-1.4595258247903367,-1.1792104244232178,-3.2709270916380824,-0.30755693117250615,4.105052471160889,-0.09300550818443298,-0.048188578337430954,0.03565847873687744,-0.08379747718572617,0.01084128674119711,0.03443050757050514,-0.4339316785335541,0.23432962596416473,1.256903052330017,0.05121031403541565,-0.009003782644867897,0.20671725273132324
1749056207.2988234,4.661129951477051,-1.45963058740411,-1.1791229248046875,-3.271109720269674,-0.3075297514544886,4.105112075805664,-0.09517430514097214,-0.050279200077056885,0.03706660121679306,-0.0864468589425087,0.011223320849239826,0.035229261964559555,-0.39602887630462646,0.2381482571363449,1.2446519136428833,0.05539144575595856,-0.04456549882888794,0.20090773701667786
1749056207.2988598,4.660906791687012,-1.4597452890923996,-1.1790544986724854,-3.271273275414938,-0.3075211683856409,4.10521125793457,-0.09939537197351456,-0.05147812142968178,0.04017474502325058,-0.0873119905591011,0.01138268131762743,0.03471199795603752,-0.39744091033935547,0.23952513933181763,1.206796407699585,0.06529560685157776,-0.031552620232105255,0.1856061965227127
1749056207.2988966,4.660687446594238,-1.4598292273334046,-1.1789705753326416,-3.2714597187437953,-0.30744725862611944,4.105270862579346,-0.0992015078663826,-0.052389200776815414,0.040657006204128265,-0.08930326998233795,0.012490510009229183,0.0355658233165741,-0.40152546763420105,0.2271716296672821,1.208583950996399,0.0513874851167202,-0.026410598307847977,0.2024674415588379
1749056207.298933,4.660534381866455,-1.4599065122059365,-1.1788556575775146,-3.2716194591917933,-0.30743486086000615,4.105362415313721,-0.10279787331819534,-0.05357549712061882,0.039186231791973114,-0.09241390228271484,0.012767799198627472,0.03551069647073746,-0.42138904333114624,0.22766342759132385,1.2213367223739624,0.08775994181632996,-0.026275839656591415,0.19733722507953644
1749056207.2989745,4.66033411026001,-1.4600092631629487,-1.1787681579589844,-3.271794935266012,-0.30743438402284795,4.105449199676514,-0.10201305150985718,-0.05482664331793785,0.04040272533893585,-0.09069863706827164,0.012168009765446186,0.03642863407731056,-0.3708210587501526,0.2221727967262268,1.2275089025497437,0.04522900655865669,-0.03783297538757324,0.20726114511489868
1749056207.2990127,4.660055160522461,-1.460129239862301,-1.1787350177764893,-3.2719813785948695,-0.30739051500429326,4.1054863929748535,-0.10480739921331406,-0.055706653743982315,0.04196693003177643,-0.09201421588659286,0.011521896347403526,0.037952542304992676,-0.39660415053367615,0.21559113264083862,1.2022708654403687,0.06038126349449158,-0.04297433793544769,0.19927304983139038
1749056207.2991178,4.6598896980285645,-1.460249164407589,-1.1786319017410278,-3.2721883259215296,-0.3073356787310999,4.105616569519043,-0.10636798292398453,-0.05681817978620529,0.04367851838469505,-0.09438346326351166,0.010278364643454552,0.03842070698738098,-0.379216730594635,0.21724215149879456,1.1914488077163696,0.03921830654144287,-0.021981937810778618,0.19400274753570557
1749056207.3004677,4.659651279449463,-1.4603414696506043,-1.1785509586334229,-3.27239527324819,-0.3073619047748011,4.105708122253418,-0.10782280564308167,-0.05710165202617645,0.04444662854075432,-0.10033009946346283,0.011884997598826885,0.03924398124217987,-0.3886963427066803,0.22321946918964386,1.1748855113983154,0.07839083671569824,-0.046902112662792206,0.18342375755310059
1749056207.3422842,4.659438610076904,-1.4604459789446373,-1.178432583808899,-3.2725664577879847,-0.30734283128847295,4.105748176574707,-0.10997481644153595,-0.05818941071629524,0.04217091202735901,-0.09796163439750671,0.011708453297615051,0.04027411341667175,-0.3953952193260193,0.20361804962158203,1.2104774713516235,0.08845509588718414,-0.035115644335746765,0.2008385956287384
1749056207.3423312,4.659226417541504,-1.4606005263379593,-1.1783796548843384,-3.272797246972555,-0.3073032538043421,4.105784893035889,-0.1113617867231369,-0.05980366840958595,0.044241320341825485,-0.09668748825788498,0.01148204505443573,0.04006001353263855,-0.3984353244304657,0.21247214078903198,1.195577621459961,0.046512410044670105,-0.03276124224066734,0.20407477021217346
1749056207.3423836,4.658968448638916,-1.4606808435967942,-1.1782488822937012,-3.2729884586729945,-0.3072436491595667,4.105900287628174,-0.11244435608386993,-0.06067093461751938,0.04549774155020714,-0.09880296885967255,0.011212148703634739,0.03973725810647011,-0.4209946095943451,0.18509861826896667,1.1792807579040527,0.07969173043966293,-0.039228931069374084,0.20262779295444489
1749056207.3424256,4.658782482147217,-1.460819737320282,-1.1781843900680542,-3.2731791935362757,-0.30723506609071904,4.105984210968018,-0.11412182450294495,-0.061906926333904266,0.045557256788015366,-0.09923593699932098,0.010714856907725334,0.042052820324897766,-0.44232264161109924,0.18598231673240662,1.1867923736572266,0.06045285612344742,-0.029963131994009018,0.18875662982463837
1749056207.3424647,4.65855073928833,-1.4609173101237793,-1.1781158447265625,-3.273409982720846,-0.30720407167543584,4.106094837188721,-0.11596795171499252,-0.06353550404310226,0.04580162465572357,-0.10054471343755722,0.010582604445517063,0.04332537576556206,-0.3961961269378662,0.2216370850801468,1.192739486694336,0.05175075680017471,-0.0188637375831604,0.18715260922908783
1749056207.3425043,4.658334255218506,-1.4610525530627747,-1.1780509948730469,-3.2736131153502406,-0.3071840445147913,4.106159687042236,-0.11587798595428467,-0.06320451200008392,0.04584825783967972,-0.10258624702692032,0.01042214035987854,0.04286879301071167,-0.4388030469417572,0.1845296025276184,1.1893774271011353,0.06251328438520432,-0.03316076844930649,0.1957683116197586
1749056207.3425426,4.658017635345459,-1.4611809265664597,-1.177939772605896,-3.273851057092184,-0.3072112242328089,4.106266021728516,-0.11988065391778946,-0.06652417033910751,0.046870362013578415,-0.10297679901123047,0.009297430515289307,0.04317308962345123,-0.40148454904556274,0.19678223133087158,1.2023636102676392,0.06379497051239014,-0.03128041326999664,0.19422435760498047
1749056207.3425813,4.65778112411499,-1.4613318976810952,-1.177832007408142,-3.2740308247008265,-0.30722219148744756,4.106365203857422,-0.12054172158241272,-0.06676392257213593,0.04689331725239754,-0.10457534343004227,0.00945183914154768,0.043935809284448624,-0.45472246408462524,0.22052574157714844,1.1874215602874756,0.04108259081840515,0.0045098476111888885,0.19206684827804565
1749056207.3426194,4.657583713531494,-1.4614742335728188,-1.1777325868606567,-3.274257799188131,-0.30719501176943,4.106429576873779,-0.1218172013759613,-0.06671452522277832,0.04815256968140602,-0.10612084716558456,0.009667393751442432,0.044359736144542694,-0.40979474782943726,0.15918795764446259,1.1893110275268555,0.04683930426836014,-0.0013400502502918243,0.19099530577659607
1749056207.3426573,4.657350540161133,-1.461627074783184,-1.1776522397994995,-3.2744609318175257,-0.30717546144594365,4.10650634765625,-0.1250295639038086,-0.06863538920879364,0.05094005912542343,-0.10668560117483139,0.010633189231157303,0.04434073343873024,-0.43016448616981506,0.1886998414993286,1.176328182220459,0.01751674711704254,0.004174575209617615,0.22307893633842468
1749056207.342695,4.6570844650268555,-1.461758853202202,-1.1775528192520142,-3.274691244164938,-0.3071549574481409,4.10658597946167,-0.12671741843223572,-0.07027053087949753,0.04896015673875809,-0.10861575603485107,0.012016156688332558,0.04579045996069908,-0.46814921498298645,0.22574782371520996,1.1769810914993286,0.03522828221321106,0.016813311725854874,0.19283874332904816
1749056207.3427324,4.656808376312256,-1.4618644726327439,-1.1774450540542603,-3.2748834095396937,-0.30710012117494756,4.106689453125,-0.1283150613307953,-0.06868230551481247,0.04986976832151413,-0.10934484004974365,0.012712561525404453,0.046626411378383636,-0.4695765972137451,0.17049047350883484,1.174791693687439,0.014063611626625061,-0.005614526569843292,0.1976664662361145
1749056207.3427696,4.656497478485107,-1.462027670150139,-1.1773402690887451,-3.275156637231344,-0.30709535280336553,4.106788635253906,-0.13159213960170746,-0.07124294340610504,0.05240216478705406,-0.11009077727794647,0.013047762215137482,0.0477939173579216,-0.3941960632801056,0.18118387460708618,1.1495568752288818,0.010508943349123001,0.011174507439136505,0.18737931549549103
1749056207.342807,4.656280517578125,-1.4621833127788086,-1.1772284507751465,-3.2754184208311976,-0.3070486227618616,4.106853008270264,-0.13155141472816467,-0.07326768338680267,0.05520296469330788,-0.11477820575237274,0.013227653689682484,0.048661939799785614,-0.4843015670776367,0.19415846467018127,1.115075945854187,0.015308808535337448,0.028141923248767853,0.18937833607196808
1749056207.3428442,4.655978202819824,-1.462334395652153,-1.1771326065063477,-3.2755986652769984,-0.30703956285585576,4.1069793701171875,-0.1326325684785843,-0.07437204569578171,0.05303667113184929,-0.1131449043750763,0.01367519423365593,0.048775143921375275,-0.43636882305145264,0.22098633646965027,1.1163685321807861,0.009785741567611694,0.018866829574108124,0.18449845910072327
1749056207.3428862,4.655733585357666,-1.4624986884048958,-1.1770057678222656,-3.275853296319479,-0.30699235597719365,4.107118606567383,-0.13473016023635864,-0.07646510750055313,0.0525989830493927,-0.11428102105855942,0.014390856958925724,0.04910864308476448,-0.42572543025016785,0.2642890214920044,1.1524156332015991,-0.013060837984085083,0.008438006043434143,0.1868429034948349
1749056207.342924,4.655475616455078,-1.46267735332761,-1.1769171953201294,-3.276123186151022,-0.3070033232318323,4.10718297958374,-0.1376965343952179,-0.07527613639831543,0.05347331985831261,-0.12018037587404251,0.013955972157418728,0.04963512346148491,-0.4061368405818939,0.2323383241891861,1.1471796035766602,-0.007664129137992859,0.03082519769668579,0.20215392112731934
1749056207.3429615,4.655204772949219,-1.4627951395562668,-1.176817774772644,-3.2763358555235804,-0.3069098631488245,4.107266426086426,-0.13995780050754547,-0.07911751419305801,0.05358699709177017,-0.12105432152748108,0.013441123999655247,0.051103346049785614,-0.43893611431121826,0.24377602338790894,1.13405442237854,0.01192384958267212,0.013712294399738312,0.1987612545490265
1749056207.3429985,4.65490198135376,-1.4629665327123185,-1.1767219305038452,-3.2765776119627894,-0.3069089094745081,4.107367038726807,-0.14220239222049713,-0.07653962820768356,0.05321485549211502,-0.11998210847377777,0.013835376128554344,0.052239369601011276,-0.44116485118865967,0.2505280077457428,1.1444915533065796,-0.006750006228685379,0.006198227405548096,0.174152672290802
1749056207.343044,4.654626369476318,-1.4631104704788704,-1.1766242980957031,-3.276863237420553,-0.30690175691713506,4.107490539550781,-0.14472216367721558,-0.07623382657766342,0.05288579314947128,-0.12342838197946548,0.014272399246692657,0.05298418924212456,-0.40388667583465576,0.2154567539691925,1.1567864418029785,0.0025496138259768486,0.029239140450954437,0.17054100334644318
1749056207.3431578,4.6543450355529785,-1.4632783767632027,-1.1765058040618896,-3.277079244653219,-0.3068955580340784,4.107573986053467,-0.1464717537164688,-0.07989990711212158,0.0525297112762928,-0.12451969087123871,0.014144106768071651,0.051209621131420135,-0.4074850082397461,0.2336728274822235,1.1860507726669312,-0.005553320050239563,0.00821591168642044,0.1917322874069214
1749056207.3443882,4.653995037078857,-1.4634377372315903,-1.1764135360717773,-3.2773267231383265,-0.3068440596209925,4.107626914978027,-0.1496613323688507,-0.07520117610692978,0.05259235203266144,-0.1249718964099884,0.013846557587385178,0.05171637982130051,-0.4159841239452362,0.20628006756305695,1.1868016719818115,-0.009837791323661804,0.020051829516887665,0.1951388418674469
1749056207.3865626,4.653762340545654,-1.4636056435159226,-1.1763176918029785,-3.2775846920409144,-0.3068292776690882,4.107785701751709,-0.14546748995780945,-0.07800691574811935,0.05325515568256378,-0.12676332890987396,0.013732471503317356,0.052919480949640274,-0.4629148244857788,0.19723708927631378,1.1900479793548584,-0.015416160225868225,0.030223406851291656,0.20711082220077515
1749056207.3866427,4.653441429138184,-1.4637460869601746,-1.1762255430221558,-3.277816434899801,-0.3068044821368616,4.107900142669678,-0.14779649674892426,-0.07830770313739777,0.05313524976372719,-0.12866738438606262,0.014450899325311184,0.05406946688890457,-0.4496917724609375,0.1934933364391327,1.196909785270691,-0.0012826621532440186,0.010988950729370117,0.20252388715744019
1749056207.3867133,4.653169631958008,-1.463882901971676,-1.1760826110839844,-3.278086324731344,-0.30676156679262334,4.108000755310059,-0.15019458532333374,-0.07969711720943451,0.05417671799659729,-0.1312543898820877,0.014532379806041718,0.05428006500005722,-0.4686082899570465,0.22276324033737183,1.2232439517974854,-0.029648765921592712,0.047495655715465546,0.1947464644908905
1749056207.386783,4.652873516082764,-1.4640783083489914,-1.1759743690490723,-3.2783762417235316,-0.3067672888385218,4.108108043670654,-0.1534116417169571,-0.08135663717985153,0.05511101707816124,-0.1365329921245575,0.014612051658332348,0.054833874106407166,-0.4545292258262634,0.20920953154563904,1.2215474843978882,-0.006385870277881622,0.03429102152585983,0.22504518926143646
1749056207.3868513,4.652565956115723,-1.464220592086651,-1.1758737564086914,-3.278670450250143,-0.30671722093691045,4.108232021331787,-0.1547715961933136,-0.0823429599404335,0.055971186608076096,-0.1369372308254242,0.015322662889957428,0.057656180113554,-0.4784746766090393,0.23024101555347443,1.2091323137283325,-0.01732286624610424,0.04884183406829834,0.19681178033351898
1749056207.3869207,4.65225887298584,-1.464390144949295,-1.1757779121398926,-3.278922220269674,-0.3066657225238245,4.108346462249756,-0.1555444449186325,-0.08417928218841553,0.05708647146821022,-0.13787861168384552,0.016217848286032677,0.057865217328071594,-0.4605775475502014,0.23484763503074646,1.2121144533157349,-0.02456909418106079,0.018066707998514175,0.19184677302837372
1749056207.3869889,4.651951313018799,-1.4646201890758057,-1.1756428480148315,-3.2792121372618617,-0.3066647688495081,4.1084513664245605,-0.15984144806861877,-0.08452688157558441,0.05786719173192978,-0.14215153455734253,0.016142606735229492,0.05620912089943886,-0.41856783628463745,0.23570291697978973,1.2204245328903198,-0.01734618842601776,0.03630758449435234,0.21358942985534668
1749056207.387059,4.651642322540283,-1.4647414919785042,-1.1755344867706299,-3.279511114160055,-0.3066213766681116,4.108585357666016,-0.16097894310951233,-0.08524017781019211,0.058724742382764816,-0.1427844762802124,0.015587428584694862,0.055041246116161346,-0.450723260641098,0.22836408019065857,1.227475881576538,0.015296593308448792,0.06090853735804558,0.22373676300048828
1749056207.3871255,4.651322364807129,-1.4649125647595902,-1.1754302978515625,-3.2797938785948695,-0.3066046873675745,4.1086931228637695,-0.1619642674922943,-0.08682702481746674,0.058727823197841644,-0.14239729940891266,0.015874149277806282,0.05543531849980354,-0.4572089612483978,0.2601097524166107,1.2291138172149658,0.0032626986503601074,0.04791061952710152,0.2166336476802826
1749056207.387165,4.650986671447754,-1.4650925707868119,-1.175303339958191,-3.2801033459105433,-0.3065531889544886,4.1088128089904785,-0.16335923969745636,-0.0873069167137146,0.05952975153923035,-0.1442868858575821,0.01588226854801178,0.05840554088354111,-0.4806983172893524,0.22532659769058228,1.235979437828064,-0.013652108609676361,0.05006423965096474,0.21735408902168274
1749056207.3872037,4.650632381439209,-1.4652572584203263,-1.175183892250061,-3.2804256878294886,-0.3065102736102503,4.1089091300964355,-0.16628776490688324,-0.08884584903717041,0.05978679284453392,-0.14651603996753693,0.016041969880461693,0.05963839218020439,-0.47913435101509094,0.24583062529563904,1.253204584121704,0.001035783439874649,0.06126934289932251,0.2105005830526352
1749056207.387241,4.650296211242676,-1.465443917816021,-1.1750671863555908,-3.2806879482665003,-0.30648595491518194,4.109079360961914,-0.16872566938400269,-0.08904380351305008,0.06117807701230049,-0.1466115415096283,0.0165630504488945,0.06069944053888321,-0.4516739249229431,0.23499254882335663,1.2580146789550781,0.002844441682100296,0.06664162874221802,0.21744784712791443
1749056207.3872967,4.649991512298584,-1.4656016317060967,-1.1749629974365234,-3.280995031396383,-0.3064969221698206,4.1091485023498535,-0.17259161174297333,-0.08753367513418198,0.06328754872083664,-0.14735561609268188,0.017927449196577072,0.060945235192775726,-0.480752557516098,0.26768070459365845,1.2337641716003418,-0.0182359516620636,0.07878271490335464,0.22133544087409973
1749056207.3873477,4.649662971496582,-1.4657967326096077,-1.1748155355453491,-3.281304975549215,-0.3064215818988245,4.109325885772705,-0.1742132157087326,-0.08612766861915588,0.061699360609054565,-0.14817914366722107,0.01898176409304142,0.0621822364628315,-0.49251219630241394,0.2012723982334137,1.264653205871582,-0.011531904339790344,0.05256858468055725,0.22158831357955933
1749056207.387386,4.649289131164551,-1.465983771984913,-1.1746833324432373,-3.2815801105894984,-0.30640155473818,4.109375476837158,-0.17575129866600037,-0.0900859609246254,0.06295328587293625,-0.14988328516483307,0.018584324046969414,0.06330177932977676,-0.4686441421508789,0.23490998148918152,1.2620545625686646,-0.02112974226474762,0.047123976051807404,0.21422366797924042
1749056207.3874235,4.648975849151611,-1.466190793817379,-1.1745482683181763,-3.2818709812560023,-0.30639344850649053,4.109514236450195,-0.17696578800678253,-0.0871351957321167,0.06686308234930038,-0.15113139152526855,0.01811342127621174,0.06409215182065964,-0.4399341642856598,0.19722437858581543,1.2499330043792725,-0.010859999805688858,0.06143755093216896,0.2182772010564804
1749056207.3874636,4.648538112640381,-1.4663554665497323,-1.1744470596313477,-3.2821580372252406,-0.30635053316225225,4.10963773727417,-0.17746904492378235,-0.08939104527235031,0.06451564282178879,-0.14920656383037567,0.016509780660271645,0.06377475708723068,-0.4504989683628082,0.20970556139945984,1.2509771585464478,-0.0477873720228672,0.0882606953382492,0.2263045758008957
1749056207.3875039,4.648248195648193,-1.46650783837352,-1.1742963790893555,-3.282487531701559,-0.3063300291644495,4.109768867492676,-0.17832057178020477,-0.09094923734664917,0.0648030936717987,-0.15407411754131317,0.016192428767681122,0.06432151049375534,-0.46477147936820984,0.2288549393415451,1.2840700149536133,-0.0317763015627861,0.07961331307888031,0.23644506931304932
1749056207.3875415,4.6479082107543945,-1.466706746523716,-1.1741797924041748,-3.282790800134176,-0.3062627951251429,4.109896659851074,-0.1820562779903412,-0.09221572428941727,0.06642679870128632,-0.15356075763702393,0.017372287809848785,0.06671420484781265,-0.47170132398605347,0.2359631210565567,1.2760926485061646,-0.06077849864959717,0.0886516124010086,0.2301938533782959
1749056207.3875833,4.647505283355713,-1.466910221879818,-1.1740328073501587,-3.2831155262389125,-0.3062351385699671,4.110008239746094,-0.18234767019748688,-0.09516497701406479,0.06857474148273468,-0.15711742639541626,0.018870387226343155,0.06824180483818054,-0.49902716279029846,0.20118461549282074,1.2614750862121582,-0.05266156792640686,0.06578411906957626,0.21435007452964783
1749056207.3876977,4.647099018096924,-1.4670629811337967,-1.1739323139190674,-3.2834540806212367,-0.3061750570880335,4.110136032104492,-0.18466883897781372,-0.09372033923864365,0.06995613873004913,-0.1610981523990631,0.018822062760591507,0.06957618147134781,-0.470133513212204,0.23221132159233093,1.2515203952789307,-0.039878055453300476,0.08318845182657242,0.22295033931732178
1749056207.3884237,4.646796703338623,-1.4672476661256333,-1.1737654209136963,-3.283776422540182,-0.30617076555360967,4.110279560089111,-0.18689963221549988,-0.0938684418797493,0.07042377442121506,-0.16176238656044006,0.01928357034921646,0.06945043802261353,-0.4524843990802765,0.18973442912101746,1.257509469985962,-0.043257251381874084,0.08190006762742996,0.2160458266735077
1749056207.4303062,4.646395206451416,-1.4674552914551278,-1.1736524105072021,-3.284051557580465,-0.3061311880694788,4.110430717468262,-0.18823136389255524,-0.09937258809804916,0.06994599848985672,-0.16373246908187866,0.019033771008253098,0.06888972222805023,-0.42020469903945923,0.26161274313926697,1.2737348079681396,-0.045195482671260834,0.08531816303730011,0.2250027358531952
1749056207.430359,4.6460065841674805,-1.4676661428860207,-1.1735048294067383,-3.284386774102682,-0.30609065691103154,4.110562324523926,-0.18858914077281952,-0.0983884260058403,0.07270054519176483,-0.16738441586494446,0.018799401819705963,0.07218097150325775,-0.46363693475723267,0.2402002513408661,1.2542170286178589,-0.039339080452919006,0.06855601072311401,0.2217130959033966
1749056207.430402,4.645606994628906,-1.4678735745004197,-1.173360824584961,-3.284748693505758,-0.3060358206378382,4.110725402832031,-0.18746036291122437,-0.10101538151502609,0.06989054381847382,-0.17009614408016205,0.01951751485466957,0.07498948276042938,-0.48184144496917725,0.2799874246120453,1.2742470502853394,-0.028849035501480103,0.07375306636095047,0.19256888329982758
1749056207.4304416,4.645243167877197,-1.4680807751468201,-1.1732208728790283,-3.285074373284811,-0.30604297319521123,4.110873222351074,-0.18815597891807556,-0.10069358348846436,0.07083996385335922,-0.17170806229114532,0.019911855459213257,0.0730789378285408,-0.5424593687057495,0.2461812049150467,1.3071919679641724,-0.04460804909467697,0.07795396447181702,0.20141403377056122
1749056207.4304802,4.644898891448975,-1.4682430636933823,-1.1730542182922363,-3.285448213616842,-0.30595189729799444,4.1110053062438965,-0.19540078938007355,-0.10160922259092331,0.07485286891460419,-0.1753852516412735,0.020162440836429596,0.07103076577186584,-0.42638057470321655,0.2718764841556549,1.255847454071045,0.01713232509791851,0.10417966544628143,0.2260393351316452
1749056207.430518,4.644461154937744,-1.46849678576503,-1.1729143857955933,-3.2857943973936976,-0.3059161345111292,4.111140251159668,-0.19670550525188446,-0.10083197802305222,0.07341224700212479,-0.17297327518463135,0.02122817188501358,0.07241320610046387,-0.44671452045440674,0.26071569323539734,1.270165205001831,-0.032469309866428375,0.06516759097576141,0.2118455469608307
1749056207.4305558,4.644069194793701,-1.4686545071056862,-1.1727309226989746,-3.286161085168356,-0.30586082140077764,4.111287593841553,-0.19936221837997437,-0.10038643330335617,0.0752958431839943,-0.1769549697637558,0.021586555987596512,0.07262915372848511,-0.45399001240730286,0.23026633262634277,1.266621708869934,0.010316863656044006,0.08166300505399704,0.2151603251695633
1749056207.4305937,4.643685817718506,-1.4688342300108452,-1.1726179122924805,-3.2865144215025843,-0.30584746996034795,4.111458778381348,-0.20019693672657013,-0.10222748667001724,0.07623351365327835,-0.17365963757038116,0.020786384120583534,0.07385159283876419,-0.4072346091270447,0.22808849811553955,1.2585279941558838,-0.011120781302452087,0.06509219110012054,0.22017601132392883
1749056207.4306316,4.643280982971191,-1.4690537017634888,-1.1724590063095093,-3.2868572674193324,-0.3058550993548792,4.111605644226074,-0.1973455250263214,-0.10141359269618988,0.07642553001642227,-0.1744784712791443,0.020923713222146034,0.07452516257762909,-0.4406091570854187,0.20605748891830444,1.250932216644287,-0.01205839216709137,0.07800562679767609,0.21552619338035583
1749056207.4306688,4.643280982971191,-1.4690537017634888,-1.1724590063095093,-3.2868572674193324,-0.3058550993548792,4.111605644226074,-0.1973455250263214,-0.10141359269618988,0.07642553001642227,-0.1744784712791443,0.020923713222146034,0.07452516257762909,-0.4406091570854187,0.20605748891830444,1.250932216644287,-0.01205839216709137,0.07800562679767609,0.21552619338035583
1749056207.430706,4.6428937911987305,-1.4692384612611313,-1.1723299026489258,-3.2872239551939906,-0.3058074156390589,4.111725807189941,-0.19658569991588593,-0.10266006737947464,0.07783281803131104,-0.17566128075122833,0.020156795158982277,0.07333353906869888,-0.49502506852149963,0.1945699155330658,1.2586629390716553,-0.006497830152511597,0.059770651161670685,0.2048014998435974
1749056207.430743,4.642157554626465,-1.4696104240468522,-1.1720025539398193,-3.2879206142821253,-0.30574304262270147,4.112016677856445,-0.20353767275810242,-0.10638724267482758,0.0790199488401413,-0.17681686580181122,0.020465562120079994,0.07323889434337616,-0.44648146629333496,0.19511297345161438,1.238265872001648,-0.026380814611911774,0.09236607700586319,0.2115492969751358
1749056207.4307806,4.641729354858398,-1.469817803507187,-1.1718471050262451,-3.2882567844786585,-0.30564815202821904,4.112156391143799,-0.20532014966011047,-0.10499530285596848,0.07974656671285629,-0.1784285008907318,0.02087249606847763,0.07376072555780411,-0.48501577973365784,0.19616669416427612,1.2330398559570312,-0.03294624388217926,0.104160837829113,0.23855705559253693
1749056207.4308178,4.641310691833496,-1.4700442639044304,-1.1716983318328857,-3.2886067829527796,-0.305582348500387,4.112353801727295,-0.20700231194496155,-0.10917437076568604,0.08047514408826828,-0.18201911449432373,0.022127453237771988,0.0757860541343689,-0.45978403091430664,0.17533159255981445,1.240075707435608,-0.020320482552051544,0.08117099106311798,0.23625648021697998
1749056207.430857,4.640875816345215,-1.4702770945480843,-1.1715197563171387,-3.28897823909902,-0.3055656591998499,4.112467288970947,-0.21111245453357697,-0.10858209431171417,0.08210019022226334,-0.1838492900133133,0.022864384576678276,0.07616270333528519,-0.4520745873451233,0.22543641924858093,1.2255377769470215,-0.03260453790426254,0.08331681042909622,0.21255534887313843
1749056207.4308991,4.640440464019775,-1.4704807338169594,-1.17133629322052,-3.2893406353392542,-0.30549842516054326,4.1126179695129395,-0.21120834350585938,-0.11088379472494125,0.08317054063081741,-0.18950773775577545,0.022671621292829514,0.07646825909614563,-0.38471660017967224,0.22986501455307007,1.1952457427978516,0.005752980709075928,0.08096857368946075,0.21213945746421814
1749056207.430937,4.63997745513916,-1.4706999522498627,-1.1711677312850952,-3.289723058740133,-0.3055046240435999,4.112757682800293,-0.20980204641819,-0.1123274639248848,0.08332772552967072,-0.18829016387462616,0.022046318277716637,0.0765230655670166,-0.505130410194397,0.22943343222141266,1.2151978015899658,-0.003871038556098938,0.09066479653120041,0.2169388085603714
1749056207.430975,4.639577388763428,-1.4709275674870987,-1.1710072755813599,-3.2901016674437464,-0.3054845968829554,4.112936973571777,-0.21464666724205017,-0.11157737672328949,0.08437711745500565,-0.1910354346036911,0.020693274214863777,0.07569073885679245,-0.533942461013794,0.16152885556221008,1.2181223630905151,-0.03101695328950882,0.1179022416472435,0.23606954514980316
1749056207.4310129,4.639180660247803,-1.47115562230859,-1.1708437204360962,-3.290468832055563,-0.30540162721742803,4.1130805015563965,-0.2190885990858078,-0.11098426580429077,0.0864701047539711,-0.19138634204864502,0.020787609741091728,0.07743986696004868,-0.48808392882347107,0.18065819144248962,1.1647589206695557,-0.020912937819957733,0.1390753835439682,0.24700963497161865
1749056207.4310508,4.638713836669922,-1.4713784915259858,-1.1706912517547607,-3.2908860645689906,-0.3053692022906702,4.11323881149292,-0.22139833867549896,-0.11403211951255798,0.08574147522449493,-0.19306454062461853,0.023423928767442703,0.07924563437700272,-0.39268115162849426,0.1802087128162384,1.1802898645401,-0.011053808033466339,0.08370541036128998,0.23170340061187744
1749056207.4311793,4.638261795043945,-1.471583829527237,-1.1705161333084106,-3.2912546596922816,-0.3053229490863245,4.113390922546387,-0.21901483833789825,-0.11273404955863953,0.09089763462543488,-0.1947493553161621,0.022110097110271454,0.07956156134605408,-0.4420772194862366,0.18337251245975494,1.1260709762573242,-0.011540800333023071,0.11761553585529327,0.21893921494483948
1749056207.4324825,4.637842178344727,-1.471811757688858,-1.1703482866287231,-3.2916342220702113,-0.3053095976458948,4.113574028015137,-0.2195962369441986,-0.11551495641469955,0.08759584277868271,-0.19511330127716064,0.02167706936597824,0.07948243618011475,-0.49477869272232056,0.18214812874794006,1.14971923828125,-0.01043345034122467,0.12854990363121033,0.22236834466457367
1749056207.4743128,4.637394905090332,-1.4720432695797463,-1.1701685190200806,-3.2920357189574183,-0.3052619139300745,4.11371374130249,-0.2220686376094818,-0.11704681068658829,0.08610951900482178,-0.19998206198215485,0.021222053095698357,0.08067291229963303,-0.502802312374115,0.1891184002161026,1.1547434329986572,-0.005784027278423309,0.13166606426239014,0.22426192462444305
1749056207.4743824,4.636923789978027,-1.4722673755935212,-1.1700234413146973,-3.2924543819823207,-0.30517846742738897,4.113884925842285,-0.2248978614807129,-0.11730603873729706,0.08544830232858658,-0.19795551896095276,0.021456893533468246,0.08145847916603088,-0.46090954542160034,0.17468604445457458,1.1751422882080078,-0.03996942937374115,0.12380778789520264,0.21657370030879974
1749056207.4744265,4.636483669281006,-1.4724987757257004,-1.1698049306869507,-3.2928372822203578,-0.3051231543170374,4.11407470703125,-0.22663384675979614,-0.11925606429576874,0.08544300496578217,-0.20359602570533752,0.024003643542528152,0.08277297019958496,-0.4576261341571808,0.1949988454580307,1.1818122863769531,0.0011425688862800598,0.09823064506053925,0.21069779992103577
1749056207.4744778,4.6360249519348145,-1.4727183368853112,-1.1696598529815674,-3.293263097802633,-0.3050630728351038,4.114243507385254,-0.22554682195186615,-0.12019221484661102,0.08544761687517166,-0.2037954181432724,0.025169039145112038,0.08533632755279541,-0.45833101868629456,0.21818624436855316,1.1993558406829834,0.012042924761772156,0.10211025923490524,0.20630250871181488
1749056207.4745429,4.635579586029053,-1.4729824301651497,-1.1694890260696411,-3.293678422967428,-0.3050311247455042,4.114422798156738,-0.22677098214626312,-0.12181393802165985,0.084298275411129,-0.20432323217391968,0.025987843051552773,0.08493759483098984,-0.4572916030883789,0.19916985929012299,1.197979211807251,0.008660897612571716,0.08500801026821136,0.19418245553970337
1749056207.474592,4.635101318359375,-1.4732064467719574,-1.1692893505096436,-3.2940851650633753,-0.30501014391054326,4.1146087646484375,-0.2276548594236374,-0.12253368645906448,0.08594173192977905,-0.20481686294078827,0.025294633582234383,0.08255121856927872,-0.45928528904914856,0.21051767468452454,1.1981405019760132,0.0457761287689209,0.10477550327777863,0.2145894467830658
1749056207.4746313,4.634640693664551,-1.4734738183072587,-1.169137716293335,-3.29449524501943,-0.3049395720111292,4.114713668823242,-0.23062996566295624,-0.1227080300450325,0.08316142112016678,-0.20622755587100983,0.024326447397470474,0.08371978253126144,-0.4853067994117737,0.18916073441505432,1.2283955812454224,0.013000395148992538,0.0998469665646553,0.21888579428195953
1749056207.4746702,4.634204387664795,-1.4737291050008317,-1.168973445892334,-3.2948948345580042,-0.30490285554994756,4.114931583404541,-0.23483099043369293,-0.12178831547498703,0.08566609770059586,-0.204535573720932,0.02353912591934204,0.08391634374856949,-0.45593973994255066,0.17911206185817719,1.2495272159576416,-0.01281881332397461,0.09251676499843597,0.21914777159690857
1749056207.4747086,4.6337175369262695,-1.4739589926651497,-1.1687899827957153,-3.2953087292113246,-0.3048308531390589,4.115060329437256,-0.23677973449230194,-0.12327174097299576,0.08588448911905289,-0.20637305080890656,0.02253114990890026,0.08710581809282303,-0.46340495347976685,0.19878515601158142,1.2224256992340088,-0.014215856790542603,0.09347556531429291,0.208665132522583
1749056207.4747467,4.6332221031188965,-1.4742360201529046,-1.1685858964920044,-3.2956773243346156,-0.3047993818866175,4.1152238845825195,-0.23781585693359375,-0.12706826627254486,0.08715905994176865,-0.20710133016109467,0.023612897843122482,0.08618719130754471,-0.463826060295105,0.17369481921195984,1.2307790517807007,-0.022096047177910805,0.09020522981882095,0.18938875198364258
1749056207.4747846,4.632726669311523,-1.474412166779377,-1.168421745300293,-3.2961307964720667,-0.30472118059267217,4.115426063537598,-0.23754623532295227,-0.12664905190467834,0.08855979889631271,-0.20790889859199524,0.023151108995079994,0.0844598039984703,-0.4353385269641876,0.20147164165973663,1.2238247394561768,-0.022696316242218018,0.08498628437519073,0.21683530509471893
1749056207.4748218,4.632232189178467,-1.4746864226511498,-1.1682419776916504,-3.296568056146139,-0.30473071733583623,4.115612030029297,-0.23902985453605652,-0.12854322791099548,0.08864191174507141,-0.2126646488904953,0.022726861760020256,0.08513341099023819,-0.4501799941062927,0.19960209727287292,1.2351257801055908,-0.0007295310497283936,0.09511171281337738,0.21536684036254883
1749056207.4748592,4.631768226623535,-1.4749810856631775,-1.1680943965911865,-3.2970110378661097,-0.3046639601336878,4.115760326385498,-0.24007561802864075,-0.12935771048069,0.0874214768409729,-0.2103947103023529,0.023155678063631058,0.08707819133996964,-0.4716169238090515,0.2083166092634201,1.2600445747375488,-0.028764083981513977,0.08677038550376892,0.21145391464233398
1749056207.4749017,4.631276607513428,-1.475260169511177,-1.1679109334945679,-3.2974378071227015,-0.3045733610736292,4.115915775299072,-0.24283111095428467,-0.12865285575389862,0.08711707592010498,-0.21633224189281464,0.02186701074242592,0.08732865750789642,-0.4837163984775543,0.22260817885398865,1.2823600769042969,0.026162810623645782,0.09914454817771912,0.22764486074447632
1749056207.4749398,4.6307692527771,-1.4755052116564293,-1.167738437652588,-3.2978531322874964,-0.3046024481402796,4.1160759925842285,-0.24200671911239624,-0.1327708661556244,0.08677917718887329,-0.21563704311847687,0.022653143852949142,0.0883043110370636,-0.47265148162841797,0.24991649389266968,1.2964253425598145,0.0014871656894683838,0.10476204007863998,0.21870239078998566
1749056207.474978,4.630300998687744,-1.4758065727404137,-1.1675424575805664,-3.298284193078512,-0.3045547644244593,4.116235256195068,-0.24472439289093018,-0.12973466515541077,0.08782169967889786,-0.21555203199386597,0.023234868422150612,0.08884074538946152,-0.4957531988620758,0.20573046803474426,1.305559515953064,-0.013327434659004211,0.09660057723522186,0.2512124180793762
1749056207.475021,4.629798889160156,-1.4760569122484704,-1.1673592329025269,-3.2987028561034144,-0.3044651190387171,4.116418838500977,-0.24741828441619873,-0.1306249350309372,0.08982622623443604,-0.21786442399024963,0.024614598602056503,0.09127087891101837,-0.5002032518386841,0.20725809037685394,1.3105299472808838,-0.06301550567150116,0.09922507405281067,0.22978726029396057
1749056207.4750624,4.629274368286133,-1.476334573035576,-1.1671640872955322,-3.299156805078024,-0.3043902556048792,4.11662483215332,-0.25178250670433044,-0.13034504652023315,0.0918845385313034,-0.22042526304721832,0.026635877788066864,0.09267707169055939,-0.4676284193992615,0.20645999908447266,1.2852307558059692,-0.030498910695314407,0.08194953203201294,0.22144949436187744
1749056207.4750996,4.628791332244873,-1.4765721720508118,-1.1669878959655762,-3.2996260128416957,-0.3043611685382288,4.116800308227539,-0.252911776304245,-0.1305886209011078,0.09257688373327255,-0.22530663013458252,0.025889653712511063,0.09344302117824554,-0.4271983802318573,0.2059514820575714,1.2912343740463257,-0.029543928802013397,0.07346132397651672,0.22677025198936462
1749056207.475137,4.628310203552246,-1.4768705752542992,-1.166804552078247,-3.300045152703756,-0.30427867570985967,4.116995334625244,-0.25245994329452515,-0.1316404491662979,0.09677441418170929,-0.2259550541639328,0.025907985866069794,0.09473124891519547,-0.4722795784473419,0.19284096360206604,1.2610948085784912,-0.004807859659194946,0.07346651703119278,0.2094787061214447
1749056207.4752514,4.627732276916504,-1.4771155205420037,-1.1666282415390015,-3.3005100689330042,-0.3042805830584925,4.117225646972656,-0.2529222369194031,-0.13386547565460205,0.09489261358976364,-0.22675907611846924,0.023289408534765244,0.09362000972032547,-0.4727610945701599,0.20243851840496063,1.2780394554138184,-0.02395080029964447,0.09692756086587906,0.22463075816631317
1749056207.4764168,4.6272711753845215,-1.4774104219726105,-1.1663893461227417,-3.300945898095602,-0.30421764055360967,4.117389678955078,-0.2514152526855469,-0.13527770340442657,0.09871263802051544,-0.22642703354358673,0.023586520925164223,0.09662085026502609,-0.464344322681427,0.23919498920440674,1.2655928134918213,-0.014154292643070221,0.0994354635477066,0.2106957733631134
1749056207.5223534,4.62673282623291,-1.477686272268631,-1.1662009954452515,-3.301396509210104,-0.3041732946978968,4.117588996887207,-0.2544040381908417,-0.1363191306591034,0.09633177518844604,-0.2261115312576294,0.022819288074970245,0.09830057621002197,-0.4963328242301941,0.2547174394130707,1.2834744453430176,-0.04025019705295563,0.11632731556892395,0.18416891992092133
1749056207.5224016,4.626218318939209,-1.4779584196260949,-1.166032075881958,-3.3018466434874476,-0.3041031996356409,4.117799282073975,-0.2568041980266571,-0.1366681009531021,0.09690071642398834,-0.2273387908935547,0.02303110808134079,0.09487642347812653,-0.5248530507087708,0.23900887370109558,1.2772555351257324,-0.06461070477962494,0.10528942942619324,0.20476584136486053
1749056207.5224426,4.625670909881592,-1.4782042813352128,-1.1658247709274292,-3.3022786579527796,-0.30406219164003545,4.11799430847168,-0.2599553167819977,-0.13604439795017242,0.09848657250404358,-0.22938309609889984,0.024140948429703712,0.09467806667089462,-0.4651636779308319,0.262738972902298,1.2872217893600464,-0.0496828556060791,0.09085981547832489,0.21019670367240906
1749056207.5224814,4.6251630783081055,-1.4785113123110314,-1.165629506111145,-3.302749296227926,-0.30400258699526006,4.118138790130615,-0.2597781717777252,-0.1388200968503952,0.09853048622608185,-0.23174168169498444,0.024201391264796257,0.09631887078285217,-0.49897637963294983,0.2546691298484802,1.2815062999725342,-0.05179077014327049,0.09454807639122009,0.18900038301944733
1749056207.5225208,4.624632358551025,-1.4787633878043671,-1.1654139757156372,-3.3032032452025355,-0.3039820829974573,4.118357181549072,-0.26302167773246765,-0.13443516194820404,0.0990741103887558,-0.23513302206993103,0.02470581606030464,0.09842625260353088,-0.5041496753692627,0.20377987623214722,1.2718278169631958,-0.058225132524967194,0.09640249609947205,0.18858666718006134
1749056207.5225587,4.624112129211426,-1.4790581700256844,-1.1652216911315918,-3.3036605320372523,-0.3039310614215296,4.118563652038574,-0.26260361075401306,-0.1359848529100418,0.10023713856935501,-0.23564593493938446,0.023913338780403137,0.09443897008895874,-0.5120397806167603,0.19877803325653076,1.2925037145614624,-0.038270920515060425,0.11945632100105286,0.20454764366149902
1749056207.5225966,4.623580455780029,-1.4793305110982438,-1.165044903755188,-3.3041893444456996,-0.303870979939596,4.1187357902526855,-0.2672692835330963,-0.13919736444950104,0.10450901091098785,-0.23991945385932922,0.024222752079367638,0.09537047892808914,-0.47684332728385925,0.1924196034669876,1.2265074253082275,-0.040746573358774185,0.11561627686023712,0.2338258922100067
1749056207.5226345,4.623022079467773,-1.4796095576933403,-1.1648105382919312,-3.3046676121153773,-0.3038142363177698,4.118942737579346,-0.271038293838501,-0.13586626946926117,0.10209336876869202,-0.23657721281051636,0.024472946301102638,0.09733668714761734,-0.513840913772583,0.16945002973079681,1.2704304456710815,-0.0717410296201706,0.13516514003276825,0.2152213603258133
1749056207.5226722,4.622520446777344,-1.4798664835146447,-1.1645950078964233,-3.3051029644408167,-0.30372840562929326,4.119134426116943,-0.27241209149360657,-0.14020130038261414,0.10650634765625,-0.23846253752708435,0.025167781859636307,0.09804834425449371,-0.4537558853626251,0.25539630651474,1.2161039113998413,-0.07197394967079163,0.11384588479995728,0.2248094379901886
1749056207.52271,4.622000217437744,-1.4801783350161095,-1.1643671989440918,-3.305636545220846,-0.3037303129779261,4.119365215301514,-0.2682265341281891,-0.1415395885705948,0.10485801845788956,-0.24048712849617004,0.025846872478723526,0.09838292002677917,-0.48644566535949707,0.21444377303123474,1.2302253246307373,-0.08293288946151733,0.1096334159374237,0.22477608919143677
1749056207.522748,4.621488571166992,-1.4804269087365647,-1.1641706228256226,-3.306115289727682,-0.30367929140199834,4.119521141052246,-0.2704277038574219,-0.14363256096839905,0.10622638463973999,-0.2434501200914383,0.024847110733389854,0.09773799031972885,-0.5152342915534973,0.2396773099899292,1.2300910949707031,-0.06046319380402565,0.11315762996673584,0.22340673208236694
1749056207.5227852,4.620913982391357,-1.4807027590325852,-1.1639670133590698,-3.306629797021383,-0.303624455128805,4.119711399078369,-0.27513182163238525,-0.1441640704870224,0.10677053779363632,-0.2442806363105774,0.025031575933098793,0.09782039374113083,-0.5270102024078369,0.2584373950958252,1.2109227180480957,-0.06214670091867447,0.13985182344913483,0.24177029728889465
1749056207.5228229,4.6204023361206055,-1.481009454732277,-1.1637314558029175,-3.3071090183653773,-0.30362207094301397,4.119906902313232,-0.2771056890487671,-0.1440715789794922,0.10740361362695694,-0.24473918974399567,0.024476131424307823,0.0989692211151123,-0.4648902714252472,0.2416209876537323,1.2122985124588013,-0.03711342811584473,0.12547063827514648,0.24870143830776215
1749056207.522861,4.619827747344971,-1.4813196671060105,-1.163535237312317,-3.307634492913717,-0.3035510222064417,4.120086193084717,-0.2755368947982788,-0.1428597867488861,0.10745514184236526,-0.2458118349313736,0.025537943467497826,0.0994839146733284,-0.5223013758659363,0.21952810883522034,1.1988420486450195,-0.03567131608724594,0.1446027010679245,0.22954584658145905
1749056207.5229027,4.619327545166016,-1.481588476603367,-1.163299798965454,-3.3081447086729945,-0.3034556547748011,4.120309352874756,-0.2790507674217224,-0.14224295318126678,0.10861141979694366,-0.24415519833564758,0.026452062651515007,0.10073618590831757,-0.5366780757904053,0.18541723489761353,1.1986607313156128,-0.05867926776409149,0.13410092890262604,0.2450949251651764
1749056207.5229406,4.618762969970703,-1.4818537023714562,-1.1630916595458984,-3.308608194390768,-0.3034122625934046,4.120500087738037,-0.28148993849754333,-0.14407595992088318,0.1095649003982544,-0.24195322394371033,0.026839300990104675,0.10152339190244675,-0.488486111164093,0.16365543007850647,1.187364101409912,-0.06825748085975647,0.16492417454719543,0.25517237186431885
1749056207.5229788,4.6182355880737305,-1.4821572092226525,-1.1628683805465698,-3.309079786340231,-0.3033526579486292,4.120703220367432,-0.2849752902984619,-0.14666083455085754,0.1083347275853157,-0.24350962042808533,0.027220187708735466,0.10296128690242767,-0.5261242985725403,0.19941145181655884,1.1825332641601562,-0.10029537975788116,0.13434047996997833,0.23733702301979065
1749056207.5230165,4.6176018714904785,-1.4824832168272515,-1.1626595258712769,-3.30956568340444,-0.30332786241640264,4.120930194854736,-0.28836822509765625,-0.14599403738975525,0.10920044779777527,-0.24753038585186005,0.027241256088018417,0.10443174839019775,-0.5294210314750671,0.14599037170410156,1.1714175939559937,-0.11275488138198853,0.15227405726909637,0.24203582108020782
1749056207.5230536,4.61699914932251,-1.4827483382872124,-1.1624596118927002,-3.3100720844664515,-0.3032763640033167,4.121133327484131,-0.28742220997810364,-0.14993205666542053,0.10624464601278305,-0.25109201669692993,0.02774014137685299,0.10758653283119202,-0.5324481725692749,0.21423175930976868,1.2121922969818115,-0.1216333657503128,0.1490468829870224,0.2309306114912033
1749056207.5230908,4.61644983291626,-1.4830744949034234,-1.16222083568573,-3.310617586175436,-0.30320912996401006,4.121356964111328,-0.28919294476509094,-0.15207114815711975,0.1087685078382492,-0.25210660696029663,0.027612173929810524,0.11129044741392136,-0.5396732091903687,0.19525718688964844,1.1960551738739014,-0.10022443532943726,0.17197935283184052,0.18070846796035767
1749056207.5231285,4.6158671379089355,-1.4833633762649079,-1.1619935035705566,-3.3111468754210414,-0.30320436159242803,4.1216020584106445,-0.2943606674671173,-0.15245100855827332,0.10794320702552795,-0.2579309940338135,0.02785504050552845,0.10821844637393951,-0.5252445936203003,0.23527121543884277,1.2111958265304565,-0.0636754035949707,0.16855353116989136,0.20235556364059448
1749056207.523173,4.615260601043701,-1.4836357098868866,-1.161765456199646,-3.311610361138815,-0.3031066099749964,4.121778964996338,-0.29498720169067383,-0.15315580368041992,0.10936835408210754,-0.2557787001132965,0.027820033952593803,0.10825223475694656,-0.5250499844551086,0.24457484483718872,1.2089346647262573,-0.09610587358474731,0.18073707818984985,0.21995502710342407
1749056207.523281,4.614641189575195,-1.4839544308236619,-1.1615417003631592,-3.3121286831297816,-0.30305463472475225,4.121990203857422,-0.29511314630508423,-0.15432892739772797,0.11045922338962555,-0.25635623931884766,0.0294970516115427,0.11052199453115463,-0.5149640440940857,0.21460580825805664,1.2068495750427246,-0.11766256392002106,0.16694681346416473,0.1955830603837967
1749056207.5253973,4.614065647125244,-1.4842820179513474,-1.1613370180130005,-3.312686105767721,-0.30300599733461553,4.122193336486816,-0.2955656945705414,-0.15159112215042114,0.11117010563611984,-0.25673359632492065,0.030743928626179695,0.11255491524934769,-0.5675630569458008,0.17899355292320251,1.197190523147583,-0.12271289527416229,0.16765721142292023,0.18742738664150238
1749056207.570313,4.6134538650512695,-1.4845900547555466,-1.161152720451355,-3.313188215295309,-0.302953068410055,4.122427940368652,-0.298366516828537,-0.1525305062532425,0.11022108793258667,-0.2624290883541107,0.03226055949926376,0.10946926474571228,-0.4955849349498749,0.1805739849805832,1.2169411182403564,-0.08656598627567291,0.16026464104652405,0.21040108799934387
1749056207.5703623,4.612890243530273,-1.4848758441260834,-1.160909652709961,-3.3137079677977503,-0.302866284047262,4.122643947601318,-0.29915398359298706,-0.1533726155757904,0.11099231988191605,-0.2660071849822998,0.03221770375967026,0.10974866151809692,-0.5358624458312988,0.17735618352890015,1.2220605611801147,-0.1035429984331131,0.14873164892196655,0.20929881930351257
1749056207.5704055,4.612262725830078,-1.485179403131344,-1.1606743335723877,-3.3142501316466273,-0.302774731312887,4.122874736785889,-0.29995962977409363,-0.15624581277370453,0.10773507505655289,-0.2690487802028656,0.03168828785419464,0.10975993424654007,-0.4916771650314331,0.17975348234176636,1.2539029121398926,-0.07329438626766205,0.1635054647922516,0.21923601627349854
1749056207.570445,4.61169958114624,-1.4855256763151665,-1.1604745388031006,-3.314773222009176,-0.3027103582965296,4.1231160163879395,-0.3015327751636505,-0.15763649344444275,0.11117829382419586,-0.2678934931755066,0.03180854022502899,0.10965439677238464,-0.47282862663269043,0.21774807572364807,1.2463726997375488,-0.06696238368749619,0.13763320446014404,0.22778232395648956
1749056207.5704842,4.6110992431640625,-1.4858185958913346,-1.1602555513381958,-3.3153230152525843,-0.3026345411883753,4.123342990875244,-0.3050704002380371,-0.1591760218143463,0.11033210158348083,-0.2662500739097595,0.031896959990262985,0.10903561115264893,-0.4653962254524231,0.24069292843341827,1.2396408319473267,-0.09350720047950745,0.13165515661239624,0.2078978270292282
1749056207.5705273,4.610484600067139,-1.486154006128647,-1.1600306034088135,-3.315849920312399,-0.30258256593813115,4.123554706573486,-0.30414387583732605,-0.1593005359172821,0.1117827370762825,-0.26518192887306213,0.03214244917035103,0.1094137504696846,-0.5035186409950256,0.18169155716896057,1.2621806859970093,-0.09794698655605316,0.12872260808944702,0.22035521268844604
1749056207.5705667,4.6098456382751465,-1.4864763629487534,-1.1597989797592163,-3.3164035282530726,-0.3025262991534632,4.123762607574463,-0.3086109459400177,-0.1598302274942398,0.11272498220205307,-0.2699221670627594,0.03103732131421566,0.10978338867425919,-0.4927942156791687,0.237990140914917,1.2418867349624634,-0.11344198137521744,0.13445523381233215,0.22036005556583405
1749056207.5706043,4.609257221221924,-1.4868242231062432,-1.159595251083374,-3.3169924221434535,-0.30244666734804326,4.123996734619141,-0.30884528160095215,-0.15708544850349426,0.11249390244483948,-0.27678370475769043,0.031195560470223427,0.10917040705680847,-0.45337891578674316,0.2266949564218521,1.2446800470352173,-0.07033292949199677,0.12567004561424255,0.2175598442554474
1749056207.5706425,4.6086344718933105,-1.4871360671571274,-1.1593869924545288,-3.3175202808775843,-0.3023913542376917,4.124263286590576,-0.3094385862350464,-0.15745827555656433,0.11148537695407867,-0.2777627408504486,0.02889489196240902,0.11306939274072647,-0.44806966185569763,0.1874849796295166,1.2672052383422852,-0.012890949845314026,0.12896054983139038,0.19892314076423645
1749056207.5706837,4.608011245727539,-1.487459847038128,-1.159151554107666,-3.318101545373434,-0.3023431936847132,4.124443531036377,-0.3097442090511322,-0.1596534699201584,0.11016673594713211,-0.27906346321105957,0.027940141037106514,0.11117489635944366,-0.46022239327430725,0.19508352875709534,1.3052971363067627,0.006384365260601044,0.13465775549411774,0.19073931872844696
1749056207.5707223,4.607354640960693,-1.4877885145,-1.1589045524597168,-3.3186403713622035,-0.3023112455951136,4.1246442794799805,-0.31146126985549927,-0.16229698061943054,0.11270139366388321,-0.2733163833618164,0.026605596765875816,0.10935115069150925,-0.5095272660255432,0.21869313716888428,1.291559100151062,-0.022694803774356842,0.1480928361415863,0.20740708708763123
1749056207.5707603,4.606691360473633,-1.4880968791297455,-1.1586685180664062,-3.319178720513815,-0.30221635500063115,4.124882221221924,-0.3107262849807739,-0.16130000352859497,0.11587449163198471,-0.2702274024486542,0.027880070731043816,0.10918838530778885,-0.4225924611091614,0.21612456440925598,1.2773665189743042,-0.05131152272224426,0.14591406285762787,0.20931385457515717
1749056207.570798,4.606106281280518,-1.488467165534832,-1.1584564447402954,-3.3197180233397425,-0.30218774477113897,4.1251091957092285,-0.3080470561981201,-0.16211052238941193,0.11596938222646713,-0.2681773900985718,0.028113633394241333,0.11263689398765564,-0.462462842464447,0.22736909985542297,1.2689826488494873,-0.06499668955802917,0.14847195148468018,0.20546233654022217
1749056207.5708394,4.605529308319092,-1.4887719836882134,-1.158235788345337,-3.3202439747252406,-0.30210858980287725,4.125339984893799,-0.3098466992378235,-0.16278882324695587,0.11916851997375488,-0.27091237902641296,0.02960103191435337,0.1114327535033226,-0.4788283705711365,0.255607008934021,1.252540111541748,-0.0634469985961914,0.1371777504682541,0.20606806874275208
1749056207.570905,4.604867458343506,-1.4891234424761315,-1.157984972000122,-3.3207818470396937,-0.30201799074281865,4.125574111938477,-0.31204649806022644,-0.1608644276857376,0.11748232692480087,-0.27476614713668823,0.029591554775834084,0.11015419661998749,-0.4611544609069824,0.24693791568279266,1.256489872932434,-0.06676310300827026,0.15134508907794952,0.22739017009735107
1749056207.5709715,4.604228496551514,-1.4894300934723397,-1.1577523946762085,-3.32137455562734,-0.3020289579974573,4.1258134841918945,-0.3110068440437317,-0.15991859138011932,0.11778172105550766,-0.2756405174732208,0.031188691034913063,0.11155300587415695,-0.45536723732948303,0.24777404963970184,1.253699779510498,-0.04051952064037323,0.11963555216789246,0.22129184007644653
1749056207.5710409,4.6035871505737305,-1.489738480453827,-1.1574972867965698,-3.3218709431090296,-0.30191022554506475,4.126012802124023,-0.3099738657474518,-0.16004955768585205,0.11717855930328369,-0.2752004861831665,0.03008604608476162,0.1119161993265152,-0.4608728587627411,0.24335549771785736,1.2540576457977295,-0.04368121549487114,0.14739179611206055,0.21177396178245544
1749056207.5711076,4.602970600128174,-1.4901085507920762,-1.1572692394256592,-3.322428365746969,-0.30189735094179326,4.126270771026611,-0.30943238735198975,-0.16249322891235352,0.11942019313573837,-0.2765006721019745,0.02953527867794037,0.11179707199335098,-0.5119479894638062,0.22367218136787415,1.248516321182251,-0.061972446739673615,0.16064974665641785,0.24888840317726135
1749056207.5711732,4.602319717407227,-1.490398259168007,-1.1570262908935547,-3.322975297967428,-0.30184919038881475,4.126466751098633,-0.3135371506214142,-0.16483578085899353,0.12016219645738602,-0.2781047821044922,0.028880978003144264,0.11149811744689941,-0.4765932559967041,0.2629341185092926,1.220879077911377,-0.05319233238697052,0.14009256660938263,0.2199007272720337
1749056207.5712402,4.601689338684082,-1.4907028538039704,-1.156797170639038,-3.323564668694967,-0.3018119970904749,4.1266937255859375,-0.31293347477912903,-0.16175879538059235,0.11989540606737137,-0.27985233068466187,0.03007720783352852,0.11206419765949249,-0.47980213165283203,0.2236788123846054,1.233034372329712,-0.05958228558301926,0.15758907794952393,0.227085143327713
1749056207.57131,4.601040840148926,-1.4910580453327675,-1.1565581560134888,-3.324093004266256,-0.30169517198671514,4.126916885375977,-0.3118417263031006,-0.16289468109607697,0.12074590474367142,-0.28441253304481506,0.030770419165492058,0.11387711018323898,-0.4489660859107971,0.2536056637763977,1.2083253860473633,0.0015393197536468506,0.17273643612861633,0.22675403952598572
1749056207.5713775,4.600508213043213,-1.491355025475361,-1.1562985181808472,-3.324677129785055,-0.30163509050478154,4.127116680145264,-0.3118492662906647,-0.1624707132577896,0.12282849103212357,-0.2863805294036865,0.031639330089092255,0.11347732692956924,-0.5056732892990112,0.21231414377689362,1.2165374755859375,0.0024843066930770874,0.16033458709716797,0.23034052550792694
1749056207.571568,4.599813461303711,-1.4917098817280312,-1.1560310125350952,-3.3252788982787074,-0.30158740678896123,4.127370834350586,-0.3150399923324585,-0.16191087663173676,0.12104519456624985,-0.2820306420326233,0.03250666335225105,0.11354102939367294,-0.4535064697265625,0.2325289249420166,1.186121940612793,0.022766515612602234,0.1673559993505478,0.2236403524875641
1749056207.5724366,4.599197864532471,-1.4920099464109917,-1.1557948589324951,-3.3258067570128382,-0.30149633089174444,4.127583026885986,-0.31453293561935425,-0.1623140275478363,0.12140880525112152,-0.28075936436653137,0.03187740594148636,0.11352209746837616,-0.4135729968547821,0.22048477828502655,1.1838054656982422,-0.0009511113166809082,0.16050580143928528,0.21950188279151917
1749056207.6183698,4.598546981811523,-1.492328741853573,-1.1555392742156982,-3.3263493976988734,-0.30148250261415654,4.127852916717529,-0.3116490840911865,-0.15934927761554718,0.12019562721252441,-0.2790713906288147,0.032725073397159576,0.11378501355648041,-0.4161655902862549,0.1882977932691574,1.170972466468811,0.0026310980319976807,0.14850027859210968,0.21173623204231262
1749056207.6184165,4.5979390144348145,-1.4926490050605317,-1.1553187370300293,-3.326895376245016,-0.3013675848590296,4.128095626831055,-0.31015193462371826,-0.1613764464855194,0.11788418889045715,-0.278486430644989,0.03257644176483154,0.11398770660161972,-0.4796562194824219,0.22487705945968628,1.2160942554473877,-0.013289278373122215,0.14266717433929443,0.21687638759613037
1749056207.6184573,4.5972771644592285,-1.492964619105198,-1.1550716161727905,-3.327477117578024,-0.3012922445880335,4.1282877922058105,-0.31229424476623535,-0.1638379991054535,0.11745653301477432,-0.2759630084037781,0.03455538675189018,0.11766254156827927,-0.49150675535202026,0.22209636867046356,1.2016688585281372,-0.02693931758403778,0.14232321083545685,0.19743993878364563
1749056207.6184964,4.596636772155762,-1.4932589319399376,-1.1548198461532593,-3.3280207119383753,-0.30123979250063115,4.128534317016602,-0.3140066862106323,-0.16483476758003235,0.11823184043169022,-0.28013181686401367,0.03367026150226593,0.11553088575601578,-0.5047870874404907,0.19881759583950043,1.2028024196624756,-0.02269168198108673,0.13121695816516876,0.198383629322052
1749056207.6185358,4.596048831939697,-1.4936204639128228,-1.1545807123184204,-3.328594823876852,-0.30120689073671514,4.12874174118042,-0.3139132559299469,-0.16591700911521912,0.11856069415807724,-0.27992039918899536,0.03271530196070671,0.11335740983486176,-0.42021819949150085,0.25145605206489563,1.211120843887329,0.003210403025150299,0.09789250791072845,0.21855522692203522
1749056207.6185737,4.59536600112915,-1.4939634290388604,-1.154344081878662,-3.3291689358153285,-0.3011511007892054,4.128977298736572,-0.3148154020309448,-0.16496118903160095,0.11718827486038208,-0.27702659368515015,0.03199892118573189,0.11296374350786209,-0.49361318349838257,0.24158495664596558,1.2122373580932617,-0.010737046599388123,0.1295192688703537,0.22279350459575653
1749056207.618612,4.594781398773193,-1.4942183059505005,-1.154076337814331,-3.329726358453268,-0.30105334917177373,4.129239082336426,-0.31658339500427246,-0.16240309178829193,0.11886148154735565,-0.27634698152542114,0.03101414255797863,0.11635243892669678,-0.3983500897884369,0.22729575634002686,1.2083830833435059,-0.013996109366416931,0.11606419086456299,0.19492067396640778
1749056207.6186492,4.594075679779053,-1.494560958152153,-1.1538647413253784,-3.330226560632223,-0.30098086992372686,4.129508972167969,-0.313047856092453,-0.1598794162273407,0.11610019952058792,-0.27585673332214355,0.03107014112174511,0.11246629059314728,-0.37553659081459045,0.20630303025245667,1.227968454360962,-0.024024661630392075,0.1316707879304886,0.21517249941825867
1749056207.6186917,4.594075679779053,-1.494560958152153,-1.1538647413253784,-3.330226560632223,-0.30098086992372686,4.129508972167969,-0.313047856092453,-0.1598794162273407,0.11610019952058792,-0.27585673332214355,0.03107014112174511,0.11246629059314728,-0.37553659081459045,0.20630303025245667,1.227968454360962,-0.024024661630392075,0.1316707879304886,0.21517249941825867
1749056207.6187308,4.592920780181885,-1.495270812218525,-1.1533812284469604,-3.3313733539977015,-0.30088788667787725,4.129912853240967,-0.31149521470069885,-0.15890102088451385,0.1155763491988182,-0.27808988094329834,0.03121005930006504,0.11156794428825378,-0.4665957987308502,0.147954523563385,1.2468767166137695,-0.029077328741550446,0.12543347477912903,0.22483669221401215
1749056207.618769,4.59225606918335,-1.4955978480032464,-1.1531574726104736,-3.331881185571188,-0.3007705847369593,4.13015079498291,-0.31391361355781555,-0.16381701827049255,0.11665739119052887,-0.27672624588012695,0.030449150130152702,0.11114833503961563,-0.454865425825119,0.20591557025909424,1.2287144660949707,-0.017453212291002274,0.12562483549118042,0.23632146418094635
1749056207.6188064,4.591616153717041,-1.4959077176502724,-1.1529420614242554,-3.3324505291380824,-0.3007763067828577,4.130398273468018,-0.3167361617088318,-0.16548652946949005,0.11664320528507233,-0.27642908692359924,0.031078249216079712,0.11139488965272903,-0.43957406282424927,0.22760175168514252,1.2255876064300537,-0.030813157558441162,0.12318865954875946,0.23109552264213562
1749056207.6188433,4.590979099273682,-1.496247024541237,-1.1527177095413208,-3.3330046139159144,-0.3006966749774378,4.130601406097412,-0.3132093548774719,-0.1682886928319931,0.11576161533594131,-0.2765241861343384,0.029925020411610603,0.11073960363864899,-0.40029704570770264,0.2945674955844879,1.244602084159851,-0.04206901788711548,0.11965134739875793,0.22043293714523315
1749056207.6188848,4.590370178222656,-1.4965675261667748,-1.1524710655212402,-3.3335520229735316,-0.3006327787982386,4.130828380584717,-0.3107184171676636,-0.16794219613075256,0.11869607865810394,-0.2770799696445465,0.030187446624040604,0.11025051027536392,-0.44815486669540405,0.28421300649642944,1.2133526802062988,-0.048566244542598724,0.12481274455785751,0.22297854721546173
1749056207.6189232,4.589782238006592,-1.4969102156213303,-1.1522160768508911,-3.3340827427306117,-0.30053455034364873,4.131024360656738,-0.3132166266441345,-0.16358748078346252,0.11452055722475052,-0.2797028124332428,0.028745166957378387,0.11325915157794952,-0.49506402015686035,0.2522563934326172,1.2495423555374146,-0.02606295607984066,0.12724436819553375,0.23085838556289673
1749056207.6189604,4.589119911193848,-1.4972577852061768,-1.1519955396652222,-3.3346673450865687,-0.3004868666278284,4.131270408630371,-0.3150005042552948,-0.16164131462574005,0.11632005125284195,-0.28257569670677185,0.028611768037080765,0.11327969282865524,-0.4522949457168579,0.218451589345932,1.2567129135131836,-0.04161886125802994,0.13244295120239258,0.20684102177619934
1749056207.6189978,4.588559150695801,-1.4975521650961419,-1.151802659034729,-3.335174699822897,-0.30041534105409795,4.131470203399658,-0.31334152817726135,-0.1596803218126297,0.11429573595523834,-0.28075262904167175,0.028082208707928658,0.10997186601161957,-0.45451709628105164,0.21305367350578308,1.2658014297485352,-0.023419953882694244,0.1452368199825287,0.24142462015151978
