nimar13/UR3e_dataset_trayectorias/trayectorias_ejecutadas/trapezoidal_func/trayectoria_011_result.csv
timestamp,q1,q2,q3,q4,q5,q6,qd1,qd2,qd3,qd4,qd5,qd6,tau1,tau2,tau3,tau4,tau5,tau6
1749053725.9383132,5.238813400268555,-1.5005957272699852,1.4508636633502405,-4.1275464497008265,-5.118042890225546,5.153865337371826,-0.001341889495961368,0.00031436982681043446,0.0002007139555644244,-0.0002757729380391538,0.0004709189524874091,-0.0036870152689516544,-0.3035823106765747,-0.30587565898895264,-0.5176694989204407,0.4231061637401581,0.11610418558120728,0.042452145367860794
1749053725.938359,5.238831996917725,-1.5006300520947953,1.4508865515338343,-4.1275464497008265,-5.11803919473757,5.153881072998047,-0.0012002801522612572,0.0004351571260485798,0.0001921488728839904,-0.0002255822764709592,0.0004659868136513978,-0.0031875271815806627,-0.31972235441207886,-0.31601932644844055,-0.5256220102310181,0.42724940180778503,0.1103123277425766,0.014669083058834076
1749053725.9383984,5.238763809204102,-1.5006076780012627,1.4508321920977991,-4.127562662164205,-5.118016544972555,5.153873443603516,-0.0010496985632926226,0.0005256301956251264,0.00017702170589473099,-0.00022681699192617089,0.00048195532872341573,-0.0026623448356986046,-0.3199750781059265,-0.2913854718208313,-0.5218896269798279,0.4229619801044464,0.10775040090084076,0.0009428337216377258
1749053725.9384427,5.238763809204102,-1.5006076780012627,1.4508321920977991,-4.127562662164205,-5.118016544972555,5.153873443603516,-0.0010496985632926226,0.0005256301956251264,0.00017702170589473099,-0.00022681699192617089,0.00048195532872341573,-0.0026623448356986046,-0.3199750781059265,-0.2913854718208313,-0.5218896269798279,0.4229619801044464,0.10775040090084076,0.0009428337216377258
1749053725.9384818,5.238824844360352,-1.5005922851017495,1.4508479277240198,-4.127566476861471,-5.118000690137045,5.153853416442871,-0.0009575343574397266,0.0005529441987164319,0.00017032619507517666,-0.00026363294455222785,0.0004598596424330026,-0.0026680820155888796,-0.3596717119216919,-0.31611165404319763,-0.5334759950637817,0.42284876108169556,0.10564236342906952,0.017191804945468903
1749053725.9385223,5.238813400268555,-1.5006076705506821,1.4508517424212855,-4.127550264398092,-5.118058387433187,5.15383768081665,-0.0016864195931702852,0.0010911484714597464,0.0001583331177243963,-0.0012240782380104065,0.0004809706879314035,-0.003406516509130597,-0.32890790700912476,-0.2881025969982147,-0.504168689250946,0.40856724977493286,0.1123783141374588,0.008975915610790253
1749053725.9385598,5.238813400268555,-1.5006076705506821,1.4508517424212855,-4.127550264398092,-5.118058387433187,5.15383768081665,-0.0016864195931702852,0.0010911484714597464,0.0001583331177243963,-0.0012240782380104065,0.0004809706879314035,-0.003406516509130597,-0.32890790700912476,-0.2881025969982147,-0.504168689250946,0.40856724977493286,0.1123783141374588,0.008975915610790253
1749053725.938596,5.238804817199707,-1.500583828692772,1.4508355299579065,-4.12754287342214,-5.118011538182394,5.153834342956543,-0.0017306182999163866,0.0010938808554783463,0.00015295547200366855,-0.0020624627359211445,0.00048373048775829375,-0.003331988351419568,-0.309052050113678,-0.31472697854042053,-0.5264530777931213,0.4206885099411011,0.11419768631458282,0.021470770239830017
1749053725.9386327,5.238762855529785,-1.500590832238533,1.4508636633502405,-4.127559085885519,-5.11803919473757,5.153841495513916,-0.0016848770901560783,0.0013586365384981036,0.00014321404160000384,-0.001640202128328383,0.0005963384755887091,-0.002673886716365814,-0.3361479938030243,-0.3226812481880188,-0.5241658687591553,0.41726797819137573,0.12111890316009521,-0.002813875675201416
1749053725.9386692,5.238762855529785,-1.500590832238533,1.4508636633502405,-4.127559085885519,-5.11803919473757,5.153841495513916,-0.0016848770901560783,0.0013586365384981036,0.00014321404160000384,-0.001640202128328383,0.0005963384755887091,-0.002673886716365814,-0.3361479938030243,-0.3226812481880188,-0.5241658687591553,0.41726797819137573,0.12111890316009521,-0.002813875675201416
1749053725.9387062,5.238792896270752,-1.5005908545902749,1.4508479277240198,-4.12758268932485,-5.118016544972555,5.153829574584961,-0.0019943183287978172,0.0017371645662933588,0.00015459037967957556,-0.0014658852014690638,0.0006204392993822694,-0.0020202535670250654,-0.3268982470035553,-0.2860063314437866,-0.5117053985595703,0.43243804574012756,0.11189970374107361,0.015500836074352264
1749053725.938743,5.238792896270752,-1.5005908545902749,1.4508479277240198,-4.12758268932485,-5.118016544972555,5.153829574584961,-0.0019943183287978172,0.0017371645662933588,0.00015459037967957556,-0.0014658852014690638,0.0006204392993822694,-0.0020202535670250654,-0.3268982470035553,-0.2860063314437866,-0.5117053985595703,0.43243804574012756,0.11189970374107361,0.015500836074352264
1749053725.9387848,5.23883581161499,-1.5006146144917984,1.450855557118551,-4.127586504022116,-5.117992345486776,5.153822422027588,-0.0026007017586380243,0.0016018437454476953,0.00015642133075743914,-0.0016158510698005557,0.0006370448390953243,-0.0017311052652075887,-0.3034957945346832,-0.30035069584846497,-0.5117146372795105,0.425804078578949,0.12328971922397614,0.01239342987537384
1749053725.9388225,5.238765239715576,-1.5006062549403687,1.4508479277240198,-4.1275745830931605,-5.117999617253439,5.153833389282227,-0.002358400961384177,0.0016615442000329494,0.00014826406550128013,-0.0015204936498776078,0.0007969883154146373,-0.001552122412249446,-0.3061789870262146,-0.3049279451370239,-0.5050147771835327,0.41059333086013794,0.11923588812351227,0.01990562677383423
1749053725.9388592,5.238765239715576,-1.5006062549403687,1.4508479277240198,-4.1275745830931605,-5.117999617253439,5.153833389282227,-0.002358400961384177,0.0016615442000329494,0.00014826406550128013,-0.0015204936498776078,0.0007969883154146373,-0.001552122412249446,-0.3061789870262146,-0.3049279451370239,-0.5050147771835327,0.41059333086013794,0.11923588812351227,0.01990562677383423
1749053725.9389,5.2387614250183105,-1.5005646285465737,1.4508479277240198,-4.127593656579489,-5.1180129686938685,5.1538214683532715,-0.0018701659282669425,0.0018490160582587123,0.00014429989096242934,-0.0014465971617028117,0.0007895830203779042,-0.0013703600270673633,-0.32286912202835083,-0.2778286933898926,-0.5061028599739075,0.4158809185028076,0.11243364959955215,-0.003901243209838867
1749053725.9389374,5.238777160644531,-1.5005943340114136,1.4508479277240198,-4.127595325509542,-5.118011538182394,5.153848648071289,-0.00161853083409369,0.0023547597229480743,0.00015828297182451934,-0.001246112515218556,0.0008605302427895367,-0.001055656117387116,-0.33508679270744324,-0.3005063831806183,-0.5091919898986816,0.40028154850006104,0.11752433329820633,0.006834298372268677
1749053725.9389734,5.238777160644531,-1.5005943340114136,1.4508479277240198,-4.127595325509542,-5.118011538182394,5.153848648071289,-0.00161853083409369,0.0023547597229480743,0.00015828297182451934,-0.001246112515218556,0.0008605302427895367,-0.001055656117387116,-0.33508679270744324,-0.3005063831806183,-0.5091919898986816,0.40028154850006104,0.11752433329820633,0.006834298372268677
1749053725.9390135,5.238733768463135,-1.50054436296735,1.4508517424212855,-4.1276027164854945,-5.117980543767111,5.153782844543457,-0.001775725046172738,0.0023292049299925566,0.00015575523138977587,-0.001058877445757389,0.0009678435744717717,-0.0010038946056738496,-0.31902724504470825,-0.3088259696960449,-0.4996494948863983,0.41653019189834595,0.10923326760530472,0.01888275146484375
1749053725.93905,5.238729953765869,-1.500573681001999,1.4508355299579065,-4.127595325509542,-5.118007842694418,5.153836727142334,-0.001902062096633017,0.0022778548300266266,0.00016954774037003517,-0.001022531185299158,0.0009675335022620857,-0.0007773467223159969,-0.32903894782066345,-0.30623459815979004,-0.49280989170074463,0.4028933644294739,0.11562279611825943,0.02291788160800934
1749053725.939087,5.238729953765869,-1.500573681001999,1.4508355299579065,-4.127595325509542,-5.118007842694418,5.153836727142334,-0.001902062096633017,0.0022778548300266266,0.00016954774037003517,-0.001022531185299158,0.0009675335022620857,-0.0007773467223159969,-0.32903894782066345,-0.30623459815979004,-0.49280989170074463,0.4028933644294739,0.11562279611825943,0.02291788160800934
1749053725.9391232,5.238784313201904,-1.5005820778063317,1.4508636633502405,-4.1276027164854945,-5.117992345486776,5.15381383895874,-0.0018067414639517665,0.0021353396587073803,0.00011474954226287082,-0.0010948280105367303,0.00088190205860883,-0.00069214659743011,-0.3199009299278259,-0.2908029556274414,-0.5102541446685791,0.40292155742645264,0.10261974483728409,0.018506638705730438
1749053725.9394128,5.238784313201904,-1.5005820778063317,1.4508636633502405,-4.1276027164854945,-5.117992345486776,5.15381383895874,-0.0018067414639517665,0.0021353396587073803,0.00011474954226287082,-0.0010948280105367303,0.00088190205860883,-0.00069214659743011,-0.3199009299278259,-0.2908029556274414,-0.5102541446685791,0.40292155742645264,0.10261974483728409,0.018506638705730438
1749053725.9414654,5.238722324371338,-1.5005463895252724,1.4508355299579065,-4.127598901788229,-5.117965046559469,5.153817653656006,-0.0013750719372183084,0.0021961687598377466,0.00016315013635903597,-0.001296496600843966,0.0007490979041904211,-0.0005671156104654074,-0.28620290756225586,-0.30739519000053406,-0.48658981919288635,0.4079158902168274,0.10153760761022568,0.022955816239118576
1749053725.9862952,5.238779544830322,-1.5005583328059693,1.4508526960956019,-4.127629896203512,-5.118034545575277,5.153824806213379,-0.0014057497028261423,0.002686738967895508,0.001007986138574779,-0.0013916752068325877,0.0007201529806479812,-0.000520163681358099,-0.31591179966926575,-0.3033543825149536,-0.500071108341217,0.4260585606098175,0.10023153573274612,0.022404514253139496
1749053725.9863403,5.23871374130249,-1.5004879769733925,1.4508636633502405,-4.1276263199248255,-5.118006769810812,5.153801918029785,-0.00128091499209404,0.00236998638138175,0.001230475609190762,-0.001527805463410914,0.0006031992379575968,-0.0004462843935471028,-0.3129517138004303,-0.301331490278244,-0.49477019906044006,0.40709611773490906,0.09430194646120071,0.03570237010717392
1749053725.9863799,5.23871374130249,-1.5004879769733925,1.4508636633502405,-4.1276263199248255,-5.118006769810812,5.153801918029785,-0.00128091499209404,0.00236998638138175,0.001230475609190762,-0.001527805463410914,0.0006031992379575968,-0.0004462843935471028,-0.3129517138004303,-0.301331490278244,-0.49477019906044006,0.40709611773490906,0.09430194646120071,0.03570237010717392
1749053725.9864173,5.238722324371338,-1.5005341556719323,1.4508755842791956,-4.127638240853781,-5.117999617253439,5.153809547424316,-0.001168885501101613,0.002157842507585883,0.001073930412530899,-0.0017969099571928382,0.0006163683137856424,-0.00041671967483125627,-0.32608866691589355,-0.3017670512199402,-0.5082349181175232,0.4054478108882904,0.1108502522110939,0.027381572872400284
1749053725.986455,5.238722324371338,-1.5005341556719323,1.4508755842791956,-4.127622743646139,-5.117968622838156,5.153805732727051,-0.0010262118885293603,0.0020332741551101208,0.0010125950211659074,-0.0023308845702558756,0.000572943827137351,-0.0003908287617377937,-0.3129526972770691,-0.3051984906196594,-0.49935081601142883,0.41058823466300964,0.10672856122255325,0.025159649550914764
1749053725.9864964,5.238713264465332,-1.5004998979023476,1.4508793989764612,-4.127665658990377,-5.117979470883505,5.1537675857543945,-0.0010138473007827997,0.001800437574274838,0.0009558935416862369,-0.0024502137675881386,0.0005272417911328375,-0.0003679612709674984,-0.32997581362724304,-0.2997015714645386,-0.49078845977783203,0.42470672726631165,0.0947902575135231,0.0345798134803772
1749053725.9865346,5.238757133483887,-1.5005152982524415,1.450859848652975,-4.127638240853781,-5.117980543767111,5.1538262367248535,-0.002178794937208295,0.0021324215922504663,0.0008435265626758337,-0.0021479595452547073,0.0005110055790282786,-0.00032944302074611187,-0.3204650282859802,-0.3126858174800873,-0.5028624534606934,0.40936151146888733,0.10436198860406876,0.015719689428806305
1749053725.9865718,5.238757133483887,-1.5005152982524415,1.450859848652975,-4.127638240853781,-5.117980543767111,5.1538262367248535,-0.002178794937208295,0.0021324215922504663,0.0008435265626758337,-0.0021479595452547073,0.0005110055790282786,-0.00032944302074611187,-0.3204650282859802,-0.3126858174800873,-0.5028624534606934,0.40936151146888733,0.10436198860406876,0.015719689428806305
1749053725.9866078,5.238694667816162,-1.500484549706318,1.4508755842791956,-4.127662082711691,-5.118030969296591,5.153786659240723,-0.003390837926417589,0.0018907289486378431,0.0008424578700214624,-0.0017922327388077974,0.0004808820958714932,-0.0003130510449409485,-0.3573783338069916,-0.3514655530452728,-0.49892231822013855,0.41764694452285767,0.09854767471551895,0.0170140340924263
1749053725.986645,5.238694667816162,-1.5004914563945313,1.4508755842791956,-4.127631088296408,-5.118006769810812,5.153782844543457,-0.004851438105106354,0.0011442924151197076,0.00069275131681934,-0.0012965102214366198,0.0004248088225722313,-0.000284736102912575,-0.34289446473121643,-0.33854085206985474,-0.5144743323326111,0.4319562613964081,0.037147946655750275,0.012218251824378967
1749053725.986682,5.238694667816162,-1.5004914563945313,1.4508755842791956,-4.127631088296408,-5.118006769810812,5.153782844543457,-0.004851438105106354,0.0011442924151197076,0.00069275131681934,-0.0012965102214366198,0.0004248088225722313,-0.000284736102912575,-0.34289446473121643,-0.33854085206985474,-0.5144743323326111,0.4319562613964081,0.037147946655750275,0.012218251824378967
1749053725.9867182,5.238724231719971,-1.5005222347429772,1.4508755842791956,-4.127669235269064,-5.11799127260317,5.153798580169678,-0.005761036183685064,0.0006064228946343064,0.0005110213533043861,-0.0009228941053152084,0.00037998883635737,-0.00029391187126748264,-0.33845311403274536,-0.379209041595459,-0.5207345485687256,0.44260165095329285,0.028909586369991302,0.020894207060337067
1749053725.9867551,5.238724231719971,-1.5005222347429772,1.4508755842791956,-4.127669235269064,-5.11799127260317,5.153798580169678,-0.005761036183685064,0.0006064228946343064,0.0005110213533043861,-0.0009228941053152084,0.00037998883635737,-0.00029391187126748264,-0.33845311403274536,-0.379209041595459,-0.5207345485687256,0.44260165095329285,0.028909586369991302,0.020894207060337067
1749053725.9867914,5.238674163818359,-1.5005068567446251,1.45087176958193,-4.127643009225363,-5.118003193532125,5.15378999710083,-0.0058438838459551334,0.0005188937648199499,0.0004586011928040534,-0.0008042727131396532,0.0003285511629655957,-0.0002862469118554145,-0.35596221685409546,-0.39959627389907837,-0.5230548977851868,0.4893125593662262,0.026839204132556915,0.0076031312346458435
1749053725.9868283,5.238650321960449,-1.5005068567446251,1.4508946577655237,-4.127646585504049,-5.117961351071493,5.153817653656006,-0.006608354393392801,0.00035205678432248533,0.0004161147808190435,-0.0005626176716759801,0.00030297369812615216,-0.00022961483045946807,-0.3685755133628845,-0.43282225728034973,-0.5348414182662964,0.4854622185230255,0.009232603013515472,-0.012897886335849762
1749053725.9868648,5.2386345863342285,-1.5004603576711197,1.4508875052081507,-4.127634664575094,-5.118038121853964,5.153824806213379,-0.008624170906841755,-8.605155016994104e-05,0.00038082580431364477,-0.00021926879708189517,0.0002874092024285346,-0.0002790443249978125,-0.3644315004348755,-0.4403374195098877,-0.5254866480827332,0.5071556568145752,-0.007519558072090149,-0.021015487611293793
1749053725.9869008,5.238664627075195,-1.5005033773234864,1.4508913199054163,-4.127650161782736,-5.118011538182394,5.153793811798096,-0.009117336943745613,-0.0004618113161996007,0.00035111134639009833,-4.8769717977847904e-05,0.0002745417004916817,-0.0030534302350133657,-0.3591804504394531,-0.44944465160369873,-0.5520561337471008,0.527961254119873,-0.02331453748047352,-0.031234726309776306
1749053725.986937,5.2385783195495605,-1.5005033922246476,1.4509032408343714,-4.127622743646139,-5.118003193532125,5.153781890869141,-0.01049877144396305,-0.0030397584196180105,0.00024351481988560408,0.002358468482270837,8.699933823663741e-05,-0.006978208664804697,-0.38194307684898376,-0.48095378279685974,-0.5695058703422546,0.567990779876709,-0.04622441157698631,-0.029446519911289215
1749053725.9869733,5.2385783195495605,-1.5005033922246476,1.4509032408343714,-4.127622743646139,-5.118003193532125,5.153781890869141,-0.01049877144396305,-0.0030397584196180105,0.00024351481988560408,0.002358468482270837,8.699933823663741e-05,-0.006978208664804697,-0.38194307684898376,-0.48095378279685974,-0.5695058703422546,0.567990779876709,-0.04622441157698631,-0.029446519911289215
1749053725.9870136,5.238590240478516,-1.5005104106715699,1.4508755842791956,-4.1276191673674525,-5.118018690739767,5.153785705566406,-0.01197582297027111,-0.0029556993395090103,0.00018573574197944254,0.0038739219307899475,3.544555511325598e-05,-0.00858940090984106,-0.3424053192138672,-0.5269395112991333,-0.5979280471801758,0.5839441418647766,-0.07769128680229187,-0.04821270704269409
1749053725.9870515,5.238511562347412,-1.5005463671735306,1.450883690510885,-4.127610822717184,-5.118034545575277,5.153741836547852,-0.01276107132434845,-0.003442129585891962,0.00016151563613675535,0.005301524884998798,6.263600880629383e-06,-0.009827205911278725,-0.3813752233982086,-0.5572452545166016,-0.6219850182533264,0.6312668323516846,-0.11731202155351639,-0.04956577718257904
1749053725.9870877,5.2385053634643555,-1.5005666998079796,1.4509065786944788,-4.127579113046163,-5.117985192929403,5.153713703155518,-0.015153872780501842,-0.007844628766179085,-0.00033146829809993505,0.00839078240096569,-0.004101735074073076,-0.014657815918326378,-0.39270874857902527,-0.6142565608024597,-0.6507509350776672,0.6547207236289978,-0.1455952525138855,-0.06301765888929367
1749053725.9879303,5.2385053634643555,-1.5005666998079796,1.4509065786944788,-4.127579113046163,-5.117985192929403,5.153713703155518,-0.015153872780501842,-0.007844628766179085,-0.00033146829809993505,0.00839078240096569,-0.004101735074073076,-0.014657815918326378,-0.39270874857902527,-0.6142565608024597,-0.6507509350776672,0.6547207236289978,-0.1455952525138855,-0.06301765888929367
1749053725.9893975,5.238419055938721,-1.5005527076176186,1.4509065786944788,-4.1275347671904505,-5.118023697529928,5.153689861297607,-0.017684925347566605,-0.010392392985522747,-0.002724554855376482,0.011018537916243076,-0.00460556335747242,-0.018730677664279938,-0.37946775555610657,-0.5995323657989502,-0.6631984114646912,0.6717153191566467,-0.19025155901908875,-0.0678829550743103
1749053726.0302691,5.238419055938721,-1.5005527076176186,1.4509065786944788,-4.1275347671904505,-5.118023697529928,5.153689861297607,-0.017684925347566605,-0.010392392985522747,-0.002724554855376482,0.011018537916243076,-0.00460556335747242,-0.018730677664279938,-0.37946775555610657,-0.5995323657989502,-0.6631984114646912,0.6717153191566467,-0.19025155901908875,-0.0678829550743103
1749053726.030314,5.238374710083008,-1.5005992215922852,1.4508913199054163,-4.12751092533254,-5.118043963109152,5.153658390045166,-0.01791074313223362,-0.010600863955914974,-0.0028057340532541275,0.011750162579119205,-0.0052709984593093395,-0.020505351945757866,-0.3797711730003357,-0.6236222386360168,-0.6683966517448425,0.6487128138542175,-0.20351190865039825,-0.048816829919815063
1749053726.030354,5.238346099853516,-1.500607655649521,1.450859848652975,-4.127462764779562,-5.118066612874166,5.153571128845215,-0.0171777606010437,-0.012372277677059174,-0.0032159893307834864,0.012909729033708572,-0.008890815079212189,-0.019906871020793915,-0.35174453258514404,-0.6492229700088501,-0.7310596108436584,0.6886281967163086,-0.23326745629310608,-0.07263204455375671
1749053726.0303972,5.238346099853516,-1.500607655649521,1.450859848652975,-4.127462764779562,-5.118066612874166,5.153571128845215,-0.0171777606010437,-0.012372277677059174,-0.0032159893307834864,0.012909729033708572,-0.008890815079212189,-0.019906871020793915,-0.35174453258514404,-0.6492229700088501,-0.7310596108436584,0.6886281967163086,-0.23326745629310608,-0.07263204455375671
1749053726.0304353,5.23829460144043,-1.5006660533002396,1.4508636633502405,-4.127438922921652,-5.1181151310550135,5.153562545776367,-0.01750362105667591,-0.013525516726076603,-0.005294491536915302,0.013003493659198284,-0.010875968262553215,-0.019913941621780396,-0.35235750675201416,-0.6562097072601318,-0.7217586040496826,0.690043032169342,-0.20930948853492737,-0.0611189529299736
1749053726.0304728,5.238194942474365,-1.5007020619562645,1.450848404561178,-4.1273938618102015,-5.118138853703634,5.153531551361084,-0.016752544790506363,-0.014211207628250122,-0.006721159443259239,0.014981860294938087,-0.013438663445413113,-0.019736124202609062,-0.35826045274734497,-0.6714741587638855,-0.7261927127838135,0.7073617577552795,-0.23049739003181458,-0.08302734792232513
1749053726.0305116,5.238194942474365,-1.5007020619562645,1.450848404561178,-4.1273938618102015,-5.118138853703634,5.153531551361084,-0.016752544790506363,-0.014211207628250122,-0.006721159443259239,0.014981860294938087,-0.013438663445413113,-0.019736124202609062,-0.35826045274734497,-0.6714741587638855,-0.7261927127838135,0.7073617577552795,-0.23049739003181458,-0.08302734792232513
1749053726.0305488,5.238142490386963,-1.500746728186943,1.4508279005633753,-4.12733068088674,-5.118171278630392,5.153459548950195,-0.01673235557973385,-0.014051848091185093,-0.0091513367369771,0.01785529963672161,-0.013816256076097488,-0.02122185193002224,-0.34313711524009705,-0.6944960355758667,-0.7333448529243469,0.7286049723625183,-0.23764187097549438,-0.10638859868049622
1749053726.0305867,5.238142490386963,-1.500746728186943,1.4508279005633753,-4.12733068088674,-5.118171278630392,5.153459548950195,-0.01673235557973385,-0.014051848091185093,-0.0091513367369771,0.01785529963672161,-0.013816256076097488,-0.02122185193002224,-0.34313711524009705,-0.6944960355758667,-0.7333448529243469,0.7286049723625183,-0.23764187097549438,-0.10638859868049622
1749053726.0306237,5.238123416900635,-1.5007876467755814,1.4507845083819788,-4.127263446847433,-5.118176047001974,5.153427600860596,-0.01719009317457676,-0.014643779955804348,-0.010014335624873638,0.019375594332814217,-0.01440493855625391,-0.022565310820937157,-0.33411914110183716,-0.6892411112785339,-0.7509884238243103,0.7636461853981018,-0.26521050930023193,-0.09995903074741364
1749053726.0306609,5.23802375793457,-1.5008582708290596,1.4507678190814417,-4.127190729180807,-5.118255321179525,5.153356075286865,-0.0174312312155962,-0.016371507197618484,-0.01171944197267294,0.02240722067654133,-0.016839686781167984,-0.025355380028486252,-0.3610835373401642,-0.7116011381149292,-0.7447983622550964,0.7691481113433838,-0.2603435814380646,-0.12417304515838623
1749053726.0306978,5.23802375793457,-1.5008582708290596,1.4507678190814417,-4.127190729180807,-5.118255321179525,5.153356075286865,-0.0174312312155962,-0.016371507197618484,-0.01171944197267294,0.02240722067654133,-0.016839686781167984,-0.025355380028486252,-0.3610835373401642,-0.7116011381149292,-0.7447983622550964,0.7691481113433838,-0.2603435814380646,-0.12417304515838623
1749053726.0307336,5.238006591796875,-1.5008596566370507,1.4507315794574183,-4.127155204812521,-5.118282620106832,5.15331506729126,-0.018234509974718094,-0.017121855169534683,-0.012253428809344769,0.024339348077774048,-0.017008651047945023,-0.026949448511004448,-0.3503565788269043,-0.7018869519233704,-0.7607018351554871,0.7730368971824646,-0.2670700252056122,-0.12844835221767426
1749053726.0307696,5.23797082901001,-1.5008869853666802,1.4507039229022425,-4.127095123330587,-5.118334356938497,5.153244495391846,-0.019866622984409332,-0.016929423436522484,-0.013124873861670494,0.026598958298563957,-0.018280692398548126,-0.028463266789913177,-0.373327374458313,-0.7179301977157593,-0.761594831943512,0.7905516028404236,-0.29409661889076233,-0.12703105807304382
1749053726.030806,5.237919807434082,-1.5009506431273003,1.4506610075580042,-4.127018829385275,-5.118335787449972,5.153184413909912,-0.018084613606333733,-0.01812884211540222,-0.013275560922920704,0.03007679618895054,-0.020021634176373482,-0.029827235266566277,-0.3689391016960144,-0.7308573722839355,-0.7622923851013184,0.7961537837982178,-0.2825380861759186,-0.13994057476520538
1749053726.030842,5.23786735534668,-1.5010223251632233,1.4506476561175745,-4.126905818978781,-5.1183956305133265,5.153076648712158,-0.02001933753490448,-0.018814120441675186,-0.012995687313377857,0.035133492201566696,-0.022354694083333015,-0.03350701928138733,-0.37268325686454773,-0.7626134753227234,-0.765076756477356,0.788398265838623,-0.32562315464019775,-0.15320800244808197
1749053726.030878,5.23786735534668,-1.5010223251632233,1.4506476561175745,-4.126905818978781,-5.1183956305133265,5.153076648712158,-0.02001933753490448,-0.018814120441675186,-0.012995687313377857,0.035133492201566696,-0.022354694083333015,-0.03350701928138733,-0.37268325686454773,-0.7626134753227234,-0.765076756477356,0.788398265838623,-0.32562315464019775,-0.15320800244808197
1749053726.0309138,5.237812042236328,-1.5010670584491272,1.450620476399557,-4.126845737496847,-5.118454400693075,5.153017044067383,-0.020947705954313278,-0.019736018031835556,-0.013475248590111732,0.036257386207580566,-0.024245303124189377,-0.03617004305124283,-0.3599434196949005,-0.7682825922966003,-0.7779585123062134,0.8020234704017639,-0.3159758150577545,-0.14693064987659454
1749053726.0309534,5.237760066986084,-1.5011205238154908,1.4505532423602503,-4.126789947549337,-5.118498984967367,5.152929306030273,-0.022624274715781212,-0.020959816873073578,-0.013210910372436047,0.03789050877094269,-0.025655506178736687,-0.03744950145483017,-0.3558337092399597,-0.7697317600250244,-0.7753642201423645,0.8202572464942932,-0.32289186120033264,-0.14706306159496307
1749053726.0309916,5.237720966339111,-1.5011341583779831,1.4505451361285608,-4.126677413980001,-5.118570987378256,5.152857780456543,-0.02298443205654621,-0.02137601189315319,-0.01335094589740038,0.03917389735579491,-0.027024103328585625,-0.03899169713258743,-0.37441959977149963,-0.7742942571640015,-0.7968899011611938,0.8184571862220764,-0.30219557881355286,-0.15813890099525452
1749053726.031419,5.237692356109619,-1.5011890617064019,1.4505170027362269,-4.1266144714751185,-5.118629757558004,5.152798175811768,-0.023932291194796562,-0.022005142644047737,-0.013696854934096336,0.04006015509366989,-0.027111733332276344,-0.04041316360235214,-0.3721930682659149,-0.7819900512695312,-0.7954890131950378,0.8473653793334961,-0.31900298595428467,-0.16967397928237915
1749053726.0333655,5.237663269042969,-1.5012177613428612,1.4505122343646448,-4.1265181503691615,-5.118682686482565,5.152721881866455,-0.024939080700278282,-0.02290150709450245,-0.014459340833127499,0.042495448142290115,-0.028707707300782204,-0.04072394594550133,-0.3730596601963043,-0.8274020552635193,-0.8125613331794739,0.8435109257698059,-0.3270148038864136,-0.17368417978286743
1749053726.0742714,5.237565517425537,-1.5012765240720292,1.4504850546466272,-4.126418014565939,-5.118695799504415,5.152626991271973,-0.025333164259791374,-0.024942832067608833,-0.014709463343024254,0.04578666388988495,-0.029049227014183998,-0.04178565740585327,-0.360547810792923,-0.805817186832428,-0.7917992472648621,0.846991240978241,-0.3375340402126312,-0.19587811827659607
1749053726.0743165,5.237477779388428,-1.5013139259866257,1.4504802862750452,-4.126322408715719,-5.118771139775411,5.152546405792236,-0.026433473452925682,-0.02579818107187748,-0.01522913295775652,0.047854233533144,-0.030346926301717758,-0.04402618482708931,-0.3670802712440491,-0.8138807415962219,-0.8125869631767273,0.8399002552032471,-0.3247511386871338,-0.20562656223773956
1749053726.074357,5.237464427947998,-1.501361833219864,1.4504058996783655,-4.12621345142507,-5.118869368230001,5.152470588684082,-0.028321880847215652,-0.025943640619516373,-0.015123818069696426,0.04872575029730797,-0.029728468507528305,-0.04760453850030899,-0.36747801303863525,-0.8650538325309753,-0.8180257678031921,0.8574128746986389,-0.33584973216056824,-0.17824402451515198
1749053726.0743973,5.23734188079834,-1.501438931827881,1.4503682295428675,-4.126009365121359,-5.118978802357809,5.152251243591309,-0.029802286997437477,-0.030410846695303917,-0.016331922262907028,0.05491712689399719,-0.031048908829689026,-0.04989611729979515,-0.3440448045730591,-0.838102400302887,-0.8350716829299927,0.856022298336029,-0.3409212827682495,-0.1989092379808426
1749053726.074436,5.23734188079834,-1.501438931827881,1.4503682295428675,-4.126009365121359,-5.118978802357809,5.152251243591309,-0.029802286997437477,-0.030410846695303917,-0.016331922262907028,0.05491712689399719,-0.031048908829689026,-0.04989611729979515,-0.3440448045730591,-0.838102400302887,-0.8350716829299927,0.856022298336029,-0.3409212827682495,-0.1989092379808426
1749053726.0744731,5.237288475036621,-1.5015331369689484,1.4503324667560022,-4.125885625878805,-5.119045797978536,5.15215539932251,-0.029038986191153526,-0.031072502955794334,-0.016933972015976906,0.05672196298837662,-0.03220028430223465,-0.049792271107435226,-0.3730592131614685,-0.8502986431121826,-0.8412628173828125,0.8643596172332764,-0.36146098375320435,-0.19838635623455048
1749053726.07451,5.237279415130615,-1.5015775498798867,1.450308624898092,-4.125768562356466,-5.119060579930441,5.152035713195801,-0.02998795546591282,-0.031152814626693726,-0.017136968672275543,0.057400353252887726,-0.034304577857255936,-0.05093518644571304,-0.38016223907470703,-0.8864832520484924,-0.8624004125595093,0.8384693264961243,-0.36720114946365356,-0.20308072865009308
1749053726.0745475,5.23717737197876,-1.5016292122057457,1.4503124395953577,-4.125629802743429,-5.119181577359335,5.151936054229736,-0.03313561901450157,-0.03268324211239815,-0.01810956746339798,0.05863937363028526,-0.03359653800725937,-0.05400942638516426,-0.3810688853263855,-0.917168140411377,-0.8758962154388428,0.8577929139137268,-0.36506152153015137,-0.2145489603281021
1749053726.0745842,5.23708963394165,-1.5017199602774163,1.4502490202533167,-4.1255370579161585,-5.119211498891012,5.151832580566406,-0.03355634957551956,-0.035341162234544754,-0.019102422520518303,0.061630986630916595,-0.03374633938074112,-0.05544391646981239,-0.38152962923049927,-0.8738226294517517,-0.8643422722816467,0.8480605483055115,-0.3687952160835266,-0.19866207242012024
1749053726.0746207,5.237018585205078,-1.501800612812378,1.4502247015582483,-4.12538542369985,-5.1193100849734705,5.151681900024414,-0.03542821854352951,-0.035615384578704834,-0.019134311005473137,0.06488421559333801,-0.03485880419611931,-0.05811560899019241,-0.40018051862716675,-0.8775179982185364,-0.8758700489997864,0.8496172428131104,-0.37464743852615356,-0.19427476823329926
1749053726.0746572,5.23695707321167,-1.5018831875971337,1.4501736799823206,-4.1252411804594935,-5.119335357342855,5.1515583992004395,-0.0369756743311882,-0.037573881447315216,-0.01952175423502922,0.0663989707827568,-0.035229314118623734,-0.0610821507871151,-0.36175617575645447,-0.8801119327545166,-0.898634672164917,0.818932831287384,-0.37592726945877075,-0.20133352279663086
1749053726.0746934,5.23682165145874,-1.5020233926228066,1.4500859419452112,-4.124968429605001,-5.119460169469015,5.151303768157959,-0.03708344325423241,-0.03944658488035202,-0.02346617542207241,0.06808503717184067,-0.037669550627470016,-0.06315149366855621,-0.38962477445602417,-0.9069164395332336,-0.8835673928260803,0.828091025352478,-0.39391133189201355,-0.19689030945301056
1749053726.07473,5.23682165145874,-1.5020233926228066,1.4500859419452112,-4.124968429605001,-5.119460169469015,5.151303768157959,-0.03708344325423241,-0.03944658488035202,-0.02346617542207241,0.06808503717184067,-0.037669550627470016,-0.06315149366855621,-0.38962477445602417,-0.9069164395332336,-0.8835673928260803,0.828091025352478,-0.39391133189201355,-0.19689030945301056
1749053726.0747674,5.236703395843506,-1.5020851728371163,1.4500539938556116,-4.124824424783224,-5.119561854993002,5.151226997375488,-0.03950640559196472,-0.04007406905293465,-0.024560265243053436,0.0690799355506897,-0.040358345955610275,-0.06355549395084381,-0.4065645933151245,-0.9236027598381042,-0.871076762676239,0.8635963201522827,-0.4102049767971039,-0.19970029592514038
1749053726.074804,5.2365593910217285,-1.5022372391870995,1.4499648253070276,-4.124540706674093,-5.11971086660494,5.15093994140625,-0.042705800384283066,-0.044449519366025925,-0.024816107004880905,0.07245095074176788,-0.04293452948331833,-0.07013417035341263,-0.423580139875412,-0.8952122330665588,-0.8922411799430847,0.8863457441329956,-0.4236685633659363,-0.19274745881557465
1749053726.0748405,5.2365593910217285,-1.5022372391870995,1.4499648253070276,-4.124540706674093,-5.11971086660494,5.15093994140625,-0.042705800384283066,-0.044449519366025925,-0.024816107004880905,0.07245095074176788,-0.04293452948331833,-0.07013417035341263,-0.423580139875412,-0.8952122330665588,-0.8922411799430847,0.8863457441329956,-0.4236685633659363,-0.19274745881557465
1749053726.0748773,5.236478805541992,-1.5023485583117981,1.4499171415912073,-4.124416013757223,-5.119884792958395,5.150796413421631,-0.043605294078588486,-0.045934829860925674,-0.02537854202091694,0.07372342795133591,-0.0448213629424572,-0.07147537171840668,-0.41372430324554443,-0.9178165197372437,-0.9085270762443542,0.8612461686134338,-0.3989907503128052,-0.18146567046642303
1749053726.074913,5.23637580871582,-1.5024397832206269,1.449846092854635,-4.124243875543112,-5.1199803988086146,5.1506218910217285,-0.044829241931438446,-0.04684778302907944,-0.026129504665732384,0.07651932537555695,-0.04718877747654915,-0.0732925608754158,-0.3939776122570038,-0.9230738878250122,-0.9120709896087646,0.8711847066879272,-0.3839016258716583,-0.20480825006961823
1749053726.0749493,5.236306190490723,-1.502556250696518,1.4497984091388147,-4.1241027317442835,-5.120029870663778,5.1504740715026855,-0.04598713293671608,-0.04859639331698418,-0.027314823120832443,0.07786071300506592,-0.04821478947997093,-0.07391301542520523,-0.39262664318084717,-0.9314355850219727,-0.9006455540657043,0.8755614161491394,-0.3691284656524658,-0.17944109439849854
1749053726.0749857,5.236116409301758,-1.5027362716249009,1.4496906439410608,-4.123759170571798,-5.120190445576803,5.150202751159668,-0.04876106604933739,-0.05065048485994339,-0.02748209424316883,0.08060021698474884,-0.04585597664117813,-0.0755850076675415,-0.398425817489624,-0.9113911986351013,-0.9387561082839966,0.8731885552406311,-0.398708701133728,-0.20583418011665344
1749053726.0753584,5.236116409301758,-1.5027362716249009,1.4496906439410608,-4.123759170571798,-5.120190445576803,5.150202751159668,-0.04876106604933739,-0.05065048485994339,-0.02748209424316883,0.08060021698474884,-0.04585597664117813,-0.0755850076675415,-0.398425817489624,-0.9113911986351013,-0.9387561082839966,0.8731885552406311,-0.398708701133728,-0.20583418011665344
1749053726.0773401,5.2359209060668945,-1.5029433083585282,1.44959003130068,-4.12343492130422,-5.1203898827182215,5.14987850189209,-0.050555068999528885,-0.05296677350997925,-0.029926318675279617,0.08395565301179886,-0.047823283821344376,-0.07800561934709549,-0.4104797840118408,-0.9377819895744324,-0.9225541353225708,0.8789472579956055,-0.44747838377952576,-0.1961362361907959
1749053726.1183352,5.235812664031982,-1.503009633427002,1.4495146910296839,-4.123270174066061,-5.1205050388919275,5.149681091308594,-0.05203642696142197,-0.05267667397856712,-0.03075193613767624,0.0856763944029808,-0.04952431842684746,-0.07964678853750229,-0.440643846988678,-0.9313451647758484,-0.9263205528259277,0.8812578320503235,-0.42364856600761414,-0.20939257740974426
1749053726.1183803,5.235812664031982,-1.503009633427002,1.4495146910296839,-4.123270174066061,-5.1205050388919275,5.149681091308594,-0.05203642696142197,-0.05267667397856712,-0.03075193613767624,0.0856763944029808,-0.04952431842684746,-0.07964678853750229,-0.440643846988678,-0.9313451647758484,-0.9263205528259277,0.8812578320503235,-0.42364856600761414,-0.20939257740974426
1749053726.11842,5.235570430755615,-1.5032791134766121,1.4493792692767542,-4.122882267037863,-5.1206586996661585,5.149373531341553,-0.05534147471189499,-0.055381014943122864,-0.03157300129532814,0.0880529135465622,-0.050987083464860916,-0.08184073120355606,-0.40167710185050964,-0.9536995887756348,-0.9447777271270752,0.8907809257507324,-0.44285985827445984,-0.21488609910011292
1749053726.118459,5.235570430755615,-1.5032791134766121,1.4493792692767542,-4.122882267037863,-5.1206586996661585,5.149373531341553,-0.05534147471189499,-0.055381014943122864,-0.03157300129532814,0.0880529135465622,-0.050987083464860916,-0.08184073120355606,-0.40167710185050964,-0.9536995887756348,-0.9447777271270752,0.8907809257507324,-0.44285985827445984,-0.21488609910011292
1749053726.1184974,5.235454082489014,-1.5033702564290543,1.4492962996112269,-4.122701307336325,-5.120750967656271,5.149225234985352,-0.056376952677965164,-0.05656366050243378,-0.032121267169713974,0.0953078418970108,-0.051455020904541016,-0.08391123265028,-0.38961732387542725,-0.9754939079284668,-0.9346394538879395,0.8744205832481384,-0.43869727849960327,-0.2102503776550293
1749053726.1185346,5.235223293304443,-1.503579245214798,1.449183766041891,-4.122317215005392,-5.120970670376913,5.14887809753418,-0.05902817100286484,-0.05603813752532005,-0.032960765063762665,0.09405296295881271,-0.05395352095365524,-0.08704611659049988,-0.4048095643520355,-0.9870900511741638,-0.9570563435554504,0.8952473998069763,-0.4830409288406372,-0.235939159989357
1749053726.1185718,5.235223293304443,-1.503579245214798,1.449183766041891,-4.122317215005392,-5.120970670376913,5.14887809753418,-0.05902817100286484,-0.05603813752532005,-0.032960765063762665,0.09405296295881271,-0.05395352095365524,-0.08704611659049988,-0.4048095643520355,-0.9870900511741638,-0.9570563435554504,0.8952473998069763,-0.4830409288406372,-0.235939159989357
1749053726.118609,5.234987258911133,-1.5038155329278489,1.4490717093097132,-4.1219240627684535,-5.121229831372396,5.14851188659668,-0.06167898699641228,-0.06373424082994461,-0.03504917770624161,0.1017415001988411,-0.05659486725926399,-0.09009633213281631,-0.41680899262428284,-0.9860193133354187,-0.9658883213996887,0.8651347160339355,-0.4672955274581909,-0.23938138782978058
1749053726.1186502,5.234987258911133,-1.5038155329278489,1.4490717093097132,-4.1219240627684535,-5.121229831372396,5.14851188659668,-0.06167898699641228,-0.06373424082994461,-0.03504917770624161,0.1017415001988411,-0.05659486725926399,-0.09009633213281631,-0.41680899262428284,-0.9860193133354187,-0.9658883213996887,0.8651347160339355,-0.4672955274581909,-0.23938138782978058
1749053726.118689,5.2348761558532715,-1.503942148094513,1.4490116278277796,-4.121692081490988,-5.1213606039630335,5.148324489593506,-0.06294868141412735,-0.06290030479431152,-0.036018986254930496,0.1054508313536644,-0.05729672312736511,-0.09334733337163925,-0.4539143145084381,-0.986794650554657,-0.9552202820777893,0.8518911600112915,-0.4796319603919983,-0.2518928349018097
1749053726.1187255,5.234569549560547,-1.5042148765972634,1.4488518873797815,-4.121276517907614,-5.121582690869467,5.147922515869141,-0.06828948110342026,-0.06719961017370224,-0.03720640018582344,0.10262803733348846,-0.06144460663199425,-0.0958319827914238,-0.4087742567062378,-0.9544340968132019,-0.9640393257141113,0.8643631339073181,-0.4740954637527466,-0.24759303033351898
1749053726.1187627,5.234569549560547,-1.5042148765972634,1.4488518873797815,-4.121276517907614,-5.121582690869467,5.147922515869141,-0.06828948110342026,-0.06719961017370224,-0.03720640018582344,0.10262803733348846,-0.06144460663199425,-0.0958319827914238,-0.4087742567062378,-0.9544340968132019,-0.9640393257141113,0.8643631339073181,-0.4740954637527466,-0.24759303033351898
1749053726.1187992,5.234527111053467,-1.5043344137123604,1.4487836996661585,-4.121051450768942,-5.121694151555197,5.1477460861206055,-0.0649329200387001,-0.06847590208053589,-0.039466146379709244,0.1044594794511795,-0.061595190316438675,-0.09726684540510178,-0.448752760887146,-0.9707573652267456,-0.9550722241401672,0.8759852647781372,-0.46469536423683167,-0.24176961183547974
1749053726.1188395,5.234167098999023,-1.5045843061855813,1.4486244360553187,-4.120630880395407,-5.121961537991659,5.147324085235596,-0.07072626799345016,-0.07020681351423264,-0.038317080587148666,0.107510507106781,-0.0628812238574028,-0.1050514206290245,-0.42369261384010315,-0.9912000894546509,-0.9649949669837952,0.8711157441139221,-0.4764849543571472,-0.2390764355659485
1749053726.118878,5.234167098999023,-1.5045843061855813,1.4486244360553187,-4.120630880395407,-5.121961537991659,5.147324085235596,-0.07072626799345016,-0.07020681351423264,-0.038317080587148666,0.107510507106781,-0.0628812238574028,-0.1050514206290245,-0.42369261384010315,-0.9912000894546509,-0.9649949669837952,0.8711157441139221,-0.4764849543571472,-0.2390764355659485
1749053726.1189153,5.2340617179870605,-1.504738913183548,1.4485371748553675,-4.120437761346334,-5.1221283117877405,5.14710807800293,-0.06981481611728668,-0.07225000858306885,-0.039668239653110504,0.10993296653032303,-0.06561342626810074,-0.10553158074617386,-0.41890937089920044,-0.9599102139472961,-0.9651875495910645,0.8759214282035828,-0.44243723154067993,-0.21585237979888916
1749053726.118952,5.233758926391602,-1.5050834205797692,1.4483607451068323,-4.119990011254782,-5.122411791478292,5.146646499633789,-0.07381968945264816,-0.07369616627693176,-0.043066274374723434,0.11502096056938171,-0.06948626041412354,-0.10894722491502762,-0.4096868932247162,-0.9788795709609985,-0.9514584541320801,0.8885921239852905,-0.4632287621498108,-0.2304786741733551
1749053726.1189885,5.233758926391602,-1.5050834205797692,1.4483607451068323,-4.119990011254782,-5.122411791478292,5.146646499633789,-0.07381968945264816,-0.07369616627693176,-0.043066274374723434,0.11502096056938171,-0.06948626041412354,-0.10894722491502762,-0.4096868932247162,-0.9788795709609985,-0.9514584541320801,0.8885921239852905,-0.4632287621498108,-0.2304786741733551
1749053726.1190248,5.233431816101074,-1.505395234828331,1.4482091108905237,-4.119505306283468,-5.122613135968344,5.146203517913818,-0.07545885443687439,-0.074697345495224,-0.04214963689446449,0.11645805835723877,-0.06853464990854263,-0.1121891513466835,-0.4035889804363251,-0.9798868298530579,-0.9575968384742737,0.9184169769287109,-0.46913427114486694,-0.21697179973125458
1749053726.119061,5.233431816101074,-1.505395234828331,1.4482091108905237,-4.119505306283468,-5.122613135968344,5.146203517913818,-0.07545885443687439,-0.074697345495224,-0.04214963689446449,0.11645805835723877,-0.06853464990854263,-0.1121891513466835,-0.4035889804363251,-0.9798868298530579,-0.9575968384742737,0.9184169769287109,-0.46913427114486694,-0.21697179973125458
1749053726.1193798,5.233307361602783,-1.50552553058181,1.4481094519244593,-4.119264741937155,-5.122800294552938,5.146030426025391,-0.07729505002498627,-0.07636217027902603,-0.041755400598049164,0.1176210567355156,-0.06911998987197876,-0.11158265173435211,-0.4307585656642914,-1.0030580759048462,-0.9895099997520447,0.9143858551979065,-0.4623337388038635,-0.24276039004325867
1749053726.1213558,5.232988357543945,-1.5058216613582154,1.4479263464557093,-4.118755956689352,-5.123060647641317,5.145517349243164,-0.07734785228967667,-0.07484738528728485,-0.04481453076004982,0.12513144314289093,-0.07430407404899597,-0.11577913910150528,-0.4265277087688446,-1.0100091695785522,-0.9580550789833069,0.9068616628646851,-0.46115678548812866,-0.2325599491596222
1749053726.1623492,5.232988357543945,-1.5058216613582154,1.4479263464557093,-4.118755956689352,-5.123060647641317,5.145517349243164,-0.07734785228967667,-0.07484738528728485,-0.04481453076004982,0.12513144314289093,-0.07430407404899597,-0.11577913910150528,-0.4265277087688446,-1.0100091695785522,-0.9580550789833069,0.9068616628646851,-0.46115678548812866,-0.2325599491596222
1749053726.1623957,5.232818126678467,-1.5059895154884835,1.4478614966021937,-4.118519207040304,-5.123182121907369,5.145266056060791,-0.08185997605323792,-0.07863644510507584,-0.04482923075556755,0.12758417427539825,-0.07592346519231796,-0.11591137200593948,-0.4038926959037781,-1.006888508796692,-0.9547854065895081,0.8851720690727234,-0.4549054205417633,-0.22643497586250305
1749053726.1624355,5.232691764831543,-1.5061611768654366,1.4477465788470667,-4.118274589578146,-5.123388115559713,5.145053863525391,-0.07868809252977371,-0.07698733359575272,-0.04495193064212799,0.1310160905122757,-0.07677121460437775,-0.11604316532611847,-0.454434335231781,-0.9799006581306458,-0.9583892226219177,0.8620356917381287,-0.4310544729232788,-0.23373155295848846
1749053726.1624742,5.2324981689453125,-1.5063392382911225,1.4476588408099573,-4.118021627465719,-5.123559896145956,5.144811153411865,-0.08182468265295029,-0.07895690947771072,-0.04542358219623566,0.13291911780834198,-0.07628686726093292,-0.11812040209770203,-0.4350510835647583,-1.038631796836853,-0.944029688835144,0.8739889860153198,-0.44031500816345215,-0.23649071156978607
1749053726.1625135,5.232126235961914,-1.506628730600216,1.4474743048297327,-4.1174379787840785,-5.123825017605917,5.144320487976074,-0.08443572372198105,-0.08312960714101791,-0.04680761322379112,0.1345023214817047,-0.07484054565429688,-0.12161867320537567,-0.403957724571228,-0.9829872250556946,-0.963043749332428,0.8597265481948853,-0.440281480550766,-0.23110976815223694
1749053726.1625516,5.232126235961914,-1.506628730600216,1.4474743048297327,-4.1174379787840785,-5.123825017605917,5.144320487976074,-0.08443572372198105,-0.08312960714101791,-0.04680761322379112,0.1345023214817047,-0.07484054565429688,-0.12161867320537567,-0.403957724571228,-0.9829872250556946,-0.963043749332428,0.8597265481948853,-0.440281480550766,-0.23110976815223694
1749053726.1625896,5.2320051193237305,-1.506820560698845,1.4473713080035608,-4.11716951946401,-5.1240227858172815,5.144069671630859,-0.08507324755191803,-0.08487303555011749,-0.047718457877635956,0.13618184626102448,-0.07586710155010223,-0.12474656105041504,-0.4221855103969574,-1.0000803470611572,-0.9595948457717896,0.8868371844291687,-0.44162070751190186,-0.2415572702884674
1749053726.1626318,5.231819152832031,-1.5070297879031678,1.4472325483905237,-4.11691202739858,-5.124178711568014,5.143786907196045,-0.08578900992870331,-0.08759534358978271,-0.04896294325590134,0.13694201409816742,-0.07700996845960617,-0.1297038048505783,-0.4296143651008606,-0.9544480443000793,-0.9507729411125183,0.8664568066596985,-0.4281753897666931,-0.22268107533454895
1749053726.1626706,5.231627464294434,-1.5071443703821679,1.4471786657916468,-4.116632600823873,-5.124327842389242,5.143567085266113,-0.08625351637601852,-0.088133305311203,-0.049480002373456955,0.1378355324268341,-0.07769153267145157,-0.13115811347961426,-0.4004672169685364,-0.9368407130241394,-0.930412769317627,0.8821204304695129,-0.43949300050735474,-0.23950858414173126
1749053726.1627104,5.231447219848633,-1.5073517274907609,1.447094742451803,-4.116356035272116,-5.1244521776782435,5.143263816833496,-0.08744513988494873,-0.08789565414190292,-0.04941251128911972,0.13835276663303375,-0.07686049491167068,-0.1321241855621338,-0.43107926845550537,-0.9613426327705383,-0.9334156513214111,0.8976250290870667,-0.4471668303012848,-0.21392503380775452
1749053726.162748,5.23129940032959,-1.5075041067651291,1.4469450155841272,-4.1160601578154505,-5.124582354222433,5.142993450164795,-0.08919768035411835,-0.08713584393262863,-0.050596822053194046,0.13911128044128418,-0.07740574330091476,-0.13282331824302673,-0.4112459123134613,-1.0206515789031982,-0.9491872787475586,0.9013345837593079,-0.4554852545261383,-0.23903438448905945
1749053726.1627843,5.231077671051025,-1.5076838743737717,1.4468873182879847,-4.1158188782134,-5.124728624020712,5.14276123046875,-0.09119470417499542,-0.09017132967710495,-0.051005393266677856,0.14155364036560059,-0.07842554897069931,-0.13272301852703094,-0.4286489188671112,-0.986370861530304,-0.9479804039001465,0.9291488528251648,-0.4780934751033783,-0.23218676447868347
1749053726.1628208,5.230732440948486,-1.5081216406873246,1.4466717878924769,-4.115218301812643,-5.125138584767477,5.1422038078308105,-0.09432606399059296,-0.09660407155752182,-0.05318901315331459,0.14947785437107086,-0.08223386108875275,-0.13603845238685608,-0.408866286277771,-0.9507731199264526,-0.9351903200149536,0.9154775142669678,-0.463640034198761,-0.25741755962371826
1749053726.1628578,5.230732440948486,-1.5081216406873246,1.4466717878924769,-4.115218301812643,-5.125138584767477,5.1422038078308105,-0.09432606399059296,-0.09660407155752182,-0.05318901315331459,0.14947785437107086,-0.08223386108875275,-0.13603845238685608,-0.408866286277771,-0.9507731199264526,-0.9351903200149536,0.9154775142669678,-0.463640034198761,-0.25741755962371826
1749053726.1628938,5.230525970458984,-1.5082324680737038,1.4465606848346155,-4.1149214706816615,-5.125263277684347,5.14190149307251,-0.09388891607522964,-0.09158134460449219,-0.05273662135004997,0.15297898650169373,-0.08307364583015442,-0.13818316161632538,-0.4168427884578705,-1.0073918104171753,-0.9318240880966187,0.9174084067344666,-0.4726850986480713,-0.2537567615509033
1749053726.1629307,5.230103969573975,-1.5086383123746891,1.446329418812887,-4.1142736874022425,-5.125528637562887,5.141334533691406,-0.09505235403776169,-0.09327416121959686,-0.051992643624544144,0.15161371231079102,-0.0862073078751564,-0.14115098118782043,-0.4224310517311096,-1.007613182067871,-0.9676180481910706,0.9069837331771851,-0.4747772812843323,-0.2634788453578949
1749053726.1629667,5.230103969573975,-1.5086383123746891,1.446329418812887,-4.1142736874022425,-5.125528637562887,5.141334533691406,-0.09505235403776169,-0.09327416121959686,-0.051992643624544144,0.15161371231079102,-0.0862073078751564,-0.14115098118782043,-0.4224310517311096,-1.007613182067871,-0.9676180481910706,0.9069837331771851,-0.4747772812843323,-0.2634788453578949
1749053726.163003,5.229712963104248,-1.5090032827905198,1.446101490651266,-4.11364020923757,-5.125927035008566,5.140778541564941,-0.09739388525485992,-0.09480352699756622,-0.05273820459842682,0.15233872830867767,-0.08962356299161911,-0.14464475214481354,-0.38407617807388306,-1.0137758255004883,-0.9277899265289307,0.9234125018119812,-0.4976324737071991,-0.24484078586101532
1749053726.1630387,5.229712963104248,-1.5090032827905198,1.446101490651266,-4.11364020923757,-5.125927035008566,5.140778541564941,-0.09739388525485992,-0.09480352699756622,-0.05273820459842682,0.15233872830867767,-0.08962356299161911,-0.14464475214481354,-0.38407617807388306,-1.0137758255004883,-0.9277899265289307,0.9234125018119812,-0.4976324737071991,-0.24484078586101532
1749053726.1630747,5.22948694229126,-1.5092106957784672,1.446005646382467,-4.113327165643209,-5.1261083523379725,5.140476226806641,-0.09851720184087753,-0.09626156091690063,-0.0530397966504097,0.15399211645126343,-0.09400728344917297,-0.14509816467761993,-0.41616231203079224,-1.000928282737732,-0.9478469491004944,0.9371909499168396,-0.4648981988430023,-0.26317930221557617
1749053726.1634018,5.229191780090332,-1.5096338030746956,1.445813004170553,-4.112691780129904,-5.12648839155306,5.139881134033203,-0.10070646554231644,-0.10075733810663223,-0.058444514870643616,0.16175229847431183,-0.09451513737440109,-0.1521846354007721,-0.4327636659145355,-0.9513455033302307,-0.9036609530448914,0.917529284954071,-0.4705699682235718,-0.25523266196250916
1749053726.1654334,5.229191780090332,-1.5096338030746956,1.445813004170553,-4.112691780129904,-5.12648839155306,5.139881134033203,-0.10070646554231644,-0.10075733810663223,-0.058444514870643616,0.16175229847431183,-0.09451513737440109,-0.1521846354007721,-0.4327636659145355,-0.9513455033302307,-0.9036609530448914,0.917529284954071,-0.4705699682235718,-0.25523266196250916
1749053726.2062714,5.228907108306885,-1.5098343838802357,1.445674244557516,-4.112373729745382,-5.126743022595541,5.13957405090332,-0.09922841191291809,-0.10421998798847198,-0.056760434061288834,0.16460765898227692,-0.09646157175302505,-0.1562027484178543,-0.43799012899398804,-0.9002571702003479,-0.9209809303283691,0.9459764361381531,-0.4603477120399475,-0.23493757843971252
1749053726.2063158,5.228507041931152,-1.5102762927166005,1.4454463163958948,-4.111702581445211,-5.1271002928363245,5.1389360427856445,-0.10361473262310028,-0.10459904372692108,-0.05805884674191475,0.16828884184360504,-0.09768475592136383,-0.15833768248558044,-0.42100924253463745,-0.9488332867622375,-0.9242358803749084,0.9233784675598145,-0.429614394903183,-0.22599902749061584
1749053726.206356,5.228507041931152,-1.5102762927166005,1.4454463163958948,-4.111702581445211,-5.1271002928363245,5.1389360427856445,-0.10361473262310028,-0.10459904372692108,-0.05805884674191475,0.16828884184360504,-0.09768475592136383,-0.15833768248558044,-0.42100924253463745,-0.9488332867622375,-0.9242358803749084,0.9233784675598145,-0.429614394903183,-0.22599902749061584
1749053726.2063966,5.228260517120361,-1.5104389575174828,1.4453418890582483,-4.111381193200582,-5.127292219792501,5.138635635375977,-0.10500919073820114,-0.1009504646062851,-0.05872782692313194,0.16981691122055054,-0.0946585088968277,-0.16186146438121796,-0.4313749074935913,-0.9671469330787659,-0.9253079891204834,0.9209864139556885,-0.4506305456161499,-0.20013701915740967
1749053726.2064338,5.228067874908447,-1.5106377837112923,1.4451950232135218,-4.111017128030294,-5.127503577862875,5.138275623321533,-0.10641763359308243,-0.10293998569250107,-0.05950894206762314,0.17070721089839935,-0.09560501575469971,-0.1585291177034378,-0.4100208878517151,-1.0072641372680664,-0.9161573052406311,0.9333855509757996,-0.45789608359336853,-0.21145740151405334
1749053726.206471,5.227872848510742,-1.5108465825072308,1.445118252431051,-4.110684057275289,-5.127648536358969,5.137936115264893,-0.10661748051643372,-0.10331542789936066,-0.06023456156253815,0.1705135852098465,-0.0974474623799324,-0.15678244829177856,-0.4326954483985901,-1.0093692541122437,-0.9133243560791016,0.946715772151947,-0.4719896912574768,-0.24376380443572998
1749053726.2065072,5.22749662399292,-1.5113078144243737,1.4448278586017054,-4.110005517999166,-5.12806469598879,5.137318134307861,-0.10863618552684784,-0.10474586486816406,-0.06106064096093178,0.1723926067352295,-0.09688115864992142,-0.1608181893825531,-0.4401911497116089,-1.0142213106155396,-0.9248947501182556,0.9769155979156494,-0.47560593485832214,-0.2600283920764923
1749053726.2065437,5.22749662399292,-1.5113078144243737,1.4448278586017054,-4.110005517999166,-5.12806469598879,5.137318134307861,-0.10863618552684784,-0.10474586486816406,-0.06106064096093178,0.1723926067352295,-0.09688115864992142,-0.1608181893825531,-0.4401911497116089,-1.0142213106155396,-0.9248947501182556,0.9769155979156494,-0.47560593485832214,-0.2600283920764923
1749053726.20658,5.227260589599609,-1.5115309444120903,1.4446929136859339,-4.109648605386251,-5.128263060246603,5.137041091918945,-0.11036965250968933,-0.10513731837272644,-0.06059279292821884,0.1759859174489975,-0.09555088728666306,-0.16423512995243073,-0.4672369360923767,-1.048647165298462,-0.9094867706298828,0.9810137748718262,-0.478829026222229,-0.25792163610458374
1749053726.2066162,5.226806640625,-1.5119211201420804,1.444484059010641,-4.108929296533102,-5.1286625305758875,5.13632869720459,-0.11175647377967834,-0.10844825208187103,-0.05948556587100029,0.18300111591815948,-0.10028873383998871,-0.1731170266866684,-0.4515869617462158,-1.011942982673645,-0.9214563369750977,0.9540170431137085,-0.47431832551956177,-0.23221838474273682
1749053726.206652,5.226563453674316,-1.5121644486537953,1.44438344637026,-4.108568569222921,-5.1288161913501185,5.135993480682373,-0.11289460957050323,-0.1129867285490036,-0.0585779994726181,0.1914593130350113,-0.09864478558301926,-0.1750931441783905,-0.4536917507648468,-1.0016525983810425,-0.9464199542999268,0.9161367416381836,-0.5042173266410828,-0.22705265879631042
1749053726.2066884,5.226563453674316,-1.5121644486537953,1.44438344637026,-4.108568569222921,-5.1288161913501185,5.135993480682373,-0.11289460957050323,-0.1129867285490036,-0.0585779994726181,0.1914593130350113,-0.09864478558301926,-0.1750931441783905,-0.4536917507648468,-1.0016525983810425,-0.9464199542999268,0.9161367416381836,-0.5042173266410828,-0.22705265879631042
1749053726.2067301,5.226115703582764,-1.5125926819494744,1.4440940062152308,-4.107808252374166,-5.129185382519857,5.135303020477295,-0.11797616630792618,-0.11426347494125366,-0.06413058191537857,0.19078876078128815,-0.10012640058994293,-0.1756526082754135,-0.4492349624633789,-0.9931968450546265,-0.9117304086685181,0.9580585360527039,-0.5373918414115906,-0.2118239849805832
1749053726.2067683,5.226115703582764,-1.5125926819494744,1.4440940062152308,-4.107808252374166,-5.129185382519857,5.135303020477295,-0.11797616630792618,-0.11426347494125366,-0.06413058191537857,0.19078876078128815,-0.10012640058994293,-0.1756526082754135,-0.4492349624633789,-0.9931968450546265,-0.9117304086685181,0.9580585360527039,-0.5373918414115906,-0.2118239849805832
1749053726.2068055,5.225616931915283,-1.513081071232893,1.443857494984762,-4.107046981851095,-5.1296319405185145,5.134571075439453,-0.12073396146297455,-0.11667104065418243,-0.06416211277246475,0.1879592388868332,-0.10824471712112427,-0.17431437969207764,-0.4046075940132141,-0.9642965793609619,-0.933771014213562,0.9441495537757874,-0.4976736903190613,-0.21784357726573944
1749053726.2068424,5.225616931915283,-1.513081071232893,1.443857494984762,-4.107046981851095,-5.1296319405185145,5.134571075439453,-0.12073396146297455,-0.11667104065418243,-0.06416211277246475,0.1879592388868332,-0.10824471712112427,-0.17431437969207764,-0.4046075940132141,-0.9642965793609619,-0.933771014213562,0.9441495537757874,-0.4976736903190613,-0.21784357726573944
1749053726.2068791,5.225346088409424,-1.5133107167533417,1.4437263647662562,-4.1066817245879115,-5.129840675984518,5.134181499481201,-0.1194978728890419,-0.11663620173931122,-0.06493676453828812,0.18938496708869934,-0.10829279571771622,-0.17604738473892212,-0.4573376774787903,-0.9763001203536987,-0.9332812428474426,0.9655332565307617,-0.5164412260055542,-0.23585471510887146
1749053726.2069156,5.224917411804199,-1.5137939651361485,1.4434974829303187,-4.10589661220693,-5.130358282719747,5.133521556854248,-0.12342820316553116,-0.11741450428962708,-0.06557799875736237,0.19514679908752441,-0.11451056599617004,-0.1749504804611206,-0.4679816961288452,-0.9942601323127747,-0.9355160593986511,0.9424052238464355,-0.486705482006073,-0.27555811405181885
1749053726.206952,5.224917411804199,-1.5137939651361485,1.4434974829303187,-4.10589661220693,-5.130358282719747,5.133521556854248,-0.12342820316553116,-0.11741450428962708,-0.06557799875736237,0.19514679908752441,-0.11451056599617004,-0.1749504804611206,-0.4679816961288452,-0.9942601323127747,-0.9355160593986511,0.9424052238464355,-0.486705482006073,-0.27555811405181885
1749053726.2069886,5.224372863769531,-1.5142892834595223,1.4432185331927698,-4.105104824105734,-5.130823318158285,5.132775783538818,-0.1270497441291809,-0.11724898964166641,-0.06661161780357361,0.2045459747314453,-0.11699763685464859,-0.1814892441034317,-0.42558321356773376,-1.0236088037490845,-0.9462659358978271,0.9139536619186401,-0.45076918601989746,-0.269485741853714
1749053726.2074652,5.224372863769531,-1.5142892834595223,1.4432185331927698,-4.105104824105734,-5.130823318158285,5.132775783538818,-0.1270497441291809,-0.11724898964166641,-0.06661161780357361,0.2045459747314453,-0.11699763685464859,-0.1814892441034317,-0.42558321356773376,-1.0236088037490845,-0.9462659358978271,0.9139536619186401,-0.45076918601989746,-0.269485741853714
1749053726.210061,5.2241058349609375,-1.5145207841745396,1.4430707136737269,-4.104695220986837,-5.1310827175723475,5.132408618927002,-0.1248796135187149,-0.12333721667528152,-0.0671016275882721,0.2072543203830719,-0.11627641320228577,-0.18452008068561554,-0.4547840356826782,-1.0295653343200684,-0.9465467929840088,0.9240146279335022,-0.43770644068717957,-0.24471265077590942
1749053726.2504053,5.2238664627075195,-1.5147468161633988,1.4429190794574183,-4.104283948937887,-5.131298963223593,5.132030487060547,-0.12537650763988495,-0.12339476495981216,-0.0675772950053215,0.20824331045150757,-0.11618946492671967,-0.18737368285655975,-0.42274415493011475,-1.0014841556549072,-0.9497672319412231,0.8983055353164673,-0.43406960368156433,-0.25025442242622375
1749053726.2504823,5.2235636711120605,-1.51500956833873,1.442791763936178,-4.103866001168722,-5.131476346646444,5.1316752433776855,-0.12640349566936493,-0.12613548338413239,-0.06870493292808533,0.20575468242168427,-0.11430426687002182,-0.1884574294090271,-0.4549638032913208,-0.9635083675384521,-0.9448369145393372,0.8956151008605957,-0.4438181221485138,-0.2467707395553589
1749053726.2505553,5.223381042480469,-1.5152548526278515,1.442660156880514,-4.103477140466207,-5.131664578114645,5.131287574768066,-0.12727391719818115,-0.127569317817688,-0.06846128404140472,0.20197166502475739,-0.11278484761714935,-0.18809741735458374,-0.4664553105831146,-0.9251911640167236,-0.9469292163848877,0.9650481939315796,-0.4648122191429138,-0.2280333787202835
1749053726.2506244,5.2231574058532715,-1.5155295331827183,1.4425047079669397,-4.103048940698141,-5.1319631973849695,5.130905628204346,-0.12913037836551666,-0.12628072500228882,-0.06967379152774811,0.20081667602062225,-0.11293919384479523,-0.18764130771160126,-0.4762617349624634,-0.9623144865036011,-0.9554258584976196,0.9689342975616455,-0.4830015301704407,-0.26973140239715576
1749053726.2506955,5.2228312492370605,-1.5158093397370358,1.4423797766314905,-4.102659841577047,-5.132174674664633,5.13055419921875,-0.13047778606414795,-0.12571722269058228,-0.07024171203374863,0.20241010189056396,-0.11474686861038208,-0.19055092334747314,-0.4528747797012329,-0.9781669974327087,-0.9461991190910339,0.9945005178451538,-0.4943705201148987,-0.2503287196159363
1749053726.2507653,5.222382545471191,-1.5163030561855813,1.4421075026141565,-4.101802249948019,-5.132646385823385,5.129753589630127,-0.13154247403144836,-0.12846960127353668,-0.07154899835586548,0.2163272500038147,-0.11609525233507156,-0.19928480684757233,-0.4769412875175476,-1.0020346641540527,-0.9611501097679138,0.9522694945335388,-0.5054470300674438,-0.25163745880126953
1749053726.2508314,5.222382545471191,-1.5163030561855813,1.4421075026141565,-4.101802249948019,-5.132646385823385,5.129753589630127,-0.13154247403144836,-0.12846960127353668,-0.07154899835586548,0.2163272500038147,-0.11609525233507156,-0.19928480684757233,-0.4769412875175476,-1.0020346641540527,-0.9611501097679138,0.9522694945335388,-0.5054470300674438,-0.25163745880126953
1749053726.2509007,5.222127437591553,-1.5165776659599324,1.4419296423541468,-4.101366420785421,-5.132882777844564,5.129350662231445,-0.13441213965415955,-0.12749619781970978,-0.07288622856140137,0.21898093819618225,-0.12154095619916916,-0.20465843379497528,-0.48575809597969055,-1.028394341468811,-0.9455002546310425,0.937170684337616,-0.4907958507537842,-0.23582226037979126
1749053726.250969,5.221564292907715,-1.5170488108745595,1.4416540304767054,-4.100441595117086,-5.133287970219747,5.128489971160889,-0.13758334517478943,-0.13095684349536896,-0.07325901091098785,0.22042816877365112,-0.12273809313774109,-0.20976252853870392,-0.40209829807281494,-1.00581955909729,-0.9557705521583557,0.900609016418457,-0.47683078050613403,-0.20536719262599945
1749053726.2510352,5.221564292907715,-1.5170488108745595,1.4416540304767054,-4.100441595117086,-5.133287970219747,5.128489971160889,-0.13758334517478943,-0.13095684349536896,-0.07325901091098785,0.22042816877365112,-0.12273809313774109,-0.20976252853870392,-0.40209829807281494,-1.00581955909729,-0.9557705521583557,0.900609016418457,-0.47683078050613403,-0.20536719262599945
1749053726.2511015,5.221262454986572,-1.5173785623959084,1.4414942900287073,-4.10003199199819,-5.133555475865499,5.128039836883545,-0.13652212917804718,-0.13228774070739746,-0.07430584728717804,0.21590517461299896,-0.12648725509643555,-0.2069847583770752,-0.46723127365112305,-0.9862557649612427,-0.9467620253562927,0.9242926836013794,-0.4894803762435913,-0.19320842623710632
1749053726.251166,5.22072696685791,-1.5178677079132576,1.4412105719195765,-4.099154373208517,-5.134145919476644,5.127280235290527,-0.13903693854808807,-0.1345018446445465,-0.07529935985803604,0.21456965804100037,-0.1278189718723297,-0.20289258658885956,-0.4759247303009033,-0.993238091468811,-0.9433489441871643,0.9820213317871094,-0.45608624815940857,-0.23049694299697876
1749053726.2512312,5.22072696685791,-1.5178677079132576,1.4412105719195765,-4.099154373208517,-5.134145919476644,5.127280235290527,-0.13903693854808807,-0.1345018446445465,-0.07529935985803604,0.21456965804100037,-0.1278189718723297,-0.20289258658885956,-0.4759247303009033,-0.993238091468811,-0.9433489441871643,0.9820213317871094,-0.45608624815940857,-0.23049694299697876
1749053726.2512965,5.220222473144531,-1.5184167076698323,1.4408906141864222,-4.0982729397215785,-5.134658161793844,5.126495838165283,-0.14367006719112396,-0.1378536820411682,-0.07571856677532196,0.22419893741607666,-0.12913277745246887,-0.20504188537597656,-0.4265497922897339,-1.00009286403656,-0.9558310508728027,0.9817454814910889,-0.46920305490493774,-0.3117600679397583
1749053726.251353,5.220222473144531,-1.5184167076698323,1.4408906141864222,-4.0982729397215785,-5.134658161793844,5.126495838165283,-0.14367006719112396,-0.1378536820411682,-0.07571856677532196,0.22419893741607666,-0.12913277745246887,-0.20504188537597656,-0.4265497922897339,-1.00009286403656,-0.9558310508728027,0.9817454814910889,-0.46920305490493774,-0.3117600679397583
1749053726.2514138,5.219850540161133,-1.5186843176237126,1.4407313505755823,-4.097769638101095,-5.134941283856527,5.126107215881348,-0.14309199154376984,-0.13908742368221283,-0.0767160952091217,0.22916385531425476,-0.12838214635849,-0.2070883810520172,-0.48434677720069885,-1.0165605545043945,-0.9561508297920227,0.937078058719635,-0.4622078537940979,-0.2864147424697876
1749053726.2514756,5.219290256500244,-1.5192212921432038,1.4404123465167444,-4.096867462197775,-5.135403577481405,5.125246524810791,-0.1466681957244873,-0.13902683556079865,-0.07881401479244232,0.2319512665271759,-0.12457173317670822,-0.2169470340013504,-0.4376561641693115,-1.0007976293563843,-0.9326835870742798,0.8856264352798462,-0.4842533469200134,-0.2505531907081604
1749053726.2515447,5.219290256500244,-1.5192212921432038,1.4404123465167444,-4.096867462197775,-5.135403577481405,5.125246524810791,-0.1466681957244873,-0.13902683556079865,-0.07881401479244232,0.2319512665271759,-0.12457173317670822,-0.2169470340013504,-0.4376561641693115,-1.0007976293563843,-0.9326835870742798,0.8856264352798462,-0.4842533469200134,-0.2505531907081604
1749053726.2516084,5.218996047973633,-1.51953715578232,1.440221134816305,-4.09636726001882,-5.135643307362692,5.124792575836182,-0.14728303253650665,-0.13988028466701508,-0.07695010304450989,0.2284332811832428,-0.12673422694206238,-0.2165861278772354,-0.44056984782218933,-0.9888579249382019,-0.9562468528747559,0.9155120849609375,-0.4845377206802368,-0.2523382306098938
1749053726.251669,5.218471527099609,-1.5201208044639607,1.4399250189410608,-4.095443149606222,-5.136177364979879,5.123970031738281,-0.14763741195201874,-0.14521421492099762,-0.08121545612812042,0.22706852853298187,-0.1234903633594513,-0.2142500877380371,-0.4718746542930603,-0.9559123516082764,-0.9120826721191406,0.9531725645065308,-0.5339886546134949,-0.294253945350647
1749053726.2518048,5.218471527099609,-1.5201208044639607,1.4399250189410608,-4.095443149606222,-5.136177364979879,5.123970031738281,-0.14763741195201874,-0.14521421492099762,-0.08121545612812042,0.22706852853298187,-0.1234903633594513,-0.2142500877380371,-0.4718746542930603,-0.9559123516082764,-0.9120826721191406,0.9531725645065308,-0.5339886546134949,-0.294253945350647
1749053726.2533507,5.217874050140381,-1.5207126897624512,1.4395812193499964,-4.094510217706198,-5.136658255253927,5.123070240020752,-0.15058331191539764,-0.14493179321289062,-0.08222921192646027,0.23833031952381134,-0.1312655508518219,-0.21954958140850067,-0.45242562890052795,-1.0060279369354248,-0.9164065718650818,0.9147757291793823,-0.5280961990356445,-0.31339776515960693
1749053726.2983003,5.217874050140381,-1.5207126897624512,1.4395812193499964,-4.094510217706198,-5.136658255253927,5.123070240020752,-0.15058331191539764,-0.14493179321289062,-0.08222921192646027,0.23833031952381134,-0.1312655508518219,-0.21954958140850067,-0.45242562890052795,-1.0060279369354248,-0.9164065718650818,0.9147757291793823,-0.5280961990356445,-0.31339776515960693
1749053726.298346,5.217595100402832,-1.5209506836584588,1.439418141041891,-4.094012161294454,-5.136914316807882,5.122608184814453,-0.15481038391590118,-0.14449912309646606,-0.08253509551286697,0.24602855741977692,-0.13203604519367218,-0.2260430008172989,-0.4946909546852112,-1.0324326753616333,-0.9322755932807922,0.8940474987030029,-0.5350893139839172,-0.2827181816101074
1749053726.2983856,5.21723747253418,-1.5212665063193818,1.4392970244037073,-4.09353556255483,-5.137181941662924,5.122129440307617,-0.15398257970809937,-0.14690379798412323,-0.08249080181121826,0.2434627264738083,-0.13753412663936615,-0.23288466036319733,-0.493069052696228,-1.0049068927764893,-0.9317851662635803,0.8740967512130737,-0.5139659643173218,-0.25334736704826355
1749053726.2984276,5.21691370010376,-1.5215460372022171,1.4391258398639124,-4.093063493768209,-5.137438122426168,5.121642589569092,-0.15631966292858124,-0.14782413840293884,-0.08191459625959396,0.24188022315502167,-0.14013461768627167,-0.23463451862335205,-0.44827741384506226,-0.9920802116394043,-0.9313337206840515,0.8807003498077393,-0.4974757432937622,-0.21875305473804474
1749053726.2984657,5.216585159301758,-1.5218464446118851,1.438946549092428,-4.092579980889791,-5.137741986905233,5.121175289154053,-0.15601927042007446,-0.1474720686674118,-0.08166303485631943,0.23628050088882446,-0.14176762104034424,-0.2328638881444931,-0.46864452958106995,-1.0323946475982666,-0.9494609236717224,0.8985849618911743,-0.48523810505867004,-0.20740045607089996
1749053726.2985034,5.21597146987915,-1.5224950213781376,1.4386103788958948,-4.09167017559194,-5.138341132794515,5.120309352874756,-0.15828010439872742,-0.14822246134281158,-0.08463679999113083,0.23668965697288513,-0.14280645549297333,-0.2252037525177002,-0.3872550129890442,-1.030271053314209,-0.9394545555114746,0.9643831253051758,-0.4750135838985443,-0.26281192898750305
1749053726.2985425,5.21597146987915,-1.5224950213781376,1.4386103788958948,-4.09167017559194,-5.138341132794515,5.120309352874756,-0.15828010439872742,-0.14822246134281158,-0.08463679999113083,0.23668965697288513,-0.14280645549297333,-0.2252037525177002,-0.3872550129890442,-1.030271053314209,-0.9394545555114746,0.9643831253051758,-0.4750135838985443,-0.26281192898750305
1749053726.2985833,5.21537971496582,-1.5231179159930726,1.438263241444723,-4.090652605096334,-5.13893706003298,5.119413375854492,-0.15994073450565338,-0.15341484546661377,-0.08764414489269257,0.24727211892604828,-0.14388619363307953,-0.22626325488090515,-0.46692100167274475,-0.9689974188804626,-0.9056335687637329,0.9593420028686523,-0.47174498438835144,-0.30679869651794434
1749053726.2986212,5.21537971496582,-1.5231179159930726,1.438263241444723,-4.090652605096334,-5.13893706003298,5.119413375854492,-0.15994073450565338,-0.15341484546661377,-0.08764414489269257,0.24727211892604828,-0.14388619363307953,-0.22626325488090515,-0.46692100167274475,-0.9689974188804626,-0.9056335687637329,0.9593420028686523,-0.47174498438835144,-0.30679869651794434
1749053726.2986581,5.215006351470947,-1.5233838383904477,1.438080135975973,-4.090149065057272,-5.139181915913717,5.118969440460205,-0.16193918883800507,-0.1519087553024292,-0.08790047466754913,0.2513749599456787,-0.1441233903169632,-0.23111921548843384,-0.4380421042442322,-1.0025088787078857,-0.8951084017753601,0.9386322498321533,-0.45726627111434937,-0.30132362246513367
1749053726.2986948,5.214378833770752,-1.5240237166038533,1.4377325216876429,-4.0891317329802455,-5.1397698561297815,5.1179585456848145,-0.16349366307258606,-0.1521681845188141,-0.08869300782680511,0.25005507469177246,-0.1473480463027954,-0.23856940865516663,-0.3989378809928894,-1.0003267526626587,-0.889380931854248,0.9359301328659058,-0.47367268800735474,-0.27671802043914795
1749053726.2987351,5.214378833770752,-1.5240237166038533,1.4377325216876429,-4.0891317329802455,-5.1397698561297815,5.1179585456848145,-0.16349366307258606,-0.1521681845188141,-0.08869300782680511,0.25005507469177246,-0.1473480463027954,-0.23856940865516663,-0.3989378809928894,-1.0003267526626587,-0.889380931854248,0.9359301328659058,-0.47367268800735474,-0.27671802043914795
1749053726.298773,5.21412992477417,-1.5243603897145768,1.437556568776266,-4.088619371453756,-5.140053455029623,5.117494583129883,-0.16247963905334473,-0.15310443937778473,-0.08628246933221817,0.2520729601383209,-0.14593279361724854,-0.24047736823558807,-0.43471765518188477,-0.9954433441162109,-0.9077702164649963,0.9554198980331421,-0.4670168161392212,-0.28868910670280457
1749053726.2988093,5.213750839233398,-1.5245982159725209,1.437373463307516,-4.088127275506491,-5.140391413365499,5.117032051086426,-0.16312968730926514,-0.15678387880325317,-0.08904143422842026,0.25925344228744507,-0.14653505384922028,-0.23487260937690735,-0.4251510500907898,-0.9744915962219238,-0.9140284061431885,0.9507031440734863,-0.48564255237579346,-0.2998148202896118
1749053726.2988462,5.213479518890381,-1.524914202546217,1.4371627012835901,-4.0875917873778285,-5.140660230313436,5.1165690422058105,-0.16411469876766205,-0.15553630888462067,-0.08744819462299347,0.26130411028862,-0.152010977268219,-0.23832552134990692,-0.4231364130973816,-1.0096478462219238,-0.8869505524635315,0.9125343561172485,-0.447558730840683,-0.3118060827255249
1749053726.2988858,5.212789535522461,-1.5255902980319043,1.4368584791766565,-4.086533447305197,-5.141225639973776,5.115614891052246,-0.16560815274715424,-0.1613028347492218,-0.08834429085254669,0.2646400034427643,-0.14962323009967804,-0.24681662023067474,-0.4765360355377197,-0.9985785484313965,-0.9165812134742737,0.9254938364028931,-0.4748968183994293,-0.3036127984523773
1749053726.2989235,5.212789535522461,-1.5255902980319043,1.4368584791766565,-4.086533447305197,-5.141225639973776,5.115614891052246,-0.16560815274715424,-0.1613028347492218,-0.08834429085254669,0.2646400034427643,-0.14962323009967804,-0.24681662023067474,-0.4765360355377197,-0.9985785484313965,-0.9165812134742737,0.9254938364028931,-0.4748968183994293,-0.3036127984523773
1749053726.2989628,5.212099552154541,-1.5262489926866074,1.4365108648883265,-4.085507770577902,-5.141849342976705,5.114539623260498,-0.16798295080661774,-0.16392695903778076,-0.08747918903827667,0.26137131452560425,-0.14794877171516418,-0.25546571612358093,-0.44676539301872253,-0.9258389472961426,-0.9372402429580688,0.9311808347702026,-0.4773050546646118,-0.21307362616062164
1749053726.2990003,5.212099552154541,-1.5262489926866074,1.4365108648883265,-4.085507770577902,-5.141849342976705,5.114539623260498,-0.16798295080661774,-0.16392695903778076,-0.08747918903827667,0.26137131452560425,-0.14794877171516418,-0.25546571612358093,-0.44676539301872253,-0.9258389472961426,-0.9372402429580688,0.9311808347702026,-0.4773050546646118,-0.21307362616062164
1749053726.2990406,5.211440086364746,-1.5268785145929833,1.4361513296710413,-4.084484716454977,-5.142383162175314,5.113542079925537,-0.17013739049434662,-0.16293664276599884,-0.08713202178478241,0.25920674204826355,-0.1457166075706482,-0.24806532263755798,-0.43600884079933167,-0.9396281838417053,-0.9684540033340454,0.993808925151825,-0.498222291469574,-0.2549320161342621
1749053726.2990785,5.211070537567139,-1.5271648329547425,1.4359682242022913,-4.083926101724142,-5.142745796834127,5.113032341003418,-0.16928017139434814,-0.16372103989124298,-0.09149791300296783,0.26589128375053406,-0.15002873539924622,-0.24194017052650452,-0.48604315519332886,-1.0308810472488403,-0.959086537361145,0.9980682134628296,-0.49920153617858887,-0.3471958637237549
1749053726.2991147,5.211070537567139,-1.5271648329547425,1.4359682242022913,-4.083926101724142,-5.142745796834127,5.113032341003418,-0.16928017139434814,-0.16372103989124298,-0.09149791300296783,0.26589128375053406,-0.15002873539924622,-0.24194017052650452,-0.48604315519332886,-1.0308810472488403,-0.959086537361145,0.9980682134628296,-0.49920153617858887,-0.3471958637237549
1749053726.2994156,5.210402965545654,-1.52786664411936,1.435584847127096,-4.08281483272695,-5.143295113240377,5.112061977386475,-0.1709173172712326,-0.16575314104557037,-0.09238564968109131,0.27139243483543396,-0.14922860264778137,-0.24812592566013336,-0.49230509996414185,-0.9938726425170898,-0.9351485967636108,0.9612653851509094,-0.4859543442726135,-0.31135597825050354
1749053726.3013768,5.210402965545654,-1.52786664411936,1.435584847127096,-4.08281483272695,-5.143295113240377,5.112061977386475,-0.1709173172712326,-0.16575314104557037,-0.09238564968109131,0.27139243483543396,-0.14922860264778137,-0.24812592566013336,-0.49230509996414185,-0.9938726425170898,-0.9351485967636108,0.9612653851509094,-0.4859543442726135,-0.31135597825050354
1749053726.3463063,5.210075378417969,-1.5282064464739342,1.4354208151446741,-4.08230509380483,-5.143579546605245,5.111529350280762,-0.17303712666034698,-0.17004916071891785,-0.09181481599807739,0.2682493329048157,-0.15416063368320465,-0.2521345317363739,-0.4488849639892578,-0.9682010412216187,-0.9418078660964966,0.9763869047164917,-0.46638223528862,-0.31021344661712646
1749053726.3463514,5.209387302398682,-1.5288982105306168,1.4350650946246546,-4.081214328805441,-5.144288961087362,5.110547065734863,-0.17788079380989075,-0.16744999587535858,-0.09320693463087082,0.2745286226272583,-0.154052734375,-0.25671640038490295,-0.39901798963546753,-0.9937523007392883,-0.9421153664588928,1.0156234502792358,-0.4965170919895172,-0.2970706522464752
1749053726.3463914,5.209387302398682,-1.5288982105306168,1.4350650946246546,-4.081214328805441,-5.144288961087362,5.110547065734863,-0.17788079380989075,-0.16744999587535858,-0.09320693463087082,0.2745286226272583,-0.154052734375,-0.25671640038490295,-0.39901798963546753,-0.9937523007392883,-0.9421153664588928,1.0156234502792358,-0.4965170919895172,-0.2970706522464752
1749053726.346431,5.20904541015625,-1.5292104680887242,1.4348729292498987,-4.080650707284445,-5.1446319262134,5.1099853515625,-0.17653512954711914,-0.16853728890419006,-0.09445109218358994,0.27651697397232056,-0.15727373957633972,-0.2551100254058838,-0.46133726835250854,-0.9858126044273376,-0.940156877040863,1.0249090194702148,-0.4595828950405121,-0.30096757411956787
1749053726.346469,5.2086286544799805,-1.529555083518364,1.434686009083883,-4.0800985298552455,-5.144882623349325,5.109462738037109,-0.17656390368938446,-0.1698397994041443,-0.09504503011703491,0.2810238301753998,-0.15766488015651703,-0.25851741433143616,-0.4550887644290924,-0.9660459160804749,-0.9481388926506042,0.9707860946655273,-0.45631566643714905,-0.3104868233203888
1749053726.3465102,5.2082839012146,-1.5298619990101834,1.434526268635885,-4.079519411126608,-5.145229760800497,5.109010696411133,-0.17513823509216309,-0.17148344218730927,-0.09624339640140533,0.28167563676834106,-0.15686605870723724,-0.25980937480926514,-0.46506598591804504,-0.9946827292442322,-0.9244620203971863,0.9836093187332153,-0.46015268564224243,-0.3272949159145355
1749053726.3465486,5.207530975341797,-1.5305844892612477,1.4341028372394007,-4.078405757943624,-5.14587647119631,5.107925891876221,-0.18002811074256897,-0.17480404675006866,-0.0977097898721695,0.27917715907096863,-0.15400677919387817,-0.27189064025878906,-0.41143548488616943,-0.971893310546875,-0.9285363554954529,1.010237693786621,-0.4737531244754791,-0.2358265221118927
1749053726.3465862,5.207530975341797,-1.5305844892612477,1.4341028372394007,-4.078405757943624,-5.14587647119631,5.107925891876221,-0.18002811074256897,-0.17480404675006866,-0.0977097898721695,0.27917715907096863,-0.15400677919387817,-0.27189064025878906,-0.41143548488616943,-0.971893310546875,-0.9285363554954529,1.010237693786621,-0.4737531244754791,-0.2358265221118927
1749053726.3466232,5.207233905792236,-1.5309273053756733,1.4339073340045374,-4.0778192482390345,-5.146191541348593,5.107360363006592,-0.1806401163339615,-0.17784017324447632,-0.09858990460634232,0.2827781140804291,-0.15502484142780304,-0.27214565873146057,-0.4275723695755005,-0.9774405360221863,-0.94062739610672,1.0056394338607788,-0.5044815540313721,-0.24587413668632507
1749053726.3466597,5.206543922424316,-1.5315894869020958,1.433523956929342,-4.076718708077902,-5.14683968225588,5.106247901916504,-0.18254169821739197,-0.17707864940166473,-0.10104689002037048,0.2906149923801422,-0.1595735102891922,-0.2648116648197174,-0.44774922728538513,-0.9608052372932434,-0.90999436378479,0.9839133620262146,-0.4914865493774414,-0.24702514708042145
1749053726.346696,5.206543922424316,-1.5315894869020958,1.433523956929342,-4.076718708077902,-5.14683968225588,5.106247901916504,-0.18254169821739197,-0.17707864940166473,-0.10104689002037048,0.2906149923801422,-0.1595735102891922,-0.2648116648197174,-0.44774922728538513,-0.9608052372932434,-0.90999436378479,0.9839133620262146,-0.4914865493774414,-0.24702514708042145
1749053726.3467324,5.2061448097229,-1.531977118258812,1.4333046118365687,-4.0761312446989955,-5.147127453480856,5.105713367462158,-0.18210114538669586,-0.1786208599805832,-0.09932096302509308,0.29171571135520935,-0.16151362657546997,-0.26360630989074707,-0.4418727159500122,-0.9635268449783325,-0.9356335401535034,0.99019855260849,-0.4999607503414154,-0.2904241681098938
1749053726.3467681,5.205371379852295,-1.5326977048865338,1.432906452809469,-4.074951549569601,-5.147853676472799,5.104675769805908,-0.18329590559005737,-0.17746274173259735,-0.10169485956430435,0.29202157258987427,-0.1675836741924286,-0.27109286189079285,-0.47660985589027405,-1.0526752471923828,-0.9185012578964233,1.0288736820220947,-0.4707268476486206,-0.2948242127895355
1749053726.346804,5.205371379852295,-1.5326977048865338,1.432906452809469,-4.074951549569601,-5.147853676472799,5.104675769805908,-0.18329590559005737,-0.17746274173259735,-0.10169485956430435,0.29202157258987427,-0.1675836741924286,-0.27109286189079285,-0.47660985589027405,-1.0526752471923828,-0.9185012578964233,1.0288736820220947,-0.4707268476486206,-0.2948242127895355
1749053726.3468404,5.205024242401123,-1.5330185268870373,1.4327529112445276,-4.074356456796163,-5.148163143788473,5.1040873527526855,-0.184452623128891,-0.18030475080013275,-0.10193566232919693,0.2977995276451111,-0.16775624454021454,-0.2743949592113495,-0.45148998498916626,-1.0199568271636963,-0.916527271270752,1.0263930559158325,-0.4524393081665039,-0.2671634554862976
1749053726.3468804,5.205024242401123,-1.5330185268870373,1.4327529112445276,-4.074356456796163,-5.148163143788473,5.1040873527526855,-0.184452623128891,-0.18030475080013275,-0.10193566232919693,0.2977995276451111,-0.16775624454021454,-0.2743949592113495,-0.45148998498916626,-1.0199568271636963,-0.916527271270752,1.0263930559158325,-0.4524393081665039,-0.2671634554862976
1749053726.3469198,5.204322338104248,-1.533754577194788,1.4323347250567835,-4.073178430596823,-5.148851815854208,5.102983474731445,-0.18706727027893066,-0.18369024991989136,-0.1041874811053276,0.30182087421417236,-0.16701556742191315,-0.2718869149684906,-0.4483151435852051,-0.9634827375411987,-0.9057168960571289,1.0004453659057617,-0.4640049636363983,-0.2956295609474182
1749053726.346956,5.203586578369141,-1.53443722174082,1.4319174925433558,-4.0719551048674525,-5.149507943783895,5.101899147033691,-0.1883142739534378,-0.1840725541114807,-0.10573945939540863,0.3013599216938019,-0.16155382990837097,-0.27744603157043457,-0.4912795424461365,-0.9992628693580627,-0.919654369354248,0.9887351989746094,-0.4846804141998291,-0.305488646030426
1749053726.346992,5.203586578369141,-1.53443722174082,1.4319174925433558,-4.0719551048674525,-5.149507943783895,5.101899147033691,-0.1883142739534378,-0.1840725541114807,-0.10573945939540863,0.3013599216938019,-0.16155382990837097,-0.27744603157043457,-0.4912795424461365,-0.9992628693580627,-0.919654369354248,0.9887351989746094,-0.4846804141998291,-0.305488646030426
1749053726.3470294,5.203165531158447,-1.5347977143577118,1.431701962147848,-4.071346899072164,-5.149882976208822,5.1013288497924805,-0.18809595704078674,-0.18383924663066864,-0.1044350415468216,0.30071502923965454,-0.16638712584972382,-0.28294143080711365,-0.46495646238327026,-1.00954270362854,-0.9239539504051208,1.034315586090088,-0.49548763036727905,-0.26551729440689087
1749053726.3470657,5.2027435302734375,-1.5351921667209645,1.4314706961261194,-4.07073773960256,-5.150165144597189,5.100732326507568,-0.18760482966899872,-0.18678762018680573,-0.10598951578140259,0.30083414912223816,-0.16400304436683655,-0.28643372654914856,-0.48142337799072266,-1.015181541442871,-0.9147359728813171,1.0403856039047241,-0.5180095434188843,-0.26049119234085083
1749053726.3471017,5.202372074127197,-1.5355795000544568,1.4313018957721155,-4.070107122460836,-5.150519196187155,5.100170612335205,-0.1914035826921463,-0.18952257931232452,-0.1083436831831932,0.30782005190849304,-0.16728731989860535,-0.2862626910209656,-0.45946675539016724,-1.0075947046279907,-0.8972572684288025,0.996496319770813,-0.521059513092041,-0.24386408925056458
1749053726.347419,5.201582908630371,-1.5363580298474808,1.430875603352682,-4.068876167336935,-5.151195708905355,5.0990376472473145,-0.19545100629329681,-0.19149096310138702,-0.10634224861860275,0.3120591938495636,-0.1741570234298706,-0.2865118086338043,-0.4758153259754181,-1.00118088722229,-0.912253201007843,0.9628918170928955,-0.47529956698417664,-0.25951218605041504
1749053726.3494177,5.201582908630371,-1.5363580298474808,1.430875603352682,-4.068876167336935,-5.151195708905355,5.0990376472473145,-0.19545100629329681,-0.19149096310138702,-0.10634224861860275,0.3120591938495636,-0.1741570234298706,-0.2865118086338043,-0.4758153259754181,-1.00118088722229,-0.912253201007843,0.9628918170928955,-0.47529956698417664,-0.25951218605041504
1749053726.3902743,5.201210021972656,-1.5367240396193047,1.4306758085833948,-4.068231721917623,-5.151531640683309,5.098456859588623,-0.19646522402763367,-0.19054178893566132,-0.10566159337759018,0.3117145001888275,-0.17558430135250092,-0.2845643162727356,-0.49687811732292175,-1.0253714323043823,-0.925143301486969,0.9961391091346741,-0.4896569848060608,-0.27962443232536316
1749053726.390319,5.200459003448486,-1.537469719802477,1.430249039326803,-4.066999813119406,-5.152180616055624,5.097321033477783,-0.19596225023269653,-0.1911519318819046,-0.10582428425550461,0.3149259686470032,-0.17377394437789917,-0.29102107882499695,-0.43735629320144653,-0.9804581999778748,-0.9061102867126465,0.9921845197677612,-0.4963679313659668,-0.2680327296257019
1749053726.3903587,5.200459003448486,-1.537469719802477,1.430249039326803,-4.066999813119406,-5.152180616055624,5.097321033477783,-0.19596225023269653,-0.1911519318819046,-0.10582428425550461,0.3149259686470032,-0.17377394437789917,-0.29102107882499695,-0.43735629320144653,-0.9804581999778748,-0.9061102867126465,0.9921845197677612,-0.4963679313659668,-0.2680327296257019
1749053726.3903997,5.199669361114502,-1.5383072917214413,1.4298179785357874,-4.0657247505583705,-5.152942482625143,5.096153259277344,-0.198186993598938,-0.19109024107456207,-0.10675054788589478,0.31854045391082764,-0.17296747863292694,-0.2895987927913666,-0.49042031168937683,-1.0668271780014038,-0.9678313732147217,0.978629469871521,-0.5388031601905823,-0.26997870206832886
1749053726.3904374,5.199669361114502,-1.5383072917214413,1.4298179785357874,-4.0657247505583705,-5.152942482625143,5.096153259277344,-0.198186993598938,-0.19109024107456207,-0.10675054788589478,0.31854045391082764,-0.17296747863292694,-0.2895987927913666,-0.49042031168937683,-1.0668271780014038,-0.9678313732147217,0.978629469871521,-0.5388031601905823,-0.26997870206832886
1749053726.3904748,5.199189186096191,-1.5386536952904244,1.429605786000387,-4.065099140206808,-5.15333873430361,5.095579624176025,-0.20265927910804749,-0.19459450244903564,-0.10802354663610458,0.318884015083313,-0.17716175317764282,-0.29142892360687256,-0.4483085870742798,-1.0196202993392944,-0.9533084630966187,0.9785633087158203,-0.5321572422981262,-0.3100076913833618
1749053726.3905125,5.198402404785156,-1.5394754086485882,1.4291537443744105,-4.063784023324484,-5.154063288365499,5.09437370300293,-0.20071592926979065,-0.1955004781484604,-0.10817280411720276,0.3150956630706787,-0.18253105878829956,-0.30029866099357605,-0.438778281211853,-0.9589511156082153,-0.9355798959732056,1.020467758178711,-0.47518157958984375,-0.262995183467865
1749053726.390549,5.198402404785156,-1.5394754086485882,1.4291537443744105,-4.063784023324484,-5.154063288365499,5.09437370300293,-0.20071592926979065,-0.1955004781484604,-0.10817280411720276,0.3150956630706787,-0.18253105878829956,-0.30029866099357605,-0.438778281211853,-0.9589511156082153,-0.9355798959732056,1.020467758178711,-0.47518157958984375,-0.262995183467865
1749053726.3905864,5.197571754455566,-1.540280132820346,1.4286797682391565,-4.0624641380705775,-5.154779020939962,5.093154430389404,-0.20025038719177246,-0.19455499947071075,-0.10934027284383774,0.32734110951423645,-0.18649433553218842,-0.3022342026233673,-0.4712095558643341,-0.9756714701652527,-0.9466401934623718,0.9474607110023499,-0.45452308654785156,-0.2623620927333832
1749053726.3906233,5.197571754455566,-1.540280132820346,1.4286797682391565,-4.0624641380705775,-5.154779020939962,5.093154430389404,-0.20025038719177246,-0.19455499947071075,-0.10934027284383774,0.32734110951423645,-0.18649433553218842,-0.3022342026233673,-0.4712095558643341,-0.9756714701652527,-0.9466401934623718,0.9474607110023499,-0.45452308654785156,-0.2623620927333832
1749053726.39066,5.197161674499512,-1.5406835612705727,1.4284675757037562,-4.061808486978048,-5.155159298573629,5.092583179473877,-0.20030216872692108,-0.19791144132614136,-0.10957614332437515,0.329657644033432,-0.18654628098011017,-0.3024289309978485,-0.5176118612289429,-0.9675851464271545,-0.9509496092796326,0.9281032681465149,-0.4452288746833801,-0.24243421852588654
1749053726.3906965,5.1967668533325195,-1.54105747610841,1.42822772661318,-4.0611683330931605,-5.155503455792562,5.091993808746338,-0.2021750956773758,-0.200227752327919,-0.11106602847576141,0.32520750164985657,-0.18604283034801483,-0.30294865369796753,-0.49142590165138245,-1.0003454685211182,-0.9410173892974854,0.9356801509857178,-0.4836810827255249,-0.28775495290756226
1749053726.3907332,5.196328163146973,-1.5414264623871823,1.4280465284930628,-4.060532947579855,-5.15585965314974,5.091364860534668,-0.2038172036409378,-0.20055437088012695,-0.11066285520792007,0.3224744498729706,-0.18220645189285278,-0.3022995889186859,-0.4739343822002411,-0.973907470703125,-0.9503644108772278,0.9864373207092285,-0.4792349934577942,-0.303937166929245
1749053726.39077,5.196011066436768,-1.5418968510678788,1.4278033415423792,-4.059901376763815,-5.1562398115741175,5.090759754180908,-0.2045256346464157,-0.20324108004570007,-0.11305635422468185,0.3229973614215851,-0.17841129004955292,-0.303133100271225,-0.4788675606250763,-0.9419389367103577,-0.9630820751190186,0.9803053140640259,-0.4993203580379486,-0.29738765954971313
1749053726.3908067,5.195127010345459,-1.542678791364171,1.4274066130267542,-4.058502813378805,-5.156943504010336,5.089547157287598,-0.20559225976467133,-0.20037172734737396,-0.11347774416208267,0.3297180235385895,-0.17898891866207123,-0.3056277632713318,-0.5103502869606018,-0.9702823758125305,-0.9333249926567078,0.9504875540733337,-0.523300290107727,-0.29178714752197266
1749053726.3908436,5.195127010345459,-1.542678791364171,1.4274066130267542,-4.058502813378805,-5.156943504010336,5.089547157287598,-0.20559225976467133,-0.20037172734737396,-0.11347774416208267,0.3297180235385895,-0.17898891866207123,-0.3056277632713318,-0.5103502869606018,-0.9702823758125305,-0.9333249926567078,0.9504875540733337,-0.523300290107727,-0.29178714752197266
1749053726.3908803,5.194692134857178,-1.543086950933077,1.4271252791034144,-4.05787267307424,-5.157267514859335,5.08894157409668,-0.20642173290252686,-0.199569970369339,-0.11312951147556305,0.32884836196899414,-0.17976586520671844,-0.30888330936431885,-0.5321695804595947,-1.0240808725357056,-0.9687807559967041,0.9708423018455505,-0.5691635608673096,-0.31976115703582764
1749053726.3909168,5.19426155090332,-1.5434365675649424,1.4269240538226526,-4.057207723657125,-5.157646481190817,5.088265895843506,-0.2077750265598297,-0.2046634405851364,-0.11473605036735535,0.33080121874809265,-0.1882849782705307,-0.3116340935230255,-0.47943776845932007,-0.985093355178833,-0.9411637187004089,0.9703282117843628,-0.5398126840591431,-0.31656599044799805
1749053726.3909538,5.193811893463135,-1.543913970967271,1.4266651312457483,-4.056545158425802,-5.157999459897177,5.087668418884277,-0.21099695563316345,-0.20531420409679413,-0.11556342989206314,0.3348607122898102,-0.18928830325603485,-0.31560757756233215,-0.45550164580345154,-0.9912401437759399,-0.9259054064750671,0.9702882766723633,-0.5450608730316162,-0.29197055101394653
1749053726.3909895,5.193005561828613,-1.5447378878346463,1.4262374083148401,-4.055225988427633,-5.1587682406054896,5.086372375488281,-0.20896068215370178,-0.20540910959243774,-0.11503088474273682,0.3391021192073822,-0.1928136795759201,-0.3180716633796692,-0.43428370356559753,-0.9693239331245422,-0.9599458575248718,0.9428449273109436,-0.527003824710846,-0.2813539206981659
1749053726.3913991,5.193005561828613,-1.5447378878346463,1.4262374083148401,-4.055225988427633,-5.1587682406054896,5.086372375488281,-0.20896068215370178,-0.20540910959243774,-0.11503088474273682,0.3391021192073822,-0.1928136795759201,-0.3180716633796692,-0.43428370356559753,-0.9693239331245422,-0.9599458575248718,0.9428449273109436,-0.527003824710846,-0.2813539206981659
1749053726.393354,5.1921820640563965,-1.545559375812747,1.4257667700396937,-4.053889652291769,-5.159591380749838,5.085167407989502,-0.21155059337615967,-0.20435842871665955,-0.11590995639562607,0.3356066644191742,-0.19394975900650024,-0.3150705397129059,-0.5022013783454895,-0.9842832088470459,-0.9605786204338074,1.0142815113067627,-0.5029892921447754,-0.3039329946041107
1749053726.4383297,5.191689968109131,-1.545936993589141,1.4255154768573206,-4.053205867806906,-5.159991208706991,5.084530830383301,-0.21414239704608917,-0.20656748116016388,-0.11595984548330307,0.3382461369037628,-0.19553515315055847,-0.31555989384651184,-0.473263680934906,-1.0073353052139282,-0.9736237525939941,1.0331645011901855,-0.5184920430183411,-0.31651169061660767
1749053726.438375,5.191689968109131,-1.545936993589141,1.4255154768573206,-4.053205867806906,-5.159991208706991,5.084530830383301,-0.21414239704608917,-0.20656748116016388,-0.11595984548330307,0.3382461369037628,-0.19553515315055847,-0.31555989384651184,-0.473263680934906,-1.0073353052139282,-0.9736237525939941,1.0331645011901855,-0.5184920430183411,-0.31651169061660767
1749053726.438415,5.190832614898682,-1.5467998416027804,1.4250672499286097,-4.051850219766134,-5.160759274159567,5.083197593688965,-0.2187911570072174,-0.21317189931869507,-0.11730894446372986,0.34658896923065186,-0.19959208369255066,-0.32465046644210815,-0.4562070369720459,-0.9585880637168884,-0.9660608172416687,1.004315733909607,-0.5033009648323059,-0.28109580278396606
1749053726.4384563,5.190832614898682,-1.5467998416027804,1.4250672499286097,-4.051850219766134,-5.160759274159567,5.083197593688965,-0.2187911570072174,-0.21317189931869507,-0.11730894446372986,0.34658896923065186,-0.19959208369255066,-0.32465046644210815,-0.4562070369720459,-0.9585880637168884,-0.9660608172416687,1.004315733909607,-0.5033009648323059,-0.28109580278396606
1749053726.4384947,5.189992904663086,-1.5476522085121651,1.4245451132403772,-4.050461669961447,-5.161574069653646,5.081878185272217,-0.2171168327331543,-0.21232108771800995,-0.12154924869537354,0.3462296426296234,-0.20150615274906158,-0.324070543050766,-0.46886974573135376,-0.9585425853729248,-0.9233768582344055,0.9881254434585571,-0.48744457960128784,-0.2724706828594208
1749053726.4385328,5.18954610824585,-1.548041784470417,1.4243090788470667,-4.0497476063170375,-5.161978308354513,5.081235885620117,-0.21803517639636993,-0.21083074808120728,-0.12213773280382156,0.35007375478744507,-0.19969184696674347,-0.3244847357273102,-0.47299763560295105,-0.9901968836784363,-0.9095107316970825,1.0214182138442993,-0.4729233384132385,-0.31359219551086426
1749053726.43857,5.18954610824585,-1.548041784470417,1.4243090788470667,-4.0497476063170375,-5.161978308354513,5.081235885620117,-0.21803517639636993,-0.21083074808120728,-0.12213773280382156,0.35007375478744507,-0.19969184696674347,-0.3244847357273102,-0.47299763560295105,-0.9901968836784363,-0.9095107316970825,1.0214182138442993,-0.4729233384132385,-0.31359219551086426
1749053726.4386077,5.189150333404541,-1.5484861967018624,1.42407733598818,-4.049045225183004,-5.162366811429159,5.080563068389893,-0.2198709398508072,-0.20998349785804749,-0.12236298620700836,0.35354122519493103,-0.19773845374584198,-0.3268124461174011,-0.49031394720077515,-1.0440717935562134,-0.9298936128616333,1.0023149251937866,-0.49197423458099365,-0.2840535044670105
1749053726.438645,5.188700199127197,-1.548925132756569,1.4238293806659144,-4.048343559304708,-5.1627506653415125,5.079948902130127,-0.22231639921665192,-0.21362698078155518,-0.1211659163236618,0.3566247522830963,-0.19537968933582306,-0.3270057439804077,-0.4851502776145935,-1.001997709274292,-0.9101597666740417,0.9727951288223267,-0.5107725262641907,-0.2885742783546448
1749053726.4386878,5.188300609588623,-1.549369466756918,1.4235742727862757,-4.047632356683248,-5.163146440182821,5.079266548156738,-0.22347359359264374,-0.2160142958164215,-0.12021410465240479,0.35440754890441895,-0.19217105209827423,-0.32638779282569885,-0.46365776658058167,-1.0102746486663818,-0.9446581602096558,0.9671000242233276,-0.543290913105011,-0.28869059681892395
1749053726.4387255,5.187788009643555,-1.5498090472868462,1.4233506361590784,-4.046928068200582,-5.163561884556906,5.078616142272949,-0.2245718091726303,-0.21778105199337006,-0.11892717331647873,0.3523320257663727,-0.1969296932220459,-0.32784146070480347,-0.4697566330432892,-0.9786086082458496,-0.9513253569602966,1.0195472240447998,-0.5407463908195496,-0.2912101745605469
1749053726.4387617,5.1873297691345215,-1.550249659722187,1.423086945210592,-4.046210428277487,-5.1639384667025965,5.077939510345459,-0.222794771194458,-0.2192596048116684,-0.12061592936515808,0.35720765590667725,-0.19482436776161194,-0.32951679825782776,-0.48122817277908325,-0.9527817368507385,-0.9611770510673523,1.0271731615066528,-0.556352436542511,-0.3347853124141693
1749053726.4388025,5.1868896484375,-1.5506752219847222,1.4228432814227503,-4.045478006402487,-5.16432232061495,5.077281475067139,-0.22480830550193787,-0.21781383454799652,-0.12271301448345184,0.36320066452026367,-0.20258304476737976,-0.331034779548645,-0.5039198994636536,-0.9872424006462097,-0.9392915964126587,1.005570411682129,-0.5379141569137573,-0.33613383769989014
1749053726.4388416,5.1864519119262695,-1.5510955818793555,1.422568146382467,-4.0447429619231166,-5.1647027174579065,5.076623916625977,-0.2267739474773407,-0.2192596197128296,-0.12449911236763,0.36526405811309814,-0.20307359099388123,-0.334808349609375,-0.4815741181373596,-1.0090398788452148,-0.9299728870391846,0.941881000995636,-0.5380364656448364,-0.3082747757434845
