nimar13/UR3e_dataset_trayectorias/trayectorias_ejecutadas/trapezoidal_func/trayectoria_196_result.csv
timestamp,q1,q2,q3,q4,q5,q6,qd1,qd2,qd3,qd4,qd5,qd6,tau1,tau2,tau3,tau4,tau5,tau6
1749058964.0143023,0.5297649502754211,0.2840666013905029,-1.080711841583252,-4.508361002007955,4.865420818328857,5.300722599029541,0.00014252783148549497,-0.0017806055257096887,0.00012171871640020981,0.0008225925848819315,0.00012474322284106165,-0.0027999093290418386,0.3602637052536011,-1.4830865859985352,-0.45365577936172485,0.6249545812606812,0.01999630406498909,-0.018454283475875854
1749058964.0143561,0.5297649502754211,0.2840666013905029,-1.080711841583252,-4.508361002007955,4.865420818328857,5.300722599029541,0.00014252783148549497,-0.0017806055257096887,0.00012171871640020981,0.0008225925848819315,0.00012474322284106165,-0.0027999093290418386,0.3602637052536011,-1.4830865859985352,-0.45365577936172485,0.6249545812606812,0.01999630406498909,-0.018454283475875854
1749058964.0144024,0.5297351479530334,0.2840511041828613,-1.0806844234466553,-4.508318086663717,4.865448474884033,5.3007612228393555,0.001621581264771521,-0.0013695486122742295,0.0001117299179895781,0.0011574323289096355,0.00011343285586917773,-0.002157644834369421,0.36074692010879517,-1.4751743078231812,-0.4585951268672943,0.6161794662475586,0.02497437223792076,-0.00892147421836853
1749058964.0144508,0.5297232270240784,0.2840511041828613,-1.0806725025177002,-4.508345743218893,4.8654255867004395,5.300741672515869,0.0015027628978714347,-0.0012891067890450358,0.00010729264613473788,0.0010720326099544764,0.0001088323988369666,-0.0019377537537366152,0.3710804581642151,-1.464772343635559,-0.44485902786254883,0.6247217059135437,0.019408300518989563,-0.012287259101867676
1749058964.0144908,0.5297266840934753,0.2840074735828857,-1.0806963443756104,-4.508352657357687,4.865444660186768,5.300729751586914,0.0013863095082342625,-0.0010618263622745872,0.00010319147986592725,0.0010253065265715122,0.00010461153578944504,-0.001856748596765101,0.34364843368530273,-1.488538384437561,-0.4541434049606323,0.6158042550086975,0.032375697046518326,-0.0017887353897094727
1749058964.0145292,0.5297726392745972,0.2840356069752197,-1.0806808471679688,-4.508314510385031,4.865382671356201,5.300714492797852,0.0011978589463979006,-0.0008597007836215198,9.938936273101717e-05,0.0009327750885859132,0.00010070743155665696,-0.0017318825703114271,0.3643537759780884,-1.4801405668258667,-0.46352991461753845,0.6293424963951111,0.010437291115522385,-0.0025348961353302
1749058964.014568,0.5298037528991699,0.2840272623249511,-1.0806999206542969,-4.508336683312887,4.865429401397705,5.300752639770508,0.0011335100280120969,-0.000850470329169184,9.586259693605825e-05,0.0008486241567879915,3.4723877888609422e-06,-0.001647110446356237,0.3819235563278198,-1.4660848379135132,-0.4604911208152771,0.6279774308204651,0.01022985577583313,-0.009374186396598816
1749058964.0146055,0.5297613739967346,0.2840546804615478,-1.0806844234466553,-4.508306165734762,4.865421772003174,5.300780296325684,0.0012101145694032311,-0.0007460418273694813,9.257538476958871e-05,0.0007977458299137652,-5.198678627493791e-05,-0.0014867507852613926,0.37211287021636963,-1.4847038984298706,-0.4580839276313782,0.6140637993812561,0.028882194310426712,-0.017687782645225525
1749058964.014644,0.5297542810440063,0.2840474086948852,-1.080711841583252,-4.50833334545278,4.865436553955078,5.30073356628418,0.0015444100135937333,-0.0006555297295562923,8.950606570579112e-05,0.0007062837830744684,-5.99839877395425e-05,-0.001330250990577042,0.3681108355522156,-1.469455361366272,-0.46638792753219604,0.6408962607383728,0.03939326852560043,-0.009400218725204468
1749058964.0146816,0.5297315716743469,0.2840583759495239,-1.0806963443756104,-4.508336683312887,4.86544942855835,5.300729751586914,0.0016861596377566457,-0.0005845334380865097,8.66338232299313e-05,0.000699562777299434,-5.971229256829247e-05,-0.001199999125674367,0.3596687614917755,-1.4595903158187866,-0.4791342318058014,0.6216144561767578,0.0058877356350421906,-0.01275104284286499
1749058964.0147254,0.5297966003417969,0.28408221780743403,-1.0806963443756104,-4.508314510385031,4.865406513214111,5.300737380981445,0.0024693168234080076,-0.0005274160648696125,8.394008182222024e-05,0.0006493389955721796,-5.808994683320634e-05,-0.0010148324072360992,0.34736156463623047,-1.4468523263931274,-0.4599847197532654,0.6132527589797974,0.021393638104200363,-0.006044715642929077
1749058964.0147643,0.5297966003417969,0.28408221780743403,-1.0806963443756104,-4.508314510385031,4.865406513214111,5.300737380981445,0.0024693168234080076,-0.0005274160648696125,8.394008182222024e-05,0.0006493389955721796,-5.808994683320634e-05,-0.0010148324072360992,0.34736156463623047,-1.4468523263931274,-0.4599847197532654,0.6132527589797974,0.021393638104200363,-0.006044715642929077
1749058964.0148025,0.529777467250824,0.2840546804615478,-1.0806808471679688,-4.508352895776266,4.865448474884033,5.300745487213135,0.0022164462134242058,-0.0003468685317784548,7.6778516813647e-05,0.0004988068831153214,-5.3017527534393594e-05,-0.0006936731515452266,0.36502212285995483,-1.4488120079040527,-0.47530031204223633,0.620491087436676,0.030550429597496986,-0.012157827615737915
1749058964.0148404,0.5297847390174866,0.28406302511181636,-1.0806963443756104,-4.508329769174093,4.865409851074219,5.300729751586914,0.002164488425478339,-0.000316085119266063,7.465382077498361e-05,0.00046215442125685513,-5.1500584959285334e-05,-0.0006239390349946916,0.354522168636322,-1.4440747499465942,-0.46791642904281616,0.6175580620765686,0.032772958278656006,-0.006449371576309204
1749058964.0148811,0.5297847390174866,0.28406302511181636,-1.0806963443756104,-4.508329769174093,4.865409851074219,5.300729751586914,0.002164488425478339,-0.000316085119266063,7.465382077498361e-05,0.00046215442125685513,-5.1500584959285334e-05,-0.0006239390349946916,0.354522168636322,-1.4440747499465942,-0.46791642904281616,0.6175580620765686,0.032772958278656006,-0.006449371576309204
1749058964.0149198,0.5297820568084717,0.2840546804615478,-1.080703616142273,-4.508329769174093,4.865460395812988,5.300717830657959,0.002897631609812379,-0.00027709384448826313,7.074298628140241e-05,0.00040293342317454517,-4.871234341408126e-05,-0.0005895609501749277,0.3636940121650696,-1.4238674640655518,-0.47668951749801636,0.6126285791397095,0.017083946615457535,-0.020628780126571655
1749058964.014957,0.529785692691803,0.2840356069752197,-1.080703616142273,-4.508345743218893,4.865406513214111,5.3007097244262695,0.002587317256256938,-0.0002610173833090812,6.893536919960752e-05,0.00037867965875193477,-4.742859164252877e-05,-0.0005411700694821775,0.37221604585647583,-1.4211667776107788,-0.48556965589523315,0.624422013759613,0.026744678616523743,-0.019056066870689392
1749058964.0149946,0.5297821164131165,0.2841014105030517,-1.0806879997253418,-4.5083025894560755,4.865479469299316,5.300717830657959,0.0025897298473864794,-0.00024670723360031843,6.72201786073856e-05,0.00035718208528123796,-4.621003972715698e-05,-0.0005492534255608916,0.328108012676239,-1.41118323802948,-0.46891075372695923,0.617183268070221,0.03341358155012131,-0.013130426406860352
1749058964.0150318,0.5298447608947754,0.28408579408612056,-1.0806844234466553,-4.508352657357687,4.865409851074219,5.300717830657959,0.002719894517213106,-0.00023388347472064197,6.558734457939863e-05,0.0003379972476977855,-4.505376273300499e-05,-0.0005244199419394135,0.3534890413284302,-1.4120064973831177,-0.48899880051612854,0.619867205619812,0.005118962377309799,-0.01492929458618164
1749058964.0151575,0.5298447608947754,0.28408579408612056,-1.0806844234466553,-4.508352657357687,4.865409851074219,5.300717830657959,0.002719894517213106,-0.00023388347472064197,6.558734457939863e-05,0.0003379972476977855,-4.505376273300499e-05,-0.0005244199419394135,0.3534890413284302,-1.4120064973831177,-0.48899880051612854,0.619867205619812,0.005118962377309799,-0.01492929458618164
1749058964.0164683,0.5298210978507996,0.2840427595325927,-1.0806808471679688,-4.508310934106344,4.865436553955078,5.300752639770508,0.002932507311925292,-0.00017929355090018362,6.403063161997125e-05,0.0003207706904504448,-5.657766814692877e-05,-0.0004912948934361339,0.358392596244812,-1.4228206872940063,-0.4835900664329529,0.625295877456665,0.025018151849508286,-0.013343095779418945
1749058964.0582795,0.5298011898994446,0.28406302511181636,-1.0806844234466553,-4.508345743218893,4.8653788566589355,5.3007025718688965,0.0027839713729918003,-0.00016186622087843716,6.1132108385209e-05,0.00029110221657902,-6.256772030610591e-05,-0.00043269325396977365,0.3697337508201599,-1.3987401723861694,-0.5060809850692749,0.618057131767273,0.028649523854255676,0.0020144879817962646
1749058964.0583253,0.5298011898994446,0.28406302511181636,-1.0806844234466553,-4.508345743218893,4.8653788566589355,5.3007025718688965,0.0027839713729918003,-0.00016186622087843716,6.1132108385209e-05,0.00029110221657902,-6.256772030610591e-05,-0.00043269325396977365,0.3697337508201599,-1.3987401723861694,-0.5060809850692749,0.618057131767273,0.028649523854255676,0.0020144879817962646
1749058964.0583792,0.5298411846160889,0.2840511041828613,-1.0806844234466553,-4.508314510385031,4.8653788566589355,5.30073356628418,0.003106496063992381,-0.0001485104876337573,5.848357250215486e-05,0.0002664605272002518,-6.00536513957195e-05,-0.0003862376615870744,0.36773961782455444,-1.3737856149673462,-0.49777668714523315,0.6233614087104797,0.038310859352350235,-0.018649667501449585
1749058964.0584211,0.5298722386360168,0.2840199905582885,-1.0806808471679688,-4.5083025894560755,4.8654255867004395,5.300764560699463,0.003170663956552744,-0.00014262642071116716,5.7243705668952316e-05,0.00025564146926626563,-5.875390343135223e-05,-0.00036654985160566866,0.36643528938293457,-1.3853651285171509,-0.5109832286834717,0.6203039884567261,0.03281889110803604,-0.022780075669288635
1749058964.0584648,0.529853105545044,0.2840511041828613,-1.0806963443756104,-4.508318086663717,4.865401744842529,5.30072546005249,0.003173420438542962,-0.00013719050912186503,5.605434125754982e-05,0.00024566726642660797,-5.750377385993488e-05,-0.0003487822541501373,0.3486967980861664,-1.355704426765442,-0.5046358108520508,0.6133773326873779,0.016586121171712875,-0.011958673596382141
1749058964.0585055,0.5298686027526855,0.2840511041828613,-1.0806999206542969,-4.508329769174093,4.865382671356201,5.3007683753967285,0.002913212403655052,-0.00013215462968219072,5.491503907251172e-05,0.0002364425890846178,-5.630387022392824e-05,-0.0003326558799017221,0.3441268801689148,-1.3563488721847534,-0.506536602973938,0.6101326942443848,0.018998432904481888,-0.004668861627578735
1749058964.0585437,0.5298686623573303,0.2840583759495239,-1.0806844234466553,-4.508329769174093,4.865406513214111,5.300714492797852,0.00258001871407032,-0.0001274749229196459,5.382043673307635e-05,0.00022788647038396448,-5.51542871107813e-05,-0.0003179508203174919,0.3428657054901123,-1.3522950410842896,-0.5211653113365173,0.6148129105567932,0.026147376745939255,-0.0095977783203125
1749058964.0585818,0.5298686027526855,0.2840546804615478,-1.0806963443756104,-4.508336683312887,4.86544132232666,5.3007493019104,0.0023884319234639406,-0.00012311503814999014,3.634986205724999e-05,0.00021992760594002903,-5.405016418080777e-05,-0.0003044983313884586,0.355497270822525,-1.3492196798324585,-0.5030505657196045,0.6158736348152161,0.020755469799041748,0.0014166533946990967
1749058964.0586197,0.5298997163772583,0.2840319114872436,-1.0807082653045654,-4.508352657357687,4.865394592285156,5.300698757171631,0.002142111072316766,-0.00011904400889761746,3.458109131315723e-05,0.00021250627469271421,-5.2988580137025565e-05,-0.00029213749803602695,0.3578774631023407,-1.347005009651184,-0.513344407081604,0.6151246428489685,0.021479759365320206,0.004760265350341797
1749058964.0586572,0.5299199223518372,0.2840391832539062,-1.0806999206542969,-4.508314510385031,4.8654327392578125,5.300721645355225,0.002094212220981717,-9.55507712205872e-05,3.386062599020079e-05,0.00020556979870889336,-5.196919300942682e-05,-0.00028073720750398934,0.3562806248664856,-1.3529120683670044,-0.5198073387145996,0.6256083846092224,0.03145131468772888,-0.0038735270500183105
1749058964.0586944,0.5298805236816406,0.2840427595325927,-1.0807119607925415,-4.508364578286642,4.86541748046875,5.300740718841553,0.0025189234875142574,-8.383343811146915e-05,3.323092823848128e-05,0.0001990719756577164,-5.098777910461649e-05,-0.00027019833214581013,0.3656480014324188,-1.3219536542892456,-0.5252049565315247,0.61406409740448,0.032596148550510406,-0.02320265769958496
1749058964.058732,0.5298852920532227,0.2840128380009155,-1.0806963443756104,-4.508329769174093,4.865386962890625,5.3007025718688965,0.002591188531368971,-8.122604776872322e-05,3.262824975536205e-05,0.0001929721183842048,-5.00420355820097e-05,-0.00026042130775749683,0.34451231360435486,-1.3224077224731445,-0.5163440704345703,0.6197425127029419,0.017136570066213608,-0.015908807516098022
1749058964.0587695,0.5298888683319092,0.2840236860462646,-1.080711841583252,-4.508321424523825,4.8654255867004395,5.300686836242676,0.002663042861968279,-7.88528413977474e-05,3.204730455763638e-05,0.00018723518587648869,-4.9131802370538935e-05,-0.0002513249055482447,0.33718952536582947,-1.329086422920227,-0.5192734003067017,0.6208657622337341,0.02434273064136505,0.002219855785369873
1749058964.058807,0.5299007892608643,0.2840511041828613,-1.0806844234466553,-4.508321424523825,4.865456581115723,5.30073356628418,0.0027769620064646006,1.4487329281109851e-05,3.148626274196431e-05,0.00018182977510150522,-4.8253794375341386e-05,-0.00024284656683448702,0.33031541109085083,-1.3337914943695068,-0.5222989320755005,0.6115682125091553,0.01631239429116249,-0.014703512191772461
1749058964.058844,0.5298888087272644,0.2840546804615478,-1.0806927680969238,-4.508352657357687,4.8654255867004395,5.300737380981445,0.0027450332418084145,5.465559661388397e-05,3.0945328035159037e-05,0.00017672758258413523,-4.740647636936046e-05,-0.00019034351862501353,0.3377715051174164,-1.3244054317474365,-0.5369253158569336,0.6140640377998352,0.02728889137506485,-0.01077502965927124
1749058964.058882,0.5299162864685059,0.2840941387363891,-1.0806844234466553,-4.508345743218893,4.865401744842529,5.300721645355225,0.0024344450794160366,5.3429735999088734e-05,1.9131106455461122e-05,0.00017190436483360827,-4.658845136873424e-05,-0.0001699106505839154,0.3363664448261261,-1.315675973892212,-0.5369051694869995,0.6225504875183105,0.019222814589738846,-0.018651336431503296
1749058964.0589197,0.5299401879310608,0.2840666013905029,-1.0806808471679688,-4.5083681545653285,4.8654327392578125,5.300721645355225,0.0024910864885896444,5.189312651054934e-05,1.5214108316286001e-05,0.00016733730444684625,-4.579815504257567e-05,-0.00016146675625350326,0.33449146151542664,-1.3268851041793823,-0.5413566827774048,0.6352803111076355,0.025195013731718063,-0.021993935108184814
1749058964.0589573,0.529897153377533,0.2840511041828613,-1.0806725025177002,-4.508310934106344,4.865409851074219,5.300717830657959,0.0023801771458238363,5.043907367507927e-05,1.4730482689628843e-05,0.00016300663992296904,-4.5033688365947455e-05,-0.00018085804185830057,0.3350493907928467,-1.3103625774383545,-0.5614608526229858,0.6317238807678223,0.019345909357070923,-0.02713271975517273
1749058964.0589948,0.5298672318458557,0.2840438324161987,-1.0806689262390137,-4.508352657357687,4.8653717041015625,5.30073356628418,0.0022061201743781567,7.335023838095367e-05,3.7303470890037715e-06,0.0001588945888215676,-4.429522232385352e-05,-0.00022097902547102422,0.3537342846393585,-1.3094420433044434,-0.549869954586029,0.6226754784584045,0.00162578746676445,-0.026166334748268127
1749058964.0590332,0.5298672318458557,0.2840438324161987,-1.0806689262390137,-4.508352657357687,4.8653717041015625,5.30073356628418,0.0022061201743781567,7.335023838095367e-05,3.7303470890037715e-06,0.0001588945888215676,-4.429522232385352e-05,-0.00022097902547102422,0.3537342846393585,-1.3094420433044434,-0.549869954586029,0.6226754784584045,0.00162578746676445,-0.026166334748268127
1749058964.059228,0.5298936367034912,0.2840893703648071,-1.080703616142273,-4.508318086663717,4.865413665771484,5.300756454467773,0.0016762089217081666,9.072740795090795e-05,1.5903054872978828e-08,0.00017031977768056095,-4.288759737391956e-05,-0.0024083368480205536,0.36460745334625244,-1.3009088039398193,-0.5807098746299744,0.635903537273407,-0.014109019190073013,-0.048951029777526855
1749058964.0603924,0.5299401879310608,0.28407494604077144,-1.0806808471679688,-4.508349319497579,4.865436553955078,5.30072546005249,0.001538456417620182,9.06880886759609e-05,1.0383559567728184e-09,0.00014072693011257797,-5.0327464123256505e-05,-0.0038945137057453394,0.3945862650871277,-1.2814757823944092,-0.5988661050796509,0.6637629866600037,-0.029698971658945084,-0.057908833026885986
1749058964.102276,0.5299209952354431,0.2840474086948852,-1.0806808471679688,-4.508318086663717,4.865409851074219,5.3006978034973145,0.0017722953343763947,8.848070865496993e-05,-0.0019740299321711063,0.00016373991093132645,-5.920733019593172e-05,-0.005501739680767059,0.38743168115615845,-1.2818361520767212,-0.5763351917266846,0.6756541132926941,-0.04626353457570076,-0.05839316546916962
1749058964.1023223,0.5299246311187744,0.28406302511181636,-1.080715537071228,-4.50833334545278,4.86544132232666,5.300689220428467,0.0034280873369425535,0.00010578981891740113,-0.0029091534670442343,0.001584392972290516,-6.648974522249773e-05,-0.006830135826021433,0.37401241064071655,-1.270625114440918,-0.571458637714386,0.6727684140205383,-0.04684080556035042,-0.06021428108215332
1749058964.1023638,0.5299365520477295,0.28404025613751216,-1.0806844234466553,-4.508306165734762,4.865386009216309,5.300662994384766,0.004658436868339777,0.00010539852519286796,-0.002658671699464321,0.002908469410613179,-0.00012399132538121194,-0.008252515457570553,0.3693891763687134,-1.2636196613311768,-0.5866235494613647,0.692352294921875,-0.08006098866462708,-0.06762292981147766
1749058964.1024175,0.5299246311187744,0.28406302511181636,-1.080704689025879,-4.508321424523825,4.8654255867004395,5.300681114196777,0.0060340105555951595,0.00010300607391400263,-0.0024075228720903397,0.003784188535064459,-0.0001630174374440685,-0.010020428337156773,0.3737589716911316,-1.276241660118103,-0.5861148238182068,0.6891384720802307,-0.08091305196285248,-0.09813028573989868
1749058964.1024857,0.5299412608146667,0.28406302511181636,-1.080711841583252,-4.5082906685271205,4.865429401397705,5.300641059875488,0.006335258483886719,0.00010070129064843059,-0.0024509173817932606,0.004132707137614489,-0.0018643002258613706,-0.01130977924913168,0.3881230354309082,-1.2610464096069336,-0.600379467010498,0.7098655104637146,-0.08406062424182892,-0.09625467658042908
1749058964.1025548,0.5299567580223083,0.28406302511181636,-1.080704689025879,-4.508282323876852,4.865386009216309,5.300606727600098,0.006562086753547192,9.84971338766627e-05,-0.0033599399030208588,0.004086863249540329,-0.0026472045574337244,-0.013332369737327099,0.4215065538883209,-1.2776427268981934,-0.6106396913528442,0.6991416811943054,-0.09108875691890717,-0.11617505550384521
1749058964.1026218,0.5299567580223083,0.2840666013905029,-1.0806890726089478,-4.508282323876852,4.865382671356201,5.3005852699279785,0.006883641239255667,9.63873098953627e-05,-0.004206430166959763,0.004510430619120598,-0.002932501258328557,-0.015412824228405952,0.4343290328979492,-1.2793190479278564,-0.5718784332275391,0.734582245349884,-0.09583817422389984,-0.1271776556968689
1749058964.1026888,0.5299842357635498,0.28402475892987056,-1.0806972980499268,-4.508285661736959,4.865365982055664,5.300554275512695,0.009225974790751934,9.436609980184585e-05,-0.004514690488576889,0.0052346945740282536,-0.0032525230199098587,-0.01839885674417019,0.44435492157936096,-1.298523187637329,-0.5837288498878479,0.7269148826599121,-0.10589457303285599,-0.12160101532936096
1749058964.1027555,0.5299929976463318,0.2840356069752197,-1.080735683441162,-4.508264680901998,4.865331172943115,5.300464630126953,0.010610396042466164,9.24279956961982e-05,-0.004137425683438778,0.007585479412227869,-0.004413951653987169,-0.019237609580159187,0.4373116195201874,-1.2722375392913818,-0.5965765714645386,0.753948450088501,-0.12001874297857285,-0.09522001445293427
1749058964.1028242,0.5300049185752869,0.28406302511181636,-1.0807512998580933,-4.50822176555776,4.86536979675293,5.300475597381592,0.011710075661540031,9.056757698999718e-05,-0.003937785979360342,0.009232216514647007,-0.005260539706796408,-0.019599994644522667,0.4298563301563263,-1.311213731765747,-0.5926107168197632,0.7413879632949829,-0.12225807458162308,-0.08400033414363861
1749058964.1028936,0.530028760433197,0.28404752790417476,-1.0807440280914307,-4.508191009561056,4.865342140197754,5.30042028427124,0.013619247823953629,8.878100197762251e-05,-0.004215370863676071,0.010090943425893784,-0.006115006282925606,-0.01905982755124569,0.43356648087501526,-1.3180679082870483,-0.5962902307510376,0.7440600991249084,-0.12427835911512375,-0.09846530854701996
1749058964.1029625,0.5300527811050415,0.28402475892987056,-1.0807757377624512,-4.508201261559957,4.865354061126709,5.300391674041748,0.013891302980482578,8.706334483576939e-05,-0.004763022530823946,0.010576012544333935,-0.0065717496909201145,-0.01745912805199623,0.4414185881614685,-1.3441145420074463,-0.5994992256164551,0.7598142623901367,-0.13044553995132446,-0.10519066452980042
1749058964.1030312,0.5301148891448975,0.2840666013905029,-1.080768346786499,-4.508158584634298,4.865299224853516,5.300355911254883,0.015732483938336372,8.541072020307183e-05,-0.004804527852684259,0.011128035373985767,-0.007137435022741556,-0.01764308102428913,0.4506767690181732,-1.347222924232483,-0.6136981248855591,0.7584182024002075,-0.15283262729644775,-0.13375224173069
1749058964.1031008,0.5301433205604553,0.2840666013905029,-1.0807913541793823,-4.508165498773092,4.865314483642578,5.300366401672363,0.016864195466041565,6.872732046758756e-05,-0.004945714492350817,0.011487670242786407,-0.007668177597224712,-0.018597835674881935,0.42753297090530396,-1.3738125562667847,-0.5955305099487305,0.7908095121383667,-0.159476637840271,-0.13764138519763947
1749058964.1031685,0.5301552414894104,0.28404752790417476,-1.0807766914367676,-4.508125444451803,4.865325450897217,5.300331115722656,0.018343396484851837,6.584608490811661e-05,-0.004772495944052935,0.012366245500743389,-0.008986919187009335,-0.01841684803366661,0.4350508451461792,-1.406216025352478,-0.607295036315918,0.7696943879127502,-0.16910049319267273,-0.15309695899486542
1749058964.1032383,0.5301552414894104,0.28404752790417476,-1.0807766914367676,-4.508125444451803,4.865325450897217,5.300331115722656,0.018343396484851837,6.584608490811661e-05,-0.004772495944052935,0.012366245500743389,-0.008986919187009335,-0.01841684803366661,0.4350508451461792,-1.406216025352478,-0.607295036315918,0.7696943879127502,-0.16910049319267273,-0.15309695899486542
1749058964.103307,0.5302456617355347,0.2840713697620849,-1.0808041095733643,-4.508058925668234,4.865274429321289,5.300236225128174,0.02111922577023506,7.089797873049974e-05,-0.005109352525323629,0.013908833265304565,-0.012093516066670418,-0.021821707487106323,0.43407806754112244,-1.4201815128326416,-0.5889492034912109,0.7882992625236511,-0.17141461372375488,-0.17660081386566162
1749058964.1033773,0.5302750468254089,0.28405944883312984,-1.0808196067810059,-4.5080372295775355,4.86521577835083,5.300176620483398,0.02168968878686428,3.4576471080072224e-05,-0.005322785582393408,0.014369457960128784,-0.01336285937577486,-0.023245608434081078,0.4343057870864868,-1.4636878967285156,-0.6102620363235474,0.7842636704444885,-0.18014827370643616,-0.17860758304595947
1749058964.103446,0.5303106904029846,0.28406302511181636,-1.080835223197937,-4.508060356179708,4.865257740020752,5.300159931182861,0.021846450865268707,3.373490073954599e-07,-0.005503317341208458,0.013984446413815022,-0.013868608511984348,-0.026193683966994286,0.3914370536804199,-1.457548975944519,-0.5908917188644409,0.7909823656082153,-0.19854706525802612,-0.1902334839105606
1749058964.1034853,0.5303106904029846,0.28406302511181636,-1.080835223197937,-4.508060356179708,4.865257740020752,5.300159931182861,0.021846450865268707,3.373490073954599e-07,-0.005503317341208458,0.013984446413815022,-0.013868608511984348,-0.026193683966994286,0.3914370536804199,-1.457548975944519,-0.5908917188644409,0.7909823656082153,-0.19854706525802612,-0.1902334839105606
1749058964.1036067,0.5303929448127747,0.2840546804615478,-1.080843448638916,-4.508020540276998,4.865226745605469,5.300027370452881,0.021852906793355942,3.291381611703059e-09,-0.005128971301019192,0.014332223683595657,-0.01483134925365448,-0.02778973989188671,0.4196508228778839,-1.459140658378601,-0.5981858968734741,0.7989278435707092,-0.1835760772228241,-0.2053985744714737
1749058964.104405,0.5304780602455139,0.28406302511181636,-1.0808677673339844,-4.507913728753561,4.865151405334473,5.299930572509766,0.0217619389295578,3.1331114460665666e-13,-0.004643102176487446,0.015169920399785042,-0.01770157366991043,-0.03344319015741348,0.3920043110847473,-1.4749430418014526,-0.5931620597839355,0.7837133407592773,-0.17884612083435059,-0.194390669465065
1749058964.1462905,0.5305216312408447,0.2840356069752197,-1.0808449983596802,-4.507905145684713,4.865151405334473,5.299839496612549,0.022120565176010132,3.0568536034560187e-15,-0.004744404461234808,0.014782914891839027,-0.01793561689555645,-0.035884592682123184,0.3887880742549896,-1.5054107904434204,-0.5917212963104248,0.8188314437866211,-0.16877222061157227,-0.20854973793029785
1749058964.1463456,0.5305216312408447,0.2840356069752197,-1.0808449983596802,-4.507905145684713,4.865151405334473,5.299839496612549,0.022120565176010132,3.0568536034560187e-15,-0.004744404461234808,0.014782914891839027,-0.01793561689555645,-0.035884592682123184,0.3887880742549896,-1.5054107904434204,-0.5917212963104248,0.8188314437866211,-0.16877222061157227,-0.20854973793029785
1749058964.1463885,0.5305626392364502,0.28408221780743403,-1.0808844566345215,-4.507860799829,4.865063667297363,5.299739360809326,0.022081106901168823,2.909860870223928e-19,-0.005215757992118597,0.014225820079445839,-0.018075065687298775,-0.04000335931777954,0.36774080991744995,-1.511749029159546,-0.5831881761550903,0.8239286541938782,-0.17013578116893768,-0.23396287858486176
1749058964.1464274,0.5305626392364502,0.28408221780743403,-1.0808844566345215,-4.507860799829,4.865063667297363,5.299739360809326,0.022081106901168823,2.909860870223928e-19,-0.005215757992118597,0.014225820079445839,-0.018075065687298775,-0.04000335931777954,0.36774080991744995,-1.511749029159546,-0.5831881761550903,0.8239286541938782,-0.17013578116893768,-0.23396287858486176
1749058964.1464663,0.5307481288909912,0.2840319114872436,-1.0809082984924316,-4.507800479928488,4.8650431632995605,5.299560070037842,0.0216183140873909,-0.001433706027455628,-0.0048317997716367245,0.015454386360943317,-0.015260518528521061,-0.047279734164476395,0.3705684244632721,-1.519616961479187,-0.5809061527252197,0.8219720721244812,-0.17426089942455292,-0.228822261095047
1749058964.1465046,0.5307444334030151,0.28398840009655757,-1.0809392929077148,-4.507791658441061,4.864984512329102,5.299452781677246,0.021650664508342743,-0.0015362389385700226,-0.004469567444175482,0.015864979475736618,-0.014631948433816433,-0.04932117834687233,0.35462135076522827,-1.5006357431411743,-0.5923269391059875,0.8457633852958679,-0.17493031919002533,-0.22019346058368683
1749058964.1465428,0.5308231115341187,0.2840511041828613,-1.0809357166290283,-4.507767816583151,4.864975929260254,5.299337863922119,0.021703800186514854,-0.0019469656981527805,-0.00422173086553812,0.016307581216096878,-0.014114941470324993,-0.05073339492082596,0.37959033250808716,-1.524004340171814,-0.5861706733703613,0.8414973020553589,-0.19811438024044037,-0.23105674982070923
1749058964.1465826,0.5308671593666077,0.2840074735828857,-1.0809357166290283,-4.507735630074972,4.864898204803467,5.299249649047852,0.022320037707686424,-0.001866047503426671,-0.004575652536004782,0.017427649348974228,-0.012931691482663155,-0.05255834013223648,0.3673819303512573,-1.5581674575805664,-0.5980333685874939,0.8602374792098999,-0.20575930178165436,-0.23139628767967224
1749058964.1466217,0.5309190154075623,0.2840272623249511,-1.0809636116027832,-4.507649084130758,4.864924430847168,5.299141883850098,0.02284245379269123,-0.001803943538106978,-0.005160939414054155,0.018457412719726562,-0.012829660438001156,-0.05679790675640106,0.3877202868461609,-1.5794209241867065,-0.5803914666175842,0.8724101185798645,-0.21613796055316925,-0.21725532412528992
1749058964.1466596,0.5309190154075623,0.2840272623249511,-1.0809636116027832,-4.507649084130758,4.864924430847168,5.299141883850098,0.02284245379269123,-0.001803943538106978,-0.005160939414054155,0.018457412719726562,-0.012829660438001156,-0.05679790675640106,0.3877202868461609,-1.5794209241867065,-0.5803914666175842,0.8724101185798645,-0.21613796055316925,-0.21725532412528992
1749058964.1466975,0.5309557914733887,0.283980055446289,-1.080944538116455,-4.507623811761373,4.864861011505127,5.298882484436035,0.02394048124551773,-0.002734061563387513,-0.005160171072930098,0.020505357533693314,-0.01468903012573719,-0.06275742501020432,0.40637314319610596,-1.5764108896255493,-0.6008458733558655,0.8809265494346619,-0.2045205980539322,-0.22492387890815735
1749058964.1467345,0.5309557914733887,0.283980055446289,-1.080944538116455,-4.507623811761373,4.864861011505127,5.298882484436035,0.02394048124551773,-0.002734061563387513,-0.005160171072930098,0.020505357533693314,-0.01468903012573719,-0.06275742501020432,0.40637314319610596,-1.5764108896255493,-0.6008458733558655,0.8809265494346619,-0.2045205980539322,-0.22492387890815735
1749058964.1467717,0.5310984253883362,0.28401486455883784,-1.0809682607650757,-4.5074926815428675,4.864840984344482,5.2986016273498535,0.02403383143246174,-0.0037947131786495447,-0.00446202140301466,0.023241490125656128,-0.015070086345076561,-0.064667247235775,0.4037718176841736,-1.594357967376709,-0.594597339630127,0.8975061178207397,-0.22610171139240265,-0.20157891511917114
1749058964.146809,0.5311334729194641,0.28396515428509517,-1.0809993743896484,-4.507444520989889,4.8647894859313965,5.298497676849365,0.024694938212633133,-0.003854457987472415,-0.004215286113321781,0.024967262521386147,-0.01648510992527008,-0.06558912992477417,0.3857176601886749,-1.591698408126831,-0.6129123568534851,0.8836551904678345,-0.22135591506958008,-0.21420511603355408
1749058964.146846,0.5311693549156189,0.2840346533009033,-1.0810030698776245,-4.507381101647848,4.864797115325928,5.298373222351074,0.02509281039237976,-0.004167864564806223,-0.00457523949444294,0.025615336373448372,-0.017819922417402267,-0.06755496561527252,0.41497185826301575,-1.6066064834594727,-0.6053678393363953,0.8942972421646118,-0.21553543210029602,-0.21368353068828583
1749058964.1468828,0.5312066674232483,0.28402213632550044,-1.0809838771820068,-4.507320304910177,4.864714622497559,5.298249244689941,0.02595233917236328,-0.004973903298377991,-0.004961108323186636,0.026315253227949142,-0.017934782430529594,-0.0674545019865036,0.41472673416137695,-1.606905460357666,-0.6060768961906433,0.8903100490570068,-0.23460686206817627,-0.23073874413967133
1749058964.1469195,0.5312615036964417,0.2839640814014892,-1.080995798110962,-4.50730361560964,4.864690780639648,5.298086643218994,0.027366455644369125,-0.005442698486149311,-0.005000974051654339,0.026683561503887177,-0.018994992598891258,-0.07053619623184204,0.3961851894855499,-1.6061161756515503,-0.6082950234413147,0.8961286544799805,-0.22931048274040222,-0.23366788029670715
1749058964.1469555,0.5312864780426025,0.2839640814014892,-1.080995798110962,-4.507240673104757,4.864645957946777,5.297966957092285,0.02871897630393505,-0.005406384356319904,-0.005111553706228733,0.027624694630503654,-0.01997060514986515,-0.07247640937566757,0.46111008524894714,-1.6436177492141724,-0.6297783255577087,0.9213561415672302,-0.2306537628173828,-0.2540670931339264
1749058964.1469927,0.5313621163368225,0.2839640814014892,-1.081019639968872,-4.507152696649069,4.864622116088867,5.297804832458496,0.032132942229509354,-0.006265344098210335,-0.004979453515261412,0.029088765382766724,-0.020133264362812042,-0.0750255137681961,0.39032402634620667,-1.6351318359375,-0.6298156976699829,0.9250361919403076,-0.22285209596157074,-0.26261186599731445
1749058964.1470292,0.5314212441444397,0.2839593130299072,-1.0810320377349854,-4.507123371163839,4.864548683166504,5.297652721405029,0.031369391828775406,-0.007453004363924265,-0.0058760023675858974,0.030993683263659477,-0.02161562070250511,-0.07809658348560333,0.42052653431892395,-1.6259260177612305,-0.6407536268234253,0.9177030324935913,-0.23485003411769867,-0.24690499901771545
1749058964.147242,0.5315004587173462,0.28395216047253413,-1.081063151359558,-4.507063289681906,4.86453914642334,5.297478199005127,0.03154135122895241,-0.00743873231112957,-0.00736561045050621,0.0320422500371933,-0.022532399743795395,-0.07961267232894897,0.41810885071754456,-1.646242380142212,-0.6237441301345825,0.9284006953239441,-0.23217925429344177,-0.25550711154937744
1749058964.148398,0.5315828323364258,0.2839473921009521,-1.081052303314209,-4.506984373132223,4.864479064941406,5.297295570373535,0.033354900777339935,-0.007219191640615463,-0.007382082287222147,0.033267319202423096,-0.022878021001815796,-0.0827450305223465,0.43446287512779236,-1.6538997888565063,-0.6291283369064331,0.9281322956085205,-0.24807116389274597,-0.257925420999527
1749058964.1902735,0.531619668006897,0.2839156824299316,-1.081071376800537,-4.5069152317442835,4.864436149597168,5.297187328338623,0.03333885967731476,-0.0070989555679261684,-0.006879367399960756,0.03503089025616646,-0.024018991738557816,-0.08711279183626175,0.42861366271972656,-1.6681904792785645,-0.6236834526062012,0.9137972593307495,-0.24081455171108246,-0.22866134345531464
1749058964.190319,0.531619668006897,0.2839156824299316,-1.081071376800537,-4.5069152317442835,4.864436149597168,5.297187328338623,0.03333885967731476,-0.0070989555679261684,-0.006879367399960756,0.03503089025616646,-0.024018991738557816,-0.08711279183626175,0.42861366271972656,-1.6681904792785645,-0.6236834526062012,0.9137972593307495,-0.24081455171108246,-0.22866134345531464
1749058964.1903706,0.531751275062561,0.28388838350262446,-1.0811108350753784,-4.506767412225241,4.8643717765808105,5.296804904937744,0.036262091249227524,-0.0077837794087827206,-0.0073631624691188335,0.03716569021344185,-0.024582264944911003,-0.08887092769145966,0.412283718585968,-1.6856485605239868,-0.627760648727417,0.9348507523536682,-0.24374917149543762,-0.27588826417922974
1749058964.190413,0.531751275062561,0.28388838350262446,-1.0811108350753784,-4.506767412225241,4.8643717765808105,5.296804904937744,0.036262091249227524,-0.0077837794087827206,-0.0073631624691188335,0.03716569021344185,-0.024582264944911003,-0.08887092769145966,0.412283718585968,-1.6856485605239868,-0.627760648727417,0.9348507523536682,-0.24374917149543762,-0.27588826417922974
1749058964.1904523,0.531883955001831,0.28385262071575923,-1.0811316967010498,-4.5066052875914515,4.864284992218018,5.296405792236328,0.03594863787293434,-0.009140992537140846,-0.00816307682543993,0.039629507809877396,-0.025864901021122932,-0.09645673632621765,0.45789188146591187,-1.6832542419433594,-0.6187574863433838,0.9264798164367676,-0.24946129322052002,-0.27913838624954224
1749058964.1904905,0.5320026874542236,0.2838210302540283,-1.0811362266540527,-4.506545921365255,4.86424446105957,5.296234607696533,0.03866976127028465,-0.009789240546524525,-0.007876953110098839,0.042008399963378906,-0.026802534237504005,-0.10183145850896835,0.46423280239105225,-1.6540446281433105,-0.6282067894935608,0.9131452441215515,-0.25555771589279175,-0.24586328864097595
1749058964.1905282,0.5320897102355957,0.2837889629551391,-1.081179141998291,-4.506430765191549,4.864201545715332,5.296023845672607,0.04034185782074928,-0.010074179619550705,-0.008531288243830204,0.043047644197940826,-0.02642311528325081,-0.10265648365020752,0.40726882219314575,-1.6617857217788696,-0.6304293274879456,0.9084649682044983,-0.25821033120155334,-0.23993024230003357
1749058964.190566,0.5321264266967773,0.28381530820812984,-1.0812066793441772,-4.506330867806906,4.864121437072754,5.295777797698975,0.0404215008020401,-0.009708059951663017,-0.009577799588441849,0.04284849390387535,-0.027170438319444656,-0.10668771713972092,0.4527972340583801,-1.6962029933929443,-0.6214150786399841,0.9246726632118225,-0.259020060300827,-0.2482661008834839
1749058964.190604,0.5322135090827942,0.28376512109722896,-1.08121919631958,-4.50625004390859,4.864039421081543,5.295566082000732,0.04138777405023575,-0.011118747293949127,-0.009773471392691135,0.04480750486254692,-0.027430832386016846,-0.10997612774372101,0.4105205535888672,-1.676681637763977,-0.5985983610153198,0.9047266244888306,-0.2600967586040497,-0.23304514586925507
1749058964.1906412,0.5322135090827942,0.28376512109722896,-1.08121919631958,-4.50625004390859,4.864039421081543,5.295566082000732,0.04138777405023575,-0.011118747293949127,-0.009773471392691135,0.04480750486254692,-0.027430832386016846,-0.10997612774372101,0.4105205535888672,-1.676681637763977,-0.5985983610153198,0.9047266244888306,-0.2600967586040497,-0.23304514586925507
1749058964.1906784,0.5323963761329651,0.283735914821289,-1.0812751054763794,-4.50605382541799,4.863958835601807,5.295073509216309,0.04298236593604088,-0.00967866089195013,-0.009766173548996449,0.048443228006362915,-0.027827030047774315,-0.11341787129640579,0.41907069087028503,-1.6899333000183105,-0.6140425205230713,0.8875741958618164,-0.2802976071834564,-0.1820104420185089
1749058964.1907146,0.5325192213058472,0.28373972951855464,-1.081286907196045,-4.505957504312033,4.863911151885986,5.294885158538818,0.043721944093704224,-0.010500584729015827,-0.008886763826012611,0.048338841646909714,-0.02862418256700039,-0.11260237544775009,0.4088214337825775,-1.7105040550231934,-0.5998106002807617,0.8880936503410339,-0.27164730429649353,-0.19333572685718536
1749058964.1907513,0.5325565338134766,0.2836931186863403,-1.0813060998916626,-4.505864521066183,4.863874435424805,5.294651031494141,0.04286649450659752,-0.010552234016358852,-0.008847909048199654,0.04733254015445709,-0.028396397829055786,-0.11342167854309082,0.4310176372528076,-1.690122127532959,-0.6131701469421387,0.880845308303833,-0.27916550636291504,-0.1952294111251831
1749058964.1907887,0.5326710939407349,0.2836920458027343,-1.0813114643096924,-4.50577511409902,4.863807678222656,5.294470310211182,0.04613722488284111,-0.010353423655033112,-0.009071565233170986,0.047743767499923706,-0.029278382658958435,-0.11306381225585938,0.41810187697410583,-1.711724042892456,-0.6064034104347229,0.8781309723854065,-0.277861624956131,-0.20438288152217865
1749058964.1908257,0.5327622890472412,0.2836018043705444,-1.0813350677490234,-4.505644460717672,4.863751411437988,5.294186115264893,0.046557217836380005,-0.010974926874041557,-0.00935815367847681,0.04848186671733856,-0.028802471235394478,-0.11251936852931976,0.40191349387168884,-1.7264868021011353,-0.6223729848861694,0.8714197874069214,-0.29214924573898315,-0.2137158066034317
1749058964.1908624,0.5328539609909058,0.28365199148144526,-1.0813350677490234,-4.505560775796408,4.86368465423584,5.293982982635498,0.04665239900350571,-0.010680695995688438,-0.008814104832708836,0.049777332693338394,-0.02937905676662922,-0.11396991461515427,0.41016703844070435,-1.7181099653244019,-0.5891203284263611,0.8842579126358032,-0.28767475485801697,-0.2259104698896408
1749058964.190899,0.5329647064208984,0.28364746152844234,-1.081355333328247,-4.505486866036886,4.863651752471924,5.293723106384277,0.04764126241207123,-0.009970661252737045,-0.008718840777873993,0.04986744001507759,-0.028957296162843704,-0.11521407216787338,0.39682695269584656,-1.719168782234192,-0.6020001769065857,0.8675106763839722,-0.28815436363220215,-0.23054896295070648
1749058964.1909466,0.5329647064208984,0.28364746152844234,-1.081355333328247,-4.505486866036886,4.863651752471924,5.293723106384277,0.04764126241207123,-0.009970661252737045,-0.008718840777873993,0.04986744001507759,-0.028957296162843704,-0.11521407216787338,0.39682695269584656,-1.719168782234192,-0.6020001769065857,0.8675106763839722,-0.28815436363220215,-0.23054896295070648
1749058964.1909864,0.5331441760063171,0.283577485675476,-1.0813953876495361,-4.505266805688375,4.863516807556152,5.293292999267578,0.04916919395327568,-0.010173659771680832,-0.009061618708074093,0.04931529238820076,-0.02969074249267578,-0.11611036956310272,0.416069358587265,-1.7232120037078857,-0.6011467576026917,0.8795495629310608,-0.31290334463119507,-0.2530868649482727
1749058964.191024,0.5332829356193542,0.2835966783710937,-1.081407070159912,-4.50518598179006,4.863500118255615,5.293076992034912,0.04984498769044876,-0.010695209726691246,-0.009096965193748474,0.04910498484969139,-0.02976946346461773,-0.11720459163188934,0.42971357703208923,-1.738004446029663,-0.5966187119483948,0.8583794832229614,-0.3260834217071533,-0.27317172288894653
1749058964.1911385,0.5333353877067566,0.2835330206104736,-1.081399917602539,-4.5050581894316615,4.863401889801025,5.292826175689697,0.0498167909681797,-0.011485682800412178,-0.008910661563277245,0.04858263581991196,-0.02990647591650486,-0.12114924937486649,0.41957393288612366,-1.7540963888168335,-0.6082136034965515,0.8699743747711182,-0.333941787481308,-0.2893145680427551
1749058964.1924102,0.5334432125091553,0.2835365968891601,-1.081439733505249,-4.504961868325704,4.863338470458984,5.292564392089844,0.05279534310102463,-0.010607576929032803,-0.008868110366165638,0.04858523979783058,-0.030651895329356194,-0.12515640258789062,0.43114131689071655,-1.7371596097946167,-0.6233806610107422,0.8765585422515869,-0.3356644809246063,-0.24200502038002014
1749058964.2383094,0.5335312485694885,0.2835485178181152,-1.081436038017273,-4.504869600335592,4.863278865814209,5.292333126068115,0.05273451656103134,-0.01097869873046875,-0.008999745361506939,0.048018891364336014,-0.030484870076179504,-0.12684419751167297,0.3951490521430969,-1.7296656370162964,-0.6099185347557068,0.8796249628067017,-0.34253379702568054,-0.2463672161102295
1749058964.2383673,0.5336427688598633,0.2834816414066772,-1.0814754962921143,-4.50476135830068,4.863226413726807,5.292050361633301,0.05085992440581322,-0.010802711360156536,-0.009716276079416275,0.04861234501004219,-0.031938835978507996,-0.1319989264011383,0.4401612877845764,-1.763139247894287,-0.6158648729324341,0.8728881478309631,-0.33531099557876587,-0.22932350635528564
1749058964.2384093,0.5337847471237183,0.28344909727062984,-1.0815072059631348,-4.504658123055929,4.863154888153076,5.291756629943848,0.05199010297656059,-0.009854989126324654,-0.009225836023688316,0.048579126596450806,-0.03304411098361015,-0.13359883427619934,0.4205811321735382,-1.7358908653259277,-0.6030258536338806,0.8992920517921448,-0.3187589943408966,-0.21623694896697998
1749058964.2384486,0.533872663974762,0.28342990457501216,-1.081496238708496,-4.504580637017721,4.863121509552002,5.291544437408447,0.054017141461372375,-0.010801129974424839,-0.009320302866399288,0.049079470336437225,-0.03257906809449196,-0.1363646239042282,0.44370242953300476,-1.7441335916519165,-0.6131798624992371,0.8913931250572205,-0.35154780745506287,-0.19864480197429657
1749058964.2384887,0.5340079665184021,0.2834443288990478,-1.0815391540527344,-4.504449983636373,4.86303186416626,5.291250228881836,0.05606213957071304,-0.011005974374711514,-0.009648418985307217,0.04967433214187622,-0.033362649381160736,-0.1362505406141281,0.41209375858306885,-1.7458853721618652,-0.5922837257385254,0.9007222056388855,-0.3446633517742157,-0.18601757287979126
1749058964.2385306,0.5341158509254456,0.28342048704113765,-1.0815510749816895,-4.504376073876852,4.862944602966309,5.290990829467773,0.05464746803045273,-0.010125142522156239,-0.010006961412727833,0.05091342329978943,-0.03352406993508339,-0.1360168159008026,0.44439682364463806,-1.763833999633789,-0.599700927734375,0.8948997259140015,-0.3485221862792969,-0.19994324445724487
1749058964.2385693,0.5342158079147339,0.28338579713787837,-1.081575632095337,-4.504260917703146,4.862912654876709,5.2906999588012695,0.057596348226070404,-0.010926252231001854,-0.010269226506352425,0.051236651837825775,-0.034810036420822144,-0.13470569252967834,0.40091946721076965,-1.7575844526290894,-0.5954990983009338,0.9018381237983704,-0.3440224528312683,-0.22874152660369873
1749058964.2386084,0.5342158079147339,0.28338579713787837,-1.081575632095337,-4.504260917703146,4.862912654876709,5.2906999588012695,0.057596348226070404,-0.010926252231001854,-0.010269226506352425,0.051236651837825775,-0.034810036420822144,-0.13470569252967834,0.40091946721076965,-1.7575844526290894,-0.5954990983009338,0.9018381237983704,-0.3440224528312683,-0.22874152660369873
1749058964.23865,0.5342158079147339,0.28338579713787837,-1.081575632095337,-4.504260917703146,4.862912654876709,5.2906999588012695,0.057596348226070404,-0.010926252231001854,-0.010269226506352425,0.051236651837825775,-0.034810036420822144,-0.13470569252967834,0.40091946721076965,-1.7575844526290894,-0.5954990983009338,0.9018381237983704,-0.3440224528312683,-0.22874152660369873
1749058964.2386901,0.5345820784568787,0.2833174902149658,-1.0816267728805542,-4.503932615319723,4.862677574157715,5.289900302886963,0.058964308351278305,-0.010652816854417324,-0.009878798387944698,0.05462777242064476,-0.03685883805155754,-0.133665531873703,0.40589141845703125,-1.7633209228515625,-0.6044097542762756,0.90167635679245,-0.3586944341659546,-0.26097264885902405
1749058964.238728,0.5346977710723877,0.2832929331013183,-1.0816349983215332,-4.503824373284811,4.862598896026611,5.289609432220459,0.05955326929688454,-0.010419965721666813,-0.010410087183117867,0.05510220676660538,-0.03704172372817993,-0.13587737083435059,0.3919789493083954,-1.7697268724441528,-0.5965508222579956,0.9053482413291931,-0.3719139099121094,-0.26156753301620483
1749058964.2387667,0.5346977710723877,0.2832929331013183,-1.0816349983215332,-4.503824373284811,4.862598896026611,5.289609432220459,0.05955326929688454,-0.010419965721666813,-0.010410087183117867,0.05510220676660538,-0.03704172372817993,-0.13587737083435059,0.3919789493083954,-1.7697268724441528,-0.5965508222579956,0.9053482413291931,-0.3719139099121094,-0.26156753301620483
1749058964.2388082,0.5349205732345581,0.28326932966198726,-1.0816831588745117,-4.50361504177236,4.862459659576416,5.289039134979248,0.06097770854830742,-0.010916060768067837,-0.010111136361956596,0.057559043169021606,-0.03931479901075363,-0.14236970245838165,0.42615246772766113,-1.7717000246047974,-0.6086433529853821,0.9033701419830322,-0.3731062412261963,-0.2502198815345764
1749058964.2388468,0.5349205732345581,0.28326932966198726,-1.0816831588745117,-4.50361504177236,4.862459659576416,5.289039134979248,0.06097770854830742,-0.010916060768067837,-0.010111136361956596,0.057559043169021606,-0.03931479901075363,-0.14236970245838165,0.42615246772766113,-1.7717000246047974,-0.6086433529853821,0.9033701419830322,-0.3731062412261963,-0.2502198815345764
1749058964.238885,0.5351522564888,0.2832411962696533,-1.0817153453826904,-4.50334705928945,4.862319469451904,5.288451194763184,0.06295324116945267,-0.01179982628673315,-0.01036511454731226,0.060028839856386185,-0.039795417338609695,-0.1506403386592865,0.4035121202468872,-1.7759249210357666,-0.6019245386123657,0.891299843788147,-0.35980868339538574,-0.20879903435707092
1749058964.2389226,0.5352829098701477,0.2831820684620361,-1.0817391872406006,-4.5032540760436,4.8622517585754395,5.288116931915283,0.06237906590104103,-0.011372425593435764,-0.010731673799455166,0.061001766473054886,-0.04083292558789253,-0.15387685596942902,0.4034850001335144,-1.7871752977371216,-0.595376193523407,0.8891661763191223,-0.3494299650192261,-0.20916368067264557
1749058964.238964,0.5354419350624084,0.2831858831593017,-1.0817790031433105,-4.503133436242575,4.862133502960205,5.287840366363525,0.06648564338684082,-0.011734497733414173,-0.010880914516746998,0.0629536584019661,-0.04155959561467171,-0.15369245409965515,0.3785318434238434,-1.7800209522247314,-0.6002113223075867,0.8500932455062866,-0.3644186854362488,-0.1929071992635727
1749058964.239003,0.5355575680732727,0.2831272321888427,-1.0817981958389282,-4.503001352349752,4.86206579208374,5.287533760070801,0.06488598883152008,-0.012050744146108627,-0.010526432655751705,0.0639585331082344,-0.0420626699924469,-0.1539159119129181,0.3945837616920471,-1.7673662900924683,-0.5989879965782166,0.8461081981658936,-0.35247546434402466,-0.17789554595947266
1749058964.2390416,0.5356645584106445,0.28309444963421626,-1.0818184614181519,-4.502849956552023,4.861962795257568,5.28720235824585,0.0644134134054184,-0.01221979409456253,-0.01114719919860363,0.0615432932972908,-0.043858468532562256,-0.15338940918445587,0.38327017426490784,-1.7671087980270386,-0.6073622107505798,0.8691941499710083,-0.322973370552063,-0.17955341935157776
1749058964.2390795,0.5357927083969116,0.28313366949047847,-1.0817956924438477,-4.5027483902373255,4.861851692199707,5.286942481994629,0.06638088077306747,-0.012679073959589005,-0.010435162112116814,0.06148923188447952,-0.044707950204610825,-0.1510307788848877,0.40253520011901855,-1.779650092124939,-0.6012549996376038,0.8746388554573059,-0.3192751705646515,-0.19686058163642883
1749058964.2391205,0.535942792892456,0.2831163841434936,-1.0818630456924438,-4.502592941323751,4.86181116104126,5.286587715148926,0.06674201041460037,-0.012239579111337662,-0.010356931015849113,0.06386660039424896,-0.04421035945415497,-0.15406212210655212,0.38396790623664856,-1.7713572978973389,-0.6075579524040222,0.8749804496765137,-0.3145316243171692,-0.21078631281852722
1749058964.2391586,0.5360864996910095,0.28304235517468257,-1.0818629264831543,-4.502472778359884,4.861688137054443,5.286303997039795,0.06597532331943512,-0.01300696562975645,-0.010781746357679367,0.06460538506507874,-0.044083379209041595,-0.15108457207679749,0.46588361263275146,-1.7811853885650635,-0.6063344478607178,0.8657360672950745,-0.32069408893585205,-0.23073561489582062
1749058964.2393322,0.536163330078125,0.282990499133728,-1.0818986892700195,-4.502351184884542,4.861592769622803,5.285989284515381,0.06844950467348099,-0.01255822740495205,-0.010816843248903751,0.06610769033432007,-0.04502727463841438,-0.1522144079208374,0.41244804859161377,-1.7847604751586914,-0.6106736063957214,0.8677398562431335,-0.31712666153907776,-0.2598865330219269
1749058964.2403827,0.5363534092903137,0.2830013471790771,-1.0819225311279297,-4.502208133737081,4.861477851867676,5.285658359527588,0.07039856910705566,-0.013028603047132492,-0.011409948579967022,0.06724858283996582,-0.0449446402490139,-0.1583881378173828,0.40863725543022156,-1.7757784128189087,-0.5991268754005432,0.8605870604515076,-0.3080555200576782,-0.2348451018333435
1749058964.282286,0.5364845395088196,0.2829785782047729,-1.0819506645202637,-4.502083202401632,4.861406326293945,5.2853193283081055,0.07048466056585312,-0.013113603927195072,-0.011891341768205166,0.06536910682916641,-0.04355360567569733,-0.15899062156677246,0.41173702478408813,-1.7730708122253418,-0.5872232913970947,0.8524509072303772,-0.31054675579071045,-0.24518603086471558
1749058964.2823327,0.5366628766059875,0.28294281541790767,-1.081939697265625,-4.501947065392965,4.861368656158447,5.284996032714844,0.07115904986858368,-0.012581754475831985,-0.011248919181525707,0.06463392823934555,-0.04156996309757233,-0.16282160580158234,0.41234755516052246,-1.7925702333450317,-0.5988344550132751,0.873854398727417,-0.3101878762245178,-0.24334010481834412
1749058964.2823737,0.5367207527160645,0.2828827339359741,-1.0819790363311768,-4.501803298989767,4.86124324798584,5.284664154052734,0.07216375321149826,-0.013831298798322678,-0.012266810983419418,0.06524638086557388,-0.040956731885671616,-0.16610871255397797,0.3994743227958679,-1.7679349184036255,-0.5955243110656738,0.8633587956428528,-0.3184211850166321,-0.24435682594776154
1749058964.2824132,0.5369371175765991,0.28285591184582515,-1.0819873809814453,-4.501654525796408,4.861170768737793,5.284372329711914,0.07331008464097977,-0.013245507143437862,-0.011383488774299622,0.06716549396514893,-0.04217502847313881,-0.16907969117164612,0.41978389024734497,-1.781454086303711,-0.5939385890960693,0.8560458421707153,-0.3119911551475525,-0.21031734347343445
1749058964.2824526,0.537010908126831,0.28284744798626704,-1.0820345878601074,-4.5015064678587855,4.861040115356445,5.283997058868408,0.07310545444488525,-0.01416089292615652,-0.011237100698053837,0.06746696680784225,-0.04330555722117424,-0.16983725130558014,0.4374171495437622,-1.7587203979492188,-0.5994555354118347,0.8463499546051025,-0.31578439474105835,-0.2303953766822815
1749058964.282491,0.5371891260147095,0.2828621107288818,-1.0820426940917969,-4.501408716241354,4.860980987548828,5.283701419830322,0.07566893845796585,-0.014035307802259922,-0.011418385431170464,0.06679011881351471,-0.042327843606472015,-0.16983017325401306,0.39332330226898193,-1.776524543762207,-0.6095772981643677,0.8516814112663269,-0.3121193051338196,-0.23736883699893951
1749058964.2825294,0.5373516082763672,0.28278736650433345,-1.082078456878662,-4.501292129556173,4.860881328582764,5.283343315124512,0.07536188513040543,-0.01446609292179346,-0.011301737278699875,0.06687301397323608,-0.04139702022075653,-0.1724432408809662,0.45167019963264465,-1.7897093296051025,-0.606342077255249,0.8607127666473389,-0.3164519965648651,-0.23449012637138367
1749058964.2825682,0.5374683737754822,0.28280191003765864,-1.0821022987365723,-4.501113554040426,4.86083984375,5.28302001953125,0.0753956139087677,-0.014076842926442623,-0.01229182444512844,0.06732115149497986,-0.04081983491778374,-0.17043600976467133,0.42764413356781006,-1.7657387256622314,-0.6046398878097534,0.8605384826660156,-0.3184722065925598,-0.24693381786346436
1749058964.2826064,0.5376747250556946,0.28273551046337886,-1.0821304321289062,-4.5010346374907435,4.860757350921631,5.282674789428711,0.07937271147966385,-0.015113004483282566,-0.012008151039481163,0.06773636490106583,-0.041273005306720734,-0.1765260100364685,0.4161713719367981,-1.7621039152145386,-0.6033995747566223,0.8668966889381409,-0.3367612361907959,-0.24032583832740784
1749058964.2826445,0.5378033518791199,0.28271905958142085,-1.0821385383605957,-4.500867744485372,4.860693454742432,5.282304763793945,0.07676755636930466,-0.014823639765381813,-0.012407970614731312,0.06836163252592087,-0.04195307567715645,-0.17627187073230743,0.4311964511871338,-1.7723658084869385,-0.6063388586044312,0.860863208770752,-0.3312283456325531,-0.26340556144714355
1749058964.2826824,0.5379658937454224,0.2826987940021972,-1.082174301147461,-4.50073566059255,4.860602378845215,5.281965255737305,0.07718880474567413,-0.015564591623842716,-0.0124900434166193,0.06880607455968857,-0.0424281544983387,-0.18142545223236084,0.42097365856170654,-1.7632454633712769,-0.6068885326385498,0.8764781355857849,-0.33954840898513794,-0.2608256936073303
1749058964.2827206,0.5381523370742798,0.2826579052158813,-1.0822298526763916,-4.500552793542379,4.860487937927246,5.281590461730957,0.08175846189260483,-0.015037955716252327,-0.012843039818108082,0.0692017525434494,-0.04377210885286331,-0.1852301061153412,0.4031623303890228,-1.7731823921203613,-0.5971466302871704,0.8866496086120605,-0.34439390897750854,-0.27885153889656067
1749058964.282758,0.5383226871490479,0.2826351362415771,-1.0822380781173706,-4.50042786220693,4.8603997230529785,5.281176567077637,0.07898370176553726,-0.015210053883492947,-0.013448450714349747,0.07021494954824448,-0.044362928718328476,-0.18971039354801178,0.42304596304893494,-1.753199815750122,-0.5931520462036133,0.9002786874771118,-0.3556087017059326,-0.23292911052703857
1749058964.2827952,0.5383226871490479,0.2826351362415771,-1.0822380781173706,-4.50042786220693,4.8603997230529785,5.281176567077637,0.07898370176553726,-0.015210053883492947,-0.013448450714349747,0.07021494954824448,-0.044362928718328476,-0.18971039354801178,0.42304596304893494,-1.753199815750122,-0.5931520462036133,0.9002786874771118,-0.3556087017059326,-0.23292911052703857
1749058964.2828321,0.538610577583313,0.28259841978039546,-1.0822665691375732,-4.500157733956808,4.8602519035339355,5.28041410446167,0.08042699098587036,-0.015272400341928005,-0.013315543532371521,0.07341087609529495,-0.04523370414972305,-0.19068825244903564,0.41061776876449585,-1.7536730766296387,-0.6012739539146423,0.8823049068450928,-0.348567396402359,-0.2155655175447464
1749058964.2828698,0.5387467741966248,0.2825355964848022,-1.0823227167129517,-4.499986072579855,4.860157489776611,5.280100345611572,0.0807667225599289,-0.015100425109267235,-0.012737446464598179,0.0757770985364914,-0.045471880584955215,-0.1897619664669037,0.4276542067527771,-1.7589012384414673,-0.5990183353424072,0.877781093120575,-0.3670046925544739,-0.22450363636016846
1749058964.2829077,0.5389207601547241,0.28250400602307124,-1.0823498964309692,-4.499818941155905,4.8600616455078125,5.279671669006348,0.08147470653057098,-0.015401139855384827,-0.013667821884155273,0.07383965700864792,-0.0453977957367897,-0.19165584444999695,0.4255891442298889,-1.7948105335235596,-0.5837271809577942,0.9061510562896729,-0.37772226333618164,-0.23689547181129456
1749058964.282945,0.5391162633895874,0.2824639517017822,-1.0823545455932617,-4.499716421166891,4.859951019287109,5.279323101043701,0.08340851962566376,-0.01626252941787243,-0.013022484257817268,0.07411973923444748,-0.04524311050772667,-0.18965107202529907,0.41323912143707275,-1.7603423595428467,-0.6050812005996704,0.9003967046737671,-0.4047214984893799,-0.25095245242118835
1749058964.282982,0.5392639636993408,0.2824941116520385,-1.0823856592178345,-4.499548812905783,4.859858989715576,5.278924465179443,0.08455392718315125,-0.015747826546430588,-0.013389150612056255,0.07620181888341904,-0.04546074941754341,-0.19075144827365875,0.40717053413391113,-1.7655432224273682,-0.6012940406799316,0.8951809406280518,-0.38336116075515747,-0.2836700975894928
1749058964.283019,0.539422869682312,0.28244750081982417,-1.0824147462844849,-4.499368568459982,4.859791278839111,5.278537273406982,0.08585967868566513,-0.016377944499254227,-0.013487481512129307,0.07756832987070084,-0.046246081590652466,-0.1945466548204422,0.42068520188331604,-1.7836003303527832,-0.6097933053970337,0.9118640422821045,-0.40147456526756287,-0.2594795525074005
1749058964.2831216,0.5395798087120056,0.2823764520832519,-1.082445740699768,-4.499208828011984,4.859671592712402,5.27814245223999,0.08694180101156235,-0.016098646447062492,-0.013454803265631199,0.0817866399884224,-0.047434695065021515,-0.19690194725990295,0.35102003812789917,-1.7774919271469116,-0.6106480956077576,0.872931718826294,-0.3965983986854553,-0.28144392371177673
1749058964.2844222,0.5395798087120056,0.2823764520832519,-1.082445740699768,-4.499208828011984,4.859671592712402,5.27814245223999,0.08694180101156235,-0.016098646447062492,-0.013454803265631199,0.0817866399884224,-0.047434695065021515,-0.19690194725990295,0.35102003812789917,-1.7774919271469116,-0.6106480956077576,0.872931718826294,-0.3965983986854553,-0.28144392371177673
1749058964.3262763,0.5399370789527893,0.28233615934338374,-1.0824867486953735,-4.498875280419821,4.859485626220703,5.277339458465576,0.08982584625482559,-0.016859259456396103,-0.014110548421740532,0.08071725070476532,-0.048951029777526855,-0.20079874992370605,0.3881148099899292,-1.7698891162872314,-0.5992987155914307,0.8713511228561401,-0.4078420102596283,-0.275827556848526
1749058964.3263223,0.5401383638381958,0.28229157506909175,-1.082486867904663,-4.4987153015532435,4.859366416931152,5.276904582977295,0.08627022802829742,-0.01678873784840107,-0.014008111320436,0.08203627914190292,-0.04898111894726753,-0.20210984349250793,0.4316985309123993,-1.767389178276062,-0.5894364714622498,0.8785151839256287,-0.43165960907936096,-0.26170238852500916
1749058964.3263645,0.5402706265449524,0.2822330433079223,-1.082545280456543,-4.498550315896505,4.859282493591309,5.276568412780762,0.08764772862195969,-0.01664779894053936,-0.013945087790489197,0.0839214026927948,-0.04952619597315788,-0.2034256011247635,0.4154496490955353,-1.7865090370178223,-0.6138172149658203,0.8512015342712402,-0.4410923421382904,-0.2638057470321655
1749058964.3264034,0.5404273271560669,0.2822127777286987,-1.082546353340149,-4.498385568658346,4.8591718673706055,5.27611780166626,0.08923350274562836,-0.01603897474706173,-0.014204778708517551,0.08422930538654327,-0.052586063742637634,-0.20193961262702942,0.4212602972984314,-1.8035364151000977,-0.6130124926567078,0.8568285703659058,-0.42564472556114197,-0.30013370513916016
1749058964.326442,0.5404273271560669,0.2822127777286987,-1.082546353340149,-4.498385568658346,4.8591718673706055,5.27611780166626,0.08923350274562836,-0.01603897474706173,-0.014204778708517551,0.08422930538654327,-0.052586063742637634,-0.20193961262702942,0.4212602972984314,-1.8035364151000977,-0.6130124926567078,0.8568285703659058,-0.42564472556114197,-0.30013370513916016
1749058964.3264797,0.5406574606895447,0.2821810680576782,-1.0825788974761963,-4.49822010616445,4.85906457901001,5.275688171386719,0.09020731598138809,-0.01628919318318367,-0.015086050145328045,0.08419535309076309,-0.05519728735089302,-0.20707803964614868,0.4096775949001312,-1.7866785526275635,-0.6109750270843506,0.8547095060348511,-0.4103017747402191,-0.2742540240287781
1749058964.3265176,0.5408089756965637,0.2821604448505859,-1.0826219320297241,-4.498036523858541,4.858967304229736,5.275310516357422,0.0897725522518158,-0.01610325276851654,-0.015476994216442108,0.08408486098051071,-0.05541481822729111,-0.20916244387626648,0.39457425475120544,-1.7977406978607178,-0.599321186542511,0.8560295104980469,-0.3828769028186798,-0.2734420895576477
1749058964.3265553,0.54118412733078,0.2821203905292968,-1.0826702117919922,-4.497680803338522,4.858761310577393,5.274390697479248,0.09040088206529617,-0.016407465562224388,-0.015081878751516342,0.08462502807378769,-0.05435475334525108,-0.21518108248710632,0.43169668316841125,-1.803878664970398,-0.6011657118797302,0.860967755317688,-0.3976561427116394,-0.27748918533325195
1749058964.326593,0.541389524936676,0.28207652151074214,-1.0826747417449951,-4.497527738610739,4.858649253845215,5.273989677429199,0.09201622754335403,-0.017548050731420517,-0.015338080935180187,0.08608740568161011,-0.056451402604579926,-0.21669495105743408,0.44000062346458435,-1.7936983108520508,-0.606646716594696,0.8605393171310425,-0.39933398365974426,-0.25569087266921997
1749058964.3266306,0.5415606498718262,0.2820054727741699,-1.082729697227478,-4.497343917886251,4.858490943908691,5.273535251617432,0.0929938405752182,-0.017330797389149666,-0.015400558710098267,0.08594293892383575,-0.05827933922410011,-0.2176026850938797,0.4327192008495331,-1.799710988998413,-0.6184900403022766,0.8469236493110657,-0.3967738747596741,-0.23634693026542664
1749058964.3266683,0.5417246222496033,0.2819543319889526,-1.0827815532684326,-4.497203012506002,4.858434200286865,5.273119926452637,0.09289786964654922,-0.016628338024020195,-0.016157003119587898,0.08532731980085373,-0.05950140208005905,-0.21738559007644653,0.4805417060852051,-1.826583743095398,-0.6306596994400024,0.8516311645507812,-0.3887149691581726,-0.2729390263557434
1749058964.3267055,0.5419437289237976,0.2819806772419433,-1.0828171968460083,-4.497037550012106,4.858307838439941,5.272641181945801,0.09773922711610794,-0.017545340582728386,-0.01643003150820732,0.08566939830780029,-0.062047794461250305,-0.21772673726081848,0.34591007232666016,-1.8037070035934448,-0.6075350046157837,0.8744223713874817,-0.36580708622932434,-0.27434220910072327
1749058964.3267424,0.542108952999115,0.28192512571301265,-1.0828182697296143,-4.496837993661398,4.858207702636719,5.272225379943848,0.09416723996400833,-0.016642285510897636,-0.016671905294060707,0.08553297817707062,-0.06278564035892487,-0.21680733561515808,0.3832717537879944,-1.789194107055664,-0.5985073447227478,0.8733193874359131,-0.34101101756095886,-0.25047144293785095
1749058964.3267796,0.5423109531402588,0.2818930584141235,-1.0828619003295898,-4.496681591073507,4.858037948608398,5.2717509269714355,0.09609484672546387,-0.01687401905655861,-0.016326148062944412,0.08534250408411026,-0.0612451545894146,-0.21846596896648407,0.38982054591178894,-1.8095476627349854,-0.606314480304718,0.8931195735931396,-0.3479738235473633,-0.3019610345363617
1749058964.326817,0.5424800515174866,0.2818574148365478,-1.0829057693481445,-4.496528526345724,4.857933521270752,5.271261215209961,0.09329121559858322,-0.016578566282987595,-0.016397882252931595,0.08581730723381042,-0.060319267213344574,-0.21873284876346588,0.422242134809494,-1.8343377113342285,-0.5983636975288391,0.8850830793380737,-0.34925079345703125,-0.3004213869571686
1749058964.3268595,0.5424800515174866,0.2818574148365478,-1.0829057693481445,-4.496528526345724,4.857933521270752,5.271261215209961,0.09329121559858322,-0.016578566282987595,-0.016397882252931595,0.08581730723381042,-0.060319267213344574,-0.21873284876346588,0.422242134809494,-1.8343377113342285,-0.5983636975288391,0.8850830793380737,-0.34925079345703125,-0.3004213869571686
1749058964.3269014,0.5429327487945557,0.2817860084721069,-1.0829695463180542,-4.496148725549215,4.857659816741943,5.27040958404541,0.09722630679607391,-0.017391690984368324,-0.016819603741168976,0.08829385787248611,-0.06313631683588028,-0.2236822545528412,0.3852408826351166,-1.8090624809265137,-0.5943275690078735,0.9023494720458984,-0.34742701053619385,-0.28110426664352417
1749058964.3269393,0.5429327487945557,0.2817860084721069,-1.0829695463180542,-4.496148725549215,4.857659816741943,5.27040958404541,0.09722630679607391,-0.017391690984368324,-0.016819603741168976,0.08829385787248611,-0.06313631683588028,-0.2236822545528412,0.3852408826351166,-1.8090624809265137,-0.5943275690078735,0.9023494720458984,-0.34742701053619385,-0.28110426664352417
1749058964.3269768,0.543329119682312,0.28172211229290767,-1.083057165145874,-4.495800396005148,4.857393741607666,5.269491195678711,0.09846031665802002,-0.017245745286345482,-0.017089342698454857,0.09161362051963806,-0.06195823848247528,-0.22590576112270355,0.41864046454429626,-1.83372163772583,-0.599097490310669,0.8817688226699829,-0.3219335675239563,-0.27687928080558777
1749058964.3270144,0.5434808135032654,0.28169362127270503,-1.0830581188201904,-4.495638271371359,4.857340335845947,5.269021511077881,0.09839341044425964,-0.017577165737748146,-0.01749064214527607,0.09202901273965836,-0.06137748807668686,-0.22890442609786987,0.4194214642047882,-1.8408334255218506,-0.5871922969818115,0.9120690822601318,-0.3162819743156433,-0.2669285833835602
1749058964.3271267,0.5437197089195251,0.28166548788037105,-1.083113670349121,-4.495433231393331,4.857174396514893,5.268558502197266,0.101295106112957,-0.017842501401901245,-0.01803036406636238,0.09467386454343796,-0.06042011082172394,-0.2290768325328827,0.3428153395652771,-1.8279517889022827,-0.5916284322738647,0.8798578977584839,-0.3250015079975128,-0.2740280330181122
1749058964.3284042,0.5438833236694336,0.2816179233738403,-1.0831493139266968,-4.495237728158468,4.85709810256958,5.268134117126465,0.09786442667245865,-0.018894586712121964,-0.01761944219470024,0.09873048216104507,-0.058221377432346344,-0.2326013594865799,0.41493555903434753,-1.8106869459152222,-0.5808900594711304,0.8529434204101562,-0.331365168094635,-0.2820276618003845
1749058964.3702757,0.5440724492073059,0.2815552192875366,-1.0831856727600098,-4.4950603447356166,4.856997489929199,5.267658710479736,0.10181604325771332,-0.018187791109085083,-0.01765134371817112,0.10149591416120529,-0.05795828253030777,-0.23519176244735718,0.39524900913238525,-1.8487794399261475,-0.5806592702865601,0.8298120498657227,-0.32146406173706055,-0.27170687913894653
1749058964.3703268,0.5440724492073059,0.2815552192875366,-1.0831856727600098,-4.4950603447356166,4.856997489929199,5.267658710479736,0.10181604325771332,-0.018187791109085083,-0.01765134371817112,0.10149591416120529,-0.05795828253030777,-0.23519176244735718,0.39524900913238525,-1.8487794399261475,-0.5806592702865601,0.8298120498657227,-0.32146406173706055,-0.27170687913894653
1749058964.3703833,0.5444954037666321,0.28155235826458735,-1.0832575559616089,-4.494660278359884,4.856767654418945,5.266662120819092,0.10158397257328033,-0.018533889204263687,-0.016289368271827698,0.09599057585000992,-0.05649202689528465,-0.23785638809204102,0.42125800251960754,-1.8497774600982666,-0.5853844881057739,0.8591285943984985,-0.3529598116874695,-0.290748655796051
1749058964.370425,0.5446667671203613,0.2814740377613525,-1.0832902193069458,-4.494452377358908,4.856652736663818,5.266218185424805,0.10225533694028854,-0.018496312201023102,-0.017667680978775024,0.0974457785487175,-0.05615884065628052,-0.23737822473049164,0.4402759373188019,-1.8455332517623901,-0.5865262746810913,0.8615379929542542,-0.3759724795818329,-0.2991352379322052
1749058964.370464,0.5448979139328003,0.28140775739636226,-1.0833176374435425,-4.494263549844259,4.856549263000488,5.265763759613037,0.10429441183805466,-0.019379809498786926,-0.017965111881494522,0.09912092983722687,-0.05668732523918152,-0.23768123984336853,0.4453768730163574,-1.828616738319397,-0.5691789984703064,0.8638619780540466,-0.373598575592041,-0.28595471382141113
1749058964.3705027,0.5450823307037354,0.2814029890247802,-1.0833414793014526,-4.494070430795187,4.856414318084717,5.265264987945557,0.10455100983381271,-0.019355781376361847,-0.017651312053203583,0.09894091635942459,-0.05724160000681877,-0.24178779125213623,0.4555276036262512,-1.841370940208435,-0.594482421875,0.8659990429878235,-0.37900903820991516,-0.297379732131958
1749058964.3705413,0.5453134775161743,0.2813703256794433,-1.0833860635757446,-4.493893047372335,4.856294631958008,5.26474666595459,0.10536222159862518,-0.01896997168660164,-0.017233336344361305,0.09908884018659592,-0.05826413258910179,-0.24255019426345825,0.4258224666118622,-1.8403242826461792,-0.5935674905776978,0.8575534224510193,-0.3780888319015503,-0.3111205995082855
1749058964.3705797,0.5455443859100342,0.2813345628925781,-1.0834134817123413,-4.493668695489401,4.856152534484863,5.26426362991333,0.10598208755254745,-0.01908351667225361,-0.017343485727906227,0.09901344776153564,-0.05833441764116287,-0.24748849868774414,0.43755316734313965,-1.8504066467285156,-0.5928804874420166,0.8698921799659729,-0.3879077732563019,-0.28330036997795105
1749058964.3706176,0.5457099080085754,0.28125981866802974,-1.0834492444992065,-4.4934638939299525,4.856056213378906,5.263759613037109,0.10580260306596756,-0.01894429884850979,-0.018190141767263412,0.09905584156513214,-0.0602261945605278,-0.25145795941352844,0.42485013604164124,-1.881862759590149,-0.5920219421386719,0.8680685758590698,-0.3731842637062073,-0.277532696723938
1749058964.3706553,0.5459251999855042,0.28121594964947505,-1.0834819078445435,-4.493302484551901,4.855945587158203,5.263260364532471,0.10487963259220123,-0.019362857565283775,-0.018006237223744392,0.10128610581159592,-0.06151266396045685,-0.254075825214386,0.47093433141708374,-1.8694394826889038,-0.597830057144165,0.8512964248657227,-0.3823036551475525,-0.2609351575374603
1749058964.3706925,0.5461945533752441,0.28123049318280025,-1.083548665046692,-4.493091245690817,4.855852127075195,5.262753486633301,0.10811158269643784,-0.01983008347451687,-0.01838040165603161,0.10037032514810562,-0.06269165873527527,-0.2569476366043091,0.42420196533203125,-1.8508977890014648,-0.5807417631149292,0.8593621253967285,-0.3919028639793396,-0.21511000394821167
1749058964.3707304,0.5461945533752441,0.28123049318280025,-1.083548665046692,-4.493091245690817,4.855852127075195,5.262753486633301,0.10811158269643784,-0.01983008347451687,-0.01838040165603161,0.10037032514810562,-0.06269165873527527,-0.2569476366043091,0.42420196533203125,-1.8508977890014648,-0.5807417631149292,0.8593621253967285,-0.3919028639793396,-0.21511000394821167
1749058964.370768,0.5466147065162659,0.2811266618916015,-1.0835895538330078,-4.4927174053587855,4.855550765991211,5.261714458465576,0.10898267477750778,-0.019959747791290283,-0.018353724852204323,0.10061271488666534,-0.0654476210474968,-0.25596266984939575,0.41995900869369507,-1.8931761980056763,-0.5894235372543335,0.9052075743675232,-0.37529078125953674,-0.2605171799659729
1749058964.370805,0.5468413233757019,0.28106824933972163,-1.0836564302444458,-4.4925061664977015,4.855401039123535,5.261192321777344,0.1093481183052063,-0.021026063710451126,-0.019176410511136055,0.10527604818344116,-0.06786112487316132,-0.2580166757106781,0.46069586277008057,-1.835839033126831,-0.5870167016983032,0.8934004306793213,-0.3717564344406128,-0.3024017810821533
1749058964.3708422,0.5471012592315674,0.2810475069233398,-1.08365797996521,-4.492274423638815,4.8552374839782715,5.26068115234375,0.1115187481045723,-0.02042141743004322,-0.01888965629041195,0.10811914503574371,-0.06699194759130478,-0.263580322265625,0.42061135172843933,-1.8844988346099854,-0.5910313129425049,0.8564481735229492,-0.36785557866096497,-0.24493151903152466
1749058964.3708792,0.54737788438797,0.28105489789929194,-1.0837284326553345,-4.492095848123068,4.8551459312438965,5.2601494789123535,0.11273866891860962,-0.020671693608164787,-0.0184594988822937,0.10527311265468597,-0.06672431528568268,-0.26702117919921875,0.4255608022212982,-1.8807419538497925,-0.59926438331604,0.8727219104766846,-0.3700210452079773,-0.251743882894516
1749058964.370916,0.547532320022583,0.2809874254414062,-1.0837767124176025,-4.491851469079489,4.855018138885498,5.259563446044922,0.11355265974998474,-0.02147083729505539,-0.01961255818605423,0.10686443001031876,-0.06832633912563324,-0.26890358328819275,0.4063989520072937,-1.856791615486145,-0.583730936050415,0.8763700127601624,-0.3766062259674072,-0.22622302174568176
1749058964.3709526,0.547748863697052,0.28093187391247554,-1.0838087797164917,-4.491639753381246,4.854883193969727,5.259098529815674,0.11728768050670624,-0.021456710994243622,-0.020420541986823082,0.10904726386070251,-0.06966540217399597,-0.26805511116981506,0.39428865909576416,-1.8795233964920044,-0.5874313712120056,0.8673918843269348,-0.353507936000824,-0.23720528185367584
1749058964.370989,0.5480218529701233,0.2808843094059448,-1.0838488340377808,-4.491402288476461,4.8546977043151855,5.258537292480469,0.11335756629705429,-0.021468082442879677,-0.01952180825173855,0.10823369771242142,-0.07190002501010895,-0.2677728235721588,0.43530136346817017,-1.8731913566589355,-0.5842868089675903,0.8572338223457336,-0.3460066318511963,-0.23949800431728363
1749058964.371026,0.5480218529701233,0.2808843094059448,-1.0838488340377808,-4.491402288476461,4.8546977043151855,5.258537292480469,0.11335756629705429,-0.021468082442879677,-0.01952180825173855,0.10823369771242142,-0.07190002501010895,-0.2677728235721588,0.43530136346817017,-1.8731913566589355,-0.5842868089675903,0.8572338223457336,-0.3460066318511963,-0.23949800431728363
1749058964.3711321,0.5484547019004822,0.28079573690380855,-1.0838890075683594,-4.490961214105123,4.854415416717529,5.257503032684326,0.11404914408922195,-0.02252606302499771,-0.018375543877482414,0.10671043395996094,-0.07269376516342163,-0.265870064496994,0.43513223528862,-1.874245047569275,-0.5972436666488647,0.8747445344924927,-0.32489338517189026,-0.29204240441322327
1749058964.3724449,0.5486937761306763,0.2807137209125976,-1.0839290618896484,-4.490727325479025,4.854251861572266,5.256940841674805,0.11462376266717911,-0.0230670478194952,-0.01777428574860096,0.10630917549133301,-0.07072117924690247,-0.26595479249954224,0.4244225323200226,-1.8354028463363647,-0.6062315702438354,0.893828272819519,-0.3267592787742615,-0.29243239760398865
1749058964.4149084,0.5489718914031982,0.2807164627262573,-1.083937168121338,-4.490560194055075,4.854124546051025,5.256350517272949,0.11546719074249268,-0.022338947281241417,-0.018333351239562035,0.10775516927242279,-0.07131843268871307,-0.270355761051178,0.4241929352283478,-1.8721665143966675,-0.6137268543243408,0.889935314655304,-0.33042776584625244,-0.30579447746276855
1749058964.4149883,0.5492081046104431,0.2806449371525268,-1.0839693546295166,-4.4903112850584925,4.853952407836914,5.2558512687683105,0.11589308828115463,-0.02260572649538517,-0.018532056361436844,0.10842564702033997,-0.07284342497587204,-0.27431175112724304,0.44332876801490784,-1.8888803720474243,-0.615731954574585,0.8870840668678284,-0.3053513467311859,-0.2903006374835968
1749058964.415058,0.5494124293327332,0.28061644613232417,-1.0840411186218262,-4.490096231500143,4.853814601898193,5.255312442779541,0.11748214811086655,-0.022631913423538208,-0.019598690792918205,0.11095277965068817,-0.07176808267831802,-0.2720656096935272,0.4305056631565094,-1.8943198919296265,-0.6149874925613403,0.8808084726333618,-0.2749532163143158,-0.2934943437576294
1749058964.41513,0.5496624708175659,0.28058020650830073,-1.084057331085205,-4.489881416360372,4.853717803955078,5.254745960235596,0.11773740500211716,-0.022927140817046165,-0.019799472764134407,0.11122619360685349,-0.0691521167755127,-0.2739243805408478,0.445860356092453,-1.873167634010315,-0.6046760082244873,0.869497537612915,-0.3053296208381653,-0.3188209533691406
1749058964.4152,0.5498719215393066,0.28053609907116694,-1.0840895175933838,-4.489649435082907,4.853574752807617,5.25417947769165,0.11830000579357147,-0.024279627948999405,-0.01963900588452816,0.11282337456941605,-0.06689956039190292,-0.27801233530044556,0.4296880066394806,-1.8542283773422241,-0.6041492223739624,0.8885889649391174,-0.336681604385376,-0.3346852660179138
1749058964.4152699,0.5501466393470764,0.28048889219250484,-1.0841724872589111,-4.489436527291769,4.8534393310546875,5.2536163330078125,0.11912629008293152,-0.024144474416971207,-0.019677788019180298,0.11140625178813934,-0.06657639145851135,-0.2842659056186676,0.43812209367752075,-1.8370184898376465,-0.6135320663452148,0.8888199925422668,-0.3323705196380615,-0.2950390875339508
1749058964.4153366,0.5503894686698914,0.2804676729389648,-1.0841889381408691,-4.489188810388082,4.853285312652588,5.2530364990234375,0.12300213426351547,-0.02361604943871498,-0.021757135167717934,0.11070644855499268,-0.06599219143390656,-0.28920891880989075,0.3928956985473633,-1.9009084701538086,-0.5862811207771301,0.8989545106887817,-0.3384626507759094,-0.25170207023620605
1749058964.415377,0.5503894686698914,0.2804676729389648,-1.0841889381408691,-4.489188810388082,4.853285312652588,5.2530364990234375,0.12300213426351547,-0.02361604943871498,-0.021757135167717934,0.11070644855499268,-0.06599219143390656,-0.28920891880989075,0.3928956985473633,-1.9009084701538086,-0.5862811207771301,0.8989545106887817,-0.3384626507759094,-0.25170207023620605
1749058964.4154155,0.5508854389190674,0.28032581388439937,-1.0842890739440918,-4.488759180108541,4.853026866912842,5.251907825469971,0.12267383933067322,-0.025359641760587692,-0.020898113027215004,0.11274481564760208,-0.06531182676553726,-0.28703930974006653,0.3926635980606079,-1.8595863580703735,-0.5965160727500916,0.8968994617462158,-0.3645491600036621,-0.24160884320735931
1749058964.415453,0.5511234998703003,0.2802666860767822,-1.0843366384506226,-4.488538642922872,4.852907657623291,5.251351356506348,0.12019390612840652,-0.02548382058739662,-0.020436272025108337,0.11201456934213638,-0.06504513323307037,-0.2841390073299408,0.452435702085495,-1.8560383319854736,-0.5949172377586365,0.9311987161636353,-0.3728405237197876,-0.24623703956604004
1749058964.415491,0.5513712763786316,0.28020648538555903,-1.0843532085418701,-4.488258262673849,4.852783203125,5.250804901123047,0.12175936996936798,-0.024468041956424713,-0.020786063745617867,0.11496943980455399,-0.06521466374397278,-0.2858927249908447,0.4384949803352356,-1.8386883735656738,-0.6028595566749573,0.9101322889328003,-0.4051753282546997,-0.30630117654800415
1749058964.4155283,0.5515611171722412,0.28016619264569087,-1.08439302444458,-4.488001724282736,4.852617263793945,5.250210762023926,0.12248218059539795,-0.02468745969235897,-0.02155965566635132,0.11941856890916824,-0.06654992699623108,-0.28591176867485046,0.4405997395515442,-1.847357988357544,-0.6046910881996155,0.8583135008811951,-0.39442339539527893,-0.3410315215587616
1749058964.415565,0.5518814325332642,0.2801143366047363,-1.0844287872314453,-4.487792631188864,4.852470397949219,5.24960470199585,0.12396542727947235,-0.026221754029393196,-0.021721763536334038,0.11744087189435959,-0.06906493753194809,-0.2909782826900482,0.4465343952178955,-1.8404998779296875,-0.5928794145584106,0.8710139989852905,-0.40050122141838074,-0.3074657618999481
1749058964.4156106,0.5520946979522705,0.2800822693058471,-1.08450448513031,-4.487552305261129,4.852412700653076,5.249048709869385,0.12110965698957443,-0.027637066319584846,-0.02155211940407753,0.11612760275602341,-0.07262342423200607,-0.2943449914455414,0.48244839906692505,-1.8250114917755127,-0.5885392427444458,0.8830528259277344,-0.3968283534049988,-0.31939661502838135
1749058964.415649,0.5520946979522705,0.2800822693058471,-1.08450448513031,-4.487552305261129,4.852412700653076,5.249048709869385,0.12110965698957443,-0.027637066319584846,-0.02155211940407753,0.11612760275602341,-0.07262342423200607,-0.2943449914455414,0.48244839906692505,-1.8250114917755127,-0.5885392427444458,0.8830528259277344,-0.3968283534049988,-0.31939661502838135
1749058964.4156854,0.5520946979522705,0.2800822693058471,-1.08450448513031,-4.487552305261129,4.852412700653076,5.249048709869385,0.12110965698957443,-0.027637066319584846,-0.02155211940407753,0.11612760275602341,-0.07262342423200607,-0.2943449914455414,0.48244839906692505,-1.8250114917755127,-0.5885392427444458,0.8830528259277344,-0.3968283534049988,-0.31939661502838135
1749058964.415722,0.5528697967529297,0.27994243680920405,-1.084608554840088,-4.4868298969664515,4.851916790008545,5.247311592102051,0.12702830135822296,-0.027627725154161453,-0.021314309909939766,0.11686886847019196,-0.07454352080821991,-0.2960410416126251,0.41161441802978516,-1.8109447956085205,-0.6011814475059509,0.8814406991004944,-0.3863936960697174,-0.34767550230026245
1749058964.4157586,0.5531630516052246,0.2798672157474975,-1.0846450328826904,-4.486603399316305,4.8517351150512695,5.246662139892578,0.12642031908035278,-0.02786935120820999,-0.021271120756864548,0.11531171947717667,-0.0774775892496109,-0.3036891520023346,0.4480494260787964,-1.8037410974502563,-0.6020197868347168,0.9054489135742188,-0.3900640308856964,-0.29959970712661743
1749058964.415795,0.5534183382987976,0.2798263269611816,-1.0847080945968628,-4.486393829385275,4.851583003997803,5.246026992797852,0.12706376612186432,-0.027940968051552773,-0.021800829097628593,0.11907052248716354,-0.0794476866722107,-0.30872073769569397,0.4483763873577118,-1.8217278718948364,-0.60484778881073,0.8873593807220459,-0.37594860792160034,-0.26595190167427063
1749058964.415832,0.5536402463912964,0.279766245479248,-1.0847563743591309,-4.486128707925314,4.851412296295166,5.24545955657959,0.1276846081018448,-0.027668429538607597,-0.022722862660884857,0.11709539592266083,-0.08393069356679916,-0.30933237075805664,0.48277801275253296,-1.8130016326904297,-0.6082950830459595,0.8998456001281738,-0.35237041115760803,-0.26661786437034607
1749058964.4159775,0.5538945198059082,0.2797030645557861,-1.0847920179367065,-4.485906024972433,4.851244926452637,5.244857311248779,0.12951461970806122,-0.028286855667829514,-0.02289292775094509,0.11705370247364044,-0.08140182495117188,-0.30788150429725647,0.3925970196723938,-1.779001235961914,-0.5747201442718506,0.9080171585083008,-0.33577364683151245,-0.23820529878139496
1749058964.4163682,0.5538945198059082,0.2797030645557861,-1.0847920179367065,-4.485906024972433,4.851244926452637,5.244857311248779,0.12951461970806122,-0.028286855667829514,-0.02289292775094509,0.11705370247364044,-0.08140182495117188,-0.30788150429725647,0.3925970196723938,-1.779001235961914,-0.5747201442718506,0.9080171585083008,-0.33577364683151245,-0.23820529878139496
1749058964.46231,0.5544168949127197,0.2795640665241699,-1.0849003791809082,-4.4854518375792445,4.850981712341309,5.243631839752197,0.12207785993814468,-0.025333460420370102,-0.021693427115678787,0.12140276283025742,-0.08001577854156494,-0.29570287466049194,0.4351131319999695,-1.7616519927978516,-0.5758435726165771,0.8876606822013855,-0.3424794673919678,-0.30304184556007385
1749058964.4623573,0.554665207862854,0.27952007829632564,-1.0849484205245972,-4.485193153420919,4.850783824920654,5.243029594421387,0.12464795261621475,-0.025543449446558952,-0.021598046645522118,0.11864286661148071,-0.08014628291130066,-0.2969280779361725,0.43389350175857544,-1.7743053436279297,-0.5785101056098938,0.9086759090423584,-0.31442636251449585,-0.3226599097251892
1749058964.4623988,0.5548768043518066,0.27944449960675044,-1.0849961042404175,-4.484967609445089,4.850616455078125,5.242422103881836,0.12295357882976532,-0.025094958022236824,-0.021957792341709137,0.11968078464269638,-0.07881195843219757,-0.3000108599662781,0.49706727266311646,-1.7745870351791382,-0.5810850858688354,0.9033107757568359,-0.331735223531723,-0.31769025325775146
1749058964.4624398,0.5548768043518066,0.27944449960675044,-1.0849961042404175,-4.484967609445089,4.850616455078125,5.242422103881836,0.12295357882976532,-0.025094958022236824,-0.021957792341709137,0.11968078464269638,-0.07881195843219757,-0.3000108599662781,0.49706727266311646,-1.7745870351791382,-0.5810850858688354,0.9033107757568359,-0.331735223531723,-0.31769025325775146
1749058964.4624794,0.5554818511009216,0.27937249719586177,-1.0850919485092163,-4.484474321404928,4.850344181060791,5.24122428894043,0.1287829577922821,-0.025718864053487778,-0.023262035101652145,0.12080351263284683,-0.07646659016609192,-0.29916349053382874,0.48823392391204834,-1.7767033576965332,-0.5558282732963562,0.9037089347839355,-0.33898499608039856,-0.3357568681240082
1749058964.4625187,0.5556357502937317,0.27928487836804194,-1.0851436853408813,-4.484218259850973,4.850143909454346,5.240585803985596,0.13207557797431946,-0.026225334033370018,-0.023410428315401077,0.12170000374317169,-0.07494957000017166,-0.30106452107429504,0.6062831878662109,-1.8176833391189575,-0.5974286198616028,0.9268773794174194,-0.3411991000175476,-0.3737984001636505
1749058964.4625578,0.5558997392654419,0.27926473199810786,-1.0851877927780151,-4.483980556527609,4.850007057189941,5.239960670471191,0.1394626945257187,-0.02771676331758499,-0.024951137602329254,0.12310394644737244,-0.07483520358800888,-0.30837884545326233,0.5231329798698425,-1.8117752075195312,-0.5770370960235596,0.9392769932746887,-0.3629842698574066,-0.36194247007369995
1749058964.4625962,0.5562254786491394,0.2792050081440429,-1.085220456123352,-4.4837311706938685,4.849876880645752,5.239336967468262,0.14080660045146942,-0.028270484879612923,-0.02576925791800022,0.12428018450737,-0.07350193709135056,-0.319416880607605,0.47728273272514343,-1.7765471935272217,-0.5836895704269409,0.9088423252105713,-0.36528271436691284,-0.33095067739486694
1749058964.4626343,0.5564496517181396,0.2791682916828613,-1.0852597951889038,-4.483491083184713,4.849666595458984,5.238647937774658,0.1421150267124176,-0.027321569621562958,-0.02496209554374218,0.12599727511405945,-0.07524997740983963,-0.3257061541080475,0.4229744076728821,-1.7760790586471558,-0.5608195662498474,0.9139202237129211,-0.37146109342575073,-0.27536678314208984
1749058964.4626725,0.5566971302032471,0.27912013112988276,-1.0853079557418823,-4.483231445352072,4.849550724029541,5.238004207611084,0.13730506598949432,-0.025811532512307167,-0.022730233147740364,0.12480609863996506,-0.07626177370548248,-0.3257157802581787,0.5035459399223328,-1.7980886697769165,-0.5825798511505127,0.9412423372268677,-0.37424370646476746,-0.2821221947669983
1749058964.4627104,0.5570106506347656,0.27905623495068355,-1.085336446762085,-4.482988973657125,4.849415302276611,5.23736572265625,0.1367357224225998,-0.02493087761104107,-0.021957367658615112,0.12629160284996033,-0.07754945009946823,-0.3194999396800995,0.522010087966919,-1.8033863306045532,-0.5922994613647461,0.9397315382957458,-0.36238598823547363,-0.29966095089912415
1749058964.4627476,0.557255744934082,0.27898959695782466,-1.085376501083374,-4.482698102990621,4.849259853363037,5.2367730140686035,0.1356622874736786,-0.024241484701633453,-0.02213761769235134,0.12710678577423096,-0.07945441454648972,-0.31758272647857666,0.5091190338134766,-1.8153457641601562,-0.6019404530525208,0.9600356817245483,-0.37059563398361206,-0.3216099143028259
1749058964.462785,0.5575389266014099,0.27895323812451167,-1.0854239463806152,-4.482460638085836,4.849023342132568,5.236076831817627,0.1365305632352829,-0.023630239069461823,-0.02195506915450096,0.13023850321769714,-0.0798485279083252,-0.3214016556739807,0.5212417840957642,-1.8207083940505981,-0.5960878133773804,0.9439091086387634,-0.36980536580085754,-0.3352605402469635
1749058964.4628294,0.557838499546051,0.2789248663135986,-1.085491418838501,-4.482208868066305,4.84891414642334,5.235495090484619,0.1385749727487564,-0.023879094049334526,-0.021478228271007538,0.13150344789028168,-0.08290069550275803,-0.3261381983757019,0.527208685874939,-1.8230332136154175,-0.6116040945053101,0.9727897644042969,-0.350751131772995,-0.3389962911605835
1749058964.4628778,0.5581459999084473,0.2788926798054199,-1.0855354070663452,-4.4819587669768275,4.848700046539307,5.234809875488281,0.1419421136379242,-0.024180030450224876,-0.022369304671883583,0.13781528174877167,-0.08404836803674698,-0.3308795988559723,0.5141345262527466,-1.8588253259658813,-0.6151332855224609,0.9177989959716797,-0.33049312233924866,-0.33278796076774597
1749058964.4629228,0.5584326386451721,0.27887241422619624,-1.0855873823165894,-4.481678863564962,4.848607063293457,5.2341628074646,0.14397911727428436,-0.024356849491596222,-0.023029563948512077,0.13809601962566376,-0.0838499367237091,-0.33087944984436035,0.50234454870224,-1.8145086765289307,-0.5929574370384216,0.9096689820289612,-0.35178953409194946,-0.3579362630844116
1749058964.4629622,0.5587440133094788,0.27878646432843013,-1.085631251335144,-4.481393238107199,4.848443984985352,5.233448505401611,0.1442904770374298,-0.025215959176421165,-0.023963188752532005,0.13638979196548462,-0.08514079451560974,-0.334585964679718,0.4994107186794281,-1.82573664188385,-0.5862596035003662,0.9363253116607666,-0.351188600063324,-0.3375406861305237
1749058964.4630005,0.5590075850486755,0.2787061172672729,-1.0856757164001465,-4.481121917764181,4.848233699798584,5.232767105102539,0.14521567523479462,-0.024106768891215324,-0.02568349801003933,0.13984531164169312,-0.08724608272314072,-0.3427540957927704,0.4959494471549988,-1.8706703186035156,-0.5771793127059937,0.9233840703964233,-0.3522947430610657,-0.33693715929985046
1749058964.4630387,0.5592756271362305,0.2786661821552734,-1.0857270956039429,-4.480848690072531,4.847997188568115,5.2320637702941895,0.14874884486198425,-0.024000680074095726,-0.025242619216442108,0.13870121538639069,-0.08444654196500778,-0.3495028018951416,0.4625050723552704,-1.8613063097000122,-0.5769577622413635,0.9033527970314026,-0.36382439732551575,-0.28825417160987854
1749058964.4630764,0.5596026182174683,0.27863864480938716,-1.0857758522033691,-4.480568309823507,4.847903251647949,5.231416702270508,0.14697836339473724,-0.025062542408704758,-0.02417892776429653,0.13658419251441956,-0.08533867448568344,-0.35095614194869995,0.4857444167137146,-1.872193694114685,-0.5822988748550415,0.9452028870582581,-0.35648873448371887,-0.263954222202301
1749058964.4631155,0.5598586201667786,0.27857033788647456,-1.0858079195022583,-4.480291744271749,4.847678184509277,5.230682849884033,0.14653630554676056,-0.02494429424405098,-0.022961068898439407,0.13504090905189514,-0.08660721778869629,-0.3463435173034668,0.495708167552948,-1.8846701383590698,-0.6000068783760071,0.9627686142921448,-0.3552328646183014,-0.25791341066360474
1749058964.4631536,0.5602007508277893,0.2785501915165405,-1.0858359336853027,-4.480018516580099,4.847541809082031,5.229987144470215,0.14896754920482635,-0.02588045969605446,-0.023276319727301598,0.13657930493354797,-0.09042605757713318,-0.3436824381351471,0.4529218375682831,-1.8833322525024414,-0.6038209795951843,0.9425950646400452,-0.35069403052330017,-0.30635395646095276
1749058964.4632661,0.5604885816574097,0.27849428235974116,-1.0859354734420776,-4.479725738564962,4.847355842590332,5.229304790496826,0.15223342180252075,-0.026509100571274757,-0.024120351299643517,0.13540586829185486,-0.09127022325992584,-0.3453218340873718,0.4900516867637634,-1.8553638458251953,-0.6014995574951172,0.9846602082252502,-0.32317548990249634,-0.30805036425590515
1749058964.4643948,0.560762882232666,0.27839211999859614,-1.0859709978103638,-4.479460617105001,4.847198963165283,5.2286529541015625,0.15141110122203827,-0.02721744403243065,-0.025019528344273567,0.14136573672294617,-0.08860180526971817,-0.3500233292579651,0.4714341461658478,-1.8635953664779663,-0.596466064453125,0.9563199877738953,-0.3179985582828522,-0.301994264125824
1749058964.5103295,0.5610844492912292,0.27840201436962886,-1.0860157012939453,-4.479206701318258,4.84702730178833,5.227926731109619,0.15330667793750763,-0.02769424393773079,-0.024150079116225243,0.1394626647233963,-0.08899898082017899,-0.3541193902492523,0.4363914430141449,-1.8449047803878784,-0.602525532245636,0.9528838992118835,-0.32203778624534607,-0.26639771461486816
1749058964.5103772,0.5610844492912292,0.27840201436962886,-1.0860157012939453,-4.479206701318258,4.84702730178833,5.227926731109619,0.15330667793750763,-0.02769424393773079,-0.024150079116225243,0.1394626647233963,-0.08899898082017899,-0.3541193902492523,0.4363914430141449,-1.8449047803878784,-0.602525532245636,0.9528838992118835,-0.32203778624534607,-0.26639771461486816
1749058964.510422,0.5617359280586243,0.2782631355473022,-1.0861271619796753,-4.478625913659567,4.846607208251953,5.226515293121338,0.15309643745422363,-0.027980048209428787,-0.026807142421603203,0.14701303839683533,-0.08981800824403763,-0.3548605144023895,0.48847490549087524,-1.8421549797058105,-0.5834395885467529,0.9599013328552246,-0.3042747676372528,-0.3388864994049072
1749058964.510469,0.5619978904724121,0.2781839805790405,-1.08617103099823,-4.478337904016012,4.846371173858643,5.225758075714111,0.15308430790901184,-0.02834981493651867,-0.026278097182512283,0.14798960089683533,-0.0891977921128273,-0.36094850301742554,0.4946214556694031,-1.8822709321975708,-0.5747416615486145,0.9287939071655273,-0.30617594718933105,-0.3111409842967987
1749058964.5105329,0.5622902512550354,0.2781469064899902,-1.0862191915512085,-4.478037735024923,4.846218109130859,5.224995136260986,0.1526225060224533,-0.029308505356311798,-0.025924300774931908,0.15053096413612366,-0.08737105131149292,-0.36498120427131653,0.4970042109489441,-1.8610152006149292,-0.5860906839370728,0.9239020347595215,-0.3213493227958679,-0.2620862126350403
1749058964.5105948,0.5626394748687744,0.27808861314739985,-1.0862950086593628,-4.477755685845846,4.846058368682861,5.224306106567383,0.1538054645061493,-0.028871679678559303,-0.02625897340476513,0.15048335492610931,-0.08543712645769119,-0.3684867322444916,0.567683219909668,-1.8658316135406494,-0.6056728959083557,0.9374381303787231,-0.3314320147037506,-0.27827921509742737
1749058964.5106654,0.5629262924194336,0.278054876918457,-1.0863507986068726,-4.477439065972799,4.845832824707031,5.2235870361328125,0.1562964916229248,-0.028941815719008446,-0.026944486424326897,0.15096518397331238,-0.08570797741413116,-0.36504077911376953,0.5271033644676208,-1.8702847957611084,-0.5759953856468201,0.9012203216552734,-0.3340994119644165,-0.2922023832798004
1749058964.5107353,0.5632467269897461,0.27795271455731196,-1.086398959159851,-4.477138420144552,4.845728397369385,5.222907543182373,0.15587016940116882,-0.02872164361178875,-0.027649732306599617,0.1476815640926361,-0.08451130241155624,-0.3638448715209961,0.5108152031898499,-1.8873412609100342,-0.573472261428833,0.9175611138343811,-0.34646737575531006,-0.3019215166568756
1749058964.5108042,0.5635544061660767,0.2779159980961303,-1.0864466428756714,-4.476833959619039,4.845524787902832,5.222106456756592,0.15831992030143738,-0.02924594096839428,-0.027423519641160965,0.14636382460594177,-0.08660557121038437,-0.3663269579410553,0.4786776602268219,-1.8595257997512817,-0.5600576996803284,0.9430922865867615,-0.35892751812934875,-0.3065822720527649
1749058964.510872,0.5639066100120544,0.2778715330311279,-1.086502194404602,-4.476529737512106,4.845319747924805,5.22139835357666,0.15750110149383545,-0.030947642400860786,-0.026360979303717613,0.14841558039188385,-0.08886841684579849,-0.36706867814064026,0.5086620450019836,-1.8329336643218994,-0.5803681015968323,0.9347823262214661,-0.34962546825408936,-0.2823932468891144
1749058964.5109398,0.5641928315162659,0.2777891594120483,-1.086514949798584,-4.476239105264181,4.8451714515686035,5.220682621002197,0.1605122685432434,-0.030675599351525307,-0.025780601426959038,0.14927715063095093,-0.08558793365955353,-0.3667079508304596,0.501425564289093,-1.8580396175384521,-0.5921840667724609,0.9450489282608032,-0.35767650604248047,-0.2964720129966736
1749058964.5110085,0.5641928315162659,0.2777891594120483,-1.086514949798584,-4.476239105264181,4.8451714515686035,5.220682621002197,0.1605122685432434,-0.030675599351525307,-0.025780601426959038,0.14927715063095093,-0.08558793365955353,-0.3667079508304596,0.501425564289093,-1.8580396175384521,-0.5921840667724609,0.9450489282608032,-0.35767650604248047,-0.2964720129966736
1749058964.5110772,0.5648157596588135,0.27770309030499263,-1.0866307020187378,-4.475633760491842,4.844797611236572,5.219208717346191,0.1597781628370285,-0.03291299566626549,-0.025449983775615692,0.1507934033870697,-0.08924981951713562,-0.3716118633747101,0.5002344250679016,-1.8174340724945068,-0.6042686104774475,0.9272767901420593,-0.381889671087265,-0.3498069941997528
1749058964.5111437,0.5648157596588135,0.27770309030499263,-1.0866307020187378,-4.475633760491842,4.844797611236572,5.219208717346191,0.1597781628370285,-0.03291299566626549,-0.025449983775615692,0.1507934033870697,-0.08924981951713562,-0.3716118633747101,0.5002344250679016,-1.8174340724945068,-0.6042686104774475,0.9272767901420593,-0.381889671087265,-0.3498069941997528
1749058964.5112112,0.5651719570159912,0.27760450422253413,-1.0866906642913818,-4.475345512429708,4.844610691070557,5.218441486358643,0.16188691556453705,-0.032198715955019,-0.024570096284151077,0.15088357031345367,-0.09245827049016953,-0.377548485994339,0.49373653531074524,-1.813535451889038,-0.6265780329704285,0.9412639141082764,-0.35513341426849365,-0.3197478950023651
1749058964.5112777,0.5654833912849426,0.27752594530072017,-1.086747169494629,-4.475023647347921,4.844454765319824,5.217670440673828,0.16401100158691406,-0.03144734352827072,-0.027877986431121826,0.15593063831329346,-0.09526152908802032,-0.37961962819099426,0.4786817729473114,-1.8176692724227905,-0.5877484679222107,0.8994670510292053,-0.3283489942550659,-0.2873677611351013
1749058964.5113444,0.5658151507377625,0.2774694400974731,-1.0868383646011353,-4.474703689614767,4.84428071975708,5.2169508934021,0.16543079912662506,-0.032248035073280334,-0.029216649010777473,0.15355931222438812,-0.09231287986040115,-0.38004982471466064,0.505669891834259,-1.8450685739517212,-0.5768389701843262,0.90347820520401,-0.3602566719055176,-0.2906607985496521
1749058964.5114117,0.5664888024330139,0.27733461439099116,-1.0869736671447754,-4.474105497399801,4.8438639640808105,5.215432167053223,0.1662117838859558,-0.032738637179136276,-0.028844408690929413,0.156596839427948,-0.09564051032066345,-0.38136526942253113,0.49621227383613586,-1.804973840713501,-0.5619163513183594,0.9041404724121094,-0.3731098175048828,-0.3470437824726105
1749058964.5114794,0.5668154358863831,0.27727822839703364,-1.0870181322097778,-4.473758359948629,4.843679904937744,5.214629173278809,0.16727186739444733,-0.033058036118745804,-0.02825377695262432,0.1512959897518158,-0.09713627398014069,-0.3843444287776947,0.4772465229034424,-1.8219293355941772,-0.5725979804992676,0.9404109716415405,-0.35926300287246704,-0.337202787399292
