nimar13/UR3e_dataset_trayectorias/trayectorias_ejecutadas_filtradas/quintic_func/trayectoria_175_result_filtrado.csv
timestamp,q1,q2,q3,q4,q5,q6,qd1,qd2,qd3,qd4,qd5,qd6,tau1,tau2,tau3,tau4,tau5,tau6
1749044159.0782902,-1.8133071356802877,-1.6769813108081681,0.5850102139710247,1.0119752473651966,-0.26790899792969597,-4.374361836303709,0.0015097890960557242,-0.0008650333153741502,-0.0003222415407192728,0.00015566346711739742,0.0011099866737331703,0.003125009530492094,-0.1296696662902832,-0.4373065829277038,-0.564625084400177,0.1601718366146087,-0.0314269438385963,-0.0264044404029846
1749044159.078338,-1.8133142516963532,-1.6769762276258535,0.5850125113529335,1.01197738676445,-0.2679045919043467,-4.374352270106058,0.0014840771557115447,-0.0008679649274805993,-0.0002900531558482429,0.00014845434101974495,0.001139561511778519,0.003170398991660673,-0.1296696662902832,-0.4373065829277038,-0.564625084400177,0.1601718366146087,-0.0314269438385963,-0.0264044404029846
1749044159.0783775,-1.8133210100587864,-1.676971391791646,0.5850147875535956,1.0119794752153044,-0.2679004318692158,-4.3743428496198185,0.0014550734151752666,-0.0008722825230980481,-0.00025660056396279975,0.00014249032612305716,0.001165502661284155,0.0032063319149531234,-0.1155810207128524,-0.4362947046756744,-0.5514317154884338,0.1740284413099289,-0.0416156016290187,-0.0131123661994934
1749044159.078416,-1.8133271643686824,-1.6769670066041231,0.5850169748969795,1.0119814762340331,-0.26789669664916743,-4.374333701843744,0.0014193984397790796,-0.0008779011774762075,-0.00022425507918041285,0.00013814663476487913,0.0011839794398688886,0.00322577114375881,-0.0982027873396873,-0.4260631501674652,-0.5671653151512146,0.1562228202819824,-0.0280337333679199,-0.0206608474254608
1749044159.0784545,-1.8133325119866093,-1.676963247069532,0.5850190023898998,1.011983358764319,-0.26789353412158,-4.374324924001755,0.0013744484544571773,-0.0008845203037247152,-0.00019561064657269277,0.0001357159995086187,0.0011915477410141023,0.0032226739140988397,-0.0982027873396873,-0.4260631501674652,-0.5671653151512146,0.1562228202819824,-0.0280337333679199,-0.0206608474254608
1749044159.0784922,-1.8133369076075858,-1.6769602514743902,0.5850207976529104,1.011985097318881,-0.26789104748156745,-4.374316577792506,0.0013186756159276596,-0.0008916234008809075,-0.00017346961315982092,0.00013535861551332775,0.0011854116509687877,0.003192422418615416,-0.0724831372499466,-0.43429034948349,-0.5553773045539856,0.1789250671863556,-0.0471732057631015,-0.0155078023672103
1749044159.07853,-1.8133402720913399,-1.676958114748614,0.5850222897703331,1.0119866721759483,-0.2678892848312672,-4.374308690482863,0.0012517299043052058,-0.000898497156099892,-0.00016078947445509416,0.00013705325676096133,0.0011636676321810464,0.0031322565508821805,-0.0724831372499466,-0.43429034948349,-0.5553773045539856,0.1789250671863556,-0.0471732057631015,-0.0155078023672103
1749044159.0785675,-1.813342596107911,-1.6769568834654098,0.5850234130525634,1.0119880700295365,-0.2678882332785349,-4.3743012616934625,0.0011744509639276739,-0.0009042713332395492,-0.00016057964414833186,0.0001405551880203034,0.0011255024078296017,0.003041646035676221,-0.1138278990983963,-0.4450680017471313,-0.5700358152389526,0.1753811687231063,-0.0339551046490669,-0.0354737341403961
1749044159.0786052,-1.813343938751334,-1.6769565527157095,0.5850241114370021,1.011989284978064,-0.26788781856538885,-4.374294273680608,0.001088720462648056,-0.0009079800404261625,-0.00017574314049298992,0.00014536720087674347,0.0010713135713426422,0.0029225142220008463,-0.0836910083889961,-0.4503377377986908,-0.5807965993881226,0.1739698499441146,-0.0439109094440937,-0.0115061700344085
1749044159.078642,-1.813344421554066,-1.6769570656217037,0.5850243429051248,1.0119903191821535,-0.26788791086106545,-4.374287702610297,0.000997205331903327,-0.0009086452744460801,-0.0002088660305440776,0.0001507303394337291,0.0010027301679209797,0.0027792258891764874,-0.0836910083889961,-0.4503377377986908,-0.5807965993881226,0.1739698499441146,-0.0439109094440937,-0.0115061700344085
1749044159.078679,-1.8133442183360493,-1.6769583164195432,0.5850240829895593,1.0119911823958223,-0.26788833671155116,-4.37428152848357,0.0009030363934309028,-0.0009053840903569956,-0.0002619666173724759,0.00015564048629226443,0.000922525632981851,0.0026182803701750544,-0.093458205461502,-0.4296317994594574,-0.5762054324150085,0.184822142124176,-0.0430476106703281,-0.0162751972675323
1749044159.0787165,-1.8133435412517125,-1.6769601577805493,0.5850233264911346,1.0119918899962304,-0.2678888962716909,-4.374275741891413,0.0008094724906732546,-0.0008975391118031338,-0.00033622522816088786,0.00015889579261210254,0.0008344307491257971,0.002447704362775273,-0.093458205461502,-0.4296317994594574,-0.5762054324150085,0.184822142124176,-0.0430476106703281,-0.0162751972675323
1749044159.0787532,-1.8133426234779424,-1.676962412557183,0.585022087068773,1.011992459804397,-0.2678893839850344,-4.374270346650935,0.0007195960649312596,-0.0008848268345786252,-0.0004317220459652425,0.00015917785613001309,0.0007428650148885827,0.002276202160101742,-0.0997427478432655,-0.4430706202983856,-0.5923081636428833,0.1828299313783645,-0.0321182012557983,-0.0113092511892318
1749044159.07879,-1.8133416993604046,-1.6769648893938973,0.5850203950659537,1.011992908482799,-0.26788961012206236,-4.374265358414218,0.0006360735588533309,-0.0008674895421114932,-0.0005472124629797216,0.00015516658269517104,0.0006526103417230844,0.0021121744727456487,-0.1028250604867935,-0.4262917339801788,-0.581189751625061,0.1929234266281128,-0.0293459706008434,-0.0131902694702148
1749044159.078827,-1.8133409835099221,-1.676967400560978,0.5850182943045692,1.0119932484170664,-0.2678894203715675,-4.374260800176829,0.0005609969974534712,-0.0008464270250867554,-0.0006799658433781696,0.00014568492869668077,0.0005684528065663764,0.0019627439502813465,-0.1028250604867935,-0.4262917339801788,-0.581189751625061,0.1929234266281128,-0.0293459706008434,-0.0131902694702148
1749044159.078864,-1.8133406510810968,-1.6769697794125424,0.5850158385252983,1.0119934858017878,-0.26788871109058243,-4.374256696032591,0.0004958067373797676,-0.0008232782694760039,-0.0008256862310611179,0.00012986542719323207,0.0004948175379564595,0.0018329212330602945,-0.0874177664518356,-0.4413489997386932,-0.570777952671051,0.1854147613048553,-0.0196158625185489,0.00143663585186
1749044159.0789006,-1.813340821824404,-1.6769718947663965,0.5850130879791384,1.011993620294854,-0.2678874386333622,-4.374253064647533,0.00044128375460674926,-0.0008004257622850175,-0.0009785268584268396,0.0001073258550932051,0.00043541905744916146,0.0017250156160408376,-0.1084627360105514,-0.4414180815219879,-0.5786721706390381,0.201795294880867,-0.0234538465738296,-0.0027496218681335
1749044159.0789378,-1.813341550135199,-1.6769736604399754,0.5850101066236715,1.0119936461940082,-0.26788562205064215,-4.374249913961976,0.00039759405824591615,-0.0007809069417882331,-0.0011312083288570424,7.833701857442752e-05,0.0003929452186651041,0.0016383503708383151,-0.1084627360105514,-0.4414180815219879,-0.5786721706390381,0.201795294880867,-0.0234538465738296,-0.0027496218681335
1749044159.0789747,-1.813342822285382,-1.6769750396003862,0.585006960420534,1.011993554763343,-0.2678833391792311,-4.374247238521333,0.00036436651117271047,-0.0007682335809077391,-0.001275253589782704,4.3961951990991566e-05,0.0003687891556388055,0.0015692977410710937,-0.0903473868966102,-0.4618659913539886,-0.5686149597167969,0.1895944476127624,-0.0265825502574443,-0.0164234042167663
1749044159.079012,-1.8133445607048433,-1.6769760447247388,0.5850037171493412,1.0119933372424084,-0.26788071680883935,-4.3742450203435235,0.00034078670658585844,-0.000766133857553988,-0.0014013576959257988,6.14346343948314e-06,0.000362842241048809,0.0015116139408817722,-0.0903473868966102,-0.4618659913539886,-0.5686149597167969,0.1895944476127624,-0.0265825502574443,-0.0164234042167663
1749044159.079121,-1.8133466340612643,-1.6769767343410573,0.5850004477404361,1.0119929881795213,-0.26787791633401786,-4.374243233295982,0.0003256925666765158,-0.0007782403469793931,-0.0014999115174712887,-3.228342729043054e-05,0.0003733622902964603,0.0014570350261591083,-0.1249985545873642,-0.4352778196334839,-0.585437536239624,0.1996396780014038,-0.0449557490646839,-0.0105316638946533
1749044159.0805054,-1.8133488713817454,-1.6769772073089746,0.5849972283729054,1.0119925088214274,-0.26787511693837357,-4.374241849844612,0.00031766152808277993,-0.0008077505410329379,-0.0015616921143503293,-6.76754229445438e-05,0.0003969339580623297,0.0013960877869573112,-0.111536905169487,-0.4431657791137695,-0.575736403465271,0.2045591324567794,-0.0379338599741458,-0.0076809078454971
1749044159.1223304,-1.8133510787017542,-1.6769775946162448,0.5849941417925785,1.0119919102258876,-0.26787249863956475,-4.374240848172842,0.0003150840729349076,-0.0008570856391789223,-0.001578717124686339,-9.577733226384543e-05,0.0004285407588403476,0.0013190692866607606,-0.111536905169487,-0.4431657791137695,-0.575736403465271,0.2045591324567794,-0.0379338599741458,-0.0076809078454971
1749044159.1223772,-1.8133530573511873,-1.6769780482217655,0.5849912760273389,1.0119912156404038,-0.26787022728139204,-4.374240217429034,0.000316223293127795,-0.000927568458054029,-0.0015452362597460129,-0.00011203871089187645,0.00046176877774675143,0.001217147664618324,-0.1442900449037552,-0.4634813368320465,-0.5785765647888184,0.2065313160419464,-0.0590333752334117,-0.0046480596065521
1749044159.1224182,-1.8133546232865312,-1.6769787269389917,0.5849887192898441,1.0119904616261626,-0.2678684428247684,-4.3742399593920895,0.00031926445638326125,-0.0010191332905367632,-0.0014588012148454193,-0.0001120475656309782,0.0004891595502159803,0.0010835309184982424,-0.1253352761268615,-0.4279091656208038,-0.5786411166191101,0.2087098509073257,-0.0489548109471797,-0.0117460489273071
1749044159.1224585,-1.8133556264059913,-1.6769797805634492,0.5849865511163812,1.0119896973970846,-0.26786725138057244,-4.374240085894139,0.0003223616534006592,-0.0011300727020170497,-0.0013213200969060157,-9.20649387076948e-05,0.0005027228167959614,0.0009146387617456223,-0.1253352761268615,-0.4279091656208038,-0.5786411166191101,0.2087098509073257,-0.0489548109471797,-0.0117460489273071
1749044159.1224976,-1.813355967861956,-1.6769813344541744,0.5849848309912097,1.0119889819203387,-0.2678667208190404,-4.374240612350066,0.0003236902299588355,-0.0012568235004763153,-0.0011399714980968691,-4.963023525853626e-05,0.0004946084844173012,0.0007111975503411428,-0.1076709926128387,-0.4410203397274017,-0.5778180360794067,0.2259664833545684,-0.0591045282781124,-0.0259354412555694
1749044159.1225364,-1.8133556128502406,-1.6769834766921647,0.5849835863404297,1.011988378594412,-0.26786687959438493,-4.3742415482814145,0.000321513651881725,-0.001393799210956349,-0.0009278360540924891,1.580660382798195e-05,0.0004579212916680755,0.00047916294976549866,-0.1076709926128387,-0.4410203397274017,-0.5778180360794067,0.2259664833545684,-0.0591045282781124,-0.0259354412555694
1749044159.1225796,-1.813354596695037,-1.6769862488993648,0.5849828017906257,1.0119879477692695,-0.26786771828947764,-4.374242885794493,0.00031427164589685247,-0.0015332864761567141,-0.0007041068289647947,0.00010228231825089021,0.0003876421679881066,0.0002303628240248189,-0.1313835084438324,-0.4684478044509887,-0.5574792623519897,0.2183824628591537,-0.0573234371840953,-0.0277527868747711
1749044159.1226192,-1.813353022967283,-1.6769896408344218,0.584982411087471,1.0119877378064277,-0.2678691930945637,-4.374244586926199,0.00030069306487606577,-0.0016654306693378812,-0.0004937659576985705,0.0002048126696778245,0.00028159866387538266,-1.7252208035556572e-05,-0.107053130865097,-0.4590518474578857,-0.5538768768310547,0.2072679698467254,-0.0864438116550445,-0.0305191874504089
1749044159.1226568,-1.813351053354187,-1.6769935886763154,0.5849822922757676,1.011987775621516,-0.2678712301841382,-4.374246570955952,0.00027993231804270116,-0.0017783348632126736,-0.0003266605258633698,0.00031505063122598027,0.00014140543079259552,-0.00023985646102110165,-0.107053130865097,-0.4590518474578857,-0.5538768768310547,0.2072679698467254,-0.0864438116550445,-0.0305191874504089
1749044159.1226945,-1.813348889961991,-1.6769979770724406,0.5849822661107129,1.0119880577041964,-0.26787372998482434,-4.374248703278403,0.00025172286647480826,-0.001858283989799552,-0.00023596963175147258,0.0004211798352126132,-2.672260431703063e-05,-0.0004085789119968864,-0.1190352663397789,-0.4217619597911834,-0.5475094318389893,0.2151706963777542,-0.0973885357379913,-0.024564117193222
1749044159.122732,-1.8133467518942006,-1.6770026447818458,0.5849820975921003,1.0119885425615183,-0.2678765705972066,-4.374250787966018,0.0002165357548370513,-0.0018900877505230516,-0.00025612028781597134,0.0005081034794870545,-0.0002113938879809462,-0.0004909591051578503,-0.1066203117370605,-0.4143120646476745,-0.5484011173248291,0.2006207257509231,-0.1051997393369674,-0.0452384948730468
1749044159.1227694,-1.8133448492023883,-1.6770073930117972,0.5849815008534429,1.011989145434804,-0.2678796099517077,-4.374252566272169,0.0001757260806126818,-0.001857524695803297,-0.0004202771902923892,0.000557970596820128,-0.0003958131557046793,-0.00045301610693195124,-0.1066203117370605,-0.4143120646476745,-0.5484011173248291,0.2006207257509231,-0.1051997393369674,-0.0452384948730468
1749044159.1228063,-1.8133433580644525,-1.6770119949884208,0.5849801478292433,1.0119897359966028,-0.26788268656365366,-4.374253722752148,0.00013164643439682216,-0.0017438792348254933,-0.0007575966443599682,0.0005510536712871302,-0.000558007005838303,-0.00026184480683190343,-0.0999653786420822,-0.4161252081394195,-0.5692269206047058,0.1909311413764953,-0.1015095561742782,-0.0300940871238708
1749044159.122844,-1.8133424007359125,-1.6770162054182987,0.5849776807299157,1.011990139545257,-0.2678856190983353,-4.374253899495914,8.770441079117142e-05,-0.0015325912436397824,-0.0012904926643808464,0.00046695457175847043,-0.000671582313014322,0.00011142881084831955,-0.0921231359243393,-0.3620727062225342,-0.5950391292572021,0.1860336661338806,-0.0842476934194564,-0.015121966600418
1749044159.122881,-1.8133420325622014,-1.677019769095889,0.584973727495478,1.0119901419936548,-0.2678882053831783,-4.374252717500459,4.834192914964572e-05,-0.001208060955250175,-0.0020322043466770795,0.0002860717240042593,-0.0007070589652601489,0.000688586027061757,-0.0921231359243393,-0.3620727062225342,-0.5950391292572021,0.1860336661338806,-0.0842476934194564,-0.015121966600418
1749044159.1229184,-1.8133422368777874,-1.6770224284793631,0.584967918659331,1.0119894986812268,-0.2678902218146927,-4.374249802774271,1.8917823977170544e-05,-0.0007566414034627003,-0.0029849657072524545,-8.785771158205824e-06,-0.0006337643502713471,0.001481474002010202,-0.1017188802361488,-0.3471521437168121,-0.6331404447555542,0.1542864590883255,-0.0588226951658725,0.0023210495710372
1749044159.122955,-1.813342927522803,-1.6770239303153627,0.5849599039245823,1.011987946688742,-0.267891424135141,-4.374244813581835,5.482266826838701e-06,-0.00016779844547755326,-0.004139049954295326,-0.0004307959736514357,-0.0004222099084762553,0.0024897601916956304,-0.1017188802361488,-0.3471521437168121,-0.6331404447555542,0.1542864590883255,-0.0588226951658725,0.0023210495710372
1749044159.1229928,-1.8133439579766424,-1.677024031422985,0.584949367144277,1.011985219912109,-0.26789155038819834,-4.374237464603169,1.44420461189287e-05,0.0005646566579530104,-0.0054728829047758065,-0.0009877271496396437,-4.67949214523112e-05,0.0036996641359074286,-0.1054886803030967,-0.3266628086566925,-0.6144716739654541,0.1416075974702835,-0.0547733642160892,0.0296462774276733
1749044159.1230302,-1.8133451355930028,-1.6770225038063267,0.5849360387956953,1.0119810657266533,-0.26789032669085416,-4.374227544110521,5.2129094717290186e-05,0.0014414237146111932,-0.006954299179775788,-0.0016809539792085537,0.0005113925704624447,0.00508399190567162,-0.0803927481174469,-0.3024650514125824,-0.6085234880447388,0.1154769659042358,-0.0426268316805362,0.0154553949832916
1749044159.1230674,-1.8133462391850976,-1.677019139478971,0.5849197052166877,1.0119752617294209,-0.2678874763003727,-4.374214921678636,0.00012429990675297937,0.002456852601154554,-0.008542868115557486,-0.002505078936122884,0.0012619723969684255,0.006603664541156622,-0.0886666774749755,-0.2856960892677307,-0.623408854007721,0.1190564185380935,-0.0154152996838092,0.032721996307373
1749044159.123176,-1.813347038280319,-1.677013755506132,0.5849002141448323,1.0119676308172558,-0.26788273216111014,-4.374199546016899,0.00023560901730083856,0.0035985400681019155,-0.010193073678180488,-0.003448293475536779,0.0022032014539734002,0.008210722691247816,-0.0753406882286071,-0.2715568840503692,-0.6340128779411316,0.0511206090450286,0.0297518707811832,0.0526650696992874
1749044159.1245267,-1.8133473124868034,-1.6770061994285692,0.5848774767679978,1.011958052710481,-0.2678758525605189,-4.3741814345593575,0.0003891133193079642,0.00484749269263125,-0.011858022450624606,-0.004493512478621234,0.003320771400690518,0.009852542803525105,-0.0827315375208854,-0.2083390653133392,-0.6408801674842834,0.0462425984442234,0.0500167086720466,0.0892455279827117
1749044159.1662946,-1.8133468693488355,-1.6769963545370665,0.5848514672660158,1.0119464699743195,-0.2678666387448198,-4.374160657906611,0.000585872830311311,0.00617887677411111,-0.013493290381813829,-0.0056201897938094455,0.004587758475484636,0.011476784867164462,-0.0827315375208854,-0.2083390653133392,-0.6408801674842834,0.0462425984442234,0.0500167086720466,0.0892455279827117
1749044159.1663406,-1.813345558979919,-1.6769841440351796,0.5848222210303174,1.0119328868524171,-0.2678549525271839,-4.37413732266512,0.0008247141049962214,0.007563310297735035,-0.015060505129413718,-0.006806611913779005,0.005965897155362785,0.0130364697383375,-0.0505971014499664,-0.1588741540908813,-0.6485100388526917,0.021265123039484,0.0456943400204181,0.0738246291875839
1749044159.1663914,-1.8133432840220305,-1.6769695333444359,0.5847898320676471,1.0119173601173483,-0.26784073129080294,-4.374111555527802,0.0011022108620703022,0.008968623925407319,-0.01653029477188604,-0.008032400669066493,0.007408187278255866,0.014494568848586832,-0.0505971014499664,-0.1588741540908813,-0.6485100388526917,0.021265123039484,0.0456943400204181,0.0738246291875839
1749044159.1664443,-1.813340004126943,-1.6769525303611186,0.5847544489538491,1.0118999825699264,-0.26782399752183444,-4.374083489965518,0.0014129093156368747,0.010361999545848358,-0.017884310364855886,-0.009280930825493743,0.008862661821696337,0.015827555629721567,-0.0558160431683063,-0.1398726105690002,-0.6347141265869141,0.0050140246748924,0.0888153314590454,0.0574637055397033
1749044159.1664858,-1.8133357348581192,-1.676933183758912,0.5847162679634088,1.0118808612178454,-0.2678048602307459,-4.374053255426337,0.001749784157500487,0.011712351367256749,-0.019116142276740394,-0.010541363310761963,0.010276978389177587,0.017027497058160403,-0.0569732263684272,-0.1196802705526351,-0.6065250039100647,0.0211149752140045,0.1209612637758255,0.0554575324058532
1749044159.1665242,-1.8133305414074712,-1.6769115792092608,0.5846755221913985,1.0118600930195631,-0.26778350646457566,-4.374020968137051,0.0021048653743407264,0.012992742720422806,-0.02023108919454868,-0.011810004381718387,0.011603373556430195,0.018102453378212188,-0.0569732263684272,-0.1196802705526351,-0.6065250039100647,0.0211149752140045,0.1209612637758255,0.0554575324058532
1749044159.1665618,-1.813324527870225,-1.6768878330265102,0.5846324663849406,1.0118377412636776,-0.267760182575732,-4.373986722657919,0.002469944585747097,0.014182562056768332,-0.021244886951705504,-0.013090747709990547,0.012803435777091912,0.0190751917264209,-0.0221652761101722,-0.1079553291201591,-0.6231974959373474,0.0085169598460197,0.1057587042450904,0.0948718190193176
1749044159.1665995,-1.8133178232221443,-1.6768620828165268,0.5845873581780539,1.011813815265631,-0.2677351666527018,-4.373950583927608,0.002837266051278175,0.015269156495626386,-0.02218163582561956,-0.01439446614510817,0.013852114182316733,0.019980463454964202,-0.0221652761101722,-0.1079553291201591,-0.6231974959373474,0.0085169598460197,0.1057587042450904,0.0948718190193176
1749044159.166638,-1.8133105656274924,-1.6768344754162021,0.5845404370611978,1.0117882552494206,-0.26770873504433096,-4.373912580052557,0.0032001275491013005,0.01624866963339492,-0.023071251229263873,-0.015737387772736425,0.014740413806207551,0.020861287312812116,-0.0290379337966442,-0.115742027759552,-0.6166220903396606,0.0039341449737548,0.112292893230915,0.091919332742691
1749044159.166676,-1.8133028870527916,-1.6768051534223336,0.5844919027268881,1.0117609232792604,-0.2676811270314216,-4.373872696113332,0.003553341516698852,0.017125950929686818,-0.02394678243127568,-0.017138673855130838,0.01547636133236491,0.021764774645436812,-0.0284649208188056,-0.0806838572025299,-0.6176181435585022,-0.0420882701873779,0.0971466451883316,0.124525099992752
1749044159.1667142,-1.8132949001101315,-1.6767742423964787,0.5844418946297565,1.011731600279595,-0.26765251246897237,-4.373830868907168,0.003893522788079661,0.017913564696221646,-0.02484189470336745,-0.018617560763215073,0.016084056160256276,0.022738015788700543,-0.0284649208188056,-0.0806838572025299,-0.6176181435585022,-0.0420882701873779,0.0971466451883316,0.124525099992752
1749044159.1667514,-1.8132866885674745,-1.6767418409921246,0.584390474808513,1.0116999888686606,-0.26762296739524927,-4.373786982438692,0.004219179179949724,0.01863007790892342,-0.025788714711703544,-0.020190496777060467,0.01660090355439814,0.02382444214114845,-0.0260826461017131,-0.0471634790301322,-0.6229612827301025,-0.0662558525800705,0.114928662776947,0.1184005439281463
1749044159.166789,-1.8132783022297763,-1.676708015572155,0.5843376161152114,1.0116657219539797,-0.2675924616101946,-4.373740864563541,0.0045306004131002294,0.019297905081172708,-0.02681613363109238,-0.021868684668865535,0.01707339522549115,0.02506092902900577,-0.030899778008461,-0.0571278110146522,-0.625243067741394,-0.0612414181232452,0.1254127323627472,0.1503743231296539
1749044159.1668303,-1.8132697561036504,-1.6766727994929478,0.5842831976690126,1.0116283773583905,-0.2675608599595764,-4.3736922861177545,0.004829575621370245,0.01994102068827462,-0.027948577375950544,-0.02365634517426277,0.017552004027898926,0.026475756031821344,-0.030899778008461,-0.0571278110146522,-0.625243067741394,-0.0612414181232452,0.1254127323627472,0.1503743231296539
1749044159.166869,-1.8132610330669499,-1.6766361957458324,0.5842270083985774,1.0115874985185742,-0.26752793635632655,-4.3736409641485015,0.005119004962365677,0.020582827054260313,-0.029205200641305135,-0.025549879069040382,0.018085861359070993,0.028087428684103175,0.0188982263207435,0.0126708727329969,-0.6358740329742432,-0.0857392847537994,0.1652856320142746,0.1613821387290954
1749044159.166907,-1.8132520889343011,-1.6765981809155706,0.5841687582055989,1.011542620271801,-0.26749339754494744,-4.373586569943163,0.005402484949855728,0.021244407802276537,-0.03059943799040063,-0.02753796340899402,0.01871787959279114,0.029904297845696655,0.0188982263207435,0.0126708727329969,-0.6358740329742432,-0.0857392847537994,0.1652856320142746,0.1613821387290954
1749044159.1669445,-1.8132428589681477,-1.676558708801672,0.5841080950971805,1.0114932974020805,-0.2674569127414432,-4.373528740957731,0.005683933505384603,0.021943317526984404,-0.03213884132143091,-0.029602492994468342,0.019480881181273668,0.031924872664045846,0.0127457156777381,-0.0212787352502346,-0.6360526084899902,-0.0942358821630477,0.1662170588970184,0.1639806777238845
1749044159.1669817,-1.813233265206411,-1.6765177130573006,0.5840446258923573,1.0114391327669552,-0.2674181453012978,-4.373467094514257,0.005967289628832705,0.022692965505716554,-0.033825140378088196,-0.03172018145764334,0.020395126180123294,0.034138686260869106,-0.0037207789719104,0.0024153888225555,-0.6392953395843506,-0.1027529388666153,0.1793279498815536,0.1567274034023285
1749044159.167019,-1.8132232240916257,-1.6764751090386343,0.5839779378616493,1.0113798018748195,-0.2673767830370025,-4.373401240898034,0.006256288730160324,0.023502555324455405,-0.03565447700921653,-0.033864574305402725,0.021467418018144547,0.03652753516756402,-0.0037207789719104,0.0024153888225555,-0.6392953395843506,-0.1027529388666153,0.1793279498815536,0.1567274034023285
1749044159.1670566,-1.8132126538963382,-1.676430795367373,0.5839076190029376,1.011315071474508,-0.2673325643872454,-4.3733307942029045,0.006554290344854972,0.024377459734559927,-0.03761778244520543,-0.036008205232048236,0.022691746494851964,0.039066893666075436,0.0144973210990428,0.0209946408867836,-0.6437639594078064,-0.0952978283166885,0.1669815182685852,0.1816673576831817
1749044159.1672597,-1.8132014815653499,-1.6763846556243833,0.5838332755659537,1.0112448105973844,-0.2672852981059418,-4.373255380579296,0.006864127722200538,0.025319857791137566,-0.03970128673920226,-0.03812464993095618,0.02405123590346675,0.0417273281510088,0.0329874791204929,-0.0038276016712188,-0.6390160918235779,-0.1197246834635734,0.1899825632572174,0.1784482598304748
1749044159.1684728,-1.8131896486728518,-1.6763365604255507,0.5837545465465257,1.0111689933968755,-0.2672348745289672,-4.373174644986667,0.0071879563939093805,0.026329447530019243,-0.04188716274871095,-0.040190289929119306,0.025521032520266402,0.044475805928470946,0.0329874791204929,-0.0038276016712188,-0.6390160918235779,-0.1197246834635734,0.1899825632572174,0.1784482598304748
1749044159.210322,-1.8131771159920451,-1.6762863701144506,0.5836711156738272,1.011087694043545,-0.26718126704679923,-4.373088258548897,0.007527091859010757,0.027404074024869166,-0.04415430739282315,-0.042185673242639714,0.027071699530363817,0.0472768780113364,0.0155294723808765,0.0410833582282066,-0.6547808647155762,-0.1270109415054321,0.2209830433130264,0.1982158720493316
1749044159.2103703,-1.8131638658861888,-1.6762339384076241,0.5835827215899282,1.0110010746534872,-0.26712452323127844,-4.3729959285673745,0.007881840568800506,0.028540179203542498,-0.04647925627456775,-0.044096430604780204,0.02867269007665557,0.05009378194487185,0.0155294723808765,0.0410833582282066,-0.6547808647155762,-0.1270109415054321,0.2209830433130264,0.1982158720493316
1749044159.2104163,-1.8131499017345345,-1.6761791172788907,0.5834891665188516,1.0109093676261252,-0.26706474604530345,-4.372897412151976,0.008251344844049921,0.029733069132419625,-0.04883722346807768,-0.045913764488869975,0.0302955299024618,0.05288954203982349,0.0578008517622947,0.0677482485771179,-0.6339865922927856,-0.1591596752405166,0.2241684943437576,0.1993834972381591
1749044159.2104683,-1.8131352439949007,-1.6761217629663399,0.5833903230995089,1.0108128541201973,-0.2670020668766514,-4.372792533032931,0.008633476204508524,0.03097706505698616,-0.051203253886919896,-0.047634565905274845,0.031916430955069706,0.05562814025808781,0.0387576669454574,0.0730180665850639,-0.6611483693122864,-0.160580039024353,0.2300644665956497,0.2043064832687378
1749044159.210516,-1.8131199231380124,-1.6760617423984026,0.5832861386614391,1.0107118410165754,-0.26693661395716056,-4.372681200219556,0.009024812213772188,0.032265621263060235,-0.05355346153807328,-0.049261224651395194,0.03351814715294344,0.058275796684139604,0.0387576669454574,0.0730180665850639,-0.6611483693122864,-0.160580039024353,0.2300644665956497,0.2043064832687378
1749044159.2105556,-1.8131039705037113,-1.6759989390193952,0.5831766363204454,1.0106066393183546,-0.26686848148041264,-4.372563426787094,0.009420718568347029,0.03359146386562353,-0.05586629896195294,-0.05080117926707744,0.03509096594757415,0.06080234700584715,0.1042883098125457,0.0671102553606033,-0.6372129917144775,-0.1527693271636963,0.2334059327840805,0.1818957328796386
1749044159.2105975,-1.8130874090091176,-1.6759332571896604,0.5830619127214643,1.0104975467628463,-0.26679770521935753,-4.372439346500015,0.009815542843928635,0.034946770721133585,-0.05812376549297022,-0.05226621365280088,0.03663281100753947,0.06318266100624552,0.1042883098125457,0.0671102553606033,-0.6372129917144775,-0.1527693271636963,0.2334059327840805,0.1818957328796386
1749044159.2106376,-1.8130702461180699,-1.675864624783411,0.5829421326065838,1.01038483616925,-0.266724249037744,-4.372309224908205,0.010202917058535323,0.03632340110036111,-0.0603124303549553,-0.0536714794425418,0.0381485123678819,0.06539803089223598,0.0734462291002273,0.1002448350191116,-0.6367237567901611,-0.1229110062122345,0.2452593147754669,0.1760560572147369
1749044159.2106764,-1.8130524709906297,-1.675792993927728,0.582817520347465,1.0102687493955416,-0.26664800401703914,-4.372173460781713,0.010576157355085637,0.03771318473768078,-0.06242414597719604,-0.0550342448845852,0.039648372453358234,0.06743746299730143,0.0770428329706192,0.0948375165462493,-0.6537617444992065,-0.1625397354364395,0.2443772107362747,0.1867294609546661
1749044159.210715,-1.8130340563019605,-1.6757183399871336,0.5826883483606908,1.0101494956915817,-0.26656879922979493,-4.372032574377687,0.010928734629520811,0.0391082693161964,-0.06445636636000669,-0.05637245084350919,0.04114621401228234,0.06929880153305194,0.0770428329706192,0.0948375165462493,-0.6537617444992065,-0.1625397354364395,0.2443772107362747,0.1867294609546661
1749044159.2107537,-1.8130149636974926,-1.6756406590526027,0.5825549223111757,1.0100272529753083,-0.2664864213075716,-4.3718871811360245,0.011254774422891786,0.04050149898062512,-0.0664120421858496,-0.05770324958695908,0.0426571376859704,0.07098957995242126,0.0963571816682815,0.1299677193164825,-0.637791097164154,-0.1791243851184845,0.2915470898151397,0.2157587260007858
1749044159.2107916,-1.8129951511307987,-1.6755599643136625,0.5824175633240071,1.0099021707317382,-0.26640063907134365,-4.371737952052525,0.011549533437077363,0.04188677186156613,-0.0682991092957517,-0.05904174338273609,0.04419523687524061,0.07252744467453252,0.1073104441165924,0.1045990586280822,-0.629817545413971,-0.178467109799385,0.2893652021884918,0.1825798898935318
1749044159.2108293,-1.8129745804947093,-1.6754762817478723,0.582276588025351,1.0097743735824216,-0.2663112295679224,-4.371585564332964,0.011809793878033896,0.04325931797293839,-0.07012961200245424,-0.06040008908048383,0.0457715067817837,0.0739399577617907,0.1073104441165924,0.1045990586280822,-0.629817545413971,-0.178467109799385,0.2893652021884918,0.1825798898935318
1749044159.210867,-1.8129532244278017,-1.6753896456258155,0.5821322879413477,1.009643965009705,-0.2662180025859242,-4.371430647534487,0.012034119309853075,0.044615853279644097,-0.07191851901645317,-0.061787017170854705,0.04739214538115376,0.07526359260073698,0.1322484016418457,0.1217524856328964,-0.6231045722961426,-0.1610103845596313,0.2988759577274322,0.1820801943540573
1749044159.2109044,-1.812931071558295,-1.6753000943029845,0.5819849101833201,1.0095110309396562,-0.26612082145410104,-4.371273730967553,0.012222933636332249,0.0459545971320103,-0.07368231239446238,-0.06320769628388054,0.049057393012803874,0.07654181019129672,0.0905936881899833,0.1369046866893768,-0.6307848691940308,-0.1605335474014282,0.2971568703651428,0.1831762492656707
1749044159.210942,-1.8129081297851548,-1.675207666606618,0.5818346412908226,1.0093756428211687,-0.2660196182913666,-4.371115197884278,0.012378415135643568,0.04727517610697494,-0.07543746063891224,-0.06466381188129353,0.05076100628220493,0.07782223305632552,0.0905936881899833,0.1369046866893768,-0.6307848691940308,-0.1605335474014282,0.2971568703651428,0.1831762492656707
1749044159.2109804,-1.8128844275025326,-1.6751123990625125,0.5816815958297117,1.0092378598505822,-0.26591440221912954,-4.370955251382428,0.012504228227461521,0.048578458141533276,-0.07719891266229617,-0.06615373837639646,0.052490410957360734,0.07915307838316558,0.1087246984243393,0.1447814702987671,-0.6330992579460144,-0.1660146564245224,0.3251957893371582,0.1703166365623474
1749044159.2110183,-1.8128600127531715,-1.6750143242394446,0.5815258107589608,1.0090977300799675,-0.2658052597411631,-4.370793895803275,0.012605139435064328,0.04986635871943368,-0.07897875918049778,-0.06767275484364238,0.054227526984276325,0.08057913271284285,0.1087246984243393,0.1447814702987671,-0.6330992579460144,-0.1660146564245224,0.3251957893371582,0.1703166365623474
1749044159.2110555,-1.8128349502165135,-1.67491347028018,0.5813672454671899,1.0089552899553806,-0.265692347470807,-4.3706309353651465,0.012686579633627206,0.05114164585233202,-0.08078520420337526,-0.06921334644427728,0.05595020738439658,0.08213763653479245,0.1126758158206939,0.1554529666900634,-0.6558337211608887,-0.1857117563486099,0.3401601314544678,0.1780007779598236
1749044159.2110932,-1.8128093161484429,-1.674809861307808,0.5812057863289852,1.0088105616357612,-0.2655758784637297,-4.370465989649062,0.012754218777743614,0.05240775379550937,-0.08262197369053637,-0.0707656865440592,0.05763417540015022,0.08385450685874779,0.1202396899461746,0.1489215195178985,-0.6585962176322937,-0.1691581308841705,0.3329541385173797,0.2083072364330291
1749044159.2112072,-1.8127831921257476,-1.6747035184092522,0.5810412546972896,1.0086635481114008,-0.2654561045564377,-4.3702985246583,0.01281360689599231,0.05366859941997632,-0.08448825011287095,-0.07231836943779317,0.05925527627669889,0.08574135691805758,0.1202396899461746,0.1489215195178985,-0.6585962176322937,-0.1691581308841705,0.3329541385173797,0.2083072364330291
1749044159.2124867,-1.8127566593006093,-1.6745944614935129,0.5808734185399133,1.0085142278155552,-0.26533329808349104,-4.370127898497816,0.012869909556678796,0.054928382538926075,-0.0863791469632458,-0.07385938083508295,0.06079179756471171,0.08779374577932414,0.1173645853996276,0.1462380588054657,-0.6399319767951965,-0.1606807261705398,0.3285785913467407,0.2119966596364975
1749044159.2542832,-1.812729795137785,-1.674482712863403,0.5807020091913814,1.0083625519167907,-0.2652077365897768,-4.3699534206082555,0.01292774072587942,0.05619134947622759,-0.0882866359878175,-0.07537721057870475,0.06222658761664743,0.08999097396026187,0.1142550408840179,0.1728067398071289,-0.6471285820007324,-0.1590100824832916,0.3214143812656402,0.1972414404153823
1749044159.2543309,-1.8127026738868244,-1.6743683029522691,0.5805267444046305,1.0082084473357331,-0.2650796931896753,-4.369774421450717,0.012991081769405662,0.05746151234814921,-0.09020075313648415,-0.07686197311871962,0.06354873655056782,0.09229754542215314,0.1142550408840179,0.1728067398071289,-0.6471285820007324,-0.1590100824832916,0.3214143812656402,0.1972414404153823
1749044159.2543828,-1.8126753704533451,-1.674251277122741,0.580347356498384,1.008051826306632,-0.26494943297449014,-4.36959032580455,0.013063269873516107,0.05874234121852476,-0.09211088271352068,-0.0783064139996421,0.0647546667597842,0.0946662090514711,0.1066273152828216,0.1951805204153061,-0.6418604254722595,-0.1635250896215438,0.3153029680252075,0.2336040288209915
1749044159.2544394,-1.8126479655067749,-1.674131700589403,0.5801636209831484,1.0078925999718582,-0.26481721289586,-4.369400719272769,0.013147034329219378,0.06003647059842907,-0.09400696293281846,-0.07970672618653576,0.06584857819919467,0.09704233611892417,0.1345066726207733,0.1426010876893997,-0.6277793645858765,-0.1628869771957397,0.3255665898323059,0.2496143281459808
1749044159.2544856,-1.8126205485870799,-1.6740096580435821,0.5799753790952847,1.007730691085857,-0.2646832803576655,-4.3692053965724105,0.013244554755096906,0.06134547006982987,-0.09588053036745385,-0.08106314461568052,0.06684227225077076,0.09936927560841477,0.1471189558506012,0.1964995712041854,-0.6389829516410828,-0.1531571596860885,0.3263292908668518,0.2368735074996948
1749044159.254526,-1.8125932164600216,-1.6738852463286278,0.5797825491374222,1.0075660411527283,-0.26454786602469665,-4.369004382995411,0.013357517446193226,0.06266971321112809,-0.09772557128932058,-0.08238029821446911,0.06775441818129285,0.10159420508108015,0.1018856316804885,0.1838037073612213,-0.6509233713150024,-0.1482757478952407,0.328291118144989,0.2072905004024505
1749044159.2545652,-1.8125660659221683,-1.6737585615952784,0.5795851257024383,1.0073986100613497,-0.26441116930241365,-4.368797926064213,0.013487155193473157,0.06400834680344655,-0.09953915322157472,-0.0836672702076172,0.06860933502237271,0.10367385278911126,0.1018856316804885,0.1838037073612213,-0.6509233713150024,-0.1482757478952407,0.328291118144989,0.2072905004024505
1749044159.254604,-1.8125391825337804,-1.6736296847451182,0.5793831699003221,1.0072283695597903,-0.2642733387881218,-4.368586460363547,0.013634265256499635,0.06535933254006991,-0.10132178910823242,-0.08493728857558638,0.06943536413579961,0.10557937119010706,0.1021851897239685,0.2121885418891906,-0.6191024780273438,-0.177264779806137,0.3268005847930908,0.1854864060878753
1749044159.254642,-1.8125126280501695,-1.6734986692737774,0.5791767952944605,1.007055293784476,-0.264134452477939,-4.368370552679094,0.013799204673374957,0.06671952949491808,-0.10307747227473932,-0.08620699695197785,0.07026292568789637,0.10729967097040857,0.1021851897239685,0.2121885418891906,-0.6191024780273438,-0.177264779806137,0.3268005847930908,0.1854864060878753
1749044159.25468,-1.8124864292501381,-1.6733655340111018,0.578966153217221,1.0068793499859752,-0.26399450264002094,-4.368150836215896,0.01398186473716398,0.06808481642605539,-0.10481333759252241,-0.08749535059942133,0.0711223865824142,0.10884270352450096,0.1551407575607299,0.1886992007493972,-0.6484532952308655,-0.1823533922433853,0.3374841809272766,0.1775065064430236
1749044159.254718,-1.8124605700977257,-1.6732302610704861,0.5787514189529473,1.0067004913625128,-0.2638533886855728,-4.367927942334894,0.014181633279425452,0.06945029424013703,-0.10653895788530192,-0.08882227314032541,0.07204189802455381,0.1102344708537047,0.1635285019874572,0.2400039881467819,-0.6538069844245911,-0.1623840183019638,0.356018453836441,0.1942628473043441
1749044159.254755,-1.8124349885725384,-1.6730927979876655,0.5785327786529262,1.0065186526814227,-0.26371091937787655,-4.367702436996616,0.014397363649906379,0.0708106222533018,-0.10826535228590042,-0.09020722595165132,0.07304536586904571,0.11151587571949301,0.1635285019874572,0.2400039881467819,-0.6538069844245911,-0.1623840183019638,0.356018453836441,0.1942628473043441
1749044159.254792,-1.8124095791865167,-1.6729530629037386,0.5783104164410998,1.0063337486745922,-0.2635668240407012,-4.367474767675935,0.014627375046003945,0.07216051393444532,-0.11000382861903552,-0.09166779640542552,0.07415069341397297,0.11273783269464355,0.1530435979366302,0.2024655938148498,-0.6439274549484253,-0.1831249892711639,0.3269303441047668,0.1753952205181121
1749044159.25483,-1.8123842015187135,-1.672810951996709,0.5780845014922414,1.0061456749017237,-0.26342077111446466,-4.3672452250835745,0.014869505477358397,0.07349536310739967,-0.11176478786115422,-0.09321837362890957,0.07536840328715518,0.1139552939570676,0.1405388414859771,0.1991952657699585,-0.6546955704689026,-0.1992665082216262,0.3452126979827881,0.2114088088274002
1749044159.2548673,-1.8123586936202492,-1.6726663485531852,0.5778551754624198,1.0059543108633884,-0.26327239165038735,-4.3670139228212435,0.015121228983192264,0.07481191209481802,-0.11355660030798392,-0.09486898384017119,0.07670072372657077,0.11522097792703659,0.1405388414859771,0.1991952657699585,-0.6546955704689026,-0.1992665082216262,0.3452126979827881,0.2114088088274002
1749044159.2549045,-1.8123328875326572,-1.6725191330784122,0.5776225414695533,1.005759525607594,-0.2631213054122613,-4.366780797093354,0.01537983639630147,0.07610883630891535,-0.11538464475259508,-0.096624371277933,0.078141215567868,0.11657961185321064,0.1684975028038025,0.2269405573606491,-0.6471018195152283,-0.2023971825838089,0.3660740554332733,0.2151048928499221
1749044159.2549412,-1.8123066235679552,-1.6723691936234317,0.5773866563081461,1.0055611861741074,-0.26296714773401814,-4.366545626727321,0.01564266555699281,0.07738713073450805,-0.11725059334451636,-0.09848340128120857,0.07967499941054736,0.11806340678384704,0.1684975028038025,0.2269405573606491,-0.6471018195152283,-0.2023971825838089,0.3660740554332733,0.2151048928499221
1749044159.254979,-1.8122797607548766,-1.6722164349016688,0.5771475269637997,1.0053591682848866,-0.2628095954136108,-4.3663080702390955,0.015907354834133074,0.07865023242544936,-0.11915201833010797,-0.10043883253076383,0.08127960221160992,0.11968929274062681,0.1665034145116806,0.1720986813306808,-0.6972933411598206,-0.2090148031711578,0.3725610971450805,0.2092036306858062
1749044159.2550156,-1.8122521823110054,-1.672060784188017,0.5769051111367655,1.0051533674458353,-0.26264838978724026,-4.366067712987277,0.01617208524710736,0.07990385176477081,-0.1210823797166355,-0.10247747456917322,0.08292638972380593,0.12145819327403393,0.1492230743169784,0.2187318652868271,-0.6867119073867798,-0.1846466809511184,0.3919856250286102,0.2464944422245025
1749044159.2550538,-1.8122237964203933,-1.6719021923712862,0.5766593208175907,1.0049437084958408,-0.26248335536203754,-4.365824116136377,0.016435771056968255,0.08115548917687848,-0.12303141829823444,-0.10458072045861819,0.08458250997370664,0.123356346798489,0.1492230743169784,0.2187318652868271,-0.6867119073867798,-0.1846466809511184,0.3919856250286102,0.2464944422245025
1749044159.2551627,-1.8121945336648477,-1.6717406301828983,0.5764100286618458,1.0047301527957602,-0.2623144130606316,-4.365576860850541,0.016698157548667228,0.08241361919145142,-0.12498593212192038,-0.10672542323673513,0.08621324847268505,0.12535840691757957,0.1724462211132049,0.2203809171915054,-0.6810574531555176,-0.2117329388856887,0.3690080046653747,0.2449626922607422
1749044159.2565012,-1.8121643429790901,-1.6715760815319665,0.5761570778308028,1.0045127033299246,-0.2621415876491341,-4.365325583934165,0.016959793987138882,0.08368657581195194,-0.12693087209162712,-0.10888507627618478,0.0877846667422249,0.1274318043530864,0.1724462211132049,0.2203809171915054,-0.6810574531555176,-0.2117329388856887,0.3690080046653747,0.2449626922607422
1749044159.2983377,-1.8121331877949716,-1.6714085365930682,0.5759002955299609,1.004291407912254,-0.26196500887643914,-4.365070002858493,0.017221874112807373,0.0849812638267385,-0.12885066465796247,-0.11103126353755306,0.08926634504542158,0.12954167662089655,0.1230185329914093,0.2177640944719314,-0.6635373830795288,-0.1956009864807129,0.3553976714611053,0.2250978797674179
1749044159.298411,-1.812101043279481,-1.6712379865035423,0.5756395088213682,1.0040663599738437,-0.26178490548774186,-4.364809928629907,0.017485970672198523,0.08630189945885564,-0.1307306499064676,-0.11313534768645353,0.09063399210071618,0.1316556066421595,0.1834247708320617,0.2417096197605133,-0.6544699668884277,-0.1968322694301605,0.3728827834129333,0.2104794830083847
1749044159.298457,-1.8120678947754378,-1.6710644202561296,0.5753745600699552,1.0038376962302336,-0.26160159115655857,-4.3645452657514365,0.017753720591895027,0.08764901047281341,-0.13255849967488334,-0.11517034024359367,0.09187164942545963,0.1337474655877867,0.1834247708320617,0.2417096197605133,-0.6544699668884277,-0.1968322694301605,0.3728827834129333,0.2104794830083847
1749044159.2984962,-1.8120337371228497,-1.6708878236523517,0.5751053196666507,1.003605590989947,-0.26141544189528004,-4.364276000446757,0.01802652998247544,0.08901889437243983,-0.1343254571437316,-0.11711284963946599,0.09297322365635773,0.13579981696537038,0.1803083419799804,0.2368887066841125,-0.6714845895767212,-0.1978894621133804,0.3687635958194732,0.2107144296169281
1749044159.2985349,-1.8119985745077682,-1.6707081801119914,0.5748316949783361,1.003370247214515,-0.2612268657328823,-4.364002180610412,0.018305356823252968,0.0904036584544057,-0.13602723676134598,-0.11894494991241109,0.09394312815858606,0.13780459228785522,0.2114016413688659,0.2084343582391739,-0.6520112156867981,-0.1683907508850097,0.3346064388751983,0.2086580991744995
1749044159.2985733,-1.8119624206857152,-1.6705254734151413,0.5745536359913785,1.0031318846801576,-0.2610362673070221,-4.363723892676069,0.01859059925148038,0.09179186580495904,-0.13766445284290132,-0.12065576922689465,0.09479590131437904,0.13976206219211612,0.2114016413688659,0.2084343582391739,-0.6520112156867981,-0.1683907508850097,0.3346064388751983,0.2086580991744995
1749044159.2986114,-1.8119252995836266,-1.6703396928479028,0.5742711392783032,1.002890726314669,-0.2608440119585372,-4.363441241331376,0.018882085197092616,0.09316970735577156,-0.13924250392359286,-0.12224257847097092,0.09555479100094849,0.1416784451115884,0.2119428813457489,0.2022502720355987,-0.6645851135253906,-0.183300495147705,0.3632811307907104,0.2387828081846237
1749044159.29865,-1.8118872460831,-1.6701508411804602,0.5739842518578612,1.0026469845169936,-0.26065039477102603,-4.363154337014228,0.01917914046465561,0.09452253559180643,-0.1407709259079414,-0.12371119555536751,0.09624944798151965,0.14356275351375164,0.2119428813457489,0.2022502720355987,-0.6645851135253906,-0.183300495147705,0.3632811307907104,0.2387828081846237
1749044159.298696,-1.8118483063103665,-1.6699589448697219,0.5736930748013588,1.0024008489080594,-0.26045561902531883,-4.362863292957648,0.01948070880531892,0.09583654496490075,-0.14226233116327144,-0.1250756198191291,0.09691302310334114,0.14542361240380924,0.1953958719968795,0.1859941929578781,-0.6539679765701294,-0.1550347506999969,0.367888480424881,0.2317788898944854
1749044159.2987542,-1.8118085366804122,-1.6697640642424776,0.5733977642697697,1.0021524756992226,-0.26025978636552716,-4.3625682295987716,0.019785497998862103,0.09710036502384797,-0.1437311393325712,-0.12635693048859423,0.09757905051229472,0.14726674725983643,0.1934691667556762,0.1978622823953628,-0.6763365864753723,-0.166168600320816,0.3318778276443481,0.2534884810447693
1749044159.2988002,-1.8117680017224307,-1.6695663004133852,0.5730985269110765,1.0019019780902965,-0.26006289891771633,-4.362269281747392,0.020092123218724865,0.09830634177082011,-0.1451923389935487,-0.127581574940317,0.09827847960365128,0.14909363040564205,0.1934691667556762,0.1978622823953628,-0.6763365864753723,-0.166168600320816,0.3318778276443481,0.2534884810447693
1749044159.2988398,-1.8117267717201935,-1.669365796137048,0.5727956076735504,1.001649417468319,-0.25986487226212795,-4.361966603751783,0.02039921903557429,0.09945133153687916,-0.1466604817361653,-0.12877923034244823,0.09903712589832357,0.15090146752300226,0.201277807354927,0.2019357532262802,-0.6479832530021667,-0.1469731628894806,0.3465461134910583,0.2496738582849502
1749044159.2988782,-1.8116849212733117,-1.669162729422901,0.5724892701912364,1.0013947959971539,-0.25966555717013107,-4.361660368983319,0.020705503954146363,0.10053692452889504,-0.1481490126859206,-0.12998045282545498,0.0998737249456571,0.152684394204868,0.2090672999620437,0.1764276474714279,-0.6523672342300415,-0.1725212335586547,0.3705989420413971,0.2259259968996048
1749044159.2989163,-1.8116425287864564,-1.6689573008947567,0.5721797723684121,1.0011380519305202,-0.259464767157845,-4.361350761776374,0.02100980463424151,0.10156912374844851,-0.14966991584157258,-0.13121432011867962,0.10079873313827419,0.154435498899709,0.2090672999620437,0.1764276474714279,-0.6523672342300415,-0.1725212335586547,0.3705989420413971,0.2259259968996048
1749044159.298954,-1.8115996756501491,-1.6687497178927706,0.5718673421791244,1.0008790596701957,-0.2592623084139969,-4.361037962743693,0.02131106745881439,0.1025575830591535,-0.1512335505194955,-0.13250622680822396,0.10181399423404036,0.15614913104673098,0.2408099472522735,0.1824924051761627,-0.6549867987632751,-0.1769775301218032,0.3660342097282409,0.2146983444690704
1749044159.298993,-1.8115564435897584,-1.6685401792249175,0.5715521594247432,1.000617636665481,-0.2590580083323946,-4.360722131080536,0.02160839015332379,0.10351453779942656,-0.15284852283537892,-0.13387594070907513,0.10291333474168128,0.15782292599185668,0.2408099472522735,0.1824924051761627,-0.6549867987632751,-0.1769775301218032,0.3660342097282409,0.2146983444690704
1749044159.2990313,-1.8115129094438662,-1.6683288635835163,0.5712343469506993,1.0003535579158602,-0.2588517383180045,-4.360403388190436,0.02190109291032669,0.1044535657863588,-0.15452147702220742,-0.13533601199504722,0.10408405471008719,0.15945908850353005,0.2384217083454132,0.2285220474004745,-0.6599736213684082,-0.1717413961887359,0.3541572690010071,0.2035385072231292
1749044159.2990692,-1.8114691378125556,-1.6681159225504574,0.5709139709572068,1.0000865766366867,-0.25864342629161235,-4.36008180567786,0.022188824223495423,0.1053883221892138,-0.1562567682728777,-0.13689064731842895,0.10530915815522088,0.1610646822191155,0.2425379753112793,0.1937970966100692,-0.6787338256835938,-0.1870743185281753,0.3804015815258026,0.2188571691513061
1749044159.2991064,-1.8114251729432453,-1.6679014773308527,0.5705910475383917,0.9998164481817611,-0.2584330556009936,-4.359757399317082,0.02247167451388489,0.10633139048142536,-0.15805605018666677,-0.13853518715771526,0.10657004136446854,0.1626509093938114,0.2425379753112793,0.1937970966100692,-0.6787338256835938,-0.1870743185281753,0.3804015815258026,0.2188571691513061
1749044159.299144,-1.8113810316769299,-1.667685617772543,0.5702655527392873,0.9995429542768759,-0.2582206501111518,-4.35943013002895,0.022750261480726307,0.10729335670902383,-0.1599178554719135,-0.1402563190267284,0.10784926088291029,0.16423158531560503,0.2145880907773971,0.200534701347351,-0.6908526420593262,-0.1771374195814132,0.3788984715938568,0.2632841169834137
1749044159.299307,-1.81133669926595,-1.6674684023759911,0.5699374345923277,0.9992659249709013,-0.25800624872119615,-4.359099912101579,0.02302575520556292,0.1082821480423608,-0.1618372693757749,-0.14203311243445105,0.10913297345478438,0.16582118090056255,0.2145880907773971,0.200534701347351,-0.6908526420593262,-0.1771374195814132,0.3788984715938568,0.2632841169834137
1749044159.3005574,-1.8112921293534854,-1.6672498580415585,0.5696066256426567,0.9989852552876776,-0.25778987465585795,-4.35876662681418,0.023299821389059963,0.10930261739059134,-0.16380580127008793,-0.1438388843766026,0.1104126905511721,0.16743288404805684,0.2279492765665054,0.1800645887851715,-0.67476487159729,-0.2106364667415619,0.3574289679527282,0.2568063139915466
1749044159.342283,-1.811247248365911,-1.6670299783644527,0.5692730534930798,0.9987009128591128,-0.2575715050736597,-4.358430137393021,0.023574474813637,0.11035633363650825,-0.165811556191573,-0.14564379661975324,0.1116861001235007,0.169077073411274,0.2482607215642929,0.1883541196584701,-0.6827831268310547,-0.1791502982378006,0.3806478977203369,0.2508932054042816
1749044159.3423288,-1.8112019633560266,-1.6668087201166992,0.5689366467273467,0.9984129334814795,-0.25735104580012746,-4.358090301062713,0.023851853869872857,0.11144154702023373,-0.16783978885618986,-0.1474179461169965,0.11295684677343576,0.17076041540432532,0.2482607215642929,0.1883541196584701,-0.6827831268310547,-0.1791502982378006,0.3806478977203369,0.2508932054042816
1749044159.3423696,-1.8111561716142808,-1.666585999006662,0.5685973350254911,0.998121404139093,-0.2571283153528411,-4.3577469761561485,0.02413394791371147,0.11255332308444009,-0.169873874797837,-0.14913457362802413,0.11423330624922655,0.17248557196527653,0.2337653934955597,0.2129762917757034,-0.6763603687286377,-0.1698175221681594,0.3764258027076721,0.2520602345466614
1749044159.342416,-1.8111097704892765,-1.6663616865652247,0.5682550440659999,0.997826436106002,-0.2569030415669643,-4.357400024504827,0.02442232407172485,0.11368386644381652,-0.17189665223354472,-0.15077294958755635,0.11552652817432402,0.17425135043321108,0.2337653934955597,0.2129762917757034,-0.6763603687286377,-0.1698175221681594,0.3764258027076721,0.2520602345466614
1749044159.342466,-1.811062666411538,-1.6661356092913788,0.5679096864537779,0.9975281324551556,-0.25667487221315055,-4.35704930967128,0.024717902077510838,0.11482307657615065,-0.17389199280135628,-0.1523205354289609,0.11684764583061223,0.17605308868195016,0.2528660297393799,0.2078232318162918,-0.658736526966095,-0.1790434569120407,0.4018245339393616,0.2603005170822143
1749044159.3425145,-1.811014782411237,-1.6659075500311686,0.567561149884408,0.9972265546960272,-0.2564433984153224,-4.356694690970814,0.02502081318221098,0.115959368167523,-0.17584638603947686,-0.1537741352767999,0.11820515886634318,0.17788312775244733,0.2465621381998062,0.1884903758764267,-0.660707414150238,-0.1832960546016693,0.4101243317127228,0.2479062527418136
1749044159.3425546,-1.8109660633818296,-1.6656772516184946,0.5672092846611164,0.9969216938084559,-0.25620818788667915,-4.356336014107982,0.025330356435569936,0.11708073092537137,-0.17775029788894606,-0.15513989573715994,0.11960256366428457,0.1797313252566794,0.2465621381998062,0.1884903758764267,-0.660707414150238,-0.1832960546016693,0.4101243317127228,0.2479062527418136
1749044159.3425934,-1.8109164784782812,-1.6654444241778592,0.566853894724523,0.9966134521056611,-0.25596882465229825,-4.355973102031559,0.025645042861013316,0.11817591784314549,-0.17959908715164474,-0.1564321509815892,0.12103679431705058,0.18158565048241904,0.2688749432563782,0.1800926923751831,-0.6531586050987244,-0.1634977310895919,0.4093234837055206,0.2551019787788391
1749044159.342631,-1.810866020603946,-1.6652087584747666,0.5664947375879186,0.9963016424285466,-0.25572495207567275,-4.3556057518482465,0.02596270616746483,0.11923558860278045,-0.18139332343556414,-0.15767124091237125,0.12249781263812631,0.1834329430291481,0.2688749432563782,0.1800926923751831,-0.6531586050987244,-0.1634977310895919,0.4093234837055206,0.2551019787788391
1749044159.34267,-1.810814703631418,-1.6649699468326893,0.5661315371553616,0.9959860083461229,-0.2554763155708412,-4.355233742941542,0.026280660335057025,0.1202532367295499,-0.18313844111786715,-0.15888055295168996,0.12396946654216462,0.18525990489707148,0.2506724596023559,0.1852860301733017,-0.6728451251983643,-0.1645042300224304,0.4178141355514526,0.2871692180633545
1749044159.3427105,-1.8107625585014218,-1.6647277108580412,0.5657640098250403,0.9956662639858456,-0.25522280062534547,-4.354856858144522,0.026595891990616842,0.12122578965451997,-0.18484378256016729,-0.16008315076159274,0.1254314830022764,0.18705433818781858,0.2584540843963623,0.2268775999546051,-0.666267454624176,-0.1686313301324844,0.4039095640182495,0.2531622946262359
1749044159.3427482,-1.8107096295440182,-1.6644818330934914,0.5653919005242473,0.9953421473622177,-0.2549644617041788,-4.354474916057632,0.02690527940361902,0.1221538471419673,-0.1865212048337077,-0.16129844291107281,0.12686223709804897,0.1888065473139301,0.2584540843963623,0.2268775999546051,-0.666267454624176,-0.1686313301324844,0.4039095640182495,0.2531622946262359
1749044159.3427858,-1.8106559720733197,-1.6642321884124849,0.5650150223549741,0.9950134780866442,-0.25470153826968195,-4.35408780948193,0.027205827962063,0.12304157474277505,-0.18818350117313273,-0.1625393878833965,0.12824179129223312,0.1905107207682556,0.2292657494544983,0.2132257372140884,-0.6655130386352539,-0.2055442035198211,0.3904606103897095,0.2582646608352661
1749044159.3428233,-1.810601651364012,-1.6639787699304165,0.564633291090888,0.9946802086835865,-0.2544344545288902,-4.353695542042224,0.02749490900634013,0.12389628635808282,-0.189842890285948,-0.16381070704057185,0.129554667593894,0.19216603637570856,0.2523896694183349,0.1811940371990203,-0.6782859563827515,-0.2089450508356094,0.3825064599514007,0.2356933951377868
1749044159.3428595,-1.8105467419586574,-1.663721703657324,0.564246744843184,0.994342458445345,-0.2541637997487989,-4.3532982532027305,0.027770488917416437,0.12472775350795207,-0.19150976717638066,-0.16510846205463586,0.13079190742719754,0.1937772325687092,0.2604314386844635,0.1929190307855606,-0.6673389673233032,-0.2203506976366043,0.4007333219051361,0.2400183975696563
1749044159.3428972,-1.8104913257656958,-1.6634612475703696,0.5638555421874311,0.9940005214762736,-0.253890287896975,-4.352896223581157,0.028031336272403545,0.1255472940855677,-0.19319183130551076,-0.166421125904975,0.1319521493529782,0.19535446508406176,0.2789569795131683,0.2282557189464569,-0.7017488479614258,-0.1902060508728027,0.4144716262817383,0.2440948486328125
1749044159.342938,-1.8104354879866904,-1.6631977745902111,0.5634599389183133,0.993654846774125,-0.25361469972728323,-4.352489858194154,0.028277192389515773,0.12636673046271055,-0.19489364468013623,-0.1677319581547283,0.1330416509173059,0.19691240600052878,0.2789569795131683,0.2282557189464569,-0.7017488479614258,-0.1902060508728027,0.4144716262817383,0.2440948486328125
1749044159.3429768,-1.8103793109574817,-1.6629317429822292,0.5630602504188842,0.9933059950812229,-0.2533378150685583,-4.352079651512753,0.02850888524625484,0.1271973451697944,-0.19661662695920384,-0.16902218792898102,0.13407334781669958,0.19846870350568535,0.2847995460033417,0.2082564383745193,-0.6877632737159729,-0.1859631836414337,0.3793948292732239,0.2705911695957184
1749044159.343014,-1.810322866545146,-1.662663659571973,0.5626568091804167,0.9929545811087322,-0.2530603449326879,-4.351666141160893,0.02872836404442559,0.12804896415833983,-0.19835945470655963,-0.1702743443795271,0.13506515404657632,0.2000420575094538,0.2847995460033417,0.2082564383745193,-0.6877632737159729,-0.1859631836414337,0.3793948292732239,0.2705911695957184
1749044159.3430543,-1.8102662075694769,-1.6623940404684268,0.5622499247816293,0.9926012095757566,-0.25278287131333865,-4.351249856380316,0.028938635404941123,0.1289292547783566,-0.20011879213491499,-0.17147511635403898,0.13603776346690827,0.20165023583117048,0.2717460989952087,0.1916453391313552,-0.7049105763435364,-0.166608452796936,0.3739040493965149,0.2817524969577789
1749044159.3431618,-1.8102093585218642,-1.6621233721979722,0.5618398497706443,0.992246411553726,-0.2525057992228977,-4.350831265588603,0.029143591294454173,0.12984327275262025,-0.20189024293256513,-0.17261732349407355,0.13701224419456814,0.203308339390977,0.2867965698242187,0.2068271934986114,-0.6913952827453613,-0.1761077046394348,0.3875421285629272,0.2898110151290893
1749044159.3446083,-1.8101523063701,-1.6618520751926638,0.5614267530653779,0.9918905868093995,-0.25222932342263293,-4.350410727170544,0.029347730971711804,0.13079325879326795,-0.20366937747153377,-0.17370083606126482,0.1380077373215428,0.20502753481946562,0.2867965698242187,0.2068271934986114,-0.6913952827453613,-0.1761077046394348,0.3875421285629272,0.2898110151290893
1749044159.3862925,-1.8100949933097483,-1.6615804723073637,0.5610107036262512,0.9915339589004413,-0.2519534124124759,-4.349988449524097,0.029555792801179464,0.13177866522031398,-0.2054526626639956,-0.17473250034844387,0.13903955844381016,0.20681434992701628,0.2841618061065674,0.1490809321403503,-0.6781603693962097,-0.1792437732219696,0.3871480822563171,0.2769148051738739
1749044159.3863382,-1.8100373140940524,-1.6613087664585044,0.5605916688407315,0.9911765507141375,-0.2516778129913206,-4.34956446823731,0.029772324062093812,0.13279637758020724,-0.2072381220747593,-0.1757252676356664,0.14011792890800373,0.20867052094358354,0.288313090801239,0.2075784653425216,-0.6932141780853271,-0.1927574574947357,0.3746146559715271,0.2861593961715698
1749044159.3863797,-1.8099791202914575,-1.6610370316141374,0.5601695312190146,0.9908181865034172,-0.25140207772232315,-4.349138647353345,0.03000122626923897,0.13384110066611354,-0.20902559992394326,-0.17669678546201828,0.14124744627240282,0.2105933204713523,0.288313090801239,0.2075784653425216,-0.6932141780853271,-0.1927574574947357,0.3746146559715271,0.2861593961715698
1749044159.3864193,-1.8099202323471302,-1.660765219018818,0.5597441226828043,0.9904585215386412,-0.2511256139664371,-4.348710706773591,0.030245322659571548,0.13490591064532498,-0.2108165903443899,-0.17766770672703813,0.142427280967469,0.21257627814718294,0.299875795841217,0.1795285940170288,-0.6981537938117981,-0.1870858967304229,0.3927521705627441,0.2793799638748169
1749044159.3864577,-1.8098604583240694,-1.6604931765748385,0.5593152699783978,0.9900970941313937,-0.25084774820196076,-4.348280270722469,0.030506005199988893,0.1359830037673889,-0.21261369205435393,-0.17865992329565608,0.1436519878219468,0.2146101988824387,0.3183076381683349,0.2305472791194915,-0.6888172030448914,-0.1939039528369903,0.3796342611312866,0.2921573519706726
1749044159.3864958,-1.8097996167765464,-1.6602206764201712,0.5588828414315575,0.9897333905456188,-0.25056779613206376,-4.347846927079093,0.030783024344637703,0.13706465069152782,-0.21441981907784244,-0.17969485754405412,0.14491275045219618,0.21668435174467737,0.3183076381683349,0.2305472791194915,-0.6888172030448914,-0.1939039528369903,0.3796342611312866,0.2921573519706726
1749044159.3865335,-1.809737560841746,-1.6599474456600294,0.5584467862798428,0.9893669129240392,-0.2502851292343788,-4.347410286781742,0.031074474821790946,0.13814428347268615,-0.2162373231341106,-0.18079187593412535,0.1461988320602362,0.21878765070264505,0.2996557652950287,0.1928026974201202,-0.7121405005455017,-0.1904553771018982,0.3881008327007293,0.2799376845359802
1749044159.3865707,-1.809674200700983,-1.6596731964998945,0.5580071607776783,0.9889972417578095,-0.24999923045567982,-4.34697003435294,0.031377000311096644,0.13921753882745633,-0.21806717938743747,-0.18196685314892308,0.14749900004739627,0.22090961989950914,0.2996557652950287,0.1928026974201202,-0.7121405005455017,-0.1904553771018982,0.3881008327007293,0.2799376845359802
1749044159.3866072,-1.8096095213644445,-1.6593976524176999,0.5575641370708686,0.9886240850612531,-0.24970973348850134,-4.346525961899137,0.03168619569208044,0.14028301885248587,-0.21990837562635682,-0.18323093302773713,0.14880273760000814,0.22304096595564044,0.2958618700504303,0.1834197342395782,-0.7075482606887817,-0.2279160767793655,0.4093272089958191,0.2833327054977417
1749044159.3866448,-1.8095435925255052,-1.659120566667394,0.5571179919095146,0.98824730687169,-0.2494164414080966,-4.346077980325514,0.031997140865773786,0.14134255839931095,-0.2217576216332548,-0.18458959978139733,0.15010114153113055,0.22517366520706356,0.2709717154502868,0.2002903670072555,-0.6989861726760864,-0.2655349671840668,0.3936487734317779,0.2609601020812988
1749044159.386687,-1.8094765678216518,-1.6588417303433614,0.5566690752211776,0.9878669304010547,-0.2491193229025373,-4.345626105661432,0.03230496818135095,0.1424009056359865,-0.2236094440031373,-0.18604224739651942,0.1513874883836149,0.2273005861981185,0.2709717154502868,0.2002903670072555,-0.6989861726760864,-0.2655349671840668,0.3936487734317779,0.2609601020812988
1749044159.386726,-1.8094086725491143,-1.658560970305487,0.5562177639519005,0.9874831166897299,-0.2488184884489601,-4.345170425531425,0.03260535877113087,0.14346487182075982,-0.22545665577974436,-0.1875824401851243,0.15265748835368897,0.22941477648496078,0.337758719921112,0.1858057528734207,-0.6901646256446838,-0.2518931031227112,0.4039819240570068,0.2758372128009796
1749044159.386763,-1.8093401811711416,-1.6582781409085308,0.5557644116474737,0.9870961255606328,-0.24851415303339933,-4.344711057479188,0.03289488993970482,0.14454212608517802,-0.22729111793799883,-0.18919893787895783,0.15390924380361773,0.23150862617321807,0.3241460621356964,0.2235658466815948,-0.6849932670593262,-0.2547019422054291,0.4140141010284424,0.2881706655025482
1749044159.3867998,-1.8092713879383218,-1.6579931152738934,0.5553093055603331,0.9867062689406181,-0.2482065940617629,-4.344248112998015,0.033171206642346976,0.1456398777511675,-0.22910466580868666,-0.19087734766433886,0.15514292430189827,0.23357316119384824,0.3241460621356964,0.2235658466815948,-0.6849932670593262,-0.2547019422054291,0.4140141010284424,0.2881706655025482
1749044159.3868368,-1.8092025749502827,-1.657705780515035,0.554852639272778,0.9863138657962246,-0.2478961118375799,-4.343781677173108,0.03343303765036997,0.14676370218440277,-0.23089006303495715,-0.192602073780365,0.15636018260592682,0.23559770115465797,0.3239688873291015,0.2396890223026275,-0.6816349625587463,-0.2448146045207977,0.3898136019706726,0.2737424671649933
1749044159.3868742,-1.8091339818927534,-1.6574160376073082,0.5543945015146755,0.9859192039637155,-0.24758299631852007,-4.343311805584878,0.033680101420441574,0.1479167243306212,-0.23264186128381434,-0.19435815789107863,0.157563358491337,0.23757003768692644,0.3239688873291015,0.2396890223026275,-0.6816349625587463,-0.2448146045207977,0.3898136019706726,0.2737424671649933
1749044159.3869114,-1.8090657808318533,-1.6571238027857993,0.5539348749013945,0.9855225096626034,-0.24726750013712576,-4.342838531866837,0.03391294979699556,0.1490992821427466,-0.23435707319763616,-0.19613265458694046,0.15875454542139927,0.23947716970970562,0.322196751832962,0.2009683847427368,-0.6758233904838562,-0.1962797343730926,0.4190921485424042,0.2807399332523346
1749044159.386948,-1.8089980583634129,-1.6568290058155752,0.5534736356416546,0.9851239230673918,-0.24694981609731229,-4.342361875474203,0.03413278863058171,0.15030907539414812,-0.23603559340611094,-0.19791532806848344,0.15993462951619156,0.24130650174768978,0.3052681386470794,0.229077935218811,-0.6795028448104858,-0.2362487614154815,0.4040827453136444,0.2571598291397095
1749044159.3869853,-1.8089308064677665,-1.656531582184132,0.5530105484342922,0.9847234790256665,-0.24663005817744613,-4.341881841720689,0.03434129877057912,0.15154169797027098,-0.2376803193483068,-0.19969864904139548,0.16110243863491025,0.24304729652486387,0.3052681386470794,0.229077935218811,-0.6795028448104858,-0.2362487614154815,0.4040827453136444,0.2571598291397095
1749044159.387022,-1.8088639227629253,-1.656231460371648,0.5525452580954517,0.9843210949377195,-0.24630824776619037,-4.3413984133009835,0.034540463635553006,0.15279138214652313,-0.2392969372957179,-0.2014772711384463,0.16225414002428895,0.24469210315717368,0.295007586479187,0.2089762836694717,-0.6659019589424133,-0.280055820941925,0.3774977922439575,0.2879774272441864
1749044159.3871396,-1.8087972204604752,-1.6559285495559148,0.5520772867000814,0.9839165705581265,-0.24598430962066078,-4.340911539876931,0.034732394881439844,0.15405177078410154,-0.24089336390014607,-0.20324730519177972,0.16338299230972342,0.24623789162556584,0.3024952709674835,0.2745316624641418,-0.6886085271835327,-0.2780117988586426,0.3990158438682556,0.275653213262558
1749044159.38847,-1.808730447950281,-1.655622734886089,0.5516060478181118,0.9835096046836904,-0.24565808283119314,-4.340421135448383,0.034919139858277465,0.15531657924434153,-0.2424788755820492,-0.20500572236320597,0.16447951079459747,0.24768671850635815,0.3024952709674835,0.2745316624641418,-0.6886085271835327,-0.2780117988586426,0.3990158438682556,0.275653213262558
1749044159.430294,-1.8086633170632083,-1.655313885499469,0.5511308857789419,0.9830998305712383,-0.2453293497772197,-4.339927090541805,0.035102461506431856,0.1565800865084963,-0.24406300764162464,-0.20675009474812306,0.16553206437208007,0.24904588383045018,0.3051595091819763,0.230792611837387,-0.6756742000579834,-0.2838304042816162,0.3809542953968048,0.2697229087352752
1749044159.4303403,-1.8085955373685259,-1.6550018754305516,0.5506511392120501,0.982686866694158,-0.244997881087527,-4.339429299538349,0.0352836059731124,0.15783746042753735,-0.2456543453738982,-0.2084786824063247,0.16652788447363956,0.25032765207696356,0.3051595091819763,0.230792611837387,-0.6756742000579834,-0.2838304042816162,0.3809542953968048,0.2697229087352752
1749044159.430386,-1.808526851885337,-1.6546866120387285,0.5501662186530887,0.9822703746474967,-0.24466348905299456,-4.338927696573933,0.035463102170779394,0.15908494505080772,-0.24725935312317412,-0.2101906876790897,0.16745441543877185,0.25154865887719524,0.3029457628726959,0.2378803342580795,-0.668563723564148,-0.23824043571949,0.3911792039871216,0.2598028481006622
1749044159.4304364,-1.8084570685552102,-1.6543680635444404,0.549675682445878,0.9818501139500575,-0.24432607855057295,-4.338422289799671,0.03564064966416589,0.1603199242161967,-0.24888140195815253,-0.21188640305549486,0.16830087205643915,0.2527290959131768,0.3127465844154358,0.2371864467859268,-0.7051750421524048,-0.2343165874481201,0.3849777281284332,0.264453113079071
1749044159.4304798,-1.808386082577233,-1.654046278107608,0.5491792956744675,0.9814259848570981,-0.24398568504874985,-4.337913184696266,0.03581513713703408,0.16154085559900289,-0.2505201652703255,-0.21356702511329506,0.16905981330630368,0.2538916891376661,0.3127465844154358,0.2371864467859268,-0.7051750421524048,-0.2343165874481201,0.3849777281284332,0.264453113079071
1749044159.4305303,-1.8083138868280488,-1.6537213905226371,0.5486770619495931,0.9809980537535502,-0.24364249307524746,-4.337400591338772,0.03598480360165222,0.16274707010348685,-0.2521715340979526,-0.21523408502889976,0.1697285114686146,0.2550604321533606,0.3231974244117737,0.2175944000482559,-0.6809300184249878,-0.2877093553543091,0.3888221681118011,0.2606659531593323
1749044159.4305708,-1.8082405697558648,-1.6533936163006964,0.5481692237267769,0.9805665585353223,-0.24329683295150023,-4.336884814707235,0.03614752846694709,0.16393845884034086,-0.25382813776074054,-0.21688868214993726,0.17030990617534475,0.2562590677600511,0.3231974244117737,0.2175944000482559,-0.6809300184249878,-0.2877093553543091,0.3888221681118011,0.2606659531593323
1749044159.4306092,-1.808166301467145,-1.653063234550794,0.5476562306777348,0.9801318920313397,-0.24294915625977512,-4.336366228792181,0.036301222752951584,0.16511511079314775,-0.2554804431867279,-0.218530880272155,0.17081299028735739,0.25750941253581794,0.2995822727680206,0.1829013526439666,-0.6953492164611816,-0.2870356440544128,0.3652282357215881,0.2605301141738891
1749044159.4306474,-1.8080913095737423,-1.6527305610114305,0.5471386782644846,0.9796945617018986,-0.24259999172309576,-4.335845235505399,0.036444281132042844,0.1662769983117966,-0.2571182740047268,-0.2201596246471373,0.17125256996638005,0.2588297189792681,0.297044575214386,0.2563697397708893,-0.6700022220611572,-0.2747102975845337,0.3555441796779632,0.2809199690818786
1749044159.4306855,-1.808015847563784,-1.6523959129369405,0.5466172227360834,0.9792551267754158,-0.24224988514648954,-4.335322211503041,0.03657603355087562,0.1674238162528437,-0.25873247430415774,-0.22177333881176672,0.17164844578259217,0.2602333076236092,0.297044575214386,0.2563697397708893,-0.6700022220611572,-0.2747102975845337,0.3555441796779632,0.2809199690818786
1749044159.4307234,-1.8079401600514042,-1.6520595696920723,0.5460924848431319,0.97881412022526,-0.24189933079522938,-4.334797450703323,0.036697115205978216,0.16855504781965946,-0.2603163850047125,-0.2233710638966104,0.1720241417504301,0.261727670192989,0.3034679293632507,0.1936621367931366,-0.6474708318710327,-0.2273899614810943,0.4009073376655578,0.3009405136108398
1749044159.4307606,-1.8078644504213761,-1.6517217360056562,0.5455649598750761,0.9783719693415777,-0.24154870544837673,-4.33427111452918,0.03680967022776089,0.16967025101129868,-0.26186683743906924,-0.2249537664205316,0.17240535198662507,0.2633141682940686,0.3163261413574219,0.2724854946136474,-0.6758686900138855,-0.2442902028560638,0.390224814414978,0.2883705794811249
1749044159.430798,-1.8077888563080062,-1.6513825165591398,0.5450349525840922,0.9779289310818055,-0.24119821768289842,-4.3337432021821956,0.036917323027443855,0.1707694617329967,-0.2633844934594714,-0.22652537386438215,0.17281828735437138,0.2649883558220784,0.3163261413574219,0.2724854946136474,-0.6758686900138855,-0.2442902028560638,0.390224814414978,0.2883705794811249
1749044159.4308355,-1.8077134368323446,-1.6510419089055124,0.5445025504620481,0.9774850550765708,-0.24084788211890956,-4.3332135484216066,0.03702488963460547,0.17185354864181582,-0.2648735220970311,-0.22809321272925914,0.17328809368738335,0.26674085634492223,0.3006885945796966,0.224260538816452,-0.6393495798110962,-0.2741097807884216,0.3970934450626373,0.2709588706493377
1749044159.4308772,-1.8076381729433468,-1.6506998164955722,0.5439676389928111,0.9770401794484519,-0.24049752195620402,-4.33268184813445,0.037137854062802414,0.17292436689547871,-0.2663407374528534,-0.2296677481757549,0.17383748183674802,0.26855864271756663,0.3006885945796966,0.224260538816452,-0.6393495798110962,-0.2741097807884216,0.3970934450626373,0.2709588706493377
1749044159.4309156,-1.8075629793414791,-1.6503560772132044,0.5434299518983626,0.9765939560552047,-0.24014679584182172,-4.332147699200479,0.037261690192712554,0.17398463051235433,-0.26779440180047115,-0.2312617395361753,0.17448566392325118,0.27042650565783444,0.3216490149497986,0.2229369878768921,-0.6771479845046997,-0.2831403017044067,0.4032087922096252,0.2973816394805908
1749044159.430953,-1.807487724181763,-1.6500104985811204,0.5428891422694869,0.9761458959388735,-0.2397952402016732,-4.331610651381789,0.03740115092998995,0.17503751912444168,-0.2692429317297131,-0.23288902835148256,0.1752476335507628,0.2723284715827198,0.3374501168727875,0.2165185511112213,-0.7030893564224243,-0.2610212862491607,0.3935162723064422,0.2670622169971466
1749044159.4309895,-1.8074122516803688,-1.6496628903678783,0.5423448586473877,0.9756954241522168,-0.2394423174373037,-4.331070250353771,0.03755965749727052,0.17608611939196842,-0.2706937503209623,-0.23456313865299527,0.1761337603556244,0.2742489425435262,0.3374501168727875,0.2165185511112213,-0.7030893564224243,-0.2610212862491607,0.3935162723064422,0.2670622169971466
1749044159.4310277,-1.8073364030861558,-1.6493130878822935,0.5417968124714225,0.9752419348907063,-0.23908746303042885,-4.330526070642252,0.0377388963516902,0.17713284294023238,-0.2721525005700258,-0.23629576312600747,0.17714960081522382,0.27617338367850097,0.3074035048484802,0.254700630903244,-0.6963046789169312,-0.2606068849563598,0.3908140361309051,0.2949679791927337
1749044159.4310646,-1.8072600330154052,-1.6489609628564523,0.5412448274223338,0.9747848409390922,-0.23873012805234436,-4.329977736046131,0.03793868068197729,0.17817894498676573,-0.2736227592807911,-0.23809514581781402,0.17829578265418303,0.2780884825095946,0.3258944153785705,0.1708512306213379,-0.7030096650123596,-0.2808553874492645,0.4033312797546386,0.2685458660125732
1749044159.4311714,-1.8071830203498727,-1.6486064224968486,0.5406888659258693,0.9743236145982149,-0.23836981614214417,-4.32942492989043,0.038157080419965204,0.179224206940088,-0.2751062662293726,-0.23996441365426455,0.17956782826532183,0.2799818406000961,0.3258944153785705,0.1708512306213379,-0.7030096650123596,-0.2808553874492645,0.4033312797546386,0.2685458660125732
1749044159.432501,-1.8071052749020753,-1.6482494007082331,0.5401290332407761,0.9738578200826722,-0.23800611564272672,-4.328867400440461,0.03839078383994537,0.1802667869528877,-0.27660353593051745,-0.24190002386449605,0.18095585868671413,0.2818413855996626,0.3201190829277038,0.2597329616546631,-0.6565694808959961,-0.3103511333465576,0.4096956849098205,0.2735484838485718
1749044159.4743054,-1.8070267418595993,-1.6478898473917765,0.539565563415736,0.9733871386381968,-0.23763872786041806,-4.328304967601357,0.03863562430626584,0.18130322757915263,-0.27811459366638885,-0.2438906010457577,0.1824442492885956,0.28365476144984814,0.3201190829277038,0.2597329616546631,-0.6565694808959961,-0.3103511333465576,0.4096956849098205,0.2735484838485718
1749044159.474355,-1.8069474052716687,-1.6475277207499188,0.538998791949811,0.972911386294388,-0.23726749061276928,-4.327737533783695,0.03888718417191995,0.18232863753724177,-0.2796395257685554,-0.24591646554125834,0.18401144405047212,0.28540895685633605,0.3277930021286011,0.2233999967575073,-0.6561326384544373,-0.3208234906196594,0.4160341620445251,0.2974948287010193
1749044159.474408,-1.8068672903190794,-1.6471629844640836,0.5384291183172674,0.9724305218385689,-0.2368923935520869,-4.327165096327855,0.03914137839158432,0.18333708323197348,-0.2811785942405114,-0.2479500709105145,0.1856302189529761,0.2870903822824386,0.3112383186817169,0.1916516423225402,-0.6874468922615051,-0.2894709706306457,0.4608769416809082,0.3121403157711029
1749044159.4744616,-1.8067864630816053,-1.646795608763708,0.5378569608378618,0.9719446421827561,-0.23651358079246249,-4.3265877555312064,0.03939492850749435,0.1843221924580079,-0.28273182834910626,-0.24995739011087506,0.1872686746258826,0.2886855097353615,0.3112383186817169,0.1916516423225402,-0.6874468922615051,-0.2894709706306457,0.4608769416809082,0.3121403157711029
1749044159.4745047,-1.8067050266175058,-1.6464255731200268,0.5372827077166265,0.9714539643658845,-0.23613133794367935,-4.326005712961196,0.03964566225913574,0.18527790453407167,-0.28429820428790725,-0.25190009662965057,0.18889211812788645,0.2901820519181522,0.3132921457290649,0.1822457760572433,-0.6837835907936096,-0.2667531669139862,0.4311168491840362,0.3105894029140472
1749044159.474544,-1.8066231131149606,-1.6460528682894464,0.5367066695001187,0.9709587959627631,-0.23574606326324643,-4.325419257483768,0.039892609874023564,0.18619924601174243,-0.2858746744478672,-0.253738279350352,0.1904657775135873,0.2915705080295907,0.2993046641349792,0.1722377091646194,-0.6944282054901123,-0.2897799909114837,0.4285732507705688,0.2771257162094116
1749044159.4745822,-1.806540873075872,-1.6456774963993375,0.5361290385956421,0.9704594974791784,-0.23535822526077324,-4.324828739616395,0.04013590790956257,0.1870829950309035,-0.2874553609083019,-0.2554334399914805,0.19195803700112077,0.29284579234000396,0.2993046641349792,0.1722377091646194,-0.6944282054901123,-0.2897799909114837,0.4285732507705688,0.2771257162094116
1749044159.47462,-1.8064584633460217,-1.645299469603421,0.5355498616144719,0.9699564418251679,-0.2349683118774618,-4.324234538245132,0.040376555022612746,0.18792812039831505,-0.2890311861072748,-0.25695157534568003,0.19334368297267035,0.2940086286606161,0.3104430437088012,0.1698791980743408,-0.6924631595611572,-0.2834139466285705,0.4196709990501404,0.2937116920948028
1749044159.4746616,-1.8063760356341612,-1.6449188092543927,0.5349690295454737,0.9694499766058629,-0.23457677838570795,-4.323637025987642,0.04061608189599988,0.18873593562052723,-0.2905901140430955,-0.25826614539344134,0.19460660007372807,0.29506644972342516,0.3104430437088012,0.1698791980743408,-0.6924631595611572,-0.2834139466285705,0.4196709990501404,0.2937116920948028
1749044159.4747,-1.8062937259170524,-1.6445355470744634,0.5343862875748141,0.9689403935723884,-0.2341840007747189,-4.3230365385769325,0.040856197752214704,0.18950997190268423,-0.2921180551112809,-0.2593606516534805,0.19574146017924568,0.296033654357831,0.2915409207344055,0.1693386435508728,-0.7035229206085205,-0.2664501368999481,0.4109560251235962,0.3051855564117431
1749044159.474738,-1.8062116439948959,-1.6441497281134998,0.5338012618986167,0.9684279072171809,-0.2337902391124115,-4.322433350813798,0.041098462868544204,0.190255611015024,-0.29360036080180907,-0.26023046237484154,0.19675413163608865,0.29693118475466734,0.3253461122512817,0.1932477951049804,-0.7135413885116577,-0.2029881328344345,0.4071582555770874,0.2817312180995941
1749044159.4747782,-1.8061298627403466,-1.6437614146127233,0.533213498630952,0.9679126438219301,-0.23339561371643372,-4.321827660510556,0.041344016334454496,0.1909795101848735,-0.29502370216425355,-0.26088351166648716,0.1976607260159729,0.29778544975924837,0.3253461122512817,0.1932477951049804,-0.7135413885116577,-0.2029881328344345,0.4071582555770874,0.2817312180995941
1749044159.4748178,-1.8060484080816206,-1.643370691011807,0.5326225111524875,0.9673946435835109,-0.23300009712350672,-4.321219583388207,0.041593367749922956,0.19168882411192595,-0.2963780075544092,-0.26133962540929273,0.19848537235643154,0.2986266565315231,0.2892591059207916,0.2056278586387634,-0.682705819606781,-0.2524775862693786,0.4038113057613373,0.3029782176017761
1749044159.4748557,-1.8059672520055787,-1.6429776713247874,0.5320278340753363,0.9668738786734679,-0.23260352502642412,-4.32060916263605,0.041846248426592195,0.19239023431362554,-0.2976580742166812,-0.26162847758024105,0.1992569728485452,0.29948666462633394,0.2892591059207916,0.2056278586387634,-0.682705819606781,-0.2524775862693786,0.4038113057613373,0.3029782176017761
1749044159.474893,-1.805886310733262,-1.6425825089882597,0.5314290811504705,0.9663502867598824,-0.23220562718067148,-4.319996393582431,0.04210151657575211,0.1930888545189893,-0.29886450055951685,-0.2617864674933779,0.2000053420513627,0.30039654557222334,0.3298262655735016,0.1870594620704651,-0.6680082678794861,-0.2757382690906524,0.4080309271812439,0.3192431330680847
1749044159.474933,-1.8058054488953128,-1.6421854068830204,0.5308260015170904,0.9658238144040234,-0.23180607500893954,-4.319381258348525,0.04235711875592479,0.193787163658339,-0.3000037115896107,-0.26185300696407315,0.20075723822823585,0.3013840726758265,0.3299087285995483,0.1724259257316589,-0.71213698387146,-0.260030061006546,0.4198814928531647,0.3164637088775635
1749044159.4749703,-1.8057244890956254,-1.6417866239993193,0.5302185269311436,0.9652944618073516,-0.2314045388531224,-4.318763761996868,0.04261011722857606,0.19448417328718912,-0.30108703736179726,-0.261866744715171,0.20153284102900682,0.30247134752846816,0.3299087285995483,0.1724259257316589,-0.71213698387146,-0.260030061006546,0.4198814928531647,0.3164637088775635
1749044159.4750073,-1.805643225566571,-1.6413864758661094,0.5296068033583079,0.964762321013575,-0.23100074632289366,-4.31814396229686,0.042856792600840764,0.19517502900396955,-0.30212900583728697,-0.2618621631026662,0.20234320262771968,0.30367271901780785,0.3209774494171142,0.181695818901062,-0.6959747672080994,-0.2169748842716217,0.4411363899707794,0.2923158407211303
1749044159.4750438,-1.80556144065241,-1.640985327096126,0.528991202162433,0.9642276020235415,-0.23059453345688927,-4.317521987873253,0.04309282432824872,0.19585117575748542,-0.3031451747800708,-0.2618668530875649,0.20318907743451745,0.30499312963277364,0.3139397501945495,0.1608291119337082,-0.7375026345252991,-0.2572776675224304,0.4415584504604339,0.3373336791992187
1749044159.4750805,-1.8054789230212418,-1.6405835757198615,0.5283723083627229,0.9636906439335297,-0.2301858816918635,-4.31689804267359,0.043313544032461945,0.19650111252871652,-0.30414991051825285,-0.26189968683814563,0.20406130528446173,0.30642705605484766,0.3139397501945495,0.1608291119337082,-0.7375026345252991,-0.2572776675224304,0.4415584504604339,0.3373336791992187
1749044159.4751887,-1.8053954863969295,-1.6401816309424904,0.5277508866110509,0.9631519110186924,-0.2297749359812681,-4.316272398181845,0.043514249327874184,0.1971116558478156,-0.30515450502480423,-0.2619700691696109,0.20494262812669164,0.30795824824598267,0.3201935589313507,0.12535160779953,-0.7239680290222168,-0.2809393405914306,0.4373560547828674,0.3212454617023468
1749044159.476526,-1.80531098721166,-1.639779887639566,0.5271278284174524,0.9626119753701079,-0.22936200201273316,-4.315645376821985,0.04369055518756881,0.1976695461949644,-0.30616591108188557,-0.2620783899717352,0.2058105586405606,0.30956044186180476,0.3201935589313507,0.12535160779953,-0.7239680290222168,-0.2809393405914306,0.4373560547828674,0.3212454617023468
1749044159.518299,-1.805225339185935,-1.6393787005481497,0.5265040846503786,0.9620714869306677,-0.2289475220226715,-4.31501732857996,0.043838747114813954,0.19816317770777886,-0.30718620453649353,-0.2622176489785425,0.20664077472241565,0.31119909914993116,0.3036136925220489,0.1396435648202896,-0.7302029728889465,-0.2507418096065521,0.4176478385925293,0.2690658271312713
1749044159.5183463,-1.8051385228998122,-1.6389783591764326,0.5258805864502669,0.9615311304327395,-0.2285320298580538,-4.314388600043574,0.04395609546589611,0.19858421367297813,-0.3082127188863694,-0.26237599416841867,0.20741050422802862,0.3128340636722472,0.3155383467674255,0.1750073432922363,-0.6833563446998596,-0.2077703177928924,0.4201274514198303,0.2989944517612457
1749044159.518394,-1.8050505892275859,-1.638579063505011,0.5252581589479326,0.960991570403093,-0.2281160889089634,-4.313759495397016,0.044041099780666865,0.19892886237671098,-0.3092386936273574,-0.2625397064511791,0.2081014542028038,0.3144228550114137,0.3155383467674255,0.1750073432922363,-0.6833563446998596,-0.2077703177928924,0.4201274514198303,0.2989944517612457
1749044159.518436,-1.8049616567835447,-1.6381809020722107,0.524637436964113,0.9604533906403897,-0.22770022168040657,-4.31313023391011,0.044093648226040276,0.19919862335413094,-0.3102542365745672,-0.2626960896843058,0.20870197601332996,0.31592421518500213,0.2899712920188904,0.1125081777572631,-0.6882819533348083,-0.2447107583284378,0.4362853467464447,0.2785619497299194
1749044159.5184867,-1.8048719044825243,-1.6377838368213977,0.5240187971734586,0.9599170398182411,-0.22728484420536793,-4.3125009145780355,0.04411508681919477,0.19940038140859967,-0.311247397484102,-0.26283582533654287,0.20920829621538822,0.3173014504032586,0.3241757750511169,0.1412715166807174,-0.6955222487449646,-0.2644968926906585,0.4310325384140014,0.261770099401474
1749044159.5185328,-1.8047815604095039,-1.6373877006249271,0.5234023223552806,0.9593827959560809,-0.2268702187624129,-4.311871500808616,0.04410819384922731,0.19954583338327855,-0.31220517685578564,-0.2629545550828085,0.20962475639068154,0.3185250987855966,0.3241757750511169,0.1412715166807174,-0.6955222487449646,-0.2644968926906585,0.4310325384140014,0.261770099401474
1749044159.518572,-1.8046908876328658,-1.6369922118630107,0.522787807821525,0.9588507579106067,-0.22645643347718997,-4.311241834000754,0.044077056671903155,0.1996503548502251,-0.3131143558983562,-0.2630536395319745,0.20996309310446848,0.3195745426957432,0.3417522311210632,0.1197244822978973,-0.6941867470741272,-0.2495159953832626,0.393351137638092,0.2407375574111938
1749044159.5186148,-1.804600167066019,-1.6365970059261108,0.522174809441065,0.9583208635483451,-0.22604340948741902,-4.310611675947228,0.04402685668323678,0.1997315001805922,-0.3139621228243782,-0.2631401349171569,0.21024086540215095,0.32043840996432393,0.3417522311210632,0.1197244822978973,-0.6941867470741272,-0.2495159953832626,0.393351137638092,0.2407375574111938
1749044159.5186534,-1.8045096775001168,-1.6362016781977484,0.5215627217310242,0.957792925995056,-0.2256309292330072,-4.309980770601388,0.04396357754437724,0.19980735085025406,-0.3147365539519366,-0.2632260548081189,0.21047921431620362,0.321113918268513,0.3315326273441314,0.1304969042539596,-0.6916701793670654,-0.2517567276954651,0.4340618252754211,0.2904975414276123
1749044159.5186908,-1.8044196735501186,-1.6358058296999347,0.5209508682240183,0.9572666753575843,-0.2252186761355428,-4.309348910313813,0.04389365346012794,0.19989489496097407,-0.3154270515422118,-0.26332701140508913,0.21070022131025892,0.3216055765668728,0.3358146846294403,0.1554349958896637,-0.709311306476593,-0.288878470659256,0.4560516476631164,0.2913019955158233
1749044159.518728,-1.8043303632518655,-1.635409106718281,0.5203385868034253,0.9567417950459998,-0.22480627708931605,-4.308715992038454,0.04382357032426916,0.2000085701220982,-0.31602483245558205,-0.2634604036658866,0.21092420863803849,0.3219237495178492,0.3358146846294403,0.1554349958896637,-0.709311306476593,-0.288878470659256,0.4560516476631164,0.2913019955158233
1749044159.5187652,-1.8042418881029274,-1.6350112289896728,0.5197252982799441,0.9562179474008022,-0.22439334295819952,-4.308082053778242,0.043759432306990705,0.20015906769034805,-0.3165235088354,-0.26364341202105773,0.21116735997015168,0.32208348965524664,0.3231719732284546,0.1435767412185669,-0.6827821135520935,-0.2962046861648559,0.4668319225311279,0.2832895517349243
1749044159.5188026,-1.804154308901081,-1.6346120050807678,0.5191105527754377,0.9556947885943926,-0.22397950537025704,-4.307447286806243,0.043706515826907016,0.20035249614190392,-0.3169197165429911,-0.26389109811842937,0.2114399992389719,0.3221038102672783,0.3231719732284546,0.1435767412185669,-0.6827821135520935,-0.2962046861648559,0.4668319225311279,0.2832895517349243
1749044159.5188396,-1.8040676001088962,-1.634211335840066,0.5184940518140718,0.9551719745902424,-0.22356444824598526,-4.306812021881409,0.04366884877034784,0.20059001125645154,-0.31721365785870503,-0.2642148421482046,0.2117457481453226,0.32200731598368365,0.333330899477005,0.181508406996727,-0.6639771461486816,-0.3210008144378662,0.4648208618164062,0.2793560326099396
1749044159.5188782,-1.8039816535109854,-1.6338092069952466,0.5178756449482804,0.9546491590809846,-0.22314793062071145,-4.306176688672837,0.04364886762336841,0.20086798565010727,-0.317409380786202,-0.26462120605469713,0.21208162244748902,0.3218199239306021,0.3300632536411285,0.14882293343544,-0.6495723724365234,-0.2539218962192535,0.4847040772438049,0.2616831660270691
1749044159.5189157,-1.8038962895474875,-1.6334056719145216,0.5172553015753057,0.9541259839425443,-0.22272979645574628,-4.3055417501609226,0.04364721117146159,0.20117868386284354,-0.317514650224738,-0.26511117148894436,0.21243896414150465,0.321570337964692,0.3300632536411285,0.14882293343544,-0.6495723724365234,-0.2539218962192535,0.4847040772438049,0.2616831660270691
1749044159.5189528,-1.8038112733470344,-1.6330008264658424,0.5166330625363489,0.9536020641553264,-0.22230996898207253,-4.3049076187797395,0.043662699139917625,0.20151127931211965,-0.31754036184306744,-0.26567964858737103,0.21280497143280389,0.3212889779057333,0.3478730916976928,0.123155377805233,-0.656172513961792,-0.2975439131259918,0.4598563015460968,0.2204774469137191
1749044159.518989,-1.8037263328786766,-1.6325947793809874,0.5160089802158103,0.9530769710040354,-0.22188843085415863,-4.3042745662296475,0.04369251289176275,0.20185297853620363,-0.3174995691615997,-0.26631521761069327,0.21316450973360834,0.3210062097436295,0.3222710490226745,0.1277159005403518,-0.6874382495880127,-0.3387072086334228,0.4445558190345764,0.2288984656333923
1749044159.5190258,-1.8036411782559567,-1.632187623240729,0.5153830588468911,0.9525502188782906,-0.22146519565157635,-4.3036426426026075,0.043732549537141986,0.20219004632794266,-0.317406302954375,-0.26700019865884594,0.21350188940550324,0.3207499643571401,0.3222710490226745,0.1277159005403518,-0.6874382495880127,-0.3387072086334228,0.4445558190345764,0.2288984656333923
1749044159.5190628,-1.803555522662125,-1.6317794130661067,0.5147552086198279,0.952021262560777,-0.2210402799215762,-4.3030116223351245,0.04377788265175061,0.20250862705359776,-0.3172744226567642,-0.2677112283877469,0.21380238075442465,0.3205431054853247,0.3072763979434967,0.1371203660964965,-0.6944177150726318,-0.3136279881000519,0.4459182024002075,0.2903090417385101
1749044159.5191748,-1.8034691052681797,-1.631370159971371,0.5141252264111522,0.9514895123016073,-0.22061368592494104,-4.302380992422257,0.043823256352560826,0.20279537706736236,-0.31711671925336554,-0.26842046930593366,0.21405336928729424,0.3204010841388374,0.3072763979434967,0.1371203660964965,-0.6944177150726318,-0.3136279881000519,0.4459182024002075,0.2903090417385101
1749044159.520475,-1.8033817147802713,-1.6309598444670044,0.513492810485879,0.9509543710894783,-0.22018540192404606,-4.301749990302663,0.043863565193210864,0.20303800616641834,-0.3169443922583929,-0.2690974102281056,0.21424517169816273,0.3203303986495785,0.3338394463062286,0.141723483800888,-0.6856397390365601,-0.2909955978393554,0.4525103271007538,0.2639908492565155
1749044159.562336,-1.8032932104216537,-1.6305484483975086,0.5128576079653634,0.95041529288868,-0.21975542074947546,-4.301117687502172,0.04389430228388396,0.20322583218733722,-0.31676689674066877,-0.2697110443651867,0.21437157596613185,0.3203281806475794,0.3440173864364624,0.0766593962907791,-0.6923264265060425,-0.2921180725097656,0.4232994019985199,0.2503719925880432
1749044159.562395,-1.8032035369015158,-1.6301359989541546,0.5122192864308903,0.9498718551699065,-0.21932377182573945,-4.300483105980339,0.04391196562846699,0.20335038116525006,-0.31659205246751926,-0.2702321317259981,0.2144301270398534,0.3203829510178171,0.3440173864364624,0.0766593962907791,-0.6923264265060425,-0.2921180725097656,0.4232994019985199,0.2503719925880432
1749044159.5624442,-1.8031127312295805,-1.629722614558455,0.5115776165963309,0.9493238352987732,-0.21889055830916965,-4.299845349366505,0.04391439935097861,0.20340597239135796,-0.3164262550006609,-0.27063528453859265,0.2144221084021261,0.3204763533280385,0.3459417223930359,0.0828723534941673,-0.6797113418579102,-0.2905943393707275,0.4236705303192138,0.2662326693534851
1749044159.562485,-1.803020920690916,-1.6293085405966288,0.5109325501285116,0.9487712774943372,-0.21845598886734477,-4.299203728945925,0.043901032147666316,0.2033901889374197,-0.3162746352499061,-0.2709007056542112,0.21435214595427837,0.32058554106113607,0.3173993527889251,0.1112093180418014,-0.6914577484130859,-0.2819835245609283,0.383978396654129,0.2837965786457062
1749044159.5625284,-1.8029283120741504,-1.628894163559891,0.5102842756386332,0.9482145359205811,-0.2180203934423963,-4.2985578638830235,0.043872973616183156,0.20330417216566082,-0.31614107120142115,-0.27101549346018095,0.21422741779046955,0.3206858563584057,0.3093918263912201,0.1355894804000854,-0.7028074264526367,-0.2989221215248108,0.4112792611122131,0.2725804448127746
1749044159.5625758,-1.8028351729139174,-1.6284799969883856,0.5096332399975169,0.9476542832110005,-0.21758421618398288,-4.297907739784133,0.043832940171276494,0.20315273962479075,-0.3160280376477191,-0.2709744760315064,0.21405656530311018,0.3207534372080403,0.3088751435279846,0.1435258537530899,-0.6963287591934204,-0.2862846851348877,0.4537367224693298,0.2437896132469177
1749044159.5626156,-1.802741806700337,-1.6280666412380065,0.5089801321243835,0.9470914827013458,-0.21714798619776834,-4.2972537200097705,0.043785001130369365,0.20294433964444025,-0.3159363523119586,-0.2707805663461147,0.21384850887564877,0.32076741046982077,0.3088751435279846,0.1435258537530899,-0.6963287591934204,-0.2862846851348877,0.4537367224693298,0.2437896132469177
1749044159.5626545,-1.8026485252620708,-1.627654726861698,0.5083258367626989,0.9465273316671079,-0.2167122734603371,-4.296596514961872,0.04373416006583006,0.2026908137147596,-0.3158649158552385,-0.27044465968602316,0.2136114135189329,0.32071141383819257,0.3389574587345123,0.0857673585414886,-0.6930280327796936,-0.2723910510540008,0.4318534135818481,0.267072468996048
1749044159.5626936,-1.8025556219089762,-1.627244853614199,0.5076713699836317,0.9459631861344043,-0.21627763910549067,-4.295937119839997,0.04368581568753403,0.20240689795450023,-0.31581054728293484,-0.2699851308351723,0.21335199151342357,0.3205743695914457,0.3389574587345123,0.0857673585414886,-0.6930280327796936,-0.2723910510540008,0.4318534135818481,0.267072468996048
1749044159.5627315,-1.8024633481646526,-1.6268375335643805,0.5070178052208975,0.945400474757065,-0.21584458648762536,-4.295276730204904,0.043645172470140846,0.2021094170838199,-0.3157679997484686,-0.26942702182370826,0.2130751934552625,0.3203506457442454,0.3176418840885162,0.1059725284576416,-0.6691038608551025,-0.2836188673973083,0.4117571711540222,0.2845147550106048
1749044159.5627694,-1.8023718956252044,-1.6264331416489208,0.5063661933325408,0.9448406044423322,-0.21541351579533852,-4.294616641430179,0.04361667885131201,0.20181620831248234,-0.31573021849931365,-0.26880101197582096,0.21278419950234742,0.320039868783726,0.3132002651691437,0.1536060869693756,-0.7193500399589539,-0.295434832572937,0.3556363582611084,0.2487732917070388
1749044159.5628068,-1.8022813835412235,-1.6260318747082287,0.5057174784906945,0.9442848592195227,-0.21498468428743725,-4.293958137870548,0.04360355282817547,0.20154490394458427,-0.31568887402969,-0.26814220964127594,0.2124805518882015,0.3196466328251979,0.3132002651691437,0.1536060869693756,-0.7193500399589539,-0.295434832572937,0.3556363582611084,0.2487732917070388
1749044159.562843,-1.8021918526382954,-1.6256337217487256,0.5050724156437094,0.9437342978744084,-0.21455817681203207,-4.293302381576813,0.043607424575545846,0.2013117394457514,-0.31563515882848175,-0.2674887273464169,0.21216429811598847,0.31918022940010415,0.3259807825088501,0.1291307657957077,-0.6756860613822937,-0.2732745110988617,0.3791652917861938,0.3019119501113891
1749044159.56288,-1.8021032661409406,-1.6252384512263165,0.5044315013954986,0.943189661948372,-0.21413389388082096,-4.292650314971373,0.0436281073210041,0.2011305169504866,-0.31556076736182737,-0.26687996982871115,0.2118341219896423,0.31865439849030935,0.3411697745323181,0.1116552576422691,-0.6404529809951782,-0.279363214969635,0.4283303022384643,0.2836642265319824
1749044159.5629168,-1.8020155190133282,-1.6248456219008625,0.5037949328157424,0.9426513089065323,-0.21371156364963764,-4.292002592210637,0.04366351218520107,0.20101177803959072,-0.31545890290328155,-0.2663546186292082,0.21148756398535015,0.3180870290692772,0.3411697745323181,0.1116552576422691,-0.6404529809951782,-0.279363214969635,0.4283303022384643,0.2836642265319824
1749044159.5629537,-1.8019284552976154,-1.6244546203783696,0.5031626046433907,0.9421191825970461,-0.2132907789969875,-4.291359548194442,0.04370973793756167,0.20096218786702025,-0.31532511432618054,-0.2659483996254018,0.2111214875247908,0.3174997031839019,0.3528178334236145,0.1309238225221634,-0.651769757270813,-0.2767519950866699,0.4145926833152771,0.267130583524704
1749044159.562991,-1.8018418912265617,-1.6240647216850221,0.5025341456458128,0.9415928252913363,-0.21287105381866964,-4.290721204687971,0.0437613700894651,0.20098414066242282,-0.31515779440231195,-0.26569179872839027,0.21073287625155357,0.31691695629274463,0.3528178334236145,0.1309238225221634,-0.651769757270813,-0.2767519950866699,0.4145926833152771,0.267130583524704
1749044159.5630271,-1.8017556396822967,-1.6236751624037409,0.5019089843644281,0.9410714265931404,-0.2124518871911893,-4.29008730457957,0.04381200205198525,0.20107563871575235,-0.31495826248299313,-0.265607912852931,0.21031987495800797,0.31636513111222975,0.3244155347347259,0.1621583253145218,-0.6577877998352051,-0.2796728909015655,0.3741182684898376,0.2257892936468124
1749044159.563064,-1.8016695310169424,-1.6232852128238822,0.5012864284241767,0.9405538985658888,-0.21203282267668178,-4.28945736180791,0.04385494773536104,0.20123051258996275,-0.3147304729942545,-0.26571060281636205,0.20988281450921453,0.31587077036958106,0.3153671026229858,0.1609827876091003,-0.6875216960906982,-0.2602525651454925,0.3712804317474365,0.2761346697807312
1749044159.5631,-1.801583426760404,-1.6228942367418935,0.5006657423854475,0.9400389653302506,-0.21161349306512328,-4.288830716748943,0.043884065325867264,0.2014390022292844,-0.3144804926805508,-0.2660030809381486,0.20942489493013083,0.31545863484815606,0.3153671026229858,0.1609827876091003,-0.6875216960906982,-0.2602525651454925,0.3712804317474365,0.2761346697807312
1749044159.563212,-1.8014972254251587,-1.6225017331357319,0.5000462149390702,0.9395252579607911,-0.2111936465048605,-4.288206592324866,0.04389457476523912,0.2016886257653828,-0.3142159314076999,-0.26647704773926745,0.2089522834388671,0.31514959741753956,0.3097153007984161,0.1252505630254745,-0.6810894012451172,-0.2889546751976013,0.3964122533798218,0.2847726345062256
1749044159.5646226,-1.8014108618824909,-1.6221073590393287,0.49942721212254026,0.9390114085306192,-0.2107731550460646,-4.287584150046852,0.04388374046726903,0.2019651822705556,-0.31394547211059587,-0.2671125070103909,0.20847357556045024,0.31495877038846837,0.3097153007984161,0.1252505630254745,-0.6810894012451172,-0.2889546751976013,0.3964122533798218,0.2847726345062256
1749044159.6063137,-1.8013243025817336,-1.6217109350040055,0.4988082151524201,0.9384961379336618,-0.21035200864973283,-4.286962544467292,0.04385130868035318,0.20225372099065828,-0.3136785470298587,-0.26787841064966633,0.2079987722187009,0.3148942177221034,0.3137768805027008,0.1352258026599884,-0.6771681904792786,-0.303599089384079,0.4009276628494262,0.273087203502655
1749044159.606361,-1.8012375384077888,-1.621312434453061,0.49818884029340726,0.9379783312403238,-0.20993029729343055,-4.286340971122852,0.04379962809173974,0.2025393807025837,-0.3134251032811979,-0.2687342438258562,0.20753804987192376,0.3149564883239919,0.3167422413825989,0.1877097189426422,-0.6367026567459106,-0.2734341323375702,0.4031726121902466,0.2944440841674804
