nimar13/UR3e_dataset_trayectorias/trayectorias_ejecutadas_filtradas/quintic_func/trayectoria_123_result_filtrado.csv
timestamp,q1,q2,q3,q4,q5,q6,qd1,qd2,qd3,qd4,qd5,qd6,tau1,tau2,tau3,tau4,tau5,tau6
1749042520.3982942,3.774995292529669,-2.5236095701640586,1.6547367915714448,-2.73535318627573,-0.912836363070957,-1.06313599970211,-0.006464805213234135,0.0007643787965563288,0.00014550731819944928,0.0031424473855770087,0.0007310595829828823,-1.6723661227836836e-06,0.0752858370542526,0.4000377655029297,-0.5270326733589172,-0.1066706329584121,-0.2121790200471878,-0.0566636472940444
1749042520.398347,3.7749806941732382,-2.523608993340282,1.6547409531843815,-2.735349230054569,-0.9128414344984098,-1.0631307333888314,-0.0062143105015140376,0.0007608191688198401,0.00014137702261821452,0.0030069552520412646,0.000794929998293725,-8.80495514582069e-06,0.0752945244312286,0.4096086323261261,-0.5228559970855713,-0.1044071912765502,-0.2097867578268051,-0.0553911179304122
1749042520.3983946,3.7749663641106577,-2.523608468384579,1.6547450377787634,-2.735345361796486,-0.9128463297145163,-1.06312558166219,-0.005964113436227504,0.0007557866712671704,0.00013736190983441602,0.002867625110588128,0.0008532008813350405,-1.49370970821182e-05,0.0539300143718719,0.4130251407623291,-0.5218521952629089,-0.1184634864330291,-0.1960822492837906,-0.0635881572961807
1749042520.398461,3.7749525714635768,-2.5236079994046032,1.6547489909360227,-2.7353416053540314,-0.9128508973492594,-1.063120697873615,-0.005711376773095716,0.0007476743802934282,0.00013341994915229034,0.0027216877254351915,0.0009006036627508365,-1.9280627947740774e-05,0.0479495972394943,0.4226276278495788,-0.5179125666618347,-0.1111295074224472,-0.1961016207933426,-0.0679046362638473
1749042520.3985095,3.7749395518040236,-2.5236075839979595,1.6547527662861863,-2.735337984363064,-0.9128550092535022,-1.063116210590652,-0.00545313906609462,0.0007353023960938297,0.0001294814237298369,0.0025674286209578967,0.0009329329943509099,-2.1115605340557937e-05,0.0414543226361274,0.4191428422927856,-0.5125704407691956,-0.0954245179891586,-0.2153609544038772,-0.068691149353981
1749042520.3985496,3.7749274949286953,-2.523607213480957,1.654756327770123,-2.7353345219917724,-0.9128585648112635,-1.0631122149617744,-0.005186512374587698,0.0007180312572866423,0.0001254527311074305,0.002404500875773172,0.0009474167294246359,-1.9825153299564213e-05,0.055735521018505,0.4182141423225403,-0.5135709643363953,-0.1153151467442512,-0.2072485238313675,-0.0644082278013229
1749042520.3985877,3.774916536138622,-2.5236068742788316,1.6547596511763738,-2.7353312384949517,-0.9128614928501516,-1.0631087686518927,-0.004908968470366747,0.0006957847265033394,0.00012122353097203682,0.0022340804870091013,0.0009429042846997613,-1.4934016199783207e-05,0.0584646835923194,0.4010864496231079,-0.5228750705718994,-0.0960227623581886,-0.2030543237924575,-0.0686946064233779
1749042520.3986244,3.7749067520946693,-2.523606550216803,1.654762724428559,-2.735328147106439,-0.9128637521783698,-1.0631058927145378,-0.004618670042260394,0.0006689927572202828,0.00011667704200636374,0.002058828375104664,0.000919860636686075,-6.14897800314522e-06,0.0349546000361442,0.4094886183738708,-0.5282795429229736,-0.0885842218995094,-0.2086039334535598,-0.0706178992986679
1749042520.398665,3.774898162252292,-2.523606225125504,1.6547655463635065,-2.735325249456188,-0.9128653316021534,-1.063103577016474,-0.0043147914500854005,0.0006384763406586173,0.00011170285614953019,0.0018826458639638402,0.000880184728432493,6.602525991473594e-06,0.0494976863265037,0.4146376848220825,-0.5179498791694641,-0.0915673151612281,-0.2039593607187271,-0.0676643997430801
1749042520.3987024,3.774890736067983,-2.5236058849698653,1.6547681241459784,-2.735322532013544,-0.9128662494851307,-1.063101789084817,-0.003997775553643109,0.0006052995988074335,0.00010621119729099697,0.0017102456336312544,0.0008268954383901303,2.31409294527425e-05,0.0368265733122825,0.3996751308441162,-0.5315994620323181,-0.1072408333420753,-0.1979354172945022,-0.0698118358850479
1749042520.3987398,3.7748844049321946,-2.523605518736872,1.6547704697570966,-2.7353199648585553,-0.9128665520898637,-1.0631004846356575,-0.0036694798561129334,0.0005706138776772024,0.00010014715110142727,0.0015465977479047236,0.0007637408822231267,4.3016639487410314e-05,0.0444899424910545,0.4125702977180481,-0.5415171384811401,-0.1072324588894844,-0.1958597004413604,-0.0729468613862991
1749042520.3987768,3.774879076765441,-2.523605117709041,1.654772596132426,-2.7353175034918995,-0.9128663097269515,-1.0630996176528154,-0.00333317664368194,0.0005355155746949994,9.350309007072748e-05,0.0013963359767584574,0.0006947876782821137,6.551240814416519e-05,0.0671130046248436,0.4116427600383758,-0.5353391170501709,-0.0900806859135627,-0.1860863715410232,-0.0603796392679214
1749042520.3988135,3.774874650738314,-2.5236046734917297,1.6547745136144723,-2.7353150937296866,-0.9128656103072785,-1.0630991478984115,-0.0029933921774419224,0.0005009346499790813,8.63273770498489e-05,0.0012632142330499254,0.000624038597159341,8.967161070519077e-05,0.0644131079316139,0.4108139276504516,-0.5390670299530029,-0.1005314365029335,-0.1825877875089645,-0.0755992084741592
1749042520.3988504,3.7748710296074153,-2.52360417590117,1.654776227407695,-2.7353126791424245,-0.9128645508656108,-1.063099044387655,-0.002655597998489378,0.00046756458755920475,7.872752153403218e-05,0.001149688124206427,0.0005551134987816432,0.00011435539624387316,0.0570434853434562,0.3714638352394104,-0.5344700813293457,-0.1042425706982612,-0.1879536062479019,-0.0750940293073654
1749042520.3988886,3.7748681276925975,-2.5236036120282104,1.6547777365372045,-2.735310209932971,-0.9128632284507956,-1.0630992845416418,-0.0023257950164996943,0.0004358376693989778,7.086635800236008e-05,0.0010566710697290892,0.0004910135542780818,0.0001383271424556254,0.0515876039862632,0.3578257262706756,-0.5299807786941528,-0.0863506272435188,-0.1881807297468185,-0.0773986726999282
1749042520.398928,3.774865873605538,-2.523602967269544,1.6547790343899833,-2.7353076516827883,-0.9128617321104386,-1.0630998499017525,-0.0020100487219983478,0.00040594283556471134,6.295058561506038e-05,0.0009834866639811322,0.00043397551567633894,0.00016035662146928744,0.0341797843575477,0.3831302523612976,-0.5330239534378052,-0.0967723503708839,-0.1932815462350845,-0.0831890851259231
1749042520.398965,3.7748642082464143,-2.523602228209233,1.6547801104849331,-2.7353049923112205,-0.912860137435007,-1.0631007199793672,-0.0017140359061571916,0.0003778782029078133,5.521219573954014e-05,0.0009280130349034155,0.00038541268243185274,0.00017933044230376155,0.0681182071566581,0.3845740854740143,-0.5440806150436401,-0.087114043533802,-0.1851484328508377,-0.087539866566658
1749042520.3990018,3.7748630797824867,-2.5236013865044997,1.6547809529144495,-2.735302245992357,-0.912858504377579,-1.0631018660037064,-0.001442650946804627,0.0003515270844248058,4.7884814686486605e-05,0.0008869912707878562,0.00034593227255944097,0.00019435239258474267,0.0732423290610313,0.3622448444366455,-0.535787045955658,-0.121383287012577,-0.1812172681093216,-0.0828453451395034
1749042520.3990388,3.7748624378235447,-2.5236004427592755,1.6547815508929953,-2.7352994533851125,-0.9128568781560806,-1.0631032461735992,-0.0011997004747662057,0.00032674491646540743,4.1178384162636175e-05,0.0008564489419222495,0.00031541463913674117,0.00020481902099777862,0.0794054642319679,0.3764048218727112,-0.5446914434432983,-0.1087395325303077,-0.1963134258985519,-0.0900177806615829
1749042520.3990786,3.774862228675282,-2.5235994097404033,1.6547818968623311,-2.7352966780688925,-0.9128552923743736,-1.063104803558264,-0.0009876978842976655,0.0003034443020716314,3.5256246085045905e-05,0.0008321743366206944,0.00029313769425575305,0.00021046130172391354,0.0641582533717155,0.3330360054969787,-0.5512938499450684,-0.1012964025139808,-0.1993283778429031,-0.0769813507795333
1749042520.3991165,3.774862392698666,-2.5235983147616157,1.6547819876412633,-2.735293999569749,-0.9128537732472495,-1.0631064671430843,-0.0008077582335466826,0.00028166601064116375,3.0218218721452877e-05,0.0008101720204117348,0.0002779295900835078,0.00021134984689713803,0.0469598248600959,0.3710754513740539,-0.5488027334213257,-0.1377671658992767,-0.1856238394975662,-0.0751047879457473
1749042520.399153,3.7748628640088886,-2.523597201095968,1.6547818243176269,-2.7352915039446066,-0.9128523438714126,-1.0631081559581737,-0.0006595882162648701,0.00026162511542787676,2.609191440442464e-05,0.0007870386579760366,0.0002683337035126026,0.0002078666730217593,0.0676754936575889,0.3653532564640045,-0.552772045135498,-0.126576542854309,-0.1888494044542312,-0.0943083614110946
1749042520.3998723,3.774863572360117,-2.5235961278815466,1.654781410977372,-2.735289273486566,-0.9128510276852919,-1.0631097858559904,-0.0005415614248826658,0.0002437235040931986,2.2832988899982658e-05,0.0007602179061946496,0.00026277178357504374,0.0002006502011740613,0.0775657221674919,0.364811360836029,-0.5434200763702393,-0.1377462744712829,-0.1884153336286544,-0.0884982794523239
1749042520.4017718,3.7748644469576464,-2.5235951677639887,1.6547807527846732,-2.7352873774720083,-0.9128498505337019,-1.063111278111981,-0.00045086451242868026,0.00022852276898632283,2.033370363576267e-05,0.00072811853333303,0.0002596933364824521,0.0001905221444800783,0.0888280197978019,0.3524873256683349,-0.5401277542114258,-0.1303251385688781,-0.1823831051588058,-0.0869200080633163
1749042520.4463315,3.7748654218108233,-2.523594401877944,1.6547798542204362,-2.7352858657527954,-0.9128488410691185,-1.0631125685066511,-0.0003836961489657559,0.00021667494813696196,1.8438270907359956e-05,0.0006901038099147512,0.0002577017695556681,0.00017840561558939586,0.0880049690604209,0.3500605821609497,-0.5459072589874268,-0.1154454424977302,-0.1946942806243896,-0.0926315337419509
1749042520.4463787,3.7748664419425615,-2.5235939124302256,1.6547787184206413,-2.7352847662743334,-0.9128480295600183,-1.063113615162333,-0.0003354993602293865,0.00020881267862508766,1.6962904853004198e-05,0.0006463779008152623,0.00025565055798995557,0.0001652434425574661,0.0737256929278373,0.3245451152324676,-0.5425891876220703,-0.1265548467636108,-0.2051351219415664,-0.1088505536317825
1749042520.4464202,3.774867469383243,-2.5235937737008167,1.654777348467852,-2.7352840863740426,-0.9128474454940034,-1.0631144034894588,-0.00030120946443203264,0.00020540492105916813,1.5718242985773688e-05,0.0005978046449526558,0.0002527057603214953,0.00015192440390212028,0.1093815192580223,0.3251111805438995,-0.5504783391952515,-0.1310911774635315,-0.2004825621843338,-0.0881319195032119
1749042520.4464636,3.7748684876205663,-2.5235940427052252,1.6547757510268681,-2.7352838164813003,-0.9128471145296089,-1.063114947199649,-0.00027550397989495464,0.0002065893260434243,1.4531764734864023e-05,0.0005456961118229029,0.0002483743157415419,0.0001392230170003529,0.102906696498394,0.3079125881195068,-0.5419940948486328,-0.1280804276466369,-0.2014161497354507,-0.0976623147726059
1749042520.446502,3.7748695032869346,-2.5235947511602954,1.6547739418895475,-2.735283934317852,-0.9128470552640631,-1.0631152851832866,-0.0002530466025144588,0.00021199723060996275,1.3267958505615145e-05,0.0004916043391117292,0.00024250025898657593,0.0001277560241345875,0.1197656616568565,0.3068702816963196,-0.5415340662002563,-0.1243914142251014,-0.1939861476421356,-0.1024851351976394
1749042520.4465406,3.7748705444429405,-2.5235959005952915,1.6547719521358457,-2.735284408218631,-0.9128472760857406,-1.063115474763806,-0.0002287233194225517,0.00022059169638344376,1.1844237099076628e-05,0.00043714185942807286,0.0002352329753331324,0.00011795634698504303,0.1210275068879127,0.3060867190361023,-0.5482211112976074,-0.1273119449615478,-0.2049171775579452,-0.1039446145296096
1749042520.4465785,3.7748716556997644,-2.523597462130765,1.6547698331088756,-2.735285199314994,-0.912847772374589,-1.0631155822894296,-0.00019787345874135672,0.00023054227520990267,1.0240948986788506e-05,0.000383847032217642,0.00022697283257119206,0.0001100634171126932,0.1210275068879127,0.3060867190361023,-0.5482211112976074,-0.1273119449615478,-0.2049171775579452,-0.1039446145296096
1749042520.4466157,3.7748728911811193,-2.5235993815172773,1.6547676583878517,-2.735286263202793,-0.9128485245635247,-1.063115672326469,-0.00015652089111789364,0.00023916167992821372,8.504270383352869e-06,0.0003331003138005791,0.00021830006682839993,0.00010412757396127475,0.0914834216237068,0.3055500984191894,-0.5608388781547546,-0.1332903802394867,-0.2053696662187576,-0.1195889264345169
1749042520.4466531,3.7748743065512036,-2.523601588779462,1.6547655214153731,-2.735287551844897,-0.9128494977315118,-1.0631157970214433,-0.00010161053397991952,0.00024292866548793847,6.741293545544816e-06,0.00028608850933736286,0.0002098928360007245,0.00010002561810279398,0.1081400141119957,0.3012418150901794,-0.5532070994377136,-0.1236267462372779,-0.200943723320961,-0.1141320616006851
1749042520.44669,3.774875951058905,-2.523604010680728,1.6547635283677797,-2.735289015989261,-0.9128506431366781,-1.0631159874075478,-3.125331131821434e-05,0.00023761734628332778,5.107263893428207e-06,0.00024380668168100014,0.00020244012347018383,9.748452797245812e-05,0.1138366237282753,0.2910935878753662,-0.5479521155357361,-0.1332896649837494,-0.2142005413770675,-0.1081925481557846
1749042520.4467273,3.774877860152245,-2.523606583469868,1.6547617870963605,-2.735290607849902,-0.9128519015380705,-1.0631162482136203,5.502107499370473e-05,0.00021854484692035762,3.7856735703621096e-06,0.0002070825018000353,0.00019655491742287282,9.611069057706581e-05,0.1222689375281333,0.3040561974048614,-0.5509046912193298,-0.1161674931645393,-0.2174498587846756,-0.1142233461141586
1749042520.4467642,3.7748800489649477,-2.5236092631329723,1.654760394104996,-2.735292283572053,-0.9128532076543153,-1.0631165569142444,0.00015601073294016523,0.00018093630020524126,2.9627601870787304e-06,0.0001766057581585247,0.0001926929453392677,9.54226259493815e-05,0.0997887179255485,0.2871546149253845,-0.5446561574935913,-0.1444988548755645,-0.2102536708116531,-0.1008959263563156
1749042520.4468017,3.774882506897349,-2.5236120308346455,1.6547594220704243,-2.7352940050754,-0.9128544948331477,-1.0631168666839674,0.000268604582749021,0.00012038992728222739,2.7987617444369724e-06,0.00015294639573025355,0.00019108221028099474,9.488594189291786e-05,0.0997887179255485,0.2871546149253845,-0.5446561574935913,-0.1444988548755645,-0.2102536708116531,-0.1008959263563156
1749042520.4468389,3.7748851935932524,-2.5236148924280446,1.6547589101415956,-2.735295741038309,-0.9128556989743151,-1.0631171122569343,0.00038759029274018024,3.340739570225173e-05,3.3988510440773863e-06,0.00013654752857833994,0.00019166858472414715,9.394999531577005e-05,0.1219521090388298,0.2925760149955749,-0.5494898557662964,-0.1302712857723236,-0.2074657827615738,-0.1075758188962936
1749042520.446875,3.7748880367454873,-2.5236178724564886,1.6547588584235635,-2.7352974669279786,-0.9128567610415896,-1.063117217782279,0.0005055445869773465,-8.206188308372476e-05,4.786893705224099e-06,0.00012768502581517532,0.00019408267830440707,9.208633241399498e-05,0.0988076254725456,0.2890015244483948,-0.539291501045227,-0.1407728791236877,-0.2149103134870529,-0.1111917644739151
1749042520.446912,3.7748909321485513,-2.523621004304888,1.654759227143047,-2.735299164128026,-0.9128576281415978,-1.063117106200997,0.0006128456502022502,-0.000226127181123284,6.885082757186529e-06,0.00012639200835579267,0.00019763297950097587,8.882926287294237e-05,0.101392887532711,0.2859014868736267,-0.5457310676574707,-0.1444501876831054,-0.208161786198616,-0.1297378987073898
1749042520.4469483,3.774893746281956,-2.5236243186578213,1.6547599403239186,-2.735300818422631,-0.9128582538693616,-1.063116709738924,0.0006978413817965792,-0.00039658604595588275,9.502220001807368e-06,0.00013235403633783,0.0002013296824618684,8.381866636203001e-05,0.1038523837924003,0.2881421744823456,-0.5490508079528809,-0.1422325074672699,-0.2135066241025924,-0.1123502403497695
1749042520.4469852,3.7748963216210827,-2.523627832288062,1.6547608933789781,-2.7353024182959356,-0.9128585989749936,-1.0631159806276018,0.0007471947868586963,-0.000588749088882007,1.233300616044687e-05,0.00014478777083889145,0.00020394242764242983,7.684418908223428e-05,0.1101882979273796,0.2859264016151428,-0.5527440309524536,-0.1273575723171234,-0.2035092860460281,-0.1132503300905227
1749042520.4470265,3.774898484719371,-2.5236315388600556,1.6547619637458564,-2.735303953544997,-0.9128586331415524,-1.063114900587459,0.0007464124346647226,-0.0007955204830033525,1.497015024241609e-05,0.00016232153029600645,0.00020409325390466528,6.788847659622808e-05,0.1103274747729301,0.2641475796699524,-0.5500940084457397,-0.1310952305793762,-0.2158189862966537,-0.1121156960725784
1749042520.447064,3.7749000566316737,-2.5236354031277637,1.6547630234959665,-2.735305414545286,-0.9128583379298827,-1.0631134874005446,0.0006805455163822249,-0.0010077694337799102,1.6930362486816593e-05,0.00018290002754583915,0.00020038333959024307,5.71653547812756e-05,0.1096575185656547,0.2849454283714294,-0.5464829206466675,-0.1288700103759765,-0.1974810361862182,-0.1293821483850479
1749042520.4471006,3.774900864529284,-2.523639359536347,1.654763952653475,-2.7353067922623957,-0.9128577101682217,-1.063111797176565,0.0005350342720237034,-0.0012149888012526506,1.7694314081854092e-05,0.00020373757351828072,0.0001915486636116804,4.514731140510749e-05,0.0976807996630668,0.2855235934257507,-0.5300053358078003,-0.1609092354774475,-0.2000341564416885,-0.1027703434228897
1749042520.4471374,3.774900752752701,-2.5236433156657716,1.6547646517339765,-2.735308078882375,-0.9128567646379939,-1.0631099215737285,0.00029664412317943566,-0.001406189711261784,1.6759419012948036e-05,0.00022134403505944303,0.00017663570534934977,3.2575563334988573e-05,0.0595700666308403,0.2647557258605957,-0.5276592969894409,-0.1541808247566223,-0.1953762322664261,-0.1030401736497879
1749042520.4477603,3.7748995913688006,-2.5236471601983657,1.6547650518761372,-2.7353092687842024,-0.9128555349266692,-1.0631079800754832,-4.558177187862447e-05,-0.0015709358847608434,1.3702845674627184e-05,0.0002316456023428406,0.00015518399873923553,2.0445648355125682e-05,0.0745163485407829,0.2262557744979858,-0.5048589110374451,-0.1653661727905273,-0.2084043771028518,-0.0962149649858474
1749042520.4497523,3.7748972806871492,-2.523650774280816,1.6547651211364602,-2.7353103595230963,-0.9128540716340374,-1.0631061081992434,-0.0004994473851128314,-0.0017003874586168793,8.250570102107238e-06,0.00023021773762796905,0.0001273981585650337,9.962026454714913e-06,0.0102420672774314,0.2436472773551941,-0.5139943361282349,-0.1661186218261718,-0.2151282578706741,-0.1044492572546005
1749042520.490304,3.7748937510513554,-2.523654044555527,1.6547648661454115,-2.735311352501295,-0.91285243764521,-1.0631044430309977,-0.0010689060025370878,-0.0017882056911816006,3.466580339253769e-07,0.00021264037949178627,9.428841218485022e-05,2.456726423769784e-06,0.0148551985621452,0.2920530438423157,-0.5083556771278381,-0.1683548092842102,-0.2165240794420242,-0.0986613184213638
1749042520.4903562,3.774888958163818,-2.5236568760316027,1.654764329156755,-2.735312253019973,-0.9128507009190767,-1.0631031076983861,-0.0017536264037460055,-0.0018311732696444974,-9.784526573434397e-06,0.00017497536112871622,5.7756281785528566e-05,-7.303324871551557e-07,0.0006210207939147,0.2766270637512207,-0.4932209253311157,-0.163143903017044,-0.2058438211679458,-0.0933818966150283
1749042520.4904044,3.774882874826008,-2.5236592032266603,1.6547635811816455,-2.7353130694491186,-0.9128489259935433,-1.0631021964814493,-0.0025488730528900588,-0.001829419628064256,-2.1591643489689143e-05,0.00011435273819672248,2.0601483665956554e-05,1.5918638499392304e-06,0.0101964101195335,0.2379898428916931,-0.5056747198104858,-0.1743092536926269,-0.2297824174165725,-0.0976359993219375
1749042520.4904442,3.7748754802902824,-2.5236609981985687,1.65476271221766,-2.7353138113717415,-0.9128471658416395,-1.0631017624375743,-0.0034456946274023918,-0.0017862078879529672,-3.417428396110561e-05,2.963617960521461e-05,-1.3572080299020037e-05,1.0277108165279132e-05,0.0032048597931861,0.2475037574768066,-0.4924418926239013,-0.1489553153514862,-0.2146577388048172,-0.0965949147939682
1749042520.4904828,3.774866748736272,-2.523662274113392,1.654761819707023,-2.7353144867520527,-0.912845455686011,-1.0631018096152292,-0.004431360873882957,-0.0017073227947840758,-4.629434123790175e-05,-7.788132905565295e-05,-4.056870147514472e-05,2.563263476583087e-05,-0.0189062282443046,0.2509107887744903,-0.4942657351493835,-0.1638667285442352,-0.2181626409292221,-0.1007549315690994
1749042520.4905205,3.774856638811328,-2.523663083264251,1.6547609965119914,-2.735315098382276,-0.9128438100344234,-1.0631022917597297,-0.005489963176382983,-0.0016001709592549855,-5.642857207966125e-05,-0.00020381899687261221,-5.594128696191006e-05,4.7204262782514645e-05,-0.0224271640181541,0.2488381266593933,-0.4938875436782837,-0.1467180550098419,-0.2230334430932998,-0.1042301505804061
1749042520.490558,3.7748450864180563,-2.523663509240659,1.6547603199160466,-2.735315639973586,-0.9128422236957248,-1.0631031185822664,-0.00660310930311765,-0.0014727462699473525,-6.286782249803942e-05,-0.0003401696690075585,-5.54585849615483e-05,7.357610031584377e-05,-0.0239609628915786,0.2520590126514435,-0.4973905086517334,-0.1631295680999755,-0.2372186332941055,-0.0960976332426071
1749042520.490596,3.7748320026106774,-2.523663654077283,1.6547598432126436,-2.735316092217401,-0.9128406768997127,-1.06310416925681,-0.007750677161547851,-0.0013326188302694637,-6.38649839454324e-05,-0.0004749721310228855,-3.5684278677216224e-05,0.00010220846288790636,-0.0492053292691707,0.2374214828014373,-0.4864280223846435,-0.1385339498519897,-0.2427921444177627,-0.1065585166215896
1749042520.4906335,3.774817277497393,-2.523663622318135,1.6547595910328705,-2.735316419063133,-0.9128391439205705,-1.063105311209216,-0.008911618451911789,-0.0011860807878952449,-5.782926104799033e-05,-0.0005922836936251997,5.3627028580715255e-06,0.0001293396093868048,-0.0501380711793899,0.2554406523704529,-0.4893325567245483,-0.1437405347824096,-0.2390747517347335,-0.0986485928297042
1749042520.4906714,3.7748007897360747,-2.5236635046613856,1.6547595587272013,-2.7353165644561472,-0.9128376039481676,-1.0631064210082835,-0.01006481140132893,-0.0010375390764374487,-4.3558987151681875e-05,-0.0006725292374109273,6.751376911946591e-05,0.00014997653987364757,-0.0600977092981338,0.265836089849472,-0.4907298684120178,-0.1333084106445312,-0.2548527419567108,-0.1028633862733841
1749042520.4907098,3.7747824199543274,-2.5236633639601793,1.6547597153027314,-2.7353164497607687,-0.91283605248131,-1.0631074037495907,-0.011189957494990481,-0.0008891970354755322,-2.049939610848787e-05,-0.0006932769799877081,0.0001477845087908194,0.00015799656714556357,-0.0670284926891326,0.2655830979347229,-0.5005055069923401,-0.1281183958053589,-0.2630188465118408,-0.1174908429384231
1749042520.4907472,3.774762065524345,-2.523663225851164,1.6547600090241879,-2.7353159719440145,-0.9128345112964699,-1.063108207855707,-0.012268505794546586,-0.0007410241552870762,1.0994017695630816e-05,-0.0006304530454539935,0.00023981065552409973,0.00014637374363683786,-0.0795361548662185,0.2805146872997284,-0.5170696973800659,-0.1161663457751274,-0.2648818492889404,-0.0947640091180801
1749042520.4907837,3.774739653834621,-2.5236630753407345,1.6547603747482005,-2.7353150024726482,-0.9128330352358552,-1.0631088334108774,-0.013284573032582833,-0.0005909797639188149,4.941097146598267e-05,-0.0004599585115374722,0.0003334653038750801,0.0001075321294915403,-0.0802357494831085,0.3209224343299866,-0.521268904209137,-0.127336323261261,-0.2757895588874817,-0.1203951984643936
1749042520.490821,3.7747151516409216,-2.5236628594914556,1.6547607420328263,-2.7353133870097928,-0.9128317147756971,-1.0631093335679018,-0.01422581094817869,-0.0004354321851193565,9.188867800679605e-05,-0.00015959785096832696,0.0004147337269936292,3.381218194111251e-05,-0.1271207630634308,0.3203702569007873,-0.5258268117904663,-0.0797106102108955,-0.2737061381340027,-0.1023932248353958
1749042520.490966,3.774688569054941,-2.523662495178983,1.654761042910177,-2.735310946342489,-0.9128306743730837,-1.063109809753709,-0.015084156490242176,-0.00026969894863257843,0.00013409018811772792,0.0002888275158007029,0.0004659104784791529,-8.19807044976635e-05,-0.1181192845106124,0.3129569292068481,-0.538399338722229,-0.094557411968708,-0.2888300716876983,-0.1189968138933181
1749042520.491006,3.774659957936997,-2.5236618800572974,1.6547612181462463,-2.735307479257555,-0.9128300675503466,-1.0631104020382474,-0.01585638861427089,-8.862614087382246e-05,0.00017018627239092848,0.0008974542936547072,0.00046616269873263095,-0.0002459925864401197,-0.1340862661600113,0.3508246839046478,-0.5189760327339172,-0.0893348529934883,-0.299955666065216,-0.1224097460508346
1749042520.4910426,3.7746294056850678,-2.5236609045524627,1.6547612210966556,-2.735302768086979,-0.9128300702930501,-1.0631112762142896,-0.016544413114213175,0.00011287343209280478,0.00019296295799779738,0.0016705439318564744,0.00039247415389967384,-0.0004627614190173385,-0.0983360558748245,0.3730451464653015,-0.5444909334182739,-0.0616592094302177,-0.3243679404258728,-0.1258528679609298
1749042520.491079,3.774597026344931,-2.523659462859067,1.6547610188101831,-2.735296587331075,-0.91283087448299,-1.0631126092308858,-0.01715521067716594,0.00033939254668872217,0.00019406760458090663,0.002603142652942101,0.00022094809095608492,-0.0007347455564742863,-0.1338866055011749,0.3746625185012817,-0.5415875911712646,-0.0499080345034599,-0.3262256383895874,-0.1274789720773697
1749042520.4911158,3.7745629512035137,-2.523657461419121,1.6547605904581129,-2.7352887152564325,-0.912832682677692,-1.063114574776826,-0.01770041730626945,0.0005947612804636299,0.00016439348040639387,0.0036803967266942827,-7.159323015581679e-05,-0.0010619991134023581,-0.1043294072151184,0.3808568716049194,-0.5519266128540039,-0.0602891519665718,-0.3480880260467529,-0.133034810423851
1749042520.4911532,3.774527320488675,-2.5236548240904475,1.654759923309746,-2.7352789477999595,-0.9128357046728162,-1.0631173308184902,-0.018195558803450893,0.0008819580039591282,9.45869396322835e-05,0.00487763029840815,-0.0005058130852115952,-0.0014420366157184216,-0.1008958667516708,0.3986185789108276,-0.5780405402183533,-0.0513648986816406,-0.3518810272216797,-0.1475022584199905
1749042520.4918149,3.7744902768456035,-2.5236514939843433,1.654759006589046,-2.735267113612633,-0.9128401553116543,-1.0631210105067073,-0.018659020135816523,0.0012031820550151742,-2.4356035539147846e-05,0.006161207776275383,-0.0010979995405752284,-0.0018699037030733823,-0.125534102320671,0.4073184132575989,-0.5892545580863953,-0.044992059469223,-0.366680771112442,-0.1531544476747512
1749042520.4938045,3.7744519603518563,-2.523647432551739,1.6547578239202523,-2.7352530887883506,-0.9128462523737986,-1.0631257170765285,-0.01911087612705528,0.0015600280892533065,-0.00020045370898639177,0.007490137107797895,-0.001858285242342609,-0.0023384405429153388,-0.1195694729685783,0.407007098197937,-0.6000378131866455,-0.029546320438385,-0.374953031539917,-0.1521741896867752
1749042520.5386138,3.7744125041920067,-2.5236426167160166,1.6547563455921663,-2.735236809782997,-0.9128542132428094,-1.0631315224399287,-0.019571726256873694,0.001953668426579155,-0.0004401252730025252,0.00881833548351444,-0.0027890949753305036,-0.0028386967909562882,-0.1648965775966644,0.4472672939300537,-0.6240962743759155,-0.0309735536575317,-0.4017806649208069,-0.1506911069154739
1749042520.538664,3.774372029733429,-2.523637034647297,1.654754522130836,-2.735218283076154,-0.9128642492616109,-1.0631384684171103,-0.020061661691367756,0.0023849472540080166,-0.0007476673757404332,0.010097456214145307,-0.003883964051779993,-0.003360438505927251,-0.1711906045675277,0.4593815207481384,-0.6327643394470215,-0.0229004174470901,-0.4075637459754944,-0.1268834620714187
1749042520.538705,3.7743306397003042,-2.52363068046073,1.6547522804227306,-2.7351975902073744,-0.9128765571063185,-1.0631465691329882,-0.020599455116032638,0.002854329562381139,-0.0011248796818888152,0.011280135222203022,-0.005126866202511495,-0.003892683897253737,-0.1731469482183456,0.4620970785617828,-0.6560126543045044,-0.0127419233322143,-0.4360816478729248,-0.1523280888795852
1749042520.538747,3.774288408685329,-2.523623548184168,1.6547495230620597,-2.735174887213153,-0.9128913072078307,-1.0631558131294117,-0.0212020113158977,0.003361707939560633,-0.0015708755751510492,0.01232344831321919,-0.006492177995938365,-0.004424217610941877,-0.1323799192905426,0.4692744612693786,-0.6523104906082153,-0.0273611918091774,-0.4289555549621582,-0.151137426495552
1749042520.5387871,3.774245371386821,-2.523615625879674,1.6547461310655946,-2.735150398401839,-0.9129086301682535,-1.063166164304181,-0.02188405604095839,0.003906115445408985,-0.002082080019052804,0.013192297306736392,-0.007945374361196621,-0.004944058307936405,-0.1725746542215347,0.4813785552978515,-0.6496649384498596,0.0047270730137825,-0.4307245016098022,-0.1671492606401443
1749042520.5388262,3.77420151019235,-2.5236068913671468,1.6547419697361816,-2.7351244054752875,-0.9129286029024453,-1.0631775617829091,-0.022657989220405274,0.004485404255351012,-0.0026523861316053742,0.013862398714855484,-0.009444491536116236,-0.0054418821376784,-0.17099529504776,0.4975997507572174,-0.6701369285583496,-0.0229722559452056,-0.4445621371269226,-0.1505429297685623
1749042520.538865,3.7741567443848445,-2.5235973110670344,1.6547368971597252,-2.735097233613814,-0.9129512365224096,-1.0631899198396677,-0.023533810134543847,0.0050959394920388704,-0.0032734331576529216,0.01432255556860976,-0.010942319059808482,-0.005908423035222056,-0.1843588054180145,0.5173782110214233,-0.6860254406929016,-0.0126020461320877,-0.4471323192119598,-0.167173758149147
1749042520.5389073,3.7741109231648364,-2.5235868429092005,1.6547307745100501,-2.73506923604565,-0.912976467686359,-1.0632031294617479,-0.02451904382473523,0.0057323476695718455,-0.003934985334683906,0.014575950931007244,-0.012389205809543606,-0.00633586952037092,-0.2048611640930175,0.5171443819999695,-0.6944957375526428,-0.0128872096538543,-0.4555395543575287,-0.1481011658906936
1749042520.5389457,3.774063824266748,-2.5235754432276805,1.6547234770326096,-2.735040778086127,-0.9130041544946673,-1.0632170627998292,-0.025618636827517846,0.006387357550462324,-0.0046254144030740945,0.01464029559396087,-0.013736293566155579,-0.006718256117385611,-0.1979741156101226,0.5064038038253784,-0.7066364884376526,-0.0192227959632873,-0.4246487617492676,-0.1548474729061126
1749042520.5389843,3.774015159531385,-2.5235630763705066,1.654714904321252,-2.7350122210495154,-0.91303407748485,-1.0632315807445807,-0.02683481867493705,0.007051771750068328,-0.005332290617025267,0.01454677765435129,-0.014938925297441372,-0.007051816825778337,-0.2356329560279846,0.5307831168174744,-0.7069428563117981,-0.0128780603408813,-0.4349051117897033,-0.1404591202735901
1749042520.5390227,3.7739645881532207,-2.5235497247671037,1.654704988393494,-2.7349839060922574,-0.913065946100257,-1.0632465427988738,-0.02816694037661395,0.0077146043840409725,-0.006043060038972526,0.014337887990159793,-0.015959920498526237,-0.007335244422906952,-0.2310243993997573,0.5346401333808899,-0.6967350840568542,-0.0182849615812301,-0.4394589066505432,-0.1554424166679382
1749042520.5390618,3.7739117370575523,-2.5235353968294962,1.654693698337501,-2.7349561380836556,-0.913099410850881,-1.0632618177861781,-0.029611315707293296,0.008363413076693518,-0.006745749164660493,0.014064319278270959,-0.016772383490765663,-0.007569793535350987,-0.2399757951498031,0.5630011558532715,-0.7089754939079285,-0.0302827060222625,-0.4268179535865783,-0.1427435576915741
1749042520.5390992,3.7738562261899866,-2.523520130589606,1.654681041036289,-2.734929169942461,-0.9131340807561887,-1.0632772938438213,-0.03116111068287281,0.00898484030256198,-0.007429616477815244,0.013781235734783742,-0.01736172933754647,-0.007759179028161818,-0.2333731204271316,0.5469260215759277,-0.721489667892456,0.0002377554774284,-0.4197836518287658,-0.1627030372619629
1749042520.539136,3.773797695206555,-2.523503992249524,1.654667058304218,-2.7349031882198958,-0.9131695446608623,-1.0632928863989362,-0.03280634283893302,0.009565353736779544,-0.00808567221029508,0.013544268105076427,-0.017726682494787458,-0.007909250528965399,-0.2683118283748626,0.5482687950134277,-0.7194807529449463,-0.0167845636606216,-0.3936616778373718,-0.152097076177597
1749042520.5391726,3.7737358277249413,-2.523487070246929,1.6546518212074444,-2.7348783007775324,-0.9132053942894637,-1.0633085432502065,-0.034534055283749164,0.01009213921702873,-0.008707005793820598,0.013405598833358345,-0.01787912046888234,-0.008027463217438805,-0.2776369154453277,0.5869583487510681,-0.7155482769012451,0.0051895529031753,-0.4099315404891968,-0.1599773168563842
1749042520.5392094,3.773670369923168,-2.523469466390453,1.6546354224018185,-2.734854527237111,-0.9132412468649999,-1.0633242463739985,-0.03632871780653225,0.01055406460912584,-0.009288889204252925,0.013410469953056916,-0.017842781394140264,-0.008122205714720424,-0.2647079229354858,0.5831767320632935,-0.7152461409568787,0.0153620466589927,-0.413241446018219,-0.1686365604400634
1749042520.5392463,3.7736011415356208,-2.5234512859500136,1.6546179674005075,-2.734831792732115,-0.9132767655811838,-1.06334001051377,-0.03817288013177908,0.010942610424342915,-0.009828662143022783,0.013594376980970648,-0.01765100114247193,-0.008202074681152641,-0.2889991402626037,0.6020999550819397,-0.7284638285636902,0.0186433717608451,-0.3855847716331482,-0.1602441519498825
1749042520.5392833,3.7735280388645336,-2.523432628531811,1.6545995658495358,-2.7348099255311547,-0.9133116768125686,-1.0633558789198536,-0.04004806481994399,0.011252658590966875,-0.010325447410554472,0.01398111713387387,-0.017343759715531433,-0.008275190103117428,-0.2922776937484741,0.6125302314758301,-0.7319267988204956,0.0156885236501693,-0.3973376750946045,-0.1517058759927749
1749042520.53932,3.773451030873958,-2.5234135812797747,1.6545803238356,-2.7347886592539297,-0.9133457834085245,-1.0633719167833438,-0.04193584552960364,0.011483044249579343,-0.010779779201821766,0.014581759774830921,-0.016964376260133893,-0.008348623090918522,-0.3175754845142364,0.601280152797699,-0.7381396889686584,0.0268749669194221,-0.390419065952301,-0.1478164345026016
1749042520.5393574,3.773370150235958,-2.5233942153482762,1.654560337873254,-2.7347676404439594,-0.9133789735229001,-1.0633882029910673,-0.04381901651802479,0.011636802275656371,-0.011193237585906346,0.015394522496851807,-0.01655619371873609,-0.00842797019700535,-0.2768161594867706,0.6177995204925537,-0.7450255155563354,0.0160794481635093,-0.3897817134857178,-0.1563721150159835
1749042520.5393949,3.7732854810989935,-2.5233745856477205,1.6545396907679626,-2.7347464419328453,-0.9134112241768606,-1.0634048208868732,-0.04568272660580216,0.011721072051393446,-0.011568162811053714,0.0164054792124913,-0.016159552877198845,-0.008517072412912271,-0.3194326758384704,0.5903290510177612,-0.7479204535484314,0.0296899378299713,-0.3961466550827026,-0.157500758767128
1749042520.539431,3.773197144708687,-2.523354732845793,1.654518449235674,-2.7347245815976176,-0.9134425986648136,-1.0634218487792302,-0.04751543323697973,0.01174665640236843,-0.011907482098604684,0.017589995926834325,-0.01580929501025589,-0.008617858942487669,-0.3049130439758301,0.626143217086792,-0.7447420954704285,0.0767952799797058,-0.3814618289470672,-0.159230962395668
1749042520.539836,3.7731052835266787,-2.5233346860501586,1.654496662994676,-2.73470154506321,-0.9134732375598525,-1.0634393509411937,-0.049309541607647854,0.011727267400121096,-0.012214635694682369,0.018914773244675387,-0.01553296793873525,-0.008730302426196114,-0.2880970239639282,0.6358063817024231,-0.7451712489128113,0.042120061814785,-0.3881121575832367,-0.1551397293806076
1749042520.5417864,3.77301004448362,-2.5233144648809893,1.6544743650529967,-2.734676810223059,-0.913503344271911,-1.0634573698498835,-0.05106163858417995,0.011678534427100998,-0.012493553874953975,0.020340354345695897,-0.015349843003161532,-0.008852496208166366,-0.3375333845615387,0.6114562153816223,-0.7371951341629028,0.0428304597735405,-0.4009289145469665,-0.1635289043188095
1749042520.5863006,3.7729115622134572,-2.5232940805278345,1.654451573094931,-2.7346498714763467,-0.913533167166095,-1.06347592045543,-0.05277230241892429,0.011616887127164814,-0.01274862396724904,0.02182392496259171,-0.015270777179158408,-0.008980885545861347,-0.3434807360172272,0.6443802118301392,-0.7509203553199768,0.051647201180458,-0.3962287306785583,-0.1493008583784103
1749042520.5863469,3.772809943263886,-2.523273536190181,1.6544282920147515,-2.7346202621396465,-0.9135629807280036,-1.0634949871424628,-0.05444553713860782,0.01155844251059464,-0.012984598606647784,0.023322199696247124,-0.015298876084432866,-0.009110682791910586,-0.3085797131061554,0.6567578911781311,-0.7431334257125854,0.0659887045621872,-0.3906089961528778,-0.1771871298551559
1749042520.5863893,3.7727052524008293,-2.5232528275631,1.654404517520948,-2.7345875742006807,-0.9135930680703762,-1.0635145235813697,-0.056087918856235916,0.011518019208002784,-0.013206423643185482,0.024794177150376222,-0.015430830705213689,-0.009236465489740551,-0.3085784614086151,0.6587169170379639,-0.7570353746414185,0.0531971864402294,-0.3905735909938812,-0.1404795199632644
1749042520.5864282,3.7725975022845843,-2.523231943784869,1.6543802404255383,-2.734551475139719,-0.91362370623221,-1.0635344551934751,-0.0577075569655312,0.011508380124311454,-0.01341899218623364,0.02620356411854,-0.015658716762930524,-0.009352908709708962,-0.4041723310947418,0.6886821389198303,-0.7425198554992676,0.0660421997308731,-0.401770532131195,-0.1615892201662063
1749042520.5864668,3.7724866478475834,-2.523210868748473,1.6543554510348355,-2.7345117217377686,-0.9136551545142501,-1.0635546838894943,-0.059312989329113434,0.011539769747155287,-0.013626851405978762,0.027520710805799913,-0.015971977890070856,-0.009455560529747302,-0.3707520365715027,0.7124456763267517,-0.7518631815910339,0.0862534269690513,-0.4067522287368774,-0.137016013264656
1749042520.586511,3.7723725865256568,-2.5231895821265344,1.6543301430864032,-2.734468170519988,-0.9136876451312786,-1.0635750949492528,-0.06091214520688241,0.011619761134967106,-0.013833899555126572,0.028723952158971264,-0.016359288560348004,-0.009541550259199491,-0.3762605786323547,0.7061706781387329,-0.751465380191803,0.0743380337953567,-0.388868510723114,-0.1594143658876419
1749042520.58655,3.772255165112537,-2.523168059139714,1.6543043167926585,-2.7344207839278463,-0.9137213753132545,-1.063595565976271,-0.06251150061999347,0.011753366617420836,-0.014043114845538588,0.029800301854272536,-0.01681002505038573,-0.009610128683595101,-0.3516602516174316,0.6995331048965454,-0.7503664493560791,0.0819805562496185,-0.3926009237766266,-0.1653018593788147
1749042520.586587,3.7721341934031627,-2.523146268264538,1.6542779806212742,-2.734369630919352,-0.9137565007261005,-1.0636159776357261,-0.06411551599591793,0.011943318082057907,-0.014256358507674817,0.030745489160998264,-0.01731515643948871,-0.009662969146413534,-0.3944399654865265,0.7168575525283813,-0.7512471079826355,0.0714245960116386,-0.3918975293636322,-0.1573936939239502
1749042520.5866237,3.7720094638827795,-2.523124166772999,1.6542511515221232,-2.7343148808191553,-0.9137931310717322,-1.0636362254829699,-0.06572640424795513,0.012190412068728443,-0.014474292667711039,0.03156336958401399,-0.017867483940331972,-0.009704190119151768,-0.3660756647586822,0.7322112917900085,-0.7687029242515564,0.0867180228233337,-0.3989104926586151,-0.1619174480438232
1749042520.5866606,3.77188077562103,-2.52310169494819,1.654223853548263,-2.7342567898935206,-0.9138313290333235,-1.0636562317860763,-0.06734423508118936,0.01249384545283132,-0.014696446456753474,0.032264786006157634,-0.018461284698095017,-0.00974008376796616,-0.3843978941440582,0.7395462393760681,-0.7878848314285278,0.0873381942510604,-0.4030464589595794,-0.151860699057579
1749042520.586697,3.7717479595863797,-2.523078770541888,1.654196115222173,-2.734195681109862,-0.9138711130025671,-1.0636759559872913,-0.0689673311873927,0.012851516209411487,-0.014921444359700043,0.03286600614060477,-0.019091535543656616,-0.009778557764163524,-0.3710001707077026,0.7417522072792053,-0.7568618059158325,0.0894791260361671,-0.4246658384799957,-0.1521857231855392
1749042520.5867338,3.7716109021116857,-2.5230552851385553,1.6541679663493407,-2.734131918613517,-0.9139124628492103,-1.063695402353241,-0.07059286277735231,0.013260300007839666,-0.015147375812306726,0.033386899537751764,-0.019752980130096992,-0.009828334436124792,-0.4134215414524078,0.7905202507972717,-0.7551068067550659,0.0989840775728225,-0.4257001280784607,-0.1715148240327835
1749042520.58677,3.771469563344733,-2.5230311035802826,1.6541394350442793,-2.7340658793746493,-0.9139553272989497,-1.0637146233818848,-0.07221752124804161,0.0137163216028743,-0.015372243834358692,0.033849026713002155,-0.020439330349520352,-0.009898004977482144,-0.3948889970779419,0.7663633227348328,-0.7652511596679688,0.0893084555864334,-0.4204635620117187,-0.1540770232677459
1749042520.586807,3.771323988172816,-2.5230060669249554,1.654110545536807,-2.7339979250717628,-0.913999631668233,-1.063733717808468,-0.07383815825764911,0.014215225071812698,-0.015594403866048804,0.03427379169752318,-0.021142837495733414,-0.00999508491000114,-0.4210926592350006,0.7771230936050415,-0.7626540660858154,0.0971224755048751,-0.4283417165279388,-0.1578728854656219
1749042520.5868433,3.7711743081260036,-2.522979998947772,1.65408131712019,-2.7339283774897742,-0.9140452853121448,-1.0637528228477442,-0.07545229981593256,0.014752425112135738,-0.015812906817154238,0.034680772818746444,-0.02185434031183041,-0.01012522897116068,-0.4042431116104126,0.7624261379241943,-0.7686948776245117,0.1031659245491027,-0.401579350233078,-0.1737851798534393
1749042520.586879,3.7710207338749675,-2.5229527158813263,1.6540517645216402,-2.733857500356057,-0.9140921884505244,-1.0637721015437824,-0.0770584713076285,0.015323309029923005,-0.016027688229825192,0.035086315586832416,-0.022563745220072675,-0.010291728552610444,-0.3651347756385803,0.7897409200668335,-0.7514413595199585,0.0997359007596969,-0.4262209832668304,-0.1790854930877685
1749042520.586915,3.770863538967789,-2.522924038647541,1.6540218998450558,-2.7337854895528544,-0.9141402379334664,-1.063791727237985,-0.0786562953186649,0.015923364485018816,-0.016239582906903246,0.03550245685288163,-0.0232607804744227,-0.010495352020606126,-0.399107277393341,0.7787458300590515,-0.767666220664978,0.0839809030294418,-0.4076719582080841,-0.1745396852493286
1749042520.586951,3.770703036376554,-2.5228938062744244,1.653991735813821,-2.733712472312286,-0.9141893314997603,-1.0638118677024335,-0.08024635564239933,0.01654822937495879,-0.01645017995218212,0.03593624619124098,-0.02393582848379603,-0.010734524746891532,-0.4442414045333862,0.7993873357772827,-0.7695003151893616,0.1038065776228904,-0.4057499766349792,-0.1776305139064788
1749042520.5869868,3.7705395502901102,-2.522861888742576,1.6539612893950049,-2.7336385147517417,-0.9142393704683827,-1.0638326713120874,-0.08182985892766927,0.0171936853624895,-0.016661562025071873,0.036389523825930595,-0.024580675973163373,-0.01100579466039169,-0.3790832459926605,0.8265450596809387,-0.7717732191085815,0.0971806496381759,-0.4149622619152069,-0.1870493590831756
1749042520.5870228,3.770373386334162,-2.5228281973413296,1.6539305844095544,-2.7335636361299747,-0.9142902613391817,-1.0638542569398644,-0.08340815786949213,0.017855631029588523,-0.016875990830609436,0.03685918987884018,-0.025189095621889115,-0.011304490051681739,-0.4413498044013977,0.819388210773468,-0.7749166488647461,0.0968170911073684,-0.4110843539237976,-0.1846379339694976
1749042520.5870624,3.7702048038095524,-2.52279269083518,1.6538996517906965,-2.7334878274086924,-0.9143419171291157,-1.063876708318209,-0.08498221856687364,0.018530067952398446,-0.017095604422562978,0.03733795396474366,-0.025757244724073602,-0.011625447879040943,-0.3790247440338135,0.7908968329429626,-0.7772606611251831,0.0982276946306228,-0.4112021327018738,-0.1541330814361572
1749042520.5870996,3.770033993295391,-2.522755376359118,1.6538685267615132,-2.7334110710297215,-0.9143942592984244,-1.063900072705947,-0.08655212894591895,0.019213118127352696,-0.01732218063162485,0.03781549780188838,-0.026283910232250865,-0.01196368089756505,-0.3943452835083008,0.8263785243034363,-0.7852860689163208,0.0942587405443191,-0.4128945767879486,-0.1762033700942993
1749042520.587746,3.7698610618693738,-2.5227163047769765,1.6538372430617914,-2.733333358473083,-0.9144472208672935,-1.0639243631392943,-0.08811675911036343,0.0199010749137445,-0.017557000748253886,0.03827993356380393,-0.026770639189903953,-0.012314873221844849,-0.4022853076457977,0.8077841997146606,-0.7847325801849365,0.1070562452077865,-0.4248932898044586,-0.1747168004512787
1749042520.5897644,3.7696860265755032,-2.5226755610036595,1.653805825146067,-2.733254702494157,-0.9145007509850592,-1.0639495634810032,-0.08967368153906358,0.020590479965171687,-0.017800826123092313,0.038719410637122795,-0.02722177720820026,-0.012675645915908256,-0.427289068698883,0.8199105262756348,-0.7895520925521851,0.0930332690477371,-0.4185853004455566,-0.1740765273571014
1749042520.6303325,3.769508815376274,-2.5226332504520856,1.6537742798453128,-2.7331751420323807,-0.9145548209094756,-1.0639756356989987,-0.09121942355424138,0.02127821619263699,-0.01805398014206282,0.03912371696988729,-0.02764441054458383,-0.013043594888317628,-0.4073688089847564,0.8173303008079529,-0.7875155210494995,0.0932111591100692,-0.4159530401229858,-0.1722260862588882
1749042520.6303809,3.7693292740777355,-2.522589483319101,1.6537425892139415,-2.7330947392946623,-0.9146094309063041,-1.06400252888921,-0.09275005972349559,0.021961607206845268,-0.01831650755164617,0.039485730998301494,-0.0280481851260415,-0.013417146021258248,-0.3945054411888122,0.8128499984741211,-0.7634717226028442,0.0862291008234024,-0.4276194274425506,-0.1547158658504486
1749042520.6304336,3.7691471774087746,-2.52254435877379,1.6537107059919998,-2.7330135699646956,-0.9146646169055455,-1.064030189322376,-0.09426207461363724,0.02263851203635564,-0.01858836587436545,0.03980259357290551,-0.02844496698885463,-0.013795289042963406,-0.4032234251499176,0.801531195640564,-0.7796439528465271,0.0926309674978256,-0.4227698445320129,-0.1663383841514587
1749042520.6304758,3.7689622424717655,-2.5224979511780514,1.653678552312514,-2.7329317086208316,-0.914720455272572,-1.0640585704301802,-0.09575335959039194,0.02330739766994932,-0.018869601083748428,0.04007647962037485,-0.028848311699282973,-0.014177254380466013,-0.411899209022522,0.8179726600646973,-0.7888963222503662,0.0967039167881012,-0.4209306836128235,-0.1820304989814758
1749042520.630515,3.768774143466731,-2.522450300244072,1.6536460214276123,-2.7328492122367853,-0.9147770642658487,-1.0640876413866345,-0.09722417161832685,0.0239673632665083,-0.019160479133974857,0.04031486268152915,-0.02927272187971252,-0.014562197803396515,-0.4162907004356384,0.7989481687545776,-0.7977433204650879,0.0772424414753913,-0.4284761250019073,-0.1711058318614959
1749042520.6305532,3.7685825278860534,-2.5224014065428952,1.6536129818883964,-2.7327661050194645,-0.9148346015432949,-1.0641173928203014,-0.09867788128455342,0.024618086197579762,-0.019461576080104293,0.04053019508605268,-0.029732695215631967,-0.014948952967710798,-0.3709047138690948,0.7863336801528931,-0.8145570755004883,0.0693673864006996,-0.4137522578239441,-0.1610931754112243
1749042520.6305912,3.7683870354830873,-2.522351233167417,1.6535792838514758,-2.7326823675845784,-0.9148932578032168,-1.064147838245063,-0.10012136042491641,0.025259669203751372,-0.01977384887329962,0.0407389801395896,-0.03024160645901473,-0.015335894471432491,-0.4227356016635895,0.7955438494682312,-0.8086940050125122,0.059356652200222,-0.4526073336601257,-0.1742375195026397
1749042520.630628,3.7681873213302364,-2.5222997137638816,1.653544767487407,-2.7325979325279395,-0.9149532468613086,-1.0641790102604372,-0.101564899669931,0.025892390423784137,-0.020098700595512314,0.04096028889114582,-0.030810522027946447,-0.015720927677471873,-0.4196988046169281,0.8149645328521729,-0.8182386755943298,0.0749207064509391,-0.4466172158718109,-0.1662125289440155
1749042520.630669,3.7679830828941836,-2.522246766431827,1.6535092733656633,-2.732512687149956,-0.9150147924790858,-1.0642109516519536,-0.10302160703162518,0.02651638499054106,-0.02043802572953676,0.04121386547762516,-0.03144709498012916,-0.01610159756556931,-0.400232195854187,0.8041155338287354,-0.8261527419090271,0.0808512866497039,-0.4395971596240997,-0.1670240461826324
1749042520.6307087,3.767774088570614,-2.522192311916455,1.6534726541229345,-2.7324264827968583,-0.9150781127698943,-1.0642437030257013,-0.10450632169145292,0.02713130659556605,-0.02079419918380395,0.04151805612991546,-0.03215470637203247,-0.016475291797633893,-0.400232195854187,0.8041155338287354,-0.8261527419090271,0.0808512866497039,-0.4395971596240997,-0.1670240461826324
1749042520.6307468,3.7675602023719508,-2.5221362932738747,1.653434785878097,-2.7323391490833733,-0.9151434040617389,-1.064277289958212,-0.10603417106919671,0.027736026162535784,-0.021169977913736076,0.04188785933485072,-0.03293199307898801,-0.016839501349567715,-0.4306335747241974,0.79139643907547,-0.8343474864959717,0.0772137492895126,-0.4379026889801025,-0.1502958536148071
1749042520.630784,3.7673413981458657,-2.5220786934434343,1.6533955771557294,-2.7322505103592842,-0.915210826733761,-1.0643117131443272,-0.10761898101636566,0.02832842638462761,-0.02156831141976305,0.04233339621576313,-0.03377283686661774,-0.01719209622328239,-0.4416262507438659,0.8008239269256592,-0.8500058650970459,0.0797552913427352,-0.4274307787418365,-0.1766798794269561
1749042520.6308205,3.7671177587246554,-2.522019547515358,1.653354973141419,-2.732160401747865,-0.9152804948776762,-1.064346944226952,-0.10927178736528362,0.028905343298909123,-0.021992083108684595,0.042859027065407715,-0.03466680420087741,-0.01753157516357402,-0.443459153175354,0.7873058319091797,-0.8216957449913025,0.0812104642391204,-0.4324278533458709,-0.1591511964797973
1749042520.6308565,3.766889460465549,-2.521958947881305,1.653312954197981,-2.7320686831118435,-0.9153524700172332,-1.0643829281054302,-0.11099966962542152,0.029462680400494573,-0.022443811847398503,0.0434632128913779,-0.035599951909413646,-0.017857253411088674,-0.4106990993022918,0.7813107371330261,-0.8474791646003723,0.0799349322915077,-0.4271599650382995,-0.1640119552612304
1749042520.630893,3.7666567483963687,-2.5218970421272697,1.6532695292170325,-2.7319752505694965,-0.9154267578337896,-1.0644195905092717,-0.11280504500548562,0.02999568018394965,-0.02292533940178723,0.04413908594351124,-0.03655588171150955,-0.018169357526619617,-0.4426369965076446,0.7804695963859558,-0.850457489490509,0.0950171872973442,-0.4537487626075744,-0.1690703183412552
1749042520.6309297,3.766419908504317,-2.5218340246958095,1.6532247257502874,-2.73188004565191,-0.9155033068158571,-1.0644568484816475,-0.11468546229731921,0.030499302457878075,-0.023437532103867696,0.044875588508094144,-0.0375169439502206,-0.01846900321527306,-0.4109702408313751,0.7727919816970825,-0.8578482270240784,0.0734534561634063,-0.4425540268421173,-0.1797759979963302
1749042520.6309657,3.7661792418903905,-2.5217701238847976,1.6531785795228042,-2.7317830618084162,-0.9155820087967261,-1.064494621330983,-0.11663385595951042,0.030968645054562295,-0.02398003541467043,0.045658973262024165,-0.03846553044600199,-0.018758046214348702,-0.4234875738620758,0.7895922660827637,-0.8665521144866943,0.0784976482391357,-0.4437191188335418,-0.1653218120336532
1749042520.6310022,3.76593504304141,-2.5217055859625748,1.6531311257743835,-2.7316843475105017,-0.9156627025079588,-1.0645328400837393,-0.11863917417725445,0.03139935114663541,-0.024551122165736305,0.046474429311653034,-0.0393854183744516,-0.019038820342894006,-0.4170837998390198,0.7899221777915955,-0.8547198176383972,0.0801599100232124,-0.4564424455165863,-0.1689209938049316
1749042520.631039,3.765687582958159,-2.521640658241478,1.6530823939578971,-2.731584005192516,-0.9157451816451577,-1.064571454073971,-0.12068727838878501,0.03178796911400626,-0.025147659196435912,0.04730761664005702,-0.04026310796988788,-0.019313805838086447,-0.4220809936523437,0.7785810232162476,-0.8598817586898804,0.0831116065382957,-0.4529822766780853,-0.1762937903404235
1749042520.6310756,3.7654370972709983,-2.521575572830077,1.6530324060498196,-2.7314821855281455,-0.9158292082880352,-1.0646104339773719,-0.1227620168866274,0.03213225365707043,-0.025765192499858872,0.048145962536334075,-0.04108904264648973,-0.019585292262442985,-0.473533034324646,0.8153343200683594,-0.8664438724517822,0.1063767224550247,-0.445482075214386,-0.1776610016822815
1749042520.6317494,3.7651837790986566,-2.521510532432327,1.6529811777033456,-2.731379076787361,-0.9159145312461038,-1.064649771380971,-0.12484638697247906,0.03243140755811796,-0.026398134794080225,0.04897966465996324,-0.0418585411833959,-0.019855101980127965,-0.4091320037841797,0.7724775075912476,-0.8759415745735168,0.1010965853929519,-0.4210014343261719,-0.1676375418901443
1749042520.6337552,3.764927775813027,-2.521445699023368,1.652928720935103,-2.7312748893414844,-0.9160009075862278,-1.064689475773494,-0.12692370490648597,0.03268625619154609,-0.027040036396500152,0.049802403781675476,-0.042572245129926106,-0.020124422834749394,-0.4469896852970123,0.7765697240829468,-0.8549623489379883,0.0868764370679855,-0.4194332361221313,-0.1943359971046447
1749042520.6783082,3.7646691881421677,-2.5213811856335546,1.6528750468488134,-2.7311698359747854,-0.9160881247096517,-1.0647295704026234,-0.12897870245919357,0.03289933144236003,-0.027683920965327423,0.05061176835362042,-0.04323591633361804,-0.02039377260718338,-0.4385420680046081,0.776366114616394,-0.8456951975822449,0.0727685987949371,-0.4078093767166137,-0.183437779545784
1749042520.678353,3.7644080696837836,-2.521317051048417,1.6528201670757097,-2.7310641093961947,-0.9161760201339173,-1.0647700884561662,-0.13099847776858442,0.033074837080755544,-0.02832266362026322,0.05140935599548444,-0.04385951268834923,-0.020663093124775673,-0.414349764585495,0.774080216884613,-0.8670133948326111,0.0809968337416648,-0.4323534369468689,-0.1688454151153564
1749042520.6783938,3.764144425434434,-2.5212532972980157,1.6527640933380185,-2.730957859016521,-0.916264496427741,-1.064811070316133,-0.13297324718794973,0.03321848325310745,-0.028949382344585762,0.05220049442474689,-0.04445560108866502,-0.020931951725914676,-0.4345236122608185,0.7767585515975952,-0.8632860779762268,0.0824402719736099,-0.4287789762020111,-0.1794530749320984
1749042520.678447,3.763878209551931,-2.5211898704061917,1.6527068356823194,-2.7308511697212046,-0.9163535290453058,-1.0648525615453261,-0.13489685507511665,0.03333720501257118,-0.029557810859686943,0.0529935502530386,-0.0450372955973215,-0.021199810609324878,-0.4194703996181488,0.802104115486145,-0.882051408290863,0.0895056426525116,-0.4228451251983642,-0.1910327225923538
1749042520.6784894,3.7636093247271205,-2.52112666542973,1.652648400869687,-2.7307440459636876,-0.9164431649637391,-1.0648946105735664,-0.13676699316792787,0.033438802883073736,-0.03014262468469536,0.05379886037755654,-0.04561600659147808,-0.021466311872157456,-0.4194703996181488,0.802104115486145,-0.882051408290863,0.0895056426525116,-0.4228451251983642,-0.1910327225923538
1749042520.6785278,3.7633376266759204,-2.5210635365810172,1.6525887924582514,-2.7306364043822517,-0.9165335107329103,-1.064937265283258,-0.1385850827628198,0.03353155348662379,-0.030699700351818085,0.05462739376634611,-0.046199345691094906,-0.021731524188244537,-0.4426804184913635,0.7981036305427551,-0.8554757833480835,0.0987625867128372,-0.4265258610248565,-0.1722016632556915
1749042520.6785653,3.7630629358691077,-2.52100031208916,1.6525280130756692,-2.7305280767148377,-0.9166247105400729,-1.0649805685784106,-0.14035580562833033,0.03362383637565152,-0.031226297873891796,0.05548930455524554,-0.04678954824814922,-0.02199610879120939,-0.3980084955692291,0.8262618184089661,-0.8690272569656372,0.0950600802898407,-0.4286367893218994,-0.1788022518157959
1749042520.6786025,3.7627850553222526,-2.5209368120658486,1.6524660679345526,-2.730418822529536,-0.9167169176849955,-1.0650245537822078,-0.14208632920663458,0.033723814690392546,-0.03172116445124119,0.05639256009676293,-0.047382730255772984,-0.022261381429552796,-0.4808586239814758,0.8574475646018982,-0.8615260720252991,0.0902037173509597,-0.4359742403030395,-0.1751390993595123
1749042520.6786394,3.7625037905459777,-2.5208728666738622,1.6524029679577266,-2.7303083493965907,-0.9168102649249267,-1.0650692408294846,-0.1437853321545248,0.03383919563617866,-0.03218456014104009,0.05734181603243585,-0.047969164971759674,-0.022529265049424402,-0.4210736155509949,0.8153675198554993,-0.8632940053939819,0.0966337770223617,-0.4244035184383392,-0.1649230867624282
1749042520.678677,3.762218967231655,-2.5208083315747083,1.6523387314710527,-2.7301963372764364,-0.916904839411401,-1.0651146338107083,-0.14546197521491477,0.033977081315607754,-0.03261820524872754,0.05833766594320598,-0.04853455676080044,-0.022802142793264295,-0.4547811448574066,0.8520799279212952,-0.8458746671676636,0.1083963587880134,-0.4204418063163757,-0.1813172698020935
1749042520.678714,3.7619304435438314,-2.520743098010279,1.6522733846259936,-2.7300824639541346,-0.9170006665620707,-1.065160719973622,-0.14712496956479312,0.034143899291194206,-0.03302514818039998,0.05937632753132765,-0.04906206947816372,-0.023082634195210134,-0.4882561564445495,0.8182032108306885,-0.8718723654747009,0.0964931324124336,-0.3933227062225342,-0.1835905313491821
1749042520.678751,3.7616381158284704,-2.5206770959885705,1.6522069614344252,-2.72996642898001,-0.9170977049888317,-1.065207470205427,-0.14878186651947867,0.03434538108502749,-0.03340955339456223,0.06044975868050787,-0.0495347134095342,-0.02337332866556184,-0.4334559738636017,0.8487957715988159,-0.859856903553009,0.0991407260298729,-0.4036643505096435,-0.1823331415653228
1749042520.6787877,3.7613419181734855,-2.5206102905997314,1.6521395040380578,-2.7298479744862285,-0.9171958521865486,-1.0652548413000842,-0.1504386343548539,0.03458655142168861,-0.03377641274966446,0.06154614222257937,-0.049937651351079825,-0.023676515559618295,-0.4316815733909607,0.8739398717880249,-0.856136679649353,0.077564924955368,-0.3629271984100342,-0.1899581253528595
1749042520.6788237,3.7610418171469617,-2.520542672852487,1.6520710629979298,-2.7297269020380397,-0.9172949585102991,-1.0653027805483979,-0.15209951989758252,0.034871710382438116,-0.0341311907772955,0.06265065391133197,-0.05026005019442148,-0.02399394716741221,-0.4554925560951233,0.8545457124710083,-0.865759551525116,0.1213434338569641,-0.3727536201477051,-0.1867380440235138
1749042520.6788604,3.7607378033994476,-2.5204742471763875,1.652001696787349,-2.72960308501972,-0.9173948455556086,-1.0653512329066628,-0.1537671378847753,0.035204418327307,-0.03447942348383727,0.06374644157922311,-0.050496255180680426,-0.024326662982879728,-0.3939852714538574,0.9029557108879088,-0.8683276772499084,0.115250363945961,-0.383579671382904,-0.1834984123706817
1749042520.6788964,3.760429882059525,-2.520405017969984,1.6519314697907075,-2.729476476045354,-0.9174953248809041,-1.065400150115111,-0.15544270088606227,0.035587501274060865,-0.03482629556755767,0.06481577442211618,-0.050646255075836144,-0.02467489524004002,-0.4614942967891693,0.8951159119606018,-0.8520898222923279,0.1121798530220985,-0.3906980156898498,-0.1776315867900848
1749042520.678933,3.760118063961534,-2.520334977471865,1.6518604488084094,-2.7293471089195576,-0.9175962140760962,-1.0654495000658493,-0.1571262974690326,0.036023074843357754,-0.035176219854010565,0.06584132596187794,-0.05071557121060958,-0.025038067180573383,-0.44685760140419,0.8832303881645203,-0.8511063456535339,0.0860508829355239,-0.393601506948471,-0.1983408778905868
1749042520.6789691,3.7598023594473355,-2.5202640967218493,1.651788698843924,-2.729215094971071,-0.9176973489388525,-1.065499274111184,-0.1588171489391434,0.036512556783052715,-0.03553244488820063,0.06680750877956108,-0.050714782133160476,-0.025414883537656578,-0.4405323565006256,0.8718683123588562,-0.8676013350486755,0.0969863906502723,-0.4028550386428833,-0.1710454821586609
1749042520.679006,3.7594827757703975,-2.520192320489613,1.6517162793406621,-2.729080613997148,-0.9177985921727049,-1.0655494902636902,-0.1605138227203633,0.03705662649356899,-0.03589673435127055,0.06770171208184331,-0.05065887828761863,-0.025803496017925292,-0.4585341215133667,0.9241503477096558,-0.8764040470123291,0.0789782553911209,-0.3707853555679321,-0.1718413680791854
1749042520.6790426,3.7591593181956338,-2.520119566205462,1.6516432418599973,-2.728943900381508,-0.9178998399199008,-1.0656001912471689,-0.16221442930977112,0.03765510700468318,-0.036269184044567145,0.06851526245660891,-0.05056657077422406,-0.02620170794613204,-0.4689194560050964,0.9158782958984376,-0.866219162940979,0.0882642269134521,-0.3971458077430725,-0.2075482606887817
1749042520.6790788,3.758831993860862,-2.5200457265040503,1.65156962963678,-2.728805225249328,-0.9180010274110565,-1.0656514376544073,-0.1639168473993772,0.03830677904116069,-0.03664823341788452,0.06924397159161656,-0.05045960904919001,-0.02660716773337873,-0.4680413007736206,0.9036250710487366,-0.8640958070755005,0.1152275055646896,-0.3968474864959717,-0.1798745989799499
1749042520.6791153,3.758500816567911,-2.5199706748620914,1.6514954789001173,-2.728664876003966,-0.9181021343466452,-1.0657032976119643,-0.16561899530186397,0.03900916220938261,-0.03703087336181551,0.06988823921385025,-0.050362118073385406,-0.027017499676296845,-0.4497606158256531,0.8969428539276123,-0.8307234048843384,0.1079630106687545,-0.4008240699768066,-0.1864121705293655
1749042520.679753,3.758165810363321,-2.519894273649522,1.65142082147998,-2.728523135149596,-0.9182031898099164,-1.0657558350557208,-0.16731911115815423,0.039758304803333845,-0.03741298426471878,0.07045278698301505,-0.0502999372331495,-0.02743034083897775,-0.4979190230369568,0.928376317024231,-0.8411899209022522,0.0840012282133102,-0.4043648838996887,-0.1712912172079086
1749042520.681781,3.7578270103247924,-2.519816383607549,1.6513456879064463,-2.728380260500308,-0.9183042760267536,-1.0658090988966193,-0.16901595592900298,0.04054862588942435,-0.0377897105683571,0.07094615056575478,-0.050299916570237205,-0.02784329085200868,-0.4634943902492523,0.945220708847046,-0.8465912342071533,0.1224223524332046,-0.4152081310749054,-0.175153911113739
1749042520.7263,3.757484460053055,-2.51973687345284,1.6512701099183247,-2.7282364684684626,-0.9184055304089543,-1.0658631151359006,-0.17070885177099568,0.041372860342553025,-0.03815580737311371,0.07138004255097657,-0.050389101120006656,-0.028253818774036477,-0.4693670570850372,0.90744149684906,-0.8702163100242615,0.0766747593879699,-0.4164990484714508,-0.1886889189481735
1749042520.726346,3.7571382063480563,-2.5196556282552276,1.6511941213246164,-2.7280919214043813,-0.9185071458094959,-1.0659178835504999,-0.17239752578022746,0.04222215489457698,-0.038505949354277355,0.07176865691068207,-0.05059372817428028,-0.028659186642132708,-0.4707326292991638,0.9227756261825562,-0.8493385314941406,0.1083087176084518,-0.4159786999225616,-0.1739778220653534
1749042520.726387,3.756788292113479,-2.5195725556431543,1.651117756758424,-2.7279467193717464,-0.9186093691858573,-1.0659733799229913,-0.1740818155890417,0.04308633735184266,-0.03883502583953909,0.07212795541266857,-0.0509379927413449,-0.029056436445334885,-0.4916370511054992,0.9404119849205016,-0.8463794589042664,0.1050784513354301,-0.4313987195491791,-0.1882988363504409
1749042520.7264268,3.7564347487398106,-2.5194875895911637,1.6510410488189378,-2.7278008963953155,-0.9187124986224782,-1.0660295638275012,-0.17576136185423286,0.04395434307258379,-0.03913844140872773,0.07247496314691888,-0.05144260438446157,-0.02944245704817366,-0.5147857069969177,0.9376057386398317,-0.839015781879425,0.095292791724205,-0.4448294639587402,-0.1861613392829895
1749042520.726465,3.7560775891573197,-2.5194006920695564,1.6509640248376345,-2.7276544209808713,-0.9188168781514694,-1.0660863907220595,-0.17743542930878933,0.04481475487254705,-0.0394124219534633,0.07282708743229434,-0.052123239449293736,-0.029814117055065887,-0.4535833895206451,0.913364589214325,-0.8587074875831604,0.1108222529292106,-0.4645290672779083,-0.1760472655296325
1749042520.7265038,3.7557168025679184,-2.5193118529393237,1.6508867045887858,-2.727507200593592,-0.9189228894032897,-1.066143825841037,-0.17910295490913522,0.04565640267675359,-0.039654320134258826,0.07320145147359318,-0.05298904582467704,-0.030168431173643893,-0.4507211446762085,0.9205785989761353,-0.8871108889579773,0.1004170477390289,-0.4605692625045776,-0.1797579824924469
1749042520.726542,3.75535235185703,-2.5192210884010855,1.6508090997510623,-2.7273590898729956,-0.9190309390584356,-1.0662018566237614,-0.1807628390042607,0.04646896878637157,-0.03986291960779548,0.07361420958952014,-0.05404135555722881,-0.030502727379649392,-0.4696122407913208,0.8710047006607056,-0.842225968837738,0.0979410782456398,-0.4760133028030395,-0.1832701861858368
1749042520.72658,3.7549841749407076,-2.519128438377585,1.6507312152282727,-2.7272099024976817,-0.9191414414361169,-1.0662605005617198,-0.18241441259744537,0.04724354462880261,-0.04003873191364624,0.07407980365039656,-0.0552727164059573,-0.030814797567938812,-0.4921066462993622,0.8998379707336426,-0.8407291769981384,0.101661242544651,-0.4834380745887756,-0.1824839413166046
1749042520.7266178,3.7546121913756614,-2.5190339633980607,1.6506530518904463,-2.727059426462124,-0.9192547961788211,-1.0663198064199513,-0.18405796281301331,0.04797308725337965,-0.040184256747222716,0.07461014366881254,-0.05666630980255564,-0.031103030627602307,-0.433231770992279,0.9120782017707824,-0.8446992039680481,0.0856414437294006,-0.4764200747013092,-0.1896799206733703
1749042520.7266552,3.7542363148924522,-2.5189377416477248,1.6505746099995355,-2.7269074419130854,-0.9193713616011534,-1.066379848398274,-0.18569518459860002,0.04865273462277438,-0.040304153952247596,0.07521374466644028,-0.05819581118696398,-0.03136652600423133,-0.4548602104187011,0.9054088592529296,-0.853807806968689,0.0966983437538147,-0.4763846099376678,-0.1861149370670318
1749042520.726693,3.7538564709419737,-2.5188398667131384,1.6504958924809485,-2.7267537396674735,-0.9194914248688021,-1.0664407144258414,-0.18732943739757793,0.0492799541266788,-0.04040527242885166,0.07589490655088657,-0.05982576075703597,-0.031605166345006055,-0.4771476089954376,0.8549132943153381,-0.8617977499961853,0.0921420156955719,-0.4678501486778259,-0.1811812818050384
1749042520.7267303,3.753472616067707,-2.5187404461029304,1.6504169071150558,-2.7265981373807704,-0.9196151710818048,-1.0665024910441778,-0.18896571379172472,0.049854509817480415,-0.04049649580933398,0.07665306081318032,-0.061512519155074837,-0.03181961102938229,-0.4771476089954376,0.8549132943153381,-0.8617977499961853,0.0921420156955719,-0.4678501486778259,-0.1811812818050384
1749042520.726768,3.7530847536863865,-2.5186395998887847,1.6503376665700216,-2.7264404897511705,-0.9197426546709335,-1.0665652479595067,-0.1906102748785781,0.05037824536916784,-0.040588385955543885,0.07748241398465378,-0.06320587313240944,-0.032011183924699156,-0.4789537489414215,0.9019665718078612,-0.8768709301948547,0.1054388135671615,-0.465202271938324,-0.1855276674032211
1749042520.7268052,3.7526929404541254,-2.518537458214533,1.6502581853472387,-2.7262806901014347,-0.919873777680783,-1.0666290251163628,-0.19226997409709456,0.050854705521738305,-0.040692628879880816,0.07837199130566684,-0.06485133939658462,-0.03218167402020433,-0.4881190061569214,0.8627999424934387,-0.8962028622627258,0.0967066586017608,-0.4888713657855987,-0.1835438311100006
1749042520.726842,3.7522972803531043,-2.5184341565765145,1.6501784736034413,-2.726118663412786,-0.9200082795794413,-1.0666938241171822,-0.19395136463802062,0.051288653952983286,-0.040821313781723295,0.07930613114551814,-0.06639318146335059,-0.032333123214023415,-0.4793342351913452,0.8291329145431519,-0.8729302883148193,0.1181148290634155,-0.4901256263256073,-0.1902482211589813
1749042520.7268791,3.7518979087683277,-2.51832982884487,1.6500985291109596,-2.7259543540351485,-0.9201457418921127,-1.0667596045305332,-0.1956597430313354,0.051685565513917606,-0.04098609984899615,0.08026541224227077,-0.06777807065717978,-0.0324677026131758,-0.477651298046112,0.854027509689331,-0.8779416084289551,0.0995931923389434,-0.4939030706882477,-0.19888336956501
1749042520.7269166,3.751494972653762,-2.5182245994039274,1.6500183294037145,-2.7257877129551655,-0.9202856087051463,-1.0668262847608245,-0.1973983054298219,0.05205116504179529,-0.041197341284631504,0.08122792616624513,-0.06895917375230269,-0.03258775105311248,-0.4767984449863434,0.863850474357605,-0.9074403643608092,0.0952221900224685,-0.4671468734741211,-0.1953734457492828
1749042520.7269535,3.7510886132043457,-2.5181185766671326,1.649937826006112,-2.7256186891168963,-0.9204272216123904,-1.0668937468491293,-0.19916758048123764,0.05239106788941633,-0.041463248746769,0.08217075513263535,-0.06990027360109174,-0.03269597599118007,-0.4985038042068481,0.8705244064331055,-0.9103089570999146,0.0808525830507278,-0.4142770171165466,-0.1927766501903534
1749042520.7269902,3.7506789550283726,-2.5180118499732838,1.6498569419161477,-2.7254472277454176,-0.9205698655487898,-1.0669618445032414,-0.20096525802106496,0.052710560069204146,-0.04178916815254789,0.0830715017609356,-0.07057939749918972,-0.03279573701846398,-0.4869045913219452,0.8794387578964233,-0.9092492461204528,0.1135822311043739,-0.4027831554412842,-0.1848342716693878
1749042520.7270274,3.750266102761216,-2.517904490583964,1.6497755727723116,-2.7252732768224353,-0.9207128206645215,-1.067030413597581,-0.2027864583858687,0.05301453240133774,-0.042177054429641814,0.0839097512609452,-0.07099140715147419,-0.03289128785310511,-0.4678055047988891,0.8441711664199829,-0.9142780900001526,0.1044486239552497,-0.4012974500656128,-0.1897956877946853
1749042520.7270644,3.7498501438636938,-2.5177965559510422,1.6496935916369768,-2.7250968011541388,-0.9208554151021435,-1.0670992844214324,-0.2046243914181436,0.05330754724079485,-0.04262520454700606,0.08466840250858804,-0.07114912096138544,-0.03298786175817261,-0.4413768053054809,0.8446819186210632,-0.9092787504196168,0.1002731770277023,-0.3906714618206024,-0.1978515535593032
1749042520.727101,3.7494311552778004,-2.517688095424666,1.6496108569357235,-2.7249178020254936,-0.9209970739914082,-1.067168295075336,-0.2064712684972023,0.053593976851077675,-0.04312829362368526,0.08533483497012413,-0.0710827648559823,-0.03309153614376396,-0.4829103052616119,0.872618556022644,-0.92250394821167,0.072919875383377,-0.3997198045253753,-0.183569848537445
1749042520.727731,3.7490092112209017,-2.5175791553440274,1.6495272225451718,-2.7247363393562103,-0.9211373608375041,-1.067237305355896,-0.20831929750964323,0.05387812754611384,-0.043677738816418565,0.08590186391260053,-0.07083781172179086,-0.03320887628637096,-0.4856258630752563,0.8601900339126587,-0.9317564368247986,0.0819632038474083,-0.3972566723823547,-0.1865238696336746
1749042520.729699,3.748584389401209,-2.5174697817857354,1.6494425483980566,-2.724552552537792,-0.9212760085287182,-1.0673062100476576,-0.21016162199699906,0.054164266372822914,-0.044262397092114054,0.08636841253756779,-0.0704715008031718,-0.033346410553990125,-0.5006663799285889,0.8329504728317261,-0.951873540878296,0.0892455875873565,-0.4234899580478668,-0.1925908327102661
1749042520.770273,3.7481567734300043,-2.517360019971925,1.649356709689801,-2.724366675780952,-0.921412938147887,-1.0673749499917276,-0.21199312500026588,0.054456495935196074,-0.04486956800799704,0.08673984402781953,-0.07004848026326872,-0.03351002059216587,-0.452638566493988,0.8456752896308899,-0.9116575121879578,0.0989782735705375,-0.4388019144535064,-0.1866419464349746
1749042520.770319,3.7477264501721126,-2.5172499103193817,1.6492696031073033,-2.724179044031,-0.9215482644049595,-1.0674435191439884,-0.2138110516764983,0.054758466277247834,-0.04548621329130333,0.08702794290172228,-0.0696360643733267,-0.033704341776144446,-0.5017616152763367,0.8546549081802368,-0.9113019704818726,0.0915318429470062,-0.4239014685153961,-0.1966230273246765
1749042520.770381,3.747293501896003,-2.517139482067331,1.6491811493148893,-2.723990086447148,-0.9216822870259045,-1.0675119663360129,-0.21561539232644117,0.055072956368895316,-0.04610024733865054,0.08725055986226248,-0.06929954223434782,-0.033932265881553826,-0.4666242897510528,0.850440263748169,-0.9616814851760864,0.0884977132081985,-0.4073219299316406,-0.1896889358758926
1749042520.7704298,3.746857994141633,-2.517028746136736,1.6490912918304341,-2.723800306031486,-0.921815468303903,-1.067580391366227,-0.2174089392074643,0.055401389692363745,-0.04670173515836725,0.08743091176143371,-0.06909785432200381,-0.03419462149811745,-0.4643608927726745,0.8517270684242249,-0.9463495016098022,0.1043352484703064,-0.3996053636074066,-0.2005660086870193
1749042520.7704716,3.746419961299395,-2.516917689283543,1.6489999930863515,-2.72361024604495,-0.9219483983488285,-1.0676489360170223,-0.21919693944481586,0.05574336559346024,-0.047283859360980784,0.08759649722689261,-0.0690798314151896,-0.0344900807497413,-0.4310638904571533,0.8179865479469299,-0.9605974555015564,0.0929074957966804,-0.4159597158432007,-0.1992551684379577
1749042520.770511,3.7459793929152014,-2.516806271579852,1.6489072288221158,-2.7234204460652696,-0.9220817510298267,-1.0677177714183066,-0.2209863436075233,0.056096297266711996,-0.04784354862759592,0.08777760216130415,-0.069281124394899,-0.03481530795642538,-0.4986750483512878,0.8226421475410461,-0.9395918846130372,0.0854128077626228,-0.432187020778656,-0.1914908736944198
1749042520.770549,3.7455362241524304,-2.5166944286197706,1.6488129820789108,-2.723231392523052,-0.9222162347864462,-1.0677870836260255,-0.2227847724314502,0.05645525209714976,-0.048381672739596995,0.08800543702120449,-0.06972195358360982,-0.03516533221606657,-0.4537539184093475,0.806722104549408,-0.9163745045661926,0.0784752517938613,-0.4764105677604675,-0.198541909456253
1749042520.770587,3.7450903331481915,-2.516582078726715,1.6487172379879511,-2.723043469884047,-0.9223525430746452,-1.0678570591266514,-0.22459942191942092,0.0568130823537284,-0.04890272590795325,0.08831003446576138,-0.07040582951576602,-0.035534095493799205,-0.4717256128787994,0.8114407062530518,-0.9194875955581664,0.0765426680445671,-0.4569034576416015,-0.2003339380025863
1749042520.770625,3.744641546380771,-2.516469134259314,1.6486199802243964,-2.722856919008395,-0.9224913089987073,-1.0679278713674074,-0.22643613424409031,0.057160905039720225,-0.049413976930483806,0.0887180977446531,-0.07131937797776454,-0.03591510407404987,-0.4757742285728454,0.848029613494873,-0.9367700815200806,0.0819886475801467,-0.4548745155334472,-0.2014565020799636
1749042520.770663,3.7441896513121566,-2.5163555152423713,1.6485211895134362,-2.722671808418678,-0.9226330675630099,-1.0679996688344238,-0.22829877794818612,0.05748893847148131,-0.04992416449458759,0.08925100503220527,-0.07243330726320919,-0.03630209861751443,-0.4865376353263855,0.8536663055419922,-0.9425218105316162,0.0716889351606369,-0.4682359397411346,-0.1941904127597808
1749042520.7707007,3.743734414144389,-2.5162411631182513,1.6484208441456991,-2.722488022270016,-0.9227782271484802,-1.0680725649788076,-0.2301889670285377,0.057787631633268846,-0.050441923201232766,0.08992315266118418,-0.07370441757217774,-0.03668965983352888,-0.4310533106327057,0.7762547135353088,-0.9420028924942015,0.0695928186178207,-0.4458194375038147,-0.19003826379776
1749042520.7707372,3.7432755998712857,-2.516126052391333,1.64831892226637,-2.7223052661124365,-0.9229270499461766,-1.0681466303415272,-0.23210606673823017,0.058048941398302335,-0.05097419632348515,0.09074078764774117,-0.07507844505424115,-0.03707368157265347,-0.5025959610939026,0.8242539167404175,-0.9439230561256408,0.1110661253333091,-0.4676180183887481,-0.202751874923706
1749042520.7707746,3.742812991872194,-2.5160101982379466,1.6482154056765674,-2.7221230887715957,-0.9230796400675944,-1.0682218873329876,-0.23404740310249866,0.05826755696622938,-0.05152490022246856,0.09170144776981505,-0.076493504171712,-0.03745166684157862,-0.4708669781684875,0.8425742983818054,-0.9553458094596864,0.0960886776447296,-0.4272700548171997,-0.2070254385471344
1749042520.7708108,3.7423464087372813,-2.5158936586947327,1.648110284767197,-2.721940916607611,-0.9232359383402112,-1.068298308176158,-0.2360085965684361,0.05844187426659788,-0.052094055725339754,0.09279407488796228,-0.07788392973793376,-0.03782283006800201,-0.5237768888473511,0.8128790259361267,-0.9506507515907288,0.0949101597070694,-0.4439468383789062,-0.1923446655273437
1749042520.7708488,3.741875716514773,-2.515776530767992,1.648003563888595,-2.721758095501527,-0.9233957239385674,-1.0683758164671535,-0.23798395677204565,0.058574577992010574,-0.05267751417816857,0.09399977754055427,-0.07918437922266082,-0.03818801383687725,-0.4718383550643921,0.8110185265541077,-0.9470349550247192,0.080764889717102,-0.4506769180297851,-0.2086595594882965
1749042520.770886,3.7414008351548014,-2.5156589406582164,1.64789526615819,-2.7215739361233284,-0.9235586239812466,-1.0684542926302039,-0.23996689773587954,0.05867276013438659,-0.0532673033618197,0.09529312607123624,-0.08033409402351303,-0.03854944304234202,-0.4844777286052704,0.8376491069793701,-0.9530205726623536,0.1062296628952026,-0.4820639193058014,-0.2112402319908142
1749042520.770923,3.7409217387889795,-2.5155410291283133,1.6477854367272142,-2.721387758907979,-0.9237241322525162,-1.068533583355498,-0.24195036147531504,0.05874757162418652,-0.053852519305077326,0.09664382779678353,-0.08128119903589254,-0.038910343321385085,-0.4829362034797668,0.8406834602355957,-0.934378743171692,0.1034191250801086,-0.4393858313560486,-0.1966911554336547
1749042520.77096,3.7404384504788926,-2.515422933720601,1.6476741439645954,-2.72119893615767,-0.9238916372526671,-1.0686135149508924,-0.24392726362213127,0.05881346255375093,-0.05442060898268682,0.09801865915012901,-0.08198682208856999,-0.03927445266659307,-0.5350696444511414,0.8650069832801819,-0.893308162689209,0.1138882264494896,-0.4232014715671539,-0.2223103940486908
1749042520.770997,3.7399510327291594,-2.5153047699786746,1.6475614786670496,-2.721006929403079,-0.9240604584121045,-1.0686939102120205,-0.24589097486976316,0.05888710335782312,-0.054958839703516296,0.0993835652404379,-0.08242866922047155,-0.03964546664891529,-0.4899362921714782,0.8441685438156128,-0.9275332689285278,0.1008649319410324,-0.3947513103485107,-0.2083983421325683
1749042520.771034,3.739459575265346,-2.515186614031045,1.6474475518831597,-2.7208113204301867,-0.9242298881448329,-1.0687746077380664,-0.2478358154538419,0.05898608431146472,-0.05545574343831335,0.1007058227469976,-0.0826035900234883,-0.040026478466165596,-0.5575089454650879,0.834176778793335,-0.9096246361732484,0.1159896105527877,-0.4110089838504791,-0.2207459509372711
1749042520.7717738,3.7389641816722126,-2.5150684888995416,1.6473324919619023,-2.720611834305785,-0.9243992367831814,-1.0688554817156504,-0.24975749013845766,0.0591274770067799,-0.055902353188573006,0.10195611805486988,-0.08252870159425428,-0.04041948920534444,-0.4620847702026367,0.8242831826210022,-0.918080508708954,0.0856137573719024,-0.4156372249126434,-0.1988935321569442
1749042520.7737763,3.7384649566860895,-2.5149503567738445,1.6472164410611807,-2.7204083526543124,-0.9245678772943664,-1.0689364594201383,-0.2516533721064563,0.05932633626466973,-0.05629309217844736,0.1031103713277764,-0.08224082112621103,-0.040825055029685094,-0.5081213116645813,0.8093416690826416,-0.88251131772995,0.1036291122436523,-0.400272786617279,-0.1848653554916381
1749042520.818327,3.7379619959656365,-2.5148321190220426,1.6470995509546833,-2.720200915738591,-0.9247352868080354,-1.069017533423583,-0.2535225759254148,0.05959424368136193,-0.056626220775056246,0.1041511605359755,-0.08179420405597562,-0.041242105525900435,-0.5037295818328857,0.8866264224052429,-0.8976865410804749,0.0937335789203643,-0.4177859127521515,-0.2020502090454101
1749042520.8183742,3.737455379644117,-2.514713624524455,1.6469819779313992,-2.7199897127226365,-0.9249010822003739,-1.0690987659984368,-0.2553658178309266,0.05993804135596721,-0.05690379944205564,0.10506865215218479,-0.08125679527354801,-0.04166792608270151,-0.5193688273429871,0.8904213905334473,-0.8944341540336609,0.1108649224042892,-0.4205694496631622,-0.2135852873325348
1749042520.8184156,3.736945169911916,-2.514594685194531,1.6468638769206863,-2.71977506067049,-0.9250650472472197,-1.0691802844825213,-0.25718510232142344,0.06035894220993473,-0.05713119739658468,0.10586100215433833,-0.08070532580728941,-0.04209826726363473,-0.467266172170639,0.8631047010421753,-0.8886476159095764,0.1080450415611267,-0.4126611351966858,-0.1908440440893173
1749042520.8184545,3.7364314117332897,-2.5144750960377684,1.6467453953811637,-2.719557374066998,-0.9252271492568089,-1.0692622681005908,-0.25898328084804956,0.060852186586040566,-0.057316250681668665,0.10653423098525701,-0.08021963584098693,-0.04252753603094176,-0.5140014290809631,0.908482015132904,-0.888373613357544,0.1129792034626007,-0.4218387603759765,-0.2020894736051559
1749042520.818493,3.7359141350289944,-2.514354656357027,1.6466266676461605,-2.7193371277425946,-0.925387543763814,-1.069344928249229,-0.2607635288733243,0.06140733344274858,-0.057468226362506085,0.10710158996853514,-0.07987661541953986,-0.042949030949566945,-0.5011265277862549,0.8912265300750732,-0.9151794910430908,0.1026857495307922,-0.4218294024467468,-0.1953768581151962
1749042520.8185315,3.735393356536716,-2.5142331887222586,1.646507810270891,-2.719114816922607,-0.9255465668415902,-1.0694284849651925,-0.26252881141217843,0.062009164259981826,-0.05759677004177751,0.10758243472793746,-0.07974417044982762,-0.04335519719606286,-0.5844732522964478,0.8873228430747986,-0.8807076215744019,0.1046130955219268,-0.456633061170578,-0.1883260458707809
1749042520.8185697,3.7348690802460074,-2.514110552906872,1.6463889186358207,-2.718890918513925,-0.9257047156476098,-1.0695131422685442,-0.2642814324392235,0.06263907939022197,-0.05771099800247445,0.10800062537109523,-0.0798756668870812,-0.043737899687823524,-0.54655522108078,0.8904045224189758,-0.876854419708252,0.1005697101354599,-0.4708177447319031,-0.1783664226531982
1749042520.8186076,3.734341296587862,-2.5139866531206345,1.6462700647788777,-2.7186658575124882,-0.9258626186453621,-1.0695990647855071,-0.2660227406006053,0.06327680137501063,-0.05781884429034604,0.1083825017806545,-0.08030535774416646,-0.044088745836043185,-0.4889197051525116,0.8824747204780579,-0.8779040575027466,0.072109617292881,-0.5012246370315552,-0.2051303088665008
1749042520.818645,3.733809981696779,-2.513861438372449,1.6461512962182747,-2.7184399815577325,-0.9260209974027239,-1.0696863578010591,-0.26775299402403796,0.06390218202891576,-0.05792670314185767,0.10875454694644168,-0.08104529489680883,-0.04439951708766447,-0.4794809520244598,0.857335090637207,-0.8791807889938354,0.1038269698619842,-0.4846835434436798,-0.1939148902893066
1749042520.8186822,3.7332750983240808,-2.513734897173146,1.6460326354394212,-2.7182135453305163,-0.9261806220220087,-1.069775052668668,-0.26947133562124953,0.06449694322742099,-0.05803934397282817,0.10914095065997123,-0.0820841184565621,-0.04466276413422236,-0.5425703525543213,0.9017055034637452,-0.8638797998428345,0.1438858658075332,-0.5048878192901611,-0.192767322063446
1749042520.81872,3.7327365993124046,-2.5136070485473607,1.6459140798395988,-2.7179867050053765,-0.9263422622921438,-1.0698650992437087,-0.2711758448107496,0.06504623856157851,-0.05816003544312599,0.1095613825155184,-0.08338790060493577,-0.04487257241979345,-0.5200423002243042,0.8856075406074524,-0.877929151058197,0.1046710610389709,-0.4746656715869903,-0.1953076720237732
1749042520.818757,3.7321944334497155,-2.5134779313712854,1.6457956022774238,-2.7177595217882105,-0.9265066367615546,-1.069956366549687,-0.27286368246258774,0.06553996153366456,-0.058290796871856475,0.11002930825621018,-0.08490295214408815,-0.04502542714510692,-0.5235227346420288,0.8726077675819397,-0.8722124099731445,0.1005873531103134,-0.4818356037139892,-0.1867390424013137
1749042520.818798,3.7316485525679193,-2.5133475936457206,1.6456771527645533,-2.7175319730071954,-0.926674362263805,-1.0700486520374497,-0.2745313662401742,0.06597372642565674,-0.05843269213034297,0.11055109928784268,-0.08656026003985745,-0.04512103388957197,-0.4983744025230407,0.8329541683197021,-0.8849916458129883,0.1223006397485733,-0.4866905212402344,-0.1792877167463302
1749042520.8188355,3.731098918342549,-2.513216082789852,1.6455586618958853,-2.7173039691372463,-0.9268459071110503,-1.0701416985902332,-0.2761751786390719,0.06634942812611018,-0.058586086457026294,0.11112602851802537,-0.08828108595550284,-0.045162916532266506,-0.5323514938354492,0.8968791961669922,-0.8343052268028259,0.1075433418154716,-0.5066401958465576,-0.1802270859479904
1749042520.8188722,3.7305455075326925,-2.513083437652629,1.6454400461903322,-2.717075375102313,-0.9270215521483866,-1.0702352172023457,-0.27779165704711273,0.06667527797389704,-0.05875080210974141,0.11174708611491126,-0.08998323666073481,-0.045158635545121596,-0.4814655184745788,0.8530887961387634,-0.8723007440567017,0.1015694141387939,-0.5045299530029297,-0.1691755950450897
1749042520.818909,3.7299883150570676,-2.512949682762414,1.6453212149018572,-2.716846033956103,-0.9272013646200667,-1.0703289124820532,-0.2793780918034196,0.06696523257065769,-0.05892614712367414,0.112402426869965,-0.09158755698580998,-0.04511953838799384,-0.556790292263031,0.8677340149879456,-0.8919300436973572,0.0889444351196289,-0.4879592955112457,-0.1831753402948379
1749042520.8189464,3.7294273547414303,-2.51281482524369,1.6452020774632234,-2.716615790702753,-0.9273851895630841,-1.070422508103964,-0.28093296794448536,0.06723778423858222,-0.059110854761866984,0.11307718906911797,-0.09302421266615128,-0.04506004267272779,-0.4824715256690979,0.8634751439094543,-0.9068578481674194,0.096297949552536,-0.4713557958602905,-0.1720582842826843
1749042520.818983,3.728862657602618,-2.512678854646675,1.6450825506835496,-2.71638451383524,-0.9275726618509972,-1.0705157699306969,-0.2824562942008398,0.06751415888806579,-0.059303025234339765,0.11375541413492406,-0.09423830417940857,-0.04499653362383521,-0.5442988276481628,0.9069517850875854,-0.8507113456726074,0.1008716374635696,-0.4910229444503784,-0.1904368251562118
1749042520.81902,3.728294267581085,-2.5125417456644845,1.6449625650542792,-2.7161521121842225,-0.9277632393430243,-1.0706085252251991,-0.2839497516773947,0.0678160565698389,-0.0595001625571913,0.11442184800745554,-0.09519432955199142,-0.04494601178780161,-0.4533610343933105,0.8183708190917969,-0.8856268525123596,0.083381749689579,-0.4527001976966858,-0.1833634823560714
1749042520.819057,3.7277222350652925,-2.512403463458945,1.644842069819701,-2.7159185448049286,-0.9279562544466485,-1.0707006767457314,-0.28541659214189674,0.06816315561954643,-0.05969935243257479,0.11506349251530243,-0.09587903792513561,-0.04492464914141612,-0.5241838097572327,0.909147083759308,-0.8964711427688599,0.1114671230316162,-0.459038108587265,-0.1961526870727539
1749042520.8190944,3.7271466091582774,-2.5122639710208743,1.6447210365725278,-2.715683822085659,-0.9281509784463227,-1.0707922105529224,-0.286861253452903,0.06857066779752899,-0.059897576094791856,0.11567085380992477,-0.09630229687296965,-0.04494640769167605,-0.5031294822692871,0.9111617803573608,-0.899114727973938,0.0746241509914398,-0.4141644239425659,-0.1608772575855255
1749042520.8191314,3.7265674300531377,-2.512123237541544,1.6445994610076586,-2.7154479974417836,-0.9283466908401181,-1.0708831964159615,-0.28828872463866073,0.06904726346944638,-0.060092122783206255,0.11623887057287761,-0.09649574178232408,-0.04502185609672854,-0.4977223575115204,0.9085020422935486,-0.903589129447937,0.1009095311164856,-0.4254599213600158,-0.2061321884393692
1749042520.8197684,3.7259847230821874,-2.5119812463550084,1.6444773624092428,-2.715211150824724,-0.9285427451077992,-1.0709737801416486,-0.28970374408893923,0.06959366746610061,-0.06028103892702515,0.11676749425893937,-0.09650919628387722,-0.04515729489113916,-0.4559206962585449,0.9462053179740906,-0.8871817588806152,0.1033663377165794,-0.4240622222423553,-0.1890703439712524
1749042520.8217485,3.725398496039537,-2.511838000977671,1.6443547806912753,-2.7149733671030245,-0.9287386229268316,-1.0710641680627078,-0.29110993663266443,0.07020215454475696,-0.060463531643344,0.11726186803958052,-0.0964051292845556,-0.045354271085775735,-0.5110005140304565,0.9102039337158204,-0.876145601272583,0.1335804909467697,-0.414038747549057,-0.1958851516246795
1749042520.862277,3.724808741078659,-2.5116935281985917,1.6442317712392265,-2.714734713372273,-0.9289339707067056,-1.0711546051407845,-0.2925090108113893,0.07085705945347058,-0.06064024178348066,0.117732041697441,-0.096251689374608,-0.04560952704735761,-0.5305445194244385,0.9034428000450134,-0.8911987543106079,0.0760337114334106,-0.4192523658275604,-0.1769769489765167
1749042520.862323,3.7242154417496938,-2.511547877844079,1.6441083981871836,-2.714495219247712,-0.929128615093003,-1.0712453493372383,-0.29390015254969765,0.07153627548576726,-0.06081332306783122,0.11819217144120266,-0.09611507796910684,-0.04591538628170345,-0.524103581905365,0.9200589060783386,-0.8840639591217041,0.0990146100521087,-0.4286239445209503,-0.2138228565454483
1749042520.8623714,3.7236185848194796,-2.51140111954537,1.643984727072988,-2.714254863574142,-0.9293225572691294,-1.0713366456719746,-0.2952797322873929,0.07221356874205524,-0.06098629799985271,0.1186591894715625,-0.09605216341674948,-0.046260532538848834,-0.5329181551933289,0.8720651865005493,-0.8890368342399597,0.0980451628565788,-0.4424879252910614,-0.2033491432666778
1749042520.8624125,3.7230181757675145,-2.5112533374607433,1.643860818060889,-2.7140135701178583,-0.9295159487267638,-1.0714287034036662,-0.2966413723354183,0.07286141691089891,-0.06116369772874152,0.11915100596576288,-0.09610427814177273,-0.046631095094011865,-0.4954559803009033,0.8766939043998718,-0.8888221383094788,0.104700431227684,-0.4622132182121277,-0.1746521443128585
1749042520.8624518,3.722414256350823,-2.511104624245353,1.6437367209377527,-2.713771213647379,-0.9297090530919848,-1.071521679036774,-0.2979763428772962,0.07345401764399491,-0.061350530090585165,0.11968441888406227,-0.09629304038694263,-0.0470119207095872,-0.546126663684845,0.8718292713165283,-0.9107015132904052,0.1154824271798133,-0.474511981010437,-0.2093508392572403
1749042520.8624902,3.721806922230735,-2.510955075364936,1.6436124726266175,-2.713527636140471,-0.9299021995254104,-1.0716156667447998,-0.29927421991364567,0.07397010161924356,-0.06155165465695636,0.12027300284468997,-0.09661877248888398,-0.04738789769138872,-0.5752303600311279,0.8858128786087036,-0.8926703929901123,0.1221998855471611,-0.4884716868400574,-0.1800982803106308
1749042520.8625278,3.7211963383492748,-2.5108047841771746,1.643488097058603,-2.713282670820493,-0.9300957334499055,-1.071710696654843,-0.30052373705701246,0.074395212789788,-0.06177116464663838,0.12092527833171172,-0.09706168040627569,-0.04774520050057065,-0.5057194828987122,0.8418400883674622,-0.9061357975006104,0.1482990533113479,-0.4316415786743164,-0.175054132938385
1749042520.8625655,3.720582749842081,-2.510653837573327,1.643363606330266,-2.713036169986557,-0.9302899700984528,-1.071806740374381,-0.30171375103706777,0.07472317667982462,-0.06201187484470116,0.12164342121946976,-0.0975855159604104,-0.04807234111617993,-0.5318752527236938,0.8412155508995056,-0.9205275774002076,0.13066066801548,-0.4372146725654602,-0.1741179823875427
1749042520.8626034,3.7199664870489446,-2.5105023118283136,1.6432390016579508,-2.7127880318045086,-0.9304851557301107,-1.071903722142917,-0.3028342127005324,0.07495657574703272,-0.06227499451426253,0.12242268351424214,-0.09814308809518676,-0.048360940841235205,-0.523507297039032,0.8412949442863464,-0.935660719871521,0.1385094225406646,-0.4488427639007568,-0.191510334610939
1749042520.8626406,3.7193479643069822,-2.5103502686436037,1.643114272953142,-2.7125382215140967,-0.9306814403934744,-1.0720015332099389,-0.3038770284208894,0.07510618886048044,-0.06256002676451727,0.12325158479882951,-0.0986827990849284,-0.048606170409962755,-0.5911925435066223,0.857214093208313,-0.906230092048645,0.1362909972667694,-0.4541624784469604,-0.190082773566246
1749042520.8626783,3.7187276728945067,-2.5101977519716008,1.6429893967395135,-2.712286783623742,-0.930878864701343,-1.072100046812543,-0.3048367295367319,0.07518950042762843,-0.06286488258041202,0.12411282216685152,-0.09915534610426786,-0.04880684598630244,-0.485999196767807,0.8371102809906006,-0.9378607273101808,0.1307988315820694,-0.4499523341655731,-0.1847400665283203
1749042520.8627155,3.718106168303031,-2.5100447868333635,1.6428643332214479,-2.712033843236799,-0.9310773611880062,-1.07219913159702,-0.30571091723363,0.07522850595480267,-0.06318614719085076,0.12498475519704144,-0.0995197861082895,-0.04896520966758031,-0.485038697719574,0.8734140396118164,-0.9423987865447998,0.1412663012742996,-0.4057449102401733,-0.1789857447147369
1749042520.8627524,3.7174840512609335,-2.509891381574412,1.642739024119734,-2.711779596365017,-0.9312767688791155,-1.0722986621715704,-0.3065004946817038,0.0752471192581419,-0.06351941511322885,0.12584326702978293,-0.0997482763206394,-0.049086454803097763,-0.500787615776062,0.8610736727714539,-0.9407600164413452,0.093482531607151,-0.4086470305919647,-0.191365972161293
1749042520.8627896,3.716861941331394,-2.5097375344433877,1.6426133930135098,-2.711524290777155,-0.9314768582927713,-1.0723985262566567,-0.30720973320098593,0.07526851800766435,-0.06385962028181788,0.12666378859046593,-0.09982898587217694,-0.049178068602554,-0.607143223285675,0.9011330604553224,-0.9351140260696412,0.1481925100088119,-0.4352729618549347,-0.2082135826349258
1749042520.8628266,3.7162404421627495,-2.5095832440471484,1.6424873492261165,-2.7112682005029782,-0.9316773634412522,-1.0724986285759774,-0.30784622698446995,0.07531274075548686,-0.06420131021995117,0.12742329416613596,-0.09976693011416617,-0.04924905610681191,-0.4776916205883026,0.8459123969078064,-0.9367955923080444,0.1190140023827552,-0.4186885356903076,-0.1798016428947448
1749042520.8628645,3.7156200988769146,-2.5094285216788146,1.6423607950233348,-2.711011598216212,-0.9318780173621056,-1.0725988923122818,-0.30842074254425844,0.07539477608240977,-0.06453883974670656,0.12810211037317237,-0.09958276211379556,-0.04930908932473684,-0.504436731338501,0.8752596378326416,-0.952350914478302,0.1137343868613243,-0.4249868094921112,-0.1742039173841476
1749042520.8629055,3.7150013502403305,-2.509273402499723,1.6422336346334931,-2.710754729791233,-0.9320785878703084,-1.0726992593893871,-0.3089468868602604,0.07552329231547511,-0.06486649406761838,0.12868540146490703,-0.09930980193906624,-0.04936760870585182,-0.4444865584373474,0.823746383190155,-0.952478528022766,0.0912772789597511,-0.4306263625621795,-0.1870375275611877
1749042520.8629444,3.7143844803512067,-2.509117952657129,1.6421057828758503,-2.7104977941822925,-0.9322789101338304,-1.0727996906963218,-0.30944048430882587,0.07570007464848974,-0.06517858842797787,0.1291642083379094,-0.09898975679707424,-0.04943290892886417,-0.4886575043201446,0.8574286103248596,-0.9753170609474182,0.1047408059239387,-0.4460545778274536,-0.1905923187732696
1749042520.8629804,3.7137695759865053,-2.508962270631399,1.6419771711828293,-2.7102409299838888,-0.9324789122928504,-1.0729001667756068,-0.309918614487416,0.07592017652707443,-0.06546961558122935,0.12953596287472494,-0.09866768073084148,-0.04951127443408662,-0.5067852735519409,0.8295614719390869,-0.9703131318092346,0.1119102463126182,-0.4238983690738678,-0.2118118405342102
1749042520.863021,3.7131564963197703,-2.508806482756968,1.641847749481405,-2.709984208485252,-0.9326786302411975,-1.073000688902377,-0.3103983697556157,0.07617274614641241,-0.06573450783074435,0.12980447971369227,-0.09838675763418613,-0.04960627532356717,-0.445438802242279,0.7899569272994995,-0.981583535671234,0.0968132764101028,-0.4573661983013153,-0.2206366658210754
1749042520.8638055,3.712544861455367,-2.5086507341547812,1.6417174836199158,-2.7097276322844976,-0.9328782085185908,-1.0731012800822224,-0.3108954603950152,0.07644244271249567,-0.06596904172547502,0.12997949680968646,-0.09818348287276435,-0.049718355025543184,-0.4536716043949127,0.835690975189209,-0.9554428458213806,0.0987720042467117,-0.4469239413738251,-0.2163631021976471
1749042520.865791,3.711934065078775,-2.5084951769794683,1.6415863494424612,-2.7094711386573422,-0.9330778860691733,-1.0732019851730363,-0.3114228115669588,0.07671130388462903,-0.06617035056944354,0.13007585169181174,-0.09808376533481589,-0.04984480780415776,-0.5571579933166504,0.8230352997779846,-0.9602315425872804,0.1035292297601699,-0.4357185363769531,-0.1946141719818115
1749042520.9063408,3.711323314436562,-2.508339958093057,1.641454325690997,-2.7092146076073864,-0.933277967770578,-1.0733028690313975,-0.311989298104286,0.0769608702285734,-0.0663374481327585,0.13011235172416874,-0.09810035940284563,-0.04998016149597737,-0.4895467758178711,0.7691236138343811,-0.9638144969940186,0.0862116739153862,-0.4460571706295013,-0.2031594961881637
1749042520.9063866,3.710711697771922,-2.508185208157662,1.6413213882586597,-2.7089578752620143,-0.9334787844635157,-1.0734040114886993,-0.31259876158154476,0.07717432624803354,-0.06647163349367163,0.13011036300655046,-0.09823187300745563,-0.05011688945269872,-0.4987934827804565,0.7894865274429321,-0.9295251369476318,0.0896871238946914,-0.4676364958286285,-0.1921544224023819
1749042520.9064276,3.710098275159246,-2.508031033661755,1.6411875079169735,-2.70870075326277,-0.9336806457244634,-1.0735054983431471,-0.31324942686704377,0.0773383951673478,-0.06657665490506544,0.13009213414768042,-0.09846342355482132,-0.050246319342945205,-0.4774497747421264,0.7659738063812256,-0.9557408690452576,0.0960208475589752,-0.4670371115207672,-0.2028542309999466
1749042520.9064677,3.709482183445371,-2.5078775125125854,1.6410526526968854,-2.708443053536979,-0.9338837912788437,-1.0736074085391893,-0.31393378790316345,0.07744474042621642,-0.06665855728462994,0.13007890053007706,-0.09876885983893789,-0.05035959922787911,-0.5178027749061584,0.7536725997924805,-0.9629822969436646,0.0825772359967231,-0.4644054472446441,-0.1794045567512512
1749042520.906506,3.708862740338786,-2.5077246926098904,1.640916794741669,-2.7081846155190195,-0.9340883486596998,-1.0737097991712876,-0.31463899763370384,0.07749069072687668,-0.0667252079608357,0.1300888802585017,-0.09911432486054092,-0.05044860948793912,-0.5178027749061584,0.7536725997924805,-0.9629822969436646,0.0825772359967231,-0.4644054472446441,-0.1794045567512512
1749042520.9065447,3.7082395286943823,-2.5075725916833247,1.6407799199245987,-2.7079253306659394,-0.9342943054092792,-1.0738126913776236,-0.3153477754641928,0.07747921301793838,-0.06678555942447548,0.13013535797733733,-0.09946277741989411,-0.050506752823411084,-0.5101108551025391,0.7636553049087524,-0.9302324652671814,0.103023774921894,-0.4305015206336975,-0.2045992612838745
1749042520.9065864,3.70761244340441,-2.507421196465985,1.6406420375726767,-2.7076651587976612,-0.9345015024569605,-1.0739160607273768,-0.3160398032384238,0.07741817921692093,-0.06684873799450537,0.1302251247517295,-0.09977893043594578,-0.05052959563893423,-0.4880134165287018,0.7739900350570679,-0.9375934600830078,0.0854952931404113,-0.4308270812034607,-0.2121653258800506
