nimar13/UR3e_dataset_trayectorias/trayectorias_ejecutadas_filtradas/quintic_func/trayectoria_071_result_filtrado.csv
timestamp,q1,q2,q3,q4,q5,q6,qd1,qd2,qd3,qd4,qd5,qd6,tau1,tau2,tau3,tau4,tau5,tau6
1749041195.0903046,4.255616087571032,-1.225657525723616,-1.5405946927936054,-4.1212990297257885,4.389413464589375,-2.6313859543075964,0.0020726983468645583,0.0005451873470719749,-0.0010421978546043028,-0.0029835197020377886,0.0006032487639075358,-0.000569276959735367,0.1414573192596435,0.5860887169837952,0.8158105611801147,-0.0079055875539779,0.0491953939199447,-0.0661444514989852
1749041195.0903523,4.2556017285662175,-1.2256621849783615,-1.540587618920684,-4.121293013630991,4.389410701722213,-2.631372130832304,0.0006548700580542087,0.0005933612421563287,-0.0006475406793856169,-0.0020085830894125234,0.00019453174986066234,-7.414257663714475e-05,0.1409011930227279,0.5867641568183899,0.8221849203109741,0.0074420124292373,0.0407683104276657,-0.0556920617818832
1749041195.0903933,4.255587769933607,-1.2256663789416327,-1.540580658296258,-4.121287114774929,4.389407797801594,-2.631358860589633,-0.000718708889323296,0.000645456295582538,-0.0002607890775024259,-0.0010604906711773915,-0.00020471702600626202,0.00040855231851977047,0.1327541768550872,0.609441339969635,0.8502098917961121,0.016255535185337,0.0173820853233337,-0.0528212785720825
1749041195.090433,4.255574453619498,-1.225669703776837,-1.540573935714164,-4.121281323760006,4.389404690147564,-2.6313465521914026,-0.002002893835876875,0.0007040829279199885,0.00010890082701707383,-0.00016523306284103897,-0.0005824255512965852,0.0008656892684997171,0.1484604030847549,0.5832721590995789,0.8616922497749329,0.0275644436478614,0.0126335769891738,-0.0424486696720123
1749041195.0904713,4.255561976447228,-1.225671836793939,-1.5405675644249883,-4.121275636644347,4.389401329933993,-2.631335527305042,-0.003158850381146905,0.0007704211385854135,0.0004528154350379273,0.0006544230486751721,-0.0009278442207606445,0.0012847695751826448,0.1014746576547622,0.6079639196395874,0.8692740201950073,0.0488064438104629,-0.0198150277137756,-0.0433156639337539
1749041195.0905087,4.255550479608247,-1.2256725655342982,-1.540561642785411,-4.121270057780623,4.389397684466523,-2.631325996061358,-0.00415635217778201,0.0008438938998430129,0.0007630106885943356,0.0013803353622447543,-0.0012322621877495145,0.0016543999804743746,0.0732701867818832,0.600824773311615,0.8775334358215332,0.0557545274496078,-0.0029144138097763,-0.0247426778078079
1749041195.0905466,4.2555400414859905,-1.2256718042077572,-1.540556252193497,-4.121264598586681,4.3893937404797665,-2.6313180467121784,-0.004975134050505891,0.0009221093349737619,0.0010326862153469385,0.0020000011984893248,-0.0014895255375248868,0.001964917613357631,0.0903763622045517,0.5953593850135803,0.8941054344177246,0.0467796921730041,3.7476420402526855e-05,-0.032602272927761
1749041195.0905838,4.25553067504727,-1.2256695963124258,-1.5405514558237479,-4.121259273019313,4.389389509058047,-2.6313116494462205,-0.0056052716909411075,0.0010011029971962217,0.0012565719987014834,0.002507092426423333,-0.0016962779517434873,0.0022090850373616827,0.0965195298194885,0.5797478556632996,0.8872092962265015,0.0743173733353614,-0.0429562330245971,-0.0425257012248039
1749041195.090621,4.255522330680854,-1.225666103868353,-1.5405472976473402,-4.12125409143463,4.389385031629087,-2.6313066722278395,-0.006046683452543597,0.0010758688001547949,0.0014312692958639219,0.002901439233302956,-0.0018518841922508268,0.0023827255040335285,0.0924118757247924,0.6099851131439209,0.8906317353248596,0.0623377859592437,-0.0246434211730957,-0.0446544215083122
1749041195.090663,4.255514904657557,-1.2256615851478292,-1.5405438014976056,-4.121249054844109,4.389380385090914,-2.6313029051256676,-0.0063079233612250716,0.0011411160955255096,0.001555479826240987,0.0031884519331398914,-0.001958065064410182,0.0024851467188107337,0.0791021957993507,0.5808340907096863,0.8986098766326904,0.0672099143266677,-0.034095212817192,-0.0242874696850776
1749041195.0907023,4.2555082525381085,-1.2256563639457778,-1.5405409703847033,-4.121244151178813,4.389375683415556,-2.631300088958821,-0.00640447429368056,0.0011921390613564074,0.0016300708716794335,0.003378064919334688,-0.0020183396406634703,0.002519231530445922,0.0816741809248924,0.5689154863357544,0.9026980996131896,0.0915957987308502,-0.0454609841108322,-0.0252758488059043
1749041195.0907402,4.255502206059051,-1.2256507941817099,-1.5405387866564515,-4.12123935436147,4.389371073464976,-2.6312979442672177,-0.0063567702409924,0.0012256472701977414,0.0016579555236054962,0.003483376920899102,-0.002037406014328872,0.002491144943807678,0.0619832724332809,0.5718448162078857,0.8949350118637085,0.0992681160569191,-0.0468534231185913,-0.0367616489529609
1749041195.0907774,4.255496591522414,-1.225645223932063,-1.5405372136249624,-4.121234626272717,4.3893667240707295,-2.6312961974828606,-0.00618816965947302,0.0012404008389028092,0.0016438049772941957,0.0035192009845684317,-0.002020584395691063,0.0024096916275863846,0.0785186067223548,0.589526891708374,0.9120259284973145,0.0901266634464263,-0.057084634900093,-0.014874517917633
1749041195.090814,4.255491247685558,-1.2256399627714385,-1.540536198747851,-4.121229921372127,4.389362809215695,-2.6312946024237833,-0.0059230618022504,0.001237530172963258,0.0015936398600875684,0.0035007107483495926,-0.001973403499168595,0.0022854285538654122,0.0679023563861846,0.5645220279693604,0.9137832522392272,0.0936169773340225,-0.0506376475095748,-0.0184562280774116
1749041195.0908544,4.255486041396107,-1.225635255491384,-1.5405356776353925,-4.121225193653986,4.3893594878800615,-2.63129295644654,-0.005585230827782389,0.0012204888979569664,0.0015143623806200656,0.0034422986844981273,-0.0019013508897707616,0.0021296758008066334,0.0345943048596382,0.5954734086990356,0.9199556112289428,0.1019348949193954,-0.0520186051726341,-0.0215889438986778
1749041195.0908966,4.255480879333122,-1.2256312641248,-1.5405355776450504,-4.121220405365222,4.389356884197469,-2.6312911113991597,-0.005196553704658876,0.001194661674371849,0.0014132906545251454,0.003356687502188478,-0.0018097526529329555,0.0019535708883547595,0.0519075281918048,0.5839294195175171,0.9162943959236144,0.0959693640470504,-0.070024088025093,-0.014762096107006
1749041195.090944,4.255475714290044,-1.2256280591753914,-1.5405358200181478,-4.121215536289666,4.389355071592933,-2.63128897972577,-0.0047760753721132155,0.001166702232288573,0.001297745233867023,0.0032542911784164655,-0.001703717159719235,0.0017672851748368433,0.0535052008926868,0.5846811532974243,0.9354585409164428,0.101820133626461,-0.053118422627449,-0.0251842066645622
1749041195.0909884,4.255470545067744,-1.2256256201773152,-1.54053632026671,-4.121210591765871,4.389354063545599,-2.6312865358484725,-0.004339478206563948,0.0011437051302936544,0.0011747205556002522,0.0031428161864876275,-0.0015880797775909476,0.0015794771924892642,0.0326174274086952,0.5871017575263977,0.9269118905067444,0.1165871620178222,-0.0494051426649093,-0.0138782784342765
1749041195.0910263,4.255465410378799,-1.2256238449975734,-1.5405369873385515,-4.121205607508654,4.389353812035938,-2.63128381274316,-0.003898934837157872,0.0011323233279609969,0.0010506548932983021,0.003027110572646327,-0.0014673123424593152,0.001397010207616415,0.0200802162289619,0.5915344953536987,0.924853503704071,0.0982551872730255,-0.0558092594146728,-0.0278479531407356
1749041195.091064,4.255460378497229,-1.225622566548454,-1.540537722595609,-4.121200649895698,4.389354213307223,-2.631280893803648,-0.0034633070674339466,0.0011379385488440462,0.000931294714478916,0.0029092819968467624,-0.0013453954645324753,0.0012249195098342769,0.0200802162289619,0.5915344953536987,0.924853503704071,0.0982551872730255,-0.0558092594146728,-0.0278479531407356
1749041195.0911694,4.255455534987763,-1.225621574946806,-1.5405384197934169,-4.121195811337265,4.389355119654779,-2.631277900617933,-0.0030386339489491534,0.0011639759129996835,0.0008216353065852885,0.0027890952759549135,-0.0012256772064594772,0.0010665841266720606,0.0228530094027519,0.5990628004074097,0.9428903460502625,0.0939994007349014,-0.0442210882902145,-0.0160622224211692
1749041195.0930374,4.255450970623823,-1.2256206427421166,-1.5405389671661602,-4.12119120125673,4.389356355377609,-2.631274977844683,-0.0026288381145433376,0.0012114321863105088,0.0007259104228538158,0.002664621152869874,-0.0011107515424666145,0.0009240392192282188,0.0255470797419548,0.5786528587341309,0.9424413442611694,0.1065150201320648,-0.0637829825282096,-0.016045793890953
1749041195.1344995,4.255446770894634,-1.2256195505705583,-1.5405392524116208,-4.121186933885788,4.3893577345842605,-2.6312722767275485,-0.00223656940257045,0.0012786628867812392,0.0006476003603748692,0.0025330545446062883,-0.0010023865608056362,0.0007983587783012438,0.0458989739418029,0.5934592485427856,0.9386472702026368,0.0989777147769928,-0.049443706870079,-0.0163314417004585
1749041195.1345644,4.255443007639182,-1.2256181105012376,-1.5405391707366944,-4.121183114571448,4.389359078428767,-2.631269938880494,-0.001864099537173101,0.0013614505744285984,0.000589430677772669,0.00239157709279496,-0.0009015216653415975,0.0006900416630891334,0.0327931493520736,0.5912747383117676,0.9373724460601808,0.0856459662318229,-0.0430903285741806,-0.0291778072714805
1749041195.1346085,4.255439732558071,-1.2256161846764126,-1.5405386351946015,-4.121179826640948,4.389360229808419,-2.6312680819014735,-0.0015141816111255153,0.0014533547856544452,0.0005533420652208508,0.002238127296160824,-0.0008083400938488138,0.0005993442690124292,0.0649343952536583,0.6272971034049988,0.942596197128296,0.095280222594738,-0.044157788157463,-0.0171847939491271
1749041195.134648,4.255436971920133,-1.2256136977710186,-1.5405375876096599,-4.121177120923572,4.389361064406863,-2.631266788170002,-0.0011907913338847914,0.001546320552959344,0.0005404239168036197,0.0020719671675572373,-0.0007224107190519429,0.0005265161686427203,0.0649343952536583,0.6272971034049988,0.942596197128296,0.095280222594738,-0.044157788157463,-0.0171847939491271
1749041195.134687,4.255434721965426,-1.2256106429686522,-1.5405360078592152,-4.121175009589661,4.389361497788172,-2.6312660978085636,-0.0008996727812247039,0.001631494764158107,0.0005508174463173396,0.0018939845099359236,-0.0006428830089116001,0.0004719084230319322,0.0258983336389064,0.6164221167564392,0.9301065802574158,0.0918618291616439,-0.0480063259601593,-0.0253529325127601
1749041195.1347258,4.255432945236982,-1.2256070818856184,-1.5405339194191539,-4.121173465063036,4.389361488803488,-2.6312660062136057,-0.0006486229354697403,0.0017001678784829132,0.0005836063566163275,0.001706725751390937,-0.0005687123814592552,0.0004359381423205288,0.0300314873456954,0.5949411988258362,0.9482945799827576,0.10584706813097,-0.0545082464814186,-0.0237837806344032
1749041195.134764,4.25543156882662,-1.2256031388966537,-1.5405313898102995,-4.121172423700166,4.3893610398159195,-2.631266465894672,-0.00044747038366161804,0.0017447274781859905,0.0006367224103960709,0.0015142022622028695,-0.0004988905043028498,0.000418908598588132,0.0352472141385078,0.5951880216598511,0.9406501650810242,0.0944196507334709,-0.050708919763565,0.0046079382300376
1749041195.1348016,4.255430485646199,-1.2255989901567355,-1.5405285256107881,-4.121171793101896,4.3893601941660725,-2.6312673918525284,-0.0003077331253439487,0.001759491401137287,0.0007068986470891483,0.0013215450232832195,-0.00043265594185176525,0.0004207014212097583,0.0349435172975063,0.6128051280975342,0.946199595928192,0.1086804717779159,-0.0339489728212356,-0.0199459567666053
1749041195.1348398,4.255429559034436,-1.225594847924293,-1.540525462701666,-4.121171461545911,4.389359031047682,-2.6312686696829437,-0.0002419726358474216,0.001741296910704686,0.000789703659609709,0.0011345926654197605,-0.00036966382011986346,0.00044037369087028636,0.0440790690481662,0.5814954042434692,0.9466922879219056,0.0884482562541961,-0.0300379991531372,-0.0291225537657737
1749041195.134878,4.255428629699434,-1.2255909414788941,-1.5405223531491723,-4.121171308063676,4.389357657876771,-2.631270165992007,-0.00026289109237154364,0.0016897644310517425,0.0008796857261546224,0.000959486331538021,-0.00031009765573107703,0.0004757056154765131,0.0342349670827388,0.5629599094390869,0.9466301798820496,0.0909734591841697,-0.0623544603586196,-0.0072368308901786
1749041195.1349158,4.2554275231573735,-1.2255874963899644,-1.540519350476626,-4.121171211983328,4.389356200472345,-2.6312717409853983,-0.00038224554130751256,0.001607217328788336,0.0009706451467609833,0.0008023203548015781,-0.0002547111297873968,0.0005227530821116827,0.0281317010521888,0.5928521752357483,0.946755826473236,0.0904904603958129,-0.0469946712255477,-0.0332873985171318
1749041195.1349533,4.255426056096069,-1.2255847139226665,-1.540516595084683,-4.121171061127034,4.389354791757381,-2.631273262751196,-0.0006096779470760328,0.001498300256557622,0.0010560361845144814,0.0006688722074908439,-0.0002047913419192037,0.0005754640200415155,0.0236158147454261,0.5560356378555298,0.9427745938301086,0.1145996451377868,-0.039086028933525,-0.0238018855452537
1749041195.1350036,4.255424041095037,-1.2255827523211351,-1.5405142014143773,-4.121170758096798,4.389353559976083,-2.631274622064654,-0.0009515818599990272,0.001369380388798226,0.0011294763973155018,0.0005644154605506657,-0.00016203749711087768,0.0006254181049727944,-0.00143613666296,0.5534510612487793,0.952699601650238,0.0971258729696273,-0.0416733250021934,-0.0177899524569511
1749041195.1350448,4.255421290027739,-1.2255817118420131,-1.5405122482423368,-4.121170224196998,4.389352617463379,-2.6312757461420038,-0.0014101396299602011,0.0012278332005372366,0.001185312967569634,0.0004936064443140949,-0.00012835092731884913,0.0006617448834152279,0.0287914499640464,0.5754842758178711,0.9491494297981262,0.0826663672924041,-0.0442749187350273,-0.038413368165493
1749041195.1350896,4.255417616907497,-1.2255816254380276,-1.5405107732001153,-4.1211694007024295,4.389352050877351,-2.6312766098559823,-0.0019826613750178104,0.001081310835042001,0.0012191692673399542,0.0004604277085448898,-0.00010553548476880694,0.0006712646422708446,-0.0108672231435775,0.5439859628677368,0.9320408701896667,0.102719709277153,-0.0273703783750534,-0.0341845378279686
1749041195.1351287,4.255412841140219,-1.22558245644935,-1.5405097720944878,-4.1211682474783204,4.389351913705355,-2.6312772432704254,-0.00266133063669809,0.000937074054597242,0.0012283809011488724,0.00046816887445573176,-9.491280609189374e-05,0.0006388787180377626,-0.0327954292297363,0.549437403678894,0.9297615885734558,0.1106239110231399,-0.0197608694434165,-0.0250551626086235
1749041195.1351662,4.255406792254987,-1.2255841035177912,-1.5405092029104057,-4.1211667392968145,4.389352221779088,-2.63127773477754,-0.0034334084064031657,0.0008014457218523999,0.0012122389996118846,0.0005194281689511773,-9.686485844915422e-05,0.0005482120022362359,-0.0013407692313194,0.5370579957962036,0.9311829209327698,0.1001150235533714,-0.0080681592226028,-0.0354097411036491
1749041195.1352038,4.2553993169198385,-1.2255864116848192,-1.5405089937227272,-4.121164860446404,4.389352952323097,-2.6312782296082533,-0.004281877032343603,0.0006794197639986919,0.001171991677634361,0.0006161250271007008,-0.00011032597056559645,0.00038248196426027146,-0.0148375630378723,0.5467934012413025,0.9146616458892822,0.1004439294338226,-0.0093171596527099,-0.0539920851588249
1749041195.135241,4.255390288152669,-1.2255891877884564,-1.5405090532852126,-4.121162598357236,4.389354046770668,-2.6312789240073773,-0.005186444540341081,0.0005744373996770626,0.0011106021381962986,0.0007595234483026772,-0.00013225733295741467,0.00012553864396027135,-0.0111825317144393,0.538854718208313,0.928777039051056,0.1057872250676155,-0.0041811168193817,-0.0553447976708412
1749041195.1352775,4.255379615428918,-1.2255922179667456,-1.5405092827961921,-4.121159937044989,4.389355417475971,-2.6312800558452736,-0.006124801591983592,0.0004883238151263238,0.0010323065215121691,0.0009502740562610774,-0.00015714766081203338,-0.00023700709987637124,-0.0588784404098987,0.5879417657852173,0.9300667643547058,0.1340504884719848,0.0204130262136459,-0.0885243192315101
1749041195.1353943,4.255367253578722,-1.2255952851501746,-1.5405095872750065,-4.121156851298827,4.389356958534208,-2.6312818928029067,-0.007074023316248536,0.0004213646532724391,0.0009420428145471996,0.0011884865097040488,-0.00017659316057907793,-0.0007166694756282676,-0.053114328533411,0.5434454083442688,0.9213346242904664,0.1323152929544448,0.0242243558168411,-0.0896930322051048
1749041195.1371086,4.255353208324788,-1.2255981847627255,-1.5405098852264965,-4.121153302599819,4.389358560801742,-2.631284719444449,-0.008012010283531766,0.0003724930625084209,0.0008448309689003124,0.0014738405373011414,-0.00017901689176594028,-0.001321096823834127,-0.0498215220868587,0.5547354221343994,0.9224060773849488,0.151724100112915,0.0409009903669357,-0.1104093119502067
1749041195.182302,4.255337536865625,-1.2256007374331293,-1.540510115796794,-4.121149237534029,4.389360130583549,-2.6312888243937156,-0.008918853368848931,0.00033955432353362166,0.0007451786459309501,0.0018057334233527636,-0.0001495909762490594,-0.002053299962879323,-0.0568881221115589,0.5752133131027222,0.9090010523796082,0.1476748883724212,0.057623341679573,-0.100056268274784
1749041195.1823473,4.255320342792449,-1.2256027982384323,-1.540510243211636,-4.121144588901535,4.389361610521959,-2.6312944884351035,-0.009778000276055597,0.00031961540353309424,0.0006465733155521998,0.0021834472842802858,-7.042399618470092e-05,-0.0029111598860511304,-0.0766393542289733,0.5705841779708862,0.9007787108421326,0.1482720673084259,0.0564970970153808,-0.1320863366127014
1749041195.1823878,4.255301765688971,-1.225604262611493,-1.5405102587072688,-4.12113927896193,4.389363000521491,-2.6313019738200922,-0.010577115859531323,0.00030929008258606856,0.0005511049485310831,0.002606306159279773,7.893054517736002e-05,-0.0038872261229310656,-0.0610826946794986,0.5353782773017883,0.8939386010169983,0.1571982353925705,0.0951131135225296,-0.1300194859504699
1749041195.182427,4.2552819667172495,-1.225605069345175,-1.5405101802919787,-4.121133223581835,4.389364376416488,-2.631311514692502,-0.0113085647072389,0.000305055390980665,0.00045924757748049325,0.0030737860016132965,0.00032060154292697486,-0.004968783459885801,-0.0331926941871643,0.5673466324806213,0.9040139317512512,0.1538042575120926,0.0822385251522064,-0.1349952816963195
1749041195.1824648,4.255261111965261,-1.2256052011269163,-1.5405100505499976,-4.121126335859684,4.389365904267523,-2.6313233086087613,-0.011969490595292042,0.00030354089727537627,0.0003698139309322628,0.0035855423382763272,0.0006771402971062142,-0.006138171271145567,-0.0742507800459861,0.5809637308120728,0.8896006941795349,0.1551734507083892,0.0927679240703582,-0.1371524184942245
1749041195.1825027,4.255239355301047,-1.225604682917611,-1.5405099325337923,-4.121118528317773,4.389367848143873,-2.6313375095389318,-0.012561514081044896,0.00030177798606298363,0.0002800841804197858,0.004141328644070049,0.001169880409945514,-0.007373379379140618,-0.068304106593132,0.5549774169921875,0.8694279789924622,0.1593295782804489,0.1016542613506317,-0.1633627265691757
1749041195.1825397,4.255216822323497,-1.225603578451404,-1.5405099038200174,-4.121109713670244,4.389370569015878,-2.6313542230341134,-0.013090112183371439,0.0002974009999568023,0.00018609513625470335,0.004740789733200075,0.0018169704272019936,-0.008648976896213034,-0.0941589251160621,0.568854808807373,0.8785446882247925,0.150136649608612,0.1222471743822097,-0.1688059121370315
1749041195.182577,4.255193596959803,-1.2256019851749773,-1.5405100490654755,-4.121099804848733,4.389374512574549,-2.6313735040173767,-0.013563775852857908,0.0002887956094784801,8.305900290594934e-05,0.005383127382623965,0.0026311953592692435,-0.009937415497943152,-0.0809702649712562,0.598798394203186,0.8648713231086731,0.1668568551540374,0.1196181923151016,-0.1691790074110031
1749041195.1826138,4.2551697121717496,-1.225600027814313,-1.540510451751516,-4.121088714983737,4.389380184960972,-2.6313953570236497,-0.013993052459502548,0.0002751919266873408,-3.413651913661843e-05,0.006066651539913752,0.003617776552590858,-0.01121067842234159,-0.079531505703926,0.576751708984375,0.8649642467498779,0.1410301774740219,0.1420701593160629,-0.1585220247507095
1749041195.182651,4.255145145933296,-1.225597850360788,-1.5405111861330079,-4.121076357623267,4.3893881174206815,-2.6314197383074074,-0.014389570228196813,0.0002567009402993207,-0.0001704082325947595,0.006788251570602299,0.004772405265975568,-0.012442149964847224,-0.0683561936020851,0.5825341939926147,0.850158154964447,0.1621666848659515,0.1567914336919784,-0.1611614972352981
1749041195.1826882,4.255119823238085,-1.2255956060083613,-1.5405123106624872,-4.121062647234303,4.389398823166838,-2.6314465594769683,-0.014765121307386468,0.00023429345733777052,-0.0003300049891167509,0.0075428464559343655,0.006079803684092,-0.01360849981513253,-0.0845570489764213,0.5932278633117676,0.8285291790962219,0.1577141135931015,0.1659118384122848,-0.162333458662033
1749041195.1827252,4.2550936244676025,-1.2255934449518562,-1.5405138642002782,-4.121047500305227,4.389412751480513,-2.6314756928676712,-0.015130865889291256,0.00020972176990271253,-0.0005161474823434368,0.00832289384609463,0.007513101782052368,-0.014691342691524705,-0.1092150136828422,0.5943155288696289,0.8209447264671326,0.1572668403387069,0.1785340160131454,-0.1561591327190399
1749041195.1827655,4.255066399813433,-1.2255915009180327,-1.5405158659345304,-4.12103083786336,4.389430244725284,-2.6315069790576877,-0.01549671625182939,0.00018538641552482424,-0.0007308323987946766,0.009118046170299486,0.009034259324109322,-0.01567845465148103,-0.1286019086837768,0.5755652189254761,0.8059085011482239,0.1744401007890701,0.1854701191186905,-0.1589571833610534
1749041195.1828032,4.2550379884324405,-1.2255898782340005,-1.5405183191189833,-4.121012590400864,4.3894515033464625,-2.6315402365789624,-0.015870956576559403,0.00016415372540330407,-0.0009748289580567541,0.009915032856484282,0.010595649616099743,-0.01656439404240324,-0.0818810164928436,0.5724391937255859,0.8027665019035339,0.1709232777357101,0.1839999407529831,-0.1519664227962494
1749041195.1828396,4.255008239839747,-1.2255886415897292,-1.540521217803793,-4.120992705793914,4.389476562373432,-2.6315752733881874,-0.016260137368703204,0.0001491337090196231,-0.0012478592812073305,0.010697824842050665,0.012142772869402404,-0.017350469594667798,-0.1134424358606338,0.5858498811721802,0.8040186762809753,0.1831221431493759,0.2028809189796447,-0.1590234488248825
1749041195.1828766,4.25497703422094,-1.2255878103627311,-1.5405245550528042,-4.120971159954609,4.389505281066884,-2.631611899380526,-0.016669247210814902,0.0001434312727012457,-0.0015489096871110187,0.011448109444003141,0.013617913389966452,-0.018044100826909503,-0.1230711787939071,0.591602087020874,0.8017483353614807,0.1748687475919723,0.2017722725868225,-0.1665515899658203
1749041195.1829133,4.254944298217328,-1.2255873586630999,-1.5405283309035345,-4.12094796903869,4.389537345803281,-2.6316499390618904,-0.017102118892191202,0.0001498862952425949,-0.0018765844490613672,0.01214607709399178,0.014964424506582637,-0.018657706616409534,-0.1304603517055511,0.5680592060089111,0.7843462228775024,0.1742779910564422,0.2193299978971481,-0.1773982644081115
1749041195.1829505,4.25491001328353,-1.2255872212219503,-1.5405325585947638,-4.120923201359305,4.389572285419712,-2.631689243227292,-0.01756198728271558,0.00017081987885979048,-0.0022294093289851376,0.012771499022661632,0.016131231465236165,-0.01920731696277018,-0.1390340477228164,0.5911034345626831,0.7854539752006531,0.1904166787862777,0.1885110586881637,-0.1717719733715057
1749041195.1829948,4.25487421481333,-1.225587303980542,-1.5405372682824219,-4.120896986852565,4.389609497842776,-2.6317296981974625,-0.0180520922051327,0.00020780557939263828,-0.0026060272512087217,0.013305055646769164,0.017077091109549473,-0.01971111854669318,-0.1502204835414886,0.5757204294204712,0.7525582313537598,0.191433310508728,0.1829231232404709,-0.1773538589477539
1749041195.1830442,4.254836981832559,-1.2255874971912195,-1.5405425082713118,-4.1208695219571405,4.389648286358061,-2.6317712312280697,-0.01857621293269148,0.00026148561350772037,-0.003005282655296551,0.013729854489335934,0.017774150506640204,-0.020188119024189564,-0.1502204835414886,0.5757204294204712,0.7525582313537598,0.191433310508728,0.1829231232404709,-0.1773538589477539
1749041195.183083,4.254798418923015,-1.225587688542934,-1.5405483443262202,-4.120841068048811,4.3896879031878715,-2.6318138113990135,-0.01913903256339825,0.00033145238579076065,-0.0034262303688512422,0.014033046491181589,0.01821042050992625,-0.020657060329626532,-0.1279180943965912,0.6084288358688354,0.7506604790687561,0.1920412331819534,0.1630278676748275,-0.1659077107906341
1749041195.1831205,4.254758633574876,-1.2255877742792896,-1.5405548577487462,-4.12081194218597,4.389727597546006,-2.63185744634215,-0.01974626014734929,0.00041621413635853155,-0.0038681092729871487,0.014207405846910076,0.018390920540121255,-0.021135640186756077,-0.1358232796192169,0.5913282632827759,0.7397838234901428,0.1912606358528137,0.1505685895681381,-0.1600331366062164
1749041195.1832302,4.254717712836008,-1.2255876670512273,-1.5405621427295502,-4.120782499941077,4.389766665282054,-2.63190217596678,-0.020404479747291312,0.0005132587770208788,-0.004330298788465326,0.014252688502617596,0.018337421760537164,-0.021640027365182442,-0.1699763536453247,0.6039736270904541,0.7361580729484558,0.1628320068120956,0.1619274467229843,-0.1558974981307983
1749041195.1850624,4.254675702906254,-1.2255873000549111,-1.5405703032038047,-4.1207531113311875,4.389804497248272,-2.631948064627882,-0.021120738041841846,0.0006192210609627832,-0.004812253191508247,0.014176552429821382,0.01808686945404219,-0.022184599976606923,-0.1660872399806976,0.5934810638427734,0.7155905961990356,0.1800499558448791,0.1580456048250198,-0.157446801662445
1749041195.226289,4.254632594578723,-1.2255866278463872,-1.540579449201195,-4.120724131987366,4.389840623214486,-2.631995193140863,-0.02190191769048899,0.0007301451564240045,-0.005313402701768504,0.013994838503989438,0.017688673223190163,-0.022781814931314943,-0.144681766629219,0.5936626195907593,0.7146652936935425,0.1662871390581131,0.1575153172016143,-0.1721844971179962
1749041195.2263362,4.2545883164749405,-1.2255856249724244,-1.5405896925445148,-4.120695872532087,4.389874747729483,-2.6320436518246373,-0.022753969836913968,0.0008418188466219221,-0.005833014772719822,0.013731086115285517,0.017201117975013995,-0.023442129765513298,-0.171549454331398,0.6156102418899536,0.7144450545310974,0.1792361736297607,0.1548493504524231,-0.1536928713321685
1749041195.2263775,4.2545427368793565,-1.2255842837957271,-1.5406011417151089,-4.120668569604489,4.389906774335581,-2.6320935353020283,-0.023681097849365843,0.000950139734249076,-0.006370007665157497,0.013415272999012157,0.016687188388167483,-0.024173926145230888,-0.2021446824073791,0.5724760293960571,0.7379862070083618,0.19562429189682,0.1587995737791061,-0.1727060377597808
1749041195.2264173,4.25449567361184,-1.225582612354438,-1.5406138958088562,-4.12064236200771,4.389936815232376,-2.632144939167373,-0.024684998849987858,0.001051462733391729,-0.006922702345368382,0.01308188561864244,0.0162101270121581,-0.02498340815580689,-0.1802634745836258,0.5809199810028076,0.7104018330574036,0.1881718337535858,0.1390954107046127,-0.1563811600208282
1749041195.2264564,4.254446910059968,-1.2255806321577802,-1.5406280377765407,-4.120617275018841,4.38996518471073,-2.632197958137091,-0.025764276649521953,0.0011428779016775764,-0.007488508319115489,0.012767513616664151,0.015829058384742502,-0.02587446282824575,-0.1991422027349472,0.6002213954925537,0.6998691558837891,0.1704539358615875,0.1630414426326751,-0.1593278050422668
1749041195.2264955,4.254396214705699,-1.2255783752845277,-1.5406436274577586,-4.120593215035488,4.389992376237571,-2.6322526851648624,-0.02691412868761177,0.0012223815421331307,-0.008063573542328355,0.012508210457131073,0.015595001277460881,-0.02684848144116382,-0.1992719173431396,0.5966095924377441,0.6898718476295471,0.1925097107887268,0.1555162072181701,-0.1430427730083465
1749041195.2265337,4.254343361405898,-1.2255758804098968,-1.5406606950956188,-4.120569975452529,4.3900190248117825,-2.6323092111374553,-0.028126372702575023,0.0012889274446361409,-0.008642467725972273,0.012336878372919372,0.015547557530714925,-0.027904155719300994,-0.1802068948745727,0.5948313474655151,0.7039207816123962,0.1961288750171661,0.1782671958208084,-0.172531247138977
1749041195.2265708,4.254288148047832,-1.2255731880658647,-1.5406792360378048,-4.120547253080483,4.39004585788399,-2.6323676248805143,-0.029389821529478048,0.0013423697946929676,-0.009217984756599495,0.01228092502781188,0.01571251243117605,-0.029037286267295268,-0.2063696682453155,0.5827221870422363,0.7094712257385254,0.2105788141489029,0.1844478100538253,-0.1724482476711273
1749041195.2266085,4.254230411629154,-1.225570335963803,-1.5406992072873675,-4.120524672886912,4.390073639366834,-2.632428013164377,-0.03069095565059078,0.00138332676175127,-0.0097811397979262,0.012360404037238367,0.016100512349290302,-0.030240666634560917,-0.2207673490047454,0.6067702770233154,0.6841433048248291,0.2050465792417526,0.1875252276659011,-0.1807571947574615
1749041195.2266457,4.254170038232744,-1.2255673553302031,-1.540720526434601,-4.120501817808459,4.390103111778285,-2.632490460323712,-0.03201480602727145,0.001413001308251786,-0.010321413897769978,0.012586796590238465,0.016706905926356323,-0.031504121686780254,-0.2119133472442627,0.6256681680679321,0.6926963925361633,0.2103605270385742,0.2064930647611618,-0.1777024865150451
1749041195.2266834,4.254106966992977,-1.2255642689710997,-1.540743073175567,-4.120478260074027,4.390134941389501,-2.6325550471391708,-0.03334595462808472,0.001432994097354528,-0.010827268815501594,0.012962527258262775,0.01751274928523737,-0.032814769196521154,-0.2268927991390228,0.6217350959777832,0.7057061195373535,0.2160620093345642,0.1957545131444931,-0.1892147809267044
1749041195.2267208,4.254041188104082,-1.2255610913772514,-1.5407666932191084,-4.120453590795917,4.39016967065742,-2.63262184883727,-0.03466957295250516,0.0014451346494764497,-0.011286912290397938,0.013481241829585319,0.01848688282499544,-0.03415753760235873,-0.2431772649288177,0.6193187236785889,0.6977859735488892,0.224573016166687,0.1926294714212417,-0.192340150475502
1749041195.2267582,4.253972735917787,-1.2255578308093258,-1.5407912041722425,-4.12042744525961,4.390207681492209,-2.632690932473589,-0.03597242360052514,0.0014513443951094155,-0.011689244120998867,0.014128807168826576,0.019588890765933724,-0.0355159248141112,-0.2420825660228729,0.6190890073776245,0.6951478719711304,0.226100742816925,0.1932793408632278,-0.1865869462490081
1749041195.2267954,4.2539016786912835,-1.2255544929671236,-1.5408164030348124,-4.1203995222005085,4.390249172222516,-2.632762354488423,-0.03724373649537654,0.0014535332145752353,-0.012024873768952645,0.014884918453768207,0.02077267039951533,-0.03687293982240634,-0.2140459865331649,0.5804312229156494,0.7111366391181946,0.2386242002248764,0.2091419994831085,-0.1889802366495132
1749041195.226833,4.253828106391409,-1.225551085459369,-1.540842075033514,-4.120369596303532,4.390294150479092,-2.6328361595350644,-0.038475857691094226,0.0014535228756355702,-0.01228708295294292,0.015725125934444514,0.02199028327431936,-0.03821214059250663,-0.2287495136260986,0.593477725982666,0.6977201700210571,0.2254493832588195,0.2095233500003814,-0.1865445077419281
1749041195.2268708,4.253752117604705,-1.225547621982346,-1.5408680035133324,-4.120337523999119,4.390342443377606,-2.632912381422503,-0.03966458277635298,0.0014529877554259273,-0.012472611120081141,0.016623042882667714,0.02319574123655905,-0.03951867035055539,-0.2736956477165222,0.6013020277023315,0.6835965514183044,0.24417445063591,0.2002748847007751,-0.1895221471786499
1749041195.226908,4.253673806662624,-1.225544125150439,-1.540893980477635,-4.120303243139246,4.390393724990685,-2.6329910461991664,-0.040809139051373074,0.001453404929061197,-0.012582162289592505,0.01755248544194208,0.024348395086396756,-0.04078019708767416,-0.2498068809509277,0.6125161647796631,0.7063730955123901,0.240965336561203,0.1936729997396469,-0.1914957016706466
1749041195.2269456,4.253593252505984,-1.225540627290549,-1.5409198172183343,-4.120266767339396,4.390447558992879,-2.6330721764397023,-0.04191185115557411,0.0014560106478363267,-0.012620565012798268,0.018489323259909353,0.025415642894422965,-0.041987673246754086,-0.2603363990783691,0.5958409905433655,0.7083629369735718,0.2447296231985092,0.1857493817806244,-0.1972030401229858
1749041195.2269828,4.253510510870936,-1.2255371689379642,-1.5409453544127327,-4.120228175863709,4.39050345177573,-2.6331557951538365,-0.042977578855102005,0.0014617658354627188,-0.01259656052613975,0.01941287547771277,0.026374756978052624,-0.04313585018717928,-0.2767781913280487,0.6097652912139893,0.7101175785064697,0.2283833920955658,0.1801089495420456,-0.1892383992671966
1749041195.2270205,4.2534256106809885,-1.2255337951270748,-1.5409704711099588,-4.120187600024056,4.390560908945723,-2.6332419276674996,-0.04401303489479563,0.0014713365696154403,-0.01252224229783196,0.020306759115132696,0.027213732643561084,-0.04422350474309965,-0.2865106463432312,0.6116477847099304,0.7131862640380859,0.2498726993799209,0.1867794692516327,-0.2047711908817291
1749041195.2272468,4.253338554511427,-1.2255305499664608,-1.5409950920585371,-4.120145207179331,4.390619486957323,-2.6333306003073904,-0.04502608461627793,0.0014850949619105316,-0.01241221373178721,0.021159178747307612,0.027931171602073823,-0.0452533671138637,-0.2837522625923157,0.5925634503364563,0.7013554573059082,0.2555770576000213,0.1844755858182907,-0.1997140944004058
1749041195.2290173,4.253249322312498,-1.2255274703852461,-1.5410191927257588,-4.120101183611989,4.3906788325432995,-2.6334218355931296,-0.046025113486972996,0.0015031416430841772,-0.01228256021572734,0.021962727545388593,0.028535312595217934,-0.04623178105947858,-0.3094291090965271,0.6101106405258179,0.6988052725791931,0.2575156092643738,0.1881269514560699,-0.2020711749792099
1749041195.2702963,4.253157877369778,-1.2255245800564414,-1.5410428012478952,-4.120055717809723,4.39073870546129,-2.633515644752175,-0.04701852817494046,0.001525344716369236,-0.012149743228711492,0.022713834511525536,0.02904239741811546,-0.04716816583429041,-0.2769137024879455,0.5980442762374878,0.7131535410881042,0.2580431401729584,0.1662185490131378,-0.1794504523277282
1749041195.2703426,4.253064173423186,-1.2255218842755686,-1.5410659966361413,-4.120008985757374,4.390798983680783,-2.633612019485929,-0.048014429327892016,0.0015513840706878406,-0.01202952169194707,0.023412026630816856,0.029474601507315814,-0.048074365281284004,-0.2838872671127319,0.6206029057502747,0.6930018663406372,0.2608973979949951,0.1885285079479217,-0.2147575765848159
1749041195.2703846,4.252968161759537,-1.2255193663383779,-1.5410889029103156,-4.119961139470876,4.390859653191547,-2.63371092562484,-0.049020460376933826,0.0015807876137179657,-0.01193599523139439,0.02405917368405952,0.029857761880420896,-0.04896395805755337,-0.3084878921508789,0.5953115820884705,0.7044203877449036,0.2462745755910873,0.1775247454643249,-0.212828055024147
1749041195.2704246,4.252869797083387,-1.2255169859987793,-1.5411116793881563,-4.119912299196476,4.390920786627758,-2.6338123012544044,-0.05004380077882398,0.0016129499408261197,-0.01188084726417657,0.024658852496663768,0.030219108621343485,-0.049851577726899764,-0.293369710445404,0.6103274822235107,0.6971926689147949,0.2475160956382751,0.1715397983789444,-0.1868379116058349
1749041195.2704637,4.252769041222617,-1.2255146807310537,-1.5411345079807597,-4.119862548829885,4.390982515960608,-2.6339160609919374,-0.05109124150822822,0.0016471340255781158,-0.011872841354990832,0.025215912318206118,0.030585162402338467,-0.0507522678349175,-0.300816923379898,0.6086658239364624,0.6921427845954895,0.248253732919693,0.1720715761184692,-0.2179441899061203
1749041195.2705028,4.252665864190971,-1.2255123703957198,-1.541157578772956,-4.119811933669282,4.391045004595451,-2.6340221065153764,-0.052169263827056556,0.0016824684390148812,-0.011917593851540929,0.025736251750738272,0.030979915172350835,-0.05168087930234218,-0.3112290501594543,0.6000961065292358,0.6944516897201538,0.2546978890895843,0.1978819519281387,-0.1911929994821548
1749041195.270542,4.25256024268686,-1.2255099653245187,-1.5411810752475104,-4.119760459828794,4.391108423200356,-2.6341303416142763,-0.053284044633043696,0.0017179596735949307,-0.012017615463889873,0.026226747921582805,0.03142337760606066,-0.05265150395078393,-0.3008048236370086,0.6076948642730713,0.6685553789138794,0.2612613439559936,0.1957825422286987,-0.2090160995721817
1749041195.2705803,4.25245215660733,-1.2255073768943474,-1.541205160410274,-4.119708095254597,4.39117293182006,-2.6342406886636467,-0.054441333055498725,0.0017525367136497078,-0.012172589407853799,0.026695235690234694,0.03193055815177414,-0.05367692992754725,-0.3061483204364776,0.6201313734054565,0.6853463649749756,0.2511279582977295,0.2070626318454742,-0.2004104703664779
1749041195.270619,4.252341584388477,-1.2255045287169495,-1.5412299650416286,-4.119654772814959,4.391238669049783,-2.6343531031337246,-0.05564617952709481,0.0017851339319222437,-0.012379834870606553,0.027150433786596456,0.032510922809948606,-0.05476810403285081,-0.3211723566055298,0.6107413172721863,0.6721736192703247,0.261947900056839,0.2026309072971344,-0.1980103552341461
1749041195.2706563,4.252228497872207,-1.2255013661513448,-1.5412555793557774,-4.119600396106688,4.391305747790116,-2.634467583516071,-0.056902542633592325,0.0018148039374841153,-0.012634890589666343,0.027601746516971046,0.03316835514052392,-0.055933591297276944,-0.338955283164978,0.5915959477424622,0.6771098971366882,0.2505030035972595,0.2125829458236694,-0.2105173915624618
1749041195.2706938,4.252112857143466,-1.2254978623042705,-1.5412820492995225,-4.119544848484254,4.391374256352919,-2.6345841752374053,-0.058212839318610585,0.0018408400018849554,-0.012932144882091911,0.028058910769856876,0.033901585629747356,-0.05717903395537239,-0.3339633643627167,0.5960714817047119,0.6813583374023438,0.2474628984928131,0.2122575491666793,-0.205113336443901
1749041195.2707307,4.251994605745696,-1.2254940198656514,-1.5413093783185232,-4.1194880054511245,4.391444263213531,-2.634702968163284,-0.05957752985013778,0.0018628823635073357,-0.013265438431119693,0.028531495546950482,0.03470499937309001,-0.058506634347136884,-0.3692417442798614,0.5921722650527954,0.6682519912719727,0.2456030249595642,0.1987301260232925,-0.2214649319648742
1749041195.2707672,4.251873667158494,-1.2254898693514709,-1.5413375345175924,-4.119429749880791,4.391515823489272,-2.634824088086954,-0.060994834874420235,0.0018809859430361198,-0.013628576722074714,0.029028296415402995,0.03556968514497207,-0.05991471888732419,-0.3380249142646789,0.6009793877601624,0.6739383339881897,0.2735822200775146,0.1965055763721466,-0.2084822952747345
1749041195.2708042,4.251749944201799,-1.2254854648579774,-1.5413664619469476,-4.119369988578726,4.391588985360474,-2.6349476833575514,-0.06246066763448795,0.0018956376299892842,-0.01401571011393518,0.029556700005530234,0.03648457992945574,-0.061397470399499006,-0.3540065288543701,0.5978797078132629,0.6677771210670471,0.2605725526809692,0.2046614587306976,-0.2039439976215362
1749041195.2708445,4.25162332321415,-1.2254808781269673,-1.5413960938512012,-4.1193086678150665,4.391663795067819,-2.6350739085190757,-0.06396883288087259,0.001907725087575627,-0.01442156847287001,0.030122116100474435,0.03743759372667325,-0.06294492571454845,-0.3873250782489776,0.6123512387275696,0.6723318099975586,0.2727420628070831,0.2199172079563141,-0.1937816590070724
1749041195.270882,4.251493683673437,-1.2254761911669811,-1.5414263656285694,-4.119245785077547,4.391740299631913,-2.6352029072287664,-0.06551149755970843,0.0019184702005117203,-0.01484156720570105,0.03072757819774311,0.03841664656036639,-0.06454331890802738,-0.3584518432617187,0.5945827960968018,0.6628895998001099,0.2710137963294983,0.2130293548107147,-0.2037094682455063
1749041195.2709217,4.251360911826468,-1.2254714875688,-1.5414572258615769,-4.119181394522765,4.391818546944255,-2.6353347966538063,-0.06707988053587002,0.0019293438219597204,-0.015271822273030686,0.031373593069272135,0.03941058006336658,-0.0661758203227619,-0.3240692913532257,0.5977486968040466,0.6509413719177246,0.2925904989242553,0.2032356560230255,-0.2110005319118499
1749041195.2709692,4.251224915217795,-1.2254668431734863,-1.5414886445292495,-4.11911560432263,4.391898583397443,-2.635469655247972,-0.06866505695338848,0.0019419726721256218,-0.015709116648458504,0.032058278179102916,0.040409906041771596,-0.06782368728292117,-0.3650050461292267,0.5779342651367188,0.6647492051124573,0.2714235186576843,0.219747394323349,-0.2297652959823608
1749041195.2710264,4.251085634682356,-1.2254623175166448,-1.541520617990455,-4.119048565223397,4.391980449825003,-2.6356075156014396,-0.07025875499564252,0.001958038058442849,-0.01615085181494473,0.03277777584748469,0.04140734464926741,-0.06946779288371495,-0.364047646522522,0.5906535387039185,0.6616101861000061,0.2791076302528381,0.2103693634271621,-0.2161464989185333
1749041195.2710674,4.2509430512215225,-1.2254579478884147,-1.5415531705735737,-4.11898045103299,4.392064177172127,-2.635748363868177,-0.07185404355693938,0.001979158077504522,-0.016595003255156927,0.03352689372081315,0.042398121230316485,-0.07109042038407722,-0.3716471195220947,0.5901233553886414,0.6657123565673828,0.2908940315246582,0.242853507399559,-0.2073380649089813
1749041195.271179,4.250797186481851,-1.225453747458548,-1.5415863528089815,-4.118911433150805,4.392149783721125,-2.635892146724881,-0.07344584420201605,0.002006747486659343,-0.017040085402328355,0.03429990030109599,0.04338004236567579,-0.07267711741711351,-0.3513123989105224,0.595923900604248,0.6678983569145203,0.3006522357463836,0.2131093144416809,-0.1822557747364044
1749041195.2730238,4.250648096757279,-1.225449707714936,-1.5416202365787497,-4.118841652345741,4.392237275441033,-2.6360387857013863,-0.07503123239367022,0.002041862579343588,-0.01748512149647243,0.035091389136857866,0.044353422477352224,-0.07421834120483597,-0.3812523484230041,0.5970650911331177,0.6688397526741028,0.2808520197868347,0.2205048352479934,-0.1955954134464264
1749041195.3142946,4.250495861393769,-1.2254458040514649,-1.541654907739719,-4.118771191584767,4.392326650112632,-2.636188197223101,-0.07660952384853792,0.0020850542618003802,-0.017929607374116693,0.03589709970815164,0.045320938669902715,-0.07571063741954068,-0.3725198805332184,0.6162876486778259,0.6675527095794678,0.2860398590564728,0.2314336001873016,-0.2086501270532608
1749041195.3143442,4.250340567249039,-1.2254420026024235,-1.5416904570929946,-4.118700053762919,4.392417904827645,-2.636340315213616,-0.07818216946394534,0.002136260749905377,-0.01837345741208442,0.03671455522007374,0.04628744728101897,-0.07715718659109194,-0.3970608413219452,0.6088152527809143,0.6502501964569092,0.2758466899394989,0.210042804479599,-0.2220533490180969
1749041195.3143857,4.250182291489149,-1.2254382667579318,-1.541726970857177,-4.118628147753154,4.392511045712623,-2.6364951121385514,-0.07975249259275297,0.0021947661810741135,-0.018816929016521,0.037543378781797726,0.04725973359007853,-0.07856767275181886,-0.3788767158985138,0.60411137342453,0.6488678455352783,0.2769900858402252,0.2081694304943084,-0.1925607472658157
1749041195.314425,4.250021085374,-1.225434562672883,-1.5417645219479879,-4.118555285401312,4.3926060982224175,-2.6366526144458486,-0.08132529433410837,0.0022592352133619783,-0.019260538028884527,0.03838520153777743,0.048246126203351794,-0.07995751389701948,-0.4118586182594299,0.6058349013328552,0.6428584456443787,0.2802010476589203,0.2360371202230453,-0.203731432557106
1749041195.3144646,4.249856961594784,-1.2254308636367646,-1.5418031633132907,-4.118481190954446,4.392703115974122,-2.636812909564029,-0.08290634863190616,0.0023278149589364984,-0.01970499131512347,0.03924316679149982,0.04925591241914755,-0.08134652892074162,-0.399552583694458,0.603442907333374,0.6463156938552856,0.3010216951370239,0.2339968383312225,-0.2037328630685806
1749041195.3145037,4.24968988708406,-1.2254271531653582,-1.5418429243065204,-4.118405522813044,4.392802186086548,-2.636976143455371,-0.08450183069897,0.0023982843747775754,-0.020151161548814328,0.04012112747396121,0.05029853655287055,-0.08275714089079317,-0.3692227900028229,0.6199846863746643,0.6439875364303589,0.3035236597061157,0.237276092171669,-0.201966643333435
1749041195.3145416,4.249519782074399,-1.2254234264712995,-1.5418838106006008,-4.118327905452746,4.392903429590961,-2.6371425095607774,-0.0861177593035215,0.0024682322486891486,-0.020600109072107103,0.041022698158114324,0.05138262432963511,-0.08421226178955121,-0.4250304996967315,0.6000701785087585,0.6481555700302124,0.3057141602039337,0.2228682786226272,-0.2062453031539917
1749041195.3145795,4.249346524700442,-1.2254196898839507,-1.5419258075527984,-4.118247967272798,4.3930069965097,-2.637312231541061,-0.08775955336107766,0.0025352539034024456,-0.02105312786599745,0.041950339800293265,0.05251492671870756,-0.08573305482475,-0.4124764800071716,0.5973579287528992,0.6543282866477966,0.3011491298675537,0.2317088991403579,-0.2107440531253814
1749041195.3146172,4.249169959001728,-1.2254159579295827,-1.541968886502387,-4.118165378652714,4.393113056212271,-2.6374855434758517,-0.08943178771419598,0.00259716396346285,-0.02151177380500595,0.04290462556481993,0.053699306028754244,-0.08733679756952327,-0.4124764800071716,0.5973579287528992,0.6543282866477966,0.3011491298675537,0.2317088991403579,-0.2107440531253814
1749041195.3146548,4.248989903468178,-1.2254122481917284,-1.5420130133304064,-4.118079884221627,4.393221784305164,-2.637662671818814,-0.09113818753728074,0.002652220432343139,-0.021977831446606828,0.043883780245710144,0.05493589509213799,-0.08903506351829674,-0.4198334217071533,0.6271792650222778,0.6465070843696594,0.3211188912391662,0.2236202657222747,-0.2108962386846542
1749041195.3146915,4.248806158012658,-1.2254085746523085,-1.5420581583488708,-4.117991324618516,4.3933333474520255,-2.637843822640853,-0.09288183606486858,0.0026993433702992846,-0.022453186652122908,0.04488353290132265,0.056220543166188325,-0.09083241230223826,-0.4238266944885254,0.6144336462020874,0.6602396965026855,0.307070642709732,0.2206710875034332,-0.2415036857128143
1749041195.314728,4.24861850942529,-1.225404940712871,-1.5421043058266244,-4.117899645676675,4.39344788722126,-2.638029175140433,-0.09466549580948455,0.0027382958738753735,-0.02293959121985928,0.04589728501319654,0.057544622076088674,-0.09272573703522731,-0.3823916018009186,0.6020560264587402,0.65754234790802,0.3255948424339294,0.2292323112487793,-0.2240371406078338
1749041195.3147657,4.2484267375680815,-1.2254013332585783,-1.5421514606181186,-4.117804895981444,4.393565503722683,-2.638218879277536,-0.09649188194449743,0.0027697854321987875,-0.02343833364038598,0.04691656840934502,0.05889522405138749,-0.09470435283109623,-0.4223388731479645,0.5952163934707642,0.6413730382919312,0.3199836313724518,0.2364451140165329,-0.2182438820600509
1749041195.3148024,4.248230625149648,-1.225397718880323,-1.5421996493755292,-4.11770721577248,4.393686240008188,-2.6384130537976116,-0.09836371486107587,0.0027954482250197024,-0.023949865656547557,0.04793174184122929,0.06025576135802075,-0.0967508194249572,-0.4281531572341919,0.6241409182548523,0.6373828053474426,0.2983697950839996,0.2495465129613876,-0.2097239047288894
1749041195.3148396,4.248029972663315,-1.2253940429006105,-1.5422489150615568,-4.117606820619577,4.3938100691193895,-2.638611781692183,-0.1002834409210943,0.0028176995028790126,-0.024473463441731704,0.04893285445462575,0.06160697399293944,-0.09884239850625386,-0.3818798065185547,0.5971333980560303,0.6586035490036011,0.3016737103462219,0.2345048636198043,-0.2026206851005554
1749041195.31488,4.2478246179360255,-1.2253902314132301,-1.5422993054406307,-4.1175039826132,4.393936886646027,-2.638815102365992,-0.10225263379429637,0.0028394637553394416,-0.025007008088451056,0.04991059317207385,0.062928340081142,-0.1009529933793743,-0.4714457392692566,0.5864990949630737,0.650915265083313,0.3082100749015808,0.2571093738079071,-0.218802198767662
1749041195.3149245,4.247614457433533,-1.2253861961837937,-1.54235085815947,-4.1173990105888825,4.394066511838191,-2.639023002217621,-0.10427122764644352,0.00286382755554124,-0.025546950515677534,0.05085723174349972,0.0641998448542211,-0.10305541233330219,-0.4714457392692566,0.5864990949630737,0.650915265083313,0.3082100749015808,0.2571093738079071,-0.218802198767662
1749041195.314968,4.247399464499342,-1.2253818418836757,-1.5424035863162882,-4.117292229590626,4.394198699355966,-2.6392354072351507,-0.1063368242213697,0.00289367499915895,-0.02608849115262935,0.05176750910526749,0.06540399679330236,-0.1051237981415601,-0.433504581451416,0.6354933381080627,0.6392850279808044,0.3073830604553222,0.2291639596223831,-0.220273733139038
1749041195.3150146,4.2471796991974955,-1.2253770747828034,-1.5424574685372385,-4.117183959010148,4.394333161900276,-2.6394521817320875,-0.1084443042602735,0.002931365468747481,-0.02662596369552266,0.0526393740250664,0.06652789286457984,-0.10713603597708299,-0.3867138922214508,0.6157081723213196,0.6525267362594604,0.3132230937480926,0.2113900184631347,-0.2020768523216247
1749041195.3150527,4.246955306325411,-1.2253718117912202,-1.542512446342461,-4.117074489265305,4.394469601614898,-2.639673135815622,-0.11058586009069724,0.0029784979789169892,-0.027153372710672426,0.053474531835794134,0.0675650515919912,-0.10907589962286687,-0.4346663653850555,0.6047791242599487,0.6462706327438354,0.3110682964324951,0.2174633890390396,-0.1931929290294647
1749041195.3151543,4.246726501573148,-1.2253659886219683,-1.5425684295100752,-4.116964058274213,4.394607745804907,-2.6398980413273887,-0.11275142295679814,0.003035782495193344,-0.02766501087763776,0.05427871739334593,0.06851669671545824,-0.11093466781359847,-0.460235059261322,0.6283460259437561,0.6142181754112244,0.2892812192440033,0.2286970913410186,-0.2283097207546234
1749041195.317046,4.246493548654452,-1.2253595659005598,-1.542625308138232,-4.116852830235768,4.3947473810638,-2.640126653766708,-0.11492936960330469,0.003103015031906453,-0.02815608225636471,0.05506160891682898,0.0693922238534554,-0.11271197740445797,-0.4543607234954834,0.6139435768127441,0.6436113715171814,0.2686876952648163,0.2324231266975402,-0.2018850594758987
1749041195.358281,4.246256731511566,-1.225352532400674,-1.5426829687370567,-4.116740879515667,4.394888380001143,-2.640358737169193,-0.11710737657248159,0.003179136673182584,-0.028623271592252635,0.05583630886360108,0.07020870982257905,-0.11441577603585036,-0.4236624836921692,0.6171945333480835,0.649928092956543,0.3028128147125244,0.1980822682380676,-0.2207666933536529
1749041195.3583272,4.246016325783734,-1.22534490523798,-1.5427413110662018,-4.116628181865519,4.395030716292001,-2.6405940893891184,-0.11927330835477992,0.003262349273957912,-0.02906520589512798,0.056618362763046694,0.07098947977746813,-0.11606136072345094,-0.3905282914638519,0.5877952575683594,0.6461352109909058,0.3187446296215057,0.2145214676856994,-0.2054089903831482
1749041195.3583682,4.245772573138459,-1.225336727544948,-1.5428002625843518,-4.116514614323411,4.3951744660923895,-2.6408325655199585,-0.12141604339345227,0.0033502623574875397,-0.02948275078350618,0.05742435805355051,0.07176188744093559,-0.11766960785778842,-0.4281587898731231,0.6288303136825562,0.6503010988235474,0.3053716719150543,0.2104518413543701,-0.2369143366813659
1749041195.3584085,4.245525661087203,-1.2253280645511988,-1.5428597882845858,-4.11639996427838,4.395319796305568,-2.641074096851013,-0.12352615895815851,0.003440056057007359,-0.02987908844101359,0.0582702181650359,0.07255457230983227,-0.11926460019855294,-0.4256847500801086,0.6317169666290283,0.6580433249473572,0.2986419796943664,0.2385359406471252,-0.2303999662399292
1749041195.3584466,4.245275709856221,-1.22531899897056,-1.5429198950547918,-4.1162839472823745,4.395466942217485,-2.6413187023570908,-0.12559642121418904,0.0035286599525645407,-0.030259549990743807,0.05916936101938322,0.07339452818133238,-0.12087093439299872,-0.4413374364376068,0.5978378057479858,0.6323157548904419,0.3232777714729309,0.2252906262874603,-0.2242505401372909
1749041195.3584852,4.245022766924962,-1.2253096262650274,-1.5429806309384233,-4.116166232181223,4.395616178290585,-2.641566490163068,-0.12762205655361744,0.0036129574610242765,-0.030631214021323072,0.060130921586535276,0.07430433992533612,-0.1225110433396901,-0.4203685224056244,0.6127758026123047,0.6418393850326538,0.3417892456054687,0.219669222831726,-0.239380270242691
1749041195.3585234,4.244766808975508,-1.2253000499814273,-1.5430420803412936,-4.116046471171365,4.395767786228252,-2.6418176479847313,-0.12960080177120006,0.0036900198927381136,-0.03100231562399097,0.06115824844394184,0.07529991922824597,-0.12420287925665507,-0.412575364112854,0.6137819886207581,0.6408444046974182,0.3253188133239746,0.2459985464811325,-0.2411427348852157
1749041195.3585615,4.244507750259008,-1.2252903771911254,-1.5431043563674156,-4.115924331751397,4.395922023952153,-2.6420724235177504,-0.13153274288551173,0.003757353679174742,-0.03138152770992108,0.06224787141550248,0.07638900690865791,-0.12595826032661858,-0.4074578881263733,0.6039852499961853,0.6375361084938049,0.3299245238304138,0.2646187543869018,-0.2404981255531311
1749041195.3585987,4.244245455856959,-1.2252807141519506,-1.5431675913741094,-4.115799527350166,4.396079098418212,-2.6423310972243956,-0.1334199693679231,0.0038131228429273516,-0.03177718414720934,0.06338909826359099,0.07757061536747584,-0.12778208227208046,-0.4078438282012939,0.6157493591308594,0.6373523473739624,0.3300016224384308,0.2524611949920654,-0.2801361083984375
1749041195.3586488,4.243979758021876,-1.2252711624368706,-1.543231926700956,-4.115671843590558,4.3962391446815765,-2.6425939507030636,-0.1352661018019566,0.00385630408716914,-0.032196520472036735,0.06456434259187543,0.07883545428408674,-0.12967245545206016,-0.4257649183273315,0.6233447194099426,0.6370561122894287,0.3338813185691833,0.244380921125412,-0.2792309522628784
1749041195.358716,4.2437104737393225,-1.2252618157189192,-1.5432975023362543,-4.115541157580791,4.396402213187214,-2.6428612341597075,-0.1370757874897344,0.003886748698838849,-0.0326450121842438,0.06575022503000522,0.08016722622303668,-0.13162167777893846,-0.4671903848648071,0.5967504978179932,0.6245206594467163,0.3613133430480957,0.2419144660234451,-0.2576797902584076
1749041195.3587835,4.243437421871713,-1.2252527572035128,-1.5433644470517234,-4.115407448316514,4.396568266481579,-2.6431331366757993,-0.13885427622046845,0.003905151625810602,-0.033125884933520276,0.06691941975865738,0.08154454316757521,-0.13361781527308614,-0.4286824762821197,0.6040832996368408,0.6271863579750061,0.3473260700702667,0.2241740971803665,-0.2588854432106018
1749041195.3588574,4.243160438651547,-1.2252440575319017,-1.5434328694177613,-4.1152707972734985,4.3967371852232535,-2.6434097627693345,-0.14060716395427628,0.003912946905825884,-0.03363984918287942,0.06804312100757365,0.08294315800723641,-0.13564655967514352,-0.4399699866771698,0.6148234605789185,0.6376981139183044,0.3322426974773407,0.2479413598775863,-0.2574217915534973
1749041195.3589258,4.242879390736783,-1.225235772936019,-1.5435028501856316,-4.115131379514478,4.396908781802744,-2.643691117868666,-0.14234032627412369,0.003912153189224092,-0.0341850767206552,0.0690938862476629,0.08433824425906908,-0.1376930017715628,-0.4184799790382385,0.5944369435310364,0.6320710778236389,0.3091518580913543,0.2579058408737182,-0.2421800941228866
1749041195.3589928,4.2425941853503835,-1.2252279434925786,-1.5435744366200468,-4.114989446877686,4.3970828187484905,-2.6439771038930906,-0.14405998527771563,0.0039051888638864983,-0.03475739741360639,0.07004852267619306,0.08570654635303077,-0.13974301529386177,-0.438004583120346,0.6148445010185242,0.6212949156761169,0.3360344767570495,0.2693068385124206,-0.2672766447067261
1749041195.3590603,4.242304777059441,-1.2252205914572667,-1.5436476393011638,-4.114845305706395,4.397259029046144,-2.6442675247272778,-0.14577279307793242,0.003894672696256924,-0.03535066388678436,0.07089067098212036,0.08702829018758707,-0.14178406660137086,-0.430231511592865,0.6027863621711731,0.6435848474502563,0.3401501476764679,0.2468409240245819,-0.2552180290222168
1749041195.359128,4.242011170580252,-1.2252137198188946,-1.5437224317140212,-4.114699291930894,4.397437136476111,-2.6445621005114255,-0.14748578996762451,0.0038832261374105574,-0.03595721946055916,0.07161280087724584,0.08828876088580283,-0.14380541710515574,-0.4115349650382995,0.5823013782501221,0.6512329578399658,0.3201847672462463,0.2338672578334808,-0.2516229748725891
1749041195.3591924,4.241713419001301,-1.2252073113370165,-1.54379875267292,-4.114551746198552,4.397616875239827,-2.644860489360369,-0.14920612664147084,0.003873292694165634,-0.03656841583868527,0.07221741359913939,0.08947945182338764,-0.14579784430198695,-0.4523961246013641,0.6102433204650879,0.6151153445243835,0.3201383352279663,0.2430518120527267,-0.2781574428081512
1749041195.359257,4.241411617316494,-1.225201328366392,-1.543876511245001,-4.114402991254551,4.397798008716429,-2.6451623149376884,-0.15094054000720006,0.0038669843699752774,-0.037175156949959785,0.07271730968026045,0.09059870449534103,-0.14775314428327127,-0.4697679579257965,0.611473798751831,0.6279369592666626,0.297724038362503,0.2439201325178146,-0.2776740491390228
1749041195.3593273,4.241105892011595,-1.2251957137804872,-1.5439555933951727,-4.114253312947467,4.39798034713058,-2.6454671978796105,-0.15269470370752578,0.0038659598511283167,-0.037768473023667176,0.07313484185430483,0.09165179694868233,-0.1496637514003943,-0.4655284881591797,0.619971513748169,0.6310737133026123,0.299113929271698,0.2430835515260696,-0.2424946576356887
1749041195.3596487,4.240796388197649,-1.2251903933060033,-1.5440358693496505,-4.114102945309841,4.398163763582511,-2.6457747884420746,-0.15447265538946886,0.0038713408355398452,-0.038340126601097854,0.07350017288630808,0.09265047873358241,-0.151522778516308,-0.4546922445297241,0.6005038619041443,0.6570598483085632,0.3307304978370666,0.2358036190271377,-0.2701960802078247
1749041195.3610437,4.240483256119103,-1.2251852794400973,-1.544117200843905,-4.113952059542267,4.398348207476274,-2.6460847972734025,-0.15627647651696386,0.00388368037095669,-0.03888321502730391,0.07384869990664628,0.09361198056686867,-0.1533246369762663,-0.4435943961143493,0.5984368324279785,0.664228618144989,0.3141133785247803,0.2417527139186859,-0.280603289604187
1749041195.402289,4.240166638711906,-1.2251802767565694,-1.5441994477646663,-4.1138007565638555,4.398533713961381,-2.646397021181958,-0.1581062912623728,0.0039030003450819606,-0.039392694936757344,0.07421793779602474,0.09455755438248581,-0.15506618431044988,-0.4602388441562652,0.6187993288040161,0.6699553728103638,0.3271728157997131,0.2512992620468139,-0.2568141222000122
1749041195.402335,4.239846661295075,-1.2251752879211049,-1.544282473869648,-4.113649062896267,4.398720407809887,-2.646711361195082,-0.1599605332087258,0.0039289052058474406,-0.03986575298952351,0.0746442131516739,0.09551062615547384,-0.15674813843615573,-0.4493687748908996,0.6141864061355591,0.6387463808059692,0.3277949392795563,0.2457151561975479,-0.2357595264911651
1749041195.4023795,4.23952342365009,-1.225170219337782,-1.5443661512720783,-4.113496929819164,4.398908500392161,-2.6470278309311004,-0.16183635574795888,0.0039607558228157294,-0.04030198536324714,0.07515949978268455,0.0964946556295314,-0.15837634654692578,-0.4429510235786438,0.6172847151756287,0.6450857520103455,0.3245213031768799,0.2090527117252349,-0.1956808567047119
1749041195.402421,4.239196994147755,-1.2251649852823399,-1.5444503635119424,-4.11334423590362,4.399098279020435,-2.6473465542487267,-0.16373004391076396,0.003997861474963874,-0.0407033888818387,0.07578867310227583,0.09753080039498291,-0.15996245136489545,-0.4355017840862274,0.6171114444732666,0.6739783883094788,0.3615480661392212,0.2358638793230056,-0.2178676873445511
1749041195.4024608,4.238867405654588,-1.2251595098190937,-1.544535007430294,-4.11319079316593,4.3992900886786535,-2.6476677523688834,-0.16563731524065875,0.004039633568833851,-0.04107417822256987,0.076547416358627,0.09863552173509609,-0.1615235917647576,-0.5393970012664795,0.5890829563140869,0.6663663387298584,0.3276151716709137,0.2663041651248932,-0.2282839715480804
1749041195.402499,4.238534653538807,-1.22515372666999,-1.5446199944854893,-4.113036357140942,4.399484306966282,-2.6479917221432614,-0.1675534647426733,0.004085652276358141,-0.04142043507175319,0.07744097086885984,0.09981836847428277,-0.16308100140894244,-0.5038442015647888,0.592113733291626,0.6692686676979065,0.3586992621421814,0.2674478590488434,-0.2325702607631683
1749041195.4025376,4.238198696558163,-1.2251475780792376,-1.5447052522968012,-4.112880641044554,4.399681314021286,-2.64831880847789,-0.16947338348039154,0.004135627220137237,-0.04174959525881899,0.07846385171920511,0.10108027533133171,-0.16465766256947684,-0.4106092453002929,0.6194401383399963,0.6603410243988037,0.3497365117073059,0.2771826088428497,-0.2496111094951629
1749041195.4025755,4.23785946127519,-1.2251410140430845,-1.5447907269550722,-4.112723333761433,4.399881460182841,-2.6486493745537074,-0.17139151735085303,0.0041892736061140984,-0.0420697996536768,0.07960053736883983,0.10241272616523614,-0.16627543661908373,-0.4164543747901916,0.6233940720558167,0.6788903474807739,0.3326644897460937,0.2827437818050384,-0.2937723398208618
1749041195.4026132,4.237516849926701,-1.2251339928274079,-1.544876386090004,-4.112564120767961,4.400085034874039,-2.6489837732150567,-0.1733018174351848,0.004246156449842752,-0.04238916098401458,0.08082701490166157,0.103798032210804,-0.16795224305758277,-0.4572303891181946,0.6300363540649414,0.6597486138343811,0.3351795375347137,0.2709357738494873,-0.2765321135520935
1749041195.402651,4.237170750793096,-1.225126482801065,-1.5449622220695536,-4.112402706582382,4.400292240311462,-2.649322322065243,-0.17519770402190232,0.004305562881919939,-0.04271501681974975,0.08211297203003697,0.10521080316195744,-0.16969984962570525,-0.4887778162956238,0.6246119141578674,0.6691170334815979,0.3433201909065246,0.2886189222335815,-0.3040229678153991
1749041195.402689,4.236821049671439,-1.2251184649010287,-1.5450482543125708,-4.112238837020381,4.400503173112101,-2.649665283901501,-0.1770720690731467,0.004366445001347968,-0.043053245167083656,0.08342440594880517,0.10662050046145746,-0.171522670848402,-0.4320122301578522,0.5931279063224792,0.6786148548126221,0.3771425783634186,0.2786055505275726,-0.3051319718360901
1749041195.4027262,4.2364676413284394,-1.225109934929955,-1.5451345297020196,-4.112072319278466,4.400717815802,-2.6500128533148803,-0.17891737629814414,0.0044274456007687485,-0.04340771631400437,0.0847264518913497,0.10799479262082781,-0.17341770314488866,-0.46485435962677,0.5833972096443176,0.6625640392303467,0.3590432107448578,0.2774537801742553,-0.2722396552562713
1749041195.4027634,4.23611044035787,-1.225100905201507,-1.5452211205081137,-4.111903037643442,4.400936038904342,-2.65036514946769,-0.18072594392472327,0.004486993076269709,-0.04377994498358911,0.08598626112576242,0.10930330216127578,-0.17537543583740037,-0.4945252537727356,0.6030736565589905,0.6748893857002258,0.3465062081813812,0.2830690145492553,-0.2783252298831939
1749041195.4028003,4.23574939100116,-1.2250914053242945,-1.5453081199135703,-4.11173096262509,4.4011576129735435,-2.6507222141703606,-0.18249047835672608,0.004543441557867157,-0.04416898975032772,0.08717573495230618,0.11052125696928197,-0.17738135948857583,-0.4644981324672699,0.6273862719535828,0.680220365524292,0.3394773006439209,0.2527628242969513,-0.250559389591217
1749041195.402838,4.235384475038479,-1.225081481976781,-1.5453956358961654,-4.111556151735534,4.401382228795837,-2.651084013632867,-0.18420486098749456,0.004595237568220189,-0.044571619957484904,0.08827387128291937,0.11163254415070316,-0.1794176145401001,-0.4321575462818146,0.6289756298065186,0.6551387310028076,0.3542568683624267,0.2482078969478607,-0.2634108364582062
1749041195.4028754,4.235015716258873,-1.225071197528612,-1.545483784591133,-4.111378741098178,4.401609523153211,-2.651450442140485,-0.18586509327785725,0.0046411038044317674,-0.04498273579825183,0.08926847057867933,0.11263171879795143,-0.1814644091064909,-0.4301531314849853,0.6187180280685425,0.6711549162864685,0.3434070646762848,0.233375534415245,-0.2744430303573608
1749041195.402912,4.234643179886404,-1.225060627385115,-1.5455726841800228,-4.111198928514359,4.401839107244712,-2.651821326650335,-0.18747021465570118,0.004680231339627758,-0.045395993140762654,0.09015701364778654,0.11352465167705986,-0.18350105578984452,-0.4606789350509643,0.6188434362411499,0.6902186274528503,0.3423134982585907,0.2312717139720916,-0.2597393989562988
1749041195.402949,4.234266966071353,-1.2250498559239626,-1.5456624498956406,-4.111016950226183,4.402070595051962,-2.65219643255626,-0.18902296877326413,0.004712461497620193,-0.045804560258133946,0.09094663386213898,0.11432770606343035,-0.18550675010035236,-0.4621990919113159,0.6064912676811218,0.6706427931785583,0.3498231172561645,0.2433125078678131,-0.3187953233718872
1749041195.4029872,4.233887198010359,-1.2250389709367904,-1.5457531901683588,-4.110833054817721,4.402303629425882,-2.652575471954656,-0.19053002888175755,0.004738425322419411,-0.04620192185794284,0.09165320758630316,0.11506558165147777,-0.18746141692652393,-0.4284051060676574,0.6125147938728333,0.6853247880935669,0.3400382995605469,0.2614784836769104,-0.3066717982292175
1749041195.4030244,4.233504006720129,-1.2250280567353211,-1.5458450035404254,-4.110647477997406,4.40253790438321,-2.6529581162306997,-0.19200168915324867,0.004759599972007446,-0.04658264393099533,0.0922996604317542,0.11576819050660422,-0.18934697768295145,-0.4737718105316162,0.6244621276855469,0.6903682947158813,0.3265230357646942,0.2689185738563537,-0.3162126541137695
1749041195.4031315,4.233117515211684,-1.2250171865213462,-1.5459379758042568,-4.11046042135224,4.40277318294551,-2.6533440145156653,-0.19345105034953358,0.004778243964693182,-0.04694301756767207,0.09291364678294312,0.11646707655802731,-0.19114920698323842,-0.4847674965858459,0.6220904588699341,0.6961944699287415,0.340871512889862,0.2892090380191803,-0.3128030300140381
1749041195.404995,4.232727824632443,-1.2250064151050435,-1.5460321768463587,-4.110272036945053,4.403009310476796,-2.6537328184555866,-0.1948928331206939,0.004797193147793338,-0.047281510559334466,0.0935248150611396,0.11719192647594069,-0.19286002358186793,-0.4673536419868469,0.6216405034065247,0.6736059784889221,0.3558565378189087,0.2870723605155945,-0.273481011390686
1749041195.4465616,4.232335004177214,-1.224995773393636,-1.5461276569275029,-4.1100824183396645,4.403246223552312,-2.6541242118688504,-0.1963420024193085,0.004819535063365493,-0.04759897371970121,0.09416191367802045,0.11796764425922204,-0.19447972811138287,-0.4182395339012146,0.6149055361747742,0.6926477551460266,0.3429007232189178,0.2449440360069275,-0.247850626707077
1749041195.4466417,4.231939085502083,-1.2249852660178935,-1.5462244425514287,-4.109891597680478,4.403483954050362,-2.6545179417632787,-0.19781237409271735,0.004848216017964468,-0.04789857323226791,0.09485001139244029,0.11881229587373053,-0.19601849818996747,-0.4535544216632843,0.6269646883010864,0.6947690844535828,0.3601319193840027,0.2623560130596161,-0.2236593216657638
1749041195.446717,4.2315400612665375,-1.2249748728924685,-1.5463225324608805,-4.1096995480191545,4.403722627881499,-2.6549138456691725,-0.19931533665047588,0.004885653984203185,-0.0481854466282923,0.09560809748506391,0.11973603066449828,-0.19749648656404345,-0.4437738358974457,0.618240475654602,0.6981946229934692,0.3509458899497986,0.2687357068061828,-0.2237725108861923
1749041195.4467907,4.231137886787397,-1.224964554624866,-1.5464218944992631,-4.109506190062855,4.403962457919524,-2.6553118700735863,-0.20085880309719226,0.004933424316454524,-0.048466108140542,0.09644729475587217,0.12074092853423125,-0.19894216880046728,-0.4449599087238312,0.6304914355278015,0.6815946698188782,0.3616149425506592,0.257777988910675,-0.2463228851556778
1749041195.4468615,4.230732483967957,-1.224954260870788,-1.546522464128627,-4.10931140260192,4.404203731227221,-2.65571207617141,-0.2024465134097673,0.004992061381788135,-0.04874766550510583,0.09736986447720744,0.12182164128438956,-0.20038906030457307,-0.4391249120235443,0.6408226490020752,0.6731141805648804,0.3438750505447387,0.2795606851577759,-0.2701374292373657
1749041195.4469326,4.230323747297658,-1.2249439401887092,-1.5466241453697789,-4.109115035869821,4.404446791213363,-2.656114631767286,-0.2040778002787986,0.005060991012612705,-0.049036952020856006,0.0983691076785608,0.12296666537652039,-0.20187138183198178,-0.4560222029685974,0.6216633319854736,0.6537286639213562,0.3485943078994751,0.2848669290542602,-0.3219417929649353
1749041195.4470024,4.229911552127567,-1.224933549664363,-1.5467268147347253,-4.108916927035722,4.404692015626037,-2.656519791028711,-0.20574787388196267,0.0051385869416250346,-0.049339702140742285,0.09943017429288889,0.12416005663959274,-0.20341952257596393,-0.4368183314800262,0.6102789640426636,0.6874812841415405,0.3594574630260467,0.2959690988063812,-0.309467077255249
1749041195.447072,4.229495765391557,-1.2249230625266991,-1.5468303281917701,-4.108716916982098,4.404939791309597,-2.656927865917531,-0.20744857967027847,0.005222333098951455,-0.04965988720955156,0.10053169083905346,0.1253833575178887,-0.20505615299867425,-0.4371003210544586,0.650211751461029,0.6773312091827393,0.3437967300415039,0.2624461352825165,-0.3097300827503204
1749041195.4471424,4.229076258583249,-1.2249124722785956,-1.5469345304182267,-4.108514867399428,4.405190486608765,-2.6573391939730846,-0.20916948134724,0.005309070272631132,-0.049999293815016096,0.10164802566124055,0.12661746972625312,-0.20679360933208746,-0.4159230291843414,0.6241523623466492,0.6439928412437439,0.352174699306488,0.2316049039363861,-0.2834600806236267
1749041195.4472115,4.228652922175683,-1.224901792685957,-1.5470392649516733,-4.108310676929848,4.405444422326536,-2.6577541067206587,-0.2108990713289295,0.005395303715545561,-0.050357397809242935,0.10275194388010825,0.12784420825891113,-0.20863281565445926,-0.4390839636325836,0.6263065338134766,0.6692453026771545,0.3466739952564239,0.2845514714717865,-0.280544638633728
1749041195.4472816,4.228225679906027,-1.2248910541775626,-1.5471443837119772,-4.108104294684582,4.405701842423826,-2.6581729017838893,-0.21262593169040697,0.005477542848487184,-0.050731562482690645,0.10381736698090589,0.12904735255143926,-0.21056366280066707,-0.4872144162654876,0.6117632389068604,0.6466647386550903,0.3275943100452423,0.2627515792846679,-0.2677637934684753
1749041195.4473293,4.227794500760461,-1.2248802982315656,-1.5472497547524133,-4.107895729284108,4.4059628863933815,-2.6585958204325397,-0.21433973356338598,0.005552637578940455,-0.05111754887586928,0.10482194443464644,0.13021315757030238,-0.21256654119676374,-0.4444257020950317,0.6053858399391174,0.6706892848014832,0.3360947072505951,0.266108900308609,-0.2713896334171295
1749041195.4473674,4.2273594063653235,-1.2248695715231364,-1.5473552677634834,-4.1076850519246655,4.406227566270616,-2.659023031341204,-0.21603202348826073,0.005618076556161011,-0.051510269559213784,0.10574917308088146,0.1313304420274764,-0.2146146783443988,-0.429315835237503,0.6213163137435913,0.6528814435005188,0.3357881605625152,0.2953052818775177,-0.2750646471977234
1749041195.4474046,4.226920471913425,-1.2248589208520868,-1.5474608375000671,-4.107472392774575,4.4064957519657,-2.659454620911071,-0.2176967713579173,0.005672225385061,-0.05190467037949912,0.10658986334128748,0.13239047627752978,-0.21667702435391398,-0.463656336069107,0.6504157185554504,0.6642223596572876,0.3401347398757934,0.292974442243576,-0.3248898983001709
1749041195.4474418,4.22647781974148,-1.224848388759567,-1.5475664057009588,-4.107257930943767,4.406767168519726,-2.659890590362377,-0.21933065867361806,0.00571449854283041,-0.0522966056111576,0.10734282507320443,0.1333869280661228,-0.21872154720841427,-0.5121774077415466,0.6417969465255737,0.6549504399299622,0.3114009201526642,0.2969581484794616,-0.3329789638519287
1749041195.4474783,4.226031606138083,-1.2248380091506563,-1.5476719421530956,-4.107041879133516,4.407041407931776,-2.660330859652188,-0.22093309908248424,0.005745461221610766,-0.05268357491373672,0.10801470969628983,0.13431608250642335,-0.22071881289867415,-0.4611706733703613,0.627433180809021,0.6494370102882385,0.3204193115234375,0.3162731826305389,-0.3414663076400757
1749041195.4475143,4.2255820034832965,-1.2248278025108648,-1.5477774454259545,-4.1068244647033,4.407317956588031,-2.6607752780381775,-0.22250601612792226,0.0057668420387057984,-0.053065205179123595,0.1086190178002282,0.135177429979948,-0.22264557640868216,-0.476402223110199,0.6063679456710815,0.6698136925697327,0.3111174404621124,0.2864397168159485,-0.2777734398841858
1749041195.4475513,4.225129180724065,-1.2248177710343404,-1.5478829435808708,-4.1066059091756175,4.4075962373025215,-2.6612236407851344,-0.22405344096560362,0.005781422536991757,-0.05344338911420888,0.10917438598227644,0.13597454101573384,-0.2244878687070028,-0.4700340628623962,0.6058735251426697,0.6672607064247131,0.3403648138046264,0.2745075821876526,-0.2469882071018219
1749041195.4475875,4.224673285108447,-1.2248078945674499,-1.547988494868022,-4.106386408206047,4.407875662742385,-2.661675710956384,-0.22558101441323156,0.005792779726112268,-0.05382204479939225,0.10970237710444931,0.13671598542977872,-0.2262429028317254,-0.4621061384677887,0.5930477976799011,0.6211957335472107,0.310187816619873,0.2709653675556183,-0.2328470796346664
1749041195.4476244,4.2242144273349895,-1.2247981284435916,-1.5480941880716343,-4.106166113924662,4.4081556948411444,-2.6621312443194833,-0.22709546905298006,0.0058048971275173515,-0.054206535107250084,0.11022506522628273,0.1374159664326331,-0.22791920555903822,-0.4486930072307586,0.6515999436378479,0.6401268839836121,0.3446831405162811,0.2701891660690307,-0.2413530051708221
1749041195.4477413,4.223752671436473,-1.224788404098052,-1.5482001418382203,-4.105945121335234,4.408435903249114,-2.662590014363463,-0.22860413322683323,0.00582170240428178,-0.05460285751452596,0.11076271862572741,0.13809435403522388,-0.229534754728429,-0.4692093133926391,0.622300922870636,0.6473371982574463,0.3375229835510254,0.2552026510238647,-0.2594656646251678
1749041195.4490747,4.22328803017407,-1.2247786328917007,-1.5483065021719857,-4.1057234600974235,4.408716015504263,-2.6630518339541505,-0.23011446842046462,0.005846606493069388,-0.05501674926551332,0.11133186216174057,0.1387759004775987,-0.23111343809742788,-0.482270210981369,0.5877823233604431,0.6500019431114197,0.3002027869224548,0.2518231868743896,-0.3047058880329132
1749041195.4903016,4.222820466364091,-1.224768712868019,-1.548413437438189,-4.105501092483484,4.408995952590437,-2.663516570816813,-0.23163365185300472,0.005882106744622256,-0.055452844921690385,0.1119439543721075,0.13948856871221663,-0.23268061780341495,-0.5134339928627014,0.615300178527832,0.6023740768432617,0.3542042374610901,0.2621330320835113,-0.2957223653793335
1749041195.4903486,4.22234990005853,-1.2247585374094747,-1.5485211306933264,-4.105277917537626,4.409275845534435,-2.6639841556024124,-0.23316823743389292,0.005929496654096286,-0.05591400229876547,0.11260484308777098,0.140261069104601,-0.23425879114101827,-0.4787564277648926,0.6357253193855286,0.6114383935928345,0.3580301105976105,0.2439058423042297,-0.322982907295227
1749041195.4903915,4.221876220709453,-1.2247480043374586,-1.5486297698363531,-4.1050537804843295,4.409556031071084,-2.6644545828904524,-0.23472392992032873,0.0059887159122674226,-0.056400895976655006,0.11331506463080489,0.14111985089438828,-0.2358642193637043,-0.4495846033096313,0.6284626722335815,0.6223195195198059,0.335528552532196,0.2457231879234314,-0.3026054799556732
1749041195.4904318,4.221399302583187,-1.2247370241429314,-1.5487395367403654,-4.104828485499915,4.409837026631794,-2.6649279064545945,-0.23630546973912497,0.006058370729767821,-0.05691194744482463,0.11407092080684499,0.14208591116879465,-0.2375050311156996,-0.4458443224430084,0.6283700466156006,0.6100094318389893,0.3311181962490082,0.2891760170459747,-0.2750788927078247
1749041195.49047,4.220919021123808,-1.224725526601238,-1.548850596897968,-4.104601809524606,4.410119486752661,-2.665404230378728,-0.2379165849468055,0.006135935624398471,-0.05744360429934996,0.11486611246449953,0.1431718493880575,-0.23918087371630123,-0.4456305205821991,0.6251339912414551,0.6150097846984863,0.3277947604656219,0.2650514841079712,-0.2663168907165527
1749041195.4905086,4.220435267935508,-1.2247134657007757,-1.5489630909456702,-4.104373515124517,4.410404144546444,-2.6658836973005897,-0.239559970019361,0.00621810863195304,-0.05799091738803075,0.11569357763817177,0.14437959684060003,-0.2408838667072122,-0.5109983682632446,0.611432671546936,0.5922715663909912,0.3565707802772522,0.295117974281311,-0.2681424617767334
1749041195.4905465,4.219947962548477,-1.2247008232623442,-1.549077128779658,-4.104143361377866,4.410691743362883,-2.6663664744673303,-0.24123729140845054,0.006301252377179065,-0.0585483195404411,0.11654713701419567,0.14569918561729178,-0.24260049314117946,-0.4917575418949127,0.6335365772247314,0.6100854277610779,0.3394770920276642,0.3109998106956482,-0.2919787764549255
1749041195.490584,4.219457059976839,-1.2246876115482668,-1.5491927862259833,-4.103911112921277,4.410982965231249,-2.6668527379470937,-0.2429492413418798,0.006381838774162679,-0.0591104851247794,0.11742260111998944,0.1471088092989077,-0.24431409735683188,-0.4907042980194092,0.629853367805481,0.5938484072685242,0.3345790505409241,0.3206014037132263,-0.3061468005180359
1749041195.490622,4.218962554085321,-1.2246738746203867,-1.5493101037352746,-4.103676548208438,4.411278363747855,-2.667342655593372,-0.24469563233736466,0.006456828446165048,-0.05967313793810812,0.11831811022589536,0.14857628416427324,-0.24600771935116605,-0.491294115781784,0.6285916566848755,0.6047975420951843,0.3219201862812042,0.3152511119842529,-0.3131012320518493
1749041195.4906592,4.218464477765861,-1.2246596877552052,-1.5494290864279376,-4.103439468422591,4.411578309042926,-2.6678363698935725,-0.2464754758069619,0.006523938750793385,-0.060233676738506284,0.11923363528562053,0.15006184084452587,-0.24766697989914588,-0.4700598418712616,0.6123833656311035,0.6172857284545898,0.3333534896373749,0.3350987136363983,-0.291459858417511
1749041195.490697,4.217962901590077,-1.224645154359567,-1.549549704978431,-4.103199708299596,4.411882950996366,-2.668333982054453,-0.24828697629837218,0.006581771645129832,-0.06079151089251449,0.12016975590055823,0.15152196628820908,-0.2492826235996788,-0.473301887512207,0.6067315936088562,0.6204273700714111,0.3512297868728637,0.3031960427761078,-0.249333381652832
1749041195.490734,4.217457932627102,-1.2246304004325947,-1.5496718972053005,-4.102957149553078,4.41219220434726,-2.668835538406861,-0.2501274249414804,0.006629789083485931,-0.06134804531695623,0.12112601795377662,0.15291381783376704,-0.2508522237479255,-0.48051518201828,0.6061010360717773,0.6117684841156006,0.3335660099983215,0.2568312883377075,-0.230942890048027
1749041195.4907706,4.216949714418002,-1.2246155671604861,-1.5497955706437583,-4.1027117368081605,4.412505756423813,-2.6693410197464282,-0.2519930605786658,0.006668151075322082,-0.06190631674919181,0.12209930024793406,0.15419961041577893,-0.25238059519662387,-0.5385342240333557,0.6322501301765442,0.598152220249176,0.3531607389450073,0.2845432758331299,-0.2430690824985504
1749041195.4908073,4.216438427936369,-1.2246008023617185,-1.5499206066137967,-4.1024634948514604,4.412823095382538,-2.6698503338988755,-0.2538790169969748,0.006697466996585755,-0.062470348934689016,0.12308263625111106,0.155350384792105,-0.2538787228223465,-0.5187479853630066,0.625093936920166,0.5876258611679077,0.3716616928577423,0.2838132381439209,-0.2919971942901611
1749041195.4908435,4.215924292209283,-1.224586251280452,-1.55004686627169,-4.102212544585829,4.413143554447301,-2.6703633117811516,-0.25577944410650094,0.0067185335085555055,-0.06304434648130895,0.12406483762951194,0.15634870175740034,-0.25536141998452566,-0.4521406888961792,0.6180059909820557,0.5943317413330078,0.3612289726734161,0.2703165411949157,-0.2998436093330383
1749041195.4908805,4.215407562637684,-1.2245720469745094,-1.5501741988770086,-4.101959113824372,4.41346636616807,-2.6708797075473534,-0.2576878056091245,0.006732125526663202,-0.06363187280449797,0.12503108448821765,0.15719001878910305,-0.2568442954890753,-0.4790102541446686,0.6200125813484192,0.5930895805358887,0.3602566719055176,0.2533940374851227,-0.3138755559921264
1749041195.490917,4.21488852521373,-1.224558300626759,-1.5503024520773707,-4.101703538670599,4.413790720614607,-2.6713992038537206,-0.2595972891395535,0.006738876443952417,-0.06423515339226536,0.12596443170561272,0.1578827137080678,-0.25834075370188003,-0.5238567590713501,0.6217654347419739,0.5832707285881042,0.3553977906703949,0.2687191963195801,-0.3136021196842193
1749041195.4909666,4.214367485482926,-1.224545092647828,-1.5504314835185156,-4.101446252024742,4.414115822599474,-2.6719214235059296,-0.2615012564803257,0.006739251772230664,-0.0648546157527836,0.12684798051953483,0.15844687884155997,-0.25985964076254336,-0.514629602432251,0.6123298406600952,0.5993054509162903,0.3422819375991821,0.2530615925788879,-0.2830808162689209
1749041195.4910066,4.21384475157237,-1.2245324660232595,-1.550561172743238,-4.101187757467191,4.414440944809458,-2.6724459486394045,-0.2633936789046839,0.006733599935179878,-0.06548872590495053,0.1276673262680708,0.15891211740897696,-0.26140389341240816,-0.4787338674068451,0.6045504212379456,0.6158006191253662,0.332658052444458,0.2513602674007416,-0.2983193397521972
1749041195.4910448,4.213320610703067,-1.2245204232874953,-1.5506914322990235,-4.100928588851212,4.4147654753733745,-2.6729723482473466,-0.2652695007119604,0.006722253783385126,-0.06613411406489245,0.12841284995872626,0.15931464733908904,-0.26297030484207845,-0.4709324836730957,0.614726185798645,0.6060594916343689,0.3486559987068176,0.2601862549781799,-0.2952306270599365
1749041195.4911485,4.212795298907772,-1.224508927591829,-1.5508222171184356,-4.100669258020782,4.415088959456278,-2.6735002142695627,-0.26712486199381946,0.006705652679892704,-0.06678591496245069,0.12908147180210955,0.15969406361083285,-0.26455036935572845,-0.483176976442337,0.6148035526275635,0.5991502404212952,0.3608961701393127,0.2594608664512634,-0.3274587392807007
1749041195.4930322,4.212268964739763,-1.2244979072015927,-1.5509535313158997,-4.100410195163964,4.41541113461624,-2.674029205328495,-0.26895713010221434,0.006684457857425925,-0.06743820057334643,0.12967758777992344,0.16009011946211626,-0.2661320649674581,-0.5124197602272034,0.6261366605758667,0.6457499861717224,0.3125786483287811,0.275646835565567,-0.3512341380119324
1749041195.5343487,4.211741629481993,-1.224487262132515,-1.5510854314587337,-4.100151688445058,4.41573195874878,-2.674559095503306,-0.27076474106068954,0.006659640329934816,-0.06808436705418279,0.13021301924442963,0.16053984130685553,-0.2677023057995492,-0.5043104290962219,0.6276577711105347,0.6278411746025085,0.326271653175354,0.278482973575592,-0.3185174465179443
1749041195.5343962,4.211213148427818,-1.224476871677672,-1.5512180252775578,-4.099893831298077,4.4160516279126805,-2.675089823552483,-0.27254689761883055,0.006632523609310833,-0.0687173621491323,0.1307059151405909,0.16107518127432927,-0.2692496296435146,-0.5273199677467346,0.5965573787689209,0.6193546056747437,0.3040514588356018,0.2655620276927948,-0.2967826426029205
1749041195.534439,4.210683179916007,-1.2244666020783708,-1.551351464947783,-4.099636486319311,4.416370580075868,-2.675621536008409,-0.2743031841938542,0.0066047625128434284,-0.0693297097863,0.1311786844875472,0.1617212559879918,-0.27076654822154206,-0.4842477738857269,0.6090503931045532,0.6409057974815369,0.3051565289497375,0.2494852393865585,-0.2582959532737732
1749041195.5344794,4.210151170292822,-1.2244563143048626,-1.5514859346310061,-4.099379273531227,4.416689480617455,-2.676154615827232,-0.27603315816159646,0.006578246288738826,-0.06991338642225013,0.13165520797668015,0.1624950858923407,-0.27225098267958286,-0.498818039894104,0.6438825130462646,0.6199101209640503,0.3429354429244995,0.2476090639829635,-0.2667994797229767
1749041195.5345345,4.209616362910981,-1.2244458724564844,-1.551621632777287,-4.099121588050811,4.417009186536536,-2.6766896873654487,-0.27773598885107914,0.006554938338772513,-0.0704596859808486,0.13215773955641422,0.16340471129342599,-0.2737064034475999,-0.5625879764556885,0.6144425272941589,0.6224791407585144,0.335312932729721,0.249501883983612,-0.2736818790435791
1749041195.5345824,4.209077837199253,-1.2244351532010147,-1.551758750427683,-4.098862648551176,4.417330688408287,-2.6772275892916215,-0.2794102308121474,0.006536696129116592,-0.07095924332850803,0.13270400140580033,0.16444863906805052,-0.2751406601700532,-0.5262073874473572,0.632390558719635,0.6109437942504883,0.3564620316028595,0.2704535126686096,-0.3043908476829529
1749041195.5346384,4.20853457994769,-1.2244240558486277,-1.5518974471590428,-4.098601573987468,4.417655031596455,-2.6777693104069282,-0.28105379943714215,0.006525131151170425,-0.07140236359759185,0.13330495614756424,0.1656157112383281,-0.27656388004006016,-0.4912606477737427,0.6515176892280579,0.6417802572250366,0.3401104509830475,0.3012158870697021,-0.3220336437225342
1749041195.534679,4.207985585667437,-1.2244125116105549,-1.5520378264803805,-4.098337482053229,4.417983220965369,-2.678315889416218,-0.28266416152461243,0.006521557465559402,-0.07177973623767464,0.1339636060333585,0.1668855929035697,-0.27798605613033694,-0.4940630793571472,0.6446419358253479,0.6143966317176819,0.3578762710094452,0.3089420795440674,-0.3206746876239776
1749041195.534717,4.207429976452567,-1.2244004900192607,-1.5521799128824876,-4.098069598635382,4.418316116822303,-2.6788682879539576,-0.2842387158412681,0.006527045524899019,-0.07208351732619664,0.13467496425279377,0.168230079726955,-0.27941495499113705,-0.5696569681167603,0.643459677696228,0.6189160943031311,0.3491600155830383,0.3080878853797912,-0.2998744249343872
1749041195.534755,4.20686712442022,-1.2243880006179624,-1.552323633732974,-4.097797363335804,4.41865433426451,-2.6794272555013294,-0.2857753607760706,0.006542562523522766,-0.07230866489780126,0.1354271330542956,0.1696153061259959,-0.2808547950296388,-0.5696569681167603,0.643459677696228,0.6189160943031311,0.3491600155830383,0.3080878853797912,-0.2998744249343872
1749041195.534793,4.206296752975769,-1.224375088653932,-1.5524688105029094,-4.097520513120758,4.418998162339062,-2.6799932127834953,-0.2872732776015158,0.006569154173317774,-0.0724543277160935,0.13620325231707672,0.1710047432143752,-0.282305904152912,-0.561820387840271,0.6468943953514099,0.6817214488983154,0.3408880233764648,0.3075904250144958,-0.3013904094696045
1749041195.5348308,4.205718991148639,-1.2243618245217025,-1.5526151641743378,-4.097239126850223,4.419347520447816,-2.6805661820119293,-0.2887338991036322,0.006608108638043328,-0.07252503037077429,0.13698396884875164,0.1723626876498911,-0.2837653457137089,-0.4768081307411194,0.6475178599357605,0.6662206053733826,0.3585742712020874,0.2734256982803345,-0.3408016264438629
1749041195.5348697,4.2051343633083045,-1.2243482881407999,-1.5527623376026412,-4.096953620125702,4.41970196405956,-2.68114578313622,-0.2901618646493222,0.0066610393652341785,-0.07253138274407209,0.1377500316541984,0.17365781075611422,-0.28522832380267343,-0.4639785587787628,0.6242714524269104,0.6684420108795166,0.3490844368934631,0.3114393651485443,-0.3453012704849243
1749041195.5349069,4.204543714192873,-1.2243345509806138,-1.5529099330341438,-4.096664691450312,4.420060740541383,-2.681731296596912,-0.29156559392566317,0.006729830144397611,-0.07249008323422126,0.138484645894039,0.17486628156335923,-0.2866900249362815,-0.4941238760948181,0.6388323903083801,0.6746508479118347,0.3437535762786865,0.2612650096416473,-0.334318608045578
1749041195.534948,4.203948087409832,-1.224320659313512,-1.553057558130863,-4.0963732319016435,4.420422884173659,-2.682321774417897,-0.2929570795129777,0.00681640638731296,-0.07242307880262289,0.13917529848820356,0.17597400642662903,-0.2881474258077837,-0.5539357662200928,0.6427493691444397,0.6630061268806458,0.3381256461143493,0.2787871360778808,-0.3292856514453888
1749041195.5349922,4.203348584790788,-1.224306622044959,-1.5532048714355686,-4.09608021638642,4.420787332685753,-2.682916172203485,-0.2943506417629793,0.006922332015038213,-0.07235587333021604,0.13981486694035178,0.176977641775155,-0.28960054255500334,-0.4271952509880066,0.6072074770927429,0.6775354146957397,0.3186678886413574,0.2587204277515411,-0.2842974960803985
1749041195.535042,4.2027462326467075,-1.2242924053793838,-1.5533516190304149,-4.095786594420355,4.4211530469329,-2.6835134760302495,-0.29576065499686477,0.007048276846241024,-0.07231512297266963,0.14040192593656428,0.17788422204133159,-0.29105268155615044,-0.3925226926803589,0.595432698726654,0.6743927597999573,0.3032997548580169,0.211507499217987,-0.2538920640945434
1749041195.535082,4.202141874097339,-1.224277935184385,-1.5534976570773047,-4.095493194836681,4.421519118205431,-2.6841128055259036,-0.297198580979009,0.007193448358272671,-0.07232580830175717,0.1409402853919957,0.1787094762878659,-0.29250950017927335,-0.4212792813777923,0.6171584129333496,0.6496862769126892,0.3156504333019256,0.2229500263929367,-0.2575372457504272
1749041195.5351193,4.201536098950792,-1.2242631066496983,-1.5536429584347484,-4.095200654257353,4.421884851785596,-2.6847134829075063,-0.2986699637218295,0.007355124692542149,-0.07240839999708974,0.1414379293845447,0.17947514514880142,-0.2939770413854115,-0.5183733701705933,0.6679315567016602,0.6332118511199951,0.3026311993598938,0.2530957460403442,-0.2859634459018707
1749041195.5351572,4.200929215679974,-1.2242477998653567,-1.5537876045521328,-4.094909374512269,4.42224981971102,-2.685315065217821,-0.3001722095762622,0.007528444286927897,-0.07257649281792691,0.14190563913681803,0.18020579569647194,-0.2954592495818676,-0.6204093098640442,0.6932553052902222,0.5932475924491882,0.3302599787712097,0.3163129091262817,-0.3476758897304535
1749041195.5352702,4.200321263809687,-1.2242318991834038,-1.5539317658495446,-4.094619509745313,4.422613879973658,-2.685917342764232,-0.3016938452957272,0.007706576381447836,-0.07283532866959243,0.14235561668313476,0.1809256904103646,-0.2969556791288434,-0.561751663684845,0.6710004806518555,0.6064689755439758,0.3244864344596863,0.2855981588363647,-0.3444124758243561
1749041195.537042,4.199712059568506,-1.2242153136174538,-1.5540756747921092,-4.0943309800562195,4.42297716336934,-2.6865203106328064,-0.30321551024615934,0.007881304390309075,-0.07318145733524084,0.142800350589023,0.18165614470401628,-0.2984600834794467,-0.4987881183624267,0.6482623815536499,0.6232829093933105,0.3040995001792907,0.2347270250320434,-0.3120356500148773
1749041195.5782845,4.199101263782029,-1.2241979952400839,-1.5542195961116374,-4.094043505731458,4.4233400324851315,-2.687124122122268,-0.30471239944655415,0.008043925920599156,-0.07360354384851381,0.1432518141780914,0.1824135459695775,-0.2999603163509459,-0.5333526730537415,0.6369416117668152,0.6215503811836243,0.3310426771640777,0.2458422780036926,-0.329904168844223
1749041195.5783298,4.19848845952346,-1.2241799527375417,-1.5543637983398728,-4.093756654853746,4.423703019526983,-2.6877290332183765,-0.306157493281799,0.008186267799064251,-0.07408411021673163,0.14372093676924497,0.18320795697534267,-0.3014395818681365,-0.5181303024291992,0.63154536485672,0.6182687878608704,0.3318015933036804,0.2365194708108902,-0.315081924200058
1749041195.5783849,4.197873227916974,-1.2241612578966388,-1.5545085300838999,-4.093469897319939,4.4240667509813525,-2.6883353462675155,-0.3075248151519768,0.008301586250128544,-0.0746018622746987,0.14421720369972807,0.18404214826893248,-0.30287869133905687,-0.4670485556125641,0.6396716237068176,0.6210939884185791,0.3114628791809082,0.268616259098053,-0.300219863653183
1749041195.5784318,4.197255212872857,-1.2241420436569528,-1.5546540033093588,-4.093182659519279,4.42443186771465,-2.6889433594016907,-0.30879210342934915,0.00838518002579478,-0.07513421113344347,0.14474823496147807,0.1849110310722783,-0.3042587492488165,-0.4654324054718017,0.6305995583534241,0.6508086919784546,0.3344513177871704,0.2927411198616028,-0.3154769539833069
1749041195.5784717,4.196634168648735,-1.224122493497499,-1.5548003844147853,-4.092894375523249,4.424798948968669,-2.6895533264087987,-0.30994255150446876,0.008434649098697527,-0.07565962603054564,0.14531924170167262,0.18580166948117985,-0.30556365210859004,-0.5166667103767395,0.6064848899841309,0.6511375308036804,0.3273736238479614,0.3131702542304992,-0.2932008504867553
1749041195.5785136,4.196009987507208,-1.2241028234403504,-1.5549477924057542,-4.092604532220309,4.42516844774162,-2.690165429703184,-0.3109655568958698,0.00844983304424925,-0.07615952799898755,0.14593233738901082,0.18669415644387022,-0.3067819174467036,-0.5396418571472168,0.6455778479576111,0.6300365924835205,0.3085995614528656,0.3064583837985992,-0.295050710439682
1749041195.578552,4.195382707881136,-1.2240832595556446,-1.555096302419219,-4.0923127070908745,4.425540643451421,-2.690779766878966,-0.3118566465908806,0.008432528503971446,-0.07661954370119396,0.1465857688977675,0.18756353531496747,-0.30790759761173303,-0.4753460884094238,0.647966206073761,0.6648737192153931,0.3128023445606231,0.295529693365097,-0.3113301694393158
1749041195.57859,4.194752505848053,-1.2240640148898783,-1.5552459524324789,-4.092018597973761,4.4259156157380195,-2.691396349355053,-0.3126168566514617,0.008386102223245385,-0.07703006982187495,0.14727322205619572,0.1883826718936263,-0.30894028730067946,-0.4835954904556274,0.6197200417518616,0.6359694004058838,0.3485193848609924,0.2871213555335998,-0.3139117956161499
1749041195.578627,4.194119674156817,-1.2240452697665327,-1.5553967511416533,-4.091722044172525,4.426293240895133,-2.692015110342878,-0.31325183908813087,0.008315091756877271,-0.07738621900185683,0.14798342952289384,0.18912566909423895,-0.3098844226385328,-0.4902151823043823,0.5986060500144958,0.6416995525360107,0.3698950409889221,0.2207230627536773,-0.307934433221817
1749041195.5786655,4.193484593601895,-1.224027158432607,-1.5555486854938403,-4.0914230379010395,4.426673210029004,-2.6926359190363556,-0.3137708947019442,0.008224844507022842,-0.07768730310190167,0.14870033066687477,0.1897712191308555,-0.3107481459803728,-0.5117862224578857,0.6310746073722839,0.6294021606445312,0.3433860540390014,0.2744831442832947,-0.3029394745826721
1749041195.578703,4.192847701275708,-1.2240097632954505,-1.5557017270459386,-4.0911217248705745,4.4270550659728,-2.693258598328263,-0.3141860404237656,0.008121214772273917,-0.0779360469956852,0.14940396746276435,0.1903052927916573,-0.31154198451316334,-0.4643750786781311,0.6248664259910583,0.6166280508041382,0.3749914467334747,0.2456659823656082,-0.2709536552429199
1749041195.57874,4.192209459424304,-1.223993116029076,-1.5558558370411055,-4.090818393161299,4.427438254362364,-2.6938829439939327,-0.31451115209154956,0.008010324586161433,-0.07813771085416654,0.15007214422371867,0.19072275429671634,-0.3122775128382333,-0.4732759892940521,0.6129577159881592,0.6409333348274231,0.3445347845554352,0.2795165181159973,-0.2947949469089508
1749041195.5787773,4.191570327785534,-1.223977203441419,-1.5560109705618175,-4.090513450457747,4.4278221830287485,-2.6945087437033077,-0.3147611997351127,0.007898381748521924,-0.07829924065758549,0.15068267213896705,0.19102775814980585,-0.3129660884436943,-0.471742570400238,0.6148602366447449,0.6594762802124023,0.3185860216617584,0.266398161649704,-0.3087927997112274
1749041195.5788152,4.190930741547448,-1.2239619757255387,-1.5561670801090102,-4.090207390991889,4.4282062829749345,-2.6951357942993286,-0.31495160155744156,0.0077915261953477675,-0.07842849675425453,0.151215834735464,0.19123301543821425,-0.3136176896865059,-0.5195507407188416,0.644471287727356,0.6209535002708435,0.3215546011924743,0.2681050598621368,-0.3279552459716797
1749041195.5788553,4.190291096096785,-1.2239473553359017,-1.5563241185347723,-4.089900754754194,4.428590063953777,-2.69576391575168,-0.3150977189299342,0.007695654415616646,-0.07853356001818057,0.15165662819973452,0.19135815626197106,-0.31423985840828034,-0.4398885369300842,0.5882424116134644,0.6634445190429688,0.3141521215438843,0.2577425241470337,-0.2866871356964111
1749041195.578894,4.189651738394412,-1.2239332455250085,-1.556482040742984,-4.08959408244523,4.428973158498082,-2.696392960466892,-0.3152144647534208,0.0076161707083571275,-0.07862209347206571,0.1519963921808954,0.19142747365843796,-0.3148367566234812,-0.4278312623500824,0.6125068068504333,0.6451449394226074,0.3194736242294311,0.2681031227111816,-0.289210557937622
1749041195.578934,4.189012963498683,-1.2239195380190098,-1.5566408033355317,-4.08928787016216,4.429355350222967,-2.6970228173860993,-0.31531593254392476,0.0075576400890740554,-0.07870074013522156,0.15223362109882413,0.19146734941092222,-0.31540838733946003,-0.4845404326915741,0.6332013607025146,0.6369776725769043,0.325034886598587,0.2648120522499084,-0.2818911075592041
1749041195.5789714,4.188375013958356,-1.223906119443715,-1.5568003616235064,-4.088982527979289,4.429736584629482,-2.6976534112110704,-0.3154149395818695,0.007523359446624115,-0.07877456421872905,0.15237395004485613,0.19150365349858922,-0.31595009044782846,-0.5266605615615845,0.627412736415863,0.6376941204071045,0.332415759563446,0.2460817694664001,-0.2868725955486297
1749041195.5790083,4.187738079710716,-1.223892876367708,-1.5569606640518645,-4.0886783464404015,4.430116962629882,-2.698284697663681,-0.3155224360815615,0.007514903082868574,-0.07884658438000391,0.1524294575259404,0.19155936889669187,-0.31645246892048257,-0.4446176588535309,0.6051628589630127,0.650867223739624,0.3326735198497772,0.2564097344875335,-0.2805244028568268
1749041195.5790446,4.1871022966528395,-1.2238796993885526,-1.5571216448187701,-4.088375474487907,4.430496718450407,-2.698916655762411,-0.3156468222114647,0.00753172295012836,-0.07891748248155095,0.15241747392655988,0.19165262021560675,-0.31690188420736504,-0.4380306601524353,0.6143314242362976,0.6496469378471375,0.3086637258529663,0.2508995532989502,-0.3038529753684997
1749041195.5791552,4.186467743121866,-1.2238664871188214,-1.5572832160833079,-4.088073911367103,4.430876184910133,-2.6995492779605965,-0.31579328909209065,0.007570892505717356,-0.0789855818559458,0.15235904528913846,0.19179520923956553,-0.31728157583585886,-0.4696260094642639,0.6364653706550598,0.6242663860321045,0.3298026323318481,0.2565280795097351,-0.2916062474250793
1749041195.5810642,4.185834435126738,-1.223853150697352,-1.5574452615816199,-4.087773513477571,4.4312557504168995,-2.70018255896823,-0.31596334319506475,0.007627083688196796,-0.07904717029963391,0.15227713814281157,0.19199171657817893,-0.3175733467223123,-0.5229777097702026,0.6512691378593445,0.6235545873641968,0.3299937844276428,0.2728118002414703,-0.2692248821258545
