nimar13/UR3e_dataset_trayectorias/trayectorias_ejecutadas_filtradas/quintic_func/trayectoria_169_result_filtrado.csv
timestamp,q1,q2,q3,q4,q5,q6,qd1,qd2,qd3,qd4,qd5,qd6,tau1,tau2,tau3,tau4,tau5,tau6
1749043948.114272,5.951804166840747,-1.9071321977844085,-2.2096241077196432,5.245485256305769,3.199615191390643,4.153265877792901,0.0019731842459903065,-0.00019382013650723188,-0.0008619608274745607,0.001021586456505468,0.0011747239472789403,0.00171171760735814,0.1354243457317352,0.7122880816459656,0.6046940088272095,0.5143021941184998,0.5938870310783386,0.0756692290306091
1749043948.1143188,5.951803113525576,-1.9071312980585122,-2.209626743628415,5.245485282209939,3.1996063303971876,4.1532675505167855,0.0005981277445629212,-0.00014432514998461308,-0.0004367231361243886,0.0006578802955692859,0.0009164178414763214,0.0011192840269164978,0.1111939251422882,0.7366270422935486,0.6170219779014587,0.4809104800224304,0.5741233229637146,0.0652303695678711
1749043948.1143596,5.9518019189311255,-1.907130393316657,-2.209629465207787,5.245485125920468,3.19959774163968,4.15326893092021,-0.0007392244823691738,-9.59378394199571e-05,-2.898681684439253e-05,0.0002995079520257098,0.0006605465957052094,0.0005352834550877548,0.0958071649074554,0.7172780632972717,0.6315975189208984,0.4912247359752655,0.5700075030326843,0.0510750412940979
1749043948.1143985,5.951800361837936,-1.9071294666131753,-2.209632182369901,5.2454846639512756,3.199589647484291,4.153269785684789,-0.001996463499609031,-5.0236647092923046e-05,0.000348181339207989,-4.644611542472522e-05,0.0004106041847215405,-2.8208483785351967e-05,0.1195773035287857,0.7443249225616455,0.6309298872947693,0.4726328253746032,0.5539051294326782,0.0493978857994079
1749043948.114436,5.95179825261953,-1.9071285100958848,-2.209634783710786,5.2454838113915505,3.1995822282398283,4.153269926606488,-0.0031360202893535,-8.709031878292946e-06,0.0006843991720030066,-0.00037254993400467077,0.00017018154149788618,-0.0005593520885888506,0.0822394341230392,0.729084849357605,0.6475356221199036,0.4766196012496948,0.5493797659873962,0.0345697402954101
1749043948.114473,5.951795444669557,-1.9071275313384413,-2.20963713713621,5.245482530059861,3.199575612324599,4.153269224073472,-0.004127204488431784,2.7335603109622402e-05,0.0009727513002740011,-0.0006711511691486398,-5.704005940608271e-05,-0.0010469543357097307,0.0579667836427688,0.7634947896003723,0.6381385922431946,0.4646405577659607,0.5235665440559387,0.0392381846904754
1749043948.1145108,5.951791840049742,-1.9071265568281233,-2.2096390938691224,5.245480831477325,3.1995698725504953,4.15326761485925,-0.004947548223690812,5.684837827088805e-05,0.0012101759683703676,-0.0009347135658200515,-0.00026730916647341326,-0.0014809722121956856,0.0627855062484741,0.7593421339988708,0.6560034155845642,0.4647587239742279,0.5271780490875244,0.0128941535949707
1749043948.114548,5.951787389757505,-1.907125631567222,-2.209640496375598,5.245478773922617,3.19956502818797,4.153265104219861,-0.00558345844965215,7.911028927595701e-05,0.0013974081858457096,-0.001156348904991119,-0.0004568665035410768,-0.0018530787132583825,0.067839503288269,0.7577342391014099,0.6707293391227722,0.4620349109172821,0.5250932574272156,0.0253858566284179
1749043948.1145854,5.951782090128219,-1.9071248145697925,-2.209641189802752,5.2454764537680605,3.1995610516188124,4.153261762566773,-0.006030257875534289,9.378145515793428e-05,0.0015385035430273912,-0.0013304707053628355,-0.0006220801265787507,-0.0021572163439910687,0.083385020494461,0.7422498464584351,0.6784891486167908,0.460300087928772,0.5193119645118713,0.0289986133575439
1749043948.1146224,5.951775977439298,-1.907124170965851,-2.2096410355560816,5.245473992305059,3.1995578779799687,4.153257717093512,-0.006291711074410011,0.00010092704806061303,0.0016400361389986,-0.001453445078959041,-0.000759671426437188,-0.002390031482994727,0.0944074392318725,0.7462254166603088,0.6755236983299255,0.4553288519382477,0.5171055197715759,0.032936692237854
1749043948.1146595,5.951769122562737,-1.9071237621501753,-2.2096399251193732,5.2454715200035835,3.199555416317605,4.153253138965115,-0.00637912263274123,0.00010102033635836659,0.00171010618759725,-0.0015240954219702164,-0.0008670226300409698,-0.002551089909510614,0.0782171785831451,0.739298939704895,0.6914803385734558,0.4417710900306701,0.5166570544242859,0.0364657342433929
1749043948.114697,5.951761626644653,-1.907123635680305,-2.2096377922955672,5.245469160435278,3.1995535611956654,4.153248227065571,-0.006310091796238701,9.492525667426456e-05,0.001757299879894487,-0.0015439445782562205,-0.000942520425401944,-0.002642823560427822,0.0550788380205631,0.7491324543952942,0.7039781212806702,0.4550787508487701,0.515326976776123,0.0215099453926086
1749043948.1147408,5.951753617638654,-1.9071238165050342,-2.2096346225304115,5.245467015965615,3.199552204121292,4.153243189735744,-0.006107019417151478,8.386113545625639e-05,0.001789723526100849,-0.001517141895023864,-0.0009858608645328545,-0.002670227282922413,0.0897648483514785,0.7537829279899597,0.6904667019844055,0.4520043730735779,0.5074754357337952,0.0099292695522308
1749043948.1147797,5.951745246669631,-1.9071243008776118,-2.209630458534312,5.245465156975381,3.1995512442699137,4.153238226313266,-0.005795476438944489,6.935120251278114e-05,0.001814199898969433,-0.0014500959738731286,-0.0009982357667843468,-0.0026403779978839336,0.0531080588698387,0.7477405071258545,0.7186539769172668,0.4557161033153534,0.5073538422584534,0.0216417908668518
1749043948.1148164,5.951736683207391,-1.907125053995389,-2.209625401797565,5.245463615922559,3.1995505976744663,4.153233510491097,-0.005402548611316325,5.3155080496936775e-05,0.0018356806824827362,-0.001350889177184654,-0.0009823461262829785,-0.002561866789013767,0.0548548698425293,0.7281959056854248,0.7141658663749695,0.4576993882656097,0.4996100068092346,0.0241734981536865
1749043948.114854,5.951728108825895,-1.9071260117894004,-2.2096196097897183,5.245462386921189,3.199550203574014,4.153229177432091,-0.004955265836089676,3.718412082869528e-05,0.0018569045799266297,-0.0012285738710579434,-0.000942230628292528,-0.0024442184251496743,0.0494002774357795,0.7427961230278015,0.7113922238349915,0.4510379433631897,0.4972558617591858,0.0249777734279632
1749043948.1149104,5.9517197101753005,-1.9071270864406973,-2.2096132887974362,5.245461430631803,3.199550026641417,4.153225316200625,-0.0044792045015375264,2.339779058719104e-05,0.0018783168805949553,-0.0010924467643438557,-0.0008829378520311152,-0.0022973397768698764,0.0667804405093193,0.7227290868759155,0.7282220721244812,0.4425154030323028,0.5008592009544373,0.0161094069480896
1749043948.1149786,5.951711671984969,-1.9071281745972393,-2.2096066826022764,5.245460683300701,3.199550054654576,4.153221968492141,-0.0039973203371358405,1.3679648106259294e-05,0.0018982544203317974,-0.0009513792486888061,-0.0008100972877311406,-0.0021310094112434756,0.0410214960575103,0.7213906645774841,0.7147703170776367,0.4390184879302978,0.502301037311554,0.0106018185615539
1749043948.1150453,5.951704170380053,-1.9071291672265396,-2.209600057545331,5.2454600680389065,3.199550292377982,4.153219133841961,-0.00352904011311078,9.692956302352752e-06,0.00191337941690824,-0.000813259545278522,-0.0007294545915579099,-0.0019544088351635116,0.057118035852909,0.7107416391372681,0.7256650328636169,0.441189169883728,0.5023009181022644,0.0283166170120239
1749043948.1151135,5.951697366109613,-1.9071299603115228,-2.2095936849346844,5.245459506140181,3.199550753170982,4.153216780353767,-0.003089625372334785,1.2718665370058412e-05,0.0019193138992333512,-0.0006845816198057145,-0.0006464329226104309,-0.0017757016994308147,0.010681196115911,0.722459077835083,0.7052363753318787,0.4443139135837555,0.5039781928062439,0.0301006138324737
1749043948.115269,5.951691397144217,-1.9071304656785286,-2.209587822143771,5.245458926545813,3.199551449814196,4.153214858707214,-0.00268981931378027,2.3482155379792372e-05,0.0019113906159295493,-0.0005701968499191645,-0.0005657690526606475,-0.0016016811594835529,0.0289796367287635,0.7324889302253723,0.7009978890419006,0.4403993785381317,0.5018517374992371,0.0100349783897399
1749043948.1165397,5.951686370686612,-1.9071306210255812,-2.209582694059313,5.245458272393571,3.1995523856380297,4.153213316399662,-0.0023357867038021002,4.197939120946844e-05,0.0018854098487609912,-0.0004732272889547231,-0.000491255092251519,-0.001437516359295927,0.0226742923259735,0.7236415147781372,0.6980316042900085,0.4447900354862213,0.5006936192512512,0.0206074118614196
1749043948.1582909,5.95168235550196,-1.9071303980089607,-2.209578476754799,5.245457504630198,3.199553546813226,4.153212109271646,-0.0020293467662626766,6.731747979519909e-05,0.0018382879419297114,-0.0003951248101328409,-0.00042559820956600606,-0.0012866296379050054,0.031397271901369,0.705145537853241,0.7120535969734192,0.4535787403583526,0.4912238717079162,-0.0049585998058319
1749043948.158337,5.951679376013734,-1.9071298073057867,-2.209575285262059,5.245456603537611,3.199554896763296,4.153211208188108,-0.001768480843102698,9.758839145451419e-05,0.0017685078026526756,-0.0003358494645081783,-0.0003703943906845126,-0.001150725050365753,0.0333913639187812,0.7089518904685974,0.6932932138442993,0.4548556506633758,0.5140548348426819,0.0271674990653991
1749043948.158381,5.9516774095506,-1.907128899883122,-2.209573166844643,5.245455569347376,3.1995563737761277,4.153210599895481,-0.0015480766603134341,0.00012979710718649922,0.0016763261858336413,-0.0002941336212143237,-0.00032619988238121627,-0.0010299697920510083,0.0291684847325086,0.690620481967926,0.6893571019172668,0.4575041234493255,0.509928286075592,0.0145428776741027
1749043948.1584206,5.951676387585688,-1.907127764121484,-2.2095721002761843,5.2454544226861906,3.199557892709993,4.153210282298191,-0.0013608551583304783,0.0001598659484131655,0.0015637412847182273,-0.0002677957843612397,-0.0002926764195528563,-0.0009233097086512457,0.0269629023969173,0.6944024562835693,0.7120750546455383,0.4466035068035126,0.5137304663658142,0.0184703469276428
1749043948.1584592,5.951676201058492,-1.9071265188691469,-2.2095720007475976,5.245453204676288,3.1995593511769522,4.153210255482577,-0.0011984159678442878,0.00018273459864645312,0.0014342632004237226,-0.0002540688733439574,-0.00026878358882555687,-0.0008288838767714176,0.0248873010277748,0.6974160075187683,0.7025800347328186,0.4523787200450897,0.5081323981285095,0.0156625807285308
1749043948.158499,5.951676709152374,-1.9071253029704658,-2.2095727295463856,5.2454519757885665,3.1995606398946723,4.153210510535036,-0.0010523321524542242,0.0001925697127438968,0.0012925525507294189,-0.00024991165982658753,-0.00025299271212761757,-0.0007444935198943464,0.055003099143505,0.6842284798622131,0.703617513179779,0.459686815738678,0.5126007795333862,0.0030249953269958
1749043948.1585374,5.951677750445296,-1.9071242623606977,-2.2095741074591384,5.24545081248539,3.1995616561129974,4.153211018560351,-0.0009152219134276926,0.00018308878083133306,0.0011439980830928534,-0.0002522785116119486,-0.000243500100001781,-0.0006680770208428746,0.0464514084160327,0.686180055141449,0.7195912599563599,0.4552604258060455,0.5140911936759949,0.0191198587417602
1749043948.158575,5.95167915528857,-1.9071235363878918,-2.209575930629924,5.24544980118537,3.199562318169389,4.153211722442642,-0.0007817247696049046,0.00014799045175724348,0.000994295961696304,-0.0002583308971917512,-0.00023842227058592738,-0.0005981444071717434,0.0442409329116344,0.6747792959213257,0.7024082541465759,0.4464628398418426,0.5090288519859314,0.0205960273742675
1749043948.158613,5.951680758373702,-1.9071232454212619,-2.2095779873394426,5.245449029765413,3.1995625785305593,4.153212533657617,-0.0006493135756888289,8.146883480274349e-05,0.0008490770671969126,-0.00026558305914261686,-0.0002359609317466885,-0.0005341302020342409,0.0690575912594795,0.652069091796875,0.7053683400154114,0.4523455798625946,0.5182192921638489,0.0213161706924438
1749043948.1586509,5.951682410320189,-1.9071234817503606,-2.20958007408079,5.245448577472021,3.199562432598856,4.1532133355053755,-0.0005188817734197888,-2.122615260972357e-05,0.0007136098232365885,-0.0002719825074485737,-0.0002345305908090139,-0.0004766318802305636,0.0365474894642829,0.6467930674552917,0.7116734981536865,0.4584794640541076,0.5172064900398254,0.0167726874351501
1749043948.1586883,5.951683986779957,-1.9071243050651234,-2.2095820094856173,5.245448504678557,3.1995619213802646,4.153213992541181,-0.0003950564361373813,-0.00016323468125144206,0.0005925884713370513,-0.0002759325298546655,-0.0002328461618174941,-0.0004275116859851089,0.0592800490558147,0.6675839424133301,0.6976422071456909,0.4590553939342499,0.5167664289474487,0.0244255661964416
1749043948.1587305,5.951685393483948,-1.9071257426343193,-2.209583644988336,5.245448844281063,3.1995611275572275,4.153214364344717,-0.00028620135406279106,-0.0003456022754428118,0.0004900022608907104,-0.00027626833389389916,-0.00022997160605561188,-0.00038985184494382766,0.0733284577727317,0.6664500832557678,0.7086948156356812,0.4718128144741058,0.5309880375862122,0.0370057821273803
1749043948.158769,5.951686566154322,-1.9071277932538284,-2.2095848715315873,5.245449596442012,3.1995601659628297,4.153214320776669,-0.00020409120610731502,-0.0005669317424814057,0.0004090708127963925,-0.00027220069159155204,-0.00022533333355893227,-0.0003677666958471598,0.0635671019554138,0.6569731831550598,0.703743040561676,0.4651459157466888,0.5165215730667114,0.0149964690208435
1749043948.1588063,5.951687465118203,-1.907130433534645,-2.2095856221054233,5.245450727705954,3.199559170393034,4.153213755814328,-0.00016325882754152348,-0.0008232328453955659,0.00035222567187744746,-0.00026324125151602794,-0.00021870380800137815,-0.0003660892834881664,0.04092937707901,0.626160204410553,0.7090761065483093,0.4731061160564422,0.523257315158844,0.003473937511444
1749043948.1588438,5.951688065442205,-1.9071336250670399,-2.209585870383035,5.245452174435763,3.199558278922258,4.153212597753964,-0.0001800430633723612,-0.0011080106188321118,0.0003211179220126247,-0.0002491223613026322,-0.0002101616386918823,-0.00038996379186265846,0.0270219780504703,0.6228002905845642,0.7099034190177917,0.4781307876110077,0.5394220948219299,0.016114056110382
1749043948.1588807,5.951688344131997,-1.9071373211988385,-2.2095856260331197,5.245453849627946,3.1995576195481923,4.153210814572089,-0.00027139359482690684,-0.0014125980418946869,0.000316636127749017,-0.00022972175156101398,-0.0002000345943478958,-0.0004443879203769442,0.0647635534405708,0.6066039204597473,0.7201287150382996,0.4827217757701874,0.5412830710411072,0.0073023736476898
1749043948.1589184,5.951688266200345,-1.9071414725239255,-2.20958492748712,5.245455651858283,3.199557297481489,4.15320841410821,-0.00045351884005588903,-0.0017266941484824507,0.00033892659671072334,-0.00020499923312173243,-0.0001888316640911599,-0.0005337592858267782,0.020562894642353,0.6121724247932434,0.7335694432258606,0.4945754408836365,0.5279585719108582,-0.0037683248519897
1749043948.1589556,5.951687771277425,-1.9071460306091759,-2.2095838331890945,5.245457475225722,3.1995573850542884,4.153205439281709,-0.0007404899811903068,-0.0020390285021331172,0.0003874173939633107,-0.00017494903284438618,-0.00017716976453905584,-0.000661484815037133,0.0312039367854595,0.6069453358650208,0.7148754000663757,0.5000666975975037,0.5459883213043213,-0.0017626285552978
1749043948.1589923,5.951686762261532,-1.9071509498154402,-2.209582412629382,5.2454592193389225,3.1995579150493905,4.153201958962551,-0.0011429339563496144,-0.002338054743878714,0.0004608568393062498,-0.00013956780934815712,-0.00016570014855600933,-0.0008297095157322751,-0.0128668686375021,0.6146208643913269,0.7282827496528625,0.4992583096027374,0.5548500418663025,-0.0030516684055328
1749043948.1590302,5.951685097545316,-1.9071561872365024,-2.2095807384339756,5.245460798515437,3.199558878039484,4.1531980556675885,-0.0016669547389273984,-0.0026125901945098866,0.0005573845441723264,-9.883503928130287e-05,-0.00015503908633543939,-0.0010392094302618033,-0.0387088768184185,0.5898833870887756,0.7388569712638855,0.5225644111633301,0.5540716052055359,0.0016055107116699
1749043948.159146,5.95168258841686,-1.9071617009350181,-2.2095788802325083,5.24546214950384,3.199560223936493,4.153193811907246,-0.0023134071119082712,-0.0028523591091465807,0.0006746564032155628,-5.2699773351632913e-05,-0.00014570687043753775,-0.001289472614988966,-0.0268752835690975,0.6007229685783386,0.7358232736587524,0.5046004056930542,0.563924252986908,0.0063742995262146
1749043948.1605012,5.951679002849328,-1.9071674469162685,-2.2095769002344454,5.24546323721557,3.1995618673929296,4.15318929737671,-0.0030776039536585206,-0.0030484417335903077,0.0008100417022801161,-1.0662222793477162e-06,-0.00013807849063583583,-0.001578962862207823,-0.0332978591322898,0.5788969993591309,0.7434775829315186,0.5035527348518372,0.5605872273445129,-0.0106321424245834
1749043948.202272,5.95167407587821,-1.907173375589683,-2.209574849924586,5.245464058134722,3.1995636961092644,4.153184559017952,-0.003949472058852103,-0.0031936557608290253,0.0009608978577550039,5.622940077202473e-05,-0.00013234841518567259,-0.0019055274238945102,-0.0385861657559871,0.6149106025695801,0.7486089468002319,0.531382143497467,0.5556455254554749,0.0044462084770202
1749043948.2023177,5.951667525483699,-1.907179428645837,-2.2095727672160126,5.245464641199067,3.1995655807108467,4.153179615339644,-0.004914106461593132,-0.003282891659767265,0.0011249062146208022,0.00011945690936305811,-0.0001285109719725581,-0.0022668794703188497,-0.035398781299591,0.5810524821281433,0.7508500218391418,0.5344497561454773,0.5523881316184998,-0.024228036403656
1749043948.2023582,5.951659071865344,-1.907185537134717,-2.209570673526357,5.245465045992343,3.19956738482612,4.153174455396749,-0.005952638981573234,-0.003313396729968373,0.0013004269627667057,0.0001890487117350878,-0.00012635704392233808,-0.0026610677226197757,-0.0904574692249298,0.6199259161949158,0.7369326949119568,0.5476163625717163,0.5548499822616577,-0.0215059518814086
1749043948.2024136,5.951648457514651,-1.9071916210865123,-2.209568570414987,5.245465358166509,3.1995689743685043,4.1531690416740705,-0.007043341335220843,-0.0032849727028136746,0.0014868141997294605,0.0002656755347509353,-0.0001254872462789359,-0.003086846422437104,-0.0724849849939346,0.6240698099136353,0.7525404095649719,0.5550454258918762,0.5486804842948914,-0.0262885689735412
1749043948.2024608,5.95163546566616,-1.9071975906169307,-2.209566435769154,5.2454656822653964,3.199570225748079,4.1531633152478875,-0.00816290068044216,-0.003200036917555509,0.0016846335616295892,0.00035033788824600457,-0.00012534136945531026,-0.003543878180039336,-0.0650016516447067,0.620037853717804,0.7635318636894226,0.5451865196228027,0.5438664555549622,-0.0403601676225662
1749043948.2025008,5.951619935432656,-1.9072033483612147,-2.2095642201125796,5.245466132573129,3.1995710334913916,4.153157201525937,-0.00928780107780043,-0.0030635071806510493,0.001895745301229423,0.00044446364419154443,-0.0001252435202099982,-0.004032733029687207,-0.0665367096662521,0.6271156072616577,0.7572522759437561,0.5488417744636536,0.551275908946991,-0.033510148525238
1749043948.2025392,5.951601772724015,-1.9072087930695585,-2.209561844132482,5.245466823159941,3.1995713179335734,4.153150615556513,-0.010395714042673188,-0.002882500069954032,0.0021232449847584044,0.0005499935514619135,-0.000124461947833503,-0.004554680192764994,-0.0861782729625701,0.6125310659408569,0.7852253913879395,0.5580088496208191,0.5534080862998962,-0.0360499918460845
1749043948.2025778,5.95158095641139,-1.9072138240485286,-2.209559198597377,5.245467858714009,3.199571032967176,4.153143466732305,-0.011466779111318005,-0.002665866198832257,0.0023712775954854736,0.0006694289899147638,-0.00012228190582083603,-0.005111298653966676,-0.0813748240470886,0.6119097471237183,0.7724142670631409,0.5503469109535217,0.5436246991157532,-0.0337328016757965
1749043948.2026155,5.95155753922375,-1.9072183460546126,-2.2095561474225818,5.245469327724574,3.1995701727013115,4.153135663123803,-0.012484674118508798,-0.002423610076233083,0.002644749413482546,0.0008058159850477572,-0.00011808902840722366,-0.005703956772958261,-0.1144648045301437,0.644992470741272,0.7670524716377258,0.5641916394233704,0.5406091809272766,-0.0329635739326477
1749043948.202654,5.9515316430687015,-1.9072222744153404,-2.2095525339948257,5.245471299005514,3.1995687751201047,4.153127115626179,-0.013437427476296558,-0.002166252132088353,0.00294895704305902,0.000962650022710833,-0.00011145961170335213,-0.006333228757433494,-0.0946206748485565,0.6413775086402893,0.7679979801177979,0.5748905539512634,0.5504719614982605,-0.0456186830997467
1749043948.202695,5.95150344909275,-1.9072255403163212,-2.209548190222443,5.245473821710259,3.199566921005027,4.15311774187806,-0.014317972298416203,-0.001904189404725876,0.00328914484921869,0.001143704271263721,-0.00010225296302716734,-0.006998323341802706,-0.134206473827362,0.6349930167198181,0.775458812713623,0.5826545357704163,0.5265190601348877,-0.0527698695659637
1749043948.2027328,5.951473183586322,-1.9072280960605161,-2.209542947256136,5.245476928333699,3.199564727404643,4.15310746971388,-0.015124454025819866,-0.0016471047290686307,0.003670002097207778,0.0013528019299372492,-9.069976449517717e-05,-0.007696594151803777,-0.1588289141654968,0.6568979620933533,0.7761256098747253,0.6032821536064148,0.5382605195045471,-0.0460627675056457
1749043948.2027698,5.951441101294184,-1.9072299197851368,-2.2095366465516952,5.245480639882814,3.19956233619091,4.153096239864121,-0.01586028083791097,-0.0014034654381690254,0.004095122839293266,0.0015935649112099257,-7.74793854478398e-05,-0.008423186470665695,-0.1200631335377693,0.6463068723678589,0.7905508875846863,0.5820401310920715,0.5288587808609009,-0.0504893362522125
1749043948.2028062,5.951407467465423,-1.9072310189403496,-2.209529149993786,5.245484972282094,3.19955989922179,4.15308400782721,-0.016533877713498808,-0.0011801422316129477,0.004566469432638142,0.0018691715957004985,-6.377850322428326e-05,-0.009170863564838073,-0.1154351755976677,0.6477382183074951,0.7943241000175476,0.5936346054077148,0.5242465734481812,-0.0581719875335693
1749043948.202843,5.951372539371012,-1.9072314319188808,-2.209520348099534,5.245489943019713,3.1995575621653574,4.153070745197873,-0.01715810347977755,-0.000982166675700171,0.005083895082315682,0.002182143304759349,-5.13234883168757e-05,-0.009930055506512787,-0.1327849626541137,0.6627042293548584,0.8097500205039978,0.5936521291732788,0.5323173403739929,-0.0549046397209167
1749043948.202881,5.951336547811777,-1.9072312273992535,-2.2095101657021887,5.24549557700739,3.1995554490716316,4.153056440903211,-0.01774933049948517,-0.0008126322197667784,0.0056447849824135645,0.0025341529444175125,-4.237998149819972e-05,-0.010689179184694959,-0.1264563500881195,0.6544976234436035,0.804487407207489,0.5952761173248291,0.5206738710403442,-0.0500136911869049
1749043948.2029178,5.951299679664926,-1.907230501110836,-2.2094985648281886,5.245501910676114,3.1995536493777426,4.153041102520863,-0.018326254757064384,-0.0006727299939709855,0.006243868588278192,0.0029258182874349575,-3.971507049175834e-05,-0.01143527420654845,-0.157267764210701,0.6504373550415039,0.7974522113800049,0.5961022973060608,0.5123733878135681,-0.0773433148860931
1749043948.202955,5.951262063274915,-1.9072293700233736,-2.209485544700024,5.245508993554504,3.1995522085229537,4.153024757232959,-0.018908566871656627,-0.0005618988263900072,0.0068732422188370525,0.0033564259715882254,-4.6520503609043467e-05,-0.012154970092955877,-0.1595307737588882,0.6575111150741577,0.8158285617828369,0.6021465063095093,0.5010770559310913,-0.0834639221429824
1749043948.2030013,5.951223758730831,-1.9072279644987686,-2.2094711389997927,5.245516886936263,3.1995511229251474,4.153007451392665,-0.01951564335085928,-0.000478060654005501,0.007522625807834154,0.0038235534637819433,-6.629939879525716e-05,-0.01283574069100365,-0.1762993782758712,0.6639397144317627,0.8308501243591309,0.6025095582008362,0.4966861605644226,-0.0862168967723846
1749043948.2030458,5.951184754400452,-1.9072264193945858,-2.2094554107697375,5.2455256595444455,3.1995503395747944,4.152989247559861,-0.020165403548738126,-0.00041790888294007444,0.008179857580753569,0.004322620825635513,-0.00010272369821840674,-0.013467325263741777,-0.1764844208955764,0.6638709306716919,0.8165135383605957,0.6107332706451416,0.4774055480957031,-0.0929409861564636
1749043948.2031598,5.951144969756265,-1.9072248651112125,-2.2094384455905267,5.24553538031735,3.199549759938936,4.1529702183379325,-0.020873430620463262,-0.0003772183373629127,0.008831601668489796,0.004846485964496907,-0.0001594746563496918,-0.014043129968079247,-0.1589178591966629,0.6844580173492432,0.8228726983070374,0.6139596700668335,0.4800921082496643,-0.092331625521183
1749043948.2044525,5.951104263261107,-1.9072234192023962,-2.2094203439139886,5.245546108822168,3.1995492475261873,4.152950437202129,-0.02165239356557224,-0.0003511504614029772,0.0094642110576436,0.005385250425228542,-0.0002400830125679491,-0.014561393201145483,-0.1835280656814575,0.6877954006195068,0.8381621837615967,0.6195305585861206,0.4761094450950622,-0.0859559029340744
1749043948.2462862,5.95106244349304,-1.90722217881878,-2.209401213542789,5.245557884465943,3.199548638278127,4.152929967353318,-0.022511754570727793,-0.0003345352290978807,0.010064663102067562,0.0059264334836988284,-0.000347787910139858,-0.015025910886525162,-0.2297298908233642,0.6866533756256104,0.8141153454780579,0.6249595880508423,0.4724754691123962,-0.0959720239043235
1749043948.2463331,5.951019281812808,-1.9072212141892897,-2.209381163123335,5.24557071631247,3.199547752543431,4.152908850084747,-0.023457716948153743,-0.00032212051973532727,0.010621473487477728,0.006455598088505699,-0.00048543244477367763,-0.01544616711936254,-0.2051975131034851,0.7237982749938965,0.8184618949890137,0.6113505959510803,0.4511316418647766,-0.0843728929758071
1749043948.246374,5.950974525331298,-1.9072205635227415,-2.2093602971492845,5.245584575477857,3.1995464069457014,4.1528870940879035,-0.024493364285006085,-0.0003087893283394988,0.0111254972671511,0.0069574004318354145,-0.0006554070161506659,-0.01583679468691247,-0.2321666330099105,0.6957447528839111,0.8332063555717468,0.5895928740501404,0.4500221014022827,-0.0760023146867752
1749043948.2464132,5.950927909343422,-1.907220229974744,-2.209338712576598,5.245599391627267,3.199544424698506,4.152864666811482,-0.025618948869623098,-0.00028975364664188925,0.01157054233856161,0.007416927575482767,-0.0008596384383750851,-0.016216390606417885,-0.2195139676332473,0.7187477350234985,0.8428518176078796,0.6079248785972595,0.4237895011901855,-0.0749071314930915
1749043948.2464516,5.95087916863483,-1.9072201815343082,-2.2093164969285772,5.245615054276587,3.1995416440184337,4.152841488826799,-0.02683229433238138,-0.00026073890002831793,0.011953749497131199,0.00782112145965506,-0.0010996061973652033,-0.016605815649229864,-0.2277623116970062,0.7139989137649536,0.8601141571998596,0.596813976764679,0.4422872364521026,-0.0836297422647476
1749043948.246491,5.950828047258645,-1.9072203546310502,-2.2092937276656386,5.245631418770741,3.199537925419473,4.152817432170624,-0.028129277682166335,-0.00021817186294007389,0.012275725216053806,0.008160076515748535,-0.0013763561577456527,-0.017026189506185136,-0.2348762154579162,0.7094918489456177,0.8374360203742981,0.6020196080207825,0.436292827129364,-0.1122095510363578
1749043948.2465289,5.950774306632419,-1.9072206616970375,-2.2092704724669017,5.2456483161710095,3.199533158863413,4.152792323458689,-0.029504350503944243,-0.00015937712391403923,0.012540437539086296,0.00842803061962493,-0.0016904855182203744,-0.017496838324745995,-0.2281312942504882,0.7240643501281738,0.8530588746070862,0.6097866892814636,0.412697970867157,-0.1061868369579315
1749043948.2465675,5.950717731979426,-1.907221001852835,-2.2092467899507438,5.245665565832587,3.1995272708247082,4.152765951996407,-0.03095105423393849,-8.277463158012479e-05,0.012754897636413406,0.008623925568894563,-0.002042091038476959,-0.018033452800383213,-0.2453942596912384,0.7504439353942871,0.8455039858818054,0.5881565809249878,0.3895277976989746,-0.1059105694293975
1749043948.2466052,5.9506581370167915,-1.9072212728240663,-2.2092227303585394,5.24568298913996,3.1995202300371033,4.152738082375221,-0.032462486897332575,1.1942472770119557e-05,0.012928654218616966,0.00875148042211338,-0.002430694708016762,-0.018646673302558706,-0.2617749273777008,0.7277501225471497,0.8489128351211548,0.6237316727638245,0.3962414860725403,-0.0999391973018646
1749043948.2466426,5.950595366510062,-1.9072213818255097,-2.2091983358245284,5.245700422769019,3.199512049961788,4.152708470358124,-0.03403168923183231,0.00012368137364938698,0.013073133003531441,0.008818789856987655,-0.0028551735296422458,-0.019341244626987497,-0.2819493114948272,0.7623231410980225,0.8419214487075806,0.5950736403465271,0.3878814876079559,-0.114153504371643
1749043948.2466805,5.950529296284486,-1.9072212537380169,-2.209173639984521,5.245717730032322,3.199502786334235,4.152676880310807,-0.03565192977403327,0.0002499124466624531,0.013200863206634631,0.008837518794357034,-0.0033137159663179996,-0.020115798031444244,-0.2751162946224212,0.7659597396850586,0.851719319820404,0.6008802056312561,0.376265674829483,-0.1250099539756775
1749043948.2467186,5.950459830650433,-1.9072208360186618,-2.2091486668722626,5.245734809249269,3.199492529351166,4.1526431021801695,-0.03731687385082016,0.0003867597657296819,0.01332464585890937,0.008821804640126805,-0.0038038096437241933,-0.020963240208629025,-0.2623094618320465,0.7461869716644287,0.8558380007743835,0.5996567606925964,0.3718872964382171,-0.1238156631588935
1749043948.2467568,5.950386897690762,-1.9072201006964102,-2.209123429371226,5.245751598595736,3.199481391493533,4.1526069661052265,-0.039020624645056616,0.0005292500670651722,0.013456728894501875,0.008786998669266357,-0.0043222428597302,-0.021871664882713027,-0.2994289994239807,0.7896056175231934,0.8554593920707703,0.6075239777565002,0.3674480020999908,-0.1549801975488662
1749043948.2467952,5.950310443159728,-1.9072190440960213,-2.2090979278002916,5.245768077515417,3.1994694929212293,4.152568352902965,-0.04075763961555429,0.0006717339968709214,0.013608056058889062,0.008748380576974265,-0.004865088034689871,-0.022825654055688472,-0.3075605630874634,0.7955330610275269,0.8606614470481873,0.6036190390586853,0.363516241312027,-0.1478715389966964
1749043948.246833,5.9502304237511865,-1.9072176847467968,-2.209072149259209,5.245784265320293,3.1994569466067744,4.152527198820084,-0.0425225533524964,0.0008084654282437137,0.013787649385921091,0.00871996469906499,-0.005427638945876326,-0.023807802861585015,-0.2978912889957428,0.822269082069397,0.8624318242073059,0.6022617816925049,0.3370722830295563,-0.1538620591163635
1749043948.2468717,5.950146800340854,-1.9072160597044752,-2.2090460680882864,5.2458002177746925,3.1994438452284553,4.152483493542089,-0.044309956686120276,0.000934285258678833,0.014002170775482574,0.008713485492295534,-0.006004301221620099,-0.024800286449273925,-0.3292681574821472,0.8000829219818115,0.8853662610054016,0.599700391292572,0.3402979671955108,-0.1332977861166
1749043948.2469096,5.950059531763932,-1.9072142195268327,-2.209019647468396,5.245816022216193,3.1994302515819735,4.152437271870263,-0.04611417660459144,0.0010453117275429603,0.014255690452493584,0.008737614424197479,-0.0065884801590085995,-0.025786294768689152,-0.3274474143981933,0.7794773578643799,0.8828359842300415,0.6139847040176392,0.3337714970111847,-0.1419591158628463
1749043948.246948,5.949968569831553,-1.9072122223665773,-2.2089928420726834,5.245831791370272,3.199416193778098,4.15238860125785,-0.04792908852026158,0.0011395095293878442,0.014549670872573275,0.00879743315546979,-0.007172547548961992,-0.02675119539972201,-0.3490203619003296,0.7964402437210083,0.86909019947052,0.6037614345550537,0.3116650283336639,-0.1540526449680328
1749043948.2469926,5.94987385640677,-1.9072101278635776,-2.2089656016916073,5.24584765573199,3.1994016656899484,4.152337568545137,-0.0497479962042448,0.0012170199494078258,0.014883155146019966,0.008894175943821622,-0.00774797122770248,-0.027683339986901923,-0.3809269964694977,0.8110275268554688,0.8789000511169434,0.6134148836135864,0.3171756267547607,-0.1642720401287078
1749043948.2470312,5.949775323333624,-1.907207991532334,-2.208937875546966,5.245863754353596,3.1993866322754427,4.152284269064338,-0.05156363110138277,0.0012801894031905859,0.015253131281147464,0.0090252570262764,-0.00830564712380655,-0.02857449142512283,-0.3406088948249817,0.8319296836853027,0.8811861276626587,0.603381335735321,0.3324950635433197,-0.1593843549489975
1749043948.247265,5.949672895897189,-1.907205860108394,-2.208909616520605,5.245880224119369,3.1993710387738536,4.152228799905695,-0.053368321115951356,0.001333308166745511,0.01565503097769806,0.009184604899698535,-0.008836403886223865,-0.029419899564667916,-0.3448010087013244,0.8494499921798706,0.8844221830368042,0.6127499341964722,0.3115762770175934,-0.1681829839944839
1749043948.2484877,5.949566500174216,-1.9072037679540412,-2.2088807841465665,5.245897188059757,3.199354822235277,4.152171257331793,-0.055154341031705495,0.0013821288459193307,0.016083316741753367,0.009363315376428412,-0.009331592807989604,-0.03021808195571303,-0.3657482862472534,0.8521836400032043,0.8930544257164001,0.6265880465507507,0.327552855014801,-0.1692299991846084
1749043948.2902792,5.949456073914967,-1.9072017343024266,-2.208851345343098,5.245914743801008,3.199337923363678,4.152111737038845,-0.056914399914051825,0.001433257114432858,0.016532110928747658,0.009550598283723212,-0.009783657339346854,-0.030970373453284523,-0.3520469665527344,0.8370535373687744,0.8940170407295227,0.6209020614624023,0.319949746131897,-0.1684203892946243
1749043948.2903254,5.949341579630703,-1.9071997610107068,-2.20882127245046,5.245932953599151,3.199320296669641,4.152050335694013,-0.05864217759623755,0.0014934996787640943,0.016995818038218757,0.009734938493211725,-0.010186595675230222,-0.03168030506630485,-0.3689319491386413,0.8593696355819702,0.9022608399391174,0.6042883396148682,0.318878561258316,-0.1675436794757843
1749043948.2903664,5.949223017744838,-1.9071978306857753,-2.208790538855966,5.245951837372971,3.1993019177173734,4.151987152731965,-0.060332809430102684,0.0015692316233017918,0.017469684297233144,0.009905342119041816,-0.010536267421153055,-0.032352873136087756,-0.3465417623519897,0.8604241609573364,0.8965957760810852,0.5913405418395996,0.2889858484268188,-0.1721128225326538
1749043948.2904167,5.9491004372157805,-1.9071959054078993,-2.208759113044065,5.245971369815692,3.199282787379606,4.151922292124179,-0.0619832338194232,0.0016658232817633345,0.01795023231201834,0.01005251225767561,-0.01083053229024502,-0.032993774456442373,-0.3801065683364868,0.885211706161499,0.8894225358963013,0.6090198755264282,0.3045571148395538,-0.1845138967037201
1749043948.29046,5.94897394105498,-1.9071939265090216,-2.208726952222263,5.245991482288451,3.199262933770753,4.151855864152451,-0.06359235243804094,0.0017871564026983925,0.018435513082362465,0.010169806102843484,-0.011069235525902582,-0.03360870592671217,-0.3719833493232727,0.8561698794364929,0.9128379821777344,0.6184849739074707,0.2849409282207489,-0.1873510926961898
1749043948.2904987,5.94884368484532,-1.9071918158343175,-2.208693996809791,5.246012069855934,3.199242412616662,4.1517879869181895,-0.06516099864150605,0.0019352625306336604,0.018925138417319968,0.010253865642996133,-0.011254071599026156,-0.0342028380338748,-0.3733726441860199,0.8870290517807007,0.8980557918548584,0.5988116264343262,0.2867782115936279,-0.1582959741353988
1749043948.2905378,5.9487098677361585,-1.9071894787904737,-2.2086601670758794,5.246033003309482,3.1992213064049264,4.151718786616079,-0.06669175273438474,0.0021101246779050902,0.019420091150955908,0.010304874090570378,-0.011388369656026508,-0.03478054865068885,-0.3821974992752075,0.9023545980453492,0.9129994511604308,0.6221579313278198,0.2776803374290466,-0.1918074488639831
1749043948.2905767,5.948572716977055,-1.9071868094158777,-2.208625362963838,5.246054145170088,3.199199722031406,4.151648395086456,-0.0681886711366488,0.0023096814130317937,0.019922348197663822,0.010326449682645315,-0.011476851563942167,-0.035345443136834326,-0.4028483033180237,0.9177021980285645,0.9271933436393738,0.6191141605377197,0.2720609605312347,-0.1668474078178405
1749043948.2906165,5.948432468184992,-1.9071836976119865,-2.2085894675026525,5.246075367643961,3.199177786166514,4.151576943479848,-0.06965700231399975,0.002530048942985929,0.02043438031103154,0.010325229390004093,-0.011525409069560877,-0.03590060679693878,-0.4000003337860107,0.911080539226532,0.9164314270019532,0.6045719385147095,0.2724383473396301,-0.1637086719274521
1749043948.290655,5.948289343911845,-1.9071800383182573,-2.208552353320858,5.246096569725305,3.1991556376623578,4.151504552076117,-0.07110294218833252,0.002765933745443316,0.020958606806262582,0.010310209826370322,-0.011540923929961457,-0.03644896846345438,-0.4083033204078674,0.8892975449562073,0.9241945743560792,0.6229393482208252,0.2614225447177887,-0.1761511713266372
1749043948.2906954,5.948143532875526,-1.9071757416726436,-2.208513891047481,5.246117690454944,3.199133417153319,4.151431317741106,-0.07253343997041221,0.0030111626774435123,0.021496885042076593,0.010291909745652026,-0.011531118325170333,-0.03699362871077559,-0.3515231907367706,0.9106733798980712,0.9398080110549928,0.609681248664856,0.2743737697601318,-0.1758910566568374
1749043948.2907336,5.9479951718723285,-1.9071707423976105,-2.2084739581471156,5.246138715876344,3.1991112550452474,4.151357301483395,-0.07395602152878337,0.0032592315792695126,0.022050106093730214,0.01028141467960743,-0.011504389792704366,-0.03753803343805308,-0.4037540256977081,0.9036248326301576,0.9338092803955078,0.6065382957458496,0.2797087728977203,-0.1707161217927932
1749043948.2907703,5.947844332206037,-1.9071650065046415,-2.2084324469904706,5.246159678386055,3.199089259675846,4.151282518837444,-0.07537857790816517,0.0035037821631713766,0.022617950845189506,0.010289368343630782,-0.011469574362908175,-0.038085938928612416,-0.3522898256778717,0.9157115817070008,0.9219345450401306,0.6089245080947876,0.2767155766487121,-0.1863215565681457
1749043948.2908075,5.947691012328634,-1.907158534271559,-2.2083892714932274,5.246180648706447,3.19906750744851,4.151206935311574,-0.0768090813275571,0.003738958638883255,0.023198834718442078,0.010324984933195015,-0.011435599452931435,-0.038641188819244374,-0.4077257513999939,0.9166263937950134,0.9406699538230896,0.6014959812164307,0.2774504423141479,-0.1914550065994262
1749043948.2908452,5.947535137898537,-1.9071513597310383,-2.2083443722218337,5.246201722266085,3.199046036449552,4.1511304679936405,-0.07825522692731011,0.003959649653802307,0.023790036668272087,0.010395167413460908,-0.011411025635257022,-0.039207379813695833,-0.4053241014480591,0.9300800561904908,0.936506450176239,0.5948705673217773,0.2762158513069153,-0.1752095073461532
1749043948.290882,5.947376569523374,-1.90714354764997,-2.20829772021362,5.246223002904334,3.199024844542885,4.1510529930508655,-0.0797240337849955,0.004161658834171291,0.024387976369972204,0.010503826973341908,-0.011403521916677714,-0.03978751659926208,-0.3870109319686889,0.927052915096283,0.9329385757446288,0.6283870935440063,0.24161297082901,-0.171687975525856
1749043948.2909186,5.947215117415879,-1.9071351888499766,-2.2082493197161135,5.246244587099789,3.199003892122982,4.150974357856378,-0.08122145558557403,0.004341850606141907,0.024988583224608153,0.01065150026110579,-0.011419362888177543,-0.040383746605439495,-0.4087793231010437,0.917563021183014,0.925068199634552,0.6104563474655151,0.257826566696167,-0.1784269660711288
1749043948.2909558,5.947050561393026,-1.90712639421391,-2.2081992097164806,5.246266551288286,3.1989831087074756,4.150894395999649,-0.08275204694664984,0.004498291436101395,0.025587698314083866,0.01083534099949815,-0.011463061850367029,-0.04099723456786769,-0.4409433305263519,0.9234739542007446,0.9633495211601256,0.6253913640975952,0.2570317983627319,-0.1689988523721695
1749043948.290993,5.94688267408285,-1.9071172874714504,-2.2081474638405343,5.246288943689606,3.1989624017581555,4.1508129433245715,-0.08431871713136614,0.0046303695107435365,0.026181462622040956,0.011049515201827866,-0.011537240571787405,-0.04162820256921627,-0.4326179325580597,0.9212327003479004,0.9286361336708068,0.6407873630523682,0.2444371581077575,-0.202635645866394
1749043948.2910302,5.946711244789588,-1.90710799702735,-2.2080941881653824,5.2463117809725945,3.1989416658880363,4.15072985323006,-0.08592258639634398,0.004738849040283116,0.026766660659902495,0.011285964768682618,-0.011642777906407014,-0.04227613311742707,-0.4181139767169952,0.9348587989807128,0.9284883737564088,0.6043089628219604,0.2443146407604217,-0.1970728784799575
1749043948.291149,5.946536101344432,-1.9070986474301144,-2.2080395166026503,5.246335049408539,3.198920790933961,4.150645009693441,-0.08756294207170243,0.004825813720272237,0.02734099859440938,0.01153544387619186,-0.011779197240003793,-0.042940110240909796,-0.4320436120033264,0.9419453740119934,0.944474756717682,0.6280634999275208,0.2556112706661224,-0.1834523677825927
1749043948.2924714,5.946357127562173,-1.9070893512635478,-2.20798360359875,5.246358709914142,3.198899667986304,4.150558336745202,-0.0892372804713842,0.004894480126320696,0.02790330037609579,0.011788693803359927,-0.011945181613727143,-0.04361925107354302,-0.4369106888771057,0.9744209051132202,0.949388027191162,0.5985244512557983,0.2590358555316925,-0.1805558800697326
1749043948.3342917,5.94617427451867,-1.9070802021546143,-2.2079266140486147,5.24638270634378,3.1988781931194534,4.150469803340217,-0.09094142976487182,0.004948901225030911,0.028453610132603394,0.012037608781060591,-0.012139074714592094,-0.04431315516013474,-0.4189222753047943,0.9340345859527588,0.9380912184715272,0.6044871807098389,0.2237820923328399,-0.1747727543115615
1749043948.3343403,5.9459875646257245,-1.9070712693029552,-2.2078687107458443,5.246406976254347,3.198856269072992,4.150379422823303,-0.09266977349546576,0.004993609039354656,0.02899319603675541,0.012276251104825362,-0.012359246451797404,-0.045022276442856966,-0.4531557857990265,0.9763169288635254,0.9350586533546448,0.606066107749939,0.2469078600406646,-0.1795595288276672
1749043948.334386,5.945797088344645,-1.9070625936087906,-2.207810040377936,5.246431463002828,3.19883380544529,4.150287246722826,-0.09441560901021126,0.005033250063153698,0.02952445742690412,0.0125015905322332,-0.012604259155660009,-0.04574811663952066,-0.404175728559494,0.9681457281112672,0.9490564465522766,0.5942388772964478,0.2416923344135284,-0.1758076548576355
1749043948.3344388,5.9456029941597075,-1.9070541852514888,-2.2077507197051967,5.2464561276274395,3.1988107182165275,4.1501933534839965,-0.09617165554247877,0.005072251547587367,0.030050740836711456,0.01271387042225514,-0.012872833175168677,-0.04649316014024139,-0.4647310078144073,0.9601895809173584,0.9129949808120728,0.5968229174613953,0.2222378700971603,-0.16484434902668
1749043948.334481,5.9454054729307435,-1.9070460225971348,-2.2076908237980613,5.246480958829577,3.19878692963945,4.1500978336991174,-0.09793067775107234,0.005114535606180403,0.030576070985504366,0.012916545698553232,-0.013163653579368289,-0.04726052179785693,-0.4438108205795288,0.9818813800811768,0.911203682422638,0.5953963398933411,0.2172254920005798,-0.1890727281570434
1749043948.33452,5.945204738030194,-1.9070380526920834,-2.2076303779407964,5.246505979652089,3.198762369440207,4.150000773994536,-0.0996861451049567,0.005163285696661547,0.03110480398076729,0.013115795579676121,-0.013475079452038496,-0.04805334919599372,-0.4278524518013,1.003493309020996,0.940629541873932,0.5962927937507629,0.2358547896146774,-0.2036945819854736
1749043948.3345623,5.945001002995584,-1.9070301941239964,-2.207569354212312,5.246531249980174,3.1987369776578363,4.149902241745078,-0.10143283383304745,0.005220773795554664,0.031641222217529144,0.013319677147981135,-0.013804824792782165,-0.048874086398120666,-0.4104351699352264,0.990658164024353,0.9462070465087892,0.5943793654441833,0.2172987461090088,-0.2011699378490448
1749043948.3346012,5.944794458923249,-1.9070223431465614,-2.2075076731211474,5.246556864528477,3.1987107086113857,4.149802272424042,-0.10316729848307282,0.005288270346980412,0.03218911499258916,0.013537039621469817,-0.014149682384225658,-0.04972373886077349,-0.4400417506694793,1.0155948400497437,0.9542185068130492,0.6125136017799377,0.219291865825653,-0.1956233978271484
1749043948.3346393,5.944585254293789,-1.9070143832949793,-2.2074452101502167,5.246582946478124,3.198683534995838,4.149700861195505,-0.10488818064401983,0.005366065524730705,0.032751405320643655,0.013776352419206769,-0.014505356892834241,-0.05060126600212025,-0.4180256724357605,0.9944453239440918,0.9421858191490172,0.5971047282218933,0.2252681255340576,-0.1806538105010986
1749043948.3346806,5.944373479887352,-1.9070061975385233,-2.207381806583406,5.246609637551479,3.1986554512176846,4.149597960427718,-0.10659636368538494,0.005453615238812078,0.03332986842360504,0.014044606133710419,-0.0148664585265102,-0.051503184074655754,-0.4185543656349182,1.0182156562805176,0.9454936981201172,0.6171923279762268,0.2351316064596176,-0.1851221621036529
1749043948.334719,5.944159160594111,-1.906997680996909,-2.2073172834661565,5.2466370860332034,3.1986264754480818,4.149493484539016,-0.10829500217349558,0.0055497914179735396,0.03392494676026609,0.014346421932241518,-0.015226686920532381,-0.052423419109977644,-0.4514499306678772,1.0125970840454102,0.9214525818824768,0.6032272577285767,0.2033834457397461,-0.1753396242856979
1749043948.3347638,5.943942254485278,-1.9069887518929296,-2.2072514571299036,5.246665434622219,3.198596650062304,4.149387322380467,-0.10998944001123381,0.00565318304461528,0.0345356355076881,0.014683457949076398,-0.0155792091282671,-0.05335342720313214,-0.4251140058040619,1.0133280754089355,0.9236345887184144,0.6061270236968994,0.2303289771080017,-0.1805692613124847
1749043948.3348088,5.943722658159794,-1.906979358806098,-2.2071841546220354,5.24669480965999,3.198566040178937,4.14927935545159,-0.11168699266383401,0.005762382999347055,0.03515941973169156,0.015054147835746786,-0.015917204312052475,-0.0542825928370375,-0.4009129405021667,1.0265952348709106,0.9524997472763062,0.6157410144805908,0.2147908806800842,-0.1919160932302475
1749043948.3348472,5.943500216659831,-1.9069694831977448,-2.2071152276755917,5.246725312494044,3.1985347302231246,4.149169478566971,-0.11339653637938789,0.005876210831537584,0.03579228301623182,0.01545376494601681,-0.016234513422860582,-0.05519891103348127,-0.4733979105949402,1.0393009185791016,0.9593470692634584,0.6296212673187256,0.2194337546825409,-0.1956022679805755
1749043948.3348854,5.943274736171758,-1.9069591372402055,-2.207044564305278,5.246757013106584,3.1985028188550606,4.149057618900783,-0.11512785097661905,0.00599385012697407,0.036428839784785685,0.015874780175446246,-0.01652630475464893,-0.05608994454295547,-0.4195396304130554,1.040072679519653,0.946827232837677,0.608391284942627,0.2149307578802108,-0.206525057554245
1749043948.3349345,5.943045998012077,-1.9069483578449289,-2.206972097480578,5.246789945895824,3.1984704129289634,4.148943749742956,-0.11689070918380119,0.006114903316274592,0.0370626344969299,0.016307461289794826,-0.01678965533574053,-0.05694401344429041,-0.4439865052700043,1.0485985279083252,0.9399361610412598,0.6208669543266296,0.2131639122962951,-0.1787849366664886
1749043948.3349743,5.942813772830777,-1.906937198223605,-2.206897810521511,5.246824107444427,3.1984376211392833,4.148827896521078,-0.11869377259740414,0.00623937737450337,0.03768660097269097,0.01674063804073566,-0.017023957416188597,-0.05775151689623132,-0.4652751088142395,1.0509419441223145,0.936801552772522,0.6133252382278442,0.2070228457450866,-0.1807387769222259
1749043948.335013,5.942577834433991,-1.9069257183815111,-2.2068217388964815,5.24685945610138,3.1984045476865823,4.148710134299707,-0.12054341359286831,0.00636761403844741,0.0382936233933522,0.017162540717691795,-0.01723108743735191,-0.05850622037075087,-0.4354081749916076,1.0604735612869265,0.9360543489456176,0.5974447131156921,0.2115624994039535,-0.1798449456691742
1749043948.3350496,5.942337972950755,-1.9069139758484488,-2.2067439680320393,5.246895913302504,3.198371285851063,4.148590577651051,-0.1224426242999553,0.006500175839160084,0.038877123782131186,0.017561629020988886,-0.01741531330935718,-0.0592063015253089,-0.4865734875202179,1.0806258916854858,0.9508115649223328,0.6120942234992981,0.2344595491886139,-0.1691725850105285
1749043948.3350866,5.942094007075563,-1.90690201779506,-2.2066646267882652,5.246933366767903,3.1983379111690207,4.148469365145365,-0.124390199604019,0.006637697837565661,0.039431615791696725,0.017927364617668667,-0.017582951034862255,-0.059854963736252174,-0.4575162827968597,1.0870152711868286,0.942890167236328,0.6153596043586731,0.2080227136611938,-0.18387371301651
1749043948.3351946,5.941845794848608,-1.9068898754250216,-2.2065838766603427,5.246971675878644,3.1983044743180646,4.148346641492795,-0.1263803798844652,0.006780713976596621,0.03995318127728795,0.018250920483535375,-0.01774180737867381,-0.06046049952572585,-0.5113935470581055,1.068471074104309,0.914893627166748,0.6016333103179932,0.2052408456802368,-0.198102056980133
1749043948.3364794,5.941593242064531,-1.9068775612124647,-2.2065018974901114,5.247010679503004,3.1982709946417174,4.148222540413397,-0.12840309229090086,0.006929468350132753,0.04043982739440381,0.01852583438513087,-0.017900465730213207,-0.06103579111214641,-0.5091283321380615,1.0775004625320437,0.9501577615737916,0.6189744472503662,0.198521688580513,-0.1953136473894119
1749043948.3823123,5.9413363070750895,-1.9068650692067564,-2.2064188711843067,5.247050206315517,3.1982374557678,4.148097170684889,-0.13044483460791745,0.007083728868864423,0.04089167812893856,0.01874859339618729,-0.01806749038939046,-0.06159733589022631,-0.4781798720359802,1.0884350538253784,0.9382920861244202,0.6178942322731018,0.2082472741603851,-0.1953832954168319
1749043948.3823588,5.941075000690262,-1.9068523781473534,-2.206334965352402,5.24709008726542,3.198203804525441,4.147970606847297,-0.13249012000358065,0.007242631997079244,0.041310963677769104,0.018919096728208275,-0.018250636300459873,-0.06216395131027865,-0.4612968564033508,1.0885932445526123,0.9259639978408812,0.5959625840187073,0.1919262409210205,-0.1874273419380188
1749043948.3824143,5.9408093804032935,-1.9068394565266362,-2.206250318797386,5.247130169274524,3.198169953561718,4.147842884971986,-0.1345232733334751,0.0074045943238516855,0.04170179967575981,0.0190409116751492,-0.018456151902345813,-0.06275533570599491,-0.4466851353645324,1.0988785028457642,0.9343615174293518,0.6064587235450745,0.1935526728630066,-0.195984199643135
1749043948.382458,5.940539539272814,-1.9068262683709618,-2.2061650304785956,5.247170328542964,3.198135787252906,4.147714002825555,-0.13653028111101276,0.007567322344342025,0.04206978669633479,0.019121232140923036,-0.018688248078949678,-0.06339064524673928,-0.4259526133537292,1.1102473735809326,0.9477734565734864,0.6121216416358948,0.1967441290616989,-0.2106322199106216
1749043948.3824975,5.940265590947569,-1.906812778725234,-2.2060791530985897,5.247210481353572,3.1981011700478246,4.147583922978916,-0.1385003814483054,0.007727936441151994,0.042421493845319146,0.0191704776225781,-0.01894877557222454,-0.06408720497155414,-0.4350530207157135,1.1090861558914185,0.9383963942527772,0.5947182178497314,0.1871711909770965,-0.2057497501373291
1749043948.3825362,5.939987652958907,-1.9067989584315121,-2.2059926919920154,5.247250590421656,3.1980659562665714,4.147452577330666,-0.1404271383608474,0.00788320583768232,0.042763906436099425,0.01920152622976435,-0.019237117323670196,-0.06485941994322846,-0.4277828335762024,1.1178284883499146,0.9526615738868712,0.5933203101158142,0.2023263126611709,-0.2002455592155456
1749043948.3825746,5.9397058305188635,-1.9067847881981055,-2.20590560948729,5.247290665730111,3.1980300004679063,4.147319872067741,-0.1423088557592318,0.008029874086307565,0.043103912030369416,0.01922864174990411,-0.01955027761480519,-0.06571790976896853,-0.4643329381942749,1.112287998199463,0.9661958813667296,0.6117661595344543,0.187026172876358,-0.2113111913204193
1749043948.382613,5.9394202029000525,-1.9067702618124112,-2.2058178342905217,5.247330759991566,3.1979931677250044,4.1471856927077795,-0.1441483290803885,0.008165039226258934,0.04344787627527107,0.019266212134308514,-0.019883143607530334,-0.066668867473965,-0.4707419276237488,1.1329336166381836,0.9463512301445008,0.606781542301178,0.1839503496885299,-0.2100000083446502
1749043948.3826544,5.939130814070404,-1.906755387881099,-2.2057292747072017,5.2473709597759255,3.1979553434295234,4.14704990910407,-0.1459520731543613,0.008286537563456913,0.04380133261513543,0.019327451334388526,-0.02022890083692173,-0.0677136391380146,-0.4831481575965881,1.12678861618042,0.9467061758041382,0.6224208474159241,0.1734044104814529,-0.2005534768104553
1749043948.382693,5.938837668602471,-1.9067401892361997,-2.205639833755717,5.247411373702556,3.1979164423929247,4.146912380212316,-0.1477292451070577,0.008393269341712903,0.044168793847474574,0.019423224271566397,-0.02057959124009996,-0.06884852447287346,-0.4688531458377838,1.101119041442871,1.0113389492034912,0.6232828497886658,0.1761370152235031,-0.2155634611845016
1749043948.3827305,5.93854073322075,-1.9067246995230867,-2.2055494236577116,5.247452119176752,3.1978764168781124,4.146772958371299,-0.14949046232465338,0.008485406272602667,0.04455369545509403,0.01956113828445112,-0.02092680111430496,-0.0700648038702088,-0.4644550681114197,1.1164933443069458,0.980226755142212,0.6273016929626465,0.1607638597488403,-0.2143124043941497
1749043948.3827682,5.93823994390123,-1.9067089573838838,-2.205457977157142,5.247493309197903,3.1978352627626525,4.146631493052618,-0.15124663255783827,0.008564437619898021,0.044958485004738785,0.01974500811162069,-0.021262451947818096,-0.07134900055480166,-0.4694818258285522,1.1417874097824097,0.9771701097488404,0.6263919472694397,0.161536306142807,-0.2259012162685394
1749043948.3828058,5.937935218030179,-1.9066929995378854,-2.2053654537962837,5.247535040712842,3.197793022486184,4.146487834433398,-0.15300784500038378,0.008633038645269627,0.0453848518463047,0.019974751426550745,-0.021579639365436977,-0.07268338505179407,-0.4522384405136108,1.1377010345458984,0.9698633551597596,0.6264309287071228,0.1606239527463913,-0.2045656740665435
1749043948.3828435,5.9376264704734565,-1.9066768544842578,-2.205271840427156,5.247577385722065,3.197749783218713,4.146341837527725,-0.15478235871059748,0.008694776619016091,0.04583404627782432,0.02024671531079137,-0.021873432502480403,-0.07404672327614988,-0.4474271535873413,1.1340012550354004,0.9749164581298828,0.6329213976860046,0.1680956184864044,-0.2076000869274139
1749043948.382882,5.937313631500373,-1.9066605384492474,-2.2051771464075016,5.247620385987916,3.1977056693168584,4.146193367738668,-0.15657574853223116,0.008753699777016836,0.04630720350457026,0.02055437642325797,-0.022141524649887227,-0.07541526118962674,-0.4999285340309143,1.1478147506713867,1.0108131170272827,0.6321863532066345,0.1601883023977279,-0.2109795063734054
1749043948.3829193,5.936996663653817,-1.9066440546348173,-2.205081394813014,5.247664051883272,3.1976608295987012,4.146042308435641,-0.15839029629381857,0.008813875662250946,0.046805595930781874,0.020889304277403167,-0.02238463106424051,-0.07676392912850699,-0.4819541871547699,1.1546800136566162,1.0044862031936646,0.6337034106254578,0.1575924307107925,-0.2191089540719986
1749043948.3829567,5.936675574270378,-1.90662739580767,-2.204984611501065,5.247708365544102,3.197615421493195,4.1458885705909285,-0.1602247295954031,0.00887894937474507,0.0473307739306986,0.021242238038632014,-0.02260656226753618,-0.07806773439092837,-0.5000927448272705,1.1804072856903076,0.9980183839797974,0.6200549602508545,0.1534998416900634,-0.2193090319633484
1749043948.382995,5.9363504208099895,-1.9066105490640712,-2.2048868139568976,5.247753287873959,3.1975695948182525,4.1457321037847645,-0.16207439459044795,0.008951779170701706,0.04788458266388877,0.021604116320057997,-0.02281394774978575,-0.07930328706695977,-0.5073762536048889,1.1857242584228516,1.007053017616272,0.620657742023468,0.1568721532821655,-0.2125815004110336
1749043948.3830318,5.9360213076380015,-1.9065935008146462,-2.2047880015608476,5.247798768227243,3.1975234776177657,4.14557290714053,-0.16393188672289669,0.009034184774148446,0.04846904836297819,0.021966924189040594,-0.023015629355249288,-0.08045037566312474,-0.504935622215271,1.1650084257125854,1.000053882598877,0.640275239944458,0.1455616354942321,-0.2143771201372146
1749043948.3830693,5.935688375064469,-1.9065762401227135,-2.204688148409945,5.247844755137698,3.197477165650136,4.145411038148526,-0.16578806589661613,0.009126821917185272,0.049086131881908475,0.02232427535098572,-0.023221776774900338,-0.08149349042407471,-0.4416055083274841,1.1707004308700562,1.0204237699508667,0.6257227063179016,0.1518725007772445,-0.2259224355220794
1749043948.3831067,5.935351783337433,-1.9065587594857607,-2.204587199346363,5.247891206443078,3.1974307163173896,4.145246617100606,-0.1676332882289691,0.009229180772169394,0.049737365908572334,0.022671711294824138,-0.0234428010167497,-0.08242319021015186,-0.4652900099754333,1.1743725538253784,1.0084524154663086,0.6282947063446045,0.143309935927391,-0.2226751446723938
1749043948.3831437,5.935011695070731,-1.9065410534970122,-2.2044850694865112,5.247938097458524,3.1973841472065407,4.145079825116342,-0.16945863377089,0.00933969781650495,0.05042341705454512,0.0230067519206128,-0.0236881624473725,-0.08323720693251593,-0.4939766824245453,1.1682658195495603,1.0179442167282104,0.6316007971763611,0.1501974612474441,-0.220102846622467
1749043948.383257,5.934668259290877,-1.9065231168617705,-2.2043816472984212,5.247985426268253,3.1973374388616125,4.144910894521829,-0.1712569194485323,0.009455967043969882,0.05114363156163841,0.0233287606563071,-0.023965192193155446,-0.08394115979595046,-0.4465413689613342,1.2051221132278442,1.0269315242767334,0.6462066769599915,0.1348403990268707,-0.190495878458023
1749043948.384491,5.934321599494201,-1.9065049434489603,-2.2042768011377496,5.248033215634476,3.197290540816245,4.144740091636171,-0.17302335436924324,0.009575032691752777,0.05189563200588122,0.02363869024025569,-0.024278065951712797,-0.08454872425379566,-0.4872857332229614,1.1978782415390017,1.040327548980713,0.6480368375778198,0.1270186305046081,-0.1963835209608078
1749043948.42629,5.9339718071316305,-1.906486527392071,-2.2041703890392137,5.248081511416488,3.197243379424339,4.1445676935674,-0.174755790241687,0.009693740843652158,0.052675035246858626,0.023938761617074332,-0.024627076654580957,-0.08508111512322071,-0.4829659163951874,1.1937693357467651,1.0238648653030396,0.6271302700042725,0.1133606806397438,-0.223688006401062
1749043948.426336,5.933618940775061,-1.9064678660905956,-2.2040622712898785,5.2481303777254515,3.1971958659884945,4.144393961818175,-0.17645460670423352,0.009809120618292949,0.053475356025703934,0.024232108935043177,-0.025008332812340012,-0.08556582564131228,-0.5214539170265198,1.1887400150299072,1.02450692653656,0.6602143049240112,0.1166098192334175,-0.1979085505008697
1749043948.426382,5.933263030004927,-1.9064489638816953,-2.203952324861131,5.24817988936779,3.1971479042852655,4.144219115909104,-0.17812232957624546,0.009918754983644553,0.05428814205822538,0.024522407393118874,-0.025413954976423944,-0.08603468010213686,-0.4750231504440307,1.190173625946045,1.0510780811309814,0.6387861967086792,0.122127927839756,-0.2062061578035354
1749043948.426429,5.932904082173796,-1.906429834709508,-2.203840458348877,5.248230122529019,3.197099397390387,4.144043309984626,-0.17976310456786254,0.010021091292101254,0.05510335855873673,0.02481349424717763,-0.02583276240827675,-0.08652135067085379,-0.4389112591743469,1.2136437892913818,1.0361090898513794,0.6392313838005066,0.1201842054724693,-0.2006997466087341
1749043948.4264677,5.93254208994494,-1.9064105024919697,-2.203726625801262,5.248281145005821,3.197050253996789,4.143866614914667,-0.1813821407167772,0.010115642923138188,0.05591000931165864,0.025108998905287252,-0.02625136064268698,-0.08705854109845974,-0.4514329433441162,1.192147731781006,1.0112985372543335,0.6562921404838562,0.1481782644987106,-0.2079211473464965
1749043948.4265063,5.932177037816152,-1.9063909987210164,-2.2036108376646557,5.248333007353446,3.197000394074045,4.143689007986305,-0.18298520714132968,0.010203048266332735,0.05669694931076212,0.025412008777975663,-0.02665548442187736,-0.0876750688237409,-0.4748199880123138,1.208956956863403,1.0385860204696655,0.6608737707138062,0.1144203692674636,-0.2182827293872833
1749043948.426545,5.931808906335648,-1.906371357662282,-2.2034931670876325,5.248385736068925,3.1969497533782985,4.143510371820034,-0.18457823507083668,0.010284973575806336,0.05745380982694652,0.02572480129817851,-0.02703143082010808,-0.08839309140496539,-0.473748117685318,1.2130792140960691,1.0277036428451538,0.6515457034111023,0.1222678422927856,-0.2074790596961975
1749043948.4265833,5.931437673098985,-1.9063516101670195,-2.2033737501768336,5.2484393296572085,3.1968982864865776,4.143330503438674,-0.186167057560855,0.010363865344418076,0.058171925190454415,0.026048665025756115,-0.02736742733272504,-0.08922571634702697,-0.475647360086441,1.2130942344665527,0.9840779900550842,0.659259021282196,0.1241952329874038,-0.1956077367067337
1749043948.426622,5.9310633100275,-1.9063317775304793,-2.203252779569798,5.2484937582458775,3.1968459684419375,4.1431491333404304,-0.18775729970999408,0.010442575884793524,0.058845134758768874,0.02638382143203319,-0.027654804506393085,-0.09017520924421285,-0.439626395702362,1.2092642784118652,1.0216773748397827,0.6644569039344788,0.1463995724916458,-0.2126741558313369
1749043948.4266598,5.930685777238135,-1.9063118668438401,-2.20313049162419,5.248548967111463,3.1967927952474136,4.142965953074197,-0.1893543926535787,0.01052390456409504,0.05947034765699843,0.026729451253156178,-0.027888871587687682,-0.09123199430151467,-0.5008966326713562,1.219831943511963,1.027987003326416,0.6450071930885315,0.138854444026947,-0.2008394598960876
1749043948.4266973,5.930305015013313,-1.906291868743777,-2.2030071482527083,5.248604883867719,3.1967387832685774,4.142780648471152,-0.19096362938690048,0.010610114407108571,0.060047799277515475,0.027083822981816937,-0.028069422132137693,-0.09237462923733761,-0.4705152213573456,1.2082393169403076,0.9978564977645874,0.6505414247512817,0.1203154698014259,-0.2403575778007507
1749043948.426735,5.929920936402844,-1.906271757600188,-2.202883014899237,5.248661428250685,3.1966839673862277,4.142592934705933,-0.192590139902926,0.01070249273008715,0.06058097495134449,0.02744451057968767,-0.028200822449786268,-0.093570901511996,-0.4830233454704284,1.2219586372375488,0.9888870120048524,0.6839072704315186,0.1380444169044494,-0.2009014636278152
1749043948.4267766,5.9295334232133605,-1.9062514935579358,-2.2027583366214394,5.24871852273935,3.1966283977229817,4.142402589027752,-0.1942386673181807,0.010801020389814928,0.061076214222803765,0.027808673830876988,-0.028291659874046998,-0.09478009675733039,-0.4703602492809295,1.2271045446395874,1.0374844074249268,0.6506726145744324,0.1426285952329635,-0.1969990283250808
1749043948.4268155,5.929142327403386,-1.906231025859303,-2.202633314844461,5.248776101974643,3.1965721350166385,4.142209477374396,-0.19591308859274106,0.010904200779995089,0.061542047676284954,0.028173362585858917,-0.028353956951732574,-0.09595634227132081,-0.4531444907188415,1.2381089925765991,1.018421649932861,0.6537838578224182,0.1151566728949546,-0.2260031700134277
1749043948.4268534,5.928747478552355,-1.9062102973503081,-2.2025080877992367,5.248834119171757,3.1965152451364607,4.142013571969607,-0.19761573269408536,0.011009083259850103,0.06198835837770341,0.028535797723780523,-0.02840200089156976,-0.09705278128937479,-0.4828571379184723,1.237737059593201,1.0098711252212524,0.6735081076622009,0.1298706978559494,-0.2235498875379562
1749043948.4268916,5.92834869670185,-1.9061892504581057,-2.2023827175278576,5.2488925483737985,3.196457793621677,4.141814958200454,-0.19934666193511094,0.011111495385636506,0.06242548154521602,0.028893580624554212,-0.028450895480241035,-0.09802622183007068,-0.5180810689926147,1.23964262008667,0.990289270877838,0.6545982956886292,0.1453702300786972,-0.2390985935926437
1749043948.4269288,5.9279458089314785,-1.906167834812741,-2.202257185418327,5.248951382361322,3.196399841243835,4.141613830469821,-0.20110313559768936,0.01120646852883364,0.06286334923867036,0.029244796281215204,-0.028515001006332752,-0.0988418169610719,-0.4814282655715942,1.243270993232727,0.9946095943450928,0.6414026618003845,0.1205533891916275,-0.2116706818342209
1749043948.4269657,5.927538667527486,-1.906146016073865,-2.202131396722994,5.249010627137695,3.196341441310803,4.1414104780886465,-0.20287943509886416,0.011288804062894581,0.06331076539054654,0.02958800396563117,-0.028606464120457246,-0.09947726280472934,-0.4800984263420105,1.232255935668945,1.015538215637207,0.6653842329978943,0.1163845658302307,-0.1960476338863372
1749043948.4270031,5.9271271672339765,-1.9061237846911092,-2.2020051929984796,5.249070294792891,3.1962826387589356,4.141205263192794,-0.20466712446638408,0.011353695923856552,0.06377487150996608,0.029922142665720654,-0.028734037799326217,-0.0999259759155445,-0.4496825933456421,1.237847924232483,1.013471245765686,0.6477111577987671,0.1259068250656128,-0.1857630908489227
1749043948.4270403,5.926711258813601,-1.9061011626470732,-2.2018783704419267,5.249130396819996,3.1962234703447963,4.14099859294685,-0.20645571229368562,0.01139731588746965,0.06426083150914774,0.030246400896120466,-0.02890235174747624,-0.10019877381724182,-0.4788345098495483,1.253512620925903,0.9853148460388184,0.6606901288032532,0.1053640320897102,-0.1839655637741089
1749043948.427147,5.926290956411439,-1.9060782060512305,-2.201750701747916,5.24919093951199,3.1961639649325058,4.140790888244899,-0.20823361719897984,0.011417284649170661,0.06477172489590799,0.030560102988114016,-0.029111727963653265,-0.10032374462165888,-0.4972794651985168,1.229509353637695,0.999642252922058,0.6629927754402161,0.1080947667360305,-0.1852658540010452
1749043948.4284852,5.925866337398215,-1.906055002026168,-2.201621959024737,5.249251922163581,3.1961041431427386,4.14058255117116,-0.2099893164915499,0.011412982610077078,0.06530860272183121,0.030862647938364414,-0.02935855717984438,-0.10034422986701129,-0.5302498936653137,1.2545764446258545,0.9839469194412231,0.6487624049186707,0.0927128046751022,-0.2032193541526794
1749043948.470287,5.925437535197114,-1.9060316596418554,-2.2014919353058375,5.249313337874896,3.196044016188749,4.140373933662584,-0.21171254484487545,0.01138568134518502,0.06587064275941486,0.031153511362872595,-0.02963616748373677,-0.10031510836018825,-0.4760274291038513,1.2681339979171753,0.9904433488845824,0.6681644916534424,0.0943145155906677,-0.2213657796382904
1749043948.470333,5.925004727193443,-1.906008296272818,-2.2013604624362544,5.249375176136958,3.1959835842282556,4.140165309796264,-0.21339538693821813,0.01133849225448428,0.06645534327531485,0.03143229802681268,-0.029936035719445295,-0.10029779863216405,-0.4944699108600616,1.2298285961151123,1.0074280500411987,0.659633994102478,0.0865291506052017,-0.2148235738277435
1749043948.470376,5.92456812044386,-1.9059850220725305,-2.20122742371303,5.249437426208381,3.195922834854684,4.139956853750575,-0.21503309599628498,0.011276138795768602,0.06705871309427518,0.03169882105554871,-0.030249128426566255,-0.10035455032960094,-0.4910772442817688,1.2216914892196655,0.9825696349143982,0.6509730219841003,0.1080634221434593,-0.2310676872730255
1749043948.4704266,5.924127937493638,-1.9059619258589258,-2.2010927604205763,5.249500080504169,3.19586174235964,4.139748624969627,-0.21662450439153672,0.011204573548322385,0.06767543785917336,0.031953185659837686,-0.030567127355491545,-0.10054265821598292,-0.5010169744491577,1.2482653856277466,0.9884482622146606,0.6620327830314636,0.1402236223220825,-0.2290649861097335
1749043948.47047,5.92368440364551,-1.9059390653601096,-2.200956472135207,5.249563137572641,3.195800268191819,4.13954056162998,-0.2181719763869494,0.011130484608199624,0.0682990219328968,0.032195863291909224,-0.03088331066220011,-0.10090921676272188,-0.4727683663368225,1.2367374897003174,0.9961498975753784,0.6529103517532349,0.1204040795564651,-0.2415599077939987
1749043948.4705098,5.923237736074408,-1.9059164635392931,-2.2008186114199115,5.249626604497267,3.1957383629093297,4.139332483129019,-0.21968095542613125,0.011060758346965313,0.06892192717314868,0.03242774801485841,-0.03119293529516056,-0.10148695355347094,-0.5025078654289246,1.2490617036819458,0.983130931854248,0.6609434485435486,0.1238952353596687,-0.2329201996326446
1749043948.470548,5.922788134681272,-1.9058941111135097,-2.2006792742430163,5.249690498674959,3.195675970012418,4.139124101799913,-0.2211592446486932,0.011001972952192659,0.06953575446687166,0.03265018762613406,-0.03149308932940674,-0.10229154935932348,-0.4943659007549286,1.2591421604156494,0.9829707741737366,0.6658215522766113,0.1188918724656105,-0.2446203827857971
1749043948.4705863,5.9223357745445515,-1.9058719740010266,-2.2005385878129986,5.249754848928515,3.1956130320412033,4.138915043329198,-0.222616200926836,0.010959982975888651,0.07013152790135865,0.03286498226297798,-0.03178211776667014,-0.1033206873604712,-0.5040212869644165,1.2776285409927368,0.9867171049118042,0.6559602618217468,0.1123171672224998,-0.2434661984443664
1749043948.470624,5.921880799900089,-1.905850003512193,-2.2003966974237397,5.249819695818428,3.1955494988509803,4.138704874515343,-0.2240619978833512,0.010939624880967365,0.0707001333758563,0.033074348886941114,-0.032058824627483475,-0.10455489178467231,-0.4487761557102203,1.2431689500808716,0.983254373073578,0.6515432596206665,0.115314744412899,-0.2485751956701278
1749043948.4706616,5.92142331961704,-1.9058281466967848,-2.200253753689675,5.249885090911161,3.1954853371612555,4.138493136236526,-0.2255070343780434,0.010944538947343426,0.0712329333198131,0.033280860125854635,-0.03232169039535424,-0.1059600356542193,-0.4442421197891235,1.241074562072754,0.9874481558799744,0.6600383520126343,0.1325013935565948,-0.2646950483322143
1749043948.470699,5.920963404328696,-1.9058063545053534,-2.200109901406551,5.249951094739085,3.195420539838443,4.138279378844503,-0.22696148633983468,0.01097707704842861,0.07172252994187933,0.03348736921909883,-0.03256831828178318,-0.10749123519718445,-0.464861124753952,1.2426342964172363,0.9610732793807985,0.6457033157348633,0.1172091364860534,-0.2690218091011047
1749043948.4707367,5.920501085606971,-1.9057845862537683,-2.199965270954898,5.2500177732022655,3.195355133254091,4.138063196571256,-0.22843496616941375,0.011038259796605495,0.07216358868301993,0.03369691658777695,-0.03279525337616517,-0.10909771110911279,-0.5670628547668457,1.2497611045837402,0.9721019268035888,0.6572474241256714,0.123336985707283,-0.2526800036430359
1749043948.470774,5.920036357405776,-1.9057628099408996,-2.199819972581032,5.250085192185834,3.195289181372236,4.1378442569568605,-0.22993625280231836,0.011127761428655143,0.07255358219945082,0.03391258090797583,-0.03299822840021772,-0.11072807795700883,-0.4433901906013489,1.2582218647003174,0.956145405769348,0.6575347185134888,0.1164487898349762,-0.2302953898906707
1749043948.470811,5.919569179422028,-1.9057409989706244,-2.199674093398092,5.250153410394417,3.1952227856415174,4.137622321203811,-0.2314730485213627,0.011243924562356527,0.07289329977259844,0.03413721526948848,-0.0331728010678871,-0.11233543297087686,-0.4662064015865326,1.263885259628296,0.9559543132781982,0.6298120021820068,0.1228749305009841,-0.2366647273302078
1749043948.470848,5.9190994815470095,-1.905719126726403,-2.1995276967866273,5.250222470984809,3.1951560800786094,4.13739725235361,-0.23305170563327268,0.011383824325957815,0.07318700106664722,0.0343730293479574,-0.03331527461327476,-0.11388160228421437,-0.4564179182052612,1.2469512224197388,0.9690468311309814,0.6687121987342834,0.1256149858236313,-0.2482081353664398
1749043948.470885,5.918627168615195,-1.9056971611191218,-2.1993808238356047,5.250292393282132,3.1950892212854596,4.1371690104413075,-0.234676886513371,0.011543404787703061,0.07344216757475545,0.034621048260012416,-0.033423734411326816,-0.11534000793078543,-0.4606459736824035,1.2773796319961548,0.966088056564331,0.6731258630752563,0.1301023513078689,-0.236962229013443
1749043948.4709222,5.91815212511744,-1.9056750612832138,-2.1992334963102635,5.250363166251947,3.1950223738685706,4.136937636649982,-0.2363511909252182,0.011717701072439567,0.07366889255812578,0.03488056743283587,-0.033498988831340594,-0.11669682189142598,-0.4877154231071472,1.2660871744155884,0.9642603397369384,0.6689765453338623,0.1381570100784301,-0.2233514785766601
1749043948.4709597,5.917674220093012,-1.9056527777318841,-2.1990857204289487,5.250434745230031,3.1949556927821403,4.13670323088946,-0.2380748623838161,0.011901142823455847,0.07387901917803465,0.0351487798836007,-0.033545187847839615,-0.11795031418594945,-0.5154824256896973,1.2563719749450684,0.9689912796020508,0.6806192398071289,0.155937910079956,-0.216424286365509
1749043948.4709964,5.91719331281473,-1.9056302558024105,-2.198937490657708,5.2505070527750055,3.1948893050795477,4.136465928380344,-0.23984570499537142,0.01208791535177098,0.07408516875431792,0.03542073849396835,-0.03356993487487072,-0.11910854402328969,-0.4775921702384949,1.2609940767288208,0.9984225034713744,0.6604738831520081,0.1591715514659881,-0.2470135390758514
1749043948.4710336,5.916709260032407,-1.9056074409665016,-2.198788792844257,5.2505799836400975,3.194823294024191,4.136225880424854,-0.24165927975600163,0.01227234188594969,0.07429979806967017,0.03568972963634402,-0.033583814159404805,-0.12018577864221143,-0.5268834233283997,1.2499281167984009,0.9921346306800842,0.6516846418380737,0.1451787203550338,-0.1915678083896637
1749043948.4711957,5.916221925366143,-1.9055842842314072,-2.1986396062916533,5.25065341302643,3.194757688223415,4.135983242738625,-0.24350934768694943,0.012449248439445908,0.07453439520219009,0.03594801409484902,-0.033599400516308275,-0.12119823488506863,-0.5013540983200073,1.2718653678894043,0.9818939566612244,0.667572557926178,0.1360078155994415,-0.2353046089410781
1749043948.4725587,5.915731190848967,-1.9055607463939457,-2.1984899047879756,5.250727206788624,3.194692457385282,4.135738172214192,-0.24538845632950892,0.012614278861959852,0.07479887604185563,0.03618778915098073,-0.033629946906960716,-0.12215988163354154,-0.5199543833732605,1.2685916423797607,1.0002233982086182,0.6474877595901489,0.1252766698598861,-0.267477810382843
1749043948.5142798,5.915236969597745,-1.905536800765863,-2.198339657002,5.250801232244955,3.1946275148193584,4.135490830711182,-0.24728855946205738,0.012764134960904281,0.07510119288244337,0.03640217844686399,-0.03368800753450855,-0.1230790673263277,-0.5000187754631042,1.2498939037322998,1.0121535062789917,0.6412621140480042,0.119670569896698,-0.2484913170337677
1749043948.514326,5.914739217492568,-1.905512434580307,-2.198188826714008,5.250875368472511,3.1945627254439644,4.135241392915907,-0.2492015958717404,0.012896722332761372,0.0754471302425385,0.036586069820602876,-0.033784230836301415,-0.12395660692328539,-0.5265641212463379,1.2388479709625244,0.983371913433075,0.6305282711982727,0.1177248656749725,-0.236437901854515
1749043948.5143683,5.914237941245098,-1.9054876493934778,-2.198037372917919,5.250949515147142,3.1944979171799504,4.134990054553653,-0.25111999134640195,0.013011189470527589,0.07584025039515231,0.03673667749338402,-0.0339264728001549,-0.12478568086667402,-0.5291181206703186,1.243764877319336,1.0175069570541382,0.6409197449684143,0.1308258771896362,-0.2503215074539184
1749043948.5144212,5.913733200687242,-1.905462460632597,-2.1978852492060463,5.251023599104377,3.1944328933884933,4.1347370373050385,-0.2530370693932473,0.013107860030568286,0.07628195861537947,0.03685378049804432,-0.034119285681950086,-0.12555353415373244,-0.4761392176151275,1.2677791118621826,1.0012649297714231,0.6471465826034546,0.1200987547636032,-0.2273915410041809
1749043948.5144632,5.913225104118541,-1.9054368963576074,-2.197732401635912,5.251097578019304,3.1943674445422823,4.134482587638326,-0.25494737026880016,0.013188075284552396,0.07677167306690141,0.03693966767021071,-0.03436376691028541,-0.12624461407891208,-0.4708966910839081,1.2548770904541016,1.0021135807037354,0.6431395411491394,0.1347584575414657,-0.2091174274682998
1749043948.514503,5.912713796510055,-1.9054109953248703,-2.197578764839742,5.251171440994148,3.194301358419547,4.13422696812854,-0.25684690136098587,0.01325397811560032,0.07730709004842291,0.0369988843753141,-0.03465771285224875,-0.12684451926630377,-0.5780804753303528,1.2689601182937622,1.0172560214996338,0.6672647595405579,0.1152534186840057,-0.2326412051916122
1749043948.5145411,5.9121994411692045,-1.905384804364212,-2.197424257195387,5.251245206311909,3.1942344292183806,4.133970441315725,-0.2587333646787931,0.01330827292691425,0.07788452627351383,0.037037903649541785,-0.03499600075641475,-0.12734398655885626,-0.4764968752861023,1.2436429262161257,1.011013746261597,0.6668395400047302,0.1334700584411621,-0.1819134652614593
1749043948.5145793,5.91168219636296,-1.905358374967627,-2.1972687767725243,5.251318917035808,3.1941664665382787,4.133713247602452,-0.26060639203003966,0.013353986458911735,0.07849930825484129,0.03706481733232299,-0.035371113131616436,-0.12774214218061075,-0.5003787875175476,1.2754487991333008,1.0422297716140747,0.6528012156486511,0.1237938106060028,-0.1916600167751312
1749043948.5146174,5.911162189370947,-1.9053317591481862,-2.197112200041443,5.251392635361734,3.194097305001765,4.133455580126874,-0.2624677536330057,0.013394240345928865,0.07914617781833783,0.037089072165744,-0.03577372405412415,-0.12804839538169652,-0.4672101438045501,1.2430291175842283,0.9890776872634888,0.657656192779541,0.12561796605587,-0.2018995136022567
1749043948.5146558,5.910639491186252,-1.9053050051270994,-2.196954384917221,5.2514664365325645,3.194026814607846,4.1331975608273,-0.26432143982497797,0.013432037877884887,0.07981968854668015,0.03712120126814872,-0.03619328799381963,-0.12828262247223937,-0.4884369671344757,1.2736809253692627,1.03256094455719,0.6569573283195496,0.1362798362970352,-0.1929208040237426
1749043948.514694,5.9101140953197815,-1.905278153880289,-2.196795178740731,5.251540402777869,3.1939549110705787,4.132939222538806,-0.2661735082713799,0.013470070884828218,0.08051457082207016,0.037172464628493725,-0.036618603481110616,-0.12847361432861115,-0.5628371238708496,1.2806248664855957,1.043102502822876,0.669556200504303,0.1250304579734802,-0.1914080530405044
1749043948.514732,5.909585903806162,-1.9052512375076964,-2.196634430522211,5.251614617480943,3.1938815646904635,4.132680501337639,-0.26803164160703874,0.013510563612219141,0.08122604163071918,0.037254329559214504,-0.03703835493813831,-0.1286560786659021,-0.5053213834762573,1.2435543537139893,1.01845383644104,0.670640766620636,0.1330282092094421,-0.2081626802682876
1749043948.514769,5.9090547226742975,-1.9052242795973653,-2.196472005572405,5.251689159850325,3.193806805903271,4.132421241339524,-0.26990442208672,0.01355517674335612,0.0819500282191206,0.037377777849156225,-0.03744165456485693,-0.1288667471272119,-0.4887561500072479,1.2716072797775269,1.013647437095642,0.6587076783180237,0.1130560636520385,-0.204074427485466
1749043948.5148065,5.9085202680644775,-1.90519729667757,-2.196307799868796,5.251764100686654,3.193730725717434,4.132161211439686,-0.2718003662008758,0.013604988116639375,0.08268326290429488,0.037552490219717204,-0.0378186065812728,-0.12914029016179956,-0.4805805683135986,1.2527650594711304,1.0314451456069946,0.6706948280334473,0.1227068454027175,-0.223761111497879
1749043948.5148437,5.9079821829817964,-1.9051702991980868,-2.1961417513194132,5.251839500065676,3.193653469968717,4.131900131138427,-0.27372678512234666,0.013660550198505076,0.08342320833883161,0.03778600716796574,-0.03816089893745208,-0.12950575657717944,-0.5059859752655029,1.258624792098999,1.021942973136902,0.6749156713485718,0.1192158609628677,-0.2399182319641113
1749043948.5148816,5.907440063458044,-1.905143290688489,-2.1959738455088327,5.25191540763634,3.1935752275832003,4.131637701247403,-0.27568856945981784,0.013722006432237222,0.08416780777018,0.03808298906930611,-0.038462395517285086,-0.12998412481105645,-0.5269606113433838,1.266746997833252,1.033629059791565,0.675557017326355,0.1248486936092376,-0.2550894021987915
1749043948.5149193,5.906893491861125,-1.9051162647785773,-2.1958041144759908,5.25199186570001,3.193496214340888,4.131373634830503,-0.2776870363779051,0.01378923552254037,0.08491511212978484,0.03844469551159281,-0.038719662178733676,-0.1305873064541953,-0.5153936147689819,1.2607176303863523,1.0310885906219482,0.6992067098617554,0.1394247859716415,-0.2734236419200897
1749043948.514958,5.906342074323737,-1.9050892011282392,-2.1956326284362206,5.252068914484421,3.1934166544735545,4.131107683978279,-0.279718999409781,0.01386198857489826,0.08566288254007177,0.03886877451838805,-0.03893233090344342,-0.13131862696733848,-0.5205928087234497,1.2848758697509766,1.0458424091339111,0.6702284216880798,0.1357133537530899,-0.234338566660881
1749043948.5149956,5.905785478555125,-1.9050620621701246,-2.195459481822411,5.252146598387525,3.193336762668895,4.130839658981961,-0.28177621022914573,0.013939990313461274,0.08640828067908635,0.0393494013247738,-0.039103209820934126,-0.13217448251254818,-0.5218704342842102,1.2845004796981812,1.021255373954773,0.6858329176902771,0.1378945708274841,-0.2486001849174499
1749043948.515033,5.905223467706943,-1.9050347924238769,-2.195284776160959,5.252224971696293,3.1932567287750047,4.130569438147502,-0.28384528641349066,0.014022988512201962,0.08714773764162484,0.03987774549711281,-0.039238089342935406,-0.1331466094215505,-0.5612744092941284,1.283003330230713,1.0432411432266235,0.6905331611633301,0.1379001140594482,-0.2380915284156799
1749043948.5151927,5.904655926090284,-1.905007321292403,-2.195108602810555,5.252304102451251,3.19317670681468,4.130296968417885,-0.2859081944391346,0.014110748044578953,0.08787704303827741,0.04044269050671837,-0.03934525892168646,-0.13422428600649208,-0.6024187803268433,1.2815901041030884,1.0430806875228882,0.6795932054519653,0.1396949291229248,-0.2313764095306396
1749043948.5165071,5.904082873813678,-1.9049795693153682,-2.1949310284688157,5.252384073620118,3.193096808994122,4.130022258489224,-0.28794329312862993,0.01420299323402166,0.088591632299643,0.04103169490510681,-0.03943480703180158,-0.13539585876424917,-0.7062686681747437,1.2987210750579834,1.02636981010437,0.6972874402999878,0.1262499839067459,-0.2504785656929016
1749043948.5622976,5.903504469393258,-1.9049514571532602,-2.194752085752088,5.252464981308407,3.1930171044878533,4.129745366945586,-0.28992684116189066,0.014299305721493091,0.08928698453627984,0.0416316748465617,-0.03951780749348888,-0.13664921606536443,-0.5058744549751282,1.2801556587219238,1.0196815729141235,0.6731418967247009,0.1320563107728958,-0.239085778594017
1749043948.5623436,5.902921001130667,-1.904922916159407,-2.1945717702109033,5.252546930112689,3.1929376221586603,4.1294663883031895,-0.2918347579977027,0.014398989350991832,0.08995899322412806,0.04222980106292139,-0.03960549093710279,-0.13797114655733642,-0.5236185789108276,1.280480146408081,1.0013304948806765,0.7037700414657593,0.1205462515354156,-0.2476906478404998
1749043948.5623848,5.902332869005593,-1.9048938992788427,-2.194390044053782,5.252630025871494,3.1928583560959756,4.1291854398830505,-0.2936443753012993,0.014500922650828339,0.09060416178321964,0.04281413183446202,-0.03970846932070672,-0.13934584323191754,-0.5141620635986328,1.2668147087097168,0.9978726506233216,0.6897136569023132,0.1064346060156822,-0.2591731548309326
1749043948.5624244,5.901740559154528,-1.9048643911041754,-2.194206845934524,5.252714366199176,3.19277927270719,4.128902651960461,-0.2953359768473887,0.014603432997965803,0.09121952614887387,0.04337404078008799,-0.03983604633270074,-0.1407530855719737,-0.5459775328636169,1.2750821113586426,1.0042513608932495,0.6896765828132629,0.1313203573226928,-0.2553283274173736
1749043948.5624628,5.901144613140636,-1.9048344159468544,-2.1940221055626057,5.252800029522582,3.192700317862371,4.128618162523225,-0.29689405625634946,0.01470423728109738,0.09180231108795014,0.04390043998798634,-0.03999563033692079,-0.1421667952380002,-0.5048784613609314,1.2763302326202393,0.9977176189422609,0.6725019812583923,0.1235954314470291,-0.2976076006889343
1749043948.562501,5.900545594338671,-1.904804042511951,-2.1938357614336725,5.252887063831263,3.192621422465655,4.128332116356409,-0.2983083201778919,0.014800491589325627,0.09234944365162151,0.04438583658841722,-0.04019227316761529,-0.14355466713366816,-0.502513587474823,1.2654134035110474,1.0295026302337646,0.6890544891357422,0.1265662312507629,-0.2870604991912842
1749043948.5625389,5.899944053723629,-1.9047733833821325,-2.1936477794821623,5.252975476676673,3.192542505177531,4.128044666564969,-0.2995744682616843,0.014888972354874182,0.09285711676727046,0.04482428201082392,-0.04042837050911577,-0.14487939565342398,-0.4836064577102661,1.27984619140625,0.998327136039734,0.6963602304458618,0.1125539988279342,-0.279789924621582
1749043948.5625763,5.89934049702019,-1.9047425876733906,-2.193458170139103,5.253065227866125,3.1924634718850373,4.127755975700128,-0.30069471480044974,0.014966378166025163,0.09332058256716547,0.045211271364783395,-0.04070355743364233,-0.14610165769429698,-0.5416379570960999,1.3065354824066162,1.018113136291504,0.6796208620071411,0.1151478812098503,-0.303034096956253
1749043948.5626135,5.89873535472748,-1.9047118264486822,-2.1932670014721007,5.25315622591566,3.1923842126428412,4.127466213694427,-0.30167793895672623,0.015029705710644289,0.09373426814923284,0.04554363104466142,-0.04101480673560395,-0.14718456104278277,-0.450530081987381,1.2924654483795166,0.9880353212356568,0.6785152554512024,0.126769334077835,-0.2687444686889648
1749043948.5626512,5.898128956461843,-1.904681272487162,-2.1930744067900005,5.253248328923735,3.1923045978840454,4.127175550695463,-0.3025393055651481,0.015076625934105164,0.09409219332257317,0.04581940666407012,-0.04135669582073587,-0.14809884078520605,-0.4911537766456604,1.2563960552215576,0.999081552028656,0.68541419506073,0.1287425011396408,-0.2331407815217971
1749043948.562688,5.8975215116306945,-1.9046510778531307,-2.1928805859579805,5.253341350063054,3.1922244763686245,4.126884144368276,-0.30329922361517797,0.015105776708523092,0.09438858427409777,0.04603773787182114,-0.04172177302380232,-0.14882779532342102,-0.459229439496994,1.2446277141571045,0.9547628164291382,0.6680169105529785,0.120334692299366,-0.2033555656671524
1749043948.5627253,5.8969130992361,-1.9046213535909984,-2.192685800386601,5.253435067113896,3.192143677203904,4.126592123038836,-0.3039816294232445,0.015116903943308458,0.09461854436887766,0.04619868922666764,-0.04210094607116446,-0.14937087649434744,-0.4920507073402405,1.2834124565124512,0.9640364050865172,0.6555432081222534,0.1335721462965011,-0.2148627191781997
1749043948.5627625,5.8963036696563655,-1.9045921555729397,-2.1924903622245324,5.2535292345413644,3.192062017279719,4.126299567712451,-0.3046117630515512,0.01511082612030167,0.09477865766900162,0.0463030152164154,-0.042483832220749175,-0.14974503285610696,-0.5570878386497498,1.2834773063659668,0.9759178757667542,0.6466449499130249,0.1169813424348831,-0.2037883102893829
1749043948.5627992,5.895693059889955,-1.9045634791457722,-2.192294618803913,5.253623596187805,3.191979314057719,4.126006497035706,-0.3052137549248267,0.015089252882261692,0.09486744944727733,0.04635188769690509,-0.042859038721937436,-0.1499833349493635,-0.5130468606948853,1.2719552516937256,0.9751547574996948,0.6679097414016724,0.1242357864975929,-0.1998671591281891
1749043948.5628362,5.895081021251695,-1.904535263080161,-2.1920989337907915,5.2537178970829315,3.1918954023740262,4.12571285941185,-0.3058083785330027,0.01505452551057224,0.09488569432998072,0.04634668592063034,-0.04321438087359181,-0.1501309846935765,-0.4646122455596924,1.2589471340179443,0.9734273552894592,0.6792212128639221,0.1471645087003708,-0.2390569448471069
1749043948.5628736,5.894467256020342,-1.904507401172973,-2.1919036666104583,5.253811893826474,3.191810153055248,4.125418535548133,-0.30641126368381694,0.015009345007955316,0.09483661460924694,0.04628898662405665,-0.04353709373121337,-0.1502393738844521,-0.561241090297699,1.27427077293396,0.9835183024406432,0.674132764339447,0.1112242341041565,-0.2644276916980743
1749043948.5629108,5.893851458160037,-1.9044797585792517,-2.191709151580729,5.253905363843288,3.191723490862048,4.125123352625791,-0.3070317624716529,0.014956524188348514,0.09472601929200573,0.046180847905259524,-0.04381413697250484,-0.1503592617477435,-0.5493414402008057,1.2790112495422363,0.9741983413696288,0.6485441327095032,0.104810744524002,-0.2607330679893493
1749043948.5629487,5.893233353266111,-1.9044521898089501,-2.1915156780525744,5.253998114178251,3.1916354095526764,4.124827108475391,-0.30767255129187243,0.014898773164857585,0.0945624005448155,0.04602536701924114,-0.04403270326204971,-0.15053429527755807,-0.532395601272583,1.2749073505401611,0.9852228164672852,0.6544130444526672,0.1173179298639297,-0.2785237729549408
1749043948.562986,5.892612733842954,-1.9044245558582644,-2.191323472890146,5.254089990316887,3.191545982441898,4.124529601619642,-0.3083299399856953,0.01483851797547341,0.09435695560353383,0.04582737105447311,-0.04418100095307896,-0.15079597904258626,-0.5139604806900024,1.2680368423461914,0.993172287940979,0.6344559192657471,0.1316907405853271,-0.3246819972991943
1749043948.563023,5.8919894872848495,-1.9043967386559537,-2.19113268669394,5.254180884877897,3.1914553674313306,4.124230661693077,-0.30899476316805324,0.014777754623308572,0.0941234652901247,0.045594031693096095,-0.044249296975112935,-0.1511608555687635,-0.5615624189376831,1.2935395240783691,0.964223325252533,0.6311815977096558,0.1532304584980011,-0.2891526222229004
1749043948.5630603,5.891363615077029,-1.9043686516625422,-2.1909433850081124,5.254270745204825,3.1913638059494875,4.123930174749539,-0.30965368527825887,0.01471794595904212,0.09387794963864815,0.045335200023850074,-0.04423110337616692,-0.15163016198376786,-0.5335803031921387,1.2879817485809326,0.9757028222084044,0.6520901322364807,0.145156592130661,-0.3041155934333801
1749043948.5630982,5.890735242531299,-1.904340245941184,-2.190755545196667,5.254359578343821,3.191271615476644,4.123628099073492,-0.3102907612394154,0.01465997220500223,0.09363804275311183,0.04506331799994096,-0.0441243124390029,-0.1521916930847433,-0.5170947313308716,1.3028465509414673,0.995393455028534,0.6280291676521301,0.1390016376972198,-0.2928474545478821
1749043948.563208,5.890104618802087,-1.904311511361283,-2.1905690588590665,5.254447451993634,3.191179175436004,4.123324469143081,-0.3108891177280775,0.014604146230731562,0.09342208204010993,0.0447928564166999,-0.04393206209236118,-0.1528231618052581,-0.5037099123001099,1.3000993728637695,1.0057529211044312,0.6592808365821838,0.142001137137413,-0.2539510428905487
1749043948.5645046,5.889472107200235,-1.9042824730665953,-2.190383738980777,5.254534490703845,3.1910869065028464,4.123019388148986,-0.3114326286377771,0.014550300592372042,0.09324798072335609,0.044539337303009574,-0.043663148043257216,-0.1534961234717419,-0.4868176579475403,1.3162165880203247,1.0169878005981443,0.6560343503952026,0.15687195956707,-0.2235591858625412
1749043948.6103168,5.888838166198336,-1.904253184079446,-2.1901993307928804,5.254620867449433,3.1909952439565816,4.122713012246623,-0.31190746614363385,0.014497944351614498,0.09313202208561304,0.04431809784041731,-0.04333187144851099,-0.1541795699387837,-0.518744170665741,1.288355827331543,0.9967707991600036,0.6602820754051208,0.1484348773956298,-0.2189513444900512
1749043948.6103635,5.888203322183806,-1.9042237156462536,-2.190015525457918,5.254706791316003,3.1909046064755726,4.122405531418297,-0.3123034295352035,0.014446476444418111,0.09308774623498328,0.044143009740298514,-0.04295730021773018,-0.15484257684983052,-0.5383094549179077,1.3105719089508057,1.0410524606704712,0.661531925201416,0.1380041986703872,-0.2514121830463409
1749043948.6104054,5.887568135981609,-1.9041941471713433,-2.1898319758447036,5.254792492339015,3.1908153626822866,4.122097151745262,-0.31261497319156206,0.01439543363121181,0.0931250781570107,0.04402535873889794,-0.042562013652200616,-0.15545581172527356,-0.4491705000400543,1.2944204807281494,1.0314968824386597,0.6550321578979492,0.138778731226921,-0.2521062195301056
1749043948.610445,5.886933166215334,-1.9041645571265566,-2.189648313573601,5.254878204720849,3.190727798683525,4.121788082220651,-0.31284186475119774,0.014344746851811137,0.09324978358502728,0.04397302305984235,-0.04217047509329131,-0.15599214693555308,-0.5266956686973572,1.2978856563568115,1.042054533958435,0.6673719882965088,0.1340033710002899,-0.289979875087738
1749043948.6104836,5.886298933309114,-1.9041350155340526,-2.1894641663350973,5.254964149747521,3.190642090417608,4.121478526839481,-0.31298942357433035,0.014294976978263613,0.09346326687643308,0.04399000493630544,-0.04180721493082856,-0.15642692742787448,-0.524140477180481,1.3098797798156738,1.034878134727478,0.6569142937660217,0.1402141749858856,-0.3062439262866974
1749043948.6105268,5.8856658879998305,-1.9041055781309677,-2.1892791745438065,5.255050519709792,3.1905582843539593,4.121168680590926,-0.31306832221909753,0.014247496007402435,0.09376266456473821,0.044076302357711455,-0.041495004943405536,-0.15673851626189156,-0.4405559599399566,1.297130465507507,1.0146431922912598,0.6754910349845886,0.1242220774292945,-0.2826332449913025
1749043948.6105666,5.885034387448567,-1.9040762823264081,-2.1890930067992795,5.255137464130525,3.190476289017008,4.120858726815814,-0.31309395437402887,0.014204575303567649,0.09414115026672659,0.04422807583457493,-0.04125318411773316,-0.15690955631321984,-0.4572059512138366,1.2692210674285889,1.0387325286865234,0.672998309135437,0.155373603105545,-0.2926607429981231
1749043948.6106052,5.884404680492864,-1.904047145142295,-2.188905374037267,5.255225079729131,3.19039587851135,4.120548833370563,-0.3130853801976578,0.014169346519396685,0.09458836069037171,0.044438064819829926,-0.041096272071660216,-0.15692901136354545,-0.4375516176223755,1.3337229490280151,1.0357308387756348,0.6758539080619812,0.110687144100666,-0.2820544242858886
1749043948.610643,5.883776901794136,-1.9040181631024347,-2.1887160422267606,5.255313405569331,3.1903167081773547,4.120239146041635,-0.31306389327724976,0.014145618618604774,0.09509088492630903,0.044696224312404706,-0.04103297759212458,-0.15679462145852846,-0.5100019574165344,1.3122390508651731,1.0373321771621704,0.6886094808578491,0.1342763900756836,-0.2223423719406128
1749043948.6106842,5.88315107344878,-1.9039893136360473,-2.1885248430191635,5.2554024243327815,3.1902383414890814,4.119929779313273,-0.31305132471819175,0.014137562182489846,0.09563281580220097,0.04499056032252199,-0.04106567151327353,-0.15651507778938473,-0.5049366354942322,1.3523976802825928,1.057629108428955,0.6718004941940308,0.1233821436762809,-0.2182598412036895
1749043948.610723,5.882527112430593,-1.903960557369279,-2.188331681367981,5.255492069659013,3.190160285907004,4.119620806276986,-0.31306826132960563,0.0141492988517228,0.09619640453520958,0.04530812613658596,-0.04119034975238864,-0.15611111133961375,-0.4677445590496063,1.336195468902588,1.048046350479126,0.6888059377670288,0.111225351691246,-0.1958978772163391
1749043948.610761,5.881904842482883,-1.9039318407773627,-2.188136539219211,5.255582238505284,3.190082033913634,4.119312250542044,-0.3131323639097189,0.014184450290336142,0.09676285366233409,0.04563610171839971,-0.04139707147440078,-0.15561485506042072,-0.4869096279144287,1.344088792800903,1.0354756116867063,0.6628284454345703,0.1192677915096283,-0.1871547996997833
1749043948.6107984,5.881284009044753,-1.9039030988706733,-2.1879394749133634,5.255672806930768,3.1900031047236013,4.119004083116716,-0.31325694952306365,0.014245706782677742,0.09731323000299105,0.045962835522539054,-0.04167082189407814,-0.15506724785161782,-0.5318665504455566,1.3234059810638428,1.0222374200820925,0.6786313652992249,0.1225947365164756,-0.2176607251167297
1749043948.6108353,5.880664295434827,-1.903874257778149,-2.18774061862415,5.255763647548059,3.1899230824862514,4.118696226389398,-0.31344998892607984,0.014334474163040277,0.09782941820050615,0.046278705693027215,-0.04199272049639524,-0.1545137705677615,-0.5384529829025269,1.3639261722564695,1.0306544303894043,0.6661706566810608,0.1410368233919143,-0.2547169029712677
1749043948.6108725,5.880045338383319,-1.903845237305656,-2.1875401646162103,5.255854646847635,3.1898416476758515,4.118388565766232,-0.31371365577080446,0.01445064947629673,0.09829500735308722,0.04657667107638604,-0.04234147591957684,-0.15399926213834125,-0.4830662906169891,1.3410651683807373,1.0159096717834473,0.6718811988830566,0.1086587607860565,-0.2641814351081848
1749043948.6109097,5.8794267415912245,-1.9038159537816863,-2.1873383611395023,5.2559457205695095,3.1897585992172104,4.118080967500216,-0.3140445046636025,0.014592557063818987,0.09869601667782814,0.04685243004631389,-0.04269497894462812,-0.15356280759240473,-0.50046706199646,1.3476316928863523,0.9983941912651062,0.6766852140426636,0.1123225688934326,-0.2901641428470611
1749043948.610947,5.878808087291464,-1.9037863236476376,-2.18713549853146,5.2560368253072625,3.189673865655529,4.117773299203665,-0.3144342456823888,0.014757047501011917,0.09902140146812596,0.047104173540832184,-0.04303192319182902,-0.15323365521064555,-0.4988960027694702,1.338698148727417,0.982390284538269,0.6766154170036316,0.1311737447977066,-0.3020760715007782
1749043948.610984,5.878188947204341,-1.903756268166785,-2.1869318959155764,5.256127964658072,3.1895875045184376,4.117465448264696,-0.31487096554113336,0.014939730354470599,0.09926332067107803,0.04733199131474906,-0.0433333465100447,-0.15302884028559222,-0.5236364603042603,1.3605350255966189,1.002989411354065,0.6734135150909424,0.1154394149780273,-0.2791225910186767
1749043948.611023,5.8775688949954805,-1.9037257192905068,-2.1867278869852114,5.2562191886095455,3.189499689993023,4.117157333770988,-0.31534056129054816,0.015135291368135607,0.09941718658100247,0.04753704830425411,-0.043583990940008276,-0.1529527626696772,-0.4739089012145996,1.3344125747680664,0.9956875443458556,0.6752288937568665,0.1106232032179832,-0.3091044723987579
1749043948.611065,5.876947521956365,-1.9036946262912167,-2.186523805683492,5.256310585644938,3.189410690166242,4.116848909706591,-0.3158281215183732,0.015337843627342447,0.09948154727321065,0.04772067549788078,-0.043773383881549666,-0.15299850288645017,-0.4648885726928711,1.3600409030914309,0.9748773574829102,0.6662981510162354,0.1166730374097824,-0.2592853903770447
1749043948.611104,5.876324456458929,-1.9036629624319512,-2.186319972902125,5.256402268244553,3.1893208362836387,4.116540160172802,-0.31631902638286596,0.015541277140458923,0.09945786064249562,0.047883517732162935,-0.04389655129089002,-0.15315029005087294,-0.4926267862319946,1.339424967765808,0.9887237548828124,0.6626561284065247,0.1204028353095054,-0.248969480395317
1749043948.6111422,5.8756993863893285,-1.9036307307475582,-2.186116685403737,5.25649435377169,3.1892304874345094,4.116231089846584,-0.3167996380611866,0.015739590902837584,0.0993502033797093,0.04802486450799333,-0.043954288718079944,-0.15338635259708877,-0.5058797597885132,1.3526092767715454,0.9685257077217102,0.6831475496292114,0.1097327098250389,-0.2266709208488464
