nimar13/UR3e_dataset_trayectorias/trayectorias_ejecutadas_filtradas/quintic_func/trayectoria_134_result_filtrado.csv
timestamp,q1,q2,q3,q4,q5,q6,qd1,qd2,qd3,qd4,qd5,qd6,tau1,tau2,tau3,tau4,tau5,tau6
1749042915.8982878,4.5049828201629,-0.9470056656308324,1.005439986128207,3.317117936753741,-0.8162730947944769,-0.9352261150546697,0.02686603860189215,0.0007128321366097555,-0.0009892519660752769,0.022179690861613127,-0.016855828962127763,-0.0025191315677676666,0.2134659588336944,-1.2847816944122314,-1.3810744285583496,-0.2610054016113281,-0.1743351221084594,-0.1483978033065796
1749042915.8983407,4.505026705633821,-0.9470036342535836,1.0054336842452356,3.317147707448726,-0.8163013256563106,-0.9352291620709029,0.02514584844331805,0.0006354271342868409,-0.0009255892651902683,0.020342477144969718,-0.01504079609859801,-0.0022101424894649707,0.2087156772613525,-1.2859525680541992,-1.3697487115859983,-0.2756187319755554,-0.1955679059028625,-0.1355969011783599
1749042915.898381,4.5050700494966485,-0.947001799619379,1.005427596191096,3.3171767265277325,-0.8163286066360639,-0.9352322420513194,0.023419962678664277,0.0005607492108778581,-0.0008633657938753397,0.018514896720764562,-0.01324211763968054,-0.0019103033622548666,0.1891457736492157,-1.2960116863250732,-1.3614381551742554,-0.2798027396202087,-0.1704621613025665,-0.1430647820234298
1749042915.8984354,4.505112159834656,-0.9470003088724978,1.005421870098712,3.317204270011373,-0.8163540334399432,-0.935235368619332,0.02167455181320109,0.0004890062158725904,-0.0008037256393951249,0.016701273509539507,-0.011477663845796576,-0.0016276025181706326,0.2132097780704498,-1.314192295074463,-1.3795697689056396,-0.2866251766681671,-0.1699393987655639,-0.1364598870277404
1749042915.898496,4.505152383822237,-0.9469992933965883,1.0054166302146033,3.3172296881306327,-0.816376813172118,-0.9352385358052834,0.019897980212371238,0.00041979450452789735,-0.0007476552941398954,0.014906981243194065,-0.009764921377589131,-0.0013687826340534183,0.2105682790279388,-1.3156051635742188,-1.3579270839691162,-0.2620192170143127,-0.1725470721721649,-0.1172362565994262
1749042915.898562,4.505190126652071,-0.9469988610126163,1.005411974052331,3.317252436803579,-0.8163963105134292,-0.9352417111896197,0.018081981177458375,0.0003521193901442738,-0.0006959271835070552,0.013139173927883713,-0.008120885426179253,-0.0011389184228373143,0.1784279495477676,-1.3334283828735352,-1.362704515457153,-0.2779849171638489,-0.1442002356052398,-0.1371675133705139
1749042915.8986237,4.5052248661893595,-0.9469990871469103,1.0054079716558921,3.3172721035305472,-0.8164120819246012,-0.9352448331837313,0.01622268445235481,0.0002844888698977003,-0.000649058500836285,0.011407279118764988,-0.0065617963172145775,-0.0009411698528937483,0.2328382283449173,-1.333117127418518,-1.344580888748169,-0.2815974950790405,-0.1315332353115081,-0.1235033124685287
1749042915.8986926,4.505256163144977,-0.9470000060969519,1.0054046662326392,3.317288425605215,-0.8164238953682538,-0.9352478135847383,0.014321448069543708,0.00021508467520385343,-0.0006072902794798152,0.009723175874755515,-0.005102719031130369,-0.0007767238918721219,0.2328382283449173,-1.333117127418518,-1.344580888748169,-0.2815974950790405,-0.1315332353115081,-0.1235033124685287
1749042915.8987577,4.505283666956799,-0.9470016040833955,1.005402075090906,3.3173012989146238,-0.8164317342513853,-0.9352505455558978,0.012385424636844361,0.0001420046195805033,-0.0005705901842608253,0.008101003219018108,-0.0037570297073441796,-0.0006449136650702079,0.1980320066213607,-1.3319146633148191,-1.3419708013534546,-0.289897471666336,-0.1155071780085563,-0.1228682845830917
1749042915.8988166,4.50530711824858,-0.9470038158793348,1.0054001900441258,3.317310776223588,-0.8164357857633726,-0.9352529160021463,0.010427761651160944,6.355689848799306e-05,-0.0005386793727103093,0.006556582721919931,-0.0025359124489930025,-0.0005434845877429567,0.2104757875204086,-1.3345997333526611,-1.3409082889556885,-0.3102854788303375,-0.0909662321209907,-0.1095552146434784
1749042915.898871,4.505326349301468,-0.9470065265060283,1.0053989772452905,3.317317054632938,-0.8164364154103924,-0.9352548203331436,0.008467316315834764,-2.1425816112087546e-05,-0.0005110798520372163,0.0051064898271714985,-0.0014479616804728124,-0.00046896430111820854,0.1673014163970947,-1.3479764461517334,-1.3401542901992798,-0.330032080411911,-0.0749133303761482,-0.1168306171894073
1749042915.8989224,4.505341283839928,-0.9470095788244425,1.005398377302285,3.3173204529139717,-0.8164341308716371,-0.9352561770746376,0.006527790645563403,-0.00011329373188885229,-0.0004871754497727335,0.0037668710888358837,-0.000498941877624695,-0.0004170878697918684,0.1251871883869171,-1.3826689720153809,-1.3311026096343994,-0.3296736180782318,-0.0771825537085533,-0.1109347641468048
1749042915.8989706,4.505351936632866,-0.947012786826762,1.0053983068311416,3.3173213806857254,-0.8164295389049147,-0.9352569398316797,0.004636278903049432,-0.00021135388083853667,-0.0004662777657178492,0.0025521639685055133,0.00030829705641082097,-0.00038323106098597716,0.1281193792819976,-1.4064035415649414,-1.333146572113037,-0.3443599045276642,-0.0483974143862724,-0.1066602617502212
1749042915.8990088,4.505358412503199,-0.9470159531617515,1.0053986621552973,3.3173203026518627,-0.816423298965001,-0.935257104718997,0.00282134599545795,-0.00031375385968960813,-0.0004476885471638316,0.0014739058141358488,0.0009737956694880061,-0.0003628108338281473,0.1439631581306457,-1.3835675716400146,-1.333487033843994,-0.3471581637859344,-0.0416260212659835,-0.0911981016397476
1749042915.8990462,4.505360903762145,-0.9470188883143575,1.0053993251062596,3.317317701837767,-0.8164160768993748,-0.9352567123083201,0.001110876200876957,-0.0004175100624699084,-0.00043075162465591976,0.0005398013795306216,0.0015004225155874809,-0.00035162138612743736,0.0870721414685249,-1.4170750379562378,-1.3247252702713013,-0.3625315129756927,-0.0306999683380126,-0.1177662760019302
1749042915.899083,4.505359684951103,-0.9470214284212295,1.0054001703250173,3.3173140456856376,-0.8164085018495194,-0.9352558440881068,-0.0004699980508140534,-0.0005186991483209766,-0.0004148903173187555,-0.00024684164270981975,0.0018938331744490393,-0.0003460845871337122,0.1005587875843048,-1.428053617477417,-1.3369708061218262,-0.3691019713878631,-0.0114881917834281,-0.1041543334722518
1749042915.89912,4.505355104048955,-0.9470234491047299,1.0054010731981236,3.317309758122632,-0.8164011292545464,-0.935254614260082,-0.0019005824516707037,-0.0006128075185274014,-0.0003996292863887753,-0.0008872791265562319,0.0021624617233930265,-0.00034340414503137326,0.0998063385486602,-1.4488444328308103,-1.3288286924362185,-0.382361501455307,-0.0227762982249259,-0.0982578098773956
1749042915.8991566,4.505347569824102,-0.9470248736270255,1.0054019175243796,3.317305199563629,-0.8163944124306267,-0.9352531583374268,-0.0031657002514195332,-0.0006952025300701382,-0.0003846024282357402,-0.0013871382802091298,0.0023174862411957054,-0.0003416225318471409,0.0765700936317443,-1.4286303520202637,-1.3227542638778689,-0.3925177752971649,-0.0307679697871208,-0.1062543988227844
1749042915.8991923,4.505337535527422,-0.9470256747408928,1.0054026022506006,3.3173006554355804,-0.816388684439566,-0.9352516202987389,-0.004256086308193897,-0.0007616570489040694,-0.00036955011595014647,-0.0017559419770797125,0.0023726602179231656,-0.00033958793512039315,0.0441820174455642,-1.446987867355347,-1.33180570602417,-0.3964647948741913,-0.02372557669878,-0.0970399975776672
1749042915.899228,4.505325479552406,-0.9470258707084126,1.0054030470151067,3.3172963325420337,-0.8163841508610089,-0.9352501399221702,-0.005168176793549866,-0.0008088390697357676,-0.00035430986084783076,-0.002006426279975268,0.0023439101162382064,-0.00033684501774383126,0.0390811450779438,-1.456500768661499,-1.3215711116790771,-0.4116318821907043,-0.0148840472102165,-0.0782180279493331
1749042915.899651,4.505311884206012,-0.9470255169692204,1.0054031964006267,3.317292361861924,-0.8163808928687826,-0.9352488415100625,-0.005903488895377516,-0.0008346837893261364,-0.0003388044256037542,-0.002153714165944759,0.0022486676144534085,-0.00033346795791248045,0.0344087928533554,-1.4441300630569458,-1.3103071451187134,-0.395972192287445,0.012296799570322,-0.1109347641468048
1749042915.9019573,4.505297214413836,-0.9470246956798876,1.0054030226218047,3.3172888063462276,-0.8163788790473209,-0.9352478247088939,-0.0064678078662142495,-0.0008385963599222387,-0.00032303078467643936,-0.002214402052727789,0.0021049941624852,-0.00032985717465281307,0.0482914634048938,-1.4785053730010986,-1.3116285800933838,-0.4224466681480407,0.0249954182654619,-0.0958713889122009
1749042915.9422925,4.505281898686211,-0.9470235055741896,1.0054025262433397,3.317285672578646,-0.8163779839345167,-0.9352471576855815,-0.0068703410476615295,-0.0008214736682671038,-0.0003070522731364901,-0.0022056212151120697,0.001930618352172692,-0.00032652245206246124,0.0482914634048938,-1.4785053730010986,-1.3116285800933838,-0.4224466681480407,0.0249954182654619,-0.0958713889122009
1749042915.9423394,4.505266314489651,-0.9470220540644883,1.0054017347029356,3.317282925250219,-0.8163780112947496,-0.9352468726565826,-0.007122915174733042,-0.0007855656254399357,-0.00029099492098142295,-0.002144142069735438,0.0017420203810385485,-0.00032387498699643004,0.0377448201179504,-1.4607102870941162,-1.3079431056976318,-0.4088278412818908,0.0231024362146854,-0.1038715243339538
1749042915.9423904,4.505250779179269,-0.9470204522550498,1.0054006987121598,3.317280503068641,-0.8163787202477174,-0.9352469637497578,-0.00723923819213117,-0.0007342140223392613,-0.0002750474743753761,-0.0020455847278210023,0.0015536686149584954,-0.00032204934354096535,0.034506406635046,-1.4874159097671509,-1.3121705055236816,-0.4166713953018188,0.0437989309430122,-0.0841863900423049
1749042915.9424348,4.505235546343872,-0.9470188121304567,1.0053994868238216,3.3172783343071623,-0.8163798522707524,-0.9352473873736253,-0.007234232232905805,-0.000671512836866203,-0.0002594631881724703,-0.0019237843982768763,0.0013774627495907305,-0.00032077361593837084,0.0237277336418628,-1.5008504390716553,-1.3042281866073608,-0.4205780625343323,0.0390845909714698,-0.1053709089756012
1749042915.9424732,4.505220806551788,-0.947017244324057,1.0053981786172093,3.317276350182979,-0.816381156801145,-0.9352480654846843,-0.007123445062869128,-0.0006019333103348535,-0.00024456041369729284,-0.0017903425565071636,0.0012223892900927384,-0.00031930251384173824,0.0454712845385074,-1.47256600856781,-1.3236920833587646,-0.4151515960693359,0.0558626055717468,-0.1199206858873367
1749042915.9425285,4.505206691420566,-0.9470158548275418,1.0053968570908554,3.3172744948321857,-0.8163824130372205,-0.9352488921208647,-0.006922539590610877,-0.0005299534580172105,-0.00023071848138164896,-0.0016543792027042701,0.0010943626610540637,-0.00031642371684875985,0.0290842335671186,-1.5121276378631592,-1.3127543926239014,-0.4263390898704529,0.0391815081238746,-0.102017194032669
1749042915.942567,4.505193280306223,-0.947014739604828,1.0053956009345237,3.3172727315265678,-0.8163834459046536,-0.9352497431816976,-0.006646849027763877,-0.000459725447959134,-0.00021836542495189977,-0.0015224868037286802,0.000996213148166413,-0.00031054270480882905,0.0310560408979654,-1.4770722389221191,-1.3186661005020142,-0.4321708679199219,0.0425041913986206,-0.1104206591844558
1749042915.9426048,4.505180609113945,-0.9470139770606438,1.0053944774400447,3.3172710454172734,-0.8163841351127926,-0.9352504888038268,-0.006310986111349574,-0.00039480519696118437,-0.00020795468626269705,-0.0013988699713591657,0.0009277871731183076,-0.0002998453614038475,0.0260428674519062,-1.5010151863098145,-1.316774845123291,-0.4322932362556457,0.0379291884601116,-0.1141293048858642
1749042915.942642,4.505168680630048,-0.9470136193567642,1.005393536923567,3.3172694432135263,-0.8163844174986447,-0.9352510070430093,-0.00592851009839146,-0.00033795764784719175,-0.00019992904641352274,-0.0012856376057586991,0.0008861388984523157,-0.0002825310767785151,0.0571599043905735,-1.4791003465652466,-1.316636323928833,-0.4292654395103454,0.0314296297729015,-0.0965083390474319
1749042915.9426782,4.505157475674408,-0.9470136842794151,1.0053928094735685,3.3172679500361526,-0.8163842839386648,-0.9352511971176329,-0.005511667875876487,-0.0002910407204439927,-0.00019467159895722645,-0.0011832004317994201,0.0008658081531482822,-0.00025710207806624335,0.061561431735754,-1.48958158493042,-1.3146312236785889,-0.4328574538230896,0.0339938066899776,-0.1274409890174865
1749042915.942715,4.505146964454235,-0.9470141495680983,1.0053923044380977,3.31726660365339,-0.8163837726712322,-0.935250990369938,-0.005071222609588124,-0.00025496274146289685,-0.0001924455217470844,-0.001090720709126412,0.0008591939812355323,-0.00022268767608488228,0.0474851578474044,-1.4710631370544434,-1.3219975233078003,-0.4239677190780639,0.0514146164059639,-0.1166200041770935
1749042915.9427514,4.505137117559015,-0.9470149513701923,1.0053920124507985,3.317265446630704,-0.8163829608543108,-0.9352503575265991,-0.004616372264934084,-0.0002297030193903809,-0.0001933265740607212,-0.001006563943489385,0.0008570434396750175,-0.00017937556911584645,0.0449065119028091,-1.4747381210327148,-1.3119924068450928,-0.4254440665245056,0.0374098569154739,-0.1035893261432647
1749042915.94279,4.505127915848286,-0.9470159878052307,1.005391909298609,3.3172645174884874,-0.8163819556246483,-0.9352493116777509,-0.004154756655547276,-0.00021438303028462605,-0.00019713445666563926,-0.0009287129213880534,0.0008490793501776719,-0.0001285169744781338,0.0319311469793319,-1.458554744720459,-1.3179571628570557,-0.4264706373214721,0.0399805381894111,-0.1187028586864471
1749042915.9428267,4.505119358189643,-0.9470171275656007,1.0053919607991753,3.3172638424012937,-0.8163808851027076,-0.9352479072114114,-0.003692556826420299,-0.00020737585444571274,-0.00020337118805979616,-0.0008551182726664357,0.000824785938180148,-7.296895487527063e-05,0.0319311469793319,-1.458554744720459,-1.3179571628570557,-0.4264706373214721,0.0399805381894111,-0.1187028586864471
1749042915.9428627,4.505111465925663,-0.9470182223984949,1.005392128044718,3.317263428973495,-0.8163798892204503,-0.9352462354290121,-0.0032346897093092557,-0.00020644326782859874,-0.00021117619494797753,-0.0007839730498934828,0.000774356274401534,-1.7236696153951585e-05,0.0327953547239303,-1.4631481170654297,-1.3083114624023438,-0.4245394468307495,0.0230534896254539,-0.115733653306961
1749042915.9428988,4.50510428315631,-0.9470191217043765,1.0053923726087384,3.317263263198339,-0.816379110172994,-0.935244417755112,-0.002785082826008023,-0.000208892429674383,-0.0002193086199170001,-0.00071390954905046,0.0006897814934438749,3.251852829148943e-05,0.05745080858469,-1.4642784595489502,-1.3142285346984863,-0.4288827776908874,0.0548618882894516,-0.1222853064537048
1749042915.9429357,4.50509787230522,-0.9470196875252194,1.0053926614029234,3.3172633100724767,-0.8163786824497692,-0.9352425974187643,-0.0023469858927208293,-0.0002117467558324564,-0.00022616721287243416,-0.0006441245872322555,0.0005660326074828252,6.863272553961443e-05,0.0663081854581832,-1.4627673625946045,-1.321835160255432,-0.4308230280876159,0.044544517993927,-0.1153815686702728
1749042915.9429717,4.505092305083061,-0.9470198085433177,1.0053929708770857,3.3172635176415652,-0.8163787225056625,-0.9352409302605658,-0.0019232580176540939,-0.00021192785508795364,-0.00022985697539733955,-0.0005744445403075106,0.00040225574120252597,8.226898802227353e-05,0.0501925647258758,-1.4468696117401123,-1.3167811632156372,-0.4205915331840515,0.0314683988690376,-0.1116209924221038
1749042915.9430072,4.505087650046642,-0.9470194118506589,1.0053932902668432,3.317263823614521,-0.8163793181684342,-0.9352395751056147,-0.0015165740842970484,-0.00020644697258732746,-0.0002283093864030126,-0.0005053428788035307,0.0002028745802841737,6.3922343831374e-05,0.0469692088663578,-1.4120252132415771,-1.3133788108825684,-0.4239231944084167,0.0312877707183361,-0.1241382956504821
1749042915.9430428,4.50508395921766,-0.9470184710378702,1.005393623518688,3.3172641633212554,-0.8163805178862056,-0.9352386841687609,-0.0011295188751776395,-0.00019260497462266312,-0.00021945943082273678,-0.00043792045495513764,-2.1527013569987987e-05,4.077935715766672e-06,0.0469692088663578,-1.4120252132415771,-1.3133788108825684,-0.4239231944084167,0.0312877707183361,-0.1241382956504821
1749042915.9431503,4.5050812569247185,-0.9470170090799094,1.0053939893607244,3.317264477793168,-0.8163823199042611,-0.9352383941706048,-0.000764567501828759,-0.00016819947747323985,-0.00020147755767876697,-0.0003738534150641924,-0.0002536806380959759,-0.00010602182421950004,0.0831361562013626,-1.3770322799682615,-1.3059096336364746,-0.4249584078788757,0.0197316780686378,-0.1276171803474426
1749042915.944492,4.505079533574898,-0.9470150952092677,1.005394419029415,3.3172647209273123,-0.816384661527356,-0.9352388189791815,-0.000423971549877551,-0.00013173648620464322,-0.00017304794435411358,-0.0003153072022264382,-0.0004696039556570296,-0.0002735680808155117,0.111386515200138,-1.335730791091919,-1.3096370697021484,-0.4283222556114197,0.0086916089057922,-0.1504255831241607
1749042915.9862814,4.505078745601017,-0.9470128364043728,1.0053949515496055,3.3172648648297507,-0.8163874089871809,-0.9352400444756299,-0.00010957951582258175,-8.26422450365598e-05,-0.00013367636308968278,-0.000264809609896265,-0.0006391845568510263,-0.0005034206717657938,0.1132143512368202,-1.3049010038375854,-1.3142101764678955,-0.4273958802223205,0.0388932339847087,-0.1576690971851349
1749042915.9863284,4.505078821140892,-0.947010365407813,1.0053956269163342,3.3172649025155008,-0.8163903491857752,-0.9352421260356287,0.00017737429386623945,-2.146923351005824e-05,-8.400257165965912e-05,-0.0002250728295238154,-0.0007274573121003572,-0.0007974859579303284,0.1201694905757904,-1.3330419063568115,-1.2967925071716309,-0.4161466956138611,0.0190049707889556,-0.1731854379177093
1749042915.9863682,4.5050796697609465,-0.9470078275815904,1.0053964777996742,3.3172648473514315,-0.8163931854191825,-0.9352450887888207,0.00043646917004868806,4.991167743977229e-05,-2.608490463623236e-05,-0.00019875492481425736,-0.0006965968802120933,-0.001154335459399953,0.1184232905507087,-1.309955596923828,-1.2932894229888916,-0.4219706654548645,0.0310576260089874,-0.1601616591215133
1749042915.9864075,4.505081193869049,-0.947005368470005,1.005397520609323,3.317264729140269,-0.8163955394936792,-0.9352489308057235,0.0006682327313175612,0.00012814371787565003,3.638006954173928e-05,-0.0001881555940534529,-0.0005085701504141463,-0.0015691451481304282,0.1064283922314643,-1.3286876678466797,-1.3071815967559814,-0.4318692088127136,0.0386662855744361,-0.1574895977973938
1749042915.9864538,4.505083299285219,-0.9470031231918492,1.005398747079957,3.317264587516772,-0.8163969620229172,-0.9352536293015601,0.0008741580557088531,0.00020825694876570598,9.794135164180674e-05,-0.00019484927236910606,-0.00012830371228802294,-0.0020339946058272507,0.1081655547022819,-1.333662986755371,-1.3158468008041382,-0.437202513217926,0.0591730661690235,-0.1621539294719696
1749042915.9865026,4.505085902883484,-0.9470012081627137,1.0054001178540806,3.3172644640646096,-0.8163969513059982,-0.9352591495104866,0.001056569837517263,0.0002836033812526735,0.00015141655520137484,-0.00021926963710887994,0.00047287215644011693,-0.0025385038960930337,0.1310204863548278,-1.32719624042511,-1.317038655281067,-0.4289361834526062,0.0517881214618682,-0.1718984842300415
1749042915.9865415,4.505088936393095,-0.9469997154364544,1.0054015595313779,3.317264394970002,-0.8163949796301683,-0.9352654551905735,0.0012183454118076893,0.00034588251218891454,0.0001880825399006049,-0.000260271800019866,0.0013138268153972765,-0.0030707172711630535,0.1314089298248291,-1.3393361568450928,-1.3094370365142822,-0.4235094785690307,0.0642581805586814,-0.1781354248523712
1749042915.986579,4.5050923469538615,-0.9469987101529124,1.0054029661361459,3.3172644060199135,-0.816390524695761,-0.935272519184047,0.0013625421523709661,0.00038528691612166733,0.00019804949862070373,-0.00031471004685328026,0.0024006652011123973,-0.0036180912380712285,0.1398818790912628,-1.379650354385376,-1.3163745403289795,-0.4102660417556762,0.0778379514813423,-0.1594581305980682
1749042915.986617,4.5050960960372715,-0.9469982317365789,1.0054042050833394,3.3172645113426458,-0.8163831033751755,-0.9352803322878002,0.001492014371680609,0.00039079242115824103,0.0001708168631641364,-0.0003770781696415019,0.0037246006526792737,-0.004168433349087554,0.173124074935913,-1.4150021076202393,-1.3271600008010864,-0.4161943197250366,0.1023627668619155,-0.1654347777366638
1749042915.9866543,4.505100158252111,-0.9469982990664177,1.005405126831022,3.317264716491825,-0.8163723051158573,-0.9352889088542358,0.0016091063578320404,0.0003506051580279655,9.598767024635728e-05,-0.0004392646683633,0.005261025828423562,-0.004710672293919903,0.1384991407394409,-1.4153077602386477,-1.3403972387313845,-0.4003536701202392,0.1217986494302749,-0.163300335407257
1749042915.986692,4.505104520495997,-0.946998918807953,1.0054055767062702,3.317265025459336,-0.8163578226830617,-0.9352982880267796,0.0017154834619751893,0.00025275976722033573,-3.590614979468716e-05,-0.0004904750365627149,0.006970026806967948,-0.005235401404406486,0.1519108265638351,-1.4678313732147217,-1.3632999658584597,-0.4028366208076477,0.119121566414833,-0.1878108084201812
1749042915.9867294,4.5051091807785575,-0.9470000950309008,1.0054054069941183,3.3172654503498795,-0.8163394781854778,-0.935308530282943,0.0018121202000528369,8.584193058650409e-05,-0.000232538928746735,-0.000517366992757739,0.00879841148953256,-0.005735198890633065,0.1685201227664947,-1.521230697631836,-1.3659076690673828,-0.3936870694160461,0.1300145089626312,-0.1724933385848999
1749042915.9867687,4.505114145677863,-0.9470018378252482,1.005404487444831,3.317266022062808,-0.8163172421597202,-0.9353197098023438,0.0018994180921640602,-0.0001602124237633627,-0.0004989779720578087,-0.0005044313908517264,0.010683138463166866,-0.006204768194536997,0.1529441177845001,-1.51777184009552,-1.374101161956787,-0.3961041569709778,0.1631466448307037,-0.1959845423698425
1749042915.9868104,4.505119425835117,-0.947004169202583,1.0054027129467198,3.3172668003773533,-0.8162912431128392,-0.9353319038307467,0.001977393689632295,-0.000493305807986638,-0.0008370242085104911,-0.00043463183226737654,0.01255588622020724,-0.006640952948117468,0.1269249469041824,-1.5506222248077393,-1.391398787498474,-0.3690893650054931,0.1642781496047973,-0.1746667921543121
1749042915.9868476,4.505125029579338,-0.9470071257946416,1.00540000793832,3.317267882102085,-0.8162617648788001,-0.9353451805832206,0.0020458712588983454,-0.0009184292189942387,-0.0012448072310819874,-0.0002902908469217363,0.01434840823572637,-0.007042667213662445,0.1269249469041824,-1.5506222248077393,-1.391398787498474,-0.3690893650054931,0.1642781496047973,-0.1746667921543121
1749042915.9868855,4.50513095531346,-0.94701075896019,1.00539632770966,3.3172694062655284,-0.8162292298059451,-0.9353595874271603,0.002104633287972473,-0.001437043291923647,-0.0017167151491666646,-5.4182429672316665e-05,0.015998251661403697,-0.007410756002524775,0.1600784063339233,-1.5417780876159668,-1.3755981922149658,-0.3573336005210876,0.1736565828323364,-0.1750390827655792
1749042915.9869225,4.505137183655327,-0.9470151333459423,1.0053916568743857,3.3172715556324013,-0.8161941671809697,-0.9353751411504416,0.002153511208403036,-0.0020466443102427627,-0.002243697877689677,0.00028923606812331044,0.017454347062919578,-0.007747778970719589,0.1456340849399566,-1.591238021850586,-1.3777635097503662,-0.3450396060943603,0.1635367423295974,-0.157034084200859
1749042915.9869597,4.505143670549736,-0.9470203247582112,1.0053860052501533,3.317274554091365,-0.8161571682994614,-0.9353918218599064,0.002192422684031069,-0.002740553112032543,-0.0028139225016046575,0.000752539651562931,0.018681905014698234,-0.008057700843463345,0.160264641046524,-1.6241748332977295,-1.3860762119293213,-0.3067978620529175,0.1629908680915832,-0.1594589054584503
1749042915.9869962,4.50515034266845,-0.9470264176955193,1.0053794015272144,3.317278659644298,-0.8161188319188699,-0.9354095713450586,0.0022213713990397706,-0.0035079643513312004,-0.0034136990774248387,0.001344093870428506,0.019666028198837827,-0.008345475992156619,0.1462903022766113,-1.6512740850448608,-1.3926712274551392,-0.3215144276618957,0.1408719718456268,-0.1629357486963272
1749042915.987033,4.505157096328156,-0.9470335023554598,1.0053718854505955,3.317284152881954,-0.8160797058066224,-0.935428295827898,0.0022404204363590937,-0.004334299069313337,-0.0040285600848680185,0.0020669452429230156,0.020413529324985673,-0.008616528268141618,0.1467751562595367,-1.693069338798523,-1.4044418334960938,-0.3129354119300842,0.1445157527923584,-0.1603469401597976
1749042915.9871423,4.505163800645117,-0.9470416706456781,1.0053634994643164,3.3172913211273953,-0.8160402310591977,-0.9354478722717798,0.0022496399508945965,-0.005201882546477564,-0.004644376706788921,0.002917923809892635,0.020952657386976974,-0.00887614744463465,0.1505136042833328,-1.6145758628845217,-1.3941187858581543,-0.3070622086524963,0.1504494845867157,-0.1771131306886673
1749042915.988461,4.505170304660187,-0.9470510109124565,1.0053542806426996,3.3173004390195056,-0.8160006957027641,-0.9354681569601038,0.0022490271177692265,-0.006090908974654189,-0.005248414163907482,0.0038870379089918274,0.02133072690034543,-0.009128847205691877,0.1860840916633606,-1.6289119720458984,-1.4012218713760376,-0.2898138165473938,0.1722811162471771,-0.1692056804895401
1749042916.034531,4.505176447193997,-0.9470616017246208,1.0053442534375863,3.3173117471106255,-0.8159612030496302,-0.9354889948227774,0.0022384084049049445,-0.006980589467051417,-0.005830244198392856,0.004957256852611507,0.021609935527733107,-0.009377751887878387,0.1747488677501678,-1.6660447120666504,-1.394604206085205,-0.2857832014560699,0.1758386194705963,-0.17731474339962
1749042916.034607,4.505182067822807,-0.947073505799302,1.0053334236283002,3.317325430751991,-0.8159216585773046,-0.9355102279953087,0.0022173549314218966,-0.007850357655637042,-0.006382440012812797,0.006104790711819912,0.021861883302118634,-0.009624093931799492,0.1541456282138824,-1.7062339782714844,-1.4018139839172363,-0.2662388980388641,0.1810830980539322,-0.189421460032463
1749042916.034676,4.50518701771001,-0.9470867655184899,1.00532177395693,3.317341601832878,-0.8158817769118556,-0.9355317024411075,0.0021851562589573293,-0.008681031919115576,-0.006900987020938876,0.007299958641760511,0.0221614371204132,-0.009866905206521184,0.1614784747362136,-1.724223017692566,-1.4061956405639648,-0.2430477440357208,0.2116468846797943,-0.1691747903823852
1749042916.0347402,4.505191169707053,-0.9471014010758324,1.0053092620937518,3.3173602857211706,-0.8158411080894292,-0.9355532722031046,0.0021408942051161462,-0.009455866753311781,-0.007385361484660717,0.008508675312324911,0.022580606187226165,-0.010102969124570857,0.1614784747362136,-1.724223017692566,-1.4061956405639648,-0.2430477440357208,0.2116468846797943,-0.1691747903823852
1749042916.034805,4.505194427616611,-0.9471174112680742,1.005295821607339,3.3173814151432333,-0.8157990798011231,-0.9355748018035162,0.0020836333456182676,-0.010161438297664077,-0.007838261516481744,0.009694496616137109,0.023183025846762736,-0.010327066799643092,0.1377363055944442,-1.718941330909729,-1.4166018962860107,-0.2272141873836517,0.2357551157474517,-0.1798800528049469
1749042916.034875,4.505196734485009,-0.9471347759616422,1.005281366370162,3.3174048319482212,-0.8157550500345476,-0.9355961680235559,0.0020127055700350335,-0.010788308431550613,-0.00826501609481024,0.010821082378786878,0.024019526240056183,-0.010532505525905891,0.1477674692869186,-1.761020302772522,-1.389665603637695,-0.2475563287734985,0.2362358421087265,-0.1791903972625732
1749042916.0349398,4.505198079406116,-0.9471534588946031,1.0052657982827118,3.3174302968494804,-0.8157083629700863,-0.9356172623444778,0.001928026078081193,-0.011331420629625916,-0.00867273602545573,0.01185487359997157,0.025125116772212814,-0.010711873729081665,0.1517858058214187,-1.7660093307495115,-1.417606234550476,-0.2340842187404632,0.2447691112756729,-0.1658821105957031
1749042916.0350068,4.505198501943,-0.9471734097601063,1.0052490175258464,3.3174575063310985,-0.8156584007387524,-0.9356379947508168,0.001830354304412506,-0.011790204963345728,-0.009069295691244733,0.012767744549427234,0.026517555239715065,-0.01085793675160639,0.1465311050415039,-1.767123460769653,-1.4098994731903076,-0.2465168684720993,0.2584278583526611,-0.1785797774791717
1749042916.0350587,4.50519809312922,-0.9471945651165783,1.005230934047574,3.3174861149838266,-0.8156046248035391,-0.9356582987839295,0.001721418792423949,-0.01216839748244354,-0.009462245166001264,0.013539372246604037,0.028197496453060397,-0.010964579420888102,0.1649944633245468,-1.788469314575195,-1.4112451076507568,-0.2543556690216064,0.2596156001091003,-0.1831216812133789
1749042916.0351171,4.505196992121719,-0.9472168482796327,1.0052114788471487,3.3175157607832393,-0.815546602888026,-0.9356781370419391,0.0016038613145744867,-0.012473600684358366,-0.009857755658599112,0.014159070087253088,0.030150047023126403,-0.011027709198288268,0.1732413917779922,-1.791522979736328,-1.4037573337554932,-0.2504302263259887,0.2650436758995056,-0.1721387207508087
1749042916.0351782,4.505195377906814,-0.9472401688658957,1.0051906138222118,3.317546090561679,-0.8154840199513063,-0.9356975059590241,0.0014810082379277424,-0.01271662968207869,-0.010259703356812946,0.014626864726296467,0.032347416092069564,-0.011046043848805783,0.1511266678571701,-1.7826800346374512,-1.417111873626709,-0.2708210945129394,0.2704828381538391,-0.1612153053283691
1749042916.0352523,4.505193456042459,-0.9472644230021399,1.005168339314728,3.3175767833456007,-0.8154166742211048,-0.9357164387705864,0.0013565243711950727,-0.012910708149975903,-0.010668997514864616,0.014953660070019288,0.034752268968662,-0.0110217095974452,0.1575506776571273,-1.8053336143493648,-1.4197654724121094,-0.2757390439510345,0.2683154940605163,-0.1703945398330688
1749042916.0353105,4.505191441341407,-0.9472894952734963,1.0051446988281638,3.3176075701167993,-0.8153444613755566,-0.9357350059623251,0.001234030188119578,-0.013070593654301636,-0.011083249917139236,0.015160426339745799,0.03732137641988015,-0.010960573266164262,0.1833868473768234,-1.780058741569519,-1.4200890064239502,-0.2830431163311004,0.2888606190681457,-0.1648727506399154
1749042916.0353513,4.505189538550305,-0.9473152632297626,1.0051197806062622,3.3176382493841743,-0.8152673511397592,-0.9357533129249758,0.0011167631843115797,-0.013211713171009557,-0.011496852604053658,0.015276463140552867,0.04000920335499699,-0.010872239358839417,0.1638508588075637,-1.7976056337356567,-1.4265133142471311,-0.2749947011470794,0.3023702502250671,-0.1575370728969574
1749042916.0353887,4.505187923948606,-0.9473416046973754,1.0050937158618947,3.31766869837111,-0.8151853605192603,-0.9357714948713641,0.0010073430300677761,-0.01334937520706766,-0.011901475148511777,0.015336896707734525,0.04277116759573539,-0.010769670578643864,0.1724831312894821,-1.808125734329224,-1.414347529411316,-0.2628609538078308,0.3120138645172119,-0.1722145676612854
1749042916.035426,4.505186730770625,-0.9473684072714054,1.0050666734900886,3.3176988797123226,-0.8150985269611112,-0.9357897093882601,0.0009076674843363219,-0.013498103341950025,-0.012286923705526899,0.01537966718937219,0.0455663818883702,-0.010668433632666051,0.1519160121679306,-1.8218849897384644,-1.4086765050888062,-0.2722829580307007,0.3217220306396484,-0.1659227162599563
1749042916.0354624,4.505186040335699,-0.9473955784703286,1.0050388513250572,3.3177288435197605,-0.815006883718213,-0.9358081272666576,0.0008189325941474922,-0.013671114216592896,-0.01264224294308421,0.015442326337530012,0.04835975044844062,-0.010585620653146225,0.1660145074129104,-1.823233127593994,-1.402873992919922,-0.2648828029632568,0.3247100710868835,-0.1571405977010727
1749042916.035499,4.5051858793002895,-0.9474230546690882,1.0050104646192697,3.317758724597531,-0.8149104391624018,-0.9358269223931354,0.0007417458253575016,-0.013879941573921575,-0.012956907046462454,0.015558986430113254,0.05112333735604279,-0.01053854479774452,0.1786891371011734,-1.8539421558380127,-1.3979405164718628,-0.2671525478363037,0.3360642194747925,-0.171246588230133
1749042916.035535,4.505186222236133,-0.9474508073532523,1.0049817332138669,3.317788734605224,-0.8148091617293927,-0.9358462615816621,0.0006762892616593157,-0.014134186135178944,-0.013221942759438495,0.015757734250158386,0.05383697732019087,-0.010543353311608187,0.18974469602108,-1.8381714820861816,-1.4029160737991333,-0.2545439600944519,0.3357259631156921,-0.176321879029274
1749042916.0355718,4.505186998163611,-0.9474788461021407,1.004952869280189,3.3178191493149365,-0.8147029721693707,-0.935866295386209,0.0006224912170481342,-0.014441353122205099,-0.01343084848471397,0.01605875632642958,0.056488161645217964,-0.010613730756555988,0.1841884404420852,-1.8402576446533203,-1.3866592645645142,-0.2532847821712494,0.3708724975585937,-0.1698318272829055
1749042916.0356083,4.505188099688508,-0.9475072183984794,1.0049240672362139,3.3178502916908785,-0.8145917443783356,-0.9358871510237062,0.0005801741077679182,-0.014806734738188054,-0.01358020825201674,0.016473325092768023,0.05907129435354489,-0.010759862352868112,0.182110384106636,-1.8431403636932373,-1.3950530290603638,-0.2415722608566284,0.3538469076156616,-0.1656942814588546
1749042916.0356448,4.505189393728714,-0.947536006629621,1.0048954966486168,3.3178825119305917,-0.8144753151365125,-0.9359089283731497,0.000549159083002008,-0.015233311550080744,-0.013669943141254129,0.017003684676209316,0.06158646783352821,-0.010987785611173329,0.2015917748212814,-1.864608645439148,-1.389155030250549,-0.2548257112503052,0.3718048930168152,-0.1674361675977707
1749042916.035862,4.505190733166733,-0.9475653226985495,1.0048672980066722,3.317916165663453,-0.8143535017954747,-0.9359316996187808,0.0005293200287956484,-0.01572167937601409,-0.013703194389840488,0.017643766611146836,0.064037944443138,-0.011299187920281558,0.1821389645338058,-1.8750172853469849,-1.3954355716705322,-0.2424233555793762,0.3592888414859772,-0.1804747581481933
1749042916.0367436,4.505191968953231,-0.9475953007538364,1.0048395805941328,3.317951591463745,-0.8142261257096375,-0.9359555125357053,0.0005205892829740164,-0.0162700375982424,-0.013685885661194365,0.018380574513558196,0.0664325353566238,-0.011691629158388011,0.1885166615247726,-1.8635520935058596,-1.3973612785339355,-0.2486272454261779,0.3691098392009735,-0.1634608805179596
1749042916.0782824,4.505192962218532,-0.9476260886988501,1.0048124215802727,3.317989088960136,-0.8140930382137191,-0.935980396663919,0.0005229242584240244,-0.01687428177635989,-0.013626054253327503,0.01919601207084371,0.06877803343083513,-0.01215910200726061,0.1981862038373947,-1.8691625595092771,-1.3831303119659424,-0.2345555126667022,0.3540498316287994,-0.1673179566860199
1749042916.0783415,4.505193595888234,-0.9476578392022096,1.004785865853095,3.318028899011314,-0.8139541453373831,-0.9360063708399396,0.0005362485361343575,-0.0175282262313552,-0.01353306252570041,0.020068898935721398,0.07108179627199471,-0.012692800553782852,0.2143166214227676,-1.8844577074050903,-1.363990306854248,-0.2373904287815094,0.3518127202987671,-0.1717524379491806
1749042916.0783815,4.505193785193208,-0.9476907008060377,1.0047599265953493,3.3180711874239277,-0.8138094276058383,-0.9360334501871003,0.0005603833037432758,-0.01822395569600158,-0.013416800880987529,0.020976930561250082,0.0733495214921741,-0.013281953258665906,0.1864338964223861,-1.9013198614120483,-1.3889968395233154,-0.244333267211914,0.3625367879867553,-0.1615045964717865
1749042916.0784194,4.505193486362558,-0.9477248095918486,1.0047345867608763,3.3181160334844875,-0.8136589525236971,-0.9360616510057514,0.0005949849567445258,-0.01895228377905951,-0.013286977749981032,0.021898384319849463,0.07558424204409411,-0.013914590610713413,0.2036608755588531,-1.9153259992599487,-1.377267599105835,-0.2646403908729553,0.3850009441375732,-0.1749172508716583
1749042916.078457,4.505192702761405,-0.9477602819768386,1.0047098014638607,3.3181634242791835,-0.8135028791937399,-0.936090992818207,0.0006395012248747361,-0.019703282320748305,-0.013152565782639618,0.022813436317574265,0.07778559682212491,-0.014578160890296144,0.2273894697427749,-1.9079830646514893,-1.3809258937835691,-0.2469787448644638,0.3847779631614685,-0.1667193174362182
1749042916.0784943,4.5051914877972346,-0.9477972094348597,1.004685501122311,3.3182132553803716,-0.8133414558645755,-0.9361214975688966,0.0006931510053322017,-0.020466835676183112,-0.013021440594302188,0.02370501700750522,0.0799494551328366,-0.015259968970028728,0.216693714261055,-1.9198288917541504,-1.3858953714370728,-0.2447326183319091,0.3864298164844513,-0.1772573143243789
1749042916.0785315,4.505189943942623,-0.947835655852045,1.0046615951800504,3.3182653379507063,-0.8131750114195312,-0.9361531863766236,0.0007549240451457534,-0.02123316831699007,-0.012900213245378864,0.024559198881807506,0.08206794419806075,-0.01594746987234113,0.2037543058395385,-1.938289999961853,-1.3910120725631714,-0.248396411538124,0.368618369102478,-0.1638951152563095
1749042916.0785694,4.505188217135407,-0.9478756577849848,1.0046379763584794,3.3183194117965007,-0.813003941394053,-0.9361860744325669,0.0008235899587037684,-0.021993297680907596,-0.012794227334426443,0.0253651771472295,0.08412985181858602,-0.01662848081201148,0.2306980639696121,-1.9436695575714111,-1.3955901861190796,-0.2240858376026153,0.3791177868843078,-0.1684471070766449
1749042916.0786142,4.505186485951956,-0.9479172274053045,1.0046145254910714,3.318375163504265,-0.812828688956073,-0.9362201648869191,0.0008977062732647794,-0.022739377528291225,-0.012707673726759823,0.02611496322779943,0.08612130777060385,-0.01729137937164649,0.2188384681940078,-1.9482300281524656,-1.3889604806900024,-0.2357444763183593,0.3956202268600464,-0.1948486864566803
1749042916.0786526,4.505184945807099,-0.9479603575623501,1.004591116870157,3.3184322483889988,-0.8126497218462075,-0.936255442877588,0.0009756230147288656,-0.023464916381619478,-0.012643772815131791,0.02680294191486896,0.08802663281713981,-0.01792533917097695,0.2446024268865585,-1.9556597471237185,-1.3917853832244873,-0.2555491924285888,0.3946421146392822,-0.1687757223844528
1749042916.0786932,4.505183789891242,-0.9480050281312291,1.0045676237437136,3.318490314482151,-0.812467507326061,-0.9362918709918123,0.0010554919551126914,-0.02416487700325653,-0.012604981213930612,0.02742543320799435,0.08982927280586257,-0.018520625363734573,0.2306737750768661,-1.9690462350845337,-1.4013524055480957,-0.2535719573497772,0.357589840888977,-0.1749007105827331
1749042916.0787303,4.505183189744319,-0.9480512126200951,1.00454392344385,3.3185490263709645,-0.8122824881593781,-0.9363293872044747,0.0011352951299043476,-0.024835680303979375,-0.012593189662263329,0.027980354320500566,0.09151276229238466,-0.019068938059414602,0.2240447551012039,-1.9554914236068728,-1.4226012229919434,-0.2475849986076355,0.3848683536052704,-0.1728373020887375
1749042916.0787666,4.505183278566261,-0.9480988839468201,1.0045199017157482,3.318608086527126,-0.8120950630448703,-0.9363679057056932,0.0012129059186452473,-0.025475141373983184,-0.012609886716239633,0.028467017363645285,0.0930616637931366,-0.01956376382750609,0.2424018830060959,-1.9634677171707156,-1.4142922163009644,-0.2524867653846741,0.3818716704845428,-0.1731907129287719
1749042916.078803,4.505184139639223,-0.9481480184459072,1.004495455906772,3.318667251845698,-0.8119055744495537,-0.936407320245314,0.0012861883179492574,-0.026082353459659178,-0.012656268037801916,0.028886048434988668,0.09446241944059632,-0.020000682485027965,0.2424018830060959,-1.9634677171707156,-1.4142922163009644,-0.2524867653846741,0.3818716704845428,-0.1731907129287719
1749042916.078839,4.505185801130456,-0.9481985976025066,1.0044704966377531,3.3187263436252317,-0.8117143053039951,-0.9364475090911263,0.0013531309242625726,-0.02665751923723476,-0.012733277171922358,0.029239387251119093,0.0957040548624052,-0.020377576934782166,0.2381989508867263,-1.984247803688049,-1.415887713432312,-0.2402583360671997,0.3922638893127441,-0.16030253469944
1749042916.0788765,4.505188237469417,-0.9482506076323571,1.0044449476796975,3.318785250358884,-0.8115214837302931,-0.9364883407261418,0.0014120065573941954,-0.027201724619944984,-0.01284157502150443,0.029530318882933147,0.09677869901571379,-0.020694701499790944,0.2402225583791732,-1.9327704906463623,-1.423560380935669,-0.2594953775405884,0.3957594037055969,-0.1626464277505874
1749042916.0789158,4.505191376518786,-0.9483040375093472,1.0044187442467956,3.3188439241422354,-0.8113272929141536,-0.9365296798154491,0.0014615474520698669,-0.02771666290590905,-0.012981451463456622,0.02976348601836154,0.09768192009547441,-0.02095457719656962,0.2176304906606674,-1.960197925567627,-1.4277212619781494,-0.2418450266122818,0.3895938694477081,-0.1895934343338012
1749042916.0789528,4.505195110887145,-0.9483588761370837,1.0043918305436605,3.3189023724724755,-0.8111318825962021,-0.9365713932487201,0.0015011251297264154,-0.02820433524679407,-0.01315270612138433,0.02994482244485336,0.0984129095201483,-0.021161704846583224,0.2239415496587753,-1.9420357942581177,-1.4149680137634275,-0.2375949919223785,0.3896393477916717,-0.1647098958492279
1749042916.0789886,4.50519931121165,-0.9484151091733937,1.0043641576975637,3.3189606473282987,-0.8109353795223606,-0.9366133560237685,0.0015309174706884562,-0.02866676406547793,-0.013354528662339384,0.030081343590356246,0.09897456170002784,-0.021322120576132926,0.2393520921468734,-1.940165638923645,-1.4224873781204224,-0.248700350522995,0.3695891797542572,-0.1829542368650436
1749042916.0790243,4.505203839378772,-0.9484727158333043,1.0043356830133707,3.3190188329629264,-0.8107378956646538,-0.9366554566821138,0.0015520326483825537,-0.029105753993780438,-0.013585403805636468,0.03018074535005334,0.09937349624068806,-0.02144285379604578,0.2162629663944244,-1.958398461341858,-1.4233882427215576,-0.2541467547416687,0.3867324888706207,-0.1854328364133834
1749042916.0791316,4.505208560343575,-0.9485316659406906,1.0043063709888151,3.319077033253365,-0.8105395343121696,-0.9366976022039304,0.0015665492105609556,-0.02952272305402296,-0.013843060217861882,0.030250808637325603,0.09962005260004507,-0.021531368381238338,0.2220395654439926,-1.934569716453552,-1.417602777481079,-0.2566191256046295,0.3783718943595886,-0.1809079945087433
1749042916.0804713,4.505213351965725,-0.948591917484808,1.0042761959441338,3.3191353589500214,-0.8103403948164589,-0.9367397225338423,0.0015774363503738423,-0.029918611993230322,-0.014124478581566303,0.03029867810616132,0.09972825385025991,-0.02159506282617618,0.2412463277578354,-1.942726731300354,-1.417017936706543,-0.2403260767459869,0.3785325884819031,-0.1850409805774688
1749042916.1222794,4.50521811272955,-0.948653414870497,1.0042451456587393,3.3191939149362093,-0.8101405766704245,-0.9367817748515761,0.0015883427086919204,-0.030293866928112676,-0.01442596864197663,0.030330156554246594,0.0997156923091228,-0.021640878460002975,0.245676502585411,-1.9253581762313845,-1.4245280027389526,-0.2159020602703094,0.3545012474060058,-0.1875568628311157
1749042916.1223316,4.50522276735481,-0.9487160879236817,1.0042132252251113,3.319252787865459,-0.8099401829805057,-0.9368237472392611,0.001603275921073092,-0.03064848095217597,-0.01474331464974726,0.030349198202410894,0.0996032537488,-0.02167503050241097,0.2327179461717605,-1.9173040390014648,-1.3973922729492188,-0.2321465909481048,0.3537151515483856,-0.1851357519626617
1749042916.122373,4.505227270291343,-0.9487798515242599,1.004180460384366,3.319312035268962,-0.8097393228830453,-0.9368656608679198,0.0016262221690447666,-0.030982075397869912,-0.01507197496785102,0.030357765985483228,0.09941459252710041,-0.02170284874854735,0.2379163950681686,-1.918649196624756,-1.4046285152435305,-0.2360043823719024,0.3601054847240448,-0.1795289665460586
1749042916.1224115,4.505231606996971,-0.9488446055333677,1.0041468996948881,3.3193716779168034,-0.8095381123582873,-0.9369075696537293,0.0016607646386534393,-0.031294003922384385,-0.015407309260638649,0.03035613760633768,0.0991753146454475,-0.021728700065630633,0.2692980766296386,-1.931728720664978,-1.39443039894104,-0.2430451959371566,0.3628674149513244,-0.1677170693874359
1749042916.1224575,4.5052357928157205,-0.948910234693288,1.0041126148801094,3.3194316972630555,-0.8093366729063565,-0.9369495567165738,0.0017097511871996213,-0.031583471725730713,-0.015744799359967945,0.030343630328896434,0.09891190956016578,-0.021755964823206856,0.2431582659482956,-1.920052528381348,-1.402015209197998,-0.220630407333374,0.3460037112236023,-0.1850809454917907
1749042916.1225052,4.50523986941946,-0.9489766086213837,1.0040776986877122,3.319492039054975,-0.8091351272919126,-0.9369917277626442,0.0017750410172755358,-0.03184967121725044,-0.016080229775413037,0.03031960589399025,0.09865054892223944,-0.02178705180694291,0.2325985580682754,-1.9156028032302856,-1.3887940645217896,-0.2397306263446808,0.335865169763565,-0.1768657863140106
1749042916.122545,4.505243899267981,-0.9490435827295106,1.0040422597785752,3.3195526230347503,-0.8089335912570439,-0.9370342022746145,0.0018573389328758042,-0.03209193819673552,-0.016409802773070022,0.030284547238775956,0.09841589815197874,-0.02182345607280621,0.2403596490621566,-1.9256329536437988,-1.383893370628357,-0.2338127195835113,0.3561082482337951,-0.189908966422081
1749042916.1225822,4.505247959182842,-0.9491110013750071,1.0040064146739875,3.319613357590087,-0.8087321605011898,-0.9370771037464596,0.001956115189430876,-0.03230992916879964,-0.016730180557488435,0.030240982814144682,0.09823007028914017,-0.02186588235947775,0.2219738513231277,-1.9452216625213623,-1.3793811798095703,-0.2374164909124374,0.3714813590049743,-0.205422043800354
1749042916.1226194,4.505252134475263,-0.9491787043428442,1.0039702775065822,3.319674157371083,-0.8085308937613168,-0.9371205501572313,0.0020696119107137256,-0.03250381159765697,-0.01703846612209666,0.03019406804383223,0.09811182391973713,-0.02191446021051347,0.2540939450263977,-1.9066593647003172,-1.3701794147491455,-0.2313719093799591,0.3727018237113952,-0.1911778450012207
1749042916.1226566,4.505256514682684,-0.9492465367661156,1.0039339489791623,3.319734961189186,-0.8083297949358192,-0.9371646456594384,0.00219494442382879,-0.03267444240244836,-0.017332143673283278,0.03015170123630799,0.09807607387135488,-0.02196905701669562,0.2575705349445343,-1.9118361473083496,-1.374474287033081,-0.2331027388572693,0.3630815148353576,-0.1828900873661041
1749042916.1226928,4.505261190816221,-0.9493143611236383,1.0038975063211886,3.319795747040059,-0.8081287986341638,-0.9372094741214123,0.0023283050573801745,-0.03282349124752484,-0.017608995949594253,0.03012413732375685,0.09813372844674695,-0.02202965726257349,0.2575705349445343,-1.9118361473083496,-1.374474287033081,-0.2331027388572693,0.3630815148353576,-0.1828900873661041
1749042916.1227293,4.505266252759945,-0.9493820687388046,1.003860996013263,3.3198565413132823,-0.8079277631680412,-0.9372550947366625,0.002465263318170409,-0.03295346385031,-0.01786700875106299,0.030123153785786547,0.09829180079746724,-0.022096738891178105,0.2563902735710144,-1.931007981300354,-1.3737589120864868,-0.2180550098419189,0.3469140529632568,-0.178916797041893
1749042916.1227658,4.505271785075163,-0.9494495880736531,1.0038244305886328,3.319917420512645,-0.8077264726840582,-0.937301539651365,0.002601135353184661,-0.033067609819159786,-0.01810427368688453,0.030160904180894822,0.09855370348664731,-0.022171559483672634,0.2414322793483734,-1.9838130474090576,-1.3763502836227417,-0.2198074907064438,0.3695189952850342,-0.204585924744606
1749042916.1228068,4.50527786030816,-0.9495168882316962,1.0037877900595076,3.3199785056798716,-0.8075246472594669,-0.9373488136276947,0.0027313761280437715,-0.033169742826895644,-0.01831890915759211,0.0302486505105739,0.09891964399088395,-0.022256274383624028,0.2403604090213775,-1.9336097240448,-1.3694154024124146,-0.2049715369939804,0.3786066472530365,-0.2250432670116424
1749042916.1228435,4.505284530344391,-0.9495839776622307,1.003751027703137,3.320039951213848,-0.807321958313282,-0.9373968958564677,0.0028519369417456474,-0.03326402447623458,-0.018509028325409155,0.03039558384031162,0.09938707418284488,-0.022353842279543304,0.2475702464580536,-1.9403055906295776,-1.3848087787628174,-0.1944407820701599,0.3783827126026153,-0.1999728977680206
1749042916.12288,4.50529181744409,-0.9496508991164938,1.0037140792825767,3.320101930326924,-0.8071180472366487,-0.9374457437339373,0.002959533528635178,-0.03335475296876965,-0.018672781931419757,0.03060791593046082,0.09995117507902447,-0.02246771765962567,0.2448249757289886,-1.955938577651977,-1.3765971660614014,-0.1907801479101181,0.3579419553279876,-0.2067218869924545
1749042916.1229155,4.50529970682685,-0.9497177220592656,1.0036768744166285,3.3201646191813654,-0.8069125466078654,-0.9374952977481289,0.0030517873690192893,-0.03344617316788752,-0.01880848908986512,0.030888356831121882,0.10060536380120724,-0.022601369616767664,0.2499082386493683,-1.957841873168945,-1.37044095993042,-0.2000835686922073,0.3766650557518005,-0.1983758211135864
1749042916.1229515,4.50530814217721,-0.9497845332266754,1.003639348812624,3.3202281812654344,-0.8067051044652963,-0.9375454860643925,0.003127231084173324,-0.033542314720064664,-0.01891484405446462,0.031236004932485892,0.10134180060667505,-0.022757697959048383,0.2464146614074707,-1.996786117553711,-1.3552758693695068,-0.1994310766458511,0.3648093938827514,-0.1947413384914398
1749042916.122988,4.505317024745079,-0.9498514254749683,1.0036014563046913,3.3202927530558686,-0.8064954123355327,-0.9375962274351888,0.003185200148017579,-0.03364687637493598,-0.01899116092680995,0.031646596298228996,0.10215186974381289,-0.02293844295832972,0.2464146614074707,-1.996786117553711,-1.3552758693695068,-0.1994310766458511,0.3648093938827514,-0.1947413384914398
1749042916.1230235,4.505326216215194,-0.9499184852050966,1.0035631798075335,3.320358431665053,-0.8062832366176567,-0.937647431772175,0.003225657857078184,-0.033763186762471066,-0.019037601918996703,0.03211301181726721,0.10302662044606992,-0.023143701411467106,0.2499296367168426,-1.970923900604248,-1.34422767162323,-0.1904264390468597,0.3902366757392883,-0.2177537828683853
1749042916.123129,4.505335545185,-0.9499857795891847,1.0035245401859987,3.32042526522233,-0.8060684502445574,-0.937698998795753,0.0032490094385422535,-0.03389426011747106,-0.01905533499089423,0.03262593152993196,0.10395716832887382,-0.02337165767797788,0.2325294315814972,-1.971098780632019,-1.3725119829177856,-0.1943567097187042,0.3755863606929779,-0.1995445787906646
1749042916.1244693,4.505344816754873,-0.9500533458070125,1.003485601785575,3.32049324707299,-0.8058510584658074,-0.9377508161172209,0.0032559515561681462,-0.03404292970751365,-0.019046583836775856,0.03317454847570052,0.10493504556410652,-0.02361860585780758,0.2529991567134857,-1.9940921068191528,-1.3627886772155762,-0.1989436745643615,0.3556912839412689,-0.1988257020711898
1749042916.1662872,4.505353824456657,-0.9501211847489761,1.0034464733647221,3.3205623149777126,-0.8056312114263753,-0.9378027585182265,0.0032473818614554974,-0.03421200750450811,-0.01901455982676001,0.03374729127663163,0.10595245492463534,-0.023879283356760282,0.2432584017515182,-2.014317989349365,-1.3762829303741455,-0.169423907995224,0.3807811141014099,-0.2027249038219452
1749042916.1663327,4.505362363623189,-0.950189261118109,1.003407303611407,3.3206323561037436,-0.8054091981065674,-0.9378546900139652,0.0032243699785500022,-0.03440440970994819,-0.018963289638744493,0.03433253409612111,0.10700236874285063,-0.024147472722925573,0.2486273795366287,-2.0005178451538086,-1.3477457761764526,-0.1858045160770416,0.3910925686359405,-0.2114803493022918
1749042916.1663723,4.5053702451946505,-0.950257510848347,1.003368271131817,3.3207032179299683,-0.8051854201876886,-0.93790646965277,0.003188173180083865,-0.0346232051761959,-0.018897366676978947,0.03491927992374893,0.10807844340247913,-0.02441677664367977,0.2284243255853653,-2.007230043411255,-1.3585606813430786,-0.1808431595563888,0.3921162784099579,-0.2026786655187606
1749042916.1664104,4.505377308703532,-0.9503258553190748,1.0033295695792808,3.3207747243788055,-0.8049603487013897,-0.9379579609969889,0.0031402697202224713,-0.03487157221656597,-0.018821661820885387,0.035497786307092195,0.10917476986795288,-0.02468144537510536,0.2461063116788864,-2.030224084854126,-1.3573660850524902,-0.1793804913759231,0.3911439478397369,-0.2188226580619812
1749042916.1664674,4.505383432945058,-0.9503942201618968,1.0032913894200544,3.320846695544887,-0.8047344695056234,-0.9380090441134199,0.0030823820219127475,-0.03515267336399042,-0.01874103539618402,0.03606007532222599,0.11028551474857541,-0.024937140770521293,0.2461063116788864,-2.030224084854126,-1.3573660850524902,-0.1793804913759231,0.3911439478397369,-0.2188226580619812
1749042916.1665204,4.505388543019747,-0.950462555224479,1.0032538985234196,3.3209189686912275,-0.8045082249032538,-0.9380596283263855,0.0030164707646755675,-0.035469469752722006,-0.018660096461550764,0.036600256212940115,0.11140451909651176,-0.025181545049507183,0.2562242448329925,-2.019712209701538,-1.362102508544922,-0.1880116313695907,0.3831071853637695,-0.2037824690341949
1749042916.1665606,4.505392613182738,-0.9505308522430043,1.0032172239422446,3.3209914182239975,-0.8042819579953715,-0.938109664362643,0.002944695498887411,-0.03582449738977578,-0.01858305129183899,0.03711460768462415,0.11252493240046593,-0.025414745208583646,0.2458450347185135,-2.03106689453125,-1.3752648830413818,-0.1837234199047088,0.3855264186859131,-0.1921424120664596
1749042916.166598,4.505395665864744,-0.9505991578426632,1.0031814368837662,3.3210639728811184,-0.8040558647931202,-0.9381591552655619,0.002869350859645906,-0.03621962192168564,-0.018513666985485226,0.03760141310674489,0.11363897485936816,-0.02563933419145435,0.2446511536836624,-2.047827243804932,-1.3791446685791016,-0.1732853502035141,0.3990581333637237,-0.1943121999502182
1749042916.1666403,4.505397767726767,-0.9506675805771776,1.0031465423871277,3.3211366285133876,-0.803829958488033,-0.9382081654451805,0.0027927938273526087,-0.03665578219377427,-0.018455350263274765,0.03806059394947013,0.114737926260158,-0.02586017788391648,0.240698829293251,-2.038049459457397,-1.372971534729004,-0.1800137758255005,0.3969395160675049,-0.1784664988517761
1749042916.1666782,4.50539902353298,-0.9507362911201838,1.0031124748836464,3.321209454370121,-0.8036040509413853,-0.9382568261472118,0.0027173752949915687,-0.037132729489882006,-0.018411310838732965,0.03849322296753658,0.11581241641376412,-0.026083825044967653,0.240698829293251,-2.038049459457397,-1.372971534729004,-0.1800137758255005,0.3969395160675049,-0.1784664988517761
1749042916.1667154,4.505399568437443,-0.9508055149200259,1.0030791003733293,3.321282590644434,-0.8033777564841885,-0.9383053345971173,0.0026453825185508897,-0.03764877204317413,-0.018384753311515487,0.03890100814703088,0.11685304242332298,-0.02631759555075427,0.247688427567482,-2.02864933013916,-1.3749340772628784,-0.1914933919906616,0.4156016111373901,-0.1983652859926223
1749042916.166752,4.505399559334279,-0.9508755175032803,1.0030462251661918,3.3213562361818747,-0.8031505205814184,-0.9383539445539906,0.002578994203686824,-0.0382005469574255,-0.018379035228814424,0.03928582158991927,0.11785127943874395,-0.026568456432613383,0.245010644197464,-2.034515619277954,-1.3846275806427002,-0.1779806017875671,0.3952718675136566,-0.1984270513057708
1749042916.1667883,4.505399166046813,-0.9509465841037766,1.0030136102387872,3.321430627475332,-0.8029216714274505,-0.9384029480784418,0.0025202494239970528,-0.03878286176373427,-0.01839774628622162,0.03964931549197121,0.11880059533918366,-0.026841857231854206,0.2429044544696808,-2.03185772895813,-1.373638153076172,-0.1863284260034561,0.3728208541870117,-0.2077140659093856
1749042916.1668296,4.505398563069167,-0.9510189964217671,1.0029809896176702,3.321506012048903,-0.8026904885208817,-0.9384526506735317,0.002471031197574079,-0.03938866115914169,-0.018444690724274355,0.039992638984017226,0.11969763029655521,-0.027140722848720784,0.2435373365879058,-2.026534080505371,-1.3836528062820437,-0.1968151479959488,0.382597267627716,-0.1910765320062637
1749042916.1668663,4.505397922339198,-0.9510930094078887,1.0029480908491,3.3215826200477827,-0.8024562800007339,-0.938503343457386,0.0024330600741759166,-0.04000916500659664,-0.01852377361766731,0.040316258476688606,0.12054326760405767,-0.02746478307479761,0.2365113794803619,-2.016895055770874,-1.379986047744751,-0.1933601349592209,0.3696928024291992,-0.2010771781206131
1749042916.166912,4.505397407261081,-0.9511688303662957,1.0029146553986512,3.321660637386374,-0.8022184595183117,-0.9385552764751999,0.0024078835816437813,-0.04063419392676381,-0.01863879969646234,0.040619887413417474,0.1213434094896333,-0.02781035648800304,0.2773253619670868,-2.017054319381714,-1.3870139122009275,-0.1828808784484863,0.3552459180355072,-0.2030773311853408
1749042916.1669662,4.505397168034912,-0.9512466022148345,1.0028804567756504,3.3217401830021096,-0.8019766130802776,-0.9386086368491713,0.0023968418693986007,-0.04125267207078005,-0.018793202744720672,0.04090253470543445,0.12210928613031106,-0.02817061812691673,0.2746739685535431,-2.031347751617432,-1.3990646600723269,-0.1989940106868744,0.4001144766807556,-0.1935604214668274
1749042916.1670096,4.505397338324371,-0.9513263928199012,1.0028453143399627,3.3218212924166157,-0.8017305465111264,-0.9386635344259977,0.0024009954696752357,-0.04185329003007749,-0.018989741744159343,0.04116267379421467,0.12285718236827349,-0.028536290074550937,0.2746739685535431,-2.031347751617432,-1.3990646600723269,-0.1989940106868744,0.4001144766807556,-0.1935604214668274
1749042916.167048,4.50539803325016,-0.951408192490771,1.0028091010080509,3.3219039100079844,-0.8014803049393805,-0.9387199962718104,0.0024210169439834836,-0.04242530982729141,-0.019230217392406514,0.04139851748862507,0.12360756814002538,-0.028896626495255248,0.2575685083866119,-2.007031202316284,-1.4046539068222046,-0.1899943351745605,0.4079679250717163,-0.1845902949571609
1749042916.1670885,4.505399348448124,-0.9514919210452696,1.0027717435122072,3.3219878922989117,-0.8012261579047506,-0.9387779700382375,0.0024570671911874706,-0.04295946798670269,-0.019515262841159498,0.04160836668376287,0.12438372782338898,-0.02924053598035497,0.3051774799823761,-2.0181329250335693,-1.409004807472229,-0.2073369473218917,0.4137099981307983,-0.1717844158411026
1749042916.1672015,4.505401359583937,-0.9515774438419896,1.0027332149137005,3.322073023072238,-0.8009685491882896,-0.9388373348681261,0.0025086917299720823,-0.04344887967100041,-0.01984424058261329,0.04179099072268081,0.12521005421073417,-0.02955769738942897,0.2858145534992218,-1.9909241199493408,-1.4169409275054932,-0.2141734659671783,0.43369060754776,-0.190058559179306
1749042916.1684997,4.505404121676826,-0.9516645935108686,1.0026935208810728,3.3221590382133477,-0.8007080193113774,-0.9388979172517065,0.0025747764675516094,-0.043889806643525583,-0.02021524556448795,0.04194599427781058,0.12611020385097368,-0.02983956808080252,0.2969367802143097,-2.040520429611206,-1.4314571619033811,-0.2130239605903625,0.4576058983802795,-0.1858221441507339
1749042916.2102768,4.505407668077654,-0.9517531924127058,1.0026526831204055,3.3222456553532833,-0.8004451168569326,-0.9389595085958333,0.002653593160320024,-0.04428216270747165,-0.020625188725547427,0.04207412984142425,0.12710533022117662,-0.03008022941032298,0.2969367802143097,-2.040520429611206,-1.4314571619033811,-0.2130239605903625,0.4576058983802795,-0.1858221441507339
1749042916.2103226,4.5054120095948145,-0.9518430712898192,1.0026107241555697,3.322332602444894,-0.8001803171616287,-0.9390218816947321,0.002742944287115016,-0.04462968499522189,-0.021069920966240753,0.042177527335906934,0.12821261723033953,-0.030277038496745783,0.2933856546878814,-2.023944139480591,-1.421196222305298,-0.2179492712020874,0.4336686134338379,-0.1630635112524032
1749042916.210363,4.505417134413492,-0.9519340818410783,1.002567656850922,3.3224196407753768,-0.7999139621263416,-0.9390848046616501,0.0028403930992152494,-0.04493976104623414,-0.021544353281987172,0.042259831080749634,0.12944428991940995,-0.030431052478134987,0.2930157780647278,-2.0184292793273926,-1.4143543243408203,-0.1949148178100586,0.4323155581951141,-0.1635637432336807
1749042916.210402,4.505423009001484,-0.9520261035980981,1.002523480171889,3.322506580459559,-0.7996462265062043,-0.9391480524275533,0.0029435448221198112,-0.04522294835147698,-0.022042538081019178,0.042326250101430464,0.1308071644639252,-0.030547179921237264,0.2918076515197754,-2.030932664871216,-1.432826280593872,-0.2183065265417099,0.4087640941143036,-0.1702712029218673
1749042916.2104402,4.505429579751468,-0.9521190470268831,1.0024781808084178,3.32259328871232,-0.799377109016389,-0.9392114168010198,0.0030503328212242702,-0.04549225635618787,-0.022557708376521626,0.04238352779346404,0.13230265893950977,-0.030634017043995886,0.2800153493881225,-2.032302141189575,-1.4422543048858645,-0.2139869928359985,0.4386559426784515,-0.1732761263847351
1749042916.2104857,4.505436775234794,-0.9522128547672201,1.002431739218992,3.322679692453992,-0.7991064431449761,-0.9392747161243821,0.003159259713685075,-0.04576228143299038,-0.02308231826136333,0.04243981988550279,0.13392709567621178,-0.03070335255564228,0.2980960011482239,-2.070155382156372,-1.4265013933181765,-0.2283995747566223,0.4451055526733398,-0.1675134450197219
1749042916.2105324,4.505444509438465,-0.9523075019509192,1.002384138367724,3.322765777060015,-0.7988339218850055,-0.9393378051476021,0.0032695484017446533,-0.04604828497656532,-0.02360815790204071,0.04250445650323436,0.13567212766082762,-0.030769363672452966,0.2824137806892395,-2.038088083267212,-1.434185028076172,-0.1990308463573455,0.4035900831222534,-0.1752161085605621
1749042916.210572,4.5054526865497255,-0.952402995534446,1.0023353734485587,3.3228515826506824,-0.7985591311238653,-0.9394005851499095,0.0033811720307371767,-0.04636528106354427,-0.024126602107190927,0.04258758250053052,0.13752519644608255,-0.030847561392578392,0.2982308864593506,-2.026707172393799,-1.424077391624451,-0.200229674577713,0.4442251026630401,-0.1715153157711029
1749042916.210631,4.505461207434666,-0.9524993721170361,1.0022854609247291,3.322937198753504,-0.7982815872450252,-0.939463013564049,0.003494753627783387,-0.04672716603378547,-0.024629001968236745,0.0426997207648813,0.13947003221155813,-0.030953570608596884,0.2986686825752258,-2.058767557144165,-1.427719235420227,-0.1950152218341827,0.4492919743061065,-0.1742409169673919
1749042916.2106934,4.505469977262177,-0.9525966938643439,1.0022344453562484,3.3230227579275162,-0.7980007753441556,-0.9395251115717408,0.003611351658764926,-0.04714589736728012,-0.02510717714836105,0.04285134999378276,0.14148729814290217,-0.031101853921225355,0.3030202388763428,-2.0484087467193604,-1.4321472644805908,-0.1905826330184936,0.4643346071243286,-0.180633932352066
1749042916.210734,4.505478913245922,-0.952695042664778,1.0021824028691564,3.3231084290053583,-0.7977161854748214,-0.939586967812408,0.0037321700350762387,-0.0476307227283866,-0.025553935787910962,0.043052590183735216,0.14355551908177863,-0.031304504431429195,0.2845396995544433,-2.04745888710022,-1.415976643562317,-0.2031908929347992,0.4518012404441833,-0.194081425666809
1749042916.2107708,4.505487951442997,-0.9527945131288126,1.0021294406047088,3.323194410576794,-0.7974273455516979,-0.9396487367738469,0.003858242842720329,-0.0481874679433326,-0.025963542126247248,0.04331303808721052,0.14565238181376208,-0.03157023198053269,0.3025862574577331,-2.050067186355591,-1.4111213684082031,-0.1857165694236755,0.4328060746192932,-0.1676319241523742
1749042916.2108226,4.505497051826707,-0.9528952051675912,1.0020756919367881,3.323280924961258,-0.7971338504645232,-0.9397106313420238,0.003990141578051933,-0.048817908699143285,-0.02633206254820086,0.04364172119552879,0.14775636113941343,-0.03190364511460157,0.2876858115196228,-2.0576322078704834,-1.4047993421554563,-0.1876152455806732,0.4585877060890198,-0.2026455849409103
1749042916.2108624,4.5055062010247395,-0.9529972166227675,1.0020213077684308,3.323368212378381,-0.7968353869960041,-0.9397729098180971,0.0041277386603065045,-0.049519271643423825,-0.026657544910371842,0.04404707989263257,0.14984847702589635,-0.032304895763786215,0.2907220125198364,-2.0637221336364746,-1.414237141609192,-0.1721859872341156,0.453391969203949,-0.198159322142601
1749042916.210904,4.505515411928036,-0.9531006360945604,1.0019664448996903,3.323456524648727,-0.7965317533646807,-0.9398358582651867,0.004270043998836467,-0.05028392977574306,-0.026940019958320908,0.044536863786333654,0.15191389586830462,-0.03276971707635124,0.262579083442688,-2.063128471374512,-1.4111101627349854,-0.1578663885593414,0.4509803652763366,-0.1938084959983825
1749042916.210941,4.505524719213602,-0.9532055360399985,1.001911253056929,3.3235461176793146,-0.796222871490493,-0.9398997695875517,0.00441512082576564,-0.051099364239776214,-0.027181348682773367,0.045117846046582054,0.1539430836821696,-0.033289851211348705,0.2961419224739074,-2.051799774169922,-1.408605694770813,-0.1836079955101013,0.4226348400115967,-0.1933230906724929
1749042916.2109785,4.505534170330492,-0.9533119663140729,1.0018558623247906,3.3236372421573215,-0.7959087903155104,-0.9399649213728608,0.004560085886950884,-0.05194845505044537,-0.02738496413368133,0.045795317727123995,0.15593228787409072,-0.03385382850102681,0.3037496209144592,-2.0575311183929443,-1.4052948951721191,-0.1601176559925079,0.41008460521698,-0.1932081580162048
1749042916.211015,4.505543812741509,-0.9534199483139894,1.001800372369793,3.32373013223665,-0.7955896797901598,-0.9400315548677396,0.00470120170469582,-0.05281014040298189,-0.027555563567897776,0.046572405061916275,0.15788324036569093,-0.03444801719488224,0.2794387936592102,-2.0300235748291016,-1.417060375213623,-0.1581665277481079,0.432454377412796,-0.188340738415718
1749042916.211052,4.505553679602894,-0.9535294697409792,1.0017448442892378,3.323824992554076,-0.7952658166301767,-0.9400998571659653,0.00483406611143539,-0.053660453417757506,-0.02769879789056709,0.047449318004710424,0.15980211138110478,-0.035057818855685485,0.2972763478755951,-2.036036729812622,-1.413907527923584,-0.1542014330625534,0.4130992591381073,-0.1794645935297012
1749042916.211088,4.505563776944158,-0.9536404800797282,1.001689295501215,3.3239219845550934,-0.7949375637318699,-0.9401699479656225,0.004953892554155325,-0.05447391126641088,-0.027820985808240287,0.048422653367666955,0.1616978653638856,-0.03566885668308846,0.2927418649196625,-2.066013097763061,-1.4097179174423218,-0.1489113271236419,0.4453203082084656,-0.1791647374629974
1749042916.2112029,4.50557407542045,-0.9537528874059166,1.0016336979650646,3.324021213623403,-0.7946053450093856,-0.9402418716007931,0.005055857622420801,-0.055225196968385785,-0.02792885562236185,0.0494848458510894,0.16358024885705022,-0.03626801267878172,0.2868857979774475,-2.044155597686768,-1.4142743349075315,-0.1567724198102951,0.4214727878570556,-0.1813110411167144
1749042916.2125182,4.505584508770389,-0.9538665576497193,1.001577980136609,3.3241227187698623,-0.7942696169651335,-0.9403155947058021,0.005135477374242363,-0.05589103359192122,-0.0280292953514891,0.050623826415785764,0.16545767611164824,-0.03684421567624999,0.2826531231403351,-2.0038533210754395,-1.4052507877349854,-0.1417039781808853,0.4133466482162475,-0.204159528017044
1749042916.2542791,4.50559497945085,-0.9539813174287891,1.0015220331467098,3.3242264666918735,-0.7939308381391971,-0.9403910096262956,0.005188966604706025,-0.05645210123048347,-0.028129083895995884,0.0518229427568157,0.1673352903741327,-0.037388943046294025,0.3018380105495453,-2.0248289108276367,-1.4331432580947876,-0.1209484040737152,0.4343122243881225,-0.1983357071876526
1749042916.254325,4.505605370142152,-0.9540969610408979,1.001465721342047,3.3243323519020755,-0.7935894377398965,-0.9404679433396852,0.0052135376201496485,-0.056894805821315966,-0.02823459147258623,0.053061212632339365,0.1692134723930973,-0.03789644761006471,0.283319890499115,-2.037018299102783,-1.433476448059082,-0.139488473534584,0.4365396201610565,-0.1834138631820678
1749042916.2543657,4.505615558642215,-0.9542132615925615,1.001408896396874,3.32444020428461,-0.7932457849375404,-0.9405461712895948,0.005207607954986847,-0.05721269893055863,-0.028351468129482044,0.05431398107469044,0.17108703244412843,-0.0383637470061317,0.2580212652683258,-1.991854548454285,-1.4399299621582031,-0.126994177699089,0.4498678147792816,-0.2072424292564392
1749042916.254405,4.505625433388066,-0.9543299857641371,1.0013514131128431,3.3245498047185356,-0.7929001604879355,-0.9406254353097051,0.005170905559892963,-0.0574073690867747,-0.028484360416380035,0.05555401062819543,0.1729452424054905,-0.03879041992970159,0.2782934308052063,-1.9970121383666992,-1.4447163343429563,-0.1271133571863174,0.4193872511386871,-0.1979963779449463
1749042916.2544434,4.505634907162838,-0.9544469112372127,1.0012931444666002,3.3246609081416234,-0.7925527327785004,-0.9407054645616173,0.0051044758853507335,-0.057488663467031395,-0.02863669166161288,0.05675295664795319,0.17477272999120821,-0.039178250737706505,0.2838387787342071,-1.9954266548156736,-1.4344792366027832,-0.1431908905506134,0.4345486164093017,-0.1860806941986084
1749042916.2544816,4.505643927072154,-0.954563845097115,1.001233993786397,3.324773271612435,-0.7922035411447332,-0.9407859979645011,0.005010601423133863,-0.05747415546274162,-0.02881051877893558,0.05788309892725487,0.17655108851993045,-0.03953075831016771,0.2697779834270477,-2.013671398162842,-1.449849009513855,-0.1387468874454498,0.4399601817131042,-0.1816174536943435
1749042916.254527,4.505652479539506,-0.9546806406106318,1.0011739029128617,3.324886682916124,-0.7918524902572553,-0.94086680606512,0.004892643179877076,-0.057387861451281545,-0.02900645896079575,0.05891914562774002,0.17826090899208055,-0.039852644682132565,0.2352555692195892,-2.0329995155334477,-1.4501550197601318,-0.1535444259643554,0.4173661470413208,-0.1988720297813415
1749042916.2545662,4.505660589951328,-0.9547972092010115,1.0011128562979434,3.3250009838651584,-0.791499359930375,-0.9409477099559981,0.004754813103243253,-0.05725832058519879,-0.029223675384364614,0.05983990657075263,0.17988387266921513,-0.04014920846868551,0.2352555692195892,-2.0329995155334477,-1.4501550197601318,-0.1535444259643554,0.4173661470413208,-0.1988720297813415
1749042916.254604,4.505668317571774,-0.9549135250071331,1.0010508816947947,3.3251160827975954,-0.7911438333677765,-0.9410285949287106,0.0046018922155540145,-0.05711625010237199,-0.029459921222672655,0.060629648787692565,0.18140457356691403,-0.040425781069839704,0.2429116070270538,-2.018834590911865,-1.4398138523101809,-0.1482749879360199,0.4251104295253753,-0.209313690662384
1749042916.2546418,4.505675747152946,-0.9550296214175027,1.0009880481483882,3.3252319534188888,-0.7907855425622646,-0.9411094171444565,0.004438920870414495,-0.05699204249482239,-0.029711658636591164,0.06127899265512704,0.1828118548497767,-0.04068724462417577,0.2363422214984893,-2.027930736541748,-1.4646445512771606,-0.1627717018127441,0.4246964156627655,-0.1886223256587982
1749042916.254679,4.5056829789606345,-0.9551455814643458,1.0009244616664623,3.32534862105014,-0.7904241239601052,-0.9411902025581875,0.00427090015004651,-0.05691337160580156,-0.029974282020423675,0.06178527379508764,0.18409959231099302,-0.04093766936231398,0.2504773736000061,-2.0737247467041016,-1.4511525630950928,-0.1544602215290069,0.4363685548305511,-0.1855269074440002
1749042916.254716,4.505690118612661,-0.9552615252962068,1.000860258722074,3.325466140554579,-0.7900592741800019,-0.9412710383309218,0.004102549391505718,-0.05690313469483794,-0.03024246717611195,0.06215237368285596,0.18526698010300416,-0.0411800720746643,0.2426943778991699,-2.015399694442749,-1.4337223768234253,-0.1600671112537384,0.4365257322788238,-0.1697513908147812
1749042916.2547534,4.505697267543212,-0.9553775973527197,1.000795597825543,3.3255845715290864,-0.7896907963679305,-0.941352057797624,0.0039381568507320525,-0.056977893917276104,-0.030510635324232684,0.06239009836842222,0.1863184296593696,-0.04141627158082789,0.2486160695552826,-2.053532600402832,-1.4545352458953855,-0.1341549605131149,0.4321443438529968,-0.1985389292240142
1749042916.2547946,4.505704514557153,-0.9554939541205126,1.0007306496845458,3.3257039559399253,-0.7893186313621254,-0.9414334207032026,0.0037815368860244095,-0.0571469108368875,-0.030773479254774885,0.0625132401384784,0.18726318390830593,-0.041646824013241754,0.2632395327091217,-2.0680418014526367,-1.4367940425872805,-0.1389283388853073,0.4329259395599365,-0.2094188034534454
1749042916.2548363,4.505711928844857,-0.9556107518589457,1.0006655867796914,3.3258243019001177,-0.7889428718451325,-0.941515290944042,0.003636075287793813,-0.057411804880253325,-0.031026473283735943,0.06254046668101568,0.1881147047151033,-0.0418710560390317,0.2675729393959045,-2.0642313957214355,-1.4468456506729126,-0.1589389145374298,0.4029364585876465,-0.2008982896804809
1749042916.2548742,4.505719554688608,-0.9557281333931986,1.000600573368081,3.3259455752857363,-0.7885637604871303,-0.9415978144200368,0.003504817166636518,-0.057766811452855844,-0.03126628945808146,0.062493140281718894,0.18888985141392015,-0.04208724459977916,0.2613123059272766,-2.054227352142334,-1.457895278930664,-0.1459262818098068,0.4317798614501953,-0.2314303666353225
1749042916.2549114,4.505727407910767,-0.9558462140367442,1.0005357567818989,3.3260676989417943,-0.7881816742946706,-0.9416810995953226,0.003390539065921522,-0.05819956588944231,-0.03149106136302859,0.06239410749861168,0.18960786474190572,-0.042292984450316894,0.2502326071262359,-2.042269229888916,-1.4360356330871582,-0.1460534781217575,0.40192312002182,-0.2234638929367065
1749042916.254948,4.505735474102747,-0.9559650681710704,1.0004712603182038,3.3261905579068882,-0.7877970974172596,-0.9417652029085776,0.003295752331767655,-0.05869231026319138,-0.03170046272591667,0.06226646818696323,0.19028920647805891,-0.04248573586837522,0.2398668527603149,-2.032697916030884,-1.4227200746536257,-0.137517899274826,0.4163538515567779,-0.2092754393815994
1749042916.254984,4.505743708752926,-0.9560847190142112,1.000407177269408,3.32631400869426,-0.7874105843582765,-0.9418501205523103,0.0032226069828167536,-0.05922342624058653,-0.03189559931193072,0.06213235266544982,0.19095435225933735,-0.042663480394904175,0.244097352027893,-2.051874876022339,-1.441023349761963,-0.134609043598175,0.4190477728843689,-0.2132419645786285
1749042916.2550206,4.505752039371491,-0.9562051341719574,1.0003435652148958,3.3264378910508574,-0.7870227154962591,-0.941935787596926,0.0031726994947942505,-0.059769222693691705,-0.03207875002131829,0.06201177646174375,0.1916226611155518,-0.04282536652671496,0.2746195793151855,-2.0319411754608154,-1.4406371116638184,-0.1330354362726211,0.4380392432212829,-0.1988730430603027
1749042916.2551298,4.505760369658071,-0.9563262287283586,1.0002804399510425,3.3265620412214187,-0.786634047286373,-0.9420220848299794,0.0031468247407166073,-0.06030591632079724,-0.032253024260109515,0.06192165802479558,0.19231143183936442,-0.04297221682916089,0.2619869112968445,-2.0386297702789307,-1.423720121383667,-0.1399304866790771,0.43198162317276,-0.2004932165145874
1749042916.256517,4.505768585751411,-0.9564478761835465,1.000217769334685,3.326686305991352,-0.7862450605678941,-0.9421088528263091,0.0031447384305376106,-0.06081171975408487,-0.03242200831631978,0.06187506469750209,0.19303519888259835,-0.04310678560324059,0.244564801454544,-2.027000665664673,-1.422623634338379,-0.1229469329118728,0.4142073094844818,-0.2014190852642059
1749042916.2996771,4.505776564508183,-0.9565699259696993,1.0001554684250298,3.326810556476617,-0.7858561120258359,-0.9421959117320944,0.0031649999356227736,-0.06126890338888636,-0.032589450998711765,0.06188071949367309,0.19380524053217474,-0.04323369146636382,0.2577661275863647,-2.0280680656433105,-1.4389467239379885,-0.1563940495252609,0.4157429337501526,-0.2000748068094253
1749042916.299724,4.50578418353673,-0.9566922250376378,1.000093398123464,3.326934700002142,-0.7854673956982796,-0.9422830842005833,0.0032049446658654886,-0.06166564163830609,-0.032759006312929294,0.06194278270835688,0.1946292217927376,-0.04335900698368498,0.2541029155254364,-2.016822338104248,-1.4334343671798706,-0.1395931541919708,0.4117926955223083,-0.2186580151319503
1749042916.2997656,4.505791332509324,-0.9568146403150223,1.0000313696477172,3.327058687944851,-0.7850789224239102,-0.9423702180883923,0.003260801363609877,-0.06199741109716636,-0.03293402705367223,0.0620609283804063,0.1955109151712551,-0.04348957052809579,0.2541029155254364,-2.016822338104248,-1.4334343671798706,-0.1395931541919708,0.4117926955223083,-0.2186580151319503
1749042916.2998054,4.505797925087614,-0.9569370788620409,0.9999691563269744,3.3271825177578065,-0.7846905233759052,-0.9424572053818148,0.0033279387258966023,-0.06226770521624957,-0.03311739495488206,0.06223075237702741,0.19645001840195342,-0.04363216524253076,0.2422086000442505,-2.015169620513916,-1.4413939714431765,-0.1383894681930542,0.4206911623477936,-0.2054535150527954
1749042916.2998445,4.505803910392201,-0.9570595033946,0.9999065123008665,3.3273062288836655,-0.7843018782485871,-0.9425439947228759,0.0034012069238637606,-0.06248789341288595,-0.03331138007217929,0.06244454242669795,0.19744216153112837,-0.04379273953962807,0.2634584307670593,-2.0109829902648926,-1.445122241973877,-0.1294828802347183,0.4406769871711731,-0.1982318460941314
1749042916.2998834,4.50580928233375,-0.9571819420206602,0.9998431953991591,3.327429894230071,-0.783912561468077,-0.9426305964369224,0.0034753324144659987,-0.06267617893326678,-0.0335175377466647,0.06269238512463805,0.19847922482870914,-0.04397580614065057,0.2541364431381225,-2.028031826019287,-1.4347341060638428,-0.1460669040679931,0.4134919643402099,-0.2004043608903885
1749042916.2999218,4.50581408475664,-0.9573044917972663,0.9997789899833569,3.327553609987453,-0.7835220953042432,-0.942717080271417,0.0035453247236270427,-0.06285575932412539,-0.03373666314200647,0.06296349422586192,0.1995500684732416,-0.04418408469772852,0.2470329701900482,-2.0529141426086426,-1.4685996770858765,-0.1592549085617065,0.4375150799751282,-0.2173993587493896
1749042916.2999597,4.505818410662786,-0.9574273160491116,0.9997137255763267,3.327677486240516,-0.7831299989778873,-0.9428035668150511,0.003606858776617813,-0.06305241574711873,-0.033968821884070376,0.06324756456917476,0.20064171167845787,-0.04441839355029771,0.2632836997509002,-2.054572582244873,-1.448676347732544,-0.1568367481231689,0.4313926696777344,-0.2031559348106384
1749042916.299997,4.505822394758169,-0.9575506357932219,0.9996472883468407,3.3278016396886247,-0.7827358261000056,-0.9428902141188186,0.00365660385048171,-0.06329182290931847,-0.03421346251357729,0.06353593042936156,0.20174089735682174,-0.044677767915256315,0.2605118155479431,-2.0783281326293945,-1.4492210149765017,-0.1692141592502594,0.4194272756576538,-0.2291789501905441
1749042916.3000352,4.505826199905145,-0.9576747161409199,0.9995796241619967,3.3279261887414515,-0.7823391865424731,-0.9429772016282071,0.00369247743778863,-0.06359687884014235,-0.03446959956180078,0.06382234993459944,0.20283585686745523,-0.04495977160264281,0.2525035440921783,-2.046400308609009,-1.4484270811080933,-0.1531436443328857,0.4038233458995819,-0.2219887226819992
1749042916.3000731,4.505829999441859,-0.9577998489206312,0.999510733519551,3.328051250638095,-0.7819397521066325,-0.9430647139285389,0.003713806815662602,-0.06398532116342054,-0.034736041353532504,0.06410332858150225,0.20391799199205532,-0.04526095817600234,0.2705601155757904,-2.0666003227233887,-1.4421727657318115,-0.1756750047206878,0.3780401945114136,-0.2006388008594513
1749042916.30011,4.505833958292422,-0.9579263330073688,0.9994406600815238,3.3281769399543095,-0.7815372482273164,-0.9431529266868689,0.0037213835003364155,-0.06446784872639881,-0.03501162866123496,0.0643779973031983,0.2049831685684677,-0.04557742034321529,0.2452801167964935,-2.0992393493652344,-1.4540197849273682,-0.1849434673786163,0.4028485715389251,-0.2152587324380874
1749042916.300147,4.505838215898337,-0.958054454085869,0.9993694755357047,3.3283033677735254,-0.7811314364170038,-0.9432419965029697,0.003717399716582038,-0.06504691899406254,-0.035295451137622356,0.06464764324089603,0.2060323889291375,-0.04590535163134624,0.2734354436397552,-2.072021245956421,-1.4458905458450315,-0.1486092209815979,0.3968229591846466,-0.2036714106798172
1749042916.300184,4.505842873250944,-0.9581844656281591,0.9992972638314831,3.328430640827279,-0.7807220937259769,-0.9433320553208662,0.0037052653525757352,-0.06571633691694692,-0.035587016501827766,0.06491504369470444,0.20707175050512203,-0.04624154315567555,0.2637883722782135,-2.0606651306152344,-1.4581016302108765,-0.1569779515266418,0.4086012244224548,-0.2120634019374847
1749042916.3002214,4.505847985212707,-0.9583165724768551,0.9992241074267556,3.3285588600088785,-0.7803089957317112,-0.9434232088368366,0.00368931873470609,-0.06646168252040291,-0.035886358949983314,0.06518377673240422,0.2081117456455071,-0.046583754796258064,0.2777095735073089,-2.0852837562561035,-1.450649619102478,-0.1390148103237152,0.4248104691505432,-0.213070198893547
1749042916.3002586,4.50585355848295,-0.9584509177129923,0.9991500773290479,3.3286881178270433,-0.779891908558149,-0.9435155373503112,0.003674459586259334,-0.06726155181313077,-0.03619408351071854,0.06545767120249132,0.20916605853275308,-0.046930928204680124,0.2382875978946685,-2.0745527744293213,-1.4704071283340454,-0.1709806621074676,0.4361819624900818,-0.2131446450948715
1749042916.3002954,4.505859555190917,-0.9585875729157456,0.9990752277585113,3.3288184946223613,-0.7794705935340196,-0.9436090971982867,0.0036657402702818228,-0.06808951846007857,-0.03651134753761547,0.06574050483424206,0.21025004858741178,-0.0472832370293481,0.2912276685237884,-2.0536088943481445,-1.4513211250305176,-0.162117525935173,0.4267672002315521,-0.2088375389575958
1749042916.3003323,4.505865901896192,-0.9587265318382886,0.9989995953463443,3.3289500537054315,-0.7790448256070498,-0.9437039214387559,0.0036679493186207914,-0.06891665569492607,-0.03683977795505787,0.06603597071289558,0.21137909270953312,-0.04764198894385908,0.2758103013038635,-2.06646990776062,-1.4435224533081057,-0.1557254046201706,0.4070788025856018,-0.2161711752414703
1749042916.3003745,4.505872503302161,-0.9588677078085746,0.9989232019667388,3.329082835950268,-0.7786144237588404,-0.9438000194178429,0.0036852143202652544,-0.06971438729931073,-0.0371813171372442,0.06634785013238922,0.21256692951051415,-0.048009403017365435,0.2800236642360687,-2.053832769393921,-1.460399150848389,-0.1593834608793258,0.414247989654541,-0.2126682102680206
1749042916.3004134,4.505879259115137,-0.9590109354254402,0.9988460597831111,3.3292168547654404,-0.7781792887569364,-0.9438973756967135,0.003720646671620833,-0.07045737982018514,-0.037537987260803804,0.06668029399925694,0.2138241400924584,-0.04838828788281874,0.2896678447723388,-2.01409649848938,-1.4659249782562256,-0.1244578883051872,0.4239037334918976,-0.2202492952346801
1749042916.3005753,4.505886081585693,-0.9591559771610607,0.998768177091571,3.3293520926947413,-0.7777394411277703,-0.9439959492917942,0.0037760512139172545,-0.07112616193116433,-0.03791156619978618,0.06703812215990249,0.21515691453734645,-0.0487816444031847,0.2917814552783966,-2.046172618865967,-1.435408592224121,-0.1463997662067413,0.4199037253856659,-0.2193398177623748
1749042916.3006494,4.505892910878672,-0.9593025353720472,0.9986895639631727,3.329488501035672,-0.777295050827649,-0.9440956744018738,0.0038517259914654764,-0.07170916402353622,-0.038303179449897695,0.06742706171800668,0.21656626510996194,-0.04919221289935345,0.3067657649517059,-1.9969993829727173,-1.4190032482147217,-0.1514540314674377,0.431038498878479,-0.2018370926380157
1749042916.3425343,4.505899725709755,-0.9594502700245077,0.9986102370882227,3.3296260037589036,-0.776846450253923,-0.9441964637848097,0.003946374929429265,-0.07220391352523334,-0.03871283572331282,0.06785384249229469,0.21804782482050986,-0.04962198390994821,0.283148318529129,-1.994947910308838,-1.4491937160491943,-0.1330140680074691,0.4364843368530273,-0.212283581495285
1749042916.342584,4.505906547499719,-0.9595988221081422,0.9985302232880966,3.3297645066763333,-0.7763941241018836,-0.9442982155633457,0.004057146157986979,-0.07261720865370144,-0.03913896977105885,0.06832607343476911,0.2195922991519646,-0.05007170298555916,0.2871226966381073,-2.0222346782684326,-1.452729344367981,-0.1272356212139129,0.4270167052745819,-0.2122752815485
1749042916.342626,4.505913437462528,-0.9597478422042756,0.9984495609875933,3.3299039121177993,-0.7759386727773728,-0.9444008235098872,0.004179795524377925,-0.07296422657327077,-0.03957809114833205,0.06885186071497158,0.22118653586282178,-0.05054042882572251,0.2889973521232605,-2.0256893634796143,-1.4426021575927734,-0.126365527510643,0.4253771603107452,-0.2270692437887191
1749042916.342666,4.5059204873516014,-0.959897022868505,0.9983682989048567,3.33004413821432,-0.7754807501819215,-0.9445041900218397,0.004308965913361174,-0.07326667472280614,-0.040024645303319215,0.06943917554331278,0.2228150805790571,-0.05102523355546448,0.2974640727043152,-2.0276570320129395,-1.4447025060653689,-0.1380743533372879,0.4254530072212219,-0.2111856341361999
1749042916.3427198,4.505927805665215,-0.9600461321888354,0.9982864916163898,3.330185140435455,-0.7750209815391381,-0.9446082401782019,0.004438569168445813,-0.07355022549803929,-0.040471159331443525,0.0700950002935341,0.2244620191859201,-0.051521133479471515,0.2963937222957611,-2.048699140548706,-1.4194902181625366,-0.1335049718618393,0.4013215601444244,-0.211049199104309
1749042916.342775,4.505935501653503,-0.9601950441540067,0.998204192533253,3.3303269317098056,-0.7745598723777399,-0.9447129344577428,0.004562252159282358,-0.07384155891388848,-0.04090868678434309,0.07082427840036494,0.22611286725420135,-0.05202129367744465,0.2949295043945312,-2.054497718811035,-1.4426023960113523,-0.1358835399150848,0.4067244529724121,-0.2233990877866745
1749042916.3428166,4.505943669506965,-0.9603437600386038,0.9981214458751226,3.330469596747705,-0.7740977246204723,-0.9448182771475153,0.004673917354536197,-0.07416536799045746,-0.041327515622333034,0.07162871211166641,0.2277562464915636,-0.052517479747287016,0.2949295043945312,-2.054497718811035,-1.4426023960113523,-0.1358835399150848,0.4067244529724121,-0.2233990877866745
1749042916.3428557,4.5059523749010255,-0.9604924151816606,0.9980382798148142,3.3306132966484876,-0.7736345770070133,-0.9449243177656407,0.0047682542808561565,-0.07454165806871604,-0.04171807081444994,0.07250552331007706,0.22938510814552124,-0.05300067219234829,0.3046419322490692,-2.100032091140747,-1.4252530336380005,-0.1209943443536758,0.4269370436668396,-0.1976658999919891
1749042916.3428936,4.505961645759908,-0.960641268204874,0.9979547025698574,3.3307582617564644,-0.7731701823510062,-0.9450311442395303,0.004841227816004902,-0.07498360716366763,-0.04207191223039428,0.07344638988775319,0.23099733933261044,-0.05346173822590764,0.2743603587150574,-2.068589448928833,-1.3987199068069458,-0.1117902100086212,0.4275248348712921,-0.2004950493574142
1749042916.3429315,4.505971468505118,-0.9607906739658574,0.9978707020923496,3.330904773298768,-0.7727040251588225,-0.9451388684874157,0.0048904662849746875,-0.07549617523475555,-0.04238269128962169,0.07443682583538286,0.23259569196477617,-0.05389207328991521,0.2843755483627319,-2.091945171356201,-1.4078245162963867,-0.1397381275892257,0.4564751386642456,-0.1979985386133194
1749042916.3429692,4.505981790017814,-0.9609410449265275,0.9977862490143686,3.3310531363242477,-0.7722353750441845,-0.9452476064736671,0.004915498503153426,-0.0760755776905052,-0.042646909247629664,0.07545623620919491,0.23418705580377552,-0.05428416792598648,0.2718463540077209,-2.0522501468658447,-1.3878278732299805,-0.1402870565652847,0.4050946235656738,-0.1886450052261352
1749042916.343006,4.5059925244082635,-0.9610928066038817,0.9977013021903768,3.3312036472666295,-0.7717633673054871,-0.9453574555076812,0.0049178051444176375,-0.07670967831481523,-0.042864344138921574,0.07647875799820612,0.23578114589171137,-0.05463210475083027,0.2955905199050903,-2.108120918273926,-1.4054999351501465,-0.1459135860204696,0.4210202395915985,-0.2048765569925308
1749042916.343043,4.50600356297812,-0.961246352099355,0.9976158163599792,3.3313565594402266,-0.7712871009702701,-0.9454684719727022,0.004900674279405562,-0.07737929827737795,-0.04303807728643648,0.0774748509646984,0.2373887235191284,-0.05493201622768615,0.2774220108985901,-2.06065034866333,-1.3850831985473633,-0.1436163187026977,0.4224569797515869,-0.2060542106628418
1749042916.3430808,4.506014785584874,-0.9614019999370141,0.9975297515761042,3.331512049572106,-0.7708057442925939,-0.9455806529544379,0.004868878143108763,-0.07806036346289127,-0.043174119679482335,0.07841348053659054,0.2390195463374476,-0.055182513387248326,0.2960248589515686,-2.0619168281555176,-1.3682230710983276,-0.14106385409832,0.4195657670497894,-0.1840776354074478
1749042916.3431177,4.506026071773386,-0.9615599591065137,0.9974430836477897,3.331670188416018,-0.7703186372788847,-0.9456939249748183,0.004828212213193701,-0.07872671520180584,-0.043280687566127754,0.07926465659421801,0.24068032917228543,-0.05538503751240724,0.2770488262176513,-2.077043056488037,-1.358790397644043,-0.1399802267551422,0.4434967041015625,-0.1721333712339401
1749042916.343155,4.50603731044388,-0.9617203047774946,0.9973558140086187,3.3318309185557733,-0.7698253806889835,-0.9458081419343797,0.004784954484392767,-0.07935330108894872,-0.04336721020139528,0.08000205721568152,0.24237304012436942,-0.05554403348995838,0.2974368929862976,-2.081028461456299,-1.4027440547943115,-0.1629319190979004,0.4750390648841858,-0.184921383857727
1749042916.3431916,4.506048407412675,-0.9618829672136768,0.9972679768092195,3.3319940425135237,-0.7693259014787099,-0.9459230927564246,0.0047453093098014315,-0.07991936247006196,-0.04344318895135637,0.08060547355352655,0.2440938157740892,-0.05566683597478286,0.3014269471168518,-2.0150516033172607,-1.389888048171997,-0.1508765965700149,0.4487977027893066,-0.1860625296831131
1749042916.3432288,4.506059290779251,-0.9620477352129969,0.9971796412847838,3.3321592240441267,-0.7688204858673905,-0.9460385177432518,0.004714894593480807,-0.08041116611266981,-0.04351706291559715,0.08106285164374061,0.24583266316746297,-0.0557632043134352,0.3014269471168518,-2.0150516033172607,-1.389888048171997,-0.1508765965700149,0.4487977027893066,-0.1860625296831131
1749042916.3432696,4.506069914348731,-0.9622142741522912,0.9970909086436154,3.332326004638641,-0.7683097737210313,-0.9461541315908234,0.00469831618182252,-0.08082382657656977,-0.043595243722733844,0.08137175204419379,0.24757397522480964,-0.05584451621403283,0.2867449522018432,-2.006026029586792,-1.3693480491638184,-0.1616442650556564,0.4122154116630554,-0.1961448788642883
1749042916.3433075,4.506080259430476,-0.9623821570361105,0.9970019044628798,3.332493835256827,-0.7677947129615924,-0.9462696501360232,0.004698856468875137,-0.08116187466157325,-0.04368144477336649,0.08154007133094057,0.2492977711232857,-0.055922706315062076,0.2867449522018432,-2.006026029586792,-1.3693480491638184,-0.1616442650556564,0.4122154116630554,-0.1961448788642883
1749042916.343424,4.506090335226523,-0.9625509048423473,0.9969127690404286,3.3326621204079974,-0.7672764795427859,-0.9463848171970934,0.004718292494277298,-0.081438447323758,-0.04377637200933069,0.08158587619578564,0.2509815082383905,-0.05600909467247272,0.2821892499923706,-2.0307183265686035,-1.3827483654022217,-0.2001162022352218,0.4459808468818664,-0.1996561139822006
1749042916.3445828,4.5061001778791585,-0.9627200311547479,0.9968236482626167,3.3328302693275242,-0.7667563734090458,-0.9464994279570975,0.004756852824896008,-0.08167324141636956,-0.043877804259729494,0.08153623620026795,0.25260229462172895,-0.056113277114658966,0.2838331460952759,-2.0560433864593506,-1.402898192405701,-0.1616349667310714,0.4467742443084717,-0.1943742781877517
1749042916.386557,4.506109848104246,-0.9628890863673429,0.9967346860741133,3.3329977482125774,-0.7662357016110983,-0.94661334653918,0.0048133157644842375,-0.08188959494860565,-0.04398107666794821,0.08142505080966791,0.2541393279585414,-0.0562422365911443,0.2772791981697082,-2.0557568073272705,-1.3660845756530762,-0.1694695502519607,0.4475968480110168,-0.2105967402458191
1749042916.3866367,4.506119427083092,-0.9630576974752177,0.9966460178249591,3.3331641276581094,-0.7657156592628968,-0.9467265168175907,0.004885236357466448,-0.08211117522179412,-0.044079954710967574,0.08129004545615091,0.2555763462238714,-0.05639978719325854,0.280375063419342,-2.0394060611724854,-1.374281883239746,-0.1449370384216308,0.3930920660495758,-0.197443276643753
1749042916.3867064,4.506129009976823,-0.9632255994411817,0.9965577630163441,3.3333291196347052,-0.7651972201950209,-0.9468389661646625,0.00496926684046054,-0.08235876337705178,-0.044167823011988294,0.08116929302525815,0.256903782113982,-0.05658639739566602,0.280375063419342,-2.0394060611724854,-1.374281883239746,-0.1449370384216308,0.3930920660495758,-0.197443276643753
1749042916.386751,4.506138696529815,-0.9633926543183801,0.9964700163645545,3.33349259911413,-0.764681049714529,-0.9469508021492438,0.005061515864935009,-0.08264756679947859,-0.04423903248914303,0.08109771732104655,0.25812023447404614,-0.056799377652292524,0.2767854630947113,-2.083325147628784,-1.3872687816619873,-0.1349943429231643,0.408216118812561,-0.1984853893518448
1749042916.3867917,4.50614857911563,-0.9635588562564905,0.9963828369899671,3.3336546078410354,-0.7641674482357194,-0.9470622030236203,0.00515788817397023,-0.08298539377438843,-0.04429018965232257,0.08110401772501616,0.25923290600572196,-0.05703337634835915,0.2585187554359436,-1.991567850112915,-1.333261251449585,-0.1438381224870681,0.4068773984909057,-0.2084020972251892
1749042916.3868318,4.506158729845657,-0.9637243235552466,0.9962962366620145,3.3338153411990374,-0.763656328258448,-0.9471734038714442,0.0052543602871206055,-0.08337189706065196,-0.04432115301084911,0.08120835247672606,0.260256845695115,-0.05728111030273663,0.2782283723354339,-2.0493226051330566,-1.3452527523040771,-0.1026501953601837,0.4217499494552612,-0.2269269824028015
1749042916.386871,4.506169189133308,-0.9638892807078935,0.996210169403913,3.333975121638511,-0.7631472234269255,-0.9472846804374402,0.005347171156285596,-0.08379894714593292,-0.04433552937668906,0.0814209906252751,0.26121311193379143,-0.05753425115717932,0.280051052570343,-2.00392746925354,-1.347003936767578,-0.1276705116033554,0.4405728578567505,-0.1939956843852996
1749042916.3869104,4.506179957999398,-0.9640540329446171,0.9961245258500421,3.334134362753123,-0.7626393288455502,-0.9473963316993793,0.005432931436691693,-0.08425205690921425,-0.04434053995758684,0.0817420194623424,0.26212621774785555,-0.057784384900288865,0.280051052570343,-2.00392746925354,-1.347003936767578,-0.1276705116033554,0.4405728578567505,-0.1939956843852996
1749042916.3869495,4.5061909957183195,-0.9642189347887744,0.9960391355576358,3.334293527899753,-0.7621315723680562,-0.9475086613095624,0.005508676091826368,-0.08471265966959453,-0.04434624074982365,0.08216207456570716,0.26302133879228917,-0.05802395557003673,0.2701659798622131,-1.995144248008728,-1.3606388568878174,-0.1164120882749557,0.4516894817352295,-0.2020738422870636
1749042916.3869877,4.5062022234912895,-0.964384354576384,0.9959537786003647,3.3344530875782357,-0.7616227131344552,-0.9476219581982214,0.005571896762193453,-0.08516093559763582,-0.04436420341952766,0.08266395084185532,0.2639217381189881,-0.05824710209238078,0.2681832313537597,-1.9877872467041016,-1.3639682531356812,-0.1205018162727356,0.411325454711914,-0.2158963233232498
1749042916.387025,4.506213533801153,-0.9645506385224383,0.9958682051231321,3.334613480321518,-0.7611114575832524,-0.9477364775602382,0.005620587056881329,-0.0855787905321121,-0.0444058610889212,0.08322487668506258,0.2648467337021767,-0.05845030601026461,0.2914413809776306,-1.9478257894515991,-1.3576979637145996,-0.1182151362299919,0.4229697287082672,-0.2180552780628204
1749042916.387063,4.506224804097971,-0.9647180788409332,0.9957821596098724,3.3347750814171406,-0.7605965791931327,-0.9478524239323024,0.005653318060896539,-0.08595254505213884,-0.044480782188705305,0.08381919503010209,0.26581037787291056,-0.05863278803692805,0.2868983149528503,-1.9581010341644287,-1.373505473136902,-0.136598914861679,0.4234813749790191,-0.2098509818315506
1749042916.3871005,4.506235912728399,-0.9648868897142893,0.995695406089878,3.334938182197348,-0.760077028451971,-0.9479699376199971,0.005669342348094534,-0.08627492265019092,-0.0445951494729889,0.08442117801363379,0.2668208979737677,-0.058796618161250785,0.2487584501504898,-1.9786434173583984,-1.3902273178100586,-0.149957850575447,0.4262726902961731,-0.1950436681509018
1749042916.387143,4.506246754668614,-0.9650571933496819,0.9956077509498598,3.335102980734432,-0.7595520224053389,-0.9480890850394018,0.005668708530898308,-0.08654604074199257,-0.04475068995613035,0.08500769289641155,0.2678808863323677,-0.058946532241709454,0.251309871673584,-1.9826840162277224,-1.3732126951217651,-0.1802623569965362,0.4562616348266601,-0.2122787237167358
1749042916.3871808,4.506257254682595,-0.9652290168379871,0.995519060781473,3.335269583164506,-0.759021106465714,-0.9482098533755542,0.005652355400532819,-0.08677327972385102,-0.04494423092852111,0.08556044127475719,0.2689881873058036,-0.059089473807025394,0.2764256596565246,-1.992037773132324,-1.3874764442443848,-0.1695438921451568,0.4531939625740051,-0.2103537619113922
1749042916.3872182,4.5062673761137875,-0.9654022991324526,0.9954292735586412,3.335438013587453,-0.7584841842014308,-0.9483321502386619,0.0056221479566981565,-0.0869700888376417,-0.04516796062486042,0.0860675277951865,0.2701373564164447,-0.05923390135753304,0.2587217092514038,-1.9773095846176147,-1.3929132223129272,-0.1681695282459259,0.4541836380958557,-0.215680330991745
1749042916.387267,4.506277124565059,-0.9655769061484695,0.9953384024032674,3.3356082295658407,-0.757941513616155,-0.9484558090871076,0.0055808215695340715,-0.0871539472450402,-0.045410365834208405,0.0865241884289123,0.2713214591718061,-0.05938892288914794,0.2675565481185913,-2.001439094543457,-1.3805012702941897,-0.1587881296873092,0.4558448195457458,-0.2046875655651092
1749042916.3873096,4.506286546738723,-0.9657526510496319,0.9952465321147795,3.3357801398330778,-0.7573936710815821,-0.9485806008286526,0.00553181443979424,-0.08734381804246784,-0.04565771799745826,0.08693261402160184,0.2725338950170607,-0.059563348100539724,0.259361058473587,-2.035730600357056,-1.393673539161682,-0.1766753494739532,0.4447767734527588,-0.2405260056257248
1749042916.3873477,4.50629572518878,-0.9659293165379116,0.9951538092743922,3.3359536211002525,-0.7568414865415745,-0.9487062515007348,0.0054789891969015125,-0.08755750381928633,-0.04589589765420779,0.08730092183681885,0.27376993714812003,-0.05976478027305377,0.2555892765522003,-2.029114246368408,-1.3795405626296997,-0.1702480018138885,0.4307840466499328,-0.2123295366764068
1749042916.387389,4.506304769698631,-0.9661066764742146,0.9950604270314182,3.3361285318640346,-0.7562859556255563,-0.9488324654992724,0.005426270244215908,-0.0878093221028251,-0.04611229639824611,0.08764143434102818,0.2750277700953556,-0.0599988799284291,0.2598395347595215,-2.022582769393921,-1.3658593893051147,-0.1754641830921173,0.4584118127822876,-0.2186878621578216
