nimar13/UR3e_dataset_trayectorias/trayectorias_ejecutadas_filtradas/quintic_func/trayectoria_030_result_filtrado.csv
timestamp,q1,q2,q3,q4,q5,q6,qd1,qd2,qd3,qd4,qd5,qd6,tau1,tau2,tau3,tau4,tau5,tau6
1749040115.494364,-4.1831911373962525,-0.764653312737925,0.5347450169870779,5.354820256543268,-0.7244616184763212,5.28920565427763,-4.2064500396933554e-05,-0.00012179523624991812,-0.000265184157465478,-0.0008582569212208447,-8.798663994814072e-06,0.0009121719214474289,-0.1114156693220138,-1.5126348733901978,-1.1910327672958374,-0.2079060971736908,0.2073182612657547,0.0662934631109237
1749040115.4944108,-4.183181187695631,-0.7646535172177694,0.5347397803427595,5.354812630045446,-0.724453482126814,5.289200575477504,0.0008029555990378836,-0.00024873559652241825,-0.00025113409607904904,-0.0014103803262529432,4.137082075715996e-05,0.00012027552052812662,-0.1082781553268432,-1.501728892326355,-1.1735371351242063,-0.2211975753307342,0.2092906683683395,0.0487716197967529
1749040115.4944518,-4.183171144444791,-0.7646538691043956,0.5347348257014725,5.354805101131944,-0.7244456354050812,5.289195565422164,0.001625209270291562,-0.0003707971874042912,-0.00023671189233774703,-0.0019359960028305808,9.245993563017161e-05,-0.00065327776079924,-0.115431047976017,-1.5305391550064087,-1.182393193244934,-0.2144065499305725,0.219853326678276,0.0355211496353149
1749040115.4944916,-4.183160851996315,-0.7646544982215494,0.5347303730816698,5.354797731840948,-0.7244382803409,5.28919064463934,0.0023989559475122817,-0.00048241865587010435,-0.0002221685165598795,-0.0024103754745678804,0.00014484083027977072,-0.0013893732226983816,-0.0770778059959411,-1.5321720838546753,-1.1759132146835327,-0.2493759989738464,0.2168850898742675,0.038682609796524
1749040115.4945326,-4.183150167886942,-0.7646555050076076,0.534726601848279,5.35479058041404,-0.724431586355229,5.289185812681304,0.0031013084456005514,-0.0005788536994223878,-0.00020783007051544686,-0.002812844311930778,0.00019848528243855711,-0.002070369531650852,-0.0830205827951431,-1.5148969888687134,-1.1773159503936768,-0.2613122463226318,0.2225379645824432,0.0265532732009887
1749040115.4945705,-4.183138982780181,-0.7646569489418966,0.5347236364611362,5.354783699147153,-0.7244256830689568,5.2891810463082205,0.0037133105723813364,-0.0006564946019038934,-0.000194088336296041,-0.003128315817141128,0.00025285609187482256,-0.0026809182570991697,-0.0435317121446132,-1.5342174768447876,-1.168918251991272,-0.2497448921203613,0.2384196519851684,0.0286562740802764
1749040115.4946086,-4.183127239792428,-0.7646588416641517,0.5347215381267629,5.354777131975648,-0.7244206552906896,5.289176302216297,0.004220644985542885,-0.0007130687956834131,-0.00018138229941065372,-0.003348307164158775,0.0003068871197837952,-0.003208728605607748,-0.075512059032917,-1.5348329544067385,-1.1590920686721802,-0.2600753307342529,0.2330420613288879,0.0421418249607086
1749040115.4946463,-4.183114950529898,-0.7646611457725189,0.5347203028363723,5.354770911928721,-0.7244165401249708,5.289171523605384,0.004614011567064614,-0.000747693209058192,-0.00017016980583751595,-0.00347133983933837,0.00035905936829354774,-0.003645187119684026,-0.0761855691671371,-1.562414288520813,-1.174509882926941,-0.2679251432418823,0.234599769115448,0.0279884040355682
1749040115.494684,-4.183102204922358,-0.7646637794947969,0.5347198656845213,5.354765058783951,-0.7244133263115439,5.289166649251979,0.004889226325330887,-0.0007607938407810733,-0.00016088920287010494,-0.00350266878507774,0.00040756184315425835,-0.003985741842279126,-0.0794335156679153,-1.5511647462844849,-1.163962721824646,-0.2683656513690948,0.2293475270271301,0.0288397967815399
1749040115.4947217,-4.183089172445128,-0.7646666264701873,0.5347201107231105,5.3547595774149075,-0.7244109563368862,5.289161623688392,0.005047066604856812,-0.0007539165037275522,-0.0001539118527357122,-0.0034533537608146684,0.00045050723443145326,-0.004229993615653214,-0.0938429832458496,-1.558343529701233,-1.1485530138015747,-0.2806724011898041,0.2373832762241363,0.0074114501476287
1749040115.4947588,-4.1830760936060924,-0.7646695489839785,0.5347208849199815,5.354754457385626,-0.7244093321421043,5.289156407297709,0.005092867150884655,-0.0007294655696957674,-0.0001494877777165459,-0.0033387808083292308,0.00048616048886606766,-0.004381484648503007,-0.0801961421966552,-1.5745209455490112,-1.1584049463272097,-0.2719236016273498,0.2389415800571441,0.0208895802497863
1749040115.4947965,-4.183063262388396,-0.7646724024068542,0.534722014338383,5.354749674218795,-0.7244083249483645,5.289150985229488,0.0050358770866835425,-0.0006904117818657364,-0.0001476883214998125,-0.0031768322924231526,0.0005131386568882312,-0.004447213810121525,-0.0720321387052536,-1.5744467973709106,-1.1624737977981567,-0.2936835885047912,0.2361622154712677,0.0045043528079986
1749040115.4948342,-4.183051002094321,-0.7646750485009588,0.5347233206776214,5.354745192410712,-0.7244077887294819,5.289145373866907,0.004888417405929469,-0.0006400092694635865,-0.00014835145931414766,-0.0029859558465745784,0.0005305521853552597,-0.00443693049372748,-0.0720321387052536,-1.5744467973709106,-1.1624737977981567,-0.2936835885047912,0.2361622154712677,0.0045043528079986
1749040115.494872,-4.1830396380649955,-0.7646773657867662,0.5347246367360594,5.354740969789854,-0.7244075756214409,5.289139623386468,0.004664912539469716,-0.00058155602917788,-0.00015103705805958576,-0.0027833790789342995,0.0005380745270885028,-0.004362269752554152,-0.0798650085926055,-1.5431379079818726,-1.162694215774536,-0.2992976903915405,0.2376536726951599,0.0069355964660644
1749040115.4949093,-4.183029470689773,-0.7646792561994713,0.534725819815005,5.3547369624665535,-0.7244075508111321,5.289133815223871,0.004380889971486595,-0.0005182214115068936,-0.00015500069376656278,-0.002583664979180389,0.0005359418405625798,-0.004235798755703792,-0.0630551576614379,-1.5610288381576538,-1.141279935836792,-0.2911140024662018,0.2353142201900482,0.0083881914615631
1749040115.4949462,-4.183020751211341,-0.7646806483733096,0.5347267622879511,5.3547331296177045,-0.7244076045949328,5.289128054220048,0.004052041783004669,-0.00045295011471122433,-0.00015919518863950904,-0.0023977232264833213,0.000524894672507122,-0.004070050686077759,-0.0600262060761451,-1.5465260744094849,-1.1641541719436646,-0.2938005328178406,0.2429769337177276,0.0138770341873168
1749040115.494984,-4.183013661865324,-0.7646814985818637,0.5347273985441839,5.354729437664842,-0.7244076601106606,5.2891224565897925,0.0036934229740929075,-0.0003884378910281008,-0.0001623083989217562,-0.002232307974702787,0.0005060788186180373,-0.003876624343644988,-0.056468229740858,-1.515543818473816,-1.1723486185073853,-0.291980892419815,0.2332510948181152,0.0170403122901916
1749040115.4950218,-4.18300830153231,-0.7646817904088957,0.5347277075008973,5.354725863775591,-0.7244076762163202,5.289117136066389,0.003318828922877877,-0.0003271626009698006,-0.0001628436972264967,-0.00208996187970997,0.0004809238409267895,-0.0036654223675730365,-0.056468229740858,-1.515543818473816,-1.1723486185073853,-0.291980892419815,0.2332510948181152,0.0170403122901916
1749040115.4950593,-4.183004678173049,-0.7646815338179231,0.534727710104816,5.354722398803175,-0.724407645772335,5.289112191152032,0.0029403571214657274,-0.00027144689640969414,-0.00015924611662153162,-0.0019693215151718453,0.00045101596280660205,-0.0034440864137540803,-0.0389651469886302,-1.5417927503585815,-1.1699329614639282,-0.2970167994499206,0.2344622611999511,0.0225425213575363
1749040115.4950955,-4.183002709130896,-0.7646807638511499,0.5347274619067854,5.354719049740638,-0.7244075900765751,5.289107696147702,0.0025681288842552556,-0.00022352565364707898,-0.0001500725905642099,-0.0018656858454788362,0.00041797861557049855,-0.0032176660889696343,-0.0850172638893127,-1.540594220161438,-1.1620804071426392,-0.2835851609706878,0.220967411994934,0.0067202448844909
1749040115.4952009,-4.183002229590871,-0.7646795389916438,0.5347270417972454,5.35471584161771,-0.7244075504340285,5.289103697600848,0.0022101366682927798,-0.00018559184608865832,-0.00013419954147470082,-0.0017717629785134186,0.00038337017824778633,-0.002988537094999945,-0.06370410323143,-1.529748797416687,-1.1561154127120972,-0.2905367314815521,0.2308411002159118,0.0005558729171752
1749040115.4963129,-4.183003008469312,-0.7646779391667267,0.5347265388401999,5.3547128185814925,-0.7244075779378848,5.289100216258292,0.001872193748776369,-0.0001597985863186378,-0.0001110556571791291,-0.0016785389166468281,0.00034860516040770403,-0.0027565708830200823,-0.0794847533106803,-1.5236941576004028,-1.1661558151245115,-0.2991601824760437,0.2277146875858307,0.0005300641059875
1749040115.5423355,-4.183004770125233,-0.7646760631687767,0.5347260393855093,5.354710043660413,-0.7244077226538476,5.289097253095839,0.0015579832161230426,-0.00014820228943523465,-8.086250351991264e-05,-0.0015762405119661494,0.00031490207252146804,-0.0025195544508518158,-0.0794847533106803,-1.5236941576004028,-1.1661558151245115,-0.2991601824760437,0.2277146875858307,0.0005300641059875
1749040115.5424027,-4.183007219464869,-0.7646740249032355,0.534725616290043,5.354707596465312,-0.7244080235834186,5.2890947972030435,0.0012692149078213039,-0.00015264164449328097,-4.486118077067675e-05,-0.0014553811387091075,0.00028325807582415955,-0.0022738567740590364,-0.0871737971901893,-1.5007468461990356,-1.166248083114624,-0.2875983119010925,0.2162796258926391,0.0014214217662811
1749040115.5424612,-4.183010067316709,-0.7646719477252831,0.534725321423272,5.3547055680653655,-0.7244085008912274,5.289092833445882,0.0010058926619804904,-0.0001745583914268286,-5.500155679756516e-06,-0.00130787610412817,0.0002544472051431817,-0.002015327665018887,-0.0811678171157836,-1.5221614837646484,-1.165350079536438,-0.2713996469974518,0.216991126537323,-0.0012142658233642
1749040115.5425034,-4.183013052864095,-0.7646699564929388,0.5347251818861103,5.354704052688032,-0.7244091516985668,5.289091348325712,0.0007666748843023411,-0.00021477780353900788,3.3441632346643696e-05,-0.0011281979204077887,0.00022903606725831858,-0.0017403923321205068,-0.0982342362403869,-1.517435908317566,-1.1659656763076782,-0.2878482341766357,0.2224583923816681,0.0129803121089935
1749040115.5425427,-4.183015960768442,-0.7646681676912325,0.5347251996757517,5.354703136571323,-0.7244099501737481,5.289090332635943,0.0005492903070250323,-0.00027327818095810506,6.682063138458662e-05,-0.0009145170101679831,0.00020740909127882045,-0.0014472750248986366,-0.0875771045684814,-1.490647792816162,-1.1752067804336548,-0.2773204445838928,0.2186939120292663,-0.0006784200668334
1749040115.5425808,-4.1830186320336065,-0.7646666787580613,0.534725354028449,5.354702884858498,-0.7244108517649679,5.289089779601739,0.0003509565510997836,-0.00034898812104634114,8.820289381408836e-05,-0.0006697486476489377,0.00018979495962133245,-0.0011372546379025256,-0.0744131654500961,-1.5048621892929075,-1.1848697662353516,-0.2943451702594757,0.2188364267349243,0.0115773081779479
1749040115.542622,-4.183020968824436,-0.7646655583564038,0.5347256054247626,5.3547033277054465,-0.7244118004572019,5.289089677940594,0.00016874499805688271,-0.000439655930649298,9.005778804094875e-05,-0.0004024059888632175,0.00017628670597234493,-0.0008158292110518744,-0.0850184559822082,-1.542096495628357,-1.1767064332962036,-0.2790347635746002,0.2152148783206939,0.0089433789253234
1749040115.542661,-4.183022933845241,-0.7646648395491877,0.534725900162142,5.354704446883978,-0.7244127373019845,5.289090000808063,-1.5771224475522775e-07,-0.0005418351536650406,6.407089009457553e-05,-0.0001271444170492735,0.00016684988953189503,-0.0004936487424135273,-0.1156953796744346,-1.5898867845535278,-1.2256008386611938,-0.2721496820449829,0.1919181644916534,0.0134815275669097
1749040115.542699,-4.183024544761675,-0.7646645174344693,0.5347261743855352,5.354706164173514,-0.7244136085160336,5.289090693071144,-0.0001583241632142223,-0.0006510220093985151,1.5619298878612183e-06,0.0001351223131590817,0.00016131596763501217,-0.0001870701791511001,-0.1156953796744346,-1.5898867845535278,-1.2256008386611938,-0.2721496820449829,0.1919181644916534,0.0134815275669097
1749040115.5427384,-4.183025864175204,-0.7646645519024899,0.5347263565619649,5.3547083326895,-0.7244143720077257,5.289091659928714,-0.00030810502316578193,-0.0007619635146001552,-0.00010602074160610167,0.00035764411939169825,0.00015936118350546482,8.180192767362874e-05,-0.1400390565395355,-1.610024094581604,-1.2321511507034302,-0.2731751501560211,0.1793476343154907,0.0108680725097656
1749040115.5427787,-4.183026986140956,-0.7646648751889382,0.5347263677435106,5.354710732070078,-0.724415001676768,5.289092759364711,-0.0004517742055125601,-0.0008691288346096113,-0.00026657008682574797,0.0005088775960947897,0.00016047465000099508,0.00028569869449471003,-0.1418088376522064,-1.6312063932418823,-1.2522680759429932,-0.2646136283874511,0.1651433110237121,0.0212773382663726
1749040115.5428154,-4.183028020847491,-0.7646654031459432,0.5347261196223467,5.3547130682940915,-0.7244154889606562,5.2890937996629654,-0.0005917564185925713,-0.000967301639398849,-0.00048680304614320233,0.0005541863690375923,0.00016392258672194652,0.00039345849305364664,-0.1703723073005676,-1.6137207746505735,-1.2723785638809204,-0.2861189544200897,0.1860937476158142,0.0215336382389068
1749040115.542853,-4.183029079417664,-0.7646660486309285,0.5347255111204213,5.354714978826089,-0.7244158412235209,5.289094541834472,-0.0007308688978798182,-0.001052212566824498,-0.000771803922853743,0.00045817034322427744,0.000168718592796455,0.00037198800094358925,-0.1041749417781829,-1.5721614360809326,-1.2597453594207764,-0.2927416563034057,0.1627998352050781,0.0196291953325271
1749040115.542894,-4.1830302607541405,-0.764666735000429,0.5347244247271361,5.354716043614328,-0.7244160771235812,5.289094705790563,-0.0008724923714203555,-0.0011211017369968058,-0.001124666662184455,0.00018751561083366495,0.00017361197787045735,0.0001888350029035697,-0.1256169974803924,-1.590476155281067,-1.2744998931884766,-0.2968068122863769,0.1709694862365722,0.0109650492668151
1749040115.5429325,-4.183031642065209,-0.7646674075268441,0.5347227238144804,5.354715802098386,-0.7244162200219869,5.2890939787861315,-0.0010205922143288932,-0.0011731011984775807,-0.00154625618473841,-0.0002858310670970656,0.0001771069434203555,-0.00018479368973999252,-0.139218658208847,-1.597950458526611,-1.2692265510559082,-0.2865033745765686,0.1694112718105316,0.0068698525428771
1749040115.5429692,-4.183033274220694,-0.764668040965576,0.5347202518740051,5.354713775805071,-0.7244162913582444,5.289092025221495,-0.001179550993118293,-0.0012093658240793239,-0.002035089052248714,-0.0009814451828734627,0.00017752434101265892,-0.0007708262091257764,-0.1643572151660919,-1.6176835298538208,-1.2925395965576172,-0.3251343965530395,0.1743649840354919,-0.025609016418457
1749040115.5430062,-4.183035182410207,-0.7646686425247164,0.534716834373161,5.354709495355442,-0.7244163061759928,5.289088497968552,-0.0013538381948645403,-0.0012329442300683896,-0.0025873220612273543,-0.0019075177249353445,0.00017311468275168357,-0.0015812686880039954,-0.1643572151660919,-1.6176835298538208,-1.2925395965576172,-0.3251343965530395,0.1743649840354919,-0.025609016418457
1749040115.5430472,-4.183037371771224,-0.7646692506366555,0.534712283814545,5.354702529896408,-0.7244162723945758,5.289083052132432,-0.0015476015464727384,-0.0012484396708659013,-0.0031968410465221912,-0.0030586516735366894,0.00016222613016059664,-0.0026156893945779216,-0.1643572151660919,-1.6176835298538208,-1.2925395965576172,-0.3251343965530395,0.1743649840354919,-0.025609016418457
1749040115.5430856,-4.183039836835148,-0.7646699305923915,0.5347064082880049,5.354692516374566,-0.7244161941755746,5.289075361936071,-0.0017642885282710824,-0.0012615439217544238,-0.003855456907004549,-0.0044147455331694264,0.00014352462019133114,-0.003859646737630011,-0.1783121973276138,-1.6313709020614624,-1.3042395114898682,-0.3367166519165039,0.1583275198936462,-0.0128402113914489
1749040115.5431228,-4.183042572952146,-0.7646707680957456,0.5346990230794975,5.354679185901428,-0.7244160782350679,5.289065140319513,-0.0020063879227680648,-0.0012785329756962505,-0.00455322493935122,-0.005941273174008449,0.00011625569189306917,-0.005284411197037695,-0.1802733242511749,-1.634191393852234,-1.3025637865066528,-0.3385506272315979,0.1622268259525299,-0.0411615967750549
1749040115.5431595,-4.183045587471676,-0.7646718614344477,0.534689964019273,5.354662384628102,-0.7244159406864487,5.28905215956526,-0.0022753314737177194,-0.0013057997311630093,-0.005278890796030941,-0.007591125074648134,8.052985053336025e-05,-0.00684820155119382,-0.1817482113838195,-1.6486656665802002,-1.2844326496124268,-0.3775799870491028,0.1644308269023895,-0.0379772782325744
1749040115.5432007,-4.183048908497949,-0.7646733126968414,0.5346791007508935,5.354642086793014,-0.7244158114906071,5.28903627047565,-0.002571540138147242,-0.0013494727270760576,-0.00602043305341788,-0.009307978638162646,3.7606412203891705e-05,-0.00849895643831859,-0.18046236038208,-1.6429693698883057,-1.2942371368408203,-0.385083794593811,0.1740236580371856,-0.0609472393989563
1749040115.5433173,-4.183052589543586,-0.7646752185161411,0.5346663481778298,5.354618397897218,-0.7244157341387907,5.289017417517603,-0.002894565954081397,-0.0014151380008468942,-0.006765639915395135,-0.011030947086830115,-9.854431734007622e-06,-0.010178433200904786,-0.2085868716239929,-1.6631287336349487,-1.3015563488006592,-0.3890702128410339,0.1734479963779449,-0.0589253306388855
1749040115.5443285,-4.183056709351985,-0.7646776610709051,0.5346516747767774,5.354591546572867,-0.724415759603728,5.288995647647874,-0.003243282627290721,-0.0015076536587934333,-0.007502649666796143,-0.012700050529910134,-5.760433592617219e-05,-0.01182722554721029,-0.2362872064113617,-1.6711572408676147,-1.3044750690460205,-0.3982011973857879,0.2067690193653106,-0.0714097619056701
1749040115.5863078,-4.1830613673750445,-0.7646807002176695,0.5346351069663076,5.354561864842569,-0.7244159352869625,5.288971110956681,-0.003616102373487759,-0.0016310341517643458,-0.008220405218799349,-0.014261889311107754,-9.971687785475127e-05,-0.0133901616389044,-0.2362872064113617,-1.6711572408676147,-1.3044750690460205,-0.3982011973857879,0.2067690193653106,-0.0714097619056701
1749040115.5863554,-4.183066676390335,-0.7646843675594253,0.5346167291153212,5.3545297578926885,-0.724416291026422,5.288944051806627,-0.004011215535352396,-0.001788385424368094,-0.008909005659547099,-0.015674818805324647,-0.00012862333892851095,-0.014821494607232208,-0.2375101149082183,-1.6876102685928345,-1.3063435554504397,-0.3896417915821075,0.1821925938129425,-0.0738364458084106
1749040115.5863965,-4.183072754015591,-0.7646886631196403,0.5345966790425712,5.354495665712616,-0.7244168247901871,5.28891479000905,-0.004426846019321231,-0.001981884642200102,-0.009559963499725755,-0.01691296917966982,-0.00013529419442611697,-0.01608931993150934,-0.2586352229118347,-1.68313729763031,-1.306790113449097,-0.3838765323162079,0.2047708630561828,-0.0753024220466613
1749040115.5864365,-4.183079714468374,-0.7646935553008625,0.5345751391329652,5.354460019813181,-0.7244174904931194,5.288883692900234,-0.00486149453990405,-0.002212807319508358,-0.010166388638495165,-0.017968630079430208,-0.00010957394485874455,-0.017178734918803455,-0.2619474828243255,-1.6997357606887815,-1.3077375888824463,-0.4062332510948181,0.2242985367774963,-0.0782167911529541
1749040115.586475,-4.183087661362124,-0.7646989848743632,0.534552323651785,5.354423198992882,-0.7244181898635416,5.288851140656992,-0.005314121000868179,-0.0024816029942325703,-0.010723121057192846,-0.018852782019895348,-4.0661209906260765e-05,-0.018093381636965958,-0.2381855249404907,-1.7072075605392456,-1.3089776039123535,-0.3983285129070282,0.2299892902374267,-0.0610767602920532
1749040115.5865135,-4.183096682038813,-0.7647048734742502,0.5345284634560199,5.354385488784688,-0.7244187698076193,5.288817488191496,-0.005784213515153177,-0.002788009198366592,-0.01122682767302915,-0.01959383229319069,8.229163290619566e-05,-0.018855180417234465,-0.2381855249404907,-1.7072075605392456,-1.3089776039123535,-0.3983285129070282,0.2299892902374267,-0.0610767602920532
1749040115.586563,-4.18310684386053,-0.7647111362182083,0.5345037898280932,5.354347049195227,-0.7244190262055257,5.288783027128381,-0.0062717105730147665,-0.003131181414159,-0.011676069387991235,-0.020234841067401935,0.0002695023195359091,-0.019502261302096948,-0.2867749333381653,-1.7013643980026243,-1.3166706562042236,-0.4153543710708618,0.2448321878910064,-0.0832458138465881
1749040115.586603,-4.1831181926906105,-0.7647176969557229,0.5344785193187426,5.354307894161944,-0.7244187144070992,5.288747951029071,-0.006776779984459763,-0.003509813679454122,-0.012071337364138006,-0.020829662228953348,0.0005298629467270137,-0.02008531392531772,-0.2715629339218139,-1.7393722534179688,-1.305384397506714,-0.4329597353935241,0.2591789960861206,-0.0663546025753021
1749040115.5866416,-4.183130753292394,-0.7647245038291576,0.5344528412226552,5.35426788422472,-0.7244175659733885,5.288712326834938,-0.007299500463522966,-0.00392222998297426,-0.012415054579486362,-0.021438462267431856,0.0008702872628744078,-0.020662764486359054,-0.292762279510498,-1.7583062648773191,-1.304903864860535,-0.4258286952972412,0.2687603235244751,-0.0811623781919479
1749040115.5866797,-4.183144530792704,-0.764731542636493,0.5344269087638097,5.354226732223053,-0.7244153104106249,5.288676075612327,-0.007839520374042069,-0.004366429106607799,-0.012711537635015509,-0.0221230411083103,0.0012951565102780553,-0.021295316228253473,-0.2921951115131378,-1.7394813299179075,-1.3309848308563232,-0.4521532356739044,0.2947174310684204,-0.1066008955240249
1749040115.586717,-4.183159512204599,-0.7647388458108055,0.534400834408425,5.354184020878259,-0.7244116995716561,5.288638965577045,-0.008395768451351163,-0.00484005814180388,-0.012966912787038017,-0.022942303940075088,0.0018058981247452244,-0.022040438857294047,-0.2921951115131378,-1.7394813299179075,-1.3309848308563232,-0.4521532356739044,0.2947174310684204,-0.1066008955240249
1749040115.5867548,-4.183175667537673,-0.764746495426364,0.5343746890464605,5.354139230469578,-0.7244065312453212,5.288600619473315,-0.0089662661469006,-0.0053402846123933876,-0.013188976716139875,-0.023948163572822347,0.0024007050730741266,-0.022947364411214827,-0.2858778834342956,-1.761167287826538,-1.3338940143585205,-0.4410204887390136,0.3051395416259765,-0.1097783893346786
1749040115.586792,-4.183192950945478,-0.7647546193880209,0.5343485041410546,5.354091773838931,-0.7243996678962086,5.288560536652115,-0.009548059155562488,-0.005863555466858001,-0.013386982192294339,-0.02518210751035049,0.0030743873897088867,-0.024053057654783293,-0.3153269588947296,-1.7581570148468018,-1.3274471759796145,-0.4786419868469238,0.3051666021347046,-0.1340790092945099
1749040115.58683,-4.183211302999262,-0.7647633808804976,0.5343222754905301,5.35404103479454,-0.7243910470867991,5.288518128128002,-0.010137260446214038,-0.006405276040221945,-0.013571314611273132,-0.026672633236717008,0.0038183496047627555,-0.025379496884597137,-0.3142575323581695,-1.7865197658538818,-1.334992527961731,-0.4910491108894348,0.3235788643360138,-0.0975638329982757
1749040115.5868683,-4.183230655001482,-0.7647729621752022,0.5342959672360338,5.353986405459751,-0.7243806817605443,5.2884727610591025,-0.010729177630932138,-0.006959487882037663,-0.013753024366298367,-0.02843371329826179,0.004620700347201621,-0.02693244303775792,-0.3132949769496918,-1.7832947969436646,-1.3265485763549805,-0.5087077021598816,0.3282768726348877,-0.120379626750946
1749040115.5869064,-4.18325093534048,-0.7647835447966145,0.5342695152626055,5.353927318794423,-0.7243686508302452,5.288423807784109,-0.011318482109192222,-0.007518641482955972,-0.01394320943605632,-0.030464375909157303,0.005466510029541707,-0.028701708883115424,-0.3296526372432709,-1.80242931842804,-1.3415168523788452,-0.5287020802497864,0.3585326075553894,-0.1437674909830093
1749040115.5869431,-4.183272076920722,-0.7647952886462288,0.534242829892686,5.353863274071961,-0.7243550827375783,5.288370693811769,-0.011899374738753644,-0.008073542435367922,-0.014152298004850813,-0.03274937517192974,0.006338234453869779,-0.030662784725673103,-0.3296526372432709,-1.80242931842804,-1.3415168523788452,-0.5287020802497864,0.3585326075553894,-0.1437674909830093
1749040115.5869806,-4.1832940244212855,-0.7648083129087971,0.53421579830116,5.353793854655203,-0.7243401360104228,5.28831293904595,-0.012465720077170875,-0.008613514544067587,-0.014389332475684665,-0.03526080543255488,0.007216319829149711,-0.03277955014899667,-0.3144703507423401,-1.825460433959961,-1.344075322151184,-0.5250015258789062,0.3737434446811676,-0.1565885245800018
1749040115.5870178,-4.183316740712888,-0.7648226814178192,0.534188287160197,5.353718738387807,-0.7243239807376246,5.28825018725342,-0.013011151544216105,-0.009126789705282974,-0.014661370590153999,-0.037960426826764725,0.008079997709428199,-0.03500771657790571,-0.346774697303772,-1.8200868368148804,-1.3331480026245115,-0.5325742959976196,0.3767221868038177,-0.1535203009843826
1749040115.5870547,-4.1833402125307195,-0.7648383945638896,0.5341601458437419,5.353637701447827,-0.7243067834982391,5.288182220615146,-0.013529176219153243,-0.009601107773776698,-0.014973087688494565,-0.040802428113279825,0.008908258379486477,-0.03729860697046006,-0.3146671056747436,-1.81905996799469,-1.3303864002227783,-0.5312789678573608,0.3598824739456177,-0.1502460092306137
1749040115.5872552,-4.183364455436937,-0.7648553887486139,0.5341312104459366,5.3535506171032585,-0.7242886966281395,5.28810895908067,-0.014013315993240193,-0.010024486712074633,-0.015326606554328402,-0.04373633911910727,0.009680954627968856,-0.0396028814932538,-0.3390599489212036,-1.8474539518356323,-1.3389731645584106,-0.5422020554542542,0.3949377536773681,-0.182201087474823
1749040115.5883253,-4.183389516992672,-0.7648735430603737,0.534101308952388,5.353457451532735,-0.7242698517178093,5.288030447367692,-0.014457308970276207,-0.0103861022300597,-0.015721526603744672,-0.046709804351468334,0.0103799491755369,-0.041873859538078345,-0.3390599489212036,-1.8474539518356323,-1.3389731645584106,-0.5422020554542542,0.3949377536773681,-0.182201087474823
1749040115.6302998,-4.183415475961001,-0.7648926917569815,0.5340702678752883,5.353358259122101,-0.7242503569300117,5.287946834519113,-0.01485537154306706,-0.010677198978025847,-0.016155092602238814,-0.04967096132191232,0.010990202215749102,-0.04407017491288232,-0.352324903011322,-1.868648648262024,-1.3368847370147705,-0.5307742357254028,0.3943701982498169,-0.1735143512487411
1749040115.6303458,-4.183442435569804,-0.7649126406104224,0.5340379203685055,5.353253178877855,-0.724230297498565,5.28785835111213,-0.015202500431495453,-0.010891943205197511,-0.01662244271388386,-0.05257025841721049,0.011500709898713195,-0.046157628470449075,-0.3409665524959564,-1.8707305192947388,-1.3311567306518557,-0.5193448066711426,0.400521457195282,-0.1593018919229507
1749040115.6303866,-4.183470510493304,-0.7649331851153116,0.5340041154518548,5.35314243215048,-0.7242097384357086,5.287765287848138,-0.01549478005109065,-0.011028118512781009,-0.017116899926097544,-0.055361684122913445,0.011905234153461052,-0.04811023794424715,-0.348248541355133,-1.839036464691162,-1.3466724157333374,-0.5377657413482666,0.4118753671646118,-0.1664387136697769
1749040115.630427,-4.183499809185535,-0.764954128628763,0.5339687277199147,5.35302632063685,-0.7241887284518966,5.2876679774090904,-0.015729652058015187,-0.011087564409249349,-0.017630299956342105,-0.058003509753171395,0.012202782199630375,-0.04991058159313351,-0.3366371989250183,-1.8472646474838257,-1.342708945274353,-0.5296123623847961,0.4205335974693298,-0.1726176589727401
1749040115.6304653,-4.183530414419566,-0.7649752984539129,0.533931666794345,5.352905223074245,-0.7241673044660527,5.287566779897007,-0.015906101805660194,-0.01107627107401626,-0.018153363908810935,-0.06045872812051712,0.012397787395348542,-0.05154956937052456,-0.3127021193504333,-1.8646644353866575,-1.3484461307525637,-0.5300046801567078,0.40309938788414,-0.16866335272789
1749040115.6305044,-4.183562365064745,-0.7649965578446019,0.5338928857091892,5.352779588969827,-0.7241454963290999,5.2874620710058675,-0.016024726605329127,-0.011004081449795557,-0.018676120036851495,-0.06269539262572656,0.012499926850864741,-0.053025770859256104,-0.3313487768173218,-1.875847697257996,-1.3455524444580078,-0.5213596820831299,0.3902294337749481,-0.1831520199775695
1749040115.630543,-4.1835956415957805,-0.7650178122743679,0.5338523874632837,5.352649928015048,-0.7241233312066169,5.287354231334988,-0.016087674541482026,-0.010884010113776516,-0.01918836296657133,-0.06468703544889354,0.012523519821446274,-0.054344413138794144,-0.3238945603370666,-1.8803950548172,-1.3388108015060425,-0.5342936515808105,0.4017527401447296,-0.1651053428649902
1749040115.630581,-4.1836301569616765,-0.7650390092840404,0.5338102292286129,5.352516794661621,-0.7241008368031894,5.287243635196731,-0.016098470375784605,-0.010731250792732277,-0.01968012281510205,-0.0664132805070175,0.012486506136015374,-0.05551614858162019,-0.3180790543556213,-1.868631362915039,-1.3184703588485718,-0.5182545781135559,0.4246275424957275,-0.2015676498413086
1749040115.6306186,-4.183665753513231,-0.7650601325554081,0.5337665239885345,5.35238076860895,-0.7240780426770711,5.2871306380757614,-0.016061762909656354,-0.010561991064334026,-0.02014211122680849,-0.06786067971814881,0.012409089016531134,-0.05655568209020939,-0.315812736749649,-1.879175901412964,-1.3192299604415894,-0.5026464462280273,0.416499376296997,-0.1755452156066894
1749040115.6306558,-4.183702205938351,-0.7650811919874668,0.5337214394228017,5.352242433124126,-0.7240549793646552,5.287015563208508,-0.01598303143407115,-0.010392172949839894,-0.020566118154019077,-0.06902371007858328,0.01231219762553158,-0.05748033870709396,-0.3032000958919525,-1.8842744827270508,-1.313655138015747,-0.4946926236152649,0.4220926165580749,-0.1947399973869323
1749040115.6306934,-4.183739229776582,-0.7651022120331263,0.5336751937060146,5.35210235354767,-0.7240316756948548,5.286898688838423,-0.01586828424229835,-0.010236333881598883,-0.02094534426441084,-0.06990579399727456,0.012215949043835328,-0.05830864760124798,-0.3152658939361572,-1.900877594947815,-1.310396671295166,-0.5007423162460327,0.4324578046798706,-0.1904572248458862
1749040115.6307304,-4.1837764950267955,-0.7651232203740664,0.5336280478344229,5.351961057835591,-0.72400815518074,5.286780238110382,-0.01572377668802568,-0.010106641938755183,-0.021274660784203692,-0.0705201564683852,0.012138268334296752,-0.05905901222121332,-0.2803370654582977,-1.8822511434555051,-1.301154375076294,-0.4779950976371765,0.4235871434211731,-0.1663880348205566
1749040115.6307683,-4.183813644313034,-0.7651442384743526,0.5335802943537684,5.351819019892754,-0.7239844324762164,5.2866603733741675,-0.015555770024686031,-0.010012208146582083,-0.0215507917866918,-0.07089031332453899,0.012093781473635136,-0.05974851867162867,-0.3065617978572845,-1.8985313177108765,-1.3028920888900757,-0.4705496430397033,0.4195802211761474,-0.1745343953371048
1749040115.630805,-4.183850314709376,-0.7651652749936688,0.533532242948509,5.351676645380277,-0.7239605106406393,5.286539196148044,-0.015370342827301632,-0.009958719050493482,-0.0217724183679385,-0.07104999880982739,0.012093049832062783,-0.060391910773830486,-0.2700751721858978,-1.879079818725586,-1.2853728532791138,-0.4813404083251953,0.4336876273155212,-0.1581283509731292
1749040115.6308424,-4.183886161587948,-0.7651863225948836,0.5334842040395738,5.3515342592204105,-0.7239363796669115,5.286416753336071,-0.015173255986719541,-0.009948387645658707,-0.021940208745108814,-0.07104238878033943,0.012142175986296992,-0.06100075984750282,-0.2868122160434723,-1.9104740619659424,-1.3017572164535522,-0.5017309188842773,0.4304637312889099,-0.2142401039600372
1749040115.6308794,-4.183920882033084,-0.7652073582524991,0.5334364719053122,5.351392094405734,-0.72391201655402,5.286293049556567,-0.01496986488449393,-0.009980180700966824,-0.022056777824731272,-0.07091854840872246,0.01224278112224144,-0.061582896405878024,-0.2644355893135071,-1.8893191814422607,-1.2716847658157349,-0.4622948169708252,0.4290666580200195,-0.2037102729082107
1749040115.6309164,-4.183954234932652,-0.7652283466758251,0.5333893086861519,5.351250282603016,-0.7238873870322027,5.286168064602325,-0.014765069923576693,-0.010050260330985633,-0.02212657600349977,-0.07073511876725302,0.012392333090409371,-0.06214221575233738,-0.2590712904930115,-1.8793041706085205,-1.282385230064392,-0.466389387845993,0.4356734156608581,-0.1976297944784164
1749040115.630953,-4.183986055191812,-0.7652492460172982,0.5333429302352006,5.3511088478104245,-0.7238624488301542,5.286041774167598,-0.014563296665155458,-0.010152581647956568,-0.022155708888972715,-0.07055135489536894,0.012584787296530607,-0.0626789614869013,-0.2597555518150329,-1.9150187969207764,-1.255164623260498,-0.4889611601829529,0.4392133355140686,-0.1915856152772903
1749040115.6309893,-4.184016260616893,-0.7652700147697532,0.5332974945535817,5.35096770463549,-0.7238371562187631,5.285914171248427,-0.014368498472918613,-0.010279604656772282,-0.022151700533733772,-0.07042573696926323,0.012811483685251767,-0.06319051251912143,-0.2405225336551666,-1.9249720573425293,-1.2745219469070437,-0.5040355324745178,0.4451183080673218,-0.1865531206130981
1749040115.631026,-4.184044851441195,-0.7652906186345393,0.533253093559822,5.350826662605746,-0.7238114654837642,5.285785285233178,-0.01418417892651639,-0.010423088605612703,-0.022123223373858154,-0.07041246514240476,0.01306221857586602,-0.06367259118573732,-0.2538005411624908,-1.916593670845032,-1.2667022943496704,-0.5038583278656006,0.4436041116714477,-0.1815349459648132
1749040115.631132,-4.184071903638809,-0.7653110361435611,0.5332097488961115,5.35068543732908,-0.7237853408642925,5.285655195694926,-0.014013436455191642,-0.010574927283695705,-0.022079816562984418,-0.07055816887871659,0.01332638559194641,-0.06412072799173249,-0.269465297460556,-1.9399334192276,-1.2743936777114868,-0.5056375861167908,0.4496744275093078,-0.1732369363307953
1749040115.6322565,-4.184097557820313,-0.7653312620842626,0.5331674121601885,5.350543668341665,-0.7237587603026452,5.285524038333821,-0.01385903484713228,-0.010727956852220673,-0.022031600598813317,-0.07089909657386885,0.01359406691475796,-0.06453179098583096,-0.2759604752063751,-1.9346801042556765,-1.278125286102295,-0.488421618938446,0.4382117092609405,-0.2064330726861953
1749040115.674302,-4.184122005683156,-0.7653513083905551,0.5331259694444765,5.350400942442772,-0.7237317201081158,5.285392001491741,-0.01372349760054169,-0.010876645061461486,-0.021988981438338284,-0.07145894447241219,0.013856959620600387,-0.06490540821523087,-0.2783434092998504,-1.9390363693237305,-1.270690679550171,-0.513188362121582,0.4343733191490173,-0.1943755447864532
1749040115.6743495,-4.184145475837167,-0.7653712029127705,0.5330852495450705,5.350256820652022,-0.723704237434538,5.2852593130438645,-0.013609212259407498,-0.011017574186872823,-0.021962331813497004,-0.07224740926428108,0.014109037894083751,-0.06524514774773091,-0.2531111240386963,-1.9423320293426516,-1.2918105125427246,-0.5260030031204224,0.436347484588623,-0.204241544008255
1749040115.674394,-4.184168220420975,-0.7653909870458662,0.5330450348347361,5.350110866740396,-0.7236763495482641,5.285126218808633,-0.013518517187329555,-0.01114966091080264,-0.021961641763264782,-0.07325954472714057,0.014346880590887998,-0.06555933826739832,-0.2838237285614013,-1.9547889232635496,-1.2882826328277588,-0.5515719652175903,0.4505931138992309,-0.175677940249443
1749040115.674449,-4.184190503329395,-0.7654107134267778,0.5330050736966144,5.349962675349403,-0.7236481094881629,5.284992954532369,-0.013453735321714127,-0.01127409943414721,-0.02199614024877367,-0.0744760309798024,0.014569642488055944,-0.06586141167144985,-0.2765008807182312,-1.9719417095184328,-1.290480613708496,-0.5309363603591919,0.4619747996330261,-0.1791204959154129
1749040115.674491,-4.18421259017855,-0.7654304447621402,0.5329650935284194,5.34981189780898,-0.723619578791039,5.284859714102525,-0.01341712492699739,-0.011394056829119432,-0.022073903016515326,-0.07586445041740687,0.014778712772145123,-0.06616965778466555,-0.2775134742259979,-1.9963319301605225,-1.303086280822754,-0.5317180156707764,0.4786073565483093,-0.1870007812976837
1749040115.6745353,-4.184234739533478,-0.7654502542643958,0.532924813471113,5.349658263814413,-0.7235908188837161,5.284726617263385,-0.013410737719424363,-0.011514185963767696,-0.022201476818863596,-0.0773815806529538,0.014977160669366872,-0.06650632961811406,-0.2894035875797272,-2.002070665359497,-1.2981247901916504,-0.5390013456344604,0.4547393321990967,-0.1799252033233642
1749040115.674575,-4.184257194693169,-0.7654702272705404,0.5328839562177587,5.349501597099772,-0.7235618829812884,5.284593680743341,-0.013436202518254836,-0.011640043661606552,-0.022383560806336855,-0.07897660151842995,0.015169089572878018,-0.06689612393113706,-0.2865525484085083,-1.9746559858322144,-1.3165143728256226,-0.5474339723587036,0.4626280665397644,-0.1778583824634552
1749040115.674619,-4.184280175582018,-0.7654904628259517,0.5328422586565008,5.349341823254379,-0.7235328099176255,5.284460796943008,-0.013494475745986376,-0.011777503107926225,-0.02262278615084705,-0.08059501386987782,0.015359005698712725,-0.06736415895626154,-0.2982970178127289,-2.0170485973358154,-1.3159666061401367,-0.5321213006973267,0.466189444065094,-0.1810720562934875
1749040115.6746583,-4.184303870790738,-0.7655110738513347,0.5327994814990312,5.349178968174918,-0.7235036206760709,5.28432772385681,-0.013585610131892153,-0.011932232285153855,-0.022919624868293197,-0.08218298874671554,0.015551274774325037,-0.06793365337104777,-0.2834366858005523,-2.0215885639190674,-1.3085638284683228,-0.5411140322685242,0.4744444489479065,-0.1835129708051681
1749040115.6747005,-4.1843284302580415,-0.7655321850893969,0.5327554180271291,5.349013146604054,-0.7234743177439019,5.284194088769757,-0.013708588982849516,-0.012109284898859178,-0.023272442886573017,-0.08369179623576144,0.01574970938895632,-0.06862356902032497,-0.2683018445968628,-2.0600547790527344,-1.332550883293152,-0.5093163251876831,0.476658284664154,-0.1963769495487213
1749040115.6747434,-4.184353959463201,-0.7655539289262882,0.5327099016060632,5.348844541646651,-0.7234448867997195,5.284059406704651,-0.013861259892043096,-0.012312824592287462,-0.02367769249232343,-0.08508190855976726,0.01595730618251713,-0.06944651113756374,-0.3141318559646606,-2.011922597885132,-1.3309417963027954,-0.5123081803321838,0.4881924390792846,-0.2204003185033798
1749040115.6747851,-4.184380516290957,-0.7655764398643405,0.5326628110764006,5.348673377524725,-0.7234152996782653,5.283923112706684,-0.01404038397929409,-0.012545978394093287,-0.02413021508636931,-0.08632635783134308,0.016176132665404557,-0.07040717020473197,-0.318796306848526,-2.0615246295928955,-1.336526870727539,-0.5303971171379089,0.4853765368461609,-0.2164678871631622
1749040115.6748247,-4.184408111674383,-0.7655998486508926,0.5326140729800156,5.34849988867831,-0.7233855172534938,5.283784604987777,-0.014241796842540747,-0.012810793865825003,-0.02462360222872963,-0.08741298412119453,0.016407343402457794,-0.07150152231262286,-0.3084663450717926,-2.0857322216033936,-1.3533785343170166,-0.5363898873329163,0.4793864488601684,-0.2447439730167389
1749040115.6748664,-4.18443671452437,-0.7656242768843621,0.5325636599639424,5.348324288689995,-0.7233554911003133,5.283643294115393,-0.014460655463760179,-0.013108263249442002,-0.02515055518161061,-0.08834532438486341,0.016651285934855122,-0.07271688368194502,-0.3131536543369293,-2.0622339248657227,-1.3324077129364014,-0.5072911977767944,0.4886676669120788,-0.2324972450733184
1749040115.6749084,-4.184466260511696,-0.7656498324951263,0.5325115855320395,5.348146742654196,-0.723325163505044,5.283498652355881,-0.014691726031118792,-0.013438379487309624,-0.02570320244761919,-0.08914201637550453,0.01690764894909975,-0.07403277398953878,-0.2889118492603302,-2.0547540187835693,-1.362876057624817,-0.5011873841285706,0.4914699494838714,-0.227308988571167
1749040115.6749518,-4.184496663369785,-0.7656766060985791,0.5324578962484521,5.347967346523708,-0.7232944662374271,5.283350257324078,-0.014929661886403031,-0.013800199005374061,-0.026273375812753325,-0.08983469705067865,0.017175617070836084,-0.07542243161798635,-0.2908690273761749,-2.080292224884033,-1.3603923320770264,-0.4976820647716522,0.4860429763793945,-0.2292864620685577
1749040115.6750004,-4.1845278267434205,-0.7657046680721649,0.5324026630544889,5.347786116445893,-0.7232633191329055,5.283197825237243,-0.015169235255131816,-0.014191901699484099,-0.026852882672095874,-0.09046450131231899,0.017454018839222242,-0.0768547779739336,-0.3202932775020599,-2.087677240371704,-1.3624640703201294,-0.5224021673202515,0.4906711280345917,-0.2622533142566681
1749040115.6750443,-4.1845596542568995,-0.7657340663218294,0.5323459732245057,5.347602990011229,-0.7232316298337413,5.283041230941114,-0.015405514055885219,-0.014610857219773347,-0.02743381753210282,-0.09107745601789866,0.017741468276975956,-0.07829664419468077,-0.285997986793518,-2.0869994163513184,-1.3445045948028564,-0.5299369096755981,0.503231406211853,-0.2342254519462585
1749040115.6750872,-4.184592055621595,-0.7657648248749874,0.5322879238441006,5.347417839729042,-0.7231992959664819,5.282880513901323,-0.015634000435713818,-0.015053719369021383,-0.028008921440583163,-0.09171927631064364,0.01803649958880076,-0.07971510764779868,-0.2692918181419372,-2.0886292457580566,-1.3477087020874023,-0.5279767513275146,0.5028709769248962,-0.2307631522417068
1749040115.6751325,-4.184624947602651,-0.7657969434845272,0.5322286170387498,5.347230497236156,-0.7231662105410658,5.282715871084797,-0.015850759422987987,-0.015516567801990778,-0.028571946596723678,-0.0924302070305265,0.018337686808091,-0.08107979029495753,-0.3277698159217834,-2.1022374629974365,-1.3361881971359253,-0.541458249092102,0.5200806260108948,-0.2106569558382034
1749040115.6752472,-4.184658250410439,-0.7658303983191205,0.5321681567944481,5.347040785200642,-0.723132270512289,5.282547638888271,-0.0160525627265963,-0.015995100734597714,-0.02911794775720562,-0.09324055188897509,0.018643734249289806,-0.08236494396378467,-0.2924315631389618,-2.0951664447784424,-1.3343114852905271,-0.5500928163528442,0.5217574238777161,-0.2048259824514389
1749040115.676267,-4.184691881780995,-0.7658651436288303,0.5321066470761171,5.346848552870115,-0.7230973875824082,5.282376266896853,-0.016237059093018744,-0.01648486620875196,-0.029643422482092334,-0.09416742097036003,0.018953522208428053,-0.08355113613361723,-0.2938615083694458,-2.1008665561676025,-1.346425175666809,-0.5547065734863281,0.5024380087852478,-0.2180228978395462
1749040115.7182963,-4.184725751841616,-0.7659011141333889,0.5320441909963125,5.346653710681368,-0.7230614997900535,5.282202286188641,-0.01640296421728343,-0.0169815116434562,-0.030146257878052772,-0.09521306010100818,0.019266094463267262,-0.08462639551511528,-0.2850888669490814,-2.098761796951294,-1.3580820560455322,-0.5525146126747131,0.5163995623588562,-0.2010767012834549
1749040115.7183416,-4.184759761583142,-0.7659382278782216,0.5319808908961515,5.346456259212679,-0.7230245821785308,5.282026274320519,-0.016550244065721628,-0.01748103183051187,-0.03062549591533101,-0.09636494085469197,0.019580578327795264,-0.08558676018835248,-0.3020074963569641,-2.092766761779785,-1.3431999683380127,-0.551501989364624,0.52377849817276,-0.1986820250749588
1749040115.7183824,-4.184793806646723,-0.7659763894390083,0.531916849108998,5.346256308074401,-0.7229866545938541,5.281848818595076,-0.01668025046195655,-0.01797999826615581,-0.031080977444611853,-0.09759760164184396,0.019896035324739263,-0.08643623454371038,-0.3090181350708008,-2.112398624420166,-1.3602676391601562,-0.5759638547897339,0.531094491481781,-0.2021860629320144
1749040115.7184217,-4.184827786636295,-0.7660154935213134,0.5318521687728608,5.346054081143906,-0.722947784521856,5.281670479172002,-0.016795763410774975,-0.018475751262190764,-0.03151294460917138,-0.09887604464261308,0.02021125221954184,-0.08718618213415708,-0.2908549308776855,-2.079162359237671,-1.3356499671936035,-0.5590454339981079,0.5208613872528076,-0.2009423673152923
1749040115.7184598,-4.184861618665543,-0.7660554290607163,0.5317869537219535,5.345849905884181,-0.7229080833545429,5.281491753903982,-0.01690090501131141,-0.018966528859108895,-0.03192167087681611,-0.10016031651033441,0.020524496190588926,-0.08785419182260024,-0.3107180595397949,-2.102936267852783,-1.341518521308899,-0.5504510402679443,0.5349790453910828,-0.1970900595188141
1749040115.7184985,-4.184895252513456,-0.7660960838259845,0.5317213067671654,5.345644186485055,-0.7228676958991027,5.281313047072101,-0.017000912474548976,-0.01945149988609237,-0.03230716798336305,-0.10141074710119546,0.020833272085400673,-0.08846248818423995,-0.3001675009727478,-2.099325656890869,-1.3322099447250366,-0.5530794858932495,0.5171036720275879,-0.1863151341676712
1749040115.7185369,-4.184928683808627,-0.766137349330744,0.531655326556079,5.345437363286939,-0.7228267849468124,5.2811346444736635,-0.017101785165717174,-0.01993067392278349,-0.032669009542223446,-0.1025932153450175,0.021134134356219577,-0.08903601168488375,-0.3217397630214691,-2.107268810272217,-1.3708624839782717,-0.5401149988174438,0.5179058313369751,-0.2054676711559295
1749040115.718575,-4.1849619615618145,-0.7661791257150012,0.5315891040048567,5.345229863806334,-0.7227855143702818,5.2809566975515265,-0.017209844566352633,-0.02040468318215891,-0.033006310830965,-0.10368378112408966,0.02142261946914325,-0.0896003467884496,-0.3217397630214691,-2.107268810272217,-1.3708624839782717,-0.5401149988174438,0.5179058313369751,-0.2054676711559295
1749040115.7186134,-4.184995187449291,-0.7662213263050109,0.5315227193135837,5.345022052326338,-0.7227440345167725,5.280779218682244,-0.017331259802292078,-0.02087446282376204,-0.03331789580007809,-0.10467208103180488,0.021693368030606692,-0.09017970712450565,-0.3077205121517181,-2.105781555175781,-1.3394556045532229,-0.5345605611801147,0.5363584756851196,-0.2242809385061264
1749040115.7186513,-4.185028506191028,-0.7662638817969851,0.5314562397553781,5.34481418438923,-0.722702472286439,5.280602087686096,-0.017471591457750346,-0.02134088333290027,-0.03360265137487755,-0.10556302969927636,0.02194048842777349,-0.09079518371591526,-0.3157888650894165,-2.094773054122925,-1.3267711400985718,-0.5421906113624573,0.5216553211212158,-0.2191290855407714
1749040115.718689,-4.185062088427365,-0.7663067442327448,0.5313897174337503,5.34460637028383,-0.7226609260402045,5.2804250669792125,-0.017635396332603845,-0.021804400975178453,-0.03386002174023804,-0.10637657425013822,0.02215817065980752,-0.09146342232811953,-0.2982810139656067,-2.115183115005493,-1.327283263206482,-0.524925947189331,0.534845769405365,-0.2227516770362854
1749040115.7187266,-4.1850961091548395,-0.7663498909048382,0.5313231858015682,5.3443985496282,-0.7226194637333704,5.280247821380036,-0.01782592423358506,-0.02226478687684563,-0.03409055702119225,-0.10714548737652951,0.02234149957756091,-0.09219583151523604,-0.3123409748077392,-2.1006555557250977,-1.33700430393219,-0.5220075249671936,0.5277162194252014,-0.2155115008354187
1749040115.7187643,-4.185130725829348,-0.7663933280521436,0.5312566541485367,5.3441904784208,-0.7225781221548135,5.280069939087382,-0.018044929394162978,-0.022720977113611995,-0.034296420647850566,-0.10791143233556269,0.022487361429530194,-0.09299835363170247,-0.3371411561965942,-2.1218388080596924,-1.3325015306472778,-0.5421109199523926,0.5427317023277283,-0.2052996009588241
1749040115.7188053,-4.1851660604131204,-0.7664370939121348,0.5311901002253907,5.343981729904987,-0.7225369056556467,5.279890951907225,-0.01829261059012064,-0.023171065245653343,-0.034481769649430116,-0.10871977481822184,0.02259530435289183,-0.09387176990078595,-0.3101943731307983,-2.1000123023986816,-1.3163334131240845,-0.5698778033256531,0.5216188430786133,-0.2266769707202911
1749040115.7188437,-4.185202188653507,-0.7664812604607727,0.5311234623123666,5.343771710314298,-0.7224957837506857,5.279710354311571,-0.018567682520738652,-0.023612441824044157,-0.0346529348481503,-0.10961382051543747,0.022668206673167976,-0.09481246080984371,-0.320634126663208,-2.111199378967285,-1.3138357400894165,-0.5773531198501587,0.5230268239974976,-0.2241922616958618
1749040115.718881,-4.185239137994641,-0.7665259328755984,0.5310566329404601,5.343559689723555,-0.7224546880981583,5.279527621786461,-0.018867569456537933,-0.02404207159803279,-0.03481834528527577,-0.11062926900163811,0.022712621220019536,-0.09581350647157003,-0.3457476198673248,-2.107161045074463,-1.3444331884384155,-0.5644199252128601,0.5441481471061707,-0.2102529406547546
1749040115.718918,-4.185276893551214,-0.7665712455201719,0.5309894566846242,5.343344847082558,-0.7224135103143329,5.279342229095737,-0.019188703823768173,-0.024456882852667308,-0.034988176194968974,-0.11178965450011889,0.022738696261164065,-0.09686599524633446,-0.316460520029068,-2.099722623825073,-1.362354040145874,-0.604686439037323,0.525177001953125,-0.2448197901248932
1749040115.7189555,-4.185315410181507,-0.7666173534854923,0.530921733804673,5.343126327388121,-0.7223721025789065,5.279153668902652,-0.019526905689942788,-0.02485422098613119,-0.03517374835523728,-0.11310340591549467,0.022759626331079846,-0.09796041649625768,-0.3414402604103088,-2.089885950088501,-1.3645496368408203,-0.5938113927841187,0.5340037941932678,-0.2415769100189209
1749040115.718993,-4.185354627967661,-0.7666644196315533,0.5308532303891031,5.342903307901107,-0.7223302828611683,5.278961471110303,-0.01987781097496893,-0.025232294702563402,-0.03538674691353487,-0.11456294600544831,0.02279065775466316,-0.09908802714258502,-0.3274486660957336,-2.0948193073272705,-1.3576897382736206,-0.6232770085334778,0.5516357421875,-0.2285779267549514
1749040115.7190294,-4.185394488127105,-0.7667125983525443,0.5307836946241824,5.342675069086535,-0.7222878457923013,5.278765223264514,-0.02023730622698943,-0.025590531122860465,-0.035638346067561125,-0.11614598639184465,0.022847751675932882,-0.10024207320475821,-0.3129051923751831,-2.101977825164795,-1.3697030544281006,-0.6209644079208374,0.5635008811950684,-0.2079657018184662
1749040115.7191317,-4.185434946458327,-0.7667620184193114,0.5307128779479713,5.342441064214559,-0.7222445788141428,5.278564591780625,-0.020601917658723115,-0.025929768397586025,-0.035938328744214564,-0.11781887186332822,0.022946071527234803,-0.10141872049760227,-0.3097592890262604,-2.094313383102417,-1.3738627433776855,-0.5968979597091675,0.5565030574798584,-0.2311443388462066
1749040115.720269,-4.185475982020428,-0.7668127678568165,0.5306405587569778,5.3422009791957255,-0.7222002816184011,5.278359342126441,-0.02096909722942948,-0.026252250868875577,-0.03629428959351129,-0.11954152458331303,0.02309849392509072,-0.10261754855611084,-0.3097592890262604,-2.094313383102417,-1.3738627433776855,-0.5968979597091675,0.5565030574798584,-0.2311443388462066
1749040115.7623117,-4.185517599947251,-0.7668648837933878,0.5305665649610503,5.341954771964533,-0.7221547856529604,5.27814935391218,-0.021337359042123256,-0.026561436095503103,-0.03671100595485997,-0.12127330070786715,0.023314334964036038,-0.10384152041230998,-0.3223609626293182,-2.109497308731079,-1.3810913562774658,-0.619817852973938,0.5540289878845215,-0.2194515615701675
1749040115.762357,-4.185559828765151,-0.7669183495404451,0.5304907908616903,5.341702680712208,-0.7221079701644408,5.277934625818641,-0.021706249740338225,-0.02686165349124074,-0.037190046474646486,-0.12297893582736664,0.023598443184262668,-0.10509643251844414,-0.3248333930969238,-2.090489864349365,-1.3839068412780762,-0.5575494766235352,0.5820308923721313,-0.2376969456672668
1749040115.7623968,-4.185602713713124,-0.7669730997408192,0.5304132046322897,5.341445194870211,-0.7220597721053942,5.277715267336576,-0.022076174201508654,-0.02715765932357432,-0.03772965613005231,-0.1246337182223894,0.02395074924424007,-0.10638992459110225,-0.3346738219261169,-2.112256526947021,-1.3993027210235596,-0.5983696579933167,0.5868421792984009,-0.252910315990448
1749040115.7624354,-4.185646308075686,-0.7670290324933116,0.5303338451502733,5.341182991530123,-0.7220101889140577,5.277491479147055,-0.02244812089024315,-0.027454118232475094,-0.03832491745733972,-0.12622709014413255,0.024366296158431014,-0.10773017206512214,-0.3460984826087951,-2.11572527885437,-1.4071727991104126,-0.5898416042327881,0.5899730920791626,-0.2591491043567657
1749040115.762473,-4.185690664588705,-0.7670860256481105,0.530252809736153,5.340916848761117,-0.7219592747680776,5.2772635284683105,-0.022823331012474964,-0.02775502651954203,-0.038968158644917164,-0.12776406608526789,0.0248357166001434,-0.10912440969607312,-0.3292112350463867,-2.079209089279175,-1.3910034894943235,-0.5583508610725403,0.5873324871063232,-0.2429357171058654
1749040115.7625113,-4.185735828676045,-0.767143953624694,0.5301702359919154,5.340647551631525,-0.7219071316976243,5.277031726627175,-0.023202946112925487,-0.02806309885379711,-0.039649573814135926,-0.12926419319161395,0.02534608460470292,-0.11057745473448756,-0.3041330873966217,-2.0314228534698486,-1.3775835037231443,-0.5524938702583313,0.5908418893814087,-0.2145892232656479
1749040115.7625492,-4.185781834588017,-0.7672027012810769,0.5300862810672459,5.34037580580197,-0.7218538970203853,5.276796413297525,-0.023587673641252326,-0.02837918119500302,-0.0403580352962999,-0.13075822619523975,0.025882051557495206,-0.11209041226355726,-0.3095576763153076,-2.0700817108154297,-1.374696969985962,-0.548546552658081,0.5782128572463989,-0.2112232595682144
1749040115.7625868,-4.185828704632699,-0.7672621724184258,0.530001101039459,5.340102169508448,-0.7217997284498197,5.276557947444661,-0.02397753694582725,-0.028701820296636992,-0.04108209045701756,-0.13228314883855244,0.02642717419119612,-0.11365975708360349,-0.3414303362369537,-2.115013599395752,-1.4043635129928589,-0.5773778557777405,0.5920957922935486,-0.2209548205137252
1749040115.7626245,-4.185876450999791,-0.7673222921084005,0.5299148324138849,5.339827009872028,-0.721744788171515,5.276316701227271,-0.02437180024704756,-0.0290271678735152,-0.041811119736087976,-0.1338765123104274,0.026965338343488462,-0.11527699469943158,-0.4013480544090271,-2.161336660385132,-1.4126362800598145,-0.6291215419769287,0.5908427834510803,-0.2576324343681335
1749040115.7626617,-4.185925079343082,-0.7673830036329864,0.529827577230041,5.339550484849708,-0.721689227160764,5.27607305130897,-0.024769139346640653,-0.02934935908190715,-0.04253657157986774,-0.1355711617960232,0.027482161279471385,-0.11692908187451281,-0.3491866588592529,-2.1063907146453857,-1.4072531461715698,-0.6537442803382874,0.5962376594543457,-0.2778170704841614
1749040115.7626991,-4.185974593173842,-0.7674442620059426,0.5297393927268936,5.33927254824773,-0.7216331710457446,5.275827362700069,-0.025168051548743017,-0.029661360523221773,-0.043253096894413784,-0.13739124442368872,0.02796622032335201,-0.1185996891045467,-0.3554226756095886,-2.1091268062591557,-1.4038465023040771,-0.6553303599357605,0.6005945801734924,-0.2269419133663177
1749040115.7627358,-4.186024998069063,-0.7675060266911385,0.5296502858854579,5.338992972497441,-0.7215767089219264,5.275579962922477,-0.025567399467770893,-0.029956100762649505,-0.04395932938393619,-0.1393499994704054,0.028409928276216988,-0.1202711990172403,-0.3342372179031372,-2.1070713996887207,-1.4019668102264404,-0.6317518353462219,0.5780869722366333,-0.2308703809976577
1749040115.7627723,-4.186076304787136,-0.7675682560766147,0.5295602126906226,5.338711382825609,-0.7215198865491447,5.275331108073584,-0.02596691842934949,-0.030227582669392614,-0.044658055470620885,-0.14144936230618635,0.028809885853870055,-0.12192711931810722,-0.3546216189861297,-2.1014907360076904,-1.3937405347824097,-0.625751256942749,0.5668041110038757,-0.2286271601915359
1749040115.762809,-4.186128530741561,-0.7676309052281324,0.5294690820059003,5.3384272973144045,-0.7214627051030692,5.275080946472311,-0.02636751580356384,-0.0304716898464666,-0.04535561260978529,-0.14368101171560893,0.029166610964185033,-0.12355445088394337,-0.3299236893653869,-2.112640619277954,-1.3951120376586914,-0.6368337869644165,0.5882392525672913,-0.2346245497465133
1749040115.7628455,-4.1861816997777,-0.7676939266863563,0.5293767643505053,5.338140169552763,-0.7214051260179342,5.2748294888426335,-0.026771247564882094,-0.03068652000249015,-0.04606052575810577,-0.14602825365727726,0.02948367406135897,-0.12514554724492385,-0.3299236893653869,-2.112640619277954,-1.3951120376586914,-0.6368337869644165,0.5882392525672913,-0.2346245497465133
1749040115.7628832,-4.1862358405145645,-0.7677572726026439,0.5292831057662365,5.337849432315875,-0.7213470814493417,5.274576594450729,-0.027180950119142976,-0.03087224241390148,-0.046781586111730646,-0.14846810041950825,0.029766422036952116,-0.12669911176073476,-0.3486893475055694,-2.116974353790283,-1.4036861658096311,-0.6550453901290894,0.5977916717529297,-0.2047999948263168
1749040115.7629197,-4.186290983532363,-0.7678208962574271,0.5291879458222579,5.337554540441255,-0.7212884886181811,5.274321978943824,-0.027599604504914894,-0.031030616943479996,-0.047525733247644183,-0.15097305231157057,0.030020588454014088,-0.1282201539927424,-0.3476877510547638,-2.134376049041748,-1.436428189277649,-0.6406475901603699,0.6073725819587708,-0.2270669639110565
1749040115.762957,-4.186347157610815,-0.7678847519218587,0.5290911372476915,5.337255009636688,-0.7212292652517099,5.274065243346249,-0.02802958222515626,-0.031164382864881598,-0.04829617078650008,-0.15351234674796055,0.030251114698352056,-0.12971891976794875,-0.3664799630641937,-2.1292943954467773,-1.4375008344650269,-0.6424992680549622,0.599027156829834,-0.2492958605289459
1749040115.7629943,-4.1864043853594834,-0.7679487933137129,0.5289925639067957,5.336950447650456,-0.7211693431748972,5.273805918293803,-0.028471943048003056,-0.03127671547782787,-0.049091102154535986,-0.15605271111805896,0.030461436241879827,-0.1312089775162218,-0.3693967163562774,-2.1234848499298096,-1.4256654977798462,-0.6556528806686401,0.5982396602630615,-0.233599841594696
1749040115.763032,-4.186462678955525,-0.7680129718332529,0.5288921543316888,5.336640575792075,-0.7211086779027333,5.273543515342688,-0.02892592516580174,-0.031370878299578804,-0.04990333014829179,-0.15855886588347373,0.03065335256451602,-0.1327047589714946,-0.3483657240867615,-2.138003349304199,-1.417026400566101,-0.6361470222473145,0.6034141182899475,-0.2445762306451797
1749040115.763137,-4.186522036928325,-0.7680772359701337,0.5287898893016133,5.336325240877938,-0.7210472532684112,5.273277577592067,-0.02938870992179251,-0.03145010869106119,-0.05072077028619187,-0.16099413135201596,0.030827445878004085,-0.1342189112918827,-0.3547190725803375,-2.130831718444824,-1.417985916137695,-0.6510770320892334,0.5947978496551514,-0.2591124773025512
1749040115.7646515,-4.186582442659985,-0.768141532727621,0.5286858032875517,5.336004418998014,-0.7209850812407665,5.273007723458684,-0.02985548408539871,-0.031517702911470345,-0.05152774414681595,-0.16332147950684725,0.03098388353720645,-0.13575982808315895,-0.3346144556999206,-2.1471283435821533,-1.390151858329773,-0.6623523831367493,0.588092565536499,-0.2355347871780395
1749040115.8063066,-4.186643864679658,-0.7682058110804234,0.5285799806292736,5.3356782128775775,-0.72092219803769,5.272733679404549,-0.030319776894552376,-0.031577229927399184,-0.05230678889788511,-0.16550524800747735,0.031123357765047682,-0.13732969415881732,-0.3262711465358734,-2.156794548034668,-1.375739574432373,-0.6387283205986023,0.563608705997467,-0.2627758383750915
1749040115.806352,-4.186706258354943,-0.7682700270174353,0.5284725480236693,5.335346844310809,-0.720858658265501,5.272455299532305,-0.030774017399872133,-0.03163279674777529,-0.05304065999545727,-0.16751352057201185,0.031247895711609335,-0.1389233058272358,-0.3238455355167389,-2.133713960647583,-1.3717670440673828,-0.6411784291267395,0.564434826374054,-0.2487106472253799
1749040115.8063924,-4.186769568404128,-0.7683341497088828,0.5283636651607339,5.335010642384337,-0.7207945288558346,5.272172572076468,-0.031210236314579667,-0.031689297196511035,-0.05371421387838843,-0.16932091412952274,0.03136131296444359,-0.14052782375299216,-0.3167212605476379,-2.1539225578308105,-1.3460181951522827,-0.6247187852859497,0.5794499516487122,-0.245429128408432
1749040115.806431,-4.186833731708924,-0.768398168246656,0.5282535150198464,5.3346700273557355,-0.720729884023821,5.27188561452459,-0.031620824362439855,-0.03175258851878822,-0.054315922745984645,-0.17091126721387528,0.03146917420764701,-0.1421234968379151,-0.3128882944583893,-2.158510684967041,-1.354506492614746,-0.5698128342628479,0.5752772688865662,-0.2635464966297149
1749040115.8064742,-4.186898680165833,-0.7684620979241178,0.5281422946610086,5.334325489692293,-0.7206648016480761,5.271594659974159,-0.031999256672190446,-0.03182954788554763,-0.054838871401551796,-0.17227959674912877,0.031578246044283706,-0.1436852800079714,-0.3361500203609466,-2.144364595413208,-1.3853743076324463,-0.6151888370513916,0.5851885080337524,-0.2559125423431396
1749040115.806514,-4.186964343685306,-0.7685259845511417,0.5280302067768011,5.333977564281968,-0.7205993608389113,5.271300037428784,-0.03234069925750876,-0.031927961254580084,-0.055281188266701434,-0.17343276491666676,0.03169555210217896,-0.145185164191183,-0.2999159693717956,-2.1367287635803223,-1.3561854362487793,-0.5519042015075684,0.5892417430877686,-0.2519640922546386
1749040115.806553,-4.187030653591875,-0.7685899054461308,0.527917452017003,5.333626800983985,-0.7205336403104818,5.271002148512416,-0.03264242680418533,-0.03205620061137747,-0.05564594061058677,-0.17438857960582557,0.03182724070026374,-0.14659495181137697,-0.3204700648784637,-2.1440584659576416,-1.3504679203033447,-0.5888054966926575,0.601478099822998,-0.2548244893550873
1749040115.8065906,-4.187097546244676,-0.7686539665519083,0.5278042220808528,5.333273733827772,-0.7204677173228295,5.2707014427533725,-0.032904001296223236,-0.03222267345506911,-0.055940564852472605,-0.1751734598519188,0.031977526811156544,-0.14788916129542407,-0.3098038136959076,-2.1648690700531006,-1.331742525100708,-0.6060006618499756,0.5974081754684448,-0.2458092421293258
1749040115.8066287,-4.187164965839505,-0.7687182960290678,0.5276906936865273,5.3329188516980865,-0.7204016669692777,5.270398393024277,-0.0331271916818478,-0.03243508767814115,-0.05617592174224996,-0.17581919927864903,0.03214795990285604,-0.1490477380510224,-0.31594979763031,-2.183502197265625,-1.3520393371582031,-0.6460325717926025,0.5978663563728333,-0.2387700378894806
1749040115.806666,-4.187232864826744,-0.7687830351806086,0.5275770236409468,5.332562573146308,-0.7203355613392604,5.270093471910295,-0.03331565384954187,-0.03269963908282543,-0.056365087043718884,-0.17635960836734907,0.032337199263417195,-0.15005828327367954,-0.31009441614151,-2.151437282562256,-1.329711675643921,-0.6269247531890869,0.6103482842445374,-0.2389793545007705
1749040115.8067036,-4.187301200915678,-0.7688483276946604,0.5274633452274052,5.332205227336392,-0.7202694678717171,5.269787129056147,-0.03347442624585081,-0.03302025806388805,-0.05652201133901268,-0.17682779903358828,0.032541365464249655,-0.150917578998706,-0.3023297190666199,-2.180177927017212,-1.3117587566375732,-0.6227479577064514,0.5994811058044434,-0.2098297625780105
1749040115.8067417,-4.187369931167153,-0.7689143083547221,0.5273497660524752,5.331847042325953,-0.7202034462600077,5.269479769279319,-0.03360931797593099,-0.033398034307039866,-0.0566601915773637,-0.1772545881884056,0.032754909022924564,-0.151632278855415,-0.2976806759834289,-2.1582300662994385,-1.3222419023513794,-0.63114333152771,0.597849428653717,-0.2369615286588668
1749040115.8067794,-4.187439005233653,-0.7689810927097923,0.5272363673999604,5.331488140959439,-0.7201375435712101,5.269171731504538,-0.03372627198618292,-0.033830895459948884,-0.05679149004574126,-0.1776680594527799,0.03297182723095589,-0.15221873450373488,-0.3124574422836303,-2.166039228439331,-1.3248212337493896,-0.589316189289093,0.6080624461174011,-0.2401051968336105
1749040115.8068163,-4.187508360292633,-0.7690487693368491,0.5271232048949249,5.331128543778872,-0.7200717877263452,5.268863269238467,-0.03383078126813964,-0.03431357398545515,-0.05692522436931868,-0.17809390937282155,0.03318699211213729,-0.15270202176375539,-0.312841534614563,-2.1702985763549805,-1.3290746212005615,-0.5905502438545227,0.6148886680603027,-0.1998458206653595
1749040115.8068528,-4.1875779193889375,-0.769117395826977,0.5270103098393302,5.330768177893203,-0.7200061800462588,5.26855453422413,-0.0339274231249803,-0.03483786544528848,-0.05706763442048476,-0.17855596828396486,0.03339733540598877,-0.1531143009786938,-0.3049012422561645,-2.171900749206543,-1.3158354759216309,-0.5519952774047852,0.5904285907745361,-0.2358879745006561
1749040115.8068895,-4.187647593500563,-0.7691869986519881,0.5268976902646147,5.330406890836379,-0.7199406880116717,5.268245565831459,-0.034019556148016675,-0.03539315589492856,-0.05722179769299919,-0.1790763078654234,0.033602667009205583,-0.153492678787643,-0.3037442862987518,-2.151581048965454,-1.3343346118927002,-0.5836199522018433,0.5817697644233704,-0.2229922115802765
1749040115.8069258,-4.187717286548367,-0.7692575762644219,0.5267853309361119,5.330044468808144,-0.7198752395767867,5.267936289093141,-0.03410920292486623,-0.03596716623922256,-0.05738801145711665,-0.17967461604629167,0.03380597579562155,-0.15387673406411057,-0.3112719357013702,-2.155567169189453,-1.3242729902267456,-0.5968809723854065,0.5830959677696228,-0.2396301627159118
1749040115.8069625,-4.1877869020867715,-0.7693291045555227,0.526673192184051,5.329680658831467,-0.7198097203781025,5.267626523494318,-0.03419712487944685,-0.03654682750650678,-0.057564595586458676,-0.1803669282386633,0.03401316811635265,-0.15430584993834157,-0.3314011991024017,-2.143256902694702,-1.326010823249817,-0.6167027950286865,0.606700599193573,-0.2391427308320999
1749040115.8069987,-4.187856350445606,-0.7694015439885553,0.526561208092312,5.32931519383432,-0.7197439751184083,5.267316002631871,-0.03428308000434316,-0.037119178479808355,-0.05774900191824049,-0.1811641787544934,0.03423231791724552,-0.15481648580057894,-0.3002799153327942,-2.1485273838043213,-1.3207378387451172,-0.6372247934341431,0.607075035572052,-0.2224361598491668
1749040115.8070388,-4.187925555473688,-0.7694748479101913,0.5264492849055855,5.328947818405955,-0.7196778141829885,5.267004402424939,-0.034366232303555455,-0.037672180650785654,-0.057939052705103154,-0.1820712070770524,0.0344725960254238,-0.15543954692558143,-0.3034788966178894,-2.159606695175171,-1.3095006942749023,-0.6465290784835815,0.6098750233650208,-0.2459702938795089
1749040115.8071513,-4.187994460463038,-0.769548971469794,0.5263373004917807,5.328578311583163,-0.7196110259028206,5.266691373748722,-0.034445658727705455,-0.03819537260234686,-0.05813408633146165,-0.18308673404436815,0.03474308182168262,-0.15619805954300434,-0.304030179977417,-2.1038503646850586,-1.3085901737213137,-0.6556942462921143,0.6084679365158081,-0.2465264499187469
1749040115.808258,-4.188063033007395,-0.7696238803332724,0.5262251055051794,5.328206502484907,-0.7195433937337575,5.266376574742768,-0.03452088781093343,-0.03868032263574375,-0.058335778193346295,-0.18420445747651873,0.03505163430030696,-0.1571054071963189,-0.3312453627586365,-2.188693046569824,-1.3072829246520996,-0.666623592376709,0.6147519946098328,-0.2625668942928314
1749040115.8502927,-4.188131268494993,-0.7696995581301527,0.5261125267234424,5.327832275559445,-0.7194747161758168,5.266059698400578,-0.03459240329231328,-0.039120871898635216,-0.0585484402199287,-0.18541496313931652,0.03540393900800995,-0.15816439127667234,-0.2894143164157867,-2.139780044555664,-1.3102928400039673,-0.5800230503082275,0.6167800426483154,-0.2536981701850891
1749040115.850356,-4.188199191980137,-0.7697760113893356,0.5259993728436367,5.327455564415767,-0.7194048259613899,5.26574049192554,-0.03466204340318224,-0.0395131839199304,-0.05877869479100344,-0.18670780538307083,0.03580279005814111,-0.15936731497197326,-0.3079683184623718,-2.126378297805786,-1.325944185256958,-0.5733754634857178,0.6128231287002563,-0.2815811038017273
1749040115.8504093,-4.188266858553905,-0.769853270766926,0.5258854426059605,5.327076335829794,-0.7193336045474821,5.265418765576668,-0.034733223175642,-0.03985563245124841,-0.05903456500511623,-0.18807303892578028,0.03624763565376745,-0.16069715369462523,-0.2967350780963897,-2.1254453659057617,-1.3414437770843506,-0.5885104537010193,0.6262984275817871,-0.2333717942237854
1749040115.8504531,-4.188334352828029,-0.7699313878815849,0.5257705344407476,5.3266945675810335,-0.7192609887519974,5.265094390348912,-0.034810922105794166,-0.04014857485730772,-0.05932418176190458,-0.18950172416970443,0.03673441057340587,-0.16212969642087638,-0.3209463357925415,-2.142158269882202,-1.3354027271270752,-0.5941826105117798,0.6383040547370911,-0.2538929581642151
1749040115.8504922,-4.188401788266169,-0.7700104279750372,0.5256544562317425,5.3263102246518805,-0.7191869683268843,5.264767285703334,-0.03490142507975197,-0.04039407195157681,-0.059654411064097,-0.19098538674928456,0.03725567999169778,-0.16363636941038778,-0.3672752976417541,-2.1663460731506348,-1.3775063753128052,-0.6439212560653687,0.6274629831314087,-0.2449740767478943
1749040115.850535,-4.188469306661042,-0.7700904595129712,0.5255370336539945,5.32592323798769,-0.7191115756243394,5.264437400329993,-0.0350118662075068,-0.04059561551166755,-0.06002971100950414,-0.192514881618814,0.03780110164892325,-0.16518733191499638,-0.3482065796852112,-2.1335668563842773,-1.3559255599975586,-0.6359419226646423,0.6173559427261353,-0.2266358286142349
1749040115.8505735,-4.188537077322413,-0.770171542402588,0.5254181159728234,5.325533488995786,-0.719034870469305,5.264104690155266,-0.03514966801886036,-0.040757905583781714,-0.06045144710911335,-0.19407937444126477,0.03835816838428443,-0.166754389999868,-0.3156390190124511,-2.1424460411071777,-1.354328155517578,-0.6501886248588562,0.6179190278053284,-0.2489718347787857
1749040115.8506112,-4.188605294820411,-0.7702537166292913,0.5252975789230495,5.325140801849837,-0.7189569243269538,5.263769098165702,-0.03532196428240556,-0.04088669039120836,-0.06091776536287536,-0.1956660920845087,0.038913137044975364,-0.1683133190659752,-0.3271598815917969,-2.155505657196045,-1.3607912063598633,-0.6328856348991394,0.6077983975410461,-0.2064956426620483
1749040115.8506494,-4.188674173736213,-0.7703369928734238,0.5251753250014483,5.324744944703304,-0.7188778075954944,5.2634305400761505,-0.03553505168633524,-0.04098865565642866,-0.06142398801029146,-0.19726115296492622,0.039452014518564345,-0.1698453163588834,-0.3377599716186523,-2.148810386657715,-1.35479474067688,-0.6300058364868164,0.6091808676719666,-0.2145760357379913
1749040115.8506904,-4.188743939221964,-0.7704213462165712,0.5250512820947237,5.32434564005503,-0.7187975825169376,5.263088898667568,-0.03579387458108368,-0.04107133236061877,-0.06196339305775841,-0.1988513293504017,0.039961477286768764,-0.17133749995339048,-0.3220467269420624,-2.138686180114746,-1.3471606969833374,-0.5830523371696472,0.628948986530304,-0.202204942703247
1749040115.8507285,-4.188814813305857,-0.770506713512598,0.5249254018672269,5.323942583727341,-0.7187163023201248,5.262744028064431,-0.03610154016385085,-0.0411429829512038,-0.06252818387677794,-0.200426204415617,0.04042964082579532,-0.172782582395249,-0.3528391718864441,-2.142481565475464,-1.364943265914917,-0.563582181930542,0.5952886343002319,-0.2208812236785888
1749040115.8507662,-4.188886998149772,-0.7705929944476926,0.5247976595914302,5.323535471278308,-0.7186340154871305,5.262395767503036,-0.036458884009575476,-0.0412124296617559,-0.0631104501915543,-0.2019800081768621,0.040846643579782946,-0.1741780208131906,-0.3581618070602417,-2.1437528133392334,-1.3499521017074585,-0.5620258450508118,0.6122341156005859,-0.2320588529109954
1749040115.850804,-4.188960658206336,-0.7706800558900848,0.524668056764479,5.323124030169201,-0.7185507730752052,5.262043962428967,-0.03686413222223849,-0.04128880629196706,-0.06370295912306025,-0.20351251315003221,0.04120504111207961,-0.1755250374116728,-0.3502153158187866,-2.1529641151428223,-1.3642945289611816,-0.5719684362411499,0.5901283025741577,-0.2282709181308746
1749040115.8508444,-4.189035903453669,-0.7707677390078619,0.5245366268284206,5.322708055493021,-0.7184666371007816,5.261688489414463,-0.03731271904769204,-0.04138123731987403,-0.06429968022892846,-0.20502870765343395,0.041500013067453295,-0.176827879898358,-0.3552967309951782,-2.154716730117798,-1.356119155883789,-0.5811480283737183,0.5966315865516663,-0.2315826267004013
1749040115.850882,-4.189112776013946,-0.7708558687604461,0.5244034430222322,5.322287446348973,-0.718381688757642,5.26132928083457,-0.037797314131062326,-0.041498462571423006,-0.06489601987551825,-0.2065374058496231,0.041729387986971615,-0.17809353804981864,-0.35402911901474,-2.175957679748535,-1.3657042980194092,-0.6275150179862976,0.570479691028595,-0.2393441200256347
1749040115.8509195,-4.189191242527206,-0.7709442654366359,0.5242686264258999,5.321862238985078,-0.7182960358963286,5.26096634557814,-0.038308095104115286,-0.04164842778627303,-0.06548879712263352,-0.20804931199541368,0.04189351103997708,-0.17933189114378495,-0.3438916206359863,-2.140233993530273,-1.3481367826461792,-0.6199530959129333,0.584335207939148,-0.2177497446537017
1749040115.8509562,-4.189271194239131,-0.7710327576566476,0.5241323519129255,5.3214326318697704,-0.7182098191645333,5.2605997829755715,-0.03883327380344789,-0.04183785937427307,-0.06607602759116027,-0.20957517852446295,0.041995014881358726,-0.18055602155696207,-0.3658690452575683,-2.129793405532837,-1.3622519969940186,-0.6279008388519287,0.5924931764602661,-0.1948424279689788
1749040115.8509965,-4.189352455557488,-0.7711211957763265,0.5239948499136228,5.32099899733114,-0.7181232156330706,5.260229788151165,-0.03935985300641762,-0.04207184842329981,-0.06665660096295899,-0.2111245377220288,0.04203858106244367,-0.18178228966930038,-0.355947196483612,-2.1764471530914307,-1.3910764455795288,-0.6009837985038757,0.5750904679298401,-0.2034846246242523
1749040115.8510342,-4.189434800105207,-0.7712094643339079,0.5238564023061103,5.320561874719232,-0.7180364381926372,5.259856647733532,-0.03987455933477235,-0.042353487542897,-0.06722995012834147,-0.2127051359034837,0.04203077956232929,-0.18302978799352398,-0.335550457239151,-2.1669139862060547,-1.378506422042847,-0.5545814633369446,0.5821987986564636,-0.1854053437709808
1749040115.8510711,-4.1895179718344595,-0.7712974923272328,0.5237173311670001,5.320121941362878,-0.7179497289861254,5.259480725003962,-0.04036487101287699,-0.04268361552395948,-0.06779580859490528,-0.21432284409271915,0.04198004150750277,-0.18431897762640867,-0.3244957625865936,-2.15328311920166,-1.3706098794937134,-0.5638468265533447,0.5946344137191772,-0.2010930478572845
1749040115.8511806,-4.189601708295158,-0.7713852605406727,0.5235779795660763,5.3196799598247395,-0.7178633457910512,5.259102433364987,-0.04082004099885892,-0.04306070438265617,-0.06835412803150401,-0.21598164583934618,0.041896759069282134,-0.1856695832868777,-0.3438851833343506,-2.114288091659546,-1.378104567527771,-0.5355967879295349,0.5893929600715637,-0.2178968489170074
1749040115.8522666,-4.189685763720312,-0.7714728054959117,0.523438684369312,5.319236703005153,-0.717777541517493,5.258722197407783,-0.04123200926904921,-0.043480877105455604,-0.06890518798677281,-0.21768339608616735,0.04179342909455121,-0.18709807518074625,-0.319728672504425,-2.131545305252075,-1.3771353960037231,-0.5931639075279236,0.5843779444694519,-0.2519477903842926
1749040115.894307,-4.189769930473169,-0.7715602196644216,0.5232997424040705,5.318792862586631,-0.7176925386193971,5.258340402881969,-0.041596102289211734,-0.04393801255029717,-0.06944988639429078,-0.21942733761613478,0.04168468503609425,-0.18861521235051096,-0.35366952419281,-2.1809732913970947,-1.4072481393814087,-0.6222260594367981,0.5613892078399658,-0.242893636226654
1749040115.8943534,-4.189854057691748,-0.7716476473881592,0.5231613733041586,5.318348951183135,-0.7176085017463383,5.25795734065747,-0.041911433657995996,-0.044423905252840575,-0.06999014735550066,-0.22120966298914643,0.04158702841484871,-0.1902241258350305,-0.3213575780391693,-2.1111044883728027,-1.3620165586471558,-0.6539973020553589,0.5631265044212341,-0.247618168592453
1749040115.8943954,-4.189938065421413,-0.7717352757788459,0.5230236843933854,5.317905213459733,-0.7175255127624014,5.257573154052327,-0.042180949216293874,-0.04492848434351735,-0.07052931996519705,-0.22302351785533273,0.041518112574567126,-0.1919192866843057,-0.3213575780391693,-2.1111044883728027,-1.3620165586471558,-0.6539973020553589,0.5631265044212341,-0.247618168592453
1749040115.8944354,-4.1900219518989985,-0.771823320141585,0.5228866441041907,5.317461563908376,-0.7174435521057296,5.257187801361849,-0.04241109750733381,-0.04544011760560047,-0.07107239574517456,-0.22485967439453328,0.04149555510972077,-0.19368648919907283,-0.3379114866256714,-2.1413445472717285,-1.381139636039734,-0.601270318031311,0.59043949842453,-0.2543534338474273
1749040115.8944733,-4.190105792032039,-0.7719120045009256,0.5227500696349997,5.317017566176014,-0.7173624896986992,5.256801043985991,-0.04261114318154783,-0.045946020649576216,-0.07162588234500479,-0.22670775916736266,0.04153541403794155,-0.19550377681970574,-0.3379114866256714,-2.1413445472717285,-1.381139636039734,-0.601270318031311,0.59043949842453,-0.2543534338474273
1749040115.8945143,-4.190189726844488,-0.7720015393593036,0.5226136317390135,5.316572460617214,-0.7172820874809547,5.256412465030184,-0.04279217762836525,-0.04643277558477783,-0.07219724893304842,-0.22855761625262738,0.041650582305384626,-0.197343118776805,-0.3320412039756775,-2.1224889755249023,-1.3718957901000977,-0.5964376330375671,0.6150336265563965,-0.2439812570810318
1749040115.8945525,-4.19027394596113,-0.7720921001137145,0.522476875965874,5.3161252361260285,-0.7172020139287242,5.2560215157576335,-0.04296592764208703,-0.04688695462014675,-0.07279397415301284,-0.23040032114026798,0.04184938950827801,-0.19917261676471643,-0.363669753074646,-2.1447126865386963,-1.3698861598968506,-0.5851858854293823,0.5995768904685974,-0.2668471336364746
1749040115.8945897,-4.190358666766013,-0.7721838098394274,0.5223392570418588,5.315674733653611,-0.7171218687770491,5.255627580972612,-0.043143515398497576,-0.047295838126385194,-0.07342233838601878,-0.23222857519462395,0.042134652851442404,-0.20095904734425457,-0.3554162979125976,-2.138336420059204,-1.3917334079742432,-0.646307110786438,0.6202862858772278,-0.2567703425884247
1749040115.8946266,-4.190444113802535,-0.7722767292453625,0.5222001821852472,5.315219765091644,-0.7170412144307675,5.255230051653636,-0.043334352203636246,-0.047648203103229196,-0.07408618182641258,-0.234036567130425,0.042503325958120224,-0.20267059206031493,-0.354335069656372,-2.139582633972168,-1.411564588546753,-0.6979259252548218,0.6060351133346558,-0.2464917153120041
1749040115.8946636,-4.190530500526841,-0.7723708549452178,0.5220590594413954,5.314759232263123,-0.716959609931263,5.254828394047585,-0.04354532517488097,-0.04793513429221478,-0.07478588327289712,-0.2358196715637044,0.04294679011161152,-0.2042796418815601,-0.3496838808059692,-2.1054928302764893,-1.4013718366622925,-0.6858529448509216,0.6162734627723694,-0.2656730413436889
1749040115.8947015,-4.190618013861045,-0.7724661253756404,0.5219153474126801,5.314292234246006,-0.7168766437373761,5.254422207388159,-0.04378036601759894,-0.04815078492989083,-0.07551778814306132,-0.2375744014367394,0.043451735860387114,-0.2057655487761895,-0.343632698059082,-2.122856378555298,-1.4053146839141846,-0.6777349710464478,0.5987024307250977,-0.268336534500122
1749040115.8947392,-4.190706801132262,-0.77256243223276,0.5217686025311636,5.313818154991324,-0.7167919625155691,5.254011265854374,-0.04404041167980718,-0.048292999952335776,-0.07627422862697245,-0.23929881015880594,0.04400149612457959,-0.207117112359988,-0.3413642048835754,-2.1039998531341557,-1.4024056196212769,-0.6441810131072998,0.6108471751213074,-0.2295620590448379
1749040115.8947766,-4.1907969589921965,-0.7726596345763362,0.5216185197603884,5.3133367262680595,-0.7167052942311033,5.25359554345562,-0.044323709920143034,-0.048363719037365145,-0.07704415627469333,-0.2409931779999277,0.04457762478454863,-0.2083344579013078,-0.3534924387931824,-2.087038278579712,-1.36596417427063,-0.6258178353309631,0.6113242506980896,-0.2311169058084488
1749040115.8948145,-4.190888524293591,-0.772757572870573,0.5214649629887432,5.312848063140746,-0.7166164647530984,5.253175222649539,-0.04462639263858916,-0.048369100898416444,-0.07781427732823712,-0.2426605403707534,0.04516149442487495,-0.20942986116445578,-0.3587795197963714,-2.119574546813965,-1.3650877475738523,-0.6071423888206482,0.6178832054138184,-0.2029473036527633
1749040115.8948517,-4.190981467362894,-0.7728560809729864,0.5213079824118743,5.312352670517657,-0.7165254076643122,5.2527506884101856,-0.04494322110539982,-0.048319350101324744,-0.07857047380891694,-0.2443066006079231,0.04573573020847385,-0.21042710270339557,-0.3490958511829376,-2.124199390411377,-1.3767874240875244,-0.6459798812866211,0.6156484484672546,-0.1953588426113128
1749040115.8948889,-4.191075688589392,-0.7729549951731042,0.5211478173769034,5.311851420140691,-0.7164321670195059,5.2523225093164765,-0.04526838920435425,-0.04822827112741467,-0.07929924035496662,-0.24593882729727903,0.04628537809435094,-0.21135914514089185,-0.3308964073657989,-2.1453697681427,-1.3454618453979492,-0.6911219954490662,0.6303762793540955,-0.2311281859874725
1749040115.8949256,-4.191171019547185,-0.7730541605143418,0.5209848840970138,5.311345498118545,-0.7163368927500009,5.251891406375168,-0.04559626206213804,-0.04811259927335701,-0.07998888301836003,-0.24756491359648217,0.046798770255690715,-0.21226428725972238,-0.3402973413467407,-2.1452853679656982,-1.3588223457336426,-0.7167567014694214,0.6178867816925049,-0.2588064074516296
1749040115.8949635,-4.191267229795277,-0.7731534353688949,0.5208197484079194,5.310836323992672,-0.7162398285238326,5.251458209298701,-0.04592194493357575,-0.04799115377455807,-0.08063029609323827,-0.24919106151914563,0.047268064492751914,-0.21318133862340982,-0.3467844128608703,-2.1126599311828613,-1.3222800493240356,-0.707584798336029,0.6252421140670776,-0.2480661869049072
1749040115.895,-4.191364040187669,-0.7732526953597373,0.5206530846518035,5.310325443713523,-0.7161412921260716,5.2510237997218665,-0.046241621478982343,-0.047883845525251455,-0.08121722986502575,-0.25082059945214313,0.04768941467075623,-0.214144630398459,-0.323483407497406,-2.165880918502808,-1.3308720588684082,-0.6987107396125793,0.6208909749984741,-0.2973645329475403
1749040115.8950374,-4.191461143079423,-0.7733518374529796,0.5204856231262687,5.309814401324647,-0.7160416488762036,5.250589042150855,-0.04655265357950621,-0.04781057750870084,-0.08174606804880413,-0.25245324674938857,0.048062725058454554,-0.21517972674265406,-0.3432121574878692,-2.147714138031006,-1.3438477516174316,-0.6645303964614868,0.6002128720283508,-0.2640213072299957
1749040115.8951433,-4.191558228939059,-0.7734507846011409,0.5203180903131456,5.309304597948192,-0.7159412795212344,5.250154706408828,-0.0468534805427222,-0.04779009826499916,-0.082215234794363,-0.25408505040128226,0.04839098741216024,-0.21630051076055315,-0.3638913631439209,-2.170115232467652,-1.35184907913208,-0.676849365234375,0.6193274855613708,-0.2648090720176697
1749040115.896328,-4.191655017236022,-0.7735494907166712,0.5201511478957295,5.3087971514557495,-0.7158405454581163,5.249721389330611,-0.04714338836669639,-0.04783888201386036,-0.08262442890362189,-0.2557088211799765,0.048679286227734944,-0.21750797292827806,-0.3545102477073669,-2.1555936336517334,-1.337523341178894,-0.6871866583824158,0.6203356385231018,-0.2518774271011352
1749040115.94232,-4.191751287472001,-0.7736479452163685,0.5199853376706539,5.308292774201907,-0.7157397554553717,5.249289446892811,-0.047422235844433,-0.04797010187081056,-0.08297391573942632,-0.2573148847698844,0.048933641333417786,-0.21879067383936157,-0.3545102477073669,-2.1555936336517334,-1.337523341178894,-0.6871866583824158,0.6203356385231018,-0.2518774271011352
1749040115.942367,-4.191846905108293,-0.7737461763992952,0.5198210390164961,5.307791686130292,-0.7156391383934534,5.248858948224364,-0.047690218225518805,-0.04819274789436726,-0.08326407871999247,-0.2588920792490543,0.04915989320627842,-0.2201266164238322,-0.367732286453247,-2.1644177436828613,-1.3132972717285156,-0.7168659567832947,0.6324971914291382,-0.2356443554162979
1749040115.9424071,-4.191941837912598,-0.7738442535817172,0.5196584432323973,5.307293574409072,-0.715538825592178,5.248429658334663,-0.047947719442467285,-0.048510934669516566,-0.08349534326265515,-0.2604290179928256,0.0493628084361051,-0.22148618587940028,-0.3382247686386108,-2.1629478931427,-1.305086612701416,-0.727292537689209,0.6165532469749451,-0.2569234371185303
1749040115.942446,-4.192036160551442,-0.7739422885140564,0.5194975457451281,5.306797601322068,-0.7154388446187354,5.248001049083514,-0.048195258415846196,-0.04892344317871429,-0.0836684646123552,-0.26191557867878956,0.04954551067724843,-0.22283584420488414,-0.3175760507583618,-2.1541316509246826,-1.3004469871520996,-0.6675108671188354,0.6206199526786804,-0.2864039540290832
1749040115.942484,-4.192130047689927,-0.7740404363935808,0.5193381546452401,5.306302455296446,-0.7153391248679887,5.247572332681221,-0.048433493762731296,-0.0494235378152742,-0.08378506300475477,-0.26334439935522835,0.04970926567504483,-0.22414230225450718,-0.3719323277473449,-2.14858627319336,-1.3008793592453003,-0.6718831062316895,0.6113882064819336,-0.2945300638675689
1749040115.9425232,-4.192223757307535,-0.7741388957882108,0.5191799130968372,5.305806438461401,-0.7152395138784315,5.247142511387717,-0.048663237894099695,-0.04999908636600273,-0.08384823327159914,-0.2647120095734674,0.04985359800075449,-0.22537685136893226,-0.3312367796897888,-2.1673972606658936,-1.2939691543579102,-0.6536343693733215,0.6056181192398071,-0.3055137693881988
1749040115.9425614,-4.19231760627952,-0.7742379056878571,0.5190223332465582,5.305307585734544,-0.7151398021799271,5.246710439625824,-0.04888544817000428,-0.05063299455329019,-0.08386306522395218,-0.26601924962970347,0.04997669650821754,-0.22651939733491872,-0.3314771056175232,-2.151686429977417,-1.3215957880020142,-0.6693817973136902,0.6235491633415222,-0.2363545894622802
1749040115.942598,-4.192411940192869,-0.7743377373994094,0.5188648393506542,5.304803811466162,-0.7150397536294532,5.246274897619064,-0.049101184777170195,-0.05130395421651927,-0.0838369731449882,-0.2672708615318348,0.05007605849377498,-0.22756157147141826,-0.3058430254459381,-2.1530723571777344,-1.3138734102249146,-0.7157065868377686,0.6122832298278809,-0.2124037742614746
1749040115.9426353,-4.192507099682605,-0.7744386794514945,0.5187068174858035,5.3042930780541635,-0.7149391378288431,5.245834676895148,-0.04931153522810492,-0.05198749536307951,-0.0837798112447198,-0.2684744380503027,0.05014931015419778,-0.22850823717352853,-0.3627815544605255,-2.1357223987579346,-1.3228495121002195,-0.716923713684082,0.6308540105819702,-0.1964619010686874
1749040115.9426732,-4.192603386456021,-0.7745410150565125,0.5185476683319894,5.303773576206205,-0.7148377610291893,5.24538867634064,-0.049517513963468866,-0.05265732252525326,-0.08370380505761926,-0.2696390997264565,0.05019511689712482,-0.22937689271019696,-0.3462474346160888,-2.132935047149658,-1.326321005821228,-0.6942627429962158,0.6091564893722534,-0.230308398604393
1749040115.9427102,-4.192701033045107,-0.7746449937251446,0.5183868581990896,5.303243899397153,-0.7147354915557248,5.244936002474495,-0.04971995907521611,-0.053286899321408614,-0.0836233362557195,-0.27077424507297343,0.0502140677664893,-0.23019490069220344,-0.3462474346160888,-2.132935047149658,-1.326321005821228,-0.6942627429962158,0.6091564893722534,-0.230308398604393
1749040115.9427476,-4.1928001805864845,-0.774750800875574,0.5182239622186229,5.302703188114724,-0.7146322755010818,5.244476060688367,-0.04991945123035924,-0.05385121685899181,-0.08355459022681981,-0.27188855770749343,0.05020939647802561,-0.23099500478507023,-0.3251572847366333,-2.1247928142547607,-1.3224620819091797,-0.6599754095077515,0.6074097752571106,-0.2316230982542038
1749040115.9427853,-4.192900868230522,-0.774858530833515,0.51805869358324,5.302151217750889,-0.7145281391641884,5.244008619812642,-0.05011626611059629,-0.054328641672543365,-0.08351503845314814,-0.27298930153035295,0.05018740113006749,-0.2318100156110431,-0.3470574021339416,-2.122422695159912,-1.353866696357727,-0.70244300365448,0.5928876399993896,-0.3229345679283142
1749040115.942826,-4.19300303586123,-0.7749681683704631,0.5178909149756685,5.301588412333197,-0.7144231772424767,5.243533835535575,-0.050310360802349754,-0.05470269485913831,-0.08352270903700114,-0.2740818894209488,0.0501574533516923,-0.23266772140826666,-0.3316431641578674,-2.072692632675171,-1.319204807281494,-0.722864031791687,0.5858635306358337,-0.2984203398227691
1749040115.9428637,-4.193106538952438,-0.7750795817471735,0.517720632416498,5.30101578330984,-0.7143175295583494,5.243052228875903,-0.05050140191312113,-0.05496358100474351,-0.08359521917330287,-0.27516976056853876,0.05013154211590538,-0.2335869805082585,-0.3145304024219513,-2.086252450942993,-1.3404736518859863,-0.7038509249687195,0.5993983149528503,-0.3005935847759247
1749040115.9429004,-4.193211171842394,-0.7751925275853279,0.5175479754354201,5.300434809360241,-0.7142113521491923,5.242564627353363,-0.050688858087773576,-0.05510928184198819,-0.08374860619765145,-0.2762546434770058,0.05012336663974226,-0.23457563702665396,-0.362212985754013,-2.10219407081604,-1.3858720064163208,-0.748688280582428,0.5893172025680542,-0.2898710668087005
1749040115.942937,-4.1933166947051825,-0.7753066664423043,0.5173731688425707,5.299847281227521,-0.7141047892760337,5.24207208197682,-0.050872181145398994,-0.0551460649567679,-0.08399607538339601,-0.27733721507906,0.05014706498099195,-0.23563047808950707,-0.3624574244022369,-2.100090980529785,-1.3772602081298828,-0.7033936977386475,0.6015864610671997,-0.2892743647098541
1749040115.942973,-4.193422860121762,-0.7754215878492102,0.5171965006379199,5.299255134375902,-0.7139979515107393,5.241575772315878,-0.05105107709450701,-0.05508832438121889,-0.08434684129680965,-0.27841799979897264,0.050215730261330735,-0.23673906270449255,-0.3158146739006042,-2.114911794662476,-1.3924684524536133,-0.6662981510162354,0.6056851148605347,-0.2826578021049499
1749040115.9430094,-4.193529436625282,-0.7755368435962045,0.5170182891817087,5.298660286996354,-0.7138909027828666,5.241076908703862,-0.0512258267605578,-0.054957748574016016,-0.0848052461627549,-0.27949820901248007,0.05033991605688318,-0.23788300102009868,-0.3265068829059601,-2.1117987632751465,-1.3932560682296753,-0.6487511992454529,0.6182813048362732,-0.2843845784664154
1749040115.9430463,-4.193636228027059,-0.7756519871923011,0.5168388517541609,5.298064495771647,-0.7137836570382745,5.240576637994155,-0.05139757817305631,-0.05478188313364302,-0.08537029523973542,-0.28058022599070653,0.05052635735810852,-0.23904214261899845,-0.3322762846946716,-2.11068058013916,-1.4117645025253296,-0.6705179214477539,0.625512957572937,-0.3077329695224762
1749040115.9430828,-4.193743088078899,-0.7757666157978761,0.5166584764163819,5.297469238317019,-0.7136761834453675,5.240075958066938,-0.05156852326145258,-0.05459221023234455,-0.08603567599029767,-0.2816676096058206,0.05077712189340135,-0.24019905885447793,-0.3350189924240112,-2.149038553237915,-1.415596604347229,-0.7158345580101013,0.6174449324607849,-0.3022008538246155
1749040115.9431188,-4.193849929951549,-0.7758804094274955,0.5164773994631027,5.296875629462703,-0.7135684181570938,5.239575646681523,-0.05174189382500538,-0.05442190512391952,-0.08679024677499177,-0.28276471495092326,0.05108934540958667,-0.24134311156537025,-0.3220654129981994,-2.122400999069214,-1.4105859994888306,-0.6929929852485657,0.629625141620636,-0.2278559058904647
1749040115.9432218,-4.193956729608123,-0.7759931617291711,0.5162957910437399,5.296284377559879,-0.7134602804163823,5.239076211724259,-0.05192175059590636,-0.054303453680108624,-0.08761891045076861,-0.28387616492858186,0.05145559363591701,-0.24247331850896237,-0.3220654129981994,-2.122400999069214,-1.4105859994888306,-0.6929929852485657,0.629625141620636,-0.2278559058904647
1749040115.9443283,-4.194063522286988,-0.7761047977116086,0.5161137507568936,5.295695784133765,-0.7133516906707297,5.238577869908242,-0.05211258043305234,-0.05426631754772426,-0.08850373991726135,-0.28500638687339785,0.05186476233437006,-0.24359927971115833,-0.3635998070240021,-2.154547929763794,-1.3946294784545898,-0.6634577512741089,0.6282463073730469,-0.2261974960565567
1749040115.9903293,-4.1941703924865905,-0.7762153763889963,0.515931312873649,5.295109783630308,-0.7132425877958373,5.238080557113633,-0.05231875582168848,-0.05433481335870552,-0.08942519947593605,-0.2861593109337372,0.0523033252780176,-0.24473974705352952,-0.3687896132469177,-2.148926019668579,-1.4056553840637207,-0.6610103845596313,0.6208677291870117,-0.2566624581813812
1749040115.9903774,-4.194277459496228,-0.7763250793665635,0.5157484585012716,5.294526012471164,-0.7131329419927611,5.237583967344948,-0.052543942754859074,-0.054526341462712125,-0.09036331048926233,-0.28733822311828416,0.052756709267458776,-0.245918992429263,-0.350568562746048,-2.176544189453125,-1.389922261238098,-0.6709408760070801,0.6241769194602966,-0.3014705777168274
1749040115.9904332,-4.194384861316754,-0.7764341883072755,0.5155651312646572,5.293943893676212,-0.7130227606173278,5.237087613178724,-0.052790560196844395,-0.05485007121540829,-0.09129864699571297,-0.2885457346518414,0.05321062229478383,-0.24716175950027297,-0.368206650018692,-2.1724374294281006,-1.3997055292129517,-0.7069147229194641,0.6505069732666016,-0.3595066368579864
1749040115.9904742,-4.19449273912307,-0.7765430545171228,0.5153812542057025,5.2933627262635685,-0.7129120863824574,5.236590900191858,-0.053059395152832915,-0.05530616639175644,-0.0922131135465528,-0.2897838492176647,0.05365225050364943,-0.24848799902154659,-0.368206650018692,-2.1724374294281006,-1.3997055292129517,-0.7069147229194641,0.6505069732666016,-0.3595066368579864
1749040115.9905124,-4.194601223058106,-0.7766520636802074,0.5151967467761789,5.292781772481181,-0.7128009895968991,5.236093208041792,-0.053349461404194075,-0.05588561096973383,-0.09309053439277225,-0.2910541260595383,0.05407130919920396,-0.24990861565785427,-0.3628448843955993,-2.172371387481689,-1.404061794281006,-0.6875008940696716,0.6364351511001587,-0.3416303396224975
1749040115.9905508,-4.194710419415504,-0.7767615992381871,0.5150115403670597,5.292200335716978,-0.712689556698096,5.235593968631851,-0.05365814919434622,-0.0565706667414176,-0.09391713990069225,-0.2923579194080317,0.05446093603651492,-0.2514231084249717,-0.3466176390647888,-2.142158031463623,-1.3949564695358276,-0.6527285575866699,0.6238833665847778,-0.3063698410987854
1749040115.990589,-4.194820399570985,-0.7768720087533759,0.5148255893351013,5.291617819117995,-0.7125778763703738,5.235092728873222,-0.05398164706688202,-0.05733595806753224,-0.09468204572549851,-0.2936966347725225,0.05481835994404166,-0.2530194377809559,-0.3655571639537811,-2.1709301471710205,-1.397122144699097,-0.6420345306396484,0.6002460718154907,-0.2686773538589477
1749040115.9906268,-4.194931191807711,-0.7769835776018097,0.5146388739406926,5.291033755016599,-0.7124660236870518,5.2345891860927605,-0.05431554973376731,-0.058150142463911245,-0.09537777512939519,-0.2950719151688967,0.05514522364434318,-0.2546759276195573,-0.359237790107727,-2.191480875015259,-1.3783307075500488,-0.6421423554420471,0.6010834574699402,-0.2534582018852234
1749040115.990664,-4.195042777735212,-0.7770965129673407,0.514451393036977,5.290447800655833,-0.7123540431812632,5.234083189321135,-0.05465552779406838,-0.05897809563018118,-0.09600079338158199,-0.2964856879566091,0.05544743353983631,-0.25636467457938455,-0.3588285148143768,-2.187788248062134,-1.38229501247406,-0.672274649143219,0.5888928771018982,-0.3073468208312988
1749040115.9907012,-4.195155094812639,-0.7772109388725944,0.5142631471635583,5.289859704038438,-0.7122419330355373,5.233574707232581,-0.054997933584239385,-0.05978350405998645,-0.09655194208643657,-0.2979400640742569,0.05573447178132747,-0.2580558134123191,-0.3449353873729706,-2.12177848815918,-1.3790276050567627,-0.6722173690795898,0.6091163754463196,-0.3127806186676025
1749040115.9907382,-4.19526804529673,-0.7773269007172978,0.514074115845216,5.289269251687419,-0.7121296334677674,5.233063771185425,-0.05534023876759175,-0.06053169783200652,-0.09703661769313048,-0.29943713567252883,0.05601820981191498,-0.25972197759596294,-0.3804871737957001,-2.126839399337769,-1.365201473236084,-0.656279981136322,0.6112382411956787,-0.2994209825992584
1749040115.9907756,-4.19538151010658,-0.7774443762488554,0.5138842353996224,5.288676215337108,-0.7120170223164243,5.232550408305756,-0.05568123159646177,-0.061192483101353425,-0.09746455158083911,-0.3009787166981026,0.05631136941896136,-0.26134229220752275,-0.3804871737957001,-2.126839399337769,-1.365201473236084,-0.656279981136322,0.6112382411956787,-0.2994209825992584
1749040115.9908128,-4.195495364743271,-0.7775632896762945,0.5136933841710855,5.288080314384427,-0.7119039198726478,5.232034582253459,-0.0560209428259544,-0.061742692991023085,-0.09784911156069624,-0.30256603570919216,0.05662584024360865,-0.2629052381809719,-0.3503322601318359,-2.119619607925415,-1.343556523323059,-0.6479502320289612,0.6158597469329834,-0.2186611592769622
1749040115.9908493,-4.195609494484775,-0.7776835267351614,0.5135013799747848,5.287481203762332,-0.711790103362881,5.23151615551134,-0.05636031786306816,-0.062168193098913097,-0.09820613232091463,-0.3041993959359684,0.05697105801357829,-0.264409831557288,-0.3625063300132751,-2.122671842575073,-1.3710837364196775,-0.6892407536506653,0.6229832172393799,-0.239731565117836
1749040115.9908855,-4.19572380730017,-0.7778049499220071,0.5133079905880773,5.286878486084656,-0.7116753295246975,5.23099487839955,-0.05670070221493992,-0.062465137205600534,-0.09855237472480632,-0.3058778965692889,0.05735259704576141,-0.26586484740520583,-0.3666603565216064,-2.117722272872925,-1.3752158880233765,-0.7200068831443787,0.6123056411743164,-0.2584241032600403
1749040115.9909215,-4.1958382440695265,-0.7779274136980517,0.5131129545871517,5.2862717390901235,-0.7115593620279126,5.230470402094112,-0.05704324659617999,-0.06264034280925582,-0.09890379766712597,-0.30759939269337927,0.05777108282481225,-0.267286245179346,-0.3509250283241272,-2.097046136856079,-1.3927361965179443,-0.7207233309745789,0.6137587428092957,-0.2881989777088165
1749040115.9909627,-4.195952786025068,-0.7780507790950043,0.5129160080576386,5.285660547935369,-0.711441999488443,5.229942309216128,-0.05738835594955279,-0.06271073482012994,-0.09927388118808614,-0.30936084077082465,0.05822151533118676,-0.2686933780220845,-0.3563080430030823,-2.115624189376831,-1.3859870433807373,-0.6799487471580505,0.623792827129364,-0.3123805522918701
1749040115.991001,-4.196067459130781,-0.7781749265983509,0.5127169125193862,5.28504453469682,-0.7113230996931718,5.229410155131768,-0.05773529538715636,-0.06270188855986698,-0.09967224077898908,-0.31115899060887964,0.058693099630673796,-0.2701048360843871,-0.3471450507640838,-2.092588424682617,-1.38816499710083,-0.6721900701522827,0.6207802295684814,-0.3162386417388916
