nimar13/UR3e_dataset_trayectorias/trayectorias_ejecutadas_filtradas/quintic_func/trayectoria_086_result_filtrado.csv
timestamp,q1,q2,q3,q4,q5,q6,qd1,qd2,qd3,qd4,qd5,qd6,tau1,tau2,tau3,tau4,tau5,tau6
1749041543.2662766,2.6827627256875792,-1.125416621033607,-2.301240277339486,4.050934472421326,-2.629073374353781,-4.913426226465938,-0.0008854051725911238,0.0005894781301013625,-0.0018846236237693582,0.0014633690696161218,-0.002096946998595717,-0.0038034269905043057,0.1402663737535476,0.6253902912139893,0.9754015207290648,0.5465099811553955,0.1082076430320739,-0.0899274498224258
1749041543.2663257,2.6827545872551557,-1.1254183081675393,-2.301239924033218,4.050929709824643,-2.6290672314636057,-4.9134274574599255,-0.0013259378768990672,0.0006721241648170311,-0.0014693378085065718,0.000821254885999688,-0.0013284365444336073,-0.00291086311177716,0.1402219235897064,0.6216001510620117,0.9869951009750366,0.5414519309997559,0.1091997027397155,-0.0954858213663101
1749041543.2663662,2.682746578869424,-1.1254196314841944,-2.3012393717455777,4.050925094615473,-2.6290612600819343,-4.913428455711586,-0.0017491983943716566,0.0007542304177258661,-0.0010598285059602716,0.00020147206357530625,-0.0005847143419438435,-0.0020361636686131138,0.128722459077835,0.6070782542228699,1.022844314575195,0.5270383358001709,0.1349173784255981,-0.0758612900972366
1749041543.2664046,2.6827388268301173,-1.1254203798775066,-2.301238485308695,4.05092071917178,-2.629055557915799,-4.913428967360284,-0.0021362031981373387,0.0008363308942711767,-0.0006630712388719426,-0.00037420151595895054,0.00011050562420594465,-0.0011984755472941148,0.1176956221461296,0.6148938536643982,1.028849482536316,0.5257995128631592,0.1468603760004043,-0.0651015788316726
1749041543.2664497,2.6827314421690516,-1.1254203954308764,-2.3012371876606967,4.050916642559546,-2.6290502003885425,-4.913428772645031,-0.002470458965376516,0.0009183892544376343,-0.0002858987266410341,-0.0008880786047711082,0.0007361244105738401,-0.0004143031159966631,0.1113152951002121,0.6002340912818909,1.0325826406478882,0.5159434080123901,0.1561562865972519,-0.0553078800439834
1749041543.2665012,2.6827245119086647,-1.12541958459559,-2.3012354702501554,4.050912881637034,-2.62904523862574,-4.913427698332912,-0.002739035145571332,0.0009996215839881571,6.513403751168045e-05,-0.001327940698002807,0.0012748594254688513,0.000303357937690371,0.0930022001266479,0.6508100628852844,1.0493580102920532,0.5220428705215454,0.1634508967399597,-0.022639974951744
1749041543.2665412,2.682718093018217,-1.1254179227669276,-2.301233392318743,4.050909409476578,-2.6290406997413496,-4.91342562636666,-0.0029333199258871918,0.0010784638565479283,0.00038393127712454364,-0.0016876858918878435,0.0017142841426193078,0.0009454143438321716,0.0889527425169944,0.589617133140564,1.0665642023086548,0.5069228410720825,0.1569760590791702,-0.0284984856843948
1749041543.2665792,2.6827122104747,-1.1254154526825877,-2.301231070076115,4.050906160900994,-2.6290365893637078,-4.913422499225636,-0.003049407905357088,0.0011527075505000347,0.0006650936947812774,-0.0019671908901194267,0.0020475908945058047,0.001506621278165817,0.098931185901165,0.6260389685630798,1.065968036651611,0.4815759658813476,0.1802438199520111,-0.0167718678712844
1749041543.2666166,2.682706860004929,-1.1254122776950535,-2.301228658297341,4.050903043627688,-2.629032895663872,-4.913418322375396,-0.003088089539795715,0.0012198023339024197,0.0009042085794104241,-0.0021714675257551506,0.0022739484973892006,0.0019851768366945894,0.1005355864763259,0.628615140914917,1.0858036279678345,0.4849523305892944,0.1731054037809372,-0.013197124004364
1749041543.266654,2.682702014880938,-1.1254085511718415,-2.3012263276177842,4.050899952682064,-2.6290295938156016,-4.913413163636122,-0.0030544426915666413,0.0012772927692334634,0.0010981676770306812,-0.0023093090935482363,0.0023983573170936147,0.0023820939940907703,0.0952721536159515,0.610733687877655,1.0706359148025513,0.4737989902496338,0.1765868514776229,-0.0034365952014923
1749041543.2666905,2.6826976351637666,-1.1254044630713576,-2.301224240962155,4.050896785436215,-2.6290266501046946,-4.913407149025593,-0.0029570732196595975,0.0013233212555659342,0.0012454592972145804,-0.0023916862308657376,0.0024309788682288697,0.002700477676196792,0.0795252695679664,0.61140376329422,1.0723671913146973,0.468953013420105,0.1896829307079315,-0.0175884068012237
1749041543.2667284,2.682693677408615,-1.1254002243478736,-2.3012225322879662,4.0508934548755535,-2.629024025486551,-4.913400454876106,-0.0028071060857794627,0.0013571011603846484,0.0013463628253149135,-0.0024301586359227506,0.0023860099407318116,0.0029448144150209777,0.0545729473233222,0.593548059463501,1.079076051712036,0.4524202346801758,0.1880352199077606,-0.0107584297657012
1749041543.2667682,2.6826901030683237,-1.1253960496440574,-2.3012212902556883,4.050889899446353,-2.6290216787595533,-4.913393296409284,-0.0026170691246830097,0.0013792552895823722,0.0014029846421375624,-0.0024355267198842303,0.0022802490287009694,0.0031203574417206816,0.0707549527287483,0.6030008792877197,1.088343620300293,0.4511255621910095,0.2059026658535003,-0.0137275755405426
1749041543.2668097,2.682686884419034,-1.1253921389027788,-2.301220548631503,4.050886088805124,-2.6290195694916965,-4.913385913229212,-0.002399818926256628,0.0013919352838919073,0.0014191153256052644,-0.0024168717188600792,0.002131543421195785,0.0032326657700687844,0.0612609088420867,0.6170408725738525,1.098488450050354,0.4542882442474365,0.2144015729427337,-0.001024305820465
1749041543.2668483,2.6826840074656966,-1.1253886589360642,-2.301220284264006,4.050882025555261,-2.6290176605591635,-4.913378552580237,-0.0021676294895151133,0.0013986846427501477,0.0013999365264753352,-0.002381042339310132,0.001957304730633394,0.003287328756698745,0.0509349964559078,0.6250770092010498,1.1049927473068235,0.464705228805542,0.2202868312597274,-0.0006094276905059
1749041543.2668867,2.682681471817573,-1.1253857264938731,-2.301220422472133,4.050877743435393,-2.629015919858442,-4.913371451814662,-0.0019315135717034788,0.0014040656836130318,0.0013516362033050907,-0.002332561752434424,0.0017732478502564982,0.003289875299259073,0.0521394088864326,0.6161251068115234,1.1168067455291748,0.4589420557022095,0.2079931199550628,-0.0046002268791198
1749041543.266924,2.682679287955093,-1.125383394914515,-2.3012208487105865,4.050873302618089,-2.629014320628507,-4.913364821940536,-0.001700793720549392,0.0014131185006721057,0.001280994216342196,-0.002273868716099431,0.0015924572813606902,0.003245833777502846,0.0799589604139328,0.6362964510917664,1.108185648918152,0.4586529731750488,0.2219889461994171,0.008372351527214
1749041543.266961,2.6826774725469993,-1.1253816467258477,-2.3012214244564553,4.050868783000663,-2.6290128400594384,-4.9133588339666545,-0.0014828995847187049,0.001430744484165323,0.0011949851839698192,-0.002205778555885435,0.0014248284881800926,0.0031608847299548918,0.0679501369595527,0.6380903720855713,1.0991648435592651,0.4492601156234741,0.2157208919525146,0.0016755163669586
1749041543.2669983,2.682676042440173,-1.1253803941178557,-2.3012220045619793,4.050864276513056,-2.6290114565110034,-4.913353609173494,-0.0012833456011751559,0.0014611060323151447,0.0011004254978302557,-0.0021280499985336316,0.0012768801408944153,0.0030410394740899745,0.071826621890068,0.6098114252090454,1.1213606595993042,0.4604275226593017,0.2077661752700805,0.0124163478612899
1749041543.2670355,2.682675007861736,-1.1253794878711043,-2.3012224532223216,4.0508598793416,-2.6290101463813156,-4.913349213890858,-0.0011058360884282162,0.0015071151825284139,0.001003675658336975,-0.002039962050585208,0.0011518924005772615,0.002892781939866382,0.0646570771932601,0.6280603408813477,1.1317352056503296,0.4557855129241943,0.1945715695619583,0.0016405880451202
1749041543.2671404,2.6826743655473573,-1.1253787335986523,-2.3012226563818805,4.050855684664032,-2.6290088819586868,-4.913345659005595,-0.0009524478155101936,0.001570059780696445,0.0009104003203926149,-0.0019408300831990273,0.0010503005362248415,0.0027231210888927267,0.0521562248468399,0.626249372959137,1.1271473169326782,0.4548630714416504,0.205392450094223,0.0080983936786651
1749041543.2690668,2.682674092848698,-1.1253779128265855,-2.30122252950157,4.05085177626403,-2.6290076312787694,-4.913342904037635,-0.0008238488767906012,0.0016493977026645315,0.000825384755429276,-0.0018304142944922566,0.0009702623121639431,0.0025395151980127776,0.0418925322592258,0.6296190023422241,1.1367236375808716,0.4557673335075378,0.2224457859992981,0.0109662860631942
1749041543.3102818,2.6826741440256305,-1.1253768059629459,-2.3012220206112475,4.050848223355382,-2.629006360315805,-4.913340865146,-0.000719524111317831,0.001742740238075207,0.0007524047708446377,-0.001709193942843969,0.0009083183911822794,0.0023496502311227212,0.052897710353136,0.6434414982795715,1.128883719444275,0.4560765027999878,0.2197119444608688,0.0184715986251831
1749041543.3103278,2.6826744497541566,-1.1253752144938258,-2.301221109274264,4.05084507699812,-2.6290050371314235,-4.91333942602383,-0.0006379887487558237,0.0018460386110410278,0.000694145745468665,-0.0015784977480263552,0.0008600727284459234,0.0021610832907148986,0.0881999507546424,0.6403142213821411,1.1235944032669067,0.4496234655380249,0.2068555951118469,0.0110794901847839
1749041543.3103688,2.6826749204595486,-1.1253729803774573,-2.301219802594815,4.050842368417708,-2.6290036371497263,-4.913338450406649,-0.0005769812373470225,0.001953973662513699,0.000652165334128241,-0.0014404958900119387,0.0008208311391781746,0.0019807919854782615,0.0805447697639465,0.6182080507278442,1.1425381898880005,0.447928786277771,0.2132290303707122,0.0078029781579971
1749041543.310411,2.6826754534730717,-1.1253700011657026,-2.301218129763351,4.050840109216008,-2.6290021485651742,-4.913337794879624,-0.0005336324695091246,0.002060522754197129,0.0006268943032321832,-0.0012980722210441064,0.0007861496373260452,0.0018146914417139148,0.0768545344471931,0.6306386590003967,1.1338399648666382,0.4499533176422119,0.2116316258907318,0.0163643956184387
1749041543.3104508,2.6826759432701466,-1.1253662396783655,-2.3012161367300217,4.050838293058203,-2.6290005769060842,-4.9133373208509274,-0.0005046129153362035,0.002159641510913846,0.0006176713992829122,-0.0011546056777415868,0.0007522594766956273,0.001667186455895009,0.0659336224198341,0.5981427431106567,1.139491081237793,0.4583463072776794,0.2110697925090789,0.0038030743598937
1749041543.310489,2.682676293348866,-1.1253617271954264,-2.3012138822360737,4.05083689826062,-2.628998947849909,-4.913336904859996,-0.00048626308428748055,0.0022459612135111127,0.0006228110110199964,-0.0010136965357409042,0.0007163522372042915,0.0015408169797307906,0.091150663793087,0.605087161064148,1.1255608797073364,0.4470129013061523,0.1972058117389679,-0.0095309317111969
1749041543.31053,2.6826764278421136,-1.1253565594191879,-2.301211435605568,4.050835890835761,-2.6289973075016206,-4.9133364466527985,-0.0004747165475676872,0.0023153829813383126,0.0006397057846252457,-0.0008788757810814391,0.0006767240108062966,0.0014360354991452013,0.0606439933180809,0.6046352386474609,1.1329128742218018,0.448340892791748,0.1980001926422119,0.0074003636837005
1749041543.310571,2.6826763008443826,-1.125350885203502,-2.3012088756766604,4.050835227683979,-2.628995719630186,-4.913335874637496,-0.0004660274953251391,0.0023654624319887512,0.0006649686420832702,-0.0007533342229742247,0.0006327907532120103,0.0013511327821393536,0.0786889269948005,0.6073988676071167,1.133574366569519,0.4476630091667175,0.1974541842937469,-0.0067218542098999
1749041543.310609,2.6826759017416437,-1.1253448892959776,-2.301206289520098,4.0508348596245805,-2.6289942599291316,-4.913335148501131,-0.0004563154916799817,0.0023955236643938963,0.0006946180758217618,-0.0006397017572681978,0.0005849957492008484,0.0012823124473363562,0.0768278613686561,0.6048031449317932,1.1254340410232544,0.4522631764411926,0.1921010464429855,0.0030276179313659
1749041543.3106472,2.682675255563696,-1.1253387716513643,-2.3012037696249834,4.050834734033594,-2.6289930080955273,-4.9133342590031654,-0.00044193833811057384,0.002406503545769993,0.0007243065668415241,-0.0005398970465312105,0.0005346344018265385,0.0012239096336122488,0.1017428785562515,0.6182392239570618,1.1322523355484009,0.4616935849189758,0.2016476988792419,-0.0042657256126403
1749041543.310685,2.6826744183812274,-1.1253327265890471,-2.3012014090920894,4.050834797082185,-2.628992039064954,-4.913333225259026,-0.0004196998097515504,0.0024005850461903543,0.0007495857451293429,-0.0004550558429096352,0.0004836216865078122,0.0011687530283647411,0.1020091325044632,0.6313679814338684,1.121744990348816,0.4467560648918152,0.2066531181335449,-0.0074122548103332
1749041543.3107262,2.6826734686966325,-1.1253269248776845,-2.301199295490756,4.050834995719148,-2.628991414867109,-4.913332090058567,-0.0003870927990243237,0.0023807153696323176,0.0007661959501022677,-0.00038553479157072415,0.00043422482982181845,0.0011086762639747195,0.0852934420108795,0.6254729628562927,1.1304322481155396,0.4543500542640686,0.1933744698762893,0.0077133029699325
1749041543.3107643,2.682672496306482,-1.1253215009009652,-2.3011975046337048,4.050835279461616,-2.628991178335746,-4.913330913807207,-0.00034257064175921564,0.0023501140331432285,0.0007703646606580407,-0.00033097869940480556,0.0003887795504675615,0.0010351872424137153,0.0958681181073188,0.6347993612289429,1.1200194358825684,0.4642785191535949,0.1939108222723007,0.0083964616060256
1749041543.310802,2.6826715902018208,-1.125316545743295,-2.3011960953551256,4.050835601895333,-2.6289913495018005,-4.913329767544814,-0.0002858309199295397,0.0023118600502586104,0.0007590989552607513,-0.0002904337525797436,0.0003494038168830013,0.0009402974692647461,0.1006837859749794,0.604916512966156,1.1128066778182983,0.4523841738700866,0.1988177746534347,-0.0060553848743438
1749041543.3108394,2.682670826886768,-1.1253121057535513,-2.3011951058281714,4.05083592174716,-2.628991924999392,-4.913328725326339,-0.00021808785213864814,0.002268614110794048,0.0007304604017480629,-0.00026248701161166757,0.0003177194280658936,0.0008174962553540933,0.0991543009877204,0.6050905585289001,1.1196701526641846,0.4615458846092224,0.1851818859577179,0.0094149112701416
1749041543.3108797,2.682670260260063,-1.12530818530766,-2.301194551522137,4.050836203512079,-2.6289928802571465,-4.913327856206418,-0.00014230259603968624,0.0022224919208612788,0.0006838136167883177,-0.000245413219881051,0.0002945893077139753,0.0006628282047671892,0.1057067215442657,0.6127327084541321,1.1355570554733276,0.4634419083595276,0.1898214817047119,0.0001270473003387
1749041543.3109176,2.6826699141348547,-1.125304752294682,-2.30119442472202,4.050836417770425,-2.628994173845442,-4.9133272161994235,-6.333637269774768e-05,0.0021750697472655437,0.000620039881900793,-0.00023731280356091244,0.0002798773580525062,0.0004760009987388306,0.1051535904407501,0.6150886416435242,1.11717426776886,0.4597979784011841,0.186410903930664,0.0005437433719635
1749041543.3109548,2.682669778510824,-1.1253017452040908,-2.301194695465443,4.050836541395205,-2.628995753337643,-4.913326840698603,1.2009902915992614e-05,0.0021274811806506265,0.0005417044518286489,-0.0002362290957666594,0.0002722378955931875,0.0002614199312125509,0.1086279153823852,0.6038234829902649,1.112963318824768,0.4547391533851623,0.1709652692079544,-0.0005532503128051
1749041543.3109915,2.6826698103678464,-1.1252990812384285,-2.3011953136672756,4.050836557821237,-2.6289975622506963,-4.913326737705508,7.510296991622752e-05,0.0020805581105331644,0.00045316212176440635,-0.0002402374800813216,0.00026894271579152294,2.9022008795249645e-05,0.0834525376558303,0.6300671100616455,1.1176358461380005,0.4503325819969177,0.1608615815639495,-0.0115247964859008
1749041543.3110323,2.6826699386782993,-1.1252966651504746,-2.3011962120962393,4.050836457476489,-2.628999547601632,-4.913326881888278,0.00011575714301517624,0.0020349758126762766,0.0003605823934137612,-0.00024750365830465405,0.00026575520693327066,-0.00020522922137310436,0.0951599404215812,0.6270759701728821,1.1193631887435913,0.4583742022514343,0.154476597905159,-0.0174999237060546
1749041543.3111415,2.6826700720510273,-1.1252943983289123,-2.3011973097553544,4.050836238340244,-2.6290016672514436,-4.913327209259214,0.00012269871464349222,0.0019913754860656874,0.0002718748262980597,-0.0002563122396700399,0.0002568621007865084,-0.00041932310971570894,0.1056931167840957,0.6056763529777527,1.1004714965820312,0.4580777883529663,0.1457292735576629,-0.0469634532928466
1749041543.3130305,2.682670106890026,-1.1252921873195212,-2.301198515127079,4.050835906410822,-2.6290038959433732,-4.913327612392027,8.420733603863758e-05,0.0019504513438402334,0.00019649759442109412,-0.0002650702662207217,0.0002348738397333648,-0.0005857691585689651,0.0855508148670196,0.628376841545105,1.101285457611084,0.4774177670478821,0.1365315467119217,-0.0205313265323638
1749041543.3542912,2.6826699344615266,-1.1252899508172296,-2.3011997287570356,4.050835475826268,-2.629006229210371,-4.913327936597976,-1.1097084624051011e-05,0.001912999516781242,0.0001451380583711146,-0.00027229311676980515,0.00019090364941840035,-0.0006728255277839874,0.1017966493964195,0.6131297945976257,1.1067917346954346,0.4766151309013366,0.1303957551717758,-0.046505719423294
1749041543.354338,2.6826694462053617,-1.1252876242256158,-2.301200844831427,4.050834968597815,-2.6290086850785754,-4.913327978136424,-0.00017337965451657956,0.0018799311710788946,0.0001292634639909554,-0.00027658220405406595,0.00011473301529639008,-0.0006464036592619663,0.0770524889230728,0.6165704727172852,1.0965300798416138,0.4708399176597595,0.1216347441077232,-0.0245469212532043
1749041543.3543792,2.6826685373273045,-1.1252851611141594,-2.3012017517070475,4.050834414182133,-2.629011304271327,-4.913327485982162,-0.0004107107173268246,0.0018522535192661595,0.0001605528634609458,-0.0002766045352093258,-4.9322667495044434e-06,-0.00047258909503296,0.0853050798177719,0.6191056966781616,1.1256853342056274,0.4798269867897033,0.1009624972939491,-0.0229637324810028
1749041543.3544188,2.682667108954155,-1.125282531494265,-2.3012023316582133,4.05083384913429,-2.629014149915387,-4.913326168570651,-0.000728283247601041,0.001831023256331397,0.0002502376214774144,-0.00027108321324730245,-0.00018011502848802274,-0.0001206324388526148,0.0437167361378669,0.6160283088684082,1.1157305240631104,0.5011508464813232,0.107107825577259,-0.0200514793395996
1749041543.354457,2.68266506901817,-1.1252797178114424,-2.301202460324916,4.050833316786651,-2.629017307428091,-4.91332370625035,-0.0011278379161249567,0.0018172807567401951,0.0004083958131984746,-0.0002588053189338687,-0.0004231309617857229,0.00043382507151862564,0.0113692209124565,0.631872832775116,1.1385576725006104,0.4798409342765808,0.0961250737309455,-0.0128042995929718
1749041543.3544953,2.6826623318107354,-1.1252767103340797,-2.3012020064604237,4.050832866513213,-2.629020884714318,-4.913319769151644,-0.0016073971264991501,0.0018119798442484125,0.0006432625091450287,-0.00023864961969458591,-0.0007460668705631714,0.0012056085275340338,0.0251625999808311,0.6466972827911377,1.1400426626205444,0.4986007809638977,0.066950537264347,0.0106597542762756
1749041543.3545334,2.682658816130156,-1.12527350350853,-2.3012008325694158,4.050832552010367,-2.62902501249501,-4.913314039158961,-0.0021613758969690477,0.0018159326123603342,0.0009606292465504765,-0.00020963163108705208,-0.0011601728136913282,0.0021973253390888286,0.0134480223059654,0.6145817041397095,1.1670384407043457,0.4845980405807495,0.0599010251462459,0.0264393687248229
1749041543.3545709,2.682654442296379,-1.1252700939636684,-2.3011987968771757,4.050832428323365,-2.629029844518045,-4.913306233871355,-0.0027810746612724328,0.001829787217295099,0.0013634064563486786,-0.00017095813046781686,-0.001675163560419027,0.0033975366626539166,0.0211842060089111,0.6178119778633118,1.1630430221557615,0.4862151741981506,0.0305269919335842,0.0464295744895935
1749041543.354608,2.682649128835957,-1.1252664800303405,-2.3011957568057926,4.050832547875043,-2.6290355572924784,-4.913296129946853,-0.0034554730764934176,0.0018540492321900736,0.0018514058716615016,-0.0001220777165492028,-0.002298425071394112,0.0047801426627659535,0.0401031970977783,0.6091514825820923,1.1787291765213013,0.5099083185195923,0.0395938903093338,0.0728737413883209
1749041543.3546453,2.6826427900175402,-1.1252626623754278,-2.3011915738431856,4.05083295615439,-2.6290423487815406,-4.91328358302078,-0.0041721665395856545,0.0018891485636592343,0.0024213626388653324,-6.270903137091708e-05,-0.003034135288097584,0.006305229452763062,0.0048991441726684,0.6358230113983154,1.174516201019287,0.5099222660064697,0.0311358794569969,0.068952590227127
1749041543.3546827,2.6826353354188237,-1.1252586453342814,-2.3011861194517182,4.050833687829417,-2.629050435316405,-4.913268541460624,-0.004918265970307739,0.0019355469868732656,0.0030671670855314834,7.175274745619196e-06,-0.0038823395508697715,0.007921444723174225,-0.0317444950342178,0.6315271854400635,1.1902955770492554,0.514319658279419,0.0188679862767457,0.0674125701189041
1749041543.3547204,2.682626672316931,-1.1252544383459875,-2.301179281474367,4.050834763957942,-2.6290600459978606,-4.913251051669479,-0.005681133460675501,0.001993873889347998,0.003780236558810777,8.74317707443988e-05,-0.004838064417746022,0.00956975061836434,-0.0172923579812049,0.630557656288147,1.209652543067932,0.5318392515182495,0.0089144688099622,0.0798236429691314
1749041543.3547618,2.682616711050398,-1.125250056580787,-2.3011709703156744,4.050836190871187,-2.6290714141945535,-4.913231253541887,-0.006448910003807714,0.0020650654322898897,0.004549950833704364,0.00017791702740252663,-0.0058905964451506886,0.01118820255029422,-0.011977382004261,0.6220848560333252,1.2251503467559814,0.5402364730834961,-0.0129566565155982,0.0719933360815048
1749041543.3548002,2.6826053727579886,-1.1252455197669533,-2.3011611240550796,4.050837961245201,-2.62908476636608,-4.913209365911792,-0.007210848708623869,0.0021504649225256955,0.005364099660164153,0.0002787591303319683,-0.007023079596743183,0.012717267670963931,-0.0246389880776405,0.616263210773468,1.2269392013549805,0.5385245680809021,-0.0010358318686485,0.0939600765705108
1749041543.354838,2.6825925982023318,-1.1252408487182934,-2.3011497117412527,4.050840057686671,-2.6291003089097287,-4.913185663237703,-0.007957483180596562,0.0022518287285385468,0.006209323733154194,0.00039073047912841164,-0.008212584731587038,0.014105136447883262,-0.0279150083661079,0.6348744630813599,1.2240815162658691,0.5516737699508667,-0.0170690100640058,0.090642973780632
1749041543.3548765,2.6825783559485927,-1.1252360600305766,-2.301136734448202,4.050842458714522,-2.629118213728494,-4.913160446151162,-0.008680663680109058,0.0023711875103697953,0.007071549115370103,0.0005157041475963166,-0.009430770427111726,0.01531247894551021,-0.0461559370160102,0.6229703426361084,1.2248272895812988,0.5430626273155212,-0.0217726081609725,0.0995804667472839
1749041543.3549137,2.6825626481746405,-1.1252311602618168,-2.3011222240667695,4.05084514650771,-2.6291386030337787,-4.913134009533719,-0.009373506625872148,0.002510545518422,0.007936420984419523,0.0006571526203229763,-0.01064518571783268,0.016316140373375698,-0.0222458243370056,0.6332288980484009,1.2213420867919922,0.5735249519348145,-0.0356479436159133,0.0699473917484283
1749041543.354951,2.682545512789702,-1.1252261411465454,-2.30110624005733,4.050848115558746,-2.62916153413311,-4.9131066121032685,-0.010030320846539499,0.002671453306671969,0.008789749318033375,0.0008206204022032817,-0.011821171146655082,0.0171113592136258,-0.0501062870025634,0.6455297470092773,1.238616108894348,0.5738425254821777,-0.0404390841722488,0.0712337791919708
1749041543.3549888,2.682527021183454,-1.125220977097977,-2.301088864468847,4.050851381472729,-2.629186985781975,-4.91307845093026,-0.010646578092316027,0.0028545401976421796,0.009617991097485307,0.0010140746888826397,-0.012924214179922318,0.017712233756135315,-0.0621030330657959,0.6535362005233765,1.2542567253112793,0.5825785398483276,-0.0396019034087657,0.0729805529117584
1749041543.355026,2.6825072717800307,-1.1252156258014152,-2.3010701955633115,4.0508549892894905,-2.6292148485758227,-4.913049643077242,-0.011218977169556424,0.0030591207614020424,0.010408798579535028,0.0012480200059233927,-0.013922531191454028,0.01815035908635657,-0.0751539468765258,0.6310545206069946,1.2593140602111816,0.5724577307701111,-0.0536874458193779,0.0773616433143615
1749041543.3551297,2.6824863804750523,-1.125210032262772,-2.3010503404999523,4.050859020661121,-2.6292449221487386,-4.913020215122723,-0.011745617845719768,0.0032829825594209404,0.01115164507821986,0.0015352660426631566,-0.0147895966295774,0.018471784535050446,-0.0972184389829635,0.6494670510292053,1.264585256576538,0.5893261432647705,-0.0328462049365043,0.0790785104036331
1749041543.357079,2.6824644695411415,-1.1252041360671083,-2.3010294076929485,4.050863599020157,-2.629276921468448,-4.912990100213455,-0.012226263987286335,0.003522420935700379,0.011838497064472072,0.001890270840750292,-0.015506328132828704,0.01873265809449084,-0.1120671480894088,0.624849796295166,1.2653632164001465,0.5933144688606262,-0.0154746323823928,0.1059164702892303
1749041543.3982842,2.682441656403458,-1.1251978806145653,-2.3010074994804777,4.050868891639958,-2.6293104934909968,-4.912959141731832,-0.012662640605582363,0.0037725234385101495,0.012464452675715694,0.00232804004835782,-0.016062669255150944,0.01899408304198269,-0.1138350814580917,0.6307889819145203,1.2733545303344729,0.620989203453064,-0.0297039821743965,0.102678433060646
1749041543.3983347,2.6824180431013915,-1.125191221996577,-2.300984705557731,4.050875107394967,-2.629345243842797,-4.912927102438857,-0.013058678875414712,0.004027643759304691,0.013028235455780508,0.002862632690069437,-0.016458389276318482,0.019316781579994724,-0.0895665138959884,0.6500081419944763,1.2875059843063354,0.6223801374435425,-0.0214748680591583,0.1207171827554702
1749041543.3983765,2.6823937068978045,-1.1251841347578242,-2.300961097413218,4.050882489311468,-2.629380770945832,-4.912893677724143,-0.013420606775614512,0.004281965538803926,0.013532430436960393,0.0035053890035429613,-0.016703028800168284,0.01975613297901104,-0.1172263771295547,0.6428239345550537,1.282827854156494,0.6087503433227539,-0.0166153535246849,0.1234747767448425
1749041543.398415,2.6823686927205457,-1.1251766126901626,-2.3009367239737064,4.050891301701874,-2.629416702736157,-4.912858511406512,-0.013756797956608833,0.004530051277789146,0.013983377871803532,0.004263047533060611,-0.016815035548855318,0.02035804825847587,-0.112036183476448,0.634346067905426,1.2861782312393188,0.6417267322540283,-0.0151805505156517,0.1331768482923507
1749041543.398454,2.6823430086546094,-1.1251686646886643,-2.3009116087479025,4.050901812536978,-2.629452730088933,-4.912821212717947,-0.014077344650163574,0.004767296258937323,0.01439069313144553,0.00513595665001537,-0.01682023201502139,0.021155994790185127,-0.1367689967155456,0.6429957151412964,1.279776692390442,0.6553225517272949,-0.0094836428761482,0.1315197348594665
1749041543.3984926,2.6823166259503695,-1.125160307436635,-2.3008857487564756,4.05091427244532,-2.6294886319047253,-4.912781373759666,-0.014393394524847745,0.004990246860122843,0.01476644941587043,0.006116611541320292,-0.016749816238933356,0.02216932329602575,-0.1099555194377899,0.6507483720779419,1.2878962755203247,0.6471096277236938,-0.0045875236392021,0.1283895373344421
1749041543.3985314,2.682289484550388,-1.1251515573472761,-2.3008591154121723,4.050928892268745,-2.6295242889416657,-4.912738587394748,-0.014716353791377123,0.005196780244502073,0.01512412589986966,0.007188755460524013,-0.016638110670662423,0.023402896786445426,-0.1327293813228607,0.6423541903495789,1.3084934949874878,0.6608283519744873,0.0048629119992256,0.1494052559137344
1749041543.398571,2.682261503905289,-1.1251424237433176,-2.300831657380082,4.050945821464341,-2.6295596857453285,-4.912692465681675,-0.015057084366890764,0.005386165361919279,0.01547746795538454,0.008327259746621013,-0.01652025415781762,0.02484789291617815,-0.136662483215332,0.6481702923774719,1.316341519355774,0.6756927967071533,0.0070264562964439,0.1515884399414062
1749041543.3986092,2.682232597192553,-1.1251329043408493,-2.3008033053222916,4.050965129725195,-2.62959490173824,-4.91264265851916,-0.015425206867086507,0.005559027742151553,0.01583941390420979,0.00949892969600697,-0.016430005215306253,0.026483560880966962,-0.1347350031137466,0.6469913125038147,1.3134474754333496,0.669951319694519,-0.0329872891306877,0.1673972904682159
1749041543.398647,2.6822026857654304,-1.1251229833191674,-2.3007739782532535,4.0509867939167234,-2.6296300936953707,-4.912588871552538,-0.015828577682936277,0.005717227405121339,0.01622121266136367,0.010664275444650635,-0.01639780566773686,0.02827966351836,-0.1337727457284927,0.6235584020614624,1.3186944723129272,0.6556549668312073,-0.0146591439843177,0.1413434892892837
1749041543.3986838,2.682171710563694,-1.1251126317941489,-2.3007435910167695,4.051010691928442,-2.629665472669318,-4.912530881858396,-0.016272960749690462,0.005863645910855058,0.016631801582893905,0.011780155856114206,-0.01644923374183237,0.030199320565990544,-0.1371206641197204,0.6354993581771851,1.3155728578567505,0.668121874332428,-0.0318148657679557,0.1686694025993347
1749041543.398721,2.682139638346677,-1.1251018103330541,-2.300712062179855,4.051036604498704,-2.6297012788874774,-4.912468549556803,-0.016761882689252976,0.006001881442450317,0.017077456537845703,0.012803073137198055,-0.016603940660994958,0.03220198830027904,-0.1508237421512603,0.6549032926559448,1.3169885873794556,0.6593950986862183,-0.0253418013453483,0.1536337733268737
1749041543.3987584,2.6821064620999095,-1.125090473194731,-2.3006793214127024,4.051064225453328,-2.629737758044771,-4.912401823440323,-0.01729664938651565,0.00613587092241915,0.017561687638002747,0.013692789201600553,-0.01687511315630676,0.03424636013798517,-0.1471908241510391,0.633783757686615,1.3120158910751345,0.6457739472389221,-0.0040805339813232,0.1716940701007843
1749041543.3987958,2.682072196002616,-1.1250785740992955,-2.300645315246168,4.051093180004396,-2.6297751418787825,-4.91233073912786,-0.01787650373040062,0.00626947915651309,0.01808534187146544,0.014415869446956593,-0.01726944502321286,0.03629303501819428,-0.1455317586660385,0.639855146408081,1.3216402530670166,0.6395448446273804,-0.0147261768579483,0.1922399252653122
1749041543.398833,2.682036865884611,-1.1250660732982938,-2.300610010130442,4.051123049836908,-2.6298136351896946,-4.912255409130223,-0.018498904864086868,0.006406101546298766,0.018646880344007934,0.01494874756278324,-0.017787547842390047,0.03830684842943221,-0.1561842262744903,0.6137145757675171,1.3313406705856323,0.642959713935852,-0.0349664837121963,0.1719578951597213
1749041543.398874,2.6820004965159385,-1.1250529454216807,-2.3005733920543556,4.051153402826199,-2.6298534104478457,-4.9121760053262165,-0.019159902162348908,0.006548321323004331,0.019242808104876375,0.015279950097119618,-0.018424699822133107,0.04025877856164101,-0.15412537753582,0.648593008518219,1.338209629058838,0.6223279237747192,-0.0310267116874456,0.1708720624446869
1749041543.3989143,2.681963097494748,-1.1250391871142313,-2.300535462556164,4.0511838245182,-2.6298946096621907,-4.912092735453974,-0.0198545660919553,0.00669765777159811,0.019868236570175005,0.015411215083101755,-0.019171828296340548,0.042127339478223315,-0.1514491289854049,0.6471431851387024,1.3462525606155396,0.6017149090766907,-0.028706032782793,0.1921984255313873
1749041543.39896,2.681924649849753,-1.1250248230970936,-2.3004962316161293,4.051213948130863,-2.6299373517215807,-4.912005816177448,-0.020577432541263416,0.006854442336528166,0.020517548097056228,0.015357370135597114,-0.020016633155449635,0.043899388595107086,-0.1520701646804809,0.6492111086845398,1.348262906074524,0.6138173341751099,-0.0274684131145477,0.1962800025939941
1749041543.398998,2.681885095710554,-1.1250099092954322,-2.3004557085097286,4.051243479951019,-2.6299817426625656,-4.911915445947019,-0.021322922879957795,0.007017852980815705,0.02118511452207139,0.015144985147885825,-0.020944765899113607,0.04557033014997572,-0.1555060744285583,0.6502854824066162,1.3604182004928589,0.6154106259346008,-0.0468661114573478,0.1944027692079544
1749041543.3990364,2.6818443333884177,-1.1249945321322192,-2.300413892072648,4.051272217586861,-2.6300278863266335,-4.911821781086192,-0.022085716030832286,0.007186113023582629,0.021866007475736658,0.014809965679186958,-0.021940975433095516,0.04714377192633753,-0.183485746383667,0.6364940404891968,1.353854417800903,0.6084285378456116,-0.0379133746027946,0.2040145993232727
1749041543.3992374,2.681802219654769,-1.1249788037578579,-2.300370761936831,4.051300059410624,-2.6300758932154347,-4.911724918318009,-0.02286106259694137,0.00735682539361018,0.022556634437944225,0.01439438353887891,-0.02299012808282568,0.04863074231016733,-0.1631294041872024,0.6255002021789551,1.3779351711273191,0.6091338992118835,-0.0463865920901298,0.2067270576953888
1749041543.4010658,2.681758579800564,-1.124962853584425,-2.300326272219399,4.051327004549442,-2.6301258858100276,-4.91162488641734,-0.023645036796338344,0.007527383759607087,0.023255238049814927,0.01394292697145599,-0.024078021392745525,0.0500485681837554,-0.1555032581090927,0.638405978679657,1.37800133228302,0.6033883690834045,-0.0456719845533371,0.2058049738407135
1749041543.4424648,2.6817132245201862,-1.124946816933437,-2.30028034892589,4.0513531439200925,-2.630177999175498,-4.911521648771639,-0.024434718281776204,0.0076953895485480615,0.023962203557540893,0.013499378378717865,-0.02519194431313832,0.051419467946740495,-0.1968432366847992,0.6354249715805054,1.3725528717041016,0.6216408610343933,-0.0621812753379344,0.1935489028692245
1749041543.4425356,2.681665971245695,-1.12493082194713,-2.3002328918588835,4.051378643948759,-2.6302323762303064,-4.9114151170935925,-0.025228289232887578,0.00785901000635204,0.024680132773268425,0.013103490386859507,-0.026320980483572422,0.0527688789143102,-0.1953038573265075,0.6391101479530334,1.383012294769287,0.6271951198577881,-0.0566569082438945,0.2082571536302566
1749041543.442601,2.681616666555726,-1.1249149762669612,-2.300183781024169,4.051403725515956,-2.6302891576964176,-4.911305174292257,-0.0260250317022139,0.008017233218949258,0.025413666625822895,0.01278853993019907,-0.027456090761311697,0.05412355524984147,-0.1997682750225067,0.6481733322143555,1.3987940549850464,0.6414570808410645,-0.0585653856396675,0.2007679194211959
1749041543.4426646,2.681565205830741,-1.1248993553367892,-2.300132886513171,4.051428641096362,-2.6303484678062907,-4.911191702016299,-0.02682522133362763,0.008170002726024396,0.026169071539302865,0.012579713443463215,-0.028590035938607882,0.055509537839846336,-0.1997682750225067,0.6481733322143555,1.3987940549850464,0.6414570808410645,-0.0585653856396675,0.2007679194211959
1749041543.442727,2.6815115465374433,-1.1248839942131192,-2.3000800798478713,4.051453652954271,-2.6304103982925984,-4.911074606567701,-0.02762993299491238,0.008318235679530717,0.026953639760352362,0.012493343425615314,-0.029717209066815246,0.05695016946867294,-0.1906100362539291,0.6386003494262695,1.3925693035125732,0.6167702078819275,-0.0615124106407165,0.2334337383508682
1749041543.4427893,2.6814557125476233,-1.1248688841163301,-2.3000252441627143,4.051479014629621,-2.630474994247023,-4.910953836910678,-0.028440790577876567,0.008463737811478375,0.02777497720284901,0.01253690981467177,-0.03083343962862529,0.05846436170986043,-0.2089608013629913,0.62759929895401,1.417182445526123,0.6274436712265015,-0.056397657841444,0.2341732382774353
1749041543.442852,2.681397788684044,-1.124853973843221,-2.2999682808350794,4.051504956933158,-2.6305422452333964,-4.910829390995008,-0.029259696420735573,0.00860902830417208,0.02864025431886661,0.012709659318837436,-0.03193581011745771,0.06006529288270493,-0.2390846908092498,0.6494101285934448,1.4179638624191284,0.6323848962783813,-0.059310533106327,0.2445202469825744
1749041543.442913,2.6813379066994885,-1.1248391752251667,-2.2999091113943866,4.051531678598026,-2.630612083513618,-4.910701310636194,-0.030088565289194718,0.008757085243345727,0.02955547975786761,0.013003682787317691,-0.03302249736081678,0.06175964226519758,-0.2383636236190796,0.6360496282577515,1.429953694343567,0.6429892778396606,-0.0479158535599708,0.2450359314680099
1749041543.442975,2.681276225376849,-1.1248243714409594,-2.2998476751741723,4.051559341021579,-2.630684389249352,-4.91056966853328,-0.030929074987002286,0.008911023263336105,0.030524839554378767,0.013405309615417827,-0.03409262969914543,0.06354738063681095,-0.215695783495903,0.6431686878204346,1.425883412361145,0.6346251368522644,-0.0567376539111137,0.2614284157752991
1749041543.443036,2.6812129081123235,-1.1248094270489928,-2.299783924370505,4.051588066307882,-2.6307590010781103,-4.910434552133291,-0.031782442672875694,0.009073722239576025,0.03155014102359997,0.013896706689436688,-0.035146144009521395,0.06542207127679363,-0.2094320356845855,0.6149963140487671,1.4061267375946045,0.6413508057594299,-0.0502741634845733,0.2253589332103729
1749041543.4430978,2.681148101459191,-1.124794198783019,-2.299717818497435,4.051617937890531,-2.6308357299188923,-4.910296048332869,-0.03264924644621618,0.009247440609897736,0.03263041292079871,0.01445758783738115,-0.03618363245781994,0.0673715965656307,-0.2251578271389007,0.6114585995674133,1.4406330585479736,0.6495440602302551,-0.0305459648370742,0.2287002503871917
1749041543.4431598,2.6810819177814915,-1.124778546278736,-2.2996493198400962,4.051649003201745,-2.6309143740049015,-4.910154231703152,-0.033529329162774256,0.00943346530404455,0.03376173088091486,0.015066940248607608,-0.03720618753144776,0.06937921305214109,-0.2688271403312683,0.6693442463874817,1.4562562704086304,0.6332615613937378,-0.05087211728096,0.2338268458843231
1749041543.4432218,2.6810144242237457,-1.124762341936256,-2.299578390815211,4.051681278112766,-2.6309947334980857,-4.9100091577468445,-0.034421829891684144,0.009631860451325077,0.03493733765457537,0.015704662402953328,-0.03821528307465127,0.07142485363989926,-0.2470907568931579,0.6614222526550293,1.4541635513305664,0.636989951133728,-0.0502143651247024,0.2496208399534225
1749041543.443284,2.6809456387401895,-1.1247454791448293,-2.299504993481486,4.051714753026189,-2.631076623316602,-4.909860861576363,-0.03532536996834297,0.009841364252663163,0.0361480899960559,0.016352995520944446,-0.03921275136755831,0.07348662466344166,-0.2389552742242813,0.6323497295379639,1.445175051689148,0.6391814947128296,-0.0632101446390152,0.2528818249702453
1749041543.4433446,2.68087553250807,-1.1247278782245014,-2.299429090941227,4.051749400314349,-2.6311598831471286,-4.90970936110114,-0.036238373426405,0.01005944427533759,0.03738319236168667,0.016997628436923703,-0.04020090326786628,0.07554245095637019,-0.2438400983810424,0.6394604444503784,1.4364736080169678,0.6059274673461914,-0.0596837401390075,0.227700725197792
1749041543.443406,2.680804037182283,-1.1247094897302623,-2.2993506500896004,4.05178518239032,-2.6312443843035425,-4.909554662539384,-0.03715944933508333,0.010282473693517053,0.038631107940574644,0.0176283733516792,-0.04118277907961473,0.07757177970690352,-0.2509291172027588,0.6407850980758667,1.4423096179962158,0.613913893699646,-0.0585193336009979,0.2102395743131637
1749041543.4434662,2.6807310551415506,-1.1246902951215623,-2.2992696451038523,4.05182205948544,-2.6313300339697574,-4.909396765498496,-0.03808773691766522,0.01050596225220639,0.03988050670852995,0.01823935296390904,-0.04216244042983982,0.07955718990241194,-0.2594535946846008,0.6441638469696045,1.4384291172027588,0.6221652626991272,-0.0461304038763046,0.2442177534103393
1749041543.4435277,2.680656470869607,-1.1246703051192877,-2.299186061172089,4.0518599963430555,-2.6314167779298945,-4.909235665431963,-0.039023124793435754,0.01072478098191194,0.041121122665540265,0.01882870306306248,-0.043145167144207304,0.08148572395013469,-0.2854617238044739,0.6523323059082031,1.4196186065673828,0.6373355388641357,-0.0538797229528427,0.2373926639556884
1749041543.4435894,2.6805801618323146,-1.1246495563403254,-2.299099898140836,4.051898967287108,-2.6315046029080955,-4.9090713526234495,-0.03996629152838381,0.010933353762156392,0.042344426650023845,0.019397860398358585,-0.04413743531492546,0.08334978533260745,-0.2625445425510406,0.6202055811882019,1.4266527891159058,0.6368892192840576,-0.0361688435077667,0.225828543305397
1749041543.4436522,2.6805020077363633,-1.124628106957373,-2.2990111738668673,4.051938959274151,-2.6315935392016527,-4.908903808228714,-0.04091855654614523,0.011125834009449399,0.04354405736873127,0.019950553429206028,-0.045146610319322704,0.08514750168848999,-0.2850175201892853,0.6433581113815308,1.4292798042297363,0.625887930393219,-0.0470727384090423,0.2294707149267196
1749041543.4438255,2.680421897761962,-1.124606032069948,-2.298919926983234,4.05197997260958,-2.6316836635221548,-4.908732998881355,-0.0418815652313114,0.011296317996199633,0.04471598557228092,0.020491636536763363,-0.04618035623927613,0.086882502107012,-0.2897181808948517,0.6574828028678894,1.4207195043563845,0.6388934850692749,-0.0483251512050628,0.2252894341945648
1749041543.4450414,2.680339735862006,-1.124583419237951,-2.2988262186189106,4.052022019146363,-2.631775101070741,-4.908558871871088,-0.042856855926714156,0.011439147941425356,0.04585841714219437,0.021025913463075415,-0.047245812909052116,0.0885631062745591,-0.2858741283416748,0.6342179775238037,1.4455796480178833,0.6099262833595276,-0.0536095276474952,0.2261527180671692
1749041543.486292,2.6802554442680826,-1.1245603644174935,-2.2987301325747285,4.05206511812061,-2.631868025223327,-4.908381352917548,-0.04384537145692749,0.011549324854794584,0.046971471805448195,0.02155709207220533,-0.04834862045069217,0.09020099859282099,-0.2932225465774536,0.6227336525917053,1.420517921447754,0.6379872560501099,-0.0538023449480533,0.2380087971687317
1749041543.486352,2.6801689651589347,-1.124536968436802,-2.2986317736542894,4.05210929025916,-2.6319626531025837,-4.908200347999424,-0.044846987290265566,0.011623000400078616,0.048056696820790286,0.022087000853298497,-0.049491895504927275,0.09180956151958868,-0.294122964143753,0.6415680646896362,1.4199767112731934,0.6221919655799866,-0.0708701312541961,0.239805594086647
1749041543.486411,2.680080260458081,-1.1245133340150202,-2.298531264162915,4.052154551176701,-2.6320592358826658,-4.908015749607986,-0.04586013476385334,0.01165797450775042,0.04911647690729661,0.022615171295259747,-0.05067529469089662,0.09340212577002587,-0.3164451718330383,0.6358447074890137,1.388602375984192,0.6490092873573303,-0.0671629980206489,0.2500425577163696
1749041543.486478,2.679989310028473,-1.1244895630385672,-2.2984287388492715,4.052200905240148,-2.6321580437600143,-4.907827446599666,-0.046881599656179815,0.011654108545654913,0.05015339028653502,0.023138843821234746,-0.051894327790576934,0.09499041363404753,-0.3081823587417602,0.6205580234527588,1.416525959968567,0.6358596682548523,-0.0732215493917465,0.248738557100296
1749041543.486524,2.6798961088256466,-1.1244657535919693,-2.29832433866401,4.052248341063926,-2.632259346747042,-4.907635336087743,-0.04790656640733211,0.011613574372124675,0.05116956318637238,0.023653391855071912,-0.05314008667681298,0.0965833996623263,-0.32979416847229,0.6207783222198486,1.4334754943847656,0.6326251029968262,-0.067646749317646,0.2423386722803115
1749041543.486564,2.6798006636452523,-1.1244419964711796,-2.298218203661242,4.052296829568166,-2.6323633934346886,-4.907439335695583,-0.04892894616025469,0.011540888979982499,0.052166099183970305,0.02415309207712395,-0.05439952775228998,0.09818672457067713,-0.3219581544399261,0.6161144375801086,1.3991403579711914,0.6405530571937561,-0.0794322937726974,0.2556914985179901
1749041543.486603,2.6797029900537233,-1.1244183715271505,-2.298110465324638,4.0523463250160585,-2.6324703903782973,-4.90723939466645,-0.049941973030622144,0.01144272234169262,0.05314267606879711,0.024632115624028044,-0.0556563807104389,0.09980270868712962,-0.3381791114807129,0.6389417052268982,1.3969924449920654,0.6298962831497192,-0.0732847452163696,0.2399965226650238
1749041543.486656,2.67960311005128,-1.124394944601323,-2.2980012387065774,4.052396768796614,-2.6325804846573972,-4.907035502447432,-0.05093899760339202,0.011327503349098239,0.05409738568267923,0.025085585856743937,-0.056892647472210206,0.10143092959645102,-0.3594470918178558,0.6212141513824463,1.4080924987792969,0.6327186822891235,-0.0814172029495239,0.2532333433628082
1749041543.4867146,2.6795010509201576,-1.1243717655887795,-2.2978906150214753,4.05244809516277,-2.63269375161838,-4.906827693403639,-0.051914371201642724,0.011204876274109992,0.055026852979928854,0.025510543953475875,-0.0580905158931242,0.10306924832066539,-0.3409262299537658,0.6256665587425232,1.4039465188980105,0.6287443041801453,-0.0512151569128036,0.2463563382625579
1749041543.4867775,2.679396845362119,-1.1243488675648146,-2.297778655647037,4.052500237781406,-2.632810189220538,-4.906616046449609,-0.05286429782967535,0.011085071035477016,0.05592663313239727,0.025906677476384414,-0.059234394370656404,0.10471509366763566,-0.2983298003673553,0.6128246188163757,1.3825294971466064,0.624345600605011,-0.057484745979309,0.2680687010288238
1749041543.4868443,2.6792905323369416,-1.1243262665424407,-2.2976653887545577,4.052553135877325,-2.632929719831156,-4.906400678796881,-0.05378752110812649,0.010978245925121874,0.05679185109926267,0.026276693838026974,-0.060312732785372365,0.1063667637947298,-0.3406581878662109,0.619074285030365,1.3924413919448853,0.6015715599060059,-0.0603167116641998,0.2577881217002868
1749041543.4869,2.679182157287286,-1.1243039615503616,-2.2975508097854473,4.052606739033794,-2.63305219946212,-4.906181733799191,-0.05468571963308419,0.010893850693825915,0.05761800518614066,0.026626261972020338,-0.06131934648867628,0.10802449146550368,-0.353685200214386,0.6089797616004944,1.351373553276062,0.6295074820518494,-0.071362480521202,0.2421914786100387
1749041543.486941,2.6790717703135023,-1.1242819350731403,-2.297434886442613,4.052661010256309,-2.633177433282489,-4.905959363934748,-0.055563525568263286,0.010840049804186227,0.058401810386334914,0.026963507070269222,-0.062254068862218195,0.10969104648585613,-0.3623124659061432,0.6342763900756836,1.3783936500549316,0.6325482726097107,-0.0671270638704299,0.2355273067951202
1749041543.4869802,2.6789594217003834,-1.124260154050522,-2.297317567823726,4.052715927418787,-2.633305195166348,-4.905733711005885,-0.05642815101986206,0.010823241071245184,0.05914193368703819,0.027298122185248932,-0.0631226795421096,0.11137171655053317,-0.3107612133026123,0.5965222120285034,1.3637770414352417,0.6359419822692871,-0.0694659501314163,0.2481465339660644
1749041543.4870183,2.6788451555770934,-1.1242385714420324,-2.2971987962645843,4.052771483452742,-2.633435248399476,-4.905504886350782,-0.057288673766228725,0.01084769952038913,0.05983948719109614,0.02764023702256627,-0.06393616454799017,0.11307361915291604,-0.3610987663269043,0.6354585886001587,1.3364449739456177,0.6373971700668335,-0.0632761791348457,0.2455182671546936
1749041543.487056,2.678729003492858,-1.1242171281014073,-2.2970785198289083,4.05282768566601,-2.633567364630518,-4.905272954165036,-0.058155079937877635,0.010915368754387852,0.06049818445559213,0.027999230965107227,-0.06470944901750865,0.1148044363956406,-0.370883971452713,0.6029464602470398,1.3335318565368652,0.6515096426010132,-0.0835905373096466,0.2410901486873626
1749041543.4870946,2.678610979749218,-1.1241957547125434,-2.2969567032561202,4.052884554591952,-2.633701338788246,-4.90503792098276,-0.059037189158997756,0.011025815674759736,0.06112411729749185,0.02838268035461762,-0.06545979052646941,0.11657079053781005,-0.3436858654022217,0.6201998591423035,1.3804497718811035,0.6511152982711792,-0.0566176697611808,0.2365347892045974
1749041543.4871323,2.6784910796960144,-1.1241743737644418,-2.2968333354953647,4.05294212279883,-2.6338369988583104,-4.90479973382769,-0.05994359969019683,0.011176360066250232,0.0617251775338138,0.028795596535396036,-0.06620502973236683,0.11837655820939154,-0.367116630077362,0.6381290555000305,1.364224910736084,0.6627339720726013,-0.0728994607925415,0.260073184967041
1749041543.4871695,2.6783692814343043,-1.1241529016410525,-2.2967084326812723,4.053000433981317,-2.6339742106790838,-4.904558288213084,-0.060880783189575516,0.011362382723004686,0.062310224238333864,0.02924005610533434,-0.06696188641607348,0.12022145317477385,-0.3975555300712585,0.626655638217926,1.364840745925903,0.6476873159408569,-0.0764358788728714,0.2758582532405853
1749041543.487207,2.678245550689691,-1.1241312507261079,-2.296582036379778,4.053059542361348,-2.6341128788326627,-4.9043134451178325,-0.061852431179274976,0.01157779730505028,0.06288815153059162,0.029715258409939063,-0.06774448273503207,0.122100191604793,-0.3622269928455353,0.6076948046684265,1.372175693511963,0.6635640263557434,-0.0788652896881103,0.2441158592700958
1749041543.4873257,2.6781198479784982,-1.124109331249278,-2.2964542078354593,4.053119512095779,-2.634252945072718,-4.904065053966807,-0.06285911287037478,0.011815642812272431,0.06346702357614041,0.030217975289059285,-0.06856325993049374,0.12400247256626384,-0.3482834696769714,0.6309853792190552,1.3831491470336914,0.6753976345062256,-0.0734616369009018,0.2605161368846893
1749041543.489029,2.6779921366645167,-1.1240870528146314,-2.296325019565183,4.053180416201294,-2.634394385551729,-4.903812977310252,-0.06389825372226464,0.0120687279694252,0.06405342040039883,0.03074329501227645,-0.06942440185535459,0.1259138566273582,-0.387984424829483,0.6203696727752686,1.3902685642242432,0.6503919363021851,-0.0845715329051017,0.2587771117687225
1749041543.5302837,2.6778623903335785,-1.1240643261215235,-2.2961945459186666,4.053242334516457,-2.634537207595216,-4.903557112744263,-0.06496440086493285,0.0123302506885979,0.06465209413299332,0.031285517783536484,-0.07032978756421948,0.12781744512274948,-0.3865845203399658,0.640636682510376,1.3756966590881348,0.6433496475219727,-0.0583178475499153,0.2415431588888168
1749041543.5303292,2.677730598264296,-1.124041065724219,-2.2960628541824177,4.053305350404953,-2.6346814462729418,-4.903297408495595,-0.06604971954520719,0.012594327699112666,0.0652659749206604,0.03183904293836359,-0.07127740304700125,0.12969610762482972,-0.3797335922718048,0.6595395803451538,1.3813538551330566,0.65128093957901,-0.0650866776704788,0.254790723323822
1749041543.53037,2.677596768475588,-1.1240171942233137,-2.2959299974926717,4.053369546236503,-2.634827160740717,-4.903033870475088,-0.06714466139823001,0.012856390909138395,0.06589649637571308,0.03239910217382478,-0.07226209293962062,0.13153491203695417,-0.3687078952789306,0.6342947483062744,1.3894877433776855,0.6519780158996582,-0.0717357248067855,0.2530214190483093
1749041543.53041,2.6774609284042894,-1.1239926472410695,-2.2957960103337367,4.05343499808673,-2.6349744302116145,-4.902766559968917,-0.06823874865857099,0.013113427298576173,0.06654414919722268,0.032962236064250666,-0.07327653869581603,0.1333233844579803,-0.3960607945919037,0.63930743932724,1.381912350654602,0.6618755459785461,-0.0951389670372009,0.2147641330957412
1749041543.5304484,2.6773231234008383,-1.1239673777657666,-2.2956609068067277,4.053501770405147,-2.635123349392252,-4.902495582351411,-0.0693214241227439,0.013364055235540408,0.06720913515534736,0.0335264715546814,-0.07431237674357034,0.1350572488165791,-0.4065925478935241,0.6375611424446106,1.380251169204712,0.6653527617454529,-0.0763567835092544,0.222226470708847
1749041543.5304863,2.677183413099397,-1.123941358583008,-2.2955246812536427,4.053569911431053,-2.6352740233286553,-4.902221068407406,-0.0703829224455355,0.013608444097985135,0.06789198811154791,0.0340912197549304,-0.07536137031594822,0.13673935911110888,-0.3753403425216675,0.6134454011917114,1.4008005857467651,0.6621822714805603,-0.0713820531964302,0.2309512794017791
1749041543.530524,2.677041865671757,-1.1239145823562728,-2.2953873103764604,4.053639449883228,-2.635426561813907,-4.901943151041946,-0.07141511381319192,0.013848097292090298,0.06859404995924939,0.03465696066573734,-0.07641651118250448,0.13837964240571718,-0.3434608578681946,0.6466418504714966,1.3972816467285156,0.6732762455940247,-0.0718906596302986,0.2027936279773712
1749041543.5305614,2.676898550180337,-1.123887059804938,-2.2952487558334242,4.053710393140079,-2.6355810736614154,-4.901661941104309,-0.07241224954229664,0.014085529948842344,0.06931772812020084,0.035224804508068676,-0.07747289114662338,0.13999401310151333,-0.3524007201194763,0.6582285165786743,1.4055967330932615,0.6617685556411743,-0.0869875326752662,0.2256535291671753
1749041543.530599,2.6767535276539594,-1.1238588168558319,-2.2951089664246513,4.053782726980428,-2.635737661128975,-4.901377506554336,-0.07337151337080684,0.014323880358385539,0.07006650677228875,0.03579601627165736,-0.07852819316629664,0.1416023774718822,-0.376279205083847,0.6343986392021179,1.4194996356964111,0.6824716925621033,-0.0878015682101249,0.2200614660978317
1749041543.5306368,2.6766068419575597,-1.1238298915681042,-2.2949678793295294,4.053856416944362,-2.635896414589622,-4.901089859045686,-0.07429327659037514,0.014566499072054973,0.0708447250747927,0.036371567641046425,-0.07958271760236563,0.14322599895578353,-0.3375770151615143,0.6413079500198364,1.439048409461975,0.6483449935913086,-0.0950427651405334,0.2416922748088836
1749041543.5306742,2.6764585118810134,-1.12380033128477,-2.294825420360072,4.053931411363985,-2.636057407303788,-4.900798950900285,-0.07518098403107565,0.014816561665679727,0.07165716421091785,0.03695175126362406,-0.08063895302847017,0.1448846138093395,-0.345984548330307,0.6397495865821838,1.3989019393920898,0.6436924934387207,-0.0750976949930191,0.2363186478614807
1749041543.5307114,2.6763085260845956,-1.1237701900256687,-2.294681503715094,4.054007646035511,-2.6362206901014913,-4.900504683381704,-0.07604065645739308,0.015076747725124219,0.07250850305104996,0.03753586961858865,-0.08170078608927347,0.14659374433759553,-0.3803417086601257,0.6248166561126709,1.4342083930969238,0.6602892279624939,-0.0959971100091934,0.250396192073822
1749041543.5307486,2.676156842497,-1.123739525670292,-2.294536032030243,4.054085050261925,-2.636386286150616,-4.90020692472448,-0.07688006758832842,0.015349016775133692,0.07340272095005415,0.038122002666222274,-0.08277249822736296,0.14836263772210137,-0.3804357647895813,0.6457719802856445,1.4548426866531372,0.6684285998344421,-0.0719821825623512,0.2600477039813995
1749041543.5307858,2.676003393235752,-1.1237083962016354,-2.2943888974174063,4.054163553483651,-2.636554186673923,-4.89990553435379,-0.07770772207551574,0.015634492524699724,0.07434254907162445,0.03870686483900135,-0.08385771728066033,0.15019316629729698,-0.3812626898288727,0.6483392715454102,1.4376780986785889,0.6449211239814758,-0.0943754315376281,0.2732678651809692
1749041543.5308225,2.6758480950124,-1.1236768545278164,-2.294239983710337,4.054243091111493,-2.636724349067562,-4.89960038860424,-0.07853180417988156,0.015933445127910333,0.07532908142785599,0.03928577426371569,-0.08495848999063987,0.15207987163539458,-0.3850193619728088,0.6412960290908813,1.47513747215271,0.6581541299819946,-0.1103084534406662,0.2863403260707855
1749041543.5308592,2.675690863587124,-1.1236449421420582,-2.2940891695969294,4.054323607993602,-2.6368966989818783,-4.899291403144391,-0.07935926861994119,0.016245343914924576,0.07636163362842878,0.03985276279018068,-0.08607462469225048,0.15401113876036274,-0.3923608362674713,0.6298055648803711,1.462391972541809,0.6542433500289917,-0.1119703575968742,0.2789120376110077
1749041543.5308957,2.6755316297260814,-1.1236126826410167,-2.293936332062195,4.05440505852071,-2.6370711374553517,-4.898978548217019,-0.08019520248138624,0.016568945066352946,0.07743788238072138,0.040400845139353464,-0.08720341692163287,0.15597127943984593,-0.3884637653827667,0.6442962288856506,1.4617416858673096,0.661361038684845,-0.1036395877599716,0.2633839845657348
1749041543.530934,2.6753703537550075,-1.123580076458784,-2.2937813496681985,4.054487403406012,-2.6372475532453916,-4.898661854376877,-0.08104251917874841,0.01690238132494204,0.07855424856880705,0.04092243871706591,-0.08833980642563684,0.1579431273222311,-0.3912492096424103,0.6246901750564575,1.4371960163116455,0.6452813744544983,-0.0914848148822784,0.2377524971961975
1749041543.530971,2.675207036245621,-1.1235470980463422,-2.293624105449647,4.054570604049607,-2.637425839253054,-4.898341408046347,-0.08190198023917147,0.017243233160865006,0.0797064203762776,0.04140989199921817,-0.08947692791620157,0.15991065190698966,-0.3185949027538299,0.6291320323944092,1.4632145166397097,0.6409777402877808,-0.100505456328392,0.2577735185623169
1749041543.5310085,2.675041723289322,-1.1235136963420407,-2.293464489314156,4.054654615823955,-2.6376059106755982,-4.898017337639892,-0.08277249298570508,0.017588580170058123,0.08088987317686266,0.0418560552813152,-0.09060693318936307,0.16186111799624867,-0.3875732719898224,0.6282711029052734,1.4689710140228271,0.6317174434661865,-0.0916039794683456,0.2273702323436737
1749041543.5311227,2.6748745057438197,-1.1234797989198257,-2.2933023997108073,4.054739381748372,-2.637787721581189,-4.897689792383318,-0.08365160569186648,0.01793505219981388,0.08210024815587266,0.042254827342521034,-0.09172190869737504,0.1637864427883082,-0.3905409574508667,0.6451443433761597,1.4352880716323853,0.6450323462486267,-0.0642376542091369,0.243322879076004
1749041543.5330307,2.6747055124829737,-1.1234453197183512,-2.293137744198902,4.054824828037048,-2.6379712762956706,-4.8973589172252066,-0.0845361198700707,0.018278913970955706,0.08333350032651524,0.04260163850427361,-0.0928147122186294,0.16568358684977086,-0.3954179286956787,0.6817960143089294,1.4726214408874512,0.6309336423873901,-0.1044472306966781,0.2509243190288543
1749041543.5742855,2.6745348981084107,-1.1234101697112453,-2.2929704387007863,4.054910862838016,-2.6381566326109422,-4.897024827975277,-0.08542275162727665,0.018616217339790367,0.08458579878351202,0.04289387165563124,-0.09387960446695519,0.1675540114179647,-0.4302103221416473,0.6477383375167847,1.4757133722305298,0.6647729873657227,-0.0757193863391876,0.2553021907806396
1749041543.574334,2.6743628260844283,-1.1233742692482727,-2.2928004056522524,4.0549973789597775,-2.6383438954664618,-4.8966875907140075,-0.08630877342868319,0.018943036416350867,0.08585323145605862,0.043131248875088596,-0.09491262879982283,0.1694024078561308,-0.3631937503814697,0.6458255648612976,1.458081841468811,0.6285430192947388,-0.0753866881132125,0.2424191832542419
1749041543.5743756,2.6741894489368985,-1.1233375601725026,-2.2926275717297724,4.055084260566122,-2.638533201996292,-4.896347208656391,-0.08719254417704615,0.019255764781315663,0.08713141125363982,0.04331619426996292,-0.09591176082792574,0.17123502017625125,-0.3964659571647644,0.6615657806396484,1.4530816078186035,0.6273791790008545,-0.0897295996546745,0.2515275776386261
1749041543.5744162,2.6740148878337013,-1.1233000154336283,-2.2924518661687885,4.055171393054527,-2.6387247008026966,-4.8960036181637365,-0.08807381527364891,0.019551418352656266,0.0884150911563286,0.04345412817481881,-0.09687689363701636,0.17305791168931547,-0.3577826917171478,0.6442925930023193,1.4581302404403689,0.6403412222862244,-0.1068075001239776,0.256534993648529
1749041543.5744555,2.6738392143381686,-1.1232616440084362,-2.2922732208536947,4.055258674891953,-2.638918529310907,-4.895656693753728,-0.08895371994882159,0.019827877472392372,0.08969787640269512,0.043553595542994275,-0.09780973764161228,0.17487547299359565,-0.3798788189888,0.6765308976173401,1.4487926959991455,0.6572961211204529,-0.1113023087382316,0.2703411877155304
1749041543.574494,2.6736624372305737,-1.1232224896761187,-2.292091573294883,4.055346029971304,-2.63911479300508,-4.8953062604585735,-0.08983442386487628,0.020084027205634535,0.09097208256352467,0.043626120327201326,-0.09871368917663845,0.17668936197296878,-0.3463280200958252,0.6619114875793457,1.4287269115447998,0.6318435668945312,-0.0796666964888572,0.2669816315174103
1749041543.5745325,2.6734844968060294,-1.1231826236059845,-2.291906873189439,4.055433418841008,-2.6393135495672717,-4.894952111471099,-0.0907185106293973,0.020319797056998535,0.09222874380807589,0.043685709849127896,-0.09959366931481979,0.17849795394442505,-0.3632459044456482,0.6626526117324829,1.4243625402450562,0.6319399476051331,-0.0948773548007011,0.2444163858890533
1749041543.5745704,2.6733052678971854,-1.1231421324059234,-2.291719092468131,4.0555208470017785,-2.6395147997234987,-4.894594029579041,-0.09160825181273599,0.020536131267825258,0.09345774540894174,0.04374799293061861,-0.10045589326190685,0.18029629783209306,-0.4107971489429474,0.6534805297851562,1.442212462425232,0.6198457479476929,-0.1190151795744896,0.2684828639030456
1749041543.5746083,2.673124571325572,-1.1231011044568024,-2.291528237793528,4.0556083686984685,-2.6397184852288453,-4.89423181139469,-0.0925049354944009,0.020734924143427053,0.09464805119411454,0.04382905706896313,-0.10130753070338581,0.18207653208754454,-0.3855196833610534,0.6475666761398315,1.4316433668136597,0.6406154632568359,-0.0963798016309738,0.2634531259536743
1749041543.5746458,2.672942192112157,-1.1230596174666467,-2.2913343637583203,4.055696085415712,-2.6399244933392656,-4.893865293027721,-0.09340839716687335,0.020918936801067496,0.09578801406783174,0.04394414404697125,-0.10215624562458385,0.18382869987931602,-0.4017230868339538,0.6528980731964111,1.413774013519287,0.6708258986473083,-0.1104781180620193,0.2701859474182129
1749041543.5746827,2.672757902027917,-1.1230177293881434,-2.291137584735993,4.055784139276729,-2.640132666600827,-4.893494374802058,-0.0943168321929206,0.021091689123196155,0.09686577726170782,0.04410643486064117,-0.10300963164324402,0.18554189388364953,-0.37783083319664,0.6500130891799927,1.4198651313781738,0.6611093878746033,-0.0964108482003212,0.2805996537208557
1749041543.5747194,2.67257148396122,-1.122975473719482,-2.290938083394935,4.055872702276017,-2.640342816625924,-4.893119041706766,-0.09522689965370296,0.021257310755751345,0.09786978397207273,0.044326158054167814,-0.10387458156032535,0.18720563819176705,-0.3978424668312073,0.6456457376480103,1.416285753250122,0.6807107925415039,-0.1049983203411102,0.2654405236244201
1749041543.574756,2.6723827557671727,-1.1229328591850514,-2.2907361141669322,4.055961962653555,-2.6405547402940166,-4.892739376190737,-0.09613407712929617,0.021420340862920273,0.09878941206010178,0.04461017170834101,-0.10475665703948273,0.18881138046871715,-0.4098731279373169,0.6695284843444824,1.4228912591934204,0.6611564755439758,-0.0880659520626068,0.2744260430335998
1749041543.5747929,2.6721915914329575,-1.1228898730858994,-2.290532000431833,4.0560521099429065,-2.6407682364215637,-4.892355560767053,-0.09703320050669983,0.021585474940555533,0.09961573331329987,0.04496202619490511,-0.10565954849895957,0.19035393897086908,-0.3947604298591614,0.6315673589706421,1.419613480567932,0.6620111465454102,-0.0781935304403305,0.2609749734401703
1749041543.5748298,2.671997937551906,-1.1228464873011494,-2.290326124882572,4.056143320414252,-2.640983120777293,-4.891967869296072,-0.09791911342174292,0.021757259805835323,0.10034235586709846,0.04538237643214906,-0.10658472131697151,0.19183273400374318,-0.3898022770881653,0.6465392708778381,1.375074863433838,0.6699187755584717,-0.0817085057497024,0.2511150240898132
1749041543.5748668,2.671801823421122,-1.1228026659266768,-2.2901189133981594,4.056235744703653,-2.6411992378156564,-4.891576647310471,-0.09878734707541983,0.021939744605031872,0.10096625406891385,0.04586954254398162,-0.10753133560938505,0.19325262566186074,-0.3840162754058838,0.635825514793396,1.3781144618988037,0.6645515561103821,-0.0976128652691841,0.2563194632530212
1749041543.574903,2.671603363579227,-1.1227583736704276,-2.289910813549842,4.056329499181489,-2.6414164686449806,-4.891182283062514,-0.09963474645317273,0.022136116687609834,0.10148845503800617,0.04642003971614457,-0.10849651038428684,0.19462418657446456,-0.3743661344051361,0.6697679758071899,1.3826947212219238,0.6508741974830627,-0.102778784930706,0.2529613673686981
1749041543.5749404,2.671402752086086,-1.1227135842455829,-2.289702269395095,4.056424661915,-2.6416347359699075,-4.890785171996253,-0.10045995271379202,0.022348376955981263,0.10191446557661048,0.04702898447449999,-0.1094759589071454,0.19596328803784233,-0.4037113785743713,0.6744590997695923,1.3760757446289062,0.687471866607666,-0.0759445577859878,0.2596262693405151
1749041543.5749774,2.67120024819284,-1.1226682880217782,-2.2894936944122595,4.0565212730670765,-2.641854007370003,-4.89038567805859,-0.1012636551686516,0.022577117828058987,0.1022543837845815,0.04769038149507111,-0.11046492828092509,0.19728998179677312,-0.3718809187412262,0.6742432713508606,1.386649250984192,0.6778250336647034,-0.0844867378473281,0.2600921392440796
1749041543.5750146,2.6709961534777067,-1.1226224980084902,-2.2892854443292676,4.056619338746838,-2.6420742980510914,-4.889984095687927,-0.10204855769343602,0.02282144774411531,0.10252270956270962,0.0483973531572474,-0.1114592629923631,0.19862678769403985,-0.4242488443851471,0.66656094789505,1.4031658172607422,0.6945328712463379,-0.1153134927153587,0.2647781372070312
1749041543.575116,2.67079078144592,-1.1225762528718082,-2.2890777913660756,4.056718837108509,-2.6422956734129075,-4.889580616374793,-0.1028190656503573,0.023079070776809707,0.10273790872545716,0.049142373143474714,-0.11245634604341159,0.199996602706086,-0.412115216255188,0.6819742321968079,1.3981208801269531,0.6560848355293274,-0.0760544314980506,0.2769108414649963
1749041543.5774207,2.6705844220657804,-1.122529615452472,-2.288870901365213,4.056819725808163,-2.6425182508710607,-4.889175303233967,-0.10358076631870697,0.023346498827101995,0.10292178381389938,0.049917521131692,-0.11345568154158045,0.20142050044004264,-0.3965531587600708,0.6677069067955017,1.404118895530701,0.6865909695625305,-0.0710943192243576,0.2422135919332504
1749041543.61827,2.670377305131257,-1.1224826656690192,-2.2886648156302396,4.056921950365917,-2.642742199687271,-4.888768076128413,-0.10433981478812544,0.023619358086500425,0.10309867387998488,0.050714723709780155,-0.11445894984830415,0.2029156900961276,-0.3964090943336487,0.6589512825012207,1.3749066591262815,0.6736648678779602,-0.0767224431037902,0.2917790710926056
1749041543.6183171,2.6701695670516337,-1.122435488007231,-2.2884594397342033,4.057025453168515,-2.6429677372723446,-4.888358708838843,-0.10510233122931141,0.023892750190708426,0.1032944739658997,0.051525918614326385,-0.11546947369969017,0.2044938675736842,-0.3756518959999084,0.6836035251617432,1.4196295738220217,0.6740889549255371,-0.089623212814331,0.286648690700531
1749041543.6183586,2.669961225708983,-1.122388155612424,-2.288254541480455,4.05713018257148,-2.6431951206017854,-4.887946838880727,-0.10587387541428121,0.024161637100828217,0.10353546147883727,0.05234308898885509,-0.11649117466525685,0.20616013773852512,-0.4050312638282776,0.6738373041152954,1.414844274520874,0.679449200630188,-0.1049941927194595,0.3027995526790619
1749041543.6184006,2.6697521677077876,-1.1223407143443695,-2.288049759334568,4.057236100919455,-2.64342463201963,-4.887531990015519,-0.10665901769339198,0.02442123017415035,0.10384695163013365,0.05315815573356946,-0.11752723966816643,0.20791261978407488,-0.3577575981616974,0.6652359366416931,1.4162696599960327,0.6807121634483337,-0.0967143476009368,0.2902557849884033
1749041543.6184394,2.669542151462339,-1.122293170247916,-2.2878446213818755,4.057343189774163,-2.643656559683473,-4.887113607242706,-0.10746099596465687,0.024667368883413733,0.1042518642313098,0.05396276864417902,-0.11857879893063443,0.20974276060727182,-0.4251336455345154,0.661669909954071,1.459235429763794,0.6760799884796143,-0.1214113608002662,0.2813329398632049
1749041543.6184776,2.6693308277450916,-1.1222454828924129,-2.287638573729672,4.057451450677758,-2.6438911739565234,-4.886691103674928,-0.10828144442109502,0.0248968688744289,0.10476934376853958,0.0547480758567146,-0.11964390854891492,0.21163627949213118,-0.4051955938339233,0.6609373688697815,1.4744089841842651,0.6679068207740784,-0.1146857216954231,0.2799170017242431
1749041543.6185153,2.6691177767358933,-1.122197565763043,-2.287431016407627,4.057560900416474,-2.644128701883771,-4.886263917584258,-0.10912019530325322,0.0251078074138946,0.10541360756757395,0.05550456081307956,-0.12071705230737224,0.21357457915862815,-0.4195592999458313,0.6690413951873779,1.4952882528305054,0.6575360298156738,-0.0945280045270919,0.285666823387146
1749041543.618553,2.668902557835948,-1.1221492938628403,-2.2872213440358813,4.057671560774728,-2.6443693024178097,-4.885831575781206,-0.10997517337627116,0.025299705968241912,0.10619318145544006,0.05622202356192958,-0.12178927069372147,0.21553641788289318,-0.3992782235145569,0.6344729661941528,1.4768770933151243,0.6684982776641846,-0.0743666738271713,0.2794956564903259
1749041543.6185904,2.668684765960547,-1.1221005177435162,-2.287008987655018,4.057783444080577,-2.6446130454998706,-4.8853937565557155,-0.11084241317541478,0.025473572907231287,0.10711061222729862,0.056889772672728475,-0.1228489228166474,0.217499658953789,-0.3762145340442657,0.6654262542724609,1.459282398223877,0.6849650740623474,-0.0920484364032745,0.272676944732666
1749041543.6186273,2.6684640859893696,-1.1220510820630807,-2.2867934531837384,4.057896537329674,-2.6448598986514344,-4.884950342231053,-0.1117162343488046,0.02563178850735059,0.10816264284024708,0.05749709383119643,-0.12388300249696328,0.21944298015101651,-0.3762145340442657,0.6654262542724609,1.459282398223877,0.6849650740623474,-0.0920484364032745,0.272676944732666
1749041543.6186652,2.668240336118036,-1.1220008456817778,-2.286574351404495,4.05801078884126,-2.6451097249843594,-4.884501449395621,-0.1125896165158195,0.025777844945710667,0.10934074047178967,0.058034040028220685,-0.12487885963547425,0.22134749776220866,-0.4148151576519012,0.6460968255996704,1.4469435214996338,0.6540229320526123,-0.0652973651885986,0.3015391230583191
1749041543.618703,2.6680134920744867,-1.1219496998290812,-2.286351415073139,4.058126101398154,-2.645362295305392,-4.8840474267478715,-0.1134548119729499,0.02591598237978716,0.11063181354196314,0.05849250652920739,-0.125826109563929,0.22319829086654233,-0.4237453937530517,0.6512970924377441,1.47532320022583,0.6344708800315857,-0.0992112457752227,0.2984791994094848
1749041543.61874,2.6677836881128094,-1.1218975813720224,-2.286124501349874,4.0582423341990985,-2.645617313595731,-4.8835888176856335,-0.11430419995567584,0.026050777258992623,0.11201895681764598,0.058867425045467804,-0.12671844741633,0.22498577713095144,-0.4223037958145141,0.6796013116836548,1.4656364917755127,0.6284178495407104,-0.0964231416583061,0.2969290018081665
1749041543.6187775,2.6675511960726674,-1.1218444794743034,-2.2858935814065937,4.0583593134144875,-2.6458744510850014,-4.883126294367644,-0.11513131016102729,0.026186738320554525,0.11348212240865117,0.059157811333637726,-0.12755504799822118,0.2267068156134617,-0.4547047615051269,0.668647825717926,1.5334124565124512,0.6351041793823242,-0.0459348559379577,0.3089601695537567
1749041543.6188147,2.6673163880347954,-1.1217904353843524,-2.2856587217866595,4.058476849117901,-2.6461333820546553,-4.882660576549823,-0.11593184843972791,0.02632794912224317,0.11499870265102702,0.059367402741677955,-0.1283412556745632,0.2283653541333436,-0.4020275771617889,0.6238328218460083,1.491089940071106,0.6231732368469238,-0.0505126640200614,0.2807569205760956
1749041543.6188512,2.667079689765049,-1.1217355363009334,-2.2854200626695236,4.058594755652602,-2.6463938152726043,-4.882192349563485,-0.11670449360885576,0.026477766037459206,0.11654408055051806,0.05950473630818242,-0.1290883685683888,0.22997243976048629,-0.3607553243637085,0.6385432481765747,1.4703601598739624,0.652244508266449,-0.069686584174633,0.2196274250745773
1749041543.618888,2.6668415317546916,-1.1216799050737931,-2.2851777970379734,4.058712872703964,-2.6466555172134605,-4.881722193016798,-0.1174512475804046,0.026638554996909154,0.11809222374172063,0.05958268494700974,-0.12981248803633985,0.2315454743876553,-0.4064216017723083,0.6495997905731201,1.4839457273483276,0.6536727547645569,-0.0511854439973831,0.2790342569351196
1749041543.6189363,2.666602303511833,-1.121623687814303,-2.284932152990586,4.058831084721913,-2.6469183254287985,-4.8812505276912175,-0.11817722044321644,0.02681145231541165,0.11961637966531787,0.05961760136055445,-0.13053259580438062,0.2331067138080302,-0.3674268126487732,0.6815328001976013,1.4822136163711548,0.6473618745803833,-0.0659936368465423,0.2702593505382538
1749041543.6189814,2.666362315636786,-1.121567041283455,-2.2846833799903723,4.0589493365117155,-2.647182152075298,-4.880777584032633,-0.11888987890300316,0.026996164038084813,0.12108989649435326,0.05962825353185514,-0.1312681766701963,0.2346811587092337,-0.4004253447055816,0.6441584229469299,1.4563497304916382,0.6323689222335815,-0.0818073898553848,0.3063335716724396
1749041543.6190193,2.6661217731497566,-1.1215101213262542,-2.284431739074174,4.059067642911094,-2.6474469787842563,-4.880303392187458,-0.11959791877894982,0.027190848821603934,0.1224871559580832,0.059634678971347305,-0.13203678759137394,0.23629411621949456,-0.4159771800041199,0.6522201299667358,1.4073597192764282,0.6316584348678589,-0.0847604572772979,0.3031296730041504
1749041543.6191225,2.6658807622229737,-1.1214530729134633,-2.2841774968476503,4.059186090821688,-2.6477128450019247,-4.879827791080221,-0.12030999717409328,0.02739214067090216,0.1237845724174318,0.059657009162799535,-0.13285198022244915,0.23796875242128723,-0.3801226913928985,0.6595274806022644,1.4464778900146484,0.6571940183639526,-0.0875581055879592,0.3195727169513702
1749041543.6210446,2.6656392508688587,-1.1213960218534909,-2.2839209230674964,4.059304832689426,-2.647979832751214,-4.879350452789878,-0.12103357157001005,0.02759535478235082,0.12496160876563668,0.05971428971534636,-0.13372191743139555,0.2397238862686399,-0.4405895471572876,0.674271821975708,1.454270601272583,0.6508884429931641,-0.0941151827573776,0.2982122898101806
1749041543.6622849,2.665397102498978,-1.1213390681711342,-2.283662291424367,4.059424071801772,-2.6482480512381414,-4.878870918353817,-0.12177405406193142,0.02779488289675665,0.1260017838724466,0.05982335111085175,-0.13464889473500835,0.24157214448025163,-0.4056086540222168,0.6246852278709412,1.4253865480422974,0.6758784055709839,-0.101466991007328,0.2827852368354797
1749041543.662333,2.6651540997768723,-1.1212822814610135,-2.283401882678521,4.0595440412096835,-2.6485176244442754,-4.8783886415809565,-0.12253441093930165,0.027984733411807537,0.1268936616799178,0.05999782263165899,-0.13562980862203583,0.2435184958085184,-0.3809851706027984,0.6447910070419312,1.40420663356781,0.6559661626815796,-0.0956447198987007,0.2820309400558471
1749041543.6623747,2.664909975021399,-1.1212256988506162,-2.283139988697454,4.059664979229614,-2.6487886836593795,-4.877903037821303,-0.12331523420987553,0.028159130889981402,0.12763178445829212,0.06024738345599626,-0.13665743232247785,0.24555917857405127,-0.3879328668117523,0.6576350331306458,1.3947678804397583,0.6628770232200623,-0.087157130241394,0.2963831722736358
1749041543.6624131,2.6646644428706434,-1.121169326152698,-2.282876915509799,4.059787104897805,-2.649061365193608,-4.87741353460889,-0.12411520525656528,0.028313081758383523,0.1282174538368972,0.06057730331623026,-0.13772219664287302,0.24768112473474485,-0.3875587582588196,0.6248729825019836,1.3807804584503174,0.6720428466796875,-0.0880075842142105,0.3020280599594116
1749041543.6624522,2.6644172311539953,-1.1211131422428007,-2.2826129835326125,4.059910596322513,-2.6493358119691055,-4.876919620848509,-0.1249317913519571,0.028442836172819383,0.12865921992098525,0.060988266869920524,-0.13881407442016158,0.24986209304941873,-0.4118121862411499,0.6605144143104553,1.3957107067108154,0.6654824018478394,-0.0817542821168899,0.3361383378505707
1749041543.6624918,2.6641681068157546,-1.1210571059036325,-2.2823485236925967,4.060035573921141,-2.649612176829284,-4.876420891137601,-0.12576198668851293,0.028546212961059973,0.1289729472275292,0.06147643482177121,-0.13992416602401597,0.2520717529349762,-0.3987962305545807,0.6541950106620789,1.379324197769165,0.6506373882293701,-0.0856084451079368,0.3362457156181335
1749041543.662532,2.663916894957331,-1.121001163704808,-2.2820838689826326,4.060162089531537,-2.649890625185271,-4.875917082148625,-0.12660293250783003,0.02862279106595395,0.12918138505528254,0.06203369000046857,-0.14104566980301192,0.25427385104220523,-0.4080052673816681,0.6598808765411377,1.409630298614502,0.6666427850723267,-0.0766909644007682,0.3069044351577759
1749041543.6625702,2.663663490193161,-1.1209452572308465,-2.2818193417712753,4.060290121677426,-2.6501713347409055,-4.875408098624481,-0.12745230578781183,0.028673994809641,0.1293132490328831,0.06264804390529871,-0.14217405837791608,0.25642937218870776,-0.3639131784439087,0.6517105102539062,1.421698808670044,0.67240309715271,-0.0456629954278469,0.2966833114624023
1749041543.6626077,2.663407860257674,-1.120889328277835,-2.2815552377959767,4.0604195768532305,-2.6504544904337863,-4.8748940270408125,-0.12830843033675193,0.028703099402674518,0.12940188603393304,0.06330421464450293,-0.14330644125864941,0.25850037094318223,-0.3914807736873626,0.6588603854179382,1.421934723854065,0.6702991127967834,-0.057679783552885,0.2695847153663635
1749041543.662648,2.663150042286814,-1.1208333214590673,-2.2812918082343674,4.0605502963823,-2.650740273545242,-4.874375135162149,-0.12917013018366302,0.028715158958997306,0.12948362809820008,0.06398440216857235,-0.14444026048819175,0.2604539987012731,-0.4160203337669372,0.6406980156898499,1.4079539775848389,0.6661481261253357,-0.0664951801300048,0.2761721014976501
1749041543.6626856,2.662890132804903,-1.1207771847169923,-2.2810292415077487,4.060682068054493,-2.6510288451320423,-4.873851855985209,-0.13003641390474985,0.02871683261337998,0.12959594402540037,0.06466927041863456,-0.1455716202320872,0.2622662238735939,-0.3832504153251648,0.6638510227203369,1.413115382194519,0.6510741114616394,-0.0857149362564086,0.2782822251319885
1749041543.6627226,2.6626282731508595,-1.1207208690781827,-2.2807676463946147,4.0608146414213815,-2.6513203252648463,-4.873324755551034,-0.13090613532287995,0.028716077870313286,0.1297754880912218,0.06533911267152459,-0.14669366535131947,0.2639248034933984,-0.4293648600578308,0.6398552060127258,1.4227575063705444,0.6643208861351013,-0.0693310350179672,0.3113422393798828
1749041543.6627598,2.66236463233806,-1.120664329120784,-2.2805070376673333,4.060947745510634,-2.6516147707735476,-4.872794485896826,-0.13177778350279076,0.028721699268934017,0.13005614673321075,0.06597514730309356,-0.14779546466882829,0.2654311422434715,-0.4242701530456543,0.6628550887107849,1.454007625579834,0.6698312759399414,-0.1219690293073654,0.2796407043933868
1749041543.6627965,2.662099388908397,-1.1206075248578393,-2.280247325098999,4.061081107917185,-2.6519121550950597,-4.8722617264632815,-0.13264949068575707,0.028742771807899074,0.13046719889192265,0.06656087293857575,-0.14886179439480723,0.26680073602462717,-0.3967411816120147,0.6506584286689758,1.4654101133346558,0.6537390351295471,-0.088187426328659,0.2421522587537765
1749041543.662844,2.661832712689095,-1.1205504244995845,-2.2799883065294164,4.06121447460774,-2.6522123542116582,-4.871727118972761,-0.13351924112306499,0.0287879862779994,0.13103170839952477,0.06708339421589214,-0.14987404896599948,0.2680619799501385,-0.3967301249504089,0.674828290939331,1.4414620399475098,0.6553304195404053,-0.1114019453525543,0.2225123941898346
1749041543.662886,2.6615647470699617,-1.120493006622175,-2.279729665686741,4.061347630026074,-2.6525151424232956,-4.871191201864267,-0.13438518002400443,0.02886498192681524,0.1317652356802953,0.06753460208507807,-0.15081225833059086,0.26925329936408215,-0.4145825207233429,0.6642363667488098,1.4641070365905762,0.6288031339645386,-0.0903593525290489,0.2603012323379516
1749041543.6629224,2.6612955925307262,-1.1204352600715337,-2.2794709755140956,4.061480416871354,-2.6528202007142405,-4.870654350772257,-0.1352459018056656,0.028979743309730997,0.1326749054810619,0.06791206418873415,-0.15165792558026414,0.27041886719024977,-0.3788609206676483,0.6701698303222656,1.4619662761688232,0.6309524178504944,-0.0678176432847976,0.2707424461841583
1749041543.6629596,2.6610252923171362,-1.1203771803845035,-2.279211707801707,4.061612754180234,-2.653127138721352,-4.870116731333219,-0.13610063277770526,0.029136142026390453,0.133758833143422,0.06821947991525791,-0.1523971904222505,0.2716035244149385,-0.4204289615154266,0.683582067489624,1.4531224966049194,0.6205983757972717,-0.0613926649093627,0.3159734606742859
1749041543.6629963,2.6607538211967534,-1.1203187624554787,-2.278951249943653,4.061744651558721,-2.6534355289885974,-4.869578269865773,-0.13694927721124334,0.029335692762996846,0.1350059152580035,0.06846660638677049,-0.15302372673087195,0.27284776134471755,-0.4236057698726654,0.6814465522766113,1.4680172204971311,0.6477481126785278,-0.0408957302570343,0.3188056349754333
1749041543.6630328,2.660481078282516,-1.1202599904753368,-2.27868892949356,4.061876217248005,-2.653744949801706,-4.869038646121145,-0.13779233880779104,0.02957756252155324,0.13639602506948725,0.06866865427449663,-0.15354081571524678,0.27418360931514585,-0.4270821809768677,0.7099829912185669,1.495270013809204,0.6473538875579834,-0.0406801104545593,0.289173424243927
1749041543.6631508,2.660206885185917,-1.1202008273622965,-2.278424046681545,4.062007658282699,-2.6540550310469997,-4.868497310220686,-0.13863075670184982,0.029858828773705725,0.13790068992642027,0.06884523341002508,-0.1539621829536883,0.2756320250895642,-0.4469353258609772,0.7333547472953796,1.4973100423812866,0.6654618978500366,-0.0434333980083465,0.2862059772014618
1749041543.665001,2.6599309911497206,-1.1201412063623952,-2.278155914116019,4.062139271852751,-2.6543654966358443,-4.867953523306568,-0.13946570407726486,0.03017493755608208,0.13948432940281602,0.06901894963741191,-0.15431140937966886,0.27720194322355507,-0.4304944574832916,0.6959514021873474,1.4679795503616333,0.6326087713241577,-0.0488744601607322,0.2695122063159942
1749041543.7102962,2.6596530869375115,-1.1200810270458328,-2.2778839017686066,4.062271427788407,-2.6546761971772663,-4.867406418940976,-0.14029837991947516,0.030520275304953316,0.14110607970915037,0.06921372221967938,-0.15461998312379008,0.2788907972886449,-0.3698030710220337,0.6824320554733276,1.442333102226257,0.6299230456352234,-0.0634411051869392,0.2805089354515075
1749041543.7103417,2.6593728286253575,-1.1200201569539403,-2.277607484367435,4.0624045429367985,-2.6549871277253163,-4.8668550803532185,-0.1411297865008293,0.0308887492957309,0.14272214335333486,0.0694528627945689,-0.15492430760866427,0.28068609347597906,-0.3924592435359955,0.6850051283836365,1.4498603343963623,0.6695029735565186,-0.0499961338937282,0.2970200777053833
1749041543.710382,2.6590898707237667,-1.1199584391229416,-2.2773262875677256,4.062539049183924,-2.655298427555536,-4.866298627089139,-0.14196045935549823,0.03127428173052397,0.14428852431959158,0.06975698958427454,-0.1552621647063719,0.2825675768724842,-0.4182755947113037,0.675822377204895,1.4410614967346191,0.6699333786964417,-0.0748258307576179,0.2889372408390045
1749041543.710421,2.6588039054692127,-1.1198957048263225,-2.2770401284514947,4.062675357886079,-2.6556103620268985,-4.8657363028398075,-0.14279013706997298,0.031671159166396984,0.14576396344792086,0.07014194559807445,-0.1556691919072994,0.2845095942505675,-0.3738776743412018,0.6949853897094727,1.4335132837295532,0.6827845573425293,-0.0448624789714813,0.2759684324264526
1749041543.7104597,2.6585147023761095,-1.1198317901116044,-2.276749044814451,4.062813824399181,-2.655923290458506,-4.865167553854751,-0.14361742177886944,0.03207422255296441,0.14711286880831062,0.0706169828263374,-0.15617584454416256,0.28648335539635933,-0.3738776743412018,0.6949853897094727,1.4335132837295532,0.6827845573425293,-0.0448624789714813,0.2759684324264526
1749041543.710498,2.6582221403258157,-1.1197665540262327,-2.2764533068636412,4.062954717074369,-2.6562376275642383,-4.864592085485052,-0.14443954014652557,0.03247891394168136,0.14830801713908032,0.07118349193616824,-0.156805117303088,0.28845890426486936,-0.4235061109066009,0.6694383025169373,1.417731523513794,0.6914054155349731,-0.0757342725992202,0.2498576641082763
1749041543.7105365,2.657926225109151,-1.1196998960181033,-2.2761534059106974,4.063098194978228,-2.6565538071903747,-4.864009886028397,-0.14525232146569692,0.032881208779021155,0.14933277307802953,0.07183447938973885,-0.1575710851403697,0.29040673834510944,-0.4225170910358429,0.7102738618850708,1.4206578731536863,0.7129159569740295,-0.0691154450178146,0.2621464729309082
1749041543.7105742,2.6576270892313856,-1.1196317701579197,-2.2758500185504205,4.063244297124375,-2.6568722543680883,-4.863421214053764,-0.1460504613812426,0.03327746365702633,0.15018255210136147,0.07255486042673125,-0.15847817625083832,0.29229914677931923,-0.4121880531311035,0.6936250925064087,1.3802326917648315,0.6813234090805054,-0.0535136573016643,0.2898284494876861
1749041543.7106118,2.657324976177299,-1.1195621945784753,-2.2755439503927386,4.063392943549719,-2.6571933665288587,-4.862826554687765,-0.14682806905721985,0.03366420609456081,0.1508652788941964,0.07332250294088129,-0.15952103795893968,0.2941114266344153,-0.4920198023319244,0.7140350341796875,1.4440441131591797,0.7070519328117371,-0.0794103145599365,0.3454987406730652
1749041543.7106495,2.657020214920999,-1.1194912555063439,-2.2752360676584042,4.063543946368064,-2.657517500628048,-4.862226556098394,-0.14757943099491136,0.03403789146019144,0.15140068738756962,0.07410986418285297,-0.16068488457236654,0.2958231299036398,-0.3471801280975342,0.6759901642799377,1.3731659650802612,0.6939536929130554,-0.0614437386393547,0.3069885969161987
1749041543.7106864,2.656713190816424,-1.1194191060632475,-2.274927226152546,4.063697027810109,-2.657844961738734,-4.861621957582762,-0.14829987443309522,0.03439465780780069,0.15181845668432156,0.07488602398156029,-0.16194628884630735,0.2974193819484937,-0.3991610705852508,0.6777382493019104,1.3931350708007812,0.6862064599990845,-0.0773018226027488,0.2774069309234619
1749041543.710724,2.656404317350045,-1.1193459604037974,-2.274618205936797,4.063851842155306,-2.65817598967373,-4.861013518148231,-0.1489865813803231,0.034730125100391994,0.15215534339278444,0.07561892773132739,-0.1632744489930186,0.29889215338696107,-0.3966538608074188,0.6751335263252258,1.3925728797912598,0.6761875152587891,-0.0789142623543739,0.254440426826477
1749041543.7107606,2.656094011202159,-1.1192720837270043,-2.2743096577422475,4.064007999054506,-2.6585107421092378,-4.860401952233826,-0.14963920550966106,0.03503930626597981,0.1524516241516065,0.07627769396301397,-0.16463298949712665,0.3002412585644935,-0.3855445384979248,0.6658281683921814,1.4047834873199463,0.6814142465591431,-0.0842776596546173,0.2722226083278656
1749041543.7107985,2.6557826713824992,-1.119197778489418,-2.274002064603221,4.064165086722643,-2.658849274928966,-4.8597878776589285,-0.15026018625602686,0.03531670645111507,0.15274727225679655,0.07683489481819548,-0.16598232256260073,0.3014748553999838,-0.3881272077560425,0.6984771490097046,1.425430417060852,0.6829253435134888,-0.0755186676979065,0.2846295833587646
1749041543.7108357,2.655470662181958,-1.119123367154811,-2.273695719803067,4.064322694407222,-2.6591915226548646,-4.859171779344851,-0.15085471774229248,0.03555666158409316,0.1530783312507898,0.07726875077008992,-0.16728251976931724,0.3026093090271444,-0.390636533498764,0.6545180082321167,1.4050463438034058,0.6899192333221436,-0.099228411912918,0.2829306125640869
1749041543.7108717,2.6551582993705565,-1.1190491722586628,-2.273390720307776,4.0644804340106715,-2.6595372833228947,-4.8585539905903,-0.15143038756490645,0.035753904090411584,0.15347391163269963,0.07756515874686246,-0.16849653530069367,0.30366837660040963,-0.4035756289958954,0.629287838935852,1.4385546445846558,0.6561011672019958,-0.0553885698318481,0.2626626193523407
1749041543.7109103,2.6548458391256577,-1.1189754951624014,-2.273086973530818,4.064637960660903,-2.6598862126418097,-4.857934691838918,-0.15199654801309845,0.035904270926600895,0.15395414340286026,0.07771939784695578,-0.169593495513797,0.30468171890324225,-0.4550222158432007,0.6547336578369141,1.4657306671142578,0.656372606754303,-0.0840186178684234,0.2393147349357605
1749041543.7109582,2.654533469224395,-1.118902595128534,-2.2727842145500583,4.0647949915633035,-2.660237831683363,-4.857313925098121,-0.1525635265622848,0.03600542706341714,0.15452928029533008,0.07773728886920833,-0.1705516581391113,0.3056827656843546,-0.394597589969635,0.6431840062141418,1.444566249847412,0.6720464825630188,-0.0825602188706398,0.2303907126188278
1749041543.7110052,2.6542213021170076,-1.1188306701956483,-2.272482030814117,4.06495132197874,-2.660591550678734,-4.856691620586341,-0.15314180836382582,0.036057478890149486,0.1551999765924124,0.07763559255037757,-0.17136060531275646,0.3067060238231994,-0.4017226099967956,0.6252808570861816,1.4225589036941528,0.6677700877189636,-0.0529054999351501,0.297074019908905
1749041543.7110472,2.65390936982914,-1.1187598410840698,-2.272179891853567,4.065106837024119,-2.6609467087606267,-4.856067631039427,-0.1537413003576649,0.0360633764626789,0.15595857423972329,0.07744152300623382,-0.17202230540002186,0.307784058098185,-0.3527834415435791,0.6418785452842712,1.4092227220535278,0.6770688891410828,-0.0509908348321914,0.2922967076301574
1749041543.7110848,2.6535976212037298,-1.1186901392067192,-2.271877182270747,4.065261518328869,-2.6613026261658894,-4.8554417685818025,-0.15437071454166706,0.03602903290883212,0.1567911054950564,0.07719136707230032,-0.17255084585285138,0.3089445439115905,-0.3917361795902252,0.6367456316947937,1.427260160446167,0.6409070491790771,-0.0340351685881614,0.3132732510566711
1749041543.7111225,2.6532859225430148,-1.1186214998124069,-2.271573236944237,4.065415445217574,-2.6616586625410594,-4.854813839132014,-0.15503703711050382,0.03596312770713669,0.15767967651049228,0.0769282834133613,-0.17297085919762717,0.31020787915999337,-0.3963901996612549,0.6420623064041138,1.4582886695861816,0.667177140712738,-0.0577061399817466,0.3196806311607361
1749041543.7112415,2.6529740629023686,-1.1185537612992045,-2.271267377658241,4.0655687906872,-2.662014273565211,-4.854183669911596,-0.15574503598289768,0.035876613750974895,0.15860493691855457,0.07669941154830791,-0.1733148853168235,0.3115857696335522,-0.4297675192356109,0.6573378443717957,1.446237564086914,0.7023258209228516,-0.0244125574827194,0.3139482736587524
1749041543.7130444,2.6526617647557686,-1.1184866715787636,-2.2709589501338328,4.065721812794585,-2.662369058379752,-4.853551126775346,-0.15649681111572578,0.03578200363240203,0.15954840608782694,0.07655248237683702,-0.17362008123151623,0.3130809928682954,-0.4178414940834045,0.6802551746368408,1.4440491199493408,0.6940078139305115,-0.0364242047071456,0.3054990470409393
1749041543.7542777,2.652348699549573,-1.1184199018408194,-2.270647359812065,4.0658748421430415,-2.6627227919122416,-4.852916119589275,-0.15729147316925976,0.03569254411967788,0.16049447248367665,0.0765321900615024,-0.17392476490055844,0.31468830242738943,-0.4544947743415832,0.6622281670570374,1.4491053819656372,0.7158771753311157,-0.053634837269783,0.3111442327499389
1749041543.7543223,2.6520345065289064,-1.1183530672616602,-2.2703321040808424,4.066028265954305,-2.663075438683512,-4.852278595439217,-0.15812508933288624,0.035621381418437244,0.16143190750569988,0.07667662481905137,-0.1742652565562098,0.31639624855062387,-0.4699251055717468,0.6417483687400818,1.4460409879684448,0.7209190130233765,-0.0579754412174224,0.3443520963191986
1749041543.7543628,2.651718812882846,-1.1182857533337032,-2.270012798387916,4.06618250877962,-2.663427147768129,-4.851638521092705,-0.15899101296294468,0.03558077926192011,0.16235477330917322,0.07701405376835822,-0.17467337871829391,0.3181895778133696,-0.4110575914382934,0.659572184085846,1.4589602947235107,0.7129984498023987,-0.0696499049663543,0.308028370141983
1749041543.7544017,2.651401253622595,-1.1182175456608152,-2.269689194062008,4.066338009608547,-2.663778231564229,-4.850995858048664,-0.15988061299104525,0.035581407716134925,0.16326267566804809,0.0775602909208927,-0.1751748198087041,0.3200518028200681,-0.4145781695842743,0.6788405776023865,1.4569743871688845,0.7226938009262085,-0.0496055111289024,0.2801187932491302
1749041543.7544408,2.651081490129444,-1.1181480604155583,-2.269361186511065,4.066495195516008,-2.664129132920661,-4.850350535321336,-0.16078428999410296,0.035631702171204316,0.1641603947234713,0.07831685151722444,-0.17578838889226636,0.3219674955239347,-0.4366467595100403,0.6776255369186401,1.4644081592559814,0.7289333939552307,-0.0607393682003021,0.2425619959831237
1749041543.754479,2.6507592267341,-1.1180769724790747,-2.269028813434394,4.066654453089614,-2.664480385448133,-4.849702425968,-0.16169257849309815,0.03573730222628842,0.1650569796368721,0.07927005554816759,-0.17652603334769604,0.32392389127542903,-0.427413135766983,0.690233051776886,1.4521459341049194,0.7425147294998169,-0.0563855096697807,0.2761506736278534
1749041543.754516,2.6504342250753563,-1.1180040387434207,-2.2686922436207495,4.066816100023566,-2.6648325709755176,-4.849051332907666,-0.16259713315660598,0.03590060199143222,0.1659644106322487,0.08039122274826296,-0.17739339820916286,0.32591153200405454,-0.4363376796245575,0.7066881060600281,1.4556390047073364,0.7647101879119873,-0.055754043161869,0.2974582016468048
1749041543.7545536,2.650106316304984,-1.1179291149468085,-2.268351757856751,4.066980359733344,-2.6651862770381065,-4.848396988200306,-0.16349147072775178,0.03612046244802967,0.16689594365245866,0.0816380628197433,-0.1783906938627135,0.3279239160763549,-0.4372766613960266,0.6851308345794678,1.480212926864624,0.7527949213981628,-0.0710145682096481,0.3179499208927154
1749041543.754599,2.6497754112864778,-1.1178521652991233,-2.2680077243549794,4.0671473415384956,-2.6655420566133414,-4.847739068068554,-0.16437143788405875,0.0363921478482122,0.1678642848375725,0.08295728382087333,-0.17951369053621088,0.3299563914031811,-0.4533229768276214,0.7139334082603455,1.494323968887329,0.7279499769210815,-0.0833151191473007,0.3008221685886383
1749041543.7546384,2.6494415086832404,-1.1177732647849472,-2.2676605716600067,4.067317028265822,-2.665900392196324,-4.847077223474286,-0.16523544474040833,0.03670754514438977,0.16887978403981663,0.08428831405865912,-0.18075473066264558,0.33200472774625406,-0.4463548958301544,0.7051963806152344,1.4696073532104492,0.7391352653503418,-0.1169151961803436,0.3112526535987854
1749041543.7546756,2.6491047003315984,-1.1176925945099265,-2.2673107620244926,4.067489272403887,-2.6662616666177295,-4.8464111230891636,-0.16608452140044191,0.037055698451071595,0.16994885569566234,0.08556788482119675,-0.18210370288703726,0.33406385838917046,-0.4498957991600036,0.7047882080078125,1.468362808227539,0.7084761261940002,-0.1222890764474868,0.3285625576972961
1749041543.7547147,2.6487651727886607,-1.1176104309032335,-2.2669587677695677,4.067663801280448,-2.6666261433370586,-4.8457405027685025,-0.16692222738474374,0.03742364187348098,0.17107281055781973,0.08673508974679285,-0.18354893479396137,0.3361271826066738,-0.4455120265483856,0.7076330184936523,1.487987399101257,0.7218950390815735,-0.105811670422554,0.3654358386993408
1749041543.7547584,2.6484232037534676,-1.1175271298024607,-2.2666050522420305,4.067840231045468,-2.6669939586047655,-4.845065214054016,-0.16775439626129643,0.037797462027237674,0.1722472200769989,0.08773644773280506,-0.18507793779991355,0.3381866189731951,-0.4282374680042267,0.7201248407363892,1.4776700735092163,0.7116332054138184,-0.1024908721446991,0.3424779772758484
1749041543.7548218,2.648079152378253,-1.117443106158839,-2.2662500558454477,4.068018088546533,-2.6673651264176512,-4.844385264091368,-0.16858866596413563,0.03816348162726844,0.17346185983603485,0.08853046313053849,-0.18667789966977913,0.34023336181947783,-0.4165062010288238,0.6564016342163086,1.4678670167922974,0.6942923069000244,-0.1095644161105156,0.3287899494171142
1749041543.754886,2.6477334432191713,-1.1173588094941023,-2.2658941865614954,4.068196839727191,-2.6677395548853444,-4.843700840313664,-0.1694337568120948,0.0385094318226463,0.17470120686505547,0.08909120354848495,-0.18833580703903394,0.3422590784226658,-0.4382862150669098,0.6660981774330139,1.449320673942566,0.68351149559021,-0.0998577624559402,0.2713770866394043
1749041543.754954,2.647386544374687,-1.1172746949707753,-2.265537813658324,4.068375923071305,-2.6681170704311192,-4.8430123148808315,-0.17029851715934555,0.03882547981038292,0.17594540392058733,0.08941050244478634,-0.19003812874584108,0.34425715152065217,-0.4340110421180725,0.6835417151451111,1.4613503217697144,0.6695126295089722,-0.1150410920381546,0.3099338114261627
1749041543.7550216,2.6470389408514072,-1.1171911905493817,-2.265181262980888,4.068554786591014,-2.6684974451579984,-4.8423202260007505,-0.17119083977323,0.03910500483492178,0.1771715630068704,0.08949854527631478,-0.19177010850652407,0.3462235742472432,-0.4693979918956756,0.6689741611480713,1.4390554428100586,0.6870059370994568,-0.1257339417934417,0.3191394805908203
1749041543.755092,2.646691104291498,-1.1171086621090276,-2.2648248122321837,4.068732926638175,-2.668880423155569,-4.8416252358059815,-0.17211662602639058,0.03934505426818171,0.17835528369964193,0.08938280634134642,-0.1935148668732037,0.3481572501585922,-0.4298036992549896,0.6765273213386536,1.4513630867004397,0.6992408037185669,-0.0965962409973144,0.3293457627296448
1749041543.7551584,2.6463434601416562,-1.1170273799340202,-2.264468684829028,4.068909926450997,-2.6692657431895337,-4.840928067189976,-0.1730790051685578,0.03954643772888764,0.1794723131458066,0.08910551576213364,-0.19525262890471193,0.3500596695773275,-0.4176757037639618,0.6442047953605652,1.4683665037155151,0.6894559860229492,-0.130449116230011,0.3109615445137024
1749041543.7552269,2.6459963533869515,-1.1169474908651853,-2.264113041216344,4.0690854919855255,-2.669653157328356,-4.840229424565837,-0.17407797938476502,0.039713433118395494,0.18050032843463376,0.08871997576121254,-0.19696041551054444,0.3519341171494185,-0.4293574690818786,0.6184617280960083,1.450655460357666,0.6597185730934143,-0.1315759867429733,0.3099004030227661
1749041543.755945,2.64565001417881,-1.1168690002779051,-2.263757967084253,4.069259482273161,-2.6700424468442296,-4.8395299055876775,-0.1751105632848983,0.0398531108439317,0.18142081655470307,0.08828608965494997,-0.1986124516315657,0.35378464944788557,-0.4540163576602936,0.649945080280304,1.446858525276184,0.6876327395439148,-0.1538211405277252,0.3042197823524475
1749041543.7570703,2.645304525139321,-1.1167917669471084,-2.2634034588664487,4.069431931313922,-2.670433437583988,-4.838829912368922,-0.1761713561311758,0.03997434411285472,0.1822209528258932,0.08786546934463833,-0.2001813886892977,0.3556150763998098,-0.4264930784702301,0.6680577993392944,1.428046941757202,0.6844141483306885,-0.1392807066440582,0.3366744518280029
1749041543.802309,2.6449597929499995,-1.1167155122059533,-2.263049408090015,4.06960305844165,-2.6708260164995257,-4.8381295717642505,-0.177253387512182,0.040086640498823954,0.18289529071742142,0.087516503017057,-0.20164026278637837,0.35742813346007896,-0.4679195582866668,0.6447745561599731,1.4158631563186646,0.6965557932853699,-0.117713063955307,0.3410418629646301
