nimar13/UR3e_dataset_trayectorias/trayectorias_ejecutadas_filtradas/quintic_func/trayectoria_149_result_filtrado.csv
timestamp,q1,q2,q3,q4,q5,q6,qd1,qd2,qd3,qd4,qd5,qd6,tau1,tau2,tau3,tau4,tau5,tau6
1749043309.1785374,2.574150132216181,-2.1118698437321055,-0.4070306335521801,-1.625609241455163,5.3756906057769855,-5.486328528999046,-0.0029322532423341403,-0.00013034508978866663,-0.00015073145298805956,0.00021474847987135954,-0.0016290763302878348,0.0034179539837399923,0.0940722376108169,0.999226987361908,0.7831120491027832,0.1148225367069244,-0.1662853062152862,-0.0594095587730407
1749043309.1786182,2.5741495004126653,-2.111869893071879,-0.40702725729891,-1.6256108902596786,5.375676737816631,-5.486324546133294,-0.0027369763896941458,-0.0001242843875882195,-8.867083501192305e-05,0.0002623575082745592,-0.0016336453702324473,0.0034550877681076616,0.1009703800082206,1.0095820426940918,0.791600227355957,0.1056323647499084,-0.160641074180603,-0.0481234937906265
1749043309.178691,2.574148686402823,-2.1118698411283923,-0.40702395559566396,-1.6256125059020472,5.375663398584648,-5.486320557013513,-0.002542863507251611,-0.00011762826960423517,-2.938018802455363e-05,0.00030822096573576035,-0.0016329801077498921,0.0034804104347038135,0.0996593013405799,1.0045456886291504,0.7846401333808899,0.0995417013764381,-0.1772727370262146,-0.0363040417432785
1749043309.178761,2.574147615515138,-2.111869708529392,-0.40702090236699984,-1.6256140770726084,5.375651116833655,-5.486316552692223,-0.002350988891408466,-0.00011060856771435992,2.4769052254705313e-05,0.00035012389675951027,-0.0016212845278261545,0.0034842893073776344,0.08822051435709,0.9799261689186096,0.7895151972770691,0.1009030491113662,-0.1703968048095703,-0.0133167803287506
1749043309.17883,2.5741462385978826,-2.1118695142695456,-0.4070182594674238,-1.625615596732543,5.375640322812084,-5.4863125317949795,-0.002162724738260137,-0.00010355697781582581,7.18284553410035e-05,0.0003861390726985601,-0.0015940469780434611,0.003458331385590827,0.1153693869709968,0.9978548884391784,0.7790753841400146,0.0943526551127433,-0.1617685407400131,-0.0283173620700836
1749043309.1788983,2.5741445358957966,-2.1118692734612114,-0.4070161658094702,-1.625617062334334,5.3756313172811145,-5.486308503490897,-0.0019797960247156595,-9.689793448950439e-05,0.00011041759850176303,0.0004147448041981962,-0.0015484879227230719,0.0033960621879650568,0.1023613065481185,0.977040946483612,0.7862139344215393,0.083818033337593,-0.1721092462539672,-0.0410585105419158
1749043309.178965,2.5741425180181654,-2.1118689979543226,-0.4070147297976914,-1.6256184748914186,5.37562425846422,-5.486304489664786,-0.0018042367662666529,-9.11294969098668e-05,0.0001398036590404773,0.00043490017887328397,-0.001483756478846688,0.0032935977424888773,0.0784511268138885,0.9876042604446412,0.7777594923973083,0.0888030529022216,-0.1654245555400848,-0.0393411219120025
1749043309.179036,2.5741402243379934,-2.1118686996811773,-0.4070140250199418,-1.6256198373637116,5.375619167005138,-5.48630052582807,-0.0016382460480484555,-8.679116205929714e-05,0.00015991381789305184,0.00044607089365839367,-0.0014008638040786015,0.0031502082415159173,0.084552876651287,0.9836803078651428,0.7968080639839172,0.0989930778741836,-0.1893665641546249,-0.023010030388832
1749043309.179106,2.5741377196266857,-2.111868395692203,-0.40701408867576266,-1.6256211529856535,5.375615945895378,-5.486296660126199,-0.0014839678409943656,-8.44187084134023e-05,0.00017128705018994674,0.0004482065268920165,-0.001302391312190336,0.0029686418630241727,0.0731818079948425,0.9743784070014954,0.7930607199668884,0.1013535410165786,-0.1799777746200561,-0.0304964482784271
1749043309.179172,2.574135089963638,-2.111868113325032,-0.4070149220886808,-1.625622424024452,5.37561440993672,-5.486292949981747,-0.0013432386094849773,-8.44876918627144e-05,0.00017497733660923461,0.0004416776497716879,-0.0011920499320084155,0.002755095401959896,0.0875874087214469,0.9755874276161194,0.775958240032196,0.0821716040372848,-0.1793244779109954,-0.0327644348144531
1749043309.179243,2.574132438624323,-2.1118678939363855,-0.4070164926723219,-1.6256236511700133,5.375614318316971,-5.486289456386871,-0.0012173523799928298,-8.734898614817212e-05,0.00017242314741461562,0.000427186448592003,-0.0010741819337557823,0.0025187835196453035,0.0912281349301338,0.9670646786689758,0.776902437210083,0.0816211700439453,-0.1795547008514404,-0.024658054113388
1749043309.1793132,2.574129881822303,-2.1118677938944073,-0.40701873677150313,-1.625624833478668,5.375615404603217,-5.486286236346619,-0.0011068839270962976,-9.31616517210855e-05,0.00016529859087711777,0.00040566662931024053,-0.0009532887135035567,0.0022711421799948488,0.0948068797588348,0.9624505639076232,0.7874272465705872,0.1001798287034034,-0.1843965053558349,-0.0241274386644363
1749043309.1793818,2.5741275434705786,-2.111867881793594,-0.4070215629337038,-1.6256259686757253,5.375617400454693,-5.486283334401384,-0.001011593782429792,-0.00010183025007082806,0.00015536039413101968,0.0003781874095253656,-0.0008336445068419475,0.002024770030603061,0.0948068797588348,0.9624505639076232,0.7874272465705872,0.1001798287034034,-0.1843965053558349,-0.0241274386644363
1749043309.1794505,2.5741255480709,-2.1118682312391277,-0.40702485544144806,-1.6256270537158026,5.375620051691857,-5.486280774588045,-0.0009304212322699214,-0.00011295527776518292,0.00014430256349528452,0.00034587312052738415,-0.0007190274942201599,0.0017922455483966107,0.0889070034027099,0.9526740908622742,0.7834665179252625,0.0970817357301712,-0.1792898178100586,-0.0224705338478088
1749043309.1795175,2.574124011472295,-2.1118689094868768,-0.40702847823892196,-1.6256280855937126,5.375623127213319,-5.486278554498856,-0.0008615574102525552,-0.00012580643821792845,0.00013362782075794123,0.00030984546987995986,-0.0006125738191933867,0.0015849589996046734,0.0941110327839851,0.9361547827720642,0.7785704731941223,0.0918074324727058,-0.1819367110729217,-0.0211026817560195
1749043309.1795857,2.5741230302164,-2.111869963725471,-0.40703227956242527,-1.6256290622744887,5.375626422306681,-5.486276642991187,-0.0008025818484702801,-0.00013932875263956393,0.00012454226682261804,0.00027119094332166425,-0.0005167406626254462,0.0014120791167816283,0.1145981773734092,0.949706733226776,0.7842345237731934,0.081622689962387,-0.1796307861804962,-0.0207802355289459
1749043309.1796534,2.5741226710527423,-2.1118714081198107,-0.40703609758099124,-1.625629983428032,5.375629758262383,-5.486274982496491,-0.000750643372977671,-0.00015219077940024483,0.00011787750157762673,0.00023095173024122092,-0.00043335247141739646,0.001279747274116786,0.1186978816986084,0.9528143405914308,0.7760017514228821,0.0751625895500183,-0.1848969757556915,-0.0060888230800628
1749043309.179722,2.574122962600338,-2.1118732151128268,-0.40703976715933493,-1.6256308507485067,5.3756329801511455,-5.486273495939754,-0.000702668972444311,-0.00016288222785485886,0.00011404271705503398,0.00019013492193066696,-0.0003636983995213684,0.0011905630342453585,0.0910497680306434,0.9364320635795592,0.7938635945320129,0.0640634819865226,-0.1659660637378692,-0.0236712247133255
1749043309.1797884,2.5741238909173285,-2.1118753136950685,-0.4070431275330897,-1.625631667987598,5.375635954378648,-5.486272097287486,-0.0006555888357994058,-0.00016986489696482345,0.0001130080245243364,0.00014973150714278795,-0.00030864729663640674,0.0011433958369269292,0.100589208304882,0.926953136920929,0.7781251072883606,0.0579653978347778,-0.1799115389585495,-0.0142034739255905
1749043309.179855,2.5741254000136675,-2.111877595682071,-0.4070460304614971,-1.6256324410388394,5.3756385672242155,-5.486270703946013,-0.0006065687840243805,-0.00017177623756649,0.00011431936924137394,0.00011073435459744167,-0.000268748368357047,0.0011335293826626187,0.0999759584665298,0.9092472195625304,0.7710091471672058,0.0704276710748672,-0.1784758269786834,-0.0171820372343063
1749043309.1800256,2.5741273973185557,-2.111879929020432,-0.4070483484493386,-1.6256331782195796,5.375640724987554,-5.486269248843703,-0.0005532415802037414,-0.00016767922533953908,0.00011714468989139132,7.4143746924496e-05,-0.0002442907879327751,0.0011531188733539233,0.1221884787082672,0.9109748005867004,0.7784963250160217,0.0737075358629226,-0.1746081709861755,-0.020165279507637
1749043309.1805425,2.574129763079686,-2.111882175418837,-0.4070499827118911,-1.6256338904801881,5.375642355741105,-5.486267690190141,-0.0004939266517068755,-0.0001573459787355201,0.00012035030744736463,4.0950632574881046e-05,-0.00023530376427415643,0.001191916013894703,0.1122812777757644,0.9254876375198364,0.7761086821556091,0.0776162222027778,-0.1854672729969024,-0.0126621276140213
1749043309.222288,2.574132361957875,-2.111884208665608,-0.4070508703598438,-1.6256345910281813,5.375643412260051,-5.486266017549698,-0.0004278247349037943,-0.0001415559722447521,0.00012260567177061905,1.2091510123671737e-05,-0.0002414890974165731,0.0012381917932531667,0.0961198657751083,0.9110297560691832,0.7812160849571228,0.0778106451034545,-0.1816185414791107,-0.0200148671865463
1749043309.2223334,2.574135054886853,-2.1118859300717325,-0.407050989778984,-1.6256352940313796,5.375643875525414,-5.486264253697326,-0.00035517101671727453,-0.0001223831912563839,0.0001225133741018115,-1.162572129805709e-05,-0.0002620900260354066,0.0012797658610936191,0.1208439990878105,0.9040860533714294,0.7705850601196289,0.0707920044660568,-0.1773862391710281,-0.0419899523258209
1749043309.2223735,2.574137709565209,-2.1118872785511336,-0.407050362761559,-1.6256360125116829,5.375643757984067,-5.486262452387173,-0.0002773286208219129,-0.00010344075524013798,0.00011875964319416135,-2.9619215119399838e-05,-0.0002957120868810076,0.001305042231308791,0.127888798713684,0.8936373591423035,0.7797057032585144,0.0726253390312194,-0.1727296113967895,-0.0239326506853103
1749043309.222412,2.5741402086018654,-2.1118882345557326,-0.40704905210626674,-1.6256367558557439,5.375643105312804,-5.48626069248224,-0.00019680475918412916,-9.004699583236583e-05,0.00011027837879620515,-4.164193575099928e-05,-0.00034012279026309676,0.0013039619239452404,0.1134434416890144,0.8891194462776184,0.781387984752655,0.0320271402597427,-0.1867272853851318,-0.0303590148687362
1749043309.2224505,2.5741424550737597,-2.1118888187418388,-0.4070471543061004,-1.6256375273263775,5.37564199513128,-5.486259068976023,-0.00011717516956574284,-8.927396318817158e-05,9.641925566366197e-05,-4.7885123661097936e-05,-0.0003920663384330188,0.0012688131296584167,0.1509267389774322,0.8941927552223206,0.7832857966423035,0.0578629523515701,-0.1738564670085907,-0.0236947685480117
1749043309.2224882,2.574144375670702,-2.1118890872526475,-0.40704478824051066,-1.6256383217629784,5.375640531509371,-5.486257681594753,-4.29085990422585e-05,-0.00010983770331781963,7.710779695013961e-05,-4.90581262355341e-05,-0.00044713644409418953,0.0011948770706638923,0.1420890986919403,0.8790599703788757,0.7756176590919495,0.0607704669237136,-0.1689118444919586,-0.0419851988554
1749043309.2225254,2.5741459216108127,-2.111889125666531,-0.4070420818440681,-1.6256391236563867,5.375638835264692,-5.486256622099881,2.0908681058169117e-05,-0.00016178956404965027,5.298292626556759e-05,-4.642732877455772e-05,-0.0004997533262450441,0.0010809176757613454,0.1225452572107315,0.9043801426887512,0.771282970905304,0.056942194700241,-0.1633802950382232,-0.0356356501579284
1749043309.2225626,2.5741470674943807,-2.1118890431886723,-0.4070391590576452,-1.6256399060307576,5.3756370313807915,-5.486255961935184,6.893935383236477e-05,-0.0002559717937076798,2.5495812026512352e-05,-4.179981788101602e-05,-0.0005432888826129985,0.000929535480162489,0.1350469887256622,0.8902989625930786,0.7749910354614258,0.0454171299934387,-0.1753986477851867,-0.0315887480974197
1749043309.222603,2.574147808475783,-2.111888967906053,-0.40703612898946234,-1.6256406308075704,5.375635235805785,-5.486255742057677,9.603493797945625e-05,-0.0004032158820230251,-3.0466855178362026e-06,-3.744128210913634e-05,-0.0005703759452264036,0.0007473999935956693,0.1390426754951477,0.8930198550224304,0.7660115957260132,0.0757560357451438,-0.1662538051605224,-0.0406740456819534
1749043309.2226417,2.5741481563431434,-2.111889043143518,-0.40703307851757414,-1.6256412512858618,5.37563354424533,-5.486255966400939,9.772344958371948e-05,-0.0006132969185072684,-2.95094730296445e-05,-3.59223108710255e-05,-0.0005734231364002586,0.0005453562215902558,0.138181060552597,0.877479612827301,0.7714545726776123,0.0541547164320945,-0.1660569608211517,-0.0328942090272903
1749043309.2226784,2.5741481350874156,-2.1118894243109243,-0.40703006887979987,-1.6256417169474378,5.375632025373755,-5.486256599591751,7.07112223479212e-05,-0.0008937118232015683,-5.003981434154034e-05,-3.989283194672468e-05,-0.0005453365527779237,0.0003383785497961236,0.1503791362047195,0.8779084086418152,0.7776262164115906,0.0378396213054657,-0.1713288128376007,-0.0197627544403076
1749043309.2227156,2.5741477765100687,-2.111890275256414,-0.40702713616254305,-1.6256419801074224,5.375630719987538,-5.486257568675721,1.33568334921256e-05,-0.0012484102537849815,-6.026762820487058e-05,-5.1791012457782e-05,-0.000480424387264131,0.00014532679491418717,0.1494737267494201,0.8808130621910095,0.784243643283844,0.0435848087072372,-0.1551199853420257,-0.0292503982782363
1749043309.222753,2.5741471165534637,-2.1118917631688467,-0.4070242949920917,-1.6256420032657142,5.375629645938683,-5.486258768005797,-7.39334798970249e-05,-0.001676655063686784,-5.559401831849482e-05,-7.350038506783295e-05,-0.00037543241897509705,-1.154876131860154e-05,0.1330012828111648,0.8529307246208191,0.7703686356544495,0.045334592461586,-0.1651128530502319,-0.0398744493722915
1749043309.2227895,2.5741461930731835,-2.1118940516074254,-0.40702154425904735,-1.625641765652768,5.375628806745914,-5.486260066130556,-0.0001884469763969603,-0.0021722096934599176,-3.1556380408174654e-05,-0.00010597675309542934,-0.00023062951584851992,-0.00010740017811205774,0.138767659664154,0.8532622456550598,0.756957471370697,0.0528614521026611,-0.1469510197639465,-0.0322314351797103
1749043309.222826,2.5741450453437493,-2.111897292166663,-0.4070188735422584,-1.6256412675015206,5.375628200458089,-5.486261313358645,-0.0003251042490699631,-0.002723034294340526,1.5753234331401776e-05,-0.00014887378422645992,-5.0835981124126736e-05,-0.00011589765075540801,0.1188193336129188,0.8352179527282715,0.7623614072799683,0.062275618314743,-0.1437405347824096,-0.0396378487348556
1749043309.2228625,2.5741437148118407,-2.111901616079725,-0.407016269134092,-1.625640530929977,5.375627825183405,-5.486262348637579,-0.00047665629529883974,-0.0033116153249182463,8.925191294780655e-05,-0.00020020227885762757,0.00015373272046318307,-1.0658220037461223e-05,0.0843856111168861,0.8173301815986633,0.7887074947357178,0.081518605351448,-0.1443604826927185,-0.035874918103218
1749043309.222899,2.5741422459509926,-2.1119071271514205,-0.40701371910043377,-1.6256395968567254,5.375627678725338,-5.486263004619949,-0.000634178077610527,-0.003915954923484138,0.0001904582767340223,-0.0002560621249024738,0.0003669448343399812,0.00023306750102476524,0.0672530531883239,0.8224933743476868,0.804294764995575,0.0719379335641861,-0.1484429538249969,-0.0080974102020263
1749043309.2229362,2.574140685914568,-2.111913896819438,-0.40701121735474827,-1.6256385180612714,5.375627751562034,-5.486263110422181,-0.0007878521530585549,-0.004511121753317184,0.00031916799962605145,-0.0003104870890467204,0.0005666888627149665,0.000636553857599842,0.0976506099104881,0.8417209982872009,0.8000187873840332,0.0747883319854736,-0.1479550004005432,-0.0049913376569747
1749043309.2229726,2.5741390821739145,-2.1119219613952582,-0.4070087670167288,-1.6256373493568963,5.375628014314305,-5.486262492383901,-0.0009279620652249781,-0.005071151244109535,0.00047326986832795816,-0.0003554398452101404,0.000725383496318716,0.0012157508088459267,0.0982771664857864,0.8341121077537537,0.8092048764228821,0.0777034685015678,-0.1432326138019561,0.0031568557024002
1749043309.223009,2.5741374783092876,-2.111931321011654,-0.40700638325667926,-1.6256361366581908,5.375628402305866,-5.486260973611989,-0.0010459355987340194,-0.0055710251358556655,0.0006487551318008929,-0.00038098707143353905,0.0008111388791654346,0.001979601978732312,0.1237246617674827,0.8175919651985168,0.8320819735527039,0.0967941209673881,-0.1402256935834884,0.0101024359464645
1749043309.223111,2.5741359091344456,-2.111941939515849,-0.4070040954509609,-1.6256349070198213,5.3756288004729536,-5.486258373006312,-0.0011352358375210114,-0.005988478369382993,0.0008399582535397421,-0.00037567157725619743,0.0007895908003206979,0.002928708378864467,0.124512992799282,0.8396647572517395,0.8371248841285706,0.0731709599494934,-0.1615279465913772,0.0107430666685104
1749043309.2245092,2.5741343968844705,-2.111953744474135,-0.40700194800761214,-1.6256336612283664,5.375629031673659,-5.486254504139824,-0.00119192512941941,-0.006305454726652365,0.0010400403908318611,-0.0003270804690580493,0.000626356538991814,0.00405449011925521,0.0691980943083763,0.8199143409729004,0.842262327671051,0.1010855436325073,-0.1453000009059906,0.0225207582116127
1749043309.2662952,2.5741329500586536,-2.111966626715703,-0.40699999900598555,-1.6256323695861876,5.375628850781472,-5.486249174327184,-0.001214814116998748,-0.006509119854652711,0.0012416868525706054,-0.00022258631298019253,0.0002899763942097814,0.0053389537602196654,0.0953345298767089,0.8572362065315247,0.8326720595359802,0.1098272949457168,-0.1680228114128112,0.0155329257249832
1749043309.2663429,2.5741315657921073,-2.111980439472985,-0.4069983160418219,-1.625630970764705,5.375627946308942,-5.486242184574151,-0.001205211596239368,-0.006592412687053826,0.0014379401609869993,-5.021401909268634e-05,-0.0002448841219199579,0.006755129981063021,0.0820527002215385,0.8373308777809143,0.8390664458274841,0.1213047057390213,-0.1965157091617584,0.0300255715847015
1749043309.2663832,2.574130235628108,-2.1119949979322654,-0.40699696923162315,-1.625629373323925,5.3756259506893835,-5.4862333314430485,-0.0011663694025388588,-0.006554167401939529,0.0016230460442770952,0.00020043719395488588,-0.0009942794012080746,0.008268216613079473,0.0849885866045951,0.8480800986289978,0.8371235728263855,0.1268383562564849,-0.1952788829803466,0.0329227223992347
1749043309.2664225,2.5741289536016145,-2.112010080546112,-0.40699602186703077,-1.6256274595091074,5.375622459404072,-5.4862224117840075,-0.0011027539518855883,-0.006398869882746498,0.00179317509357964,0.0005373055875876908,-0.001962247298781309,0.009837434542368169,0.1068363487720489,0.8576273918151855,0.8502671122550964,0.1129158735275268,-0.2260310053825378,0.0477540865540504
1749043309.2664602,2.5741277248286467,-2.112025433537318,-0.4069955195590801,-1.6256250909140193,5.3756170577986495,-5.486209230780297,-0.0010192787644645667,-0.006136123637491015,0.0019469136106009886,0.0009651089978590331,-0.003138888684604161,0.011418556469288882,0.0908677652478218,0.8429602384567261,0.8798756003379822,0.1474542766809463,-0.2429767549037933,0.0239773467183113
1749043309.2664983,2.5741265724513123,-2.112040779545372,-0.4069954789666632,-1.6256221154357213,5.375609353038853,-5.486193613045739,-0.0009206132905267511,-0.00577989102585005,0.002085481926950582,0.0014848055683237362,-0.004499631342154982,0.01296699319528887,0.10309499502182,0.8656554222106934,0.8909268379211426,0.1333020776510238,-0.2692726850509643,0.0620023943483829
1749043309.2665355,2.5741255410170116,-2.1120558304096955,-0.40699587745777194,-1.6256183747786135,5.375599007656229,-5.486175415625282,-0.0008106531146776115,-0.0053475592939200445,0.0022127046017039404,0.0020933351628667236,-0.0060059469292153824,0.014441231257597897,0.0863274931907653,0.8807090520858765,0.8990821242332458,0.1491868495941162,-0.2656177878379822,0.0412544757127761
1749043309.2665725,2.574124695303916,-2.112070302930134,-0.40699664521030343,-1.6256137117301481,5.375585770706218,-5.486154540724789,-0.0006922018526943159,-0.00485887473541626,0.002334794727759841,0.002783666866992126,-0.0076076217370178835,0.01580632818527138,0.0976558178663253,0.879078209400177,0.9033488035202026,0.1524137556552887,-0.2877983748912811,0.0542326420545578
1749043309.26661,2.57412411493522,-2.112083935522771,-0.40699766111767166,-1.62560797652649,5.375569502611386,-5.486130945248681,-0.0005668802233413705,-0.004334796348043624,0.002460014058685581,0.0035451488740396255,-0.009246475051708822,0.01703710580155749,0.1143511608242988,0.9090213179588318,0.9162487387657166,0.1688756793737411,-0.2880290150642395,0.0761166885495185
1749043309.2666476,2.5741238861710043,-2.1120965034252634,-0.4069987533432807,-1.6256010318433087,5.37555019018171,-5.486104644356395,-0.0004352460916109324,-0.003796331192502013,0.0025982429160809274,0.004364148495049857,-0.010861219482236504,0.01812065802066199,0.1126451045274734,0.9142869114875792,0.9024134278297424,0.1884578466415405,-0.3022773265838623,0.0721026733517646
1749043309.2666848,2.5741240925595203,-2.1121078305772443,-0.4069997046286643,-1.625592756269052,5.375527949154623,-5.486075707397015,-0.0002970831480031622,-0.0032634161847677288,0.0027604632826767335,0.005224973463600012,-0.012393001126240491,0.019057824574875856,0.0941733866930008,0.9471173882484436,0.9236829280853271,0.2288071811199188,-0.3330325186252594,0.0493992269039154
1749043309.2667215,2.5741248058178536,-2.1121177970386573,-0.4070002617628627,-1.6255830463633274,5.375503013017856,-5.486044246167704,-0.0001517971546787719,-0.002753904714501495,0.002958147961052322,0.006111055757040649,-0.013791052708444744,0.01986338185838156,0.115768201649189,0.935781955718994,0.9349060654640198,0.2367600202560424,-0.3232374489307403,0.0545381754636764
1749043309.266759,2.5741260778794364,-2.1121263413392986,-0.4070001481343391,-1.6255718173613007,5.375475708723705,-5.4860103967568055,1.1512711313474706e-06,-0.0022827065875129994,0.003202563607753554,0.007006337923630262,-0.015017835875633252,0.02056486069750443,0.1399486362934112,0.9580723643302916,0.9416281580924988,0.2361725270748138,-0.3446885049343109,0.0599350221455097
1749043309.266796,2.5741279347459707,-2.1121334576146915,-0.4069990780595865,-1.6255590023412743,5.375446421659802,-5.485974297078936,0.0001618489884615483,-0.001861120662238405,0.0035040206981455,0.007896737920502266,-0.01605304732042475,0.02120009894686956,0.1323736011981964,0.9875583052635192,0.969064474105835,0.2588956952095032,-0.3104537725448608,0.0809560716152191
1749043309.2668324,2.5741303725431557,-2.112139188112182,-0.40699677155386355,-1.6255445495427905,5.375415553525665,-5.485936062732373,0.00032963160028236634,-0.0014963924107975126,0.003871117789668332,0.008771512792876976,-0.016895942967129006,0.02181383383587889,0.1429751515388488,0.9956113696098328,0.96150940656662,0.2787132263183594,-0.3297926485538482,0.0908924788236618
1749043309.2668705,2.5741333559342277,-2.1121436124129516,-0.40699296827630194,-1.6255284177201568,5.375383477627246,-5.485895764001564,0.0005029331357839243,-0.0011915209801625804,0.00431002338342599,0.009624324188204966,-0.017565617460022245,0.02245377928047643,0.1474234163761139,1.018773317337036,0.963256537914276,0.2795628905296325,-0.3329316973686218,0.0956455618143081
1749043309.2669072,2.57413681885837,-2.112146834981076,-0.40698743956661565,-1.6255105699127532,5.375350496571539,-5.4858534065889,0.0006793136626423316,-0.0009453277902477791,0.004823829439462841,0.010453837210126871,-0.01809915027926766,0.02316667384580118,0.1784723252058029,1.0239611864089966,0.9884536862373352,0.2767791748046875,-0.3341674506664276,0.1048411503434181
1749043309.2669437,2.5741406675094933,-2.112148972424097,-0.406979997891965,-1.6254909665774924,5.375316807145664,-5.485808918116998,0.0008556672786439086,-0.0007527799378272264,0.005412015323539552,0.011263745698785648,-0.01854783810153185,0.023994722348640436,0.1502726525068283,1.0619802474975586,1.011813998222351,0.2620551586151123,-0.3431359529495239,0.1116968393325805
1749043309.2669802,2.5741447855422424,-2.1121501415880286,-0.40697050352678243,-1.6254695593402868,5.3752824761867535,-5.4857621418573865,0.001028577996972044,-0.0006055404037919165,0.006070081422890185,0.012062196543529448,-0.018971999647447252,0.024972725548431694,0.1356496214866638,1.0611586570739746,1.0269224643707275,0.2761678397655487,-0.3505347967147827,0.1207916438579559
1749043309.267017,2.574149041548603,-2.112150449478081,-0.406958868590654,-1.6254462865046884,5.375247429764868,-5.485712838595973,0.001194755239981616,-0.0004926988098304807,0.006789427061620304,0.01286067177523622,-0.01943500882152948,0.02612604981692676,0.1329570561647415,1.0823088884353638,1.023864507675171,0.2920969128608703,-0.3693842887878418,0.1342867463827133
1749043309.2671237,2.5741532986964204,-2.1121499857644648,-0.40694505857991153,-1.625421071036251,5.375211456308486,-5.485660696925185,0.0013514612338382946,-0.0004016246901971495,0.00755753533048616,0.013672465250056916,-0.019997269481852882,0.02746946979300232,0.1573736816644668,1.0759005546569824,1.0144613981246948,0.2860763072967529,-0.3902241885662079,0.1411190629005432
1749043309.2684698,2.5741574259916704,-2.11214881817346,-0.4069290915168342,-1.6253938213406953,5.375174222602166,-5.485605351486866,0.0014968551029788388,-0.00031888041142685164,0.008358486889342506,0.014510944494405424,-0.020710804571900998,0.029006836148585888,0.1631007939577102,1.118363618850708,1.006319522857666,0.3201504349708557,-0.3890711963176727,0.1317957937717437
1749043309.310289,2.5741613100734835,-2.1121469905776724,-0.4069110350400384,-1.6253644349737348,5.375135300126952,-5.485546407846705,0.0016302185323248603,-0.00023113153993939195,0.009173775469219936,0.01538781184669145,-0.02161501503387583,0.030731475971695274,0.1810788214206695,1.121243953704834,1.018297553062439,0.3125799894332886,-0.4042692482471466,0.1360150873661041
1749043309.3103347,2.5741648660820715,-2.1121445234022893,-0.406891002018791,-1.6253328053132237,5.375094198195174,-5.485483471798417,0.0017520702361470502,-0.00012599666713673186,0.009983361143318365,0.01631157824816106,-0.022733992930825436,0.03262721708723362,0.1873636096715927,1.1291769742965698,1.0116864442825315,0.3123655021190643,-0.4145680367946625,0.1520263701677322
1749043309.3103747,2.574168046234998,-2.1121414161105556,-0.4068691452702527,-1.625298830840241,5.375050399894285,-5.485416179990746,0.001864195481793543,7.214728000511875e-06,0.010766879983155057,0.017286443038907907,-0.024075575485288405,0.03466993013372955,0.1895006000995636,1.1503151655197144,1.0212690830230713,0.3052902817726135,-0.4206113219261169,0.15823295712471
1749043309.3104131,2.5741708452896286,-2.112137651688503,-0.4068456516471242,-1.6252624259310693,5.375003397178607,-5.485344228138292,0.0019696059107540275,0.00017691885391442393,0.011504922157748784,0.0183117294935717,-0.025632126898651186,0.03682948947612312,0.1873465329408645,1.162316083908081,1.0182090997695925,0.3332701325416565,-0.4247641861438751,0.170329600572586
1749043309.310452,2.5741733026264915,-2.112133202916623,-0.40682073540004215,-1.6252235313370083,5.374952722421801,-5.485267393214973,0.0020724191625315982,0.00038885947661822977,0.012180284885732981,0.019381951227246508,-0.027382848660741456,0.03907204903405861,0.1746027320623397,1.1501866579055786,1.0142651796340942,0.3382323682308197,-0.4375322461128235,0.1743929386138916
1749043309.3104904,2.5741755008239484,-2.1121280398919993,-0.40679463052095244,-1.6251821222831027,5.374897974729234,-5.485185547064092,0.0021776334937559753,0.0006459121178909107,0.012779101033718602,0.020487484040736813,-0.029297258229303236,0.04136250291986709,0.210147425532341,1.159184455871582,1.023060917854309,0.3353229463100433,-0.4488787949085235,0.1720775812864303
1749043309.310529,2.5741775604552437,-2.1121221380047883,-0.40676758181577033,-1.6251382124901426,5.374838839709791,-5.485098660343792,0.0022907874964228827,0.0009480924650563048,0.013291744519458705,0.02161571491192838,-0.0313393547586269,0.0436669622087325,0.2358365207910537,1.1776106357574463,1.0200902223587036,0.3452559113502502,-0.4433342218399048,0.1714813262224197
1749043309.3105671,2.574179631003769,-2.1121154854793835,-0.4067398347714646,-1.6250918532989043,5.374775101276985,-5.485006797074341,0.002417533223646763,0.001292755084755158,0.013713424434281108,0.022752465609301064,-0.03347192635000738,0.04595504973930892,0.2453165501356125,1.1757575273513794,1.006741285324097,0.3405971229076385,-0.4476996064186096,0.1886974275112152
1749043309.3106043,2.57418187850595,-2.1121080896238564,-0.40671162475328204,-1.6250431282304179,5.374706643957389,-5.484910100980527,0.002563187154121848,0.0016749537998560417,0.014044402000460202,0.023883463557768932,-0.03566046138864592,0.04820181505153039,0.2599377036094665,1.1827750205993652,1.0095587968826294,0.3361580967903137,-0.451671302318573,0.1825615316629409
1749043309.3106418,2.5741844714147817,-2.1120999810086776,-0.40668316640716706,-1.6249921443974307,5.37463344473903,-5.48480877536241,0.0027323332808975274,0.002087924143697308,0.014289798779513682,0.024995658855868894,-0.03787621049577988,0.0503891094895718,0.2323473840951919,1.2269773483276367,1.0054696798324585,0.3531778454780578,-0.4587088525295257,0.182943508028984
1749043309.3106792,2.5741875667121383,-2.1120912149007993,-0.4066546442365413,-1.6249390227882181,5.3745555550001685,-5.4847030585022605,0.002928529740710563,0.0025236402170638697,0.014459010383099392,0.02607824838796226,-0.04009808907031217,0.05250632745824084,0.2392581552267074,1.2406895160675049,1.0116289854049685,0.3286083042621612,-0.4673510193824768,0.1908062249422073
1749043309.3107166,2.5741912983017565,-2.1120818695560692,-0.4066262052953767,-1.624883889338879,5.374473075207186,-5.48459319676416,0.0031541280469912876,0.0029733874237502364,0.01456479168272276,0.02712334256370647,-0.04231328172794981,0.054550490542113896,0.2488466948270797,1.2186239957809448,1.0188496112823486,0.3445517718791961,-0.4792514741420746,0.1759928613901138
1749043309.3107536,2.5741957693060473,-2.1120720415351375,-0.40659795483432176,-1.6248268679200615,5.374386126922518,-5.484479417764584,0.003410175667341016,0.0034282803695093026,0.01462212502948805,0.028126278103797118,-0.04451657884816058,0.0565257065402025,0.2658137679100036,1.2360360622406006,1.015996336936951,0.3387778401374817,-0.4626880288124084,0.1679192185401916
1749043309.3107903,2.574201049223334,-2.112061838821749,-0.40656995543869495,-1.6247680752308729,5.374294827312732,-5.484361906327351,0.0036963572855478726,0.0038796599152644824,0.01464700819912185,0.02908563200927798,-0.04670862442742751,0.058442075350327596,0.2635546624660492,1.2538461685180664,1.001933455467224,0.3462779819965362,-0.4842635095119476,0.1970099508762359
1749043309.31083,2.574207176052441,-2.1120513727723926,-0.4065422296591407,-1.6247076167192287,5.374199270533588,-5.484240786049853,0.004010941684275295,0.004319344372226456,0.014655296860323335,0.030003023341468583,-0.04889337606071686,0.06031415227865852,0.2690577507019043,1.2616480588912964,1.0158615112304688,0.3521301746368408,-0.5012867450714111,0.1768041849136352
1749043309.310876,2.574214162537432,-2.1120407497846823,-0.4065147655062871,-1.6246455824702408,5.374099518430283,-5.484116108766038,0.004350731318337377,0.004739777333251709,0.014661711731514189,0.030882796324955275,-0.05107516547726428,0.06215912092906135,0.2732440233230591,1.2773629426956177,1.0059000253677368,0.3690028190612793,-0.5048931837081909,0.1812145560979843
1749043309.310914,2.5742220048315074,-2.1120300634323264,-0.40648752372164626,-1.6245820424254478,5.373995600659203,-5.483987852944087,0.004711046591106304,0.005134165602131238,0.014679082407846822,0.03173165711370362,-0.05325579160683012,0.06399485798937429,0.2915832996368408,1.2935625314712524,1.0041719675064087,0.3623629510402679,-0.5131971836090088,0.1960269957780838
1749043309.310951,2.5742306914088764,-2.112019387852956,-0.4064604455978639,-1.6245170409554293,5.373887522551691,-5.483855930541438,0.005085800624847402,0.00549669443849069,0.014717856157030024,0.03255829080427602,-0.05543206755487901,0.0658380753865086,0.2894187569618225,1.2710429430007937,1.0185116529464722,0.3726703822612762,-0.5133299827575684,0.2156242430210113
1749043309.310988,2.574240210119401,-2.112008773134479,-0.40643346019607673,-1.624450591511728,5.373775278313454,-5.483720200666461,0.005467718919982405,0.005822843939334029,0.014785860257777114,0.033372931236306726,-0.05759417505592491,0.06770269886817905,0.2963545322418213,1.2726764678955078,1.0108753442764282,0.3449075222015381,-0.4914178252220154,0.195149540901184
1749043309.311025,2.5742505518456147,-2.1119982431510707,-0.4064064899319791,-1.6243826727072843,5.373658867151311,-5.483580487939825,0.005848729078156978,0.006109751011404844,0.014888281793171752,0.03418682176065765,-0.059725066579707956,0.06959859445933428,0.2815108299255371,1.2821323871612549,1.0380386114120483,0.3750129044055938,-0.5027413964271545,0.1858961582183838
1749043309.3112538,2.5742617101892913,-2.111987795914021,-0.40637945371399675,-1.6243132274413723,5.373538310015327,-5.483436603610319,0.006220500831970551,0.00635651366191364,0.015027822644241283,0.03501151405851386,-0.06180102325702245,0.07153070275636124,0.2738750278949737,1.2882540225982666,1.0291048288345337,0.3665077090263366,-0.5214863419532776,0.1918129324913025
1749043309.3124938,2.5742736778178212,-2.111977406192479,-0.4063522672546565,-1.6242421663567848,5.373413664627148,-5.483288367778645,0.0065750737798825586,0.006564339018358882,0.015204990463014729,0.035858002993465074,-0.06379335200352954,0.0734986095565732,0.2571049332618713,1.3055737018585205,1.0355936288833618,0.3683598041534424,-0.5069349408149719,0.2133785933256149
1749043309.3545034,2.574286441162417,-2.1119670298919955,-0.40632484085002496,-1.6241693760335045,5.373285036554068,-5.483135631117067,0.006905483020824677,0.0067364813477018455,0.015418486495773114,0.03673576254025052,-0.06567109042362111,0.07549657918816456,0.2890729904174804,1.2957580089569092,1.0481265783309937,0.3687968850135803,-0.5232466459274292,0.2218137681484222
1749043309.3545804,2.5742999755954945,-2.1119566094493307,-0.4062970757137694,-1.624094731131715,5.373152584596548,-5.482978294297486,0.007206288493923425,0.006877971564632259,0.015665645651156787,0.03765180189282127,-0.0674044674419066,0.07751407838708023,0.2717928886413574,1.2877061367034912,1.0257413387298584,0.3813343346118927,-0.493112713098526,0.2262521386146545
1749043309.3546495,2.574314242764436,-2.1119460794903935,-0.40626886064330864,-1.6240181085629244,5.373016519746541,-5.482816323288529,0.0074739320951163896,0.006995179029862701,0.015942881126014354,0.03860988549667416,-0.06896874017998433,0.0795367850426467,0.2827750444412231,1.2952247858047483,1.0483555793762207,0.3969742655754089,-0.4809396862983703,0.2055398523807525
1749043309.3547206,2.574329190614983,-2.111935372297108,-0.4062400710461808,-1.6239394011575543,5.372877098096221,-5.482649758992094,0.00770687887023805,0.007095262641686064,0.016246095163988363,0.039610053054656334,-0.07034792764665115,0.08154800297886379,0.2710753679275512,1.3300175666809082,1.041657567024231,0.3988484740257263,-0.4711965918540954,0.205234095454216
1749043309.35479,2.574344755402506,-2.1119244229724115,-0.4062105718950681,-1.623858528537698,5.372734608899007,-5.482478720403311,0.007905534015373038,0.007185571426238342,0.01657103974501729,0.04064854071936252,-0.07153793716205115,0.08353033040111381,0.2650249004364013,1.3427119255065918,1.0825743675231934,0.3862630128860473,-0.4787642061710357,0.2023858428001403
1749043309.3548567,2.574360864349212,-2.111913174231681,-0.4061802250912996,-1.6237754438645007,5.372589359373417,-5.482303401431922,0.008071961126231672,0.007273054854384764,0.01691363268611079,0.04171814937299291,-0.0725486508563544,0.08546739927368438,0.2936925292015075,1.369205355644226,1.054080367088318,0.4008622765541076,-0.4977735877037048,0.2174612581729889
1749043309.354926,2.57437743779137,-2.1119015804980403,-0.40614890040505025,-1.6236901363046605,5.372441657801495,-5.482124062339378,0.008209456271711872,0.007363739043863532,0.017270238930215148,0.04280903428078018,-0.0734046801495489,0.08734552108611625,0.2696264386177063,1.357467770576477,1.05033278465271,0.3997339308261871,-0.4943053126335144,0.211518108844757
1749043309.354993,2.5743943902847475,-2.1118896107468954,-0.4061164880549645,-1.6236026299571606,5.3722917960121706,-5.4819410170642175,0.00832204947513685,0.007462313504570855,0.01763791219956517,0.04390980833964314,-0.07414464886743918,0.08915510870540386,0.280113160610199,1.3898016214370728,1.0851014852523804,0.3936991095542907,-0.489298403263092,0.2056118249893188
1749043309.3550606,2.5744116307537914,-2.111877249560381,-0.40608291036540145,-1.6235129803414539,5.372140031769121,-5.481754617522353,0.008414004277060861,0.007571857694466854,0.01801457601341591,0.0450087756249277,-0.07481899118732598,0.09089176474343164,0.2847511768341064,1.413099765777588,1.0817116498947144,0.3842363953590393,-0.4801965057849884,0.1896383315324783
1749043309.3551269,2.574429062330554,-2.11186449613398,-0.4060481299548111,-1.623421269383617,5.371986571460848,-5.481565235582556,0.008489373409913726,0.007693723408578613,0.018399121942656797,0.046095075302626,-0.07548636074591783,0.09255693705355181,0.2953130006790161,1.41558575630188,1.0859147310256958,0.3794710040092468,-0.4905394315719604,0.1983267664909362
1749043309.355193,2.5744465830304946,-2.111851361432463,-0.40601215257531115,-1.6233275994194398,5.371831553953344,-5.481373243064626,0.00855165612880428,0.00782757826592182,0.018791414948321223,0.04715955012626663,-0.07620888113360726,0.0941580628624624,0.3019962906837463,1.426169753074646,1.0921086072921753,0.4003114998340606,-0.4986189603805542,0.2136562764644622
1749043309.3552575,2.5744640885446284,-2.1118378642083218,-0.40597502379325573,-1.6232320863817016,5.371675037029454,-5.481178989827468,0.008603592673060425,0.007971603829308995,0.019192208002995398,0.048195255820777126,-0.07704663568421692,0.09570816587405158,0.2681161165237427,1.4101908206939695,1.0873039960861206,0.3948577046394348,-0.5279768109321594,0.2091094553470611
1749043309.3553236,2.5744814779218608,-2.1118240270097606,-0.40593681980318325,-1.6231348521525164,5.371516988010525,-5.480982779897634,0.00864711631346063,0.008122829776071682,0.019602976764101256,0.04919764582812367,-0.07805195481572805,0.09722492798022901,0.2607824802398681,1.4218591451644895,1.0889394283294678,0.4163262546062469,-0.5566626787185669,0.1850421577692031
1749043309.3553882,2.574498661919646,-2.1118098733119246,-0.4058976336108428,-1.6230360159901254,5.371357279917837,-5.480784845860612,0.008683460280620215,0.008277577040549985,0.020025696669657676,0.05016453662719699,-0.07926415185125785,0.09872931304812192,0.2790647149085998,1.4449607133865356,1.0964981317520142,0.4077595472335815,-0.5430375337600708,0.2168004512786865
1749043309.3554552,2.574515572722492,-2.111795426264348,-0.40585755858755396,-1.6229356849712957,5.371195694130552,-5.480585322522506,0.008713391069385328,0.008431976642152967,0.020462602328406077,0.05109596014046285,-0.08070534922137092,0.10024386509722104,0.2516360282897949,1.4567550420761108,1.116993069648743,0.4056043922901153,-0.5605583190917969,0.2318450510501861
1749043309.3555205,2.5745321729872317,-2.1117807085211253,-0.4058166718912364,-1.6228339435356567,5.371031929992377,-5.4803842219855,0.008737517958312367,0.008582520550244438,0.020915981993864317,0.05199396956173637,-0.08237793262946976,0.10179083691921295,0.269558310508728,1.447352409362793,1.1466208696365356,0.404542863368988,-0.589482307434082,0.215457335114479
1749043309.3555925,2.574548462074254,-2.1117657418973383,-0.405775020259549,-1.6227308425117342,5.37086562110949,-5.4801814133851305,0.00875661639474369,0.008726586455482965,0.021388053275259312,0.05286242459340344,-0.08426399506109176,0.10339032688386741,0.2607669234275818,1.478690505027771,1.118510127067566,0.4212982356548309,-0.5916264057159424,0.2219594419002533
1749043309.3556612,2.5745644778540573,-2.1117505456479186,-0.40573261009595435,-1.6226263885603038,5.370696357308238,-5.4799766112636705,0.008771905096367253,0.008862868995468568,0.021880935162246942,0.053706762076821776,-0.08632690381628748,0.10505860606302024,0.2856549620628357,1.4488329887390137,1.1218198537826538,0.4081103205680847,-0.5765039920806885,0.2333611696958542
1749043309.355728,2.5745802933652184,-2.1117351328729974,-0.40568940275258225,-1.6225205357625438,5.370523710751784,-5.479769376720224,0.008785232310197334,0.008991653163599997,0.022396685388733045,0.05453375212987232,-0.0885148648459963,0.10680680240954127,0.2656452357769012,1.4489202499389648,1.1266932487487793,0.4162468016147613,-0.6077319979667664,0.2276570349931717
1749043309.3557956,2.5745960086138546,-2.111719505437919,-0.4056453149147735,-1.6224131817106222,5.370347264657949,-5.4795591349298505,0.008799146819085406,0.009114881326039428,0.022937330957189,0.05535123134739915,-0.09076611455958408,0.10864007611800401,0.2410198450088501,1.4844574928283691,1.125599384307861,0.4282573461532593,-0.603111982345581,0.2207779288291931
1749043309.3559556,2.574611738779665,-2.111703648453131,-0.4056002234603717,-1.6223041704363068,5.3701666430949295,-5.479345211139779,0.008816846447844631,0.009235991684347557,0.02350480565935611,0.05616778850487543,-0.0930151857845264,0.11055737754276836,0.279679387807846,1.4933761358261108,1.127577543258667,0.4137840867042541,-0.5809211134910583,0.2390311956405639
1749043309.3565085,2.5746276008281046,-2.1116875256709147,-0.40555397412808153,-1.6221933036836258,5.369981540120576,-5.479126884675597,0.008842009258455312,0.009359540557644857,0.024100733187061303,0.05699236936466483,-0.0951995809560402,0.11255183562389841,0.270050585269928,1.4916014671325684,1.1445879936218262,0.4239542484283447,-0.5932249426841736,0.2838531136512756
1749043309.3985116,2.5746437008913885,-2.111671077154906,-0.40550639341262884,-1.6220803605267275,5.369791746079629,-5.478903456945428,0.008878521049999052,0.00949065593442527,0.024726049037035916,0.057833782387815634,-0.09726612614340482,0.11461177582535141,0.3036968410015106,1.4892818927764893,1.1464985609054563,0.415431410074234,-0.5533237457275391,0.2540298402309418
1749043309.398589,2.5746601246669596,-2.1116542202853936,-0.4054573029673207,-1.621965123321397,5.369597168313998,-5.478674325466236,0.008930120942992933,0.009634395479215883,0.025380516161945886,0.058700123103855126,-0.09917628161322202,0.11672228841742566,0.2846753895282745,1.5013049840927124,1.133214235305786,0.4230050146579742,-0.5571135878562927,0.241789698600769
1749043309.39866,2.5746769323327894,-2.111636854643616,-0.4054065353127412,-1.6218474057519583,5.369397842789887,-5.478439052451481,0.009000000050843626,0.009795093612338981,0.02606223671170831,0.059598170828008626,-0.10090978335856218,0.11886715882327496,0.2846753895282745,1.5013049840927124,1.133214235305786,0.4230050146579742,-0.5571135878562927,0.241789698600769
1749043309.3987288,2.57469415819957,-2.1116188707004935,-0.40535394892388266,-1.6217270770194772,5.36919393236693,-5.478197414644494,0.009090404368858343,0.009975780882074677,0.026767281967279476,0.060532830483424525,-0.10246619317452309,0.12103087779695945,0.3002578914165497,1.4894328117370603,1.1569026708602903,0.4428437948226928,-0.5606061816215515,0.2761619687080383
1749043309.3987963,2.574711814040799,-2.111600161603305,-0.40529944028105136,-1.6216040761755788,5.368985707933159,-5.477949422521669,0.009202301554828266,0.010177748033333734,0.027489547678862386,0.06150669047862686,-0.10386419067857738,0.12320041375619266,0.2819918990135193,1.5047438144683838,1.1281297206878662,0.4284246861934662,-0.5220863819122314,0.2519962787628174
1749043309.3988652,2.5747298942880072,-2.111580636741928,-0.40524295092098717,-1.6214784130937623,5.368773512120712,-5.477695303211568,0.009335165244924113,0.010400308840242716,0.0282208934833805,0.06251974553936672,-0.10513868583939494,0.1253664470228692,0.3190178275108337,1.504291296005249,1.1383335590362549,0.3981223702430725,-0.5284401178359985,0.2470128983259201
1749043309.3989325,2.5747483812046714,-2.1115602352454834,-0.4051844690131512,-1.6213501569018687,5.368557711308343,-5.477435451259948,0.009486912777609964,0.010640792090618176,0.02895155993699467,0.06356929726320103,-0.10633605400535986,0.12752382193922376,0.2898926734924316,1.5217745304107666,1.1400929689407349,0.4340680241584778,-0.5482668876647949,0.2655835747718811
1749043309.3990004,2.574767248646491,-2.111538937235435,-0.4051240266234414,-1.6212194165769112,5.368338646612009,-5.477170359999391,0.009654009347605495,0.010894768339878937,0.029670803810036964,0.06465001521038316,-0.10750802005163128,0.1296710887120641,0.2898568511009216,1.5404952764511108,1.1413264274597168,0.4416591823101043,-0.5571386218070984,0.232903778553009
1749043309.3990653,2.5747864638601308,-2.111516770706931,-0.4050616946165166,-1.6210863198301095,5.36811659527029,-5.476900549413056,0.009831728040059771,0.011156493134334592,0.03036766807941947,0.06575413675601427,-0.10870492842196548,0.13180919474917888,0.2987006306648254,1.5262805223464966,1.1315540075302124,0.4324140846729278,-0.5606790781021118,0.2557398378849029
1749043309.399131,2.5748059876833422,-2.111493812411363,-0.40499757695356,-1.6209509953879322,5.367891750273899,-5.476626503927905,0.0100145333835869,0.011419522733690825,0.031031797995580285,0.06687179693119365,-0.10996926404813948,0.13393959517578513,0.2897541522979736,1.5435950756072998,1.1340720653533936,0.4487534165382385,-0.5927581787109375,0.2528264224529266
1749043309.3991983,2.5748257742081404,-2.111470181985943,-0.40493180544685853,-1.6208135616901131,5.3676642207233165,-5.476348628509713,0.01019653985443071,0.011677431159710698,0.031654213053812566,0.06799148553709101,-0.11133027855088722,0.13606220316883888,0.2805066704750061,1.5179002285003662,1.1236305236816406,0.4404683113098144,-0.5690495371818542,0.2725617289543152
1749043309.3992653,2.5748457712508497,-2.1114460296820043,-0.40486453524439303,-1.6206741230148973,5.3674340504583435,-5.476067226342556,0.010371991340227012,0.011924535989058124,0.03222794758885844,0.06910062027591181,-0.11280042708595098,0.13817364857541406,0.2955607771873474,1.5493881702423096,1.1255581378936768,0.4472310543060303,-0.5919995307922363,0.2848244309425354
1749043309.399332,2.5748659227228314,-2.111421519286414,-0.40479594070957925,-1.6205327724360814,5.3672012490241725,-5.475782497253028,0.010535713050560731,0.012156532033348775,0.032748490439847934,0.07018621442730603,-0.11437407731489019,0.14026626139883433,0.2744980454444885,1.5282208919525146,1.127156138420105,0.436086356639862,-0.5922205448150635,0.2887628078460693
1749043309.3994002,2.57488617322866,-2.1113968089475756,-0.40472621115556134,-1.620389599811984,5.366965827309714,-5.475494553005933,0.010683495624292971,0.012370939238527955,0.03321398737183582,0.07123561603201917,-0.11602866541938417,0.14232806006838794,0.2825337648391723,1.5113741159439087,1.119836449623108,0.4371387958526611,-0.5994470715522766,0.2678641676902771
1749043309.3994672,2.5749064741656933,-2.1113720330852432,-0.40465554604248954,-1.6202447022642312,5.366727830088019,-5.475203443597878,0.010812375082599246,0.012567294835238845,0.033625208124824675,0.0722373008256313,-0.11772818478273286,0.14434382120454575,0.2392733991146087,1.529297947883606,1.1144614219665527,0.4466755986213684,-0.5747278928756714,0.2614021897315979
1749043309.399535,2.574926789739524,-2.1113472881119715,-0.4045841494812927,-1.620098194373179,5.366487358734294,-5.474909187740337,0.010920774792703784,0.012747060661302389,0.03398531308197321,0.07318170428886107,-0.11942862163739934,0.1462970810949141,0.2792786955833435,1.543412208557129,1.1052275896072388,0.4502648413181305,-0.6067061424255371,0.2677535712718963
1749043309.3996017,2.5749471011504648,-2.1113226237444263,-0.4045122240828885,-1.6199502154742784,5.3662445791304165,-5.474611800889598,0.011008485712548859,0.012913268521857302,0.034299477971407144,0.07406206578260643,-0.12108470142007972,0.14817272786517965,0.2704392373561859,1.5705928802490234,1.112470030784607,0.4363918602466583,-0.5963770151138306,0.2605957090854645
1749043309.3996706,2.5749674078500004,-2.111298040849843,-0.40443996435135354,-1.6198009318126754,5.365999712094354,-5.474311315283591,0.011076483973179447,0.01306997420105897,0.03457444521012774,0.07487522362466487,-0.12265707924461837,0.14995972597807358,0.2826996743679046,1.5674655437469482,1.119636058807373,0.4308459460735321,-0.549401581287384,0.2605798244476318
1749043309.3997376,2.57498772579228,-2.1112734961190878,-0.4043675498105588,-1.6196505318789693,5.365753006623782,-5.474007788253814,0.011126616844043324,0.01322161928116626,0.034818064036983405,0.07562226385058668,-0.12411892721211279,0.1516534829817978,0.2797330915927887,1.5684945583343506,1.1097837686538696,0.4586816132068634,-0.5459579229354858,0.2391824424266815
1749043309.3998044,2.575008083466542,-2.111248913013885,-0.4042951377928046,-1.6194992141001527,5.3655046994403195,-5.4737012975312,0.011161218222418433,0.01337240502900582,0.03503886079270075,0.07630892158924077,-0.12546082090560906,0.15325742184004285,0.3008677959442138,1.586536169052124,1.1137678623199463,0.4289070963859558,-0.5348950028419495,0.2370228320360183
1749043309.3999772,2.5750285168704865,-2.1112241972658365,-0.4042228556106748,-1.6193471672353053,5.365254967066224,-5.473391925196066,0.011182729096429565,0.013525769683227003,0.035245655913243835,0.07694566747956011,-0.12669299515002852,0.15478345165219307,0.2823932766914367,1.5905206203460691,1.1214964389801023,0.4573957324028015,-0.5131150484085083,0.2362616956233978
1749043309.4005442,2.5750490644276556,-2.111199254041482,-0.40415079207656907,-1.6191945452289538,5.365003878462973,-5.473079734640914,0.01119338960726213,0.013684036603752536,0.0354472262032808,0.07754744392466871,-0.12784443789650024,0.1562512151108265,0.302140474319458,1.592766284942627,1.093931794166565,0.437618225812912,-0.5208443999290466,0.2445355057716369
1749043309.4425285,2.5750697624186056,-2.111174003289941,-0.4040789889655195,-1.6190414396667794,5.364751356931275,-5.472764746435605,0.011195044037432031,0.013848271670486835,0.03565200276930639,0.07813301283667404,-0.12895883989629892,0.1576862022349601,0.264944463968277,1.6014512777328491,1.1025649309158323,0.3988968133926391,-0.5214474201202393,0.2178110778331756
1749043309.4426076,2.575090641194312,-2.111148390215986,-0.40400743362543573,-1.6188878540205487,5.36449715931322,-5.472446918783048,0.01118907285473352,0.014018359197747987,0.035867793944708765,0.07872385790842946,-0.13008799688530726,0.15911701877131323,0.2793468534946441,1.6064274311065674,1.1253734827041626,0.4068983197212219,-0.5525109767913818,0.2425813525915146
1749043309.4426808,2.575111722422557,-2.111122389271422,-0.4039360542655708,-1.6187336842893914,5.364240878335501,-5.472126136641714,0.01117644565861705,0.014193279352928408,0.03610152654168244,0.07934261040127545,-0.13128375557644353,0.16057224506907322,0.2767286598682403,1.619091510772705,1.1219143867492676,0.4431822299957275,-0.5734546184539795,0.2685933709144592
1749043309.4427507,2.575133017658319,-2.1110960019058913,-0.40386471946534824,-1.6185787103550124,5.363981970413926,-5.471802211437433,0.0111578750211804,0.014371546293915816,0.03635900513929214,0.0800110688118164,-0.13258989950880282,0.16207738291284965,0.2855803370475769,1.6285669803619385,1.1443276405334473,0.432496964931488,-0.6154071092605591,0.2697324752807617
1749043309.4428215,2.5751545283677117,-2.1110692496876706,-0.40379324314131665,-1.6184226013344958,5.363719807105498,-5.471474891479406,0.011134040217636504,0.014551744955526828,0.03664469159811147,0.08074801502977859,-0.13403540027110986,0.16365234288916405,0.2971652150154114,1.611838459968567,1.1122183799743652,0.4320177435874939,-0.6083176732063293,0.2884749174118042
1749043309.4428933,2.5751762471569175,-2.1110421647949424,-0.4037213956279302,-1.61826493636319,5.363453744330293,-5.471143882116501,0.011105839193783404,0.014733089003133823,0.03696150228757246,0.08156711244188572,-0.13563018687133258,0.16530978393566131,0.2710425853729248,1.6196476221084597,1.1094168424606323,0.4460218548774719,-0.6375989317893982,0.2831063568592071
1749043309.4429631,2.5751981595691906,-2.111014779459561,-0.40364892074299225,-1.6181052396847264,5.3631831999900115,-5.470808873937596,0.011074616894037962,0.0149159179638795,0.03731061865407861,0.08247517023119574,-0.13736407687150895,0.1670544277446404,0.2691408395767212,1.626657247543335,1.1047388315200806,0.4277686178684234,-0.6297226548194885,0.2608387172222137
1749043309.4430313,2.575220245706385,-2.1109871153478084,-0.4035755576950365,-1.6179430261306236,5.362907728173623,-5.470469576191298,0.01104231350727555,0.015102060789022197,0.0376913262783489,0.08347100247751994,-0.13920890461218635,0.16888329553248516,0.275425910949707,1.608297348022461,1.137742280960083,0.456841766834259,-0.6049312353134155,0.252552330493927
1749043309.4430995,2.5752424812687074,-2.1109591736209383,-0.4035010654208828,-1.6177778506764129,5.362627077253163,-5.470125750822706,0.011011485735003627,0.01529501455209683,0.0381009393898821,0.08454504255292236,-0.14112331354278118,0.17078669958939413,0.275425910949707,1.608297348022461,1.137742280960083,0.456841766834259,-0.6049312353134155,0.252552330493927
1749043309.4431674,2.575264838188527,-2.1109309265391354,-0.403425245766349,-1.6176093544431933,5.362341220506039,-5.469777240893453,0.010985179792062465,0.015499914910154367,0.03853489759902896,0.08567980693567347,-0.14305924934103972,0.1727497807740495,0.2658589780330658,1.6653436422348022,1.1315091848373413,0.4681918919086456,-0.5894629955291748,0.2724584341049194
1749043309.4432366,2.5752872854286553,-2.1109023116157597,-0.4033479616187193,-1.6174373000005757,5.362050352410846,-5.469423987270482,0.010966667385166615,0.015723301295595633,0.03898709736550155,0.08685122960911192,-0.1449689587638634,0.1747543906132043,0.2631016075611114,1.6436653137207031,1.108160138130188,0.4510514736175537,-0.5644177198410034,0.2391613721847534
1749043309.4433029,2.575309790497497,-2.1108732292612924,-0.4032691471570135,-1.6172615913553978,5.361754851387804,-5.469066030328817,0.01095908433400685,0.015972697709315704,0.03945044436443332,0.08803080150409964,-0.14681129085629532,0.17678112759264134,0.2603992521762848,1.6441651582717896,1.092655897140503,0.4633216261863708,-0.5419709086418152,0.2611859440803528
1749043309.4433718,2.575332321930279,-2.110843544507218,-0.40318880926027356,-1.6170822775457678,5.361455217932281,-5.46870349777157,0.010965031820894427,0.01625603865426135,0.03991753842624385,0.08918835657398358,-0.1485563011202738,0.17881132927621637,0.2933650612831116,1.6561003923416138,1.1275852918624878,0.4867863059043884,-0.5408826470375061,0.2649615705013275
1749043309.4434352,2.575354852607907,-2.11081309278787,-0.40310702069458243,-1.6168995415742773,5.3611520022075245,-5.468336582852307,0.010986212577719963,0.016580976084976,0.040381380713760684,0.09029525673638938,-0.15018754297171238,0.1808288137183512,0.2737127244472503,1.671180248260498,1.1388647556304932,0.4872641861438751,-0.5691062808036804,0.273564338684082
1749043309.4435055,2.5753773634329464,-2.110781689112763,-0.4030239065211866,-1.6167136776881637,5.360845735596466,-5.467965517978784,0.011023175784531646,0.016954115866706795,0.040836016995718254,0.09132763885462365,-0.15170193479067723,0.18282118466243166,0.2645603120326996,1.654758095741272,1.1144659519195557,0.4613965451717376,-0.5582773089408875,0.2616552114486694
1749043309.4435737,2.575399846612859,-2.1107491395809337,-0.40293962559460217,-1.6165250602293169,5.360536877365197,-5.467590547813157,0.011075229537450878,0.017380253304881566,0.04127705601213906,0.09226930611389689,-0.1531076070694057,0.18478057225247227,0.2960179150104522,1.660441517829895,1.1030462980270386,0.4247493743896484,-0.5758483409881592,0.2859108448028564
1749043309.44364,2.5754223076931884,-2.1107152540956706,-0.4028543494008646,-1.616334107235644,5.360225782243014,-5.4672119049926735,0.011140547715183467,0.017861700274994903,0.041702006550886975,0.09311382265131045,-0.15442052634705705,0.18670375905972975,0.2821069061756134,1.6795226335525513,1.1028409004211426,0.4500648081302643,-0.5955772399902344,0.2688441872596741
1749043309.44371,2.5754447656159223,-2.110679859140932,-0.4027682407597777,-1.6161412420577397,5.359912689071733,-5.466829790976495,0.011216457350106714,0.01839780801722351,0.04211038187973367,0.09386545879366881,-0.15566085828470855,0.18859172242045233,0.2677963078022003,1.693472981452942,1.1241320371627808,0.4532945156097412,-0.6109176874160767,0.2757570147514343
1749043309.443777,2.575467250520963,-2.1106428094687884,-0.40268143492616887,-1.6159468563756205,5.359597726199535,-5.466444363947335,0.01129985549229715,0.01898477404357409,0.04250354646045276,0.09453882368525166,-0.15684994450111178,0.19044870111892856,0.2716325521469116,1.6757187843322754,1.1185129880905151,0.433663547039032,-0.6317473649978638,0.2562937438488006
1749043309.4438467,2.575489799692624,-2.1106039975933353,-0.4025940253682253,-1.6157512778955216,5.3592809269762505,-5.466055734693012,0.011387679192122442,0.019615771947613114,0.04288431977398144,0.09515723370251311,-0.1580084672901855,0.19228096346566528,0.2827774882316589,1.664575695991516,1.1197376251220703,0.450812965631485,-0.5874475836753845,0.2492074072360992
1749043309.4440236,2.575512452602463,-2.110563360266762,-0.40250605599266065,-1.6155547455674022,5.358962248737071,-5.465663969872432,0.011477341558173496,0.020281373230017264,0.04325638973358607,0.09575002987378818,-0.1591559466198018,0.1940955022932396,0.2587507963180542,1.6446775197982788,1.1129146814346311,0.4578399658203125,-0.6085675358772278,0.257525235414505
1749043309.4445288,2.575535246028734,-2.1105208816817758,-0.4024175207254736,-1.6153573944850048,5.35864159037725,-5.465269100423218,0.011567053203055701,0.020970171970266512,0.04362361943316618,0.09634916691327616,-0.16031127443399043,0.19589889278331551,0.2382740676403045,1.6512281894683838,1.1188970804214478,0.4366550743579864,-0.5863557457923889,0.2645435035228729
1749043309.4862993,2.5755582098594267,-2.1104765937505405,-0.4023283701145382,-1.6151592517947675,5.358318805871941,-5.464871131718313,0.011655974212909018,0.021669502490488664,0.043989353842678595,0.09698547138406426,-0.1614936780338275,0.1976965094111579,0.2660161256790161,1.647987723350525,1.1086910963058472,0.4568890929222107,-0.596662163734436,0.2556266188621521
1749043309.4863462,2.575581363883097,-2.110430574078492,-0.4022385233342189,-1.614960243891566,5.357993713081797,-5.464470051927191,0.011744183435053452,0.02236615663086233,0.04435583810779907,0.09768500975476792,-0.16272340715735253,0.19949220673371496,0.2677811682224273,1.6735202074050903,1.130713939666748,0.4838292598724365,-0.5915729999542236,0.291673868894577
1749043309.4863875,2.5756047158399142,-2.1103829420645557,-0.4021478831646256,-1.6147602138829535,5.3576660989018094,-5.464065836015542,0.011832496071250025,0.023047038184930514,0.04472383912874374,0.098465999380935,-0.16402156130729453,0.20128844089641124,0.2860399484634399,1.638584852218628,1.1206386089324951,0.4674217104911804,-0.5618240833282471,0.2816806435585022
1749043309.486427,2.575628261010638,-2.110333853188184,-0.40205635137948215,-1.614558947015203,5.357335723391092,-5.46365844465521,0.011922191476095155,0.023699719002033853,0.04509252220885841,0.09933662173366627,-0.16540876087921383,0.20308668364729393,0.2853390872478485,1.6213300228118896,1.139552354812622,0.4735833406448364,-0.5843327045440674,0.2668373882770538
1749043309.4864664,2.575651983371093,-2.1102834914024386,-0.40196384234569404,-1.6143562009153458,5.357002326431131,-5.463247819453689,0.01201472333671315,0.024312885390757488,0.045459588815956756,0.10029397097996263,-0.16690274339255107,0.20488790422768582,0.3027457594871521,1.6080472469329834,1.0977373123168943,0.467084527015686,-0.617499589920044,0.245758831501007
1749043309.4865046,2.5756758578667704,-2.1102320598277244,-0.4018702934106586,-1.6141517372498102,5.356665639898786,-5.462833877645367,0.012111477482688494,0.024876690927708965,0.04582164210620788,0.10132423378076845,-0.1685153355802364,0.20669289332489454,0.3118123114109039,1.642679214477539,1.1305360794067385,0.4801263511180877,-0.5972951650619507,0.245914340019226
1749043309.4865427,2.5756998530874826,-2.110179770416507,-0.40177567171261663,-1.6139453514487168,5.3563254063199714,-5.462416510054308,0.012213624992912004,0.025383053119426083,0.04617471762525121,0.10240408508334785,-0.1702494966566955,0.20850227592541568,0.2765907347202301,1.6058263778686523,1.0867618322372437,0.4708389043807983,-0.6454384326934814,0.2553084194660187
1749043309.4865804,2.575723933906519,-2.1101268335392014,-0.40167997788606813,-1.6137368972808104,5.355981402483599,-5.461995585367857,0.012322092249739035,0.025825926231696533,0.04651489833089705,0.10350319861848659,-0.1720971633453093,0.2103161814728125,0.2790327966213226,1.6032006740570068,1.1306195259094238,0.4681586623191833,-0.6582974791526794,0.272138237953186
1749043309.4866178,2.575748064247105,-2.11007344839339,-0.40158324719213184,-1.613526303451381,5.355633464613513,-5.46157096172628,0.01243763586770705,0.026201545107399256,0.04683893080387628,0.10458767750790482,-0.1740384457400679,0.2121336694443391,0.2849502563476562,1.5872446298599243,1.1096279621124268,0.4643363356590271,-0.642618715763092,0.2585936486721039
1749043309.4866593,2.5757722104255385,-2.110019794978812,-0.40148554803824915,-1.6133135802769585,5.355281510867181,-5.4611425041678165,0.012560976923320989,0.026508586467010316,0.047144772624302084,0.10562408832076402,-0.17604239706087535,0.2139521042640274,0.2733896374702453,1.6148496866226196,1.128274917602539,0.4602671563625335,-0.6322304606437683,0.2718819975852966
1749043309.4866972,2.5757963452790706,-2.1099660282708026,-0.401386977432357,-1.6130988158145947,5.354925557108453,-5.46071010468667,0.012692929628433384,0.02674816795542067,0.047432013692699754,0.1065836488763371,-0.1780692310853336,0.21576670623501443,0.2860910594463348,1.5852012634277344,1.0849080085754397,0.4162853956222534,-0.5961881279945374,0.2533702552318573
1749043309.4867346,2.5758204528769055,-2.109912275066747,-0.40128765316863024,-1.6128821622904903,5.354565722911442,-5.4602737011935725,0.012834462845494702,0.02692361975895563,0.04770211705153091,0.10744602514714102,-0.18007360764803643,0.21757046635649935,0.2752178311347961,1.5790929794311523,1.102872371673584,0.4306503236293793,-0.5920250415802002,0.2704725265502929
1749043309.486772,2.5758445333392497,-2.109858633660832,-0.4011877033116818,-1.6126638149663224,5.354202226339199,-5.459833292257727,0.012986655457882712,0.027040014675703623,0.047958435342751106,0.10820218840647566,-0.18200851382439437,0.219354521406636,0.3154740631580353,1.5739587545394895,1.1106499433517456,0.4276199638843536,-0.5908806920051575,0.2619532942771911
1749043309.4868095,2.5758686070405683,-2.10980517608666,-0.4010872543000457,-1.6124439864522775,5.353835367804923,-5.45938894541244,0.013150539319699152,0.027103510524885875,0.04820599751449246,0.10885589421087448,-0.1838293220290409,0.2211089805785124,0.2868503332138061,1.5768221616744995,1.1217421293258667,0.4356192350387573,-0.6206808686256409,0.27076256275177
1749043309.4868464,2.575892717118011,-2.1097519523246455,-0.40098641932100104,-1.6122228797783218,5.353465504816381,-5.45894079752667,0.01332685751249467,0.02712061756780733,0.04845111038608379,0.10942354160673239,-0.18549772510240797,0.22282410434822245,0.3006414175033569,1.573546290397644,1.096610188484192,0.4189956188201904,-0.5999835133552551,0.2501221299171448
1749043309.486884,2.5759169290299453,-2.1096989956774506,-0.4008852884943961,-1.6120006632952781,5.353093020290597,-5.458489046333394,0.013515793859990471,0.02709752929815584,0.04870084359761635,0.10993239269981768,-0.1869853283028875,0.22449166177183563,0.2987717092037201,1.5728986263275146,1.1134226322174072,0.4123031497001648,-0.5761071443557739,0.2346120923757553
1749043309.4869215,2.575941326388008,-2.1096463283202995,-0.4007839220074265,-1.6117774498559834,5.35271828732135,-5.458033932943331,0.013716745105042954,0.027039638127321432,0.048962455781019355,0.11041734177334436,-0.1882766575600381,0.2261062352775596,0.3099234700202942,1.5772790908813477,1.1227210760116575,0.4410853385925293,-0.5755121111869812,0.2498517483472824
1749043309.4869585,2.5759660034554805,-2.1095939657181373,-0.40068234672504877,-1.6115532819498255,5.3523416330207665,-5.457575716193702,0.013928203011372414,0.026951307170005462,0.04924280159144691,0.11091662141349025,-0.18937125145938744,0.22766622458376728,0.3081939816474914,1.577333688735962,1.1326595544815063,0.4293451905250549,-0.5649070143699646,0.2597781121730804
1749043309.4869957,2.575991055939642,-2.1095419185118858,-0.40058055602743653,-1.611328123765797,5.351963303749349,-5.457114640950004,0.01414778695540653,0.026835904182478748,0.04954775453988508,0.11146701035272741,-0.19028444296805136,0.22917434677655923,0.3038625419139862,1.5531766414642334,1.1109384298324585,0.4457479417324066,-0.5620765686035156,0.2636053562164306
1749043309.4870322,2.576016572232394,-2.1094901911539656,-0.4004785119897667,-1.6111018606268492,5.351583434046234,-5.456650903789406,0.014372424077145798,0.026696044148135565,0.04988168447139786,0.11209921410348013,-0.19104650643137805,0.2306375334695876,0.3056082427501678,1.5663795471191406,1.1137386560440063,0.4457960724830627,-0.5605117678642273,0.2661103010177612
1749043309.4871447,2.576042626833752,-2.1094387779817136,-0.40037614887380507,-1.6108743057489225,5.351202022012408,-5.456184620494792,0.0145986299958195,0.026533952167885535,0.050247031637015195,0.11283408095330114,-0.19170007451885143,0.23206625716680981,0.3074941635131836,1.5827722549438477,1.1375378370285034,0.4717098474502563,-0.56644606590271,0.2384552657604217
1749043309.4884574,2.576069276720095,-2.1093876587843505,-0.4002733773023426,-1.6106452137496603,5.350818914602172,-5.455715800279665,0.014822819163949112,0.02635185692763741,0.05064402247794232,0.11368019429711036,-0.19229605572725325,0.23347343828348538,0.3063473105430603,1.586755871772766,1.1411916017532349,0.472516655921936,-0.5845454931259155,0.2544276118278503
1749043309.5303187,2.5760965604712673,-2.1093367964224683,-0.4001700891274102,-1.6104142999105202,5.35043380675406,-5.455244331697283,0.015041581729479196,0.026152345957540877,0.051070574984525656,0.11463317716804795,-0.19288859185030427,0.23487316045937529,0.2856103777885437,1.5911341905593872,1.1395070552825928,0.4683642387390136,-0.6040401458740234,0.2712779641151428
1749043309.5303657,2.576124499432947,-2.109286138472532,-0.4000661634780243,-1.6101812640278763,5.350046257986898,-5.454769984643248,0.015251896513213122,0.02593863544488203,0.05152243294145284,0.1156767868917704,-0.19352978450991198,0.23627944013666247,0.3183773756027221,1.5928303003311155,1.1369574069976809,0.4675424695014953,-0.5997118949890137,0.2555502653121948
1749043309.5304115,2.5761531001436695,-2.109235623553445,-0.39996147455398184,-1.6099458176477448,5.349655728618443,-5.4542924312953485,0.015451287740028416,0.02571472023863158,0.05199353843585563,0.11678560238423798,-0.1942649353378779,0.23770525991721772,0.3170965015888214,1.5710004568099976,1.138550043106079,0.4635325372219085,-0.6153043508529663,0.2765606045722961
1749043309.5304563,2.576182357468387,-2.1091851914492277,-0.39985590139147537,-1.6097077132774922,5.349261635021246,-5.453811286032224,0.015637957069724227,0.025485384819543988,0.05247660598308121,0.11792886077585055,-0.1951288862490934,0.23916199840449268,0.2950237989425659,1.599601984024048,1.112173318862915,0.4518507421016693,-0.6096152067184448,0.2887832820415497
1749043309.5304978,2.576212257984921,-2.1091347947742065,-0.39974933915939354,-1.609466773636649,5.3488634195499385,-5.453326160779816,0.0158109212588189,0.025256084643951585,0.05296381918391246,0.11907482670968282,-0.19614377441837325,0.24065929211339923,0.335237056016922,1.6310393810272217,1.1226282119750977,0.4071023464202881,-0.5911657810211182,0.2915823757648468
1749043309.5305405,2.5762427830490324,-2.109084409131897,-0.3996417107451529,-1.6092229181641193,5.348460626586408,-5.452836728545314,0.015970159827536506,0.025032738160635903,0.053447551471558254,0.12019500192961152,-0.19731823207597118,0.24220527113913393,0.2752050161361694,1.6189111471176147,1.1427375078201294,0.4296447038650512,-0.6124241352081299,0.2804428935050964
1749043309.5305803,2.5762739109070636,-2.1090340388260342,-0.39953297670549354,-1.6089761829843718,5.3480529725249415,-5.452342784517336,0.01611673911300787,0.024821477505256928,0.05392102119137215,0.12126752274081735,-0.19864785855125763,0.24380703976635573,0.2752050161361694,1.6189111471176147,1.1427375078201294,0.4296447038650512,-0.6124241352081299,0.2804428935050964
1749043309.5306184,2.576305617542813,-2.108983716257567,-0.39942314133707824,-1.6087267298560897,5.347640395936338,-5.45184429185296,0.016252850089991857,0.024628384314283314,0.054378815282999815,0.1222792577443338,-0.20011671303035855,0.24547123180591993,0.2907618284225464,1.632331609725952,1.0959829092025757,0.3961195349693298,-0.582658052444458,0.2477202266454696
1749043309.5306566,2.576337876534443,-2.108933494988842,-0.3993122529510852,-1.6084748403885898,5.347223076593447,-5.4513414003373795,0.016381696399350568,0.024459210720960294,0.05481723840156497,0.12322637830270741,-0.2016995968963367,0.2472044516298212,0.2949323058128357,1.6344033479690552,1.1167958974838257,0.4047614932060241,-0.6046246886253357,0.2629571557044983
1749043309.5306988,2.5763706586641653,-2.108883438536335,-0.3992003976406694,-1.6082208947316319,5.346801419216481,-5.4508344322005735,0.016507202051410486,0.02431907992025953,0.05523446313393745,0.12411346350634576,-0.20336495100492694,0.24901341648450354,0.3036842346191406,1.6323195695877075,1.135513424873352,0.423033058643341,-0.6118044853210449,0.2687336802482605
1749043309.5307374,2.57640393210875,-2.108833608295516,-0.3990876876241395,-1.607965337794394,5.346376006785037,-5.4503238383263355,0.016633563350144494,0.024212177311365365,0.05563048024780538,0.12495145980617518,-0.20507822261973374,0.25090465913759796,0.3035544753074646,1.6352016925811768,1.1225807666778564,0.414550244808197,-0.6219868659973145,0.2938594222068786
1749043309.5307755,2.5764376637665145,-2.108784053826249,-0.39897424675827886,-1.6077086384491854,5.345947534179863,-5.4498101349570245,0.016764722396566022,0.024141469707799585,0.056006872661544534,0.12575500081992774,-0.206805513213168,0.25288373952303894,0.3364635109901428,1.640926718711853,1.0905561447143557,0.4220008254051208,-0.5917158126831055,0.2673094570636749
1749043309.5308132,2.576471821835478,-2.1087348072534753,-0.3988601962995306,-1.607451247256915,5.345516733707877,-5.449293833140241,0.01690386604356446,0.024108513767508624,0.05636645288476313,0.12653966670435057,-0.20851719003919963,0.25495403250717275,0.3277635872364044,1.67809796333313,1.1372730731964111,0.4206958711147308,-0.5907551050186157,0.2742687463760376
1749043309.530855,2.576506379310743,-2.10868588174888,-0.3987456433847467,-1.6071935571164035,5.3450843017217755,-5.448775371764263,0.01705304377228712,0.02411341911465389,0.05671281579980665,0.1273197058070878,-0.21019098478764756,0.2571152774160034,0.3405579924583435,1.6704213619232178,1.1474900245666504,0.437482088804245,-0.572712779045105,0.2613023817539215
1749043309.530894,2.576541317601252,-2.1086372728319627,-0.39863067346490044,-1.6069358699926501,5.344650832817126,-5.448255062212132,0.017212958719036445,0.024155000596718674,0.057049873818708935,0.12810657740134382,-0.21181402468674404,0.25936216638227566,0.3044120967388153,1.65423846244812,1.1106992959976196,0.429078459739685,-0.5608670711517334,0.2880613207817077
1749043309.5309312,2.5765766289758307,-2.1085889609003603,-0.39851534665172067,-1.606678371681164,5.344216766080594,-5.44773304953376,0.017382937985677152,0.024231093907371038,0.057381445245193514,0.12890845469484327,-0.2133833471617072,0.26168328976003047,0.2980819642543793,1.6784671545028689,1.1205588579177856,0.423216164112091,-0.5736167430877686,0.315210223197937
1749043309.5309691,2.5766123164198658,-2.108540913775009,-0.3983996970784358,-1.6064211153577608,5.343782346475653,-5.447209292059688,0.01756105107276033,0.024338954384003023,0.057710946928200224,0.12973060304040696,-0.21490475461089648,0.264060735219975,0.308286964893341,1.67032790184021,1.116336464881897,0.4166776537895202,-0.5879279375076294,0.3074455559253692
1749043309.5310104,2.5766483902243453,-2.108493088638157,-0.39828373405183726,-1.606164013736158,5.343347603423869,-5.446683559009234,0.0177443301374232,0.024475646838510022,0.05804121797059016,0.13057635964337871,-0.21639027991537987,0.2664705522790888,0.3243898153305053,1.6779617071151731,1.144631028175354,0.3944434523582458,-0.6049435138702393,0.3022338151931762
1749043309.5310495,2.576684862052783,-2.1084454331756297,-0.3981674438686916,-1.6059068394182943,5.342912347835193,-5.446155444310483,0.01792905316801787,0.02463836940205834,0.058374494415741496,0.13144832097857642,-0.21785489797241128,0.2688841528356418,0.3206545710563659,1.6863985061645508,1.1370863914489746,0.3955108821392059,-0.5824264287948608,0.3229178190231323
1749043309.5310876,2.576721738345016,-2.1083978859310073,-0.3980507915573673,-1.6056492335172659,5.342476188098196,-5.445624394679953,0.018111070717011905,0.024824705374595826,0.058712553083048895,0.13234932060407767,-0.2193132868994491,0.2712705433054884,0.3124007880687713,1.701314926147461,1.1557061672210691,0.414894551038742,-0.6211143732070923,0.3212287425994873
1749043309.5312047,2.576759014941784,-2.1083503759381266,-0.397933722359751,-1.6053907233975888,5.342038564655439,-5.445089750584033,0.018286172659425663,0.025032825375715186,0.05905701712066102,0.13328286422298335,-0.2207773480071973,0.2735991207454507,0.3060361742973327,1.6807187795639038,1.136208415031433,0.3915195763111114,-0.5989812016487122,0.3024204969406128
1749043309.532587,2.5767966740330577,-2.1083028217693442,-0.39781616330507713,-1.6051307507616066,5.341598801679458,-5.44455079909761,0.018450491798838484,0.02526165297845639,0.05940976267228892,0.13425285631113237,-0.2222548784325415,0.2758426601078095,0.3199447989463806,1.7011371850967407,1.1409449577331543,0.4109922051429748,-0.6124593019485474,0.3054673373699188
1749043309.574293,2.5768346837648353,-2.108255130311661,-0.39769802558493816,-1.604868710798671,5.341156173033373,-5.4440068369536805,0.01860092454323579,0.0255109769187227,0.05977331207889977,0.1352626535685639,-0.2237493916995462,0.27798008966078613,0.2997622191905975,1.6903313398361206,1.1197339296340942,0.4244719743728637,-0.5675655007362366,0.3145874142646789
1749043309.5743408,2.5768730003747162,-2.1082071958063726,-0.39757920849658784,-1.6046040014374332,5.340709977960108,-5.443457239896493,0.018735522525204478,0.02578147017212119,0.060151074416005854,0.13631366927212601,-0.22526077129858543,0.27999868648545156,0.3155665695667267,1.692522644996643,1.1152043342590332,0.4286662340164184,-0.5788092613220215,0.3073191046714782
1749043309.5743823,2.5769115723020026,-2.1081588997917367,-0.3974596053060492,-1.6043360789641266,5.340259619374684,-5.442901531201151,0.018853785521859928,0.02607457646690674,0.060547313695833896,0.13740389124935387,-0.2267863349933982,0.2818954082278383,0.2893227040767669,1.7021369934082031,1.1441171169281006,0.4035897254943847,-0.5952051877975464,0.3045315146446228
1749043309.5744226,2.5769503453096503,-2.108110112367616,-0.3973391104120902,-1.604064512941194,5.3398046741824485,-5.442339438833145,0.018956781016551676,0.02639224554840651,0.06096678624866646,0.13852672886447479,-0.22832197961601824,0.2836771984254012,0.2893227040767669,1.7021369934082031,1.1441171169281006,0.4035897254943847,-0.5952051877975464,0.3045315146446228
1749043309.574463,2.5769892676070683,-2.1080606946140623,-0.39721762607449923,-1.6037890308502742,5.339344942251692,-5.4417709289247345,0.01904704048380939,0.026736529268051795,0.06141407101062344,0.139670556794536,-0.22986326357045148,0.2853602444023026,0.2989338934421539,1.6924220323562622,1.1113935708999634,0.4425146579742431,-0.607511043548584,0.2901866436004638
1749043309.574502,2.577028294304759,-2.1080105014261235,-0.3970950666541211,-1.6035095432790933,5.338880461886154,-5.441196205740657,0.019128232724968382,0.027109081482948025,0.061892689237931474,0.1408191912813957,-0.23140643160104205,0.2869683050531257,0.2732731103897095,1.7078710794448853,1.1444199085235596,0.4408029913902282,-0.5959950089454651,0.2723397612571716
1749043309.5745392,2.57706739081591,-2.107959384054975,-0.3969713594505113,-1.6032261448139216,5.338411486997948,-5.440615676363677,0.01920466958844783,0.027510627416417424,0.0624041570112944,0.1419533454374482,-0.23294940106270384,0.2885303354218295,0.2750701308250427,1.704470992088318,1.1457548141479492,0.4222932457923889,-0.5838401913642883,0.3119919896125793
1749043309.5745769,2.5771065348090776,-2.10790719239376,-0.39684644316629886,-1.6029390921060163,5.337938431782654,-5.440029888513185,0.019280735378584903,0.02794047722665466,0.06294713759676493,0.1430528977946203,-0.234492613655506,0.2900776976291528,0.3122969269752502,1.7082045078277588,1.1250429153442385,0.4547724425792694,-0.556522011756897,0.3178273439407348
1749043309.5746148,2.5771457163404974,-2.1078537779856092,-0.39672026625495754,-1.6026487652040062,5.337461796441741,-5.4394394562244255,0.01936033725814786,0.028396156311006886,0.06351686306268642,0.14409962102694182,-0.23603951395547068,0.2916412564045761,0.2984030842781067,1.6303144693374634,1.078940510749817,0.3991290032863617,-0.4980435371398926,0.2788377702236175
1749043309.5746531,2.5771849361982526,-2.10779899912026,-0.39659278709811646,-1.6023556194897814,5.336982089254479,-5.438844988180857,0.019446456036846083,0.028873220054174784,0.06410497331410615,0.14507990357740425,-0.23759638766237778,0.2932486206796398,0.2973073124885559,1.745302677154541,1.1557683944702148,0.4069167077541351,-0.558619499206543,0.316753089427948
1749043309.5746906,2.5772242030739743,-2.1077427288303685,-0.3964639765661546,-1.6020601346250165,5.33649975781759,-5.4382470296621435,0.01954084851590417,0.029365315174094565,0.06469987969234937,0.14598697570280803,-0.23917145460659553,0.294921741513197,0.276041716337204,1.727621078491211,1.174510478973389,0.4319314956665039,-0.602814793586731,0.277324378490448
1749043309.5747285,2.5772635304706175,-2.107684865360641,-0.39633382199643963,-1.6017627656773428,5.336015138330213,-5.4376460241334765,0.01964392489395204,0.029864526682845144,0.06528769473851309,0.14682221436881857,-0.240773398002983,0.2966750505183952,0.2887807190418243,1.7255829572677612,1.1424908638000488,0.4005889892578125,-0.5966790318489075,0.3142726719379425
1749043309.5747652,2.5773029341250964,-2.1076253434542207,-0.39620233070542954,-1.6014639008213618,5.3355284274940775,-5.437042295529055,0.01975480347286686,0.030361991093205712,0.06585366295019329,0.14759523077398903,-0.24240974282697164,0.29851432870088956,0.298157662153244,1.6967415809631348,1.111240029335022,0.3949643969535827,-0.5933781862258911,0.340358555316925
1749043309.5748029,2.5773424303868717,-2.1075641441220045,-0.3960695311323624,-1.601163829429513,5.335039677245092,-5.436436047971073,0.019871530505628725,0.0308486797257804,0.06638389232065962,0.1483226270050578,-0.24408551963784453,0.30043649111161336,0.2928760051727295,1.7249720096588137,1.1148626804351809,0.393040120601654,-0.5955691337585449,0.3394814729690552
1749043309.57484,2.577382035608782,-2.1075013005865464,-0.39593547043914945,-1.6008627234319457,5.334548808866594,-5.435827377077845,0.019991439315906863,0.03131620642883916,0.06686708437126444,0.14902553666728502,-0.2458024691299607,0.3024304015122549,0.2794882655143738,1.7099250555038452,1.1252597570419312,0.4137312769889831,-0.5901390910148621,0.3064753115177154
1749043309.574877,2.5774217662371286,-2.1074368987771384,-0.39580020847666453,-1.6005606333343978,5.3340556407964295,-5.435216286682507,0.0201116023624975,0.03175751663860898,0.06729594799580474,0.14972631865979252,-0.24755880360744809,0.30447866927280276,0.2866913974285126,1.6808754205703735,1.096044659614563,0.4335734248161316,-0.586839497089386,0.2950819730758667
1749043309.5749135,2.5774616390418754,-2.107371071933704,-0.39566380918670163,-1.6002574984891476,5.3335599237231825,-5.434602706107907,0.020229304511807232,0.03216735439994202,0.06766805889040331,0.15044499837413045,-0.24934939811026788,0.3065601655364086,0.2565465867519378,1.6481797695159912,1.0921729803085327,0.4171679019927978,-0.5874514579772949,0.2893442213535309
1749043309.5749512,2.577501670860588,-2.1073039901970634,-0.3955263315014596,-1.59995316946117,5.333061376974304,-5.433986505019879,0.020342448908639066,0.032542457013728474,0.06798604941995068,0.15119616373987368,-0.25116628440269506,0.308652820324366,0.2964415848255157,1.7143415212631226,1.1202934980392456,0.4701818227767944,-0.6207053065299988,0.298621267080307
1749043309.5749886,2.577541877330484,-2.1072358470415824,-0.39538782220192803,-1.599647438855875,5.332559721348112,-5.433367504648176,0.020449814075334184,0.03288148181056189,0.06825714451850164,0.1519869583968223,-0.2529994022152835,0.310736211445154,0.2845055758953094,1.674813985824585,1.1243553161621094,0.4484666585922241,-0.6025251150131226,0.3011479079723358
1749043309.5750265,2.577582270422567,-2.107166844721317,-0.395248312666168,-1.5993400760193948,5.332054705247026,-5.432745485753357,0.020551116613923864,0.03318471520600017,0.06849217081346488,0.15281656187364648,-0.2548376141481411,0.31279353213049477,0.282588243484497,1.6969083547592163,1.122527837753296,0.4180116951465606,-0.6265671849250793,0.3233948945999145
1749043309.5751338,2.577622855158139,-2.10709718060082,-0.3951078202076897,-1.599030860861273,5.331546122994737,-5.432120195131414,0.020646885586805882,0.033453637346399154,0.06870423508034984,0.1536771712636545,-0.2566699379025278,0.3148126584407123,0.2711048722267151,1.6551414728164673,1.120410680770874,0.4476083517074585,-0.6148383617401123,0.2710664272308349
1749043309.57653,2.57766362634548,-2.1070270356404763,-0.3949663533958313,-1.5987196127820116,5.331033825983392,-5.431491353457569,0.020738201056978597,0.033690416569783714,0.06890728731435768,0.15455612546867473,-0.25848680583585726,0.3167861796156361,0.2993735671043396,1.659228801727295,1.134187936782837,0.4153366982936859,-0.5565111637115479,0.2382141798734665
1749043309.6182888,2.5777045661871063,-2.1069565657136935,-0.39482391980765325,-1.5984062120495315,5.33051772811268,-5.430858667519586,0.020826374950740193,0.033897402172194425,0.06911476968726729,0.15543857460173793,-0.26028102385443613,0.3187104226246802,0.3014759719371795,1.659274935722351,1.122591495513916,0.3742451667785644,-0.5464013814926147,0.2638368010520935
1749043309.618335,2.5777456433044255,-2.106885896010211,-0.39468053421866567,-1.598090612433606,5.329997806771916,-5.43022184901734,0.020912653385946674,0.034076682327417784,0.06933851950354482,0.1563100619651786,-0.26204808764557863,0.32058372762534765,0.2928100824356079,1.6682846546173096,1.1191108226776123,0.4095188975334167,-0.5584500432014465,0.3001834154129028
1749043309.6183798,2.5777868135226756,-2.1068151185388277,-0.3945362253219237,-1.5977728450857405,5.329474100062487,-5.429580639996792,0.020998000392362895,0.034229770369025775,0.06958803870518376,0.15715853107569197,-0.26378568714879363,0.322404473489143,0.2775824666023254,1.6727778911590576,1.1349458694458008,0.3978466391563415,-0.5727436542510986,0.3314222693443298
1749043309.618425,2.5778280228243835,-2.1067442926329534,-0.39439103958250343,-1.597453014495739,5.328946700679859,-5.42893484221441,0.02108299470073185,0.03435746637004284,0.06987016532674648,0.15797551671953797,-0.26549253962698777,0.3241694899205714,0.2969458103179931,1.665520429611206,1.126649260520935,0.4070052802562713,-0.6054964661598206,0.3120189011096954
1749043309.6184764,2.577869212956822,-2.106673448362328,-0.39424504158535806,-1.5971312879168755,5.328415746784743,-5.428284345490228,0.021167846646790965,0.03445991202827001,0.07018910127750118,0.1587565366853387,-0.2671669830896983,0.3258734096597859,0.2882100939750671,1.6682335138320925,1.1193982362747192,0.4204872548580169,-0.6276026964187622,0.2936456799507141
1749043309.6185174,2.577910329871999,-2.1066025927898675,-0.394098311102639,-1.5968078798707068,5.327881409992601,-5.42762914941982,0.021252523803134513,0.03453682314066016,0.070546686800213,0.15950089361528794,-0.268805871294283,0.32750921290225715,0.2965777218341827,1.6543521881103516,1.1222892999649048,0.4127767980098724,-0.6215935349464417,0.2917954921722412
1749043309.618556,2.5779513343823086,-2.1065317188357495,-0.3939509380038363,-1.5964830332106694,5.327343880477783,-5.426969373785214,0.02133695457566314,0.03458785275119069,0.070942779792547,0.1602111804284869,-0.2704041774291051,0.3290698353982383,0.3056843280792236,1.662700891494751,1.119548201560974,0.4346307814121246,-0.5953503251075745,0.2951749563217163
1749043309.618594,2.5779922134426556,-2.106460815952762,-0.3938030167030373,-1.596156997967266,5.326803349497536,-5.426305254985183,0.02142125847017397,0.034613017161889165,0.07137560645634881,0.16089275231260822,-0.2719554155245395,0.3305504180059864,0.2792335748672485,1.6691347360610962,1.1035985946655271,0.4056077301502228,-0.5681912302970886,0.3153985440731048
1749043309.6186328,2.578032989767974,-2.106389881156804,-0.39365464165242575,-1.5958300091398168,5.326259990324367,-5.425637128126493,0.021505941590003137,0.034613113351331444,0.0718419953971516,0.16155331184978425,-0.27345269234259617,0.33195063662343605,0.2921554446220398,1.6516073942184448,1.1335054636001587,0.4237887263298034,-0.5565887689590454,0.2692146003246307
1749043309.6186707,2.5780737273562147,-2.1063189287026725,-0.3935059045498301,-1.5955022648559842,5.32571393921125,-5.424965396743789,0.021592003968336118,0.03459006644725636,0.07233747352861969,0.16220260720379123,-0.27489004949427925,0.33327653796849366,0.2871741652488708,1.6458977460861206,1.1143826246261597,0.4001531898975372,-0.5956268310546875,0.2604236006736755
1749043309.618709,2.5781145309759244,-2.106247996985448,-0.3933568930584909,-1.595173906704909,5.325165278307121,-5.4242904941712915,0.021680927115160602,0.03454715674376765,0.07285626701992297,0.1628521280802152,-0.27626377324643037,0.33454139176612246,0.303674966096878,1.6542930603027344,1.1308754682540894,0.4067769646644592,-0.6116498708724976,0.237993374466896
1749043309.618747,2.5781555386877315,-2.1061771517495536,-0.39320769039032727,-1.594845004255398,5.324614022322738,-5.4236128419277145,0.021774537664681026,0.03448908054199283,0.07339129648633669,0.16351463860954463,-0.2775734497412838,0.3357652738601512,0.3037184178829193,1.6329975128173828,1.1416388750076294,0.3896734714508056,-0.5971788167953491,0.2723157703876495
1749043309.6187837,2.578196907822665,-2.106106485068228,-0.39305837502270274,-1.5945155456261877,5.324060110316915,-5.422932810658547,0.021874772097907235,0.034421806102331226,0.07393427092262338,0.16420341830892649,-0.278822611802519,0.3369734180642534,0.2862163484096527,1.6450326442718506,1.0877772569656372,0.4008058309555053,-0.5637602210044861,0.2773200571537018
1749043309.6188247,2.578238796309115,-2.1060361097791964,-0.39290901990887667,-1.5941854355324374,5.3235034035886715,-5.422250688097713,0.021983394390773094,0.034352210890777855,0.07447596434360529,0.16493117991934775,-0.28001882457864796,0.3381937214314077,0.3166061639785766,1.682878494262695,1.1157554388046265,0.4048927724361419,-0.549245297908783,0.3189086318016052
1749043309.618864,2.5782813424644613,-2.10596614927344,-0.3927596907441258,-1.5938545015616916,5.322943690731398,-5.421566656618371,0.022101734688583997,0.034287535241703644,0.075006712638547,0.16570876694562908,-0.28117306283170457,0.33945399906592183,0.3081037402153015,1.6527745723724363,1.1237711906433103,0.4055275321006775,-0.5316365957260132,0.296158492565155
1749043309.6189036,2.5783246469126695,-2.105896722953286,-0.39261044309676973,-1.593522508484056,5.322380701244516,-5.420880781105272,0.022230513239324325,0.034234742314556886,0.07551711711485672,0.16654385907754404,-0.2822983451132425,0.34077956431609735,0.304730623960495,1.662325739860535,1.111622929573059,0.4335750043392181,-0.5532342791557312,0.275017499923706
1749043309.6189427,2.578368759937307,-2.105827928537668,-0.39246131838614823,-1.5931891792424124,5.321814128841234,-5.4201930067024175,0.022369788456200922,0.03419990099698863,0.07599889461049705,0.16743998184691794,-0.28340782337266346,0.3421915016757422,0.3151272237300873,1.6591711044311523,1.0908311605453491,0.4536445736885071,-0.6053579449653625,0.2837816178798675
1749043309.61898,2.578413676491771,-2.10575982364661,-0.3923123387977954,-1.5928542202550136,5.321243664119703,-5.419503165386516,0.02251903157581413,0.034187692085012704,0.07644576765753167,0.16839609194276564,-0.28451276357116706,0.3437057325251985,0.3099754452705383,1.648196578025818,1.1018964052200315,0.445634126663208,-0.6137553453445435,0.3094524145126343
1749043309.6190202,2.5784593395858293,-2.1056924101627787,-0.39216350144159384,-1.592517348146697,5.320669033969852,-5.418810989941687,0.022677298191858288,0.03420109757899068,0.07685425219802193,0.1694068843368994,-0.2856209360645242,0.3453327564415193,0.322862446308136,1.6571544408798218,1.081420660018921,0.42177614569664,-0.6148300766944885,0.3111879825592041
1749043309.619058,2.578505651136852,-2.105625624956183,-0.39201477247654554,-1.5921783150100286,5.320090042995765,-5.418116133686384,0.022843448014954672,0.03424129501759255,0.07722419903661362,0.1704637763717619,-0.2867358013587821,0.34707782086835676,0.3355222940444946,1.6563060283660889,1.0891889333724976,0.4558179080486297,-0.5700751543045044,0.3012345731258392
1749043309.619167,2.5785524879910726,-2.1055593393535634,-0.39186608236322956,-1.5918369295067436,5.319506611071858,-5.417418194335524,0.023016357848571152,0.03430775104031112,0.077558986737926,0.17155633847992816,-0.28785660965278376,0.34894122459865007,0.2907504737377167,1.6456109285354614,1.0870510339736938,0.4410471022129059,-0.553425133228302,0.2772729396820068
1749043309.6204813,2.5785997201057556,-2.1054933677259036,-0.3917173235437346,-1.5914930713538027,5.318918800987193,-5.416716740639548,0.023195075191161,0.03439848381123424,0.07786533138935585,0.1726738348381204,-0.2889792906198026,0.3509184998055378,0.2945219278335571,1.6456619501113892,1.09790301322937,0.426133394241333,-0.5865823030471802,0.2803782224655151
1749043309.6622944,2.57864722793989,-2.105427483678192,-0.39156835155370495,-1.5911466971558237,5.318326830839706,-5.416011340688094,0.023378871065045447,0.03451043877028257,0.07815274722947765,0.17380654255838238,-0.2900979040522522,0.35300035842907496,0.3152217864990234,1.6392710208892822,1.0903825759887695,0.4446769952774048,-0.6547380685806274,0.3088346421718597
1749043309.6623714,2.5786949166499564,-2.1053614412014885,-0.39141898995315794,-1.5907978365239182,5.31773106754364,-5.41530159072235,0.023567173511767844,0.0346399034439817,0.07843274249428513,0.174946615491309,-0.29120643356161535,0.3551725019692389,0.2969401776790619,1.6565791368484497,1.0900161266326904,0.4427921772003174,-0.6401951909065247,0.3357017636299133
1749043309.6624465,2.5787427254160744,-2.105294997808689,-0.39126903870531093,-1.5904465790158098,5.317132000597416,-5.414587142947516,0.023759396788475776,0.03478288593796515,0.07871786057039286,0.17608840225817557,-0.29230072442751165,0.3574155792371227,0.3163945078849792,1.6632318496704102,1.1252460479736328,0.4471088945865631,-0.6025278568267822,0.3291504383087158
1749043309.662493,2.5787906309704303,-2.1052279367516697,-0.3911182849092049,-1.5900930540793723,5.316530198688602,-5.413867730447466,0.0239547148414738,0.034935400222009784,0.07902067985773348,0.1772282696884884,-0.29338031165099104,0.3597056309610645,0.3175152242183685,1.6517739295959473,1.1136353015899658,0.4567314088344574,-0.5676354765892029,0.3190794289112091
1749043309.6625335,2.5788386450733833,-2.105160085605743,-0.39096651429201623,-1.5897374071463444,5.315926254887693,-5.413143187066203,0.024151844203755053,0.03509362937798867,0.07935286805528664,0.17836408352549316,-0.29444978845750247,0.36201525991060246,0.3029796183109283,1.6353471279144287,1.0817577838897705,0.4599217474460602,-0.5441950559616089,0.3356410562992096
1749043309.662573,2.578886806324677,-2.10509132885855,-0.3908135217783531,-1.5893797750925367,5.315320728232388,-5.412413459976547,0.024348894086134075,0.035253967944641064,0.07972435104031948,0.17949453778082147,-0.29551934974791394,0.3643155688341751,0.2911244034767151,1.6663836240768433,1.1048325300216677,0.4781436324119568,-0.5627146363258362,0.3675406873226166
1749043309.662613,2.5789351675410406,-2.1050216129445953,-0.39065911987097446,-1.589020263849853,5.314714089955703,-5.411678612649537,0.024543321396726075,0.035412977945545564,0.08014261672265907,0.18061850578942187,-0.2966042962044882,0.36657869502268736,0.3078850209712982,1.6790074110031128,1.1144921779632568,0.451321929693222,-0.6062840819358826,0.3437851965427398
1749043309.6626546,2.5789837809891036,-2.1049509435136082,-0.3905031443626748,-1.588658930496315,5.314106681446086,-5.410938816455785,0.024732010528937323,0.03556732508441224,0.0806121476451438,0.18173453078693774,-0.2977235557553685,0.36878059243692357,0.3264051079750061,1.6747636795043943,1.0806851387023926,0.4783542454242706,-0.5807019472122192,0.3123084604740143
1749043309.662695,2.579032684465555,-2.1048793762405675,-0.39034545765985446,-1.5882957717524173,5.313498688628669,-5.410194330582423,0.02491148353574989,0.03571377244812231,0.08113397122155697,0.1828405071894611,-0.2988975244391031,0.37090359803754974,0.3176396489143371,1.6759765148162842,1.1147321462631226,0.4400220215320587,-0.5784747004508972,0.2645182013511657
1749043309.6627326,2.5790818909839395,-2.1048070036024176,-0.39018595039277143,-1.5879307202233444,5.312890134527189,-5.40944547221645,0.02507822840269689,0.03584928537279648,0.0817053339541812,0.18393354629505843,-0.3001456377168693,0.3729382979120451,0.3069841861724853,1.668621301651001,1.0921432971954346,0.4626004099845886,-0.5765630006790161,0.2931649684906006
1749043309.6627705,2.5791313838522743,-2.104733940433919,-0.3900245420775187,-1.5875636487942764,5.312280889043179,-5.4086925812181414,0.025229108798183245,0.0359712527140019,0.08231954055614307,0.1850099889497169,-0.3014840642897317,0.3748843132366804,0.306207925081253,1.6536967754364014,1.1294747591018677,0.4491712749004364,-0.5887206196784973,0.3134406507015228
1749043309.6628077,2.5791811178959123,-2.1046603107543778,-0.38986118165860245,-1.5871943825533963,5.311670692886411,-5.4079359847706945,0.025361793602878786,0.03607778164401145,0.08296603411640845,0.18606553335463705,-0.3029238543502788,0.3767498505447716,0.2916291654109955,1.670324683189392,1.1204464435577393,0.4730328321456909,-0.6068229079246521,0.3071808815002441
1749043309.6628454,2.5792310267914416,-2.10458623746671,-0.3896958487838197,-1.5868227168232225,5.311059191166819,-5.407175967199965,0.02547512868654192,0.03616799728221208,0.08363080493126251,0.18709547572987817,-0.30446982365980213,0.37855013383767433,0.2871643900871277,1.664394736289978,1.112105131149292,0.4697029590606689,-0.6196856498718262,0.3164788484573364
1749043309.6628833,2.579281035636737,-2.1045118352804395,-0.38952855635645306,-1.586448439335681,5.310445971387502,-5.406412748505147,0.02556937572656451,0.0362422804583087,0.08429718576567229,0.18809507996734096,-0.30612036483546795,0.38030505565965206,0.2822915613651275,1.6843905448913574,1.1015363931655884,0.4507749080657959,-0.619038462638855,0.3223300874233246
1749043309.6629207,2.579331076706787,-2.1044372060430265,-0.38935935421601825,-1.5860713541265214,5.309830600573441,-5.4056464728288,0.02564626586237022,0.03630239608223358,0.08494702225929522,0.1890600753379096,-0.30786817431551217,0.3820364851656937,0.3063780069351196,1.6739721298217771,1.1001484394073486,0.4650617241859436,-0.5828287601470947,0.3418995141983032
1749043309.6629584,2.5793811051444884,-2.1043624351288157,-0.38918833301487543,-1.5856913043907879,5.309212657190647,-5.404877205926304,0.02570885281485753,0.0363514885715861,0.08556212393434477,0.18998723573202939,-0.3097016050423274,0.3837656517784191,0.2753662467002868,1.6589715480804443,1.0992528200149536,0.4577167332172394,-0.563154399394989,0.3353947699069977
1749043309.662996,2.5794311109265506,-2.104287587896139,-0.38901562680462165,-1.5853081915385174,5.308591755194043,-5.404104939318838,0.02576118784388259,0.036393943853777075,0.08612583488065524,0.19087494499100172,-0.3116061637412456,0.38551091743138277,0.3050850033760071,1.6889240741729736,1.067447066307068,0.4719167351722717,-0.5511223673820496,0.3204537332057953
1749043309.6630335,2.579481124342319,-2.1042127062172504,-0.3888414127346856,-1.5849219881275338,5.307967559421617,-5.403329598626861,0.02580786718316563,0.03643513692262346,0.08662452837479363,0.1917236259000573,-0.3135657114164076,0.3872861016462028,0.3119045495986938,1.6686314344406128,1.0892715454101562,0.4737394154071808,-0.5913050770759583,0.2721509933471679
1749043309.6630704,2.5795312139662108,-2.1041378060240166,-0.3886659067362258,-1.5845327431322223,5.307339793168061,-5.402551054505061,0.025853518938503343,0.03648109901093409,0.08704882921774408,0.1925359209743032,-0.3155631772050469,0.38909938326565907,0.3089038133621216,1.682888388633728,1.0562684535980225,0.4799157977104187,-0.6215242743492126,0.297133207321167
1749043309.6631076,2.579581477710649,-2.104062877050919,-0.38848935501235643,-1.5841405789127088,5.306708240071779,-5.401769135869913,0.025902302857525733,0.03653815002632181,0.0873944077689741,0.19331655892669583,-0.3175808856862024,0.3909527221194756,0.3129885494709015,1.6982307434082031,1.0679322481155396,0.4552122950553894,-0.614059329032898,0.3167819678783417
1749043309.66322,2.5796320285720893,-2.1039878853724874,-0.38831202215122557,-1.5837456801511427,5.3060727432907235,-5.4009836457607605,0.02595749388799705,0.03661254687328634,0.08766226831005436,0.194071903505079,-0.3196007466968224,0.3928417414945442,0.3144634068012237,1.7020974159240725,1.067558765411377,0.4755452275276184,-0.5787026286125183,0.2952207922935486
1749043309.6644838,2.5796829773749215,-2.1039127783136156,-0.3881341772796902,-1.5833482759987938,5.3054332048107575,-5.40019437996135,0.026021208423060632,0.03671018941453633,0.08785854480959951,0.19480924104437755,-0.32160452525602135,0.3947560531294073,0.31673663854599,1.6974719762802124,1.0777006149291992,0.4738078415393829,-0.5645936727523804,0.3030804991722107
1749043309.706291,2.5797344153446176,-2.103837490452202,-0.3879560797309244,-1.5829486177796364,5.304789586423,-5.399401147908823,0.026094309978909234,0.03683640155190099,0.08799388451584797,0.1955359054863023,-0.323574301320331,0.39668003213282504,0.3005762994289398,1.6911178827285769,1.0691730976104736,0.4551427960395813,-0.6008102893829346,0.3034563660621643
1749043309.7063398,2.579786399461729,-2.1037619492353974,-0.38777796535176234,-1.5825469555981697,5.304141912015793,-5.39860379474302,0.026176500650328973,0.036995775461042026,0.08808252643663816,0.19625835705469663,-0.3254931545228873,0.39859403160634993,0.2877521216869354,1.7165096998214722,1.0974715948104858,0.4671656787395477,-0.6175103783607483,0.3245638012886047
1749043309.706395,2.5798389430481294,-2.103686079251043,-0.3876000341285659,-1.5821435177256251,5.303490269208485,-5.397802222582679,0.02626657278109303,0.03719204708841628,0.08814117278194526,0.19698132480250796,-0.32734606523857634,0.40047598353609853,0.2978005111217499,1.6900745630264282,1.0774794816970823,0.4566448926925659,-0.5791314244270325,0.3113762736320495
