nimar13/UR3e_dataset_trayectorias/trayectorias_ejecutadas_filtradas/quintic_func/trayectoria_051_result_filtrado.csv
timestamp,q1,q2,q3,q4,q5,q6,qd1,qd2,qd3,qd4,qd5,qd6,tau1,tau2,tau3,tau4,tau5,tau6
1749040739.4972205,2.139913252835166,-2.49733503033783,0.3784035470949964,1.383452066744603,-6.115011804847197,-3.218532042472562,-0.00022025269607226828,-0.0002628251673909014,-7.134294555814702e-05,3.366610710546479e-05,8.439744072072834e-05,-7.824396138108625e-06,-0.3189077973365783,0.9369248747825624,0.1863621324300766,-0.2183365821838379,0.2640075981616974,-0.1323440819978714
1749040739.5382998,2.1399143077279366,-2.4973399731717594,0.3784035711759773,1.383451620315382,-6.115011928893053,-3.2185342588156702,-0.0002297445079241038,-0.00025624393999204315,-7.291031175464424e-05,2.161028008312411e-05,8.724213683262913e-05,2.0212426576567834e-05,-0.3461283147335052,0.9202589392662048,0.1921670138835907,-0.2281722426414489,0.2536051869392395,-0.156997948884964
1749040739.5383463,2.139915462368255,-2.497344735401814,0.3784035587537412,1.3834511364780262,-6.115012161428764,-3.218536443745165,-0.00022827769996692116,-0.0002497790945413646,-7.397684985256434e-05,5.238960869181776e-06,8.994273630605214e-05,5.2863019229410184e-05,-0.3409879207611084,0.9135755896568298,0.1917845606803894,-0.2250737845897674,0.2496814727783203,-0.1422396153211593
1749040739.538406,2.1399167814657236,-2.4973491756692545,0.37840349079836066,1.3834506099503823,-6.1150125901588845,-3.2185385585333117,-0.00021284091616717134,-0.000243381650345725,-7.41945130103029e-05,-1.4329571077312536e-05,9.208700045446442e-05,8.703956442068967e-05,-0.3272774815559387,0.9417516589164734,0.1896418929100036,-0.2112863212823867,0.2582840323448181,-0.1280073672533035
1749040739.538476,2.139918310420116,-2.497353176416258,0.37840335641964096,1.383450035439555,-6.1150132788260505,-3.2185405702609873,-0.00018121415688168369,-0.00023698725744909793,-7.321848253742827e-05,-3.5383894851175727e-05,9.323059788958132e-05,0.00011879872113107822,-0.3382316827774048,0.9572511315345764,0.1885244995355606,-0.2239521443843841,0.2629261314868927,-0.1392769813537597
1749040739.538547,2.1399200682004245,-2.497356649363841,0.37840315192638396,1.3834494120662086,-6.1150142593411685,-3.21854245791978,-0.00013246507817896348,-0.00023051511109459905,-7.07491351216216e-05,-5.553862293040851e-05,9.292333927586737e-05,0.0001435133875839734,-0.3382316827774048,0.9572511315345764,0.1885244995355606,-0.2239521443843841,0.2629261314868927,-0.1392769813537597
1749040739.5386136,2.1399220434289306,-2.497359539093978,0.3784028791775784,1.3834487492192695,-6.1150155281619005,-3.2185442162208453,-6.745061709184362e-05,-0.00022386951326057564,-6.658067845083557e-05,-7.1683787678589e-05,9.07447202931794e-05,0.00015615936625702046,-0.3482150435447693,0.9535732865333556,0.195021390914917,-0.2317995727062225,0.2364250272512436,-0.1499881893396377
1749040739.5386798,2.1399241935826465,-2.49736182386266,0.3784025440544054,1.3834480723546059,-6.115017047884738,-3.2185458568551106,1.0724565437939291e-05,-0.00021694445140322058,-6.065309212101623e-05,-7.99758490502917e-05,8.634780232730069e-05,0.0001517211213755279,-0.344378113746643,0.9309142231941224,0.1871433556079864,-0.2312641590833664,0.2353468239307403,-0.1257453709840774
1749040739.5387454,2.139926447085255,-2.4973635132317953,0.3784021554883487,1.3834474272189357,-6.115018753806011,-3.218547407031638,9.634781285613892e-05,-0.00020963118368861808,-5.310283895982449e-05,-7.587826439310667e-05,7.950909352203201e-05,0.00012570950424106532,-0.318577766418457,0.926449716091156,0.1925031244754791,-0.2242612540721893,0.2464376986026764,-0.1443229168653488
1749040739.538812,2.139928707889012,-2.4973646429850263,0.37840172483974865,1.3834468813531102,-6.115020563915648,-3.2185489051713776,0.000180893159782053,-0.00020182849036887244,-4.430684234713122e-05,-5.425436494644127e-05,7.018071692713216e-05,7.477099522597836e-05,-0.3232116997241974,0.953242838382721,0.197477102279663,-0.2304220348596573,0.2593331933021545,-0.140696182847023
1749040739.538875,2.1399308616443102,-2.497365268481761,0.37840126499044524,1.3834465224319772,-6.115022390123032,-3.2185503938178583,0.00025302347899587314,-0.0001934549187090784,-3.4913604387817065e-05,-9.508838681021186e-06,5.8539936219966145e-05,-2.646164386533082e-06,-0.3189018368721008,0.9407991766929626,0.1896188557147979,-0.2172031700611114,0.2557437419891357,-0.1306907385587692
1749040739.5389428,2.1399327819834943,-2.4973654577805107,0.37840078855861115,1.3834464539148263,-6.115024148667485,-3.2185519103086597,0.0002988411686074407,-0.0001844619686492573,-2.5855215687030538e-05,6.423276061751552e-05,4.503025181573005e-05,-0.0001056173289709964,-0.3349162340164184,0.9351171851158142,0.1993528306484222,-0.2147029042243957,0.2525506019592285,-0.1435880064964294
1749040739.539009,2.139934335488747,-2.497365285674983,0.37840030511823547,1.383446789203585,-6.1150257683390254,-3.218553476460556,0.00030240942179528144,-0.00017484679884928437,-1.833452076455919e-05,0.00017292343038392415,3.038801099296559e-05,-0.00023011911709368434,-0.3282558619976043,0.9387313723564148,0.2007768452167511,-0.2146851122379303,0.2665123343467712,-0.1520473957061767
1749040739.5390756,2.139935384799464,-2.4973648294367585,0.37839981792296395,1.3834476456653806,-6.1150271959361,-3.2185550889771286,0.0002465398323626985,-0.00016466281720832989,-1.3782961637368869e-05,0.0003223952022455092,1.5649034791658763e-05,-0.00036853076867400785,-0.322021871805191,0.9261698126792908,0.1942566931247711,-0.2214385718107223,0.2543345391750335,-0.1457503885030746
1749040739.5391388,2.139935790398519,-2.4973641665451805,0.3783993210957697,1.383449139529164,-6.115028398987616,-3.2185567120692564,0.00011381003795124456,-0.00015402659340668193,-1.3786666133808598e-05,0.0005181862717005134,2.1313530880387997e-06,-0.0005093378259800616,-0.3567933738231659,0.9226048588752748,0.1791728734970092,-0.2093279361724853,0.2647270560264587,-0.1436907649040222
1749040739.5392065,2.1399354121496783,-2.497363374048237,0.378398798378994,1.3834513821565937,-6.115029365956812,-3.218558273077692,-0.00011225986194593582,-0.00014311997982889772,-1.99811226780344e-05,0.0007654204359990624,-8.60719781772795e-06,-0.0006371177423041479,-0.3687205910682678,0.9149917960166932,0.1730920970439911,-0.1877127289772033,0.2468195110559463,-0.1471946090459823
1749040739.5392728,2.1399341114914883,-2.497362528735128,0.37839822424793806,1.3834544777985438,-6.115030104021379,-3.2185596612705734,-0.0004459768954096728,-0.0001321871032608009,-3.391812988464993e-05,0.0010687577055386432,-1.4834319431900473e-05,-0.0007328780529502466,-0.3567250967025757,0.9459509253501892,0.154831051826477,-0.1896225661039352,0.2668779790401459,-0.12420404702425
1749040739.5393376,2.1399317545892536,-2.4973617072285723,0.37839756750818404,1.3834585227742788,-6.115030634491106,-3.2185607297748464,-0.0008983217392671168,-0.00012152668320777967,-5.6912370721241005e-05,0.0014324172812390683,-1.4725776955794893e-05,-0.0007747962806696231,-0.3632123470306396,0.9408835768699646,0.1702398359775543,-0.1818047314882278,0.2744099497795105,-0.1420490443706512
1749040739.5394015,2.1399282160389252,-2.497360985227386,0.3783967967035852,1.3834636060076062,-6.1150309862770005,-3.2185613006683,-0.0014760143261734332,-0.00011148046464496729,-8.987859390076717e-05,0.0018602447146101248,-6.456313756874115e-06,-0.00073937624416813,-0.3900418877601623,0.9408829808235168,0.1637361943721771,-0.1882664710283279,0.2611509561538696,-0.1288506984710693
1749040739.539466,2.1399233822150645,-2.4973604352441208,0.3783958861446306,1.3834698108978778,-6.115031188422857,-3.2185611732440442,-0.0021809278754130945,-0.0001024181971114242,-0.0001331735445615137,0.0023557604651551515,1.1712097820993158e-05,-0.0006029893977540042,-0.4129575490951538,0.9415358901023864,0.1608314514160156,-0.1766430735588073,0.2786790728569031,-0.11997652053833
1749040739.5395322,2.1399171532627794,-2.4973601224674433,0.37839482129414376,1.3834772183990862,-6.115031263167708,-3.218560135081915,-0.0030099345095740476,-9.471884644284443e-05,-0.00018645889064272596,0.0029221025669261672,4.135730287802582e-05,-0.00034371576654896864,-0.4057997167110443,0.9259213805198668,0.1746328920125961,-0.1876357495784759,0.2811979949474334,-0.1000837162137031
1749040739.539683,2.1399094430732015,-2.497360099012609,0.37839360248370335,1.3834859107800224,-6.115031221047994,-3.2185579749300213,-0.003955184412660412,-8.874713892851261e-05,-0.000248601721027861,0.0035617798025215468,8.385281358161653e-05,5.665741420271051e-05,-0.3745700120925903,0.9551392197608948,0.1552419960498809,-0.1855741590261459,0.2926461100578308,-0.095853678882122
1749040739.541036,2.139900177160877,-2.497360397603649,0.37839224630231816,1.3834959749676676,-6.115031059027566,-3.218554495870204,-0.005004725132955496,-8.482447081306525e-05,-0.00031762697208688017,0.0042761910602843985,0.0001403656718351831,0.0006106722831561686,-0.3875334560871124,0.9790467619895936,0.1630979776382446,-0.1660472005605697,0.2930247187614441,-0.0825476422905922
1749040739.5822833,2.1398892888538263,-2.4973610262244437,0.37839078449240743,1.3835075040327827,-6.115030761540362,-3.218549527006225,-0.006143303324001432,-8.319373182154422e-05,-0.00039073065387123975,0.005064930049009561,0.00021190723401793505,0.0013235008754193362,-0.4019621610641479,0.9734627604484558,0.1624862849712371,-0.1679083704948425,0.2937349081039428,-0.0515338890254497
1749040739.5823298,2.139876714443393,-2.497361965107157,0.3783892607927321,1.3835205956010164,-6.1150303030479565,-3.218542931988694,-0.00735319465665667,-8.397859020373155e-05,-0.00046435358758920676,0.005924959457195549,0.00029944242614555507,0.002191747564585502,-0.4262217879295349,0.9522023797035216,0.1756864190101623,-0.168062686920166,0.2804678976535797,-0.0653342083096504
1749040739.5823698,2.139862388019526,-2.4973631666251164,0.37838772663667786,1.383535346755001,-6.115029650125525,-3.2185346131570176,-0.008614968534621154,-8.713911087647794e-05,-0.0005343036009883794,0.006849784788638033,0.00040405336345899616,0.003202963215266825,-0.4247013330459595,0.9920701384544371,0.180483877658844,-0.1802847385406494,0.3059717416763305,-0.0580392591655254
1749040739.5824127,2.1398462367735647,-2.4973645577885444,0.3783862366720924,1.3835518459669405,-6.115028761768383,-3.2185245110243152,-0.009908164856203354,-9.242703928263819e-05,-0.0005959041045394859,0.007828775763533937,0.0005271381401682151,0.004336010049577503,-0.418358564376831,0.9834768176078796,0.1882738173007965,-0.1488119810819625,0.2962973117828369,-0.0394422635436058
1749040739.5824523,2.139828177650571,-2.497366044692977,0.378384844766611,1.383570163268951,-6.115027588085757,-3.2185126000186655,-0.01121190294184953,-9.934547195316599e-05,-0.0006441451698908275,0.008846773469573676,0.0006706057825518964,0.005562312621728199,-0.4150561988353729,1.0200159549713137,0.187263622879982,-0.1631242632865905,0.2765432298183441,-0.0197178181260824
1749040739.5824902,2.1398081163778673,-2.4973675184867927,0.3783836008358318,1.383590339943507,-6.115026068723475,-3.2184988821857536,-0.012505455865011299,-0.00010711873197843484,-0.0006738225107118432,0.009884092337615731,0.0008370095227394653,0.0068479206587878415,-0.41865274310112,1.0092017650604248,0.1918021887540817,-0.1598043888807296,0.2954446673393249,-0.018718060106039
1749040739.582528,2.1397859498390757,-2.497368862780649,0.37838254870530935,1.383612378679902,-6.115024132611256,-3.218483380456164,-0.013768824008194153,-0.00011467886296976869,-0.0006796653715529993,0.010916985653065304,0.0010295534654982971,0.008156221318581,-0.4020397961139679,1.0059599876403809,0.2051341235637664,-0.1468078792095184,0.3129686713218689,-0.0082969078794121
1749040739.5825691,2.139761572136015,-2.497369962452696,0.37838172517301105,1.3836362349242817,-6.115021700157312,-3.2184661322889307,-0.014983340775194939,-0.00012067506639270572,-0.0006564675906906423,0.011918596184346337,0.0012519216591204926,0.009451078367115293,-0.4370251297950744,1.0219740867614746,0.2126595377922058,-0.1679242998361587,0.3069934248924255,0.0045798709616065
1749040739.582611,2.1397348836128347,-2.4973707133778813,0.37838116026821333,1.3836618103721188,-6.115018688233719,-3.218447183657492,-0.016132337166276843,-0.00012351149834761063,-0.0005992409871963565,0.01286036355501168,0.00150791350538356,0.010700130725818215,-0.4354414045810699,1.0402824878692627,0.2259118854999542,-0.1497605741024017,0.3163983821868896,0.0247060675173997
1749040739.5826497,2.139705801336862,-2.4973710320270506,0.37838087845878304,1.3836889498860252,-6.11501501744139,-3.218426582853565,-0.01720187056827952,-0.00012141701733496516,-0.000503405430923562,0.013713813181338755,0.001800915214321206,0.011877941412145238,-0.4300979375839233,1.0379514694213867,0.2399890422821045,-0.1630741655826568,0.3208757638931274,0.0121092963963747
1749040739.5826874,2.1396742695786806,-2.4973708635620673,0.37838090044883926,1.3837174429989143,-6.1150106204217005,-3.218404373542412,-0.018181484265106053,-0.00011254766085995812,-0.0003650172495362416,0.014452610554975832,0.0021332791875633746,0.012968656853229553,-0.4788309037685394,1.0651121139526367,0.2496129870414734,-0.1565697938203811,0.336130678653717,0.0228962339460849
1749040739.582729,2.139640269439825,-2.497370187160132,0.37838124525835926,1.3837470305482262,-6.1150054496367146,-3.218380586891955,-0.019064917271370854,-9.511883303547291e-05,-0.00018102049030125877,0.015054725718029856,0.0025057096514077893,0.013967840302812317,-0.4581896364688873,1.0755054950714111,0.2586201429367065,-0.1635708063840866,0.3329567909240722,0.0169583149254322
1749040739.5827682,2.1396038271919613,-2.4973690177322956,0.3783819323528233,1.3837774163377539,-6.114999483083872,-3.21835523318786,-0.01985064598647635,-6.755965696546621e-05,5.051130516059219e-05,0.01550451496819302,0.002916757909415706,0.014883209503936961,-0.426847755908966,1.0817039012908936,0.2626118063926697,-0.1546355932950973,0.330271303653717,0.0227924026548862
1749040739.5828063,2.139565020693373,-2.4973674037897213,0.378382983670126,1.3838082833002139,-6.114992726624628,-3.2183282937048707,-0.020542128151970127,-2.8677260971196208e-05,0.0003301866172368506,0.015794500047177144,0.003362515811884658,0.015734144720939258,-0.4256126880645752,1.0865252017974854,0.2791817486286163,-0.1782656162977218,0.3439424633979797,0.0326244942843914
1749040739.5828433,2.139523982717055,-2.4973654218048136,0.3783844255410861,1.383839313273908,-6.114985211910859,-3.2182997135151945,-0.021147648598350385,2.2185295311540055e-05,0.0006572059898190118,0.015926625839578597,0.003836567608102053,0.016550009320371713,-0.4404261112213135,1.0995495319366455,0.2915799021720886,-0.1640374958515167,0.3423807621002197,0.0459959805011749
1749040739.5828838,2.139480899755638,-2.4973631679005193,0.37838629062539186,1.3838702089878296,-6.1149769894828845,-3.2182693955947976,-0.021679734497736032,8.501640369528705e-05,0.001029403598710476,0.015912818205787334,0.004330225279376491,0.017367491423668936,-0.4229964315891266,1.0972540378570557,0.3081806004047394,-0.1702847182750702,0.3484196066856384,0.0408460795879364
1749040739.5829215,2.1394360051217514,-2.4973607480451236,0.3783886198561489,1.3839007162560246,-6.1149681176661534,-3.2182371963727183,-0.022154195186360092,0.00015904820167335007,0.001443425937259738,0.01577474258920361,0.004833036037624786,0.0182272931618041,-0.4300057590007782,1.1055541038513184,0.3020194470882416,-0.1773202121257782,0.3503076434135437,0.0522821098566055
1749040739.5829592,2.1393895657764963,-2.4973582681105126,0.37839146399393525,1.3839306440983035,-6.114958649253856,-3.2182029228712947,-0.022588913761386387,0.00024273191588553936,0.0018950145870062398,0.015542763841252699,0.005333516329523698,0.019170548779240622,-0.4168296456336975,1.1092486381530762,0.2923633754253387,-0.1802206039428711,0.3549155592918396,0.069992296397686
1749040739.5830033,2.139341863185109,-2.4973558250711037,0.37839488408510563,1.38395988079844,-6.114948619050065,-3.2181663317480895,-0.02300254703222212,0.0003337910739323899,0.0023793242081895103,0.015254203651939715,0.005820037679784079,0.020235347401063686,-0.4000867009162903,1.1166198253631592,0.3070850372314453,-0.1885790526866912,0.3619753718376159,0.1010421141982078
1749040739.5830462,2.139293169700081,-2.497353500215465,0.3783989502550571,1.3839884046194089,-6.114938035429194,-3.2181271307996546,-0.023413278408365386,0.0004293620191660949,0.002891195305870436,0.014951065772651677,0.006281769308117825,0.02145368555333696,-0.4127156436443329,1.1332757472991943,0.3257447183132171,-0.171111449599266,0.3617583215236664,0.0912432894110679
1749040739.5831487,2.1392437233434385,-2.4973513546973827,0.378403738805001,1.384016288647981,-6.114926877907636,-3.218084983672736,-0.023837740451649228,0.0005262225219706416,0.00342532659807297,0.014677441535485848,0.006709572206187901,0.02284909605760406,-0.4178234338760376,1.1527910232543943,0.3454698324203491,-0.1867963820695877,0.3601075708866119,0.104234792292118
1749040739.585008,2.13919370480238,-2.4973494274215446,0.3784093281194755,1.3840436997986987,-6.114915100947763,-3.218039518399533,-0.024290200115696076,0.000621096660283835,0.003976341472388252,0.014476814578034278,0.007096740229404333,0.024435104923203513,-0.4187153577804565,1.1494786739349363,0.3465361595153808,-0.1670369058847427,0.3603074252605438,0.1162582039833068
1749040739.6262865,2.139143220408787,-2.497347735252779,0.37841579406679254,1.384070892308024,-6.114902642774477,-3.2179903398515335,-0.024782076959536357,0.0007110097528102143,0.004538786578700438,0.01438945865835264,0.0074394987627649485,0.026214565313199368,-0.3889347016811371,1.1622285842895508,0.3505729436874389,-0.1822316199541092,0.3677056133747101,0.1184304058551788
1749040739.626332,2.1390922938221895,-2.4973462755067337,0.378423205352435,1.3840981961801473,-6.1148894373225735,-3.2179370455382004,-0.025321828236048376,0.0007936560420597162,0.005107115563277797,0.014450083936992554,0.0077372029549220775,0.02817982303045294,-0.3837664127349853,1.16180419921875,0.3371506631374359,-0.1703429371118545,0.3779615759849548,0.127343013882637
1749040739.6263723,2.1390408674706047,-2.497345030209064,0.378431618917269,1.3841260011858127,-6.114875427305769,-3.217879243651962,-0.025915180150320564,0.0008677379744500377,0.005675698924767308,0.01468585525413309,0.00799222086247474,0.030313599935470587,-0.3998506963253021,1.176886796951294,0.3437682390213012,-0.1763369590044021,0.3776398301124573,0.1528528928756714
1749040739.6264117,2.1389888129245525,-2.4973439708268756,0.3784410752837678,1.3841547372669987,-6.114860576390736,-3.217816571943986,-0.026565625827965213,0.0009332387451435441,0.006238879793432839,0.015114886519368202,0.008209529957282918,0.032590451174870194,-0.3998506963253021,1.176886796951294,0.3437682390213012,-0.1763369590044021,0.3776398301124573,0.1528528928756714
1749040739.6264498,2.138935947663905,-2.497343061768656,0.3784515939334912,1.3841848524954175,-6.114844878530191,-3.217748715862748,-0.02727506943482771,0.0009915961258679714,0.006791079847619671,0.01574529952840845,0.008396084973830115,0.03497865392363255,-0.409912645816803,1.2011981010437012,0.364593505859375,-0.1575421392917633,0.3696241974830627,0.1636981815099716
1749040739.6264882,2.13888205467619,-2.4973422614859984,0.37846316923695267,1.3842167899176487,-6.114828362961752,-3.2176754244343964,-0.028044483253101674,0.0010457538055605108,0.007326950763187934,0.016574912805751307,0.008560025770722068,0.03744239821878631,-0.3806717991828918,1.206371784210205,0.3595080971717834,-0.1451107859611511,0.374284952878952,0.1745116114616394
1749040739.62653,2.1388269014206336,-2.4973415212749472,0.3784757678071199,1.3842509646470609,-6.114811094304413,-3.2175965226282246,-0.028874457221319615,0.0011000768863844684,0.007841558924666762,0.017591592865100952,0.008709794129016629,0.0399441515518866,-0.401007741689682,1.212028741836548,0.3666845560073852,-0.1720069646835327,0.3689591288566589,0.1527718305587768
1749040739.626568,2.138770255709555,-2.4973407829900256,0.3784893281650921,1.3842877425833187,-6.114793168187335,-3.2175119192678374,-0.029765554451309687,0.0011601309951676066,0.00833058352356693,0.0187742597967452,0.008853233703803946,0.042447053255367,-0.4378902912139892,1.2398247718811035,0.3952967226505279,-0.1641781032085418,0.3937949240207672,0.1740613132715225
1749040739.6266048,2.1387118973138737,-2.4973399771887372,0.37850376333249985,1.3843274222540392,-6.114774703538771,-3.217421609763188,-0.03071843609695519,0.0012323384476513525,0.008790502644756214,0.020094497126891857,0.008996763154823107,0.044917174526779895,-0.4187430739402771,1.2290401458740234,0.395513653755188,-0.1330173462629318,0.4088279008865356,0.1857993453741073
1749040739.6266425,2.138651625118015,-2.497339022838527,0.3785189665022568,1.3843702212985822,-6.114755833066263,-3.2173256732181756,-0.031733766153877345,0.0013235374754135688,0.009218737531922054,0.021518675166994402,0.009144725526342334,0.04732546784698117,-0.3716062903404236,1.2489032745361328,0.3730851411819458,-0.1401232481002807,0.4101307392120361,0.1788576543331146
1749040739.6266792,2.1385892603650225,-2.4973378291490356,0.3785348192878652,1.384416268856081,-6.114736693616053,-3.217224264102478,-0.032811934363238024,0.0014404791584971064,0.009613724033988698,0.023010454574909134,0.009299008373395949,0.04964923515039244,-0.4291990101337433,1.2656114101409912,0.3818345665931701,-0.1391923576593399,0.4039088487625122,0.1804803907871246
1749040739.6267164,2.1385246469039454,-2.49733629960238,0.37855120135215914,1.3844656046630006,-6.114717417781297,-3.217117599569808,-0.03395265349708717,0.0015893008102759116,0.009974892283418822,0.02453348856882341,0.009458994313438596,0.05187298003370843,-0.4155501127243042,1.2599503993988037,0.3838655948638916,-0.1477031260728836,0.3962362408638,0.1694589704275131
1749040739.626753,2.1384576493507543,-2.4973343377895323,0.37856799985239953,1.3845181851546355,-6.114698127264557,-3.217005944178491,-0.03515451553401551,0.0017750159190706967,0.01030256518804043,0.02605409189793454,0.009621853499032851,0.05398858287359364,-0.4194488525390625,1.2793575525283811,0.3898838758468628,-0.1690959483385086,0.4174716770648956,0.1907538175582885
1749040739.6267898,2.1383881499504622,-2.4973318541747602,0.3785851173489925,1.3845738962536938,-6.114678927545254,-3.2168895938696975,-0.03641462030627931,0.0020010618755888923,0.010597819721904588,0.027543609120501356,0.009783144357004689,0.05599483652208243,-0.4429114460945129,1.2648175954818726,0.3911182582378387,-0.1569880843162536,0.4206759929656982,0.1660262942314148
1749040739.626827,2.1383160449178344,-2.497328772536777,0.3786024774174366,1.3846325717346428,-6.11465990305874,-3.2167688606556073,-0.037728389972816405,0.0022689481575782836,0.01086237128819226,0.028980219381172817,0.009937653198410138,0.057896475625862774,-0.4393934607505798,1.3089319467544556,0.3797840476036072,-0.1637296825647354,0.4292848110198974,0.1723816990852356
1749040739.6268637,2.138241240958053,-2.497325034760825,0.378620027788442,1.3846940151515144,-6.1146411126049705,-3.216644058906486,-0.039089642384062914,0.0025780456919605216,0.01109852928168137,0.030349977135823002,0.010080374396939108,0.05970289752033287,-0.4523200392723083,1.297603726387024,0.3976917564868927,-0.1735043227672577,0.4434612691402435,0.186153769493103
1749040739.6269,2.1381636523001717,-2.4973206029857398,0.3786377411830196,1.3847580225414828,-6.114622585416925,-3.2165154937029343,-0.04049093422725006,0.0029255463414136654,0.011309236006495605,0.03164700047492925,0.010207509793839498,0.06142679287276329,-0.4487274885177612,1.292203426361084,0.4074248075485229,-0.1719192266464233,0.4314933717250824,0.1883816570043563
1749040739.626937,2.1380831981807926,-2.4973154588125412,0.3786556140961803,1.3848244028342305,-6.114604318390541,-3.2163834514532166,-0.04192412482588818,0.0033065977458481216,0.01149815920611064,0.03287284868100455,0.010317353148882298,0.0630828773998683,-0.4290571808815002,1.3124381303787231,0.40585857629776,-0.1571559011936187,0.4207664430141449,0.1847116351127624
1749040739.6269736,2.1379998007451766,-2.49730960005799,0.37867366376035044,1.384892993459048,-6.114586274564033,-3.216248192668802,-0.04338106769409016,0.0037145913557173832,0.011669780766133023,0.03403524099045759,0.010410928078561652,0.06468685036914847,-0.4643126428127289,1.3085951805114746,0.4154660999774933,-0.154415100812912,0.4251843094825744,0.1846338659524917
1749040739.627018,2.137913383711781,-2.4973030359687143,0.3786919236199266,1.3849636699665648,-6.114568382883436,-3.216109946430067,-0.04485431531950271,0.004141565114100706,0.011829419423024803,0.035146336080013864,0.010492271128633646,0.0662546265316768,-0.4648127555847168,1.3306195735931396,0.4132533967494964,-0.1565323024988174,0.4316313564777374,0.1789213716983795
1749040739.6272335,2.1378238723085614,-2.497295781820441,0.37871043800545934,1.3850363499308775,-6.114550539764155,-3.2159689059036913,-0.046337724427873074,0.004578684744325851,0.011983139825314959,0.03622081303331958,0.010568299895989083,0.06780183365931272,-0.4519205093383789,1.3361819982528689,0.4303363561630249,-0.1680928170680999,0.4442650973796844,0.2054420709609985
1749040739.6290224,2.1377311946697364,-2.497287853670367,0.3787292571219772,1.385110992314916,-6.114532613231581,-3.21582522438777,-0.04782686985419074,0.005016780896821626,0.012137526428044127,0.03727397918820649,0.010648274839681626,0.06934355594266145,-0.4554124474525451,1.3362642526626587,0.4358270764350891,-0.1504663079977035,0.470024973154068,0.2073440849781036
1749040739.6743002,2.13763528443965,-2.497279263870334,0.3787484335373168,1.385187593701737,-6.114514449949067,-3.2156790115802383,-0.04931920719906273,0.005446926089328514,0.012299331153066263,0.038320093008480945,0.01074293280288646,0.07089430497815828,-0.4560026526451111,1.3319917917251587,0.4322086572647095,-0.1543441116809845,0.43829345703125,0.2106220871210098
1749040739.6743484,2.137536084128519,-2.497270017806022,0.37876802083550265,1.38526618252062,-6.1144958844443105,-3.2155303299812465,-0.050813961761601446,0.005861025010007892,0.012475031500357817,0.039371042766995525,0.010863416021424892,0.07246816810859523,-0.4356141686439514,1.3375953435897827,0.4211492240428924,-0.1491328775882721,0.4505938589572906,0.1863429695367813
1749040739.6743903,2.137433548681897,-2.497260112235297,0.3787880742041776,1.3853468119030494,-6.114476748980422,-3.215379191656086,-0.052311761225829125,0.006252369804250511,0.01267035503595761,0.04043546757648494,0.011020133000752769,0.07407901338272585,-0.4382698833942413,1.3323222398757937,0.4302424192428589,-0.1574203222990036,0.4502942264080047,0.186218649148941
1749040739.674503,2.1373276485535877,-2.4972495354834465,0.3788086519505734,1.3854295513585035,-6.114456882336635,-3.215225556055655,-0.05381406993327799,0.006616093788234578,0.01288983292278736,0.04151834632680527,0.01122167713815815,0.07574057110882527,-0.4682816565036773,1.3599852323532104,0.4398155212402344,-0.1582644432783126,0.4599405229091644,0.193348079919815
1749040739.6745691,2.1372183714881277,-2.4972382694640936,0.3788298167098088,1.3855144772796928,-6.1144361364196955,-3.2150693299611803,-0.05532251882638209,0.006949455492302588,0.013136438189161317,0.042621021565525524,0.011473910085002644,0.0774662215857453,-0.470600426197052,1.3565068244934082,0.4368254244327545,-0.1518641710281372,0.4780866801738739,0.203625738620758
1749040739.6746378,2.1371057225417616,-2.497226293085865,0.37885163549461287,1.3856016624591523,-6.114414380749566,-3.2149103704551245,-0.05683824925805559,0.007251903675238373,0.013411347616127738,0.04374158462315758,0.011779295187394727,0.07926840794805255,-0.4920543134212494,1.3602310419082642,0.4390950202941894,-0.143271341919899,0.4721744060516357,0.2281066179275512
1749040739.6747048,2.1369897225210512,-2.4972135863598655,0.3788741783858854,1.385691165285771,-6.114391505741128,-3.214748490987892,-0.0583613902597247,0.007524908718740416,0.013713847576585277,0.04487553081039389,0.012136540476228185,0.08115771297802576,-0.4820035398006439,1.34915292263031,0.4516392946243286,-0.1372987478971481,0.4674098193645477,0.2094487845897674
1749040739.6747706,2.1368704054880863,-2.4972001346451416,0.37889751611399497,1.385783019930161,-6.114367425843718,-3.214583469584652,-0.05989076100161716,0.0077715878807751255,0.014041390098262328,0.04601659124427127,0.012540580987504877,0.08314172308530789,-0.473729521036148,1.3848743438720703,0.4491115212440491,-0.122347205877304,0.4767458736896515,0.2065446078777313
1749040739.6748366,2.136747815904101,-2.497185932801226,0.3789217168938701,1.3858772293004615,-6.114342083055574,-3.2144150577417765,-0.06142383994926587,0.007996189430332172,0.014389795330342878,0.04715765111034202,0.012982901559423504,0.08522382848211117,-0.4869959652423858,1.390310525894165,0.4555794596672058,-0.1306372135877609,0.4777336418628692,0.2362185269594192
1749040739.674903,2.136622005589532,-2.497170989167802,0.378946842833736,1.3859737624552277,-6.114315450503362,-3.214242988895152,-0.06295698939470794,0.008203520763475995,0.01475358608273964,0.0482916697785677,0.013452177965141065,0.08740210552515781,-0.5003668069839478,1.3846566677093506,0.4477390348911285,-0.1261936426162719,0.4753028750419616,0.2232144773006439
1749040739.6749723,2.136493030530116,-2.4971553291044324,0.378972946180747,1.3860725573348134,-6.1142875351401,-3.214066986205125,-0.06448588277312177,0.008398401171014654,0.015126427352966477,0.04941252690184038,0.013935193894439953,0.08966842897970638,-0.4545683264732361,1.3872307538986206,0.4497555494308471,-0.1479621082544326,0.4894913136959076,0.2322070896625518
1749040739.6750443,2.1363609478686008,-2.4971389975368763,0.37900006559368526,1.3861735284440486,-6.1142583784741245,-3.21388677029904,-0.06600605093196449,0.0085851979144379,0.01550163106053829,0.05051573063623136,0.014417966995766907,0.09200796786875026,-0.4508883953094482,1.3880574703216553,0.4438437819480896,-0.1589132100343704,0.4628249108791351,0.2312590777873993
1749040739.675116,2.136225813754388,-2.497122059840266,0.37902822256712604,1.3862765780754285,-6.114228054552353,-3.213702068171994,-0.06751344582777069,0.008767481616018785,0.01587267731481603,0.051598939424513934,0.014886987727155656,0.09439920636656363,-0.4828892946243286,1.407774806022644,0.456791341304779,-0.1551174521446228,0.474720150232315,0.2318293154239654
1749040739.6751845,2.136087682494102,-2.497104600434767,0.3790574181745253,1.3863816091803804,-6.11419666497182,-3.2135126244681893,-0.06900493158959867,0.008947823727766781,0.016233701908397152,0.05266226775918779,0.015330449042102746,0.09681458837328971,-0.4619764685630798,1.3851782083511353,0.4593072831630707,-0.1332414895296096,0.4760412275791168,0.2197478711605072
1749040739.675252,2.1359466066866477,-2.497086718553239,0.37908763047402144,1.3864885380711394,-6.114164331374723,-3.213318215816941,-0.07047864918803293,0.009127749464756522,0.01657990707976193,0.053708365747250325,0.015739333811664986,0.0992218181257975,-0.4878844618797302,1.409314513206482,0.4622296690940857,-0.1459110528230667,0.478670209646225,0.2343571782112121
1749040739.67532,2.135802637384436,-2.497068520872211,0.3791188130932047,1.386597305511709,-6.114131186506691,-3.2131186679430397,-0.07193423266400081,0.009307843928873927,0.0169078664948953,0.054742275343854584,0.016108234258659634,0.1015857761418871,-0.4552417397499084,1.4178234338760376,0.4660644829273224,-0.152399480342865,0.4804291427135467,0.2346267700195312
1749040739.6753874,2.13565582331612,-2.4970501113557866,0.37915089552187164,1.3867078851427552,-6.1140973650891075,-3.2129138742456638,-0.07337286760008027,0.009487984979175123,0.017215709942997773,0.055771071653168615,0.016435801860277623,0.1038709422443457,-0.4812828600406647,1.4078322649002075,0.445652037858963,-0.136018693447113,0.4886470437049866,0.2271715998649597
1749040739.6754544,2.135506208783729,-2.4970315797010434,0.37918378549399545,1.3868202884922802,-6.114062995328987,-3.212703813762834,-0.07479718824066359,0.009667649786088136,0.017503184064137426,0.05680330307239793,0.01672476521120441,0.10604415643985021,-0.4818146526813507,1.4105716943740845,0.4678839445114136,-0.1457029581069946,0.4764001667499542,0.2180050313472747
1749040739.6755247,2.1353538305626008,-2.497012990646448,0.3792173736552971,1.3869345661730388,-6.114028191316564,-3.2124885660170666,-0.07621101791874066,0.009846224166531812,0.01777159294435556,0.057848254596228124,0.01698150489247112,0.10807748940041356,-0.4784242808818817,1.4215832948684692,0.4659018814563751,-0.1259496510028839,0.470590740442276,0.2090630233287811
1749040739.6755924,2.135198714502605,-2.4969943765105915,0.37925154054481763,1.387050805281855,-6.113993046429602,-3.2122683202200744,-0.07761896485808073,0.010023246176786689,0.01802362910159797,0.05891507088190135,0.017215233322297862,0.10995093922723248,-0.4439316093921661,1.4175138473510742,0.4623636603355407,-0.1270958483219146,0.4817878007888794,0.2058644443750381
1749040739.67566,2.135040872445104,-2.4969757345019725,0.37928616563034123,1.3871691232613859,-6.113957628193347,-3.2120433768521086,-0.07902589159427054,0.010198538704245313,0.018263111622390336,0.06001178395311266,0.017436885909993434,0.11165463822698529,-0.4786777794361114,1.4173082113265991,0.4672403335571289,-0.1460340917110443,0.4991259574890136,0.1909115463495254
1749040739.6757278,2.1348802999709773,-2.496957028979013,0.37932113757112806,1.3872896583822083,-6.113921975251514,-3.211814140660133,-0.08043629121741261,0.010372216967055932,0.01849465258805732,0.0611442963016054,0.017657876378256943,0.11319027504593031,-0.481452465057373,1.4381402730941772,0.4788561761379242,-0.1574555039405822,0.4976543188095093,0.2208605110645294
1749040739.6759348,2.1347169758003055,-2.4969381976486305,0.3793563642062296,1.3874125568010476,-6.113886096737154,-3.2115811051509,-0.08185363466341672,0.010544582471811162,0.018723275569442227,0.062315386111148716,0.01788889029544308,0.11457153420364877,-0.4325876533985138,1.4247018098831177,0.4876366555690765,-0.1358496248722076,0.5084764957427979,0.2124311178922653
1749040739.6770706,2.134550864090239,-2.496919160184142,0.37939178047451144,1.3875379563751684,-6.1138499736957685,-3.211344829212848,-0.08327979043734043,0.010715931667407703,0.018954012967672896,0.06352383916299348,0.0181388779506779,0.11582349901233441,-0.4901954531669616,1.4498409032821655,0.4843752086162567,-0.1222678273916244,0.5136485695838928,0.2077652364969253
1749040739.7182648,2.134381920727702,-2.49689982794481,0.3794273528719713,1.3876659682829395,-6.1138135619886125,-3.2111059065766736,-0.0847146406621842,0.010886318700714492,0.019191513265325824,0.06476385823927629,0.01841436347044329,0.11698109050014316,-0.4901584982872009,1.4576178789138794,0.4852634370326996,-0.1087821349501609,0.5092365145683289,0.2046757638454437
1749040739.7183104,2.134210103723922,-2.4968801140274244,0.37946307993226114,1.387796658652296,-6.113776796470886,-3.210864928821695,-0.08615600885208324,0.011055320660237124,0.01943969262224056,0.06602491398409187,0.018719123018409806,0.11808668884082008,-0.4915789067745209,1.4675524234771729,0.4867129623889923,-0.1064027845859527,0.5036565065383911,0.2346617877483368
1749040739.7183502,2.1340353863980375,-2.4968599432209206,0.3794989891468511,1.3879300332178188,-6.113739596669467,-3.2106224429957413,-0.08759996710648245,0.011221858591970854,0.019701464393534162,0.0672921501072034,0.019054215602058187,0.11918712611356863,-0.4901173710823059,1.4453903436660769,0.5027471780776978,-0.1382594853639602,0.5234392285346985,0.2293080687522888
1749040739.7183895,2.1338577708113693,-2.4968392611687675,0.3795351314723825,1.3880660280972592,-6.113701874085195,-3.2103789058353063,-0.0890415080986365,0.011384120762840644,0.01997857398921179,0.06854735440041232,0.01941829138367765,0.12033027733712781,-0.5100274682044983,1.4594172239303589,0.4931005537509918,-0.1232147291302681,0.5004293918609619,0.2269448190927505
1749040739.718428,2.133677298221842,-2.4968180414317778,0.3795715750020346,1.3882045090561357,-6.113663540595268,-3.210134637938525,-0.09047547459445524,0.011539612217057564,0.020271555570087675,0.06977040179689674,0.019808068668608254,0.12156150633212273,-0.4718788266181946,1.4507529735565186,0.4931713342666626,-0.1406141370534896,0.5086001753807068,0.2337679862976074
1749040739.7184658,2.133494053234418,-2.4967962890110647,0.37960839939696506,1.388345280381093,-6.113624516766354,-3.2098897826234367,-0.09189756849206074,0.011685325806897172,0.020579810609172397,0.07094100924810476,0.020218868550918825,0.12292023482991757,-0.504226565361023,1.4661483764648438,0.51035475730896,-0.1284919083118438,0.5235548615455627,0.2443499863147735
1749040739.7185037,2.133308158982449,-2.49677403965238,0.37964569224469025,1.388488103039063,-6.1135847387451525,-3.2096442749054743,-0.093305234089688,0.011818008941587632,0.020901787012744463,0.07204062679151671,0.020645122470773335,0.12443690459144414,-0.4629175662994385,1.4637702703475952,0.5051646828651428,-0.1177743524312973,0.5218173861503601,0.2511802911758423
1749040739.7185411,2.1331197622383424,-2.4967513553350744,0.37968354776027097,1.3886327203374906,-6.113544162793043,-3.2093978255189852,-0.09469823349587551,0.011934490711075326,0.021235218401710037,0.07305430138248781,0.021080810844232082,0.12613059401558163,-0.5059335827827454,1.4408941268920898,0.4965289235115051,-0.1307666003704071,0.5338185429573059,0.2189864516258239
1749040739.7185783,2.1329290095026163,-2.4967283169480083,0.3797220674185935,1.3887788879731138,-6.1135027669939035,-3.2091499233129506,-0.09607879897888522,0.012032029269449336,0.021577376159906233,0.0739723551989366,0.02151983231936224,0.12800751806610086,-0.4929342269897461,1.4737004041671753,0.5153933167457581,-0.134620115160942,0.5225991606712341,0.264544665813446
1749040739.7186158,2.1327360172021153,-2.4967050152083043,0.3797613614456319,1.3889264044753513,-6.113460549807959,-3.208899857351831,-0.09745133700069959,0.012108636920254589,0.021925295932192737,0.07479170924835797,0.021956325799173258,0.13006057925189932,-0.5066802501678467,1.472225546836853,0.5202363133430481,-0.1482206583023071,0.5337889790534973,0.284307599067688
1749040739.7186532,2.132540840717153,-2.4966815408929577,0.3798015497074983,1.3890751378686381,-6.113417525256987,-3.2086467582312324,-0.09882174667870747,0.012163343815585767,0.022275960457905458,0.07551667804271309,0.02238496356986329,0.1322700576749686,-0.4841307401657104,1.4813233613967896,0.5212340354919434,-0.1542888283729553,0.5471409559249878,0.2612465023994446
1749040739.7186904,2.1323434479724335,-2.4966579756806224,0.37984276041245674,1.3892250447977255,-6.113373715235498,-3.2083896565761187,-0.1001964842058148,0.0121963708934005,0.022626441331413512,0.0761590867397992,0.022801210409064132,0.13460542528504738,-0.5128139853477478,1.4696236848831177,0.517003059387207,-0.1638695895671844,0.5291042923927307,0.2486731112003326
1749040739.7187278,2.132143703664427,-2.4966343850641457,0.3798851252854009,1.389376179082766,-6.113329140747297,-3.208127555296409,-0.10158154493391265,0.012209193810433906,0.022974013889040804,0.07673762663959689,0.023201519009046,0.1370281342320235,-0.466551661491394,1.4779363870620728,0.5188198685646057,-0.1560509502887725,0.5330278873443604,0.2847198247909546
1749040739.7187653,2.1319413694704497,-2.4966108145413406,0.3799287706643616,1.3895286875812742,-6.1132838148638315,-3.2078595108324564,-0.10298153837441852,0.01220448844299216,0.023316259712145224,0.07727645947696694,0.023583425468998904,0.13949508794578525,-0.5348883867263794,1.465494155883789,0.5500711798667908,-0.1587025374174118,0.5259930491447449,0.268739104270935
1749040739.7188027,2.131736123386076,-2.4965872896420738,0.37997380516621687,1.389682792534159,-6.113237739977906,-3.2075847172203593,-0.10439899515480404,0.012185955833094026,0.023651164481738426,0.07780318580771656,0.02394552552205965,0.1419624053999181,-0.4877508878707886,1.4853575229644775,0.5274296402931213,-0.1385852694511413,0.5398429036140442,0.2715874910354614
1749040739.7188396,2.131527597738412,-2.496563819577422,0.380020305642558,1.3898387615708139,-6.113190910473031,-3.2073025852478705,-0.10583398248406493,0.012158034078938415,0.023977209317155107,0.07834638742932522,0.024287341866887076,0.14438905739689611,-0.4696281552314758,1.487093448638916,0.5296419858932495,-0.1522877514362335,0.5341930985450745,0.2511147260665893
1749040739.718881,2.1313154309215214,-2.4965404035682734,0.3800683037166681,1.3899968692815534,-6.113143319998204,-3.2070128072703827,-0.10728404592979365,0.01212551961564322,0.024293443747950373,0.07893302459299943,0.02460911995902729,0.14673998477164898,-0.4696281552314758,1.487093448638916,0.5296419858932495,-0.1522877514362335,0.5341930985450745,0.2511147260665893
1749040739.7189183,2.13109932331386,-2.4965170382771427,0.38011777537047126,1.390157357117606,-6.113094970924543,-3.2067153968578728,-0.10874446372939363,0.012093138963188461,0.02459952272252238,0.07958600395112882,0.02491160535229413,0.14898839632087796,-0.4794959425926208,1.4987398386001587,0.5204514265060425,-0.1058075055480003,0.5303086638450623,0.27035653591156
1749040739.7189553,2.1308790849612333,-2.4964937243893495,0.38016863597511397,1.3903203998973506,-6.11304588279589,-3.2064106930154646,-0.11020878652008946,0.012065128359040599,0.02489569354564048,0.08032221737675035,0.025195858276007115,0.1511170746448638,-0.4629797339439392,1.5233057737350464,0.5428899526596069,-0.1377404779195785,0.564063310623169,0.2641554176807403
1749040739.7189927,2.130654663913314,-2.4964704705135112,0.3802207425678173,1.3904860858206636,-6.112996096964969,-3.206099323606253,-0.11166960896560081,0.012044886277813284,0.025182729144079333,0.08115127824391251,0.025463149760291813,0.15311865623766008,-0.4165299832820892,1.4923765659332275,0.5380706787109375,-0.1275544613599777,0.5314408540725708,0.2439045161008834
1749040739.7191024,2.1304261500180472,-2.496447293273473,0.3802739038520787,1.3906544126901996,-6.112945675960575,-3.2057821316922626,-0.11311947103207749,0.012034757334779102,0.02546181288887624,0.0820750717924662,0.025714959779007014,0.1549949680177639,-0.4821290373802185,1.5080232620239258,0.5404036045074463,-0.0979147106409072,0.5486413836479187,0.2628194093704223
1749040739.7210338,2.130193756297524,-2.4964242135294574,0.3803278967260631,1.3908252983331628,-6.1128946977415515,-3.2054600776224724,-0.1145517448865931,0.012035982395387982,0.02573438250059027,0.08308812886903669,0.025953068677090463,0.15675559499489364,-0.5176716446876526,1.5111730098724363,0.5555417537689209,-0.098219908773899,0.5524502992630005,0.2620497345924377
1749040739.7622669,2.1299577847950433,-2.496401249686362,0.3803824868153068,1.3909986004883461,-6.1128432461576505,-3.2051341342061983,-0.11596135550049456,0.012048812597583584,0.026001939666344065,0.08417874091326205,0.026179707426621717,0.1584159294053322,-0.4204134345054626,1.5108535289764404,0.5443729162216187,-0.0932985916733741,0.5605628490447998,0.2485949695110321
1749040739.7623124,2.1297185849705476,-2.4963784096790707,0.3804374498616509,1.3911741410503329,-6.11279139952966,-3.2048051913670887,-0.11734520499672663,0.012072747044336779,0.026265833990914006,0.08533063822883756,0.026397714119780164,0.15999499532258635,-0.4126272201538086,1.478099346160889,0.537459135055542,-0.1302636265754699,0.5598452687263489,0.2617160677909851
1749040739.7623537,2.1294765118712515,-2.4963556834349796,0.3804925908772224,1.3913517303511609,-6.112739219475918,-3.204473982489564,-0.11870221745033133,0.01210683070095802,0.026527038799314374,0.08652495664717905,0.026610633896248823,0.16151333396496084,-0.4422256648540497,1.5419049263000488,0.5349130034446716,-0.1234994679689407,0.5336827039718628,0.281807005405426
1749040739.762393,2.129231889882887,-2.4963330375632,0.3805477586000969,1.3915311881638348,-6.112686741897646,-3.204141039327894,-0.1200330039900391,0.012149949081931873,0.02678595172717812,0.08774217519857162,0.026822701153626092,0.16299117827310247,-0.4425446987152099,1.516876459121704,0.552141010761261,-0.0859506800770759,0.5435209274291992,0.2448471039533615
1749040739.762432,2.128984986199897,-2.496310413725386,0.3806028538603683,1.3917123591712703,-6.112633971250954,-3.203806676825076,-0.12133925798025058,0.01220107456279222,0.027042267519150107,0.08896376468704356,0.02703866388215299,0.1644470643133464,-0.4613989889621734,1.529637575149536,0.553224503993988,-0.1075267940759658,0.5462863445281982,0.2610997855663299
1749040739.7624695,2.1287359961049406,-2.4962877314540366,0.38065783169941175,1.3918951218631292,-6.112580878239676,-3.2034710042642773,-0.12262307525468887,0.012259440212700009,0.027294972053565247,0.0901734159751002,0.027263449292476618,0.1658969416857606,-0.4629065990447998,1.5181005001068115,0.5545450448989868,-0.1205344200134277,0.5577225685119629,0.2595175802707672
1749040739.7625077,2.1284850399195014,-2.4962648950864708,0.38071269807728103,1.3920793911650235,-6.112527400531652,-3.2031339558104786,-0.12388640353628484,0.012324629138460434,0.027542488434983574,0.09135784503425443,0.027501711616567868,0.16735376729082058,-0.4745644032955169,1.524364352226257,0.5547752380371094,-0.0909297317266464,0.5589033365249634,0.270497977733612
1749040739.7625456,2.128232169670482,-2.496241803331713,0.38076750254211983,1.3922651162909676,-6.112473446199153,-3.2027953322924687,-0.12513075300063237,0.012396573934050935,0.027782972421396643,0.09250725269221223,0.027757328352933576,0.16882750346868053,-0.4783807396888733,1.5394833087921145,0.556911051273346,-0.1100210919976234,0.5651716589927673,0.2790097296237945
1749040739.7625833,2.1279773825207826,-2.49621835937545,0.3808223284236877,1.3924522759521956,-6.112418899865252,-3.20245484678419,-0.12635718749508223,0.012475473167948151,0.02801471771899544,0.09361554552017491,0.02803291606020863,0.17032539898504037,-0.4198192358016968,1.5266971588134766,0.550402045249939,-0.0937983691692352,0.5644936561584473,0.2416818290948867
1749040739.7626207,2.1277206377060365,-2.4961944796674107,0.3808772820464477,1.39264087297411,-6.112363631615289,-3.2021121682465097,-0.1275665183670548,0.012561650006105223,0.028236604067541606,0.0946804110141803,0.02832943217584434,0.1718524226191494,-0.4523588716983795,1.5207717418670654,0.5612269043922424,-0.0779472887516021,0.5671069622039795,0.2647701799869537
1749040739.7626576,2.127461873828136,-2.4961701003080576,0.3809324820726732,1.3928309297653898,-6.112307508547303,-3.201766959219698,-0.12875957591078643,0.012655389669149971,0.028448508754841482,0.0957032988769283,0.028645925160076417,0.17341175400444642,-0.4455566108226776,1.5453057289123535,0.5632538795471191,-0.0836533233523368,0.5795661807060242,0.2705837488174438
1749040739.762699,2.1272010238835013,-2.4961451806723787,0.38098804948869625,1.3930224853159945,-6.11225040831626,-3.201418904899033,-0.12993744095219933,0.01275679040200839,0.028651603935968804,0.09668930827950996,0.02897948717968001,0.17500529827972963,-0.427285224199295,1.530719757080078,0.5489832162857056,-0.1031510978937149,0.5812885761260986,0.2787219882011413
1749040739.7627368,2.126938026418434,-2.496119704332432,0.3810440983352572,1.3932155937258999,-6.112192233125888,-3.201067732053181,-0.131101562504506,0.012865651952802051,0.028848475065598022,0.09764693635234765,0.02932543964260408,0.17663424068693295,-0.4318705201148987,1.531398892402649,0.5509014129638672,-0.1147221326828002,0.5868181586265564,0.272708922624588
1749040739.762774,2.126672832463499,-2.496093677622719,0.3811007273321189,1.3934103238124926,-6.112132921778933,-3.200713217461287,-0.13225374488434374,0.012981412819541197,0.029043023137419605,0.0985876222096514,0.02967773971704185,0.17829966119048962,-0.4738774299621582,1.536683201789856,0.5759304761886597,-0.0996570661664009,0.5825629234313965,0.2787516415119171
1749040739.7628112,2.126405408941892,-2.4960671264901912,0.3811580129232963,1.3936067592088948,-6.11207245734113,-3.2003551868969993,-0.13339604650971437,0.013103135983825325,0.02924015860839094,0.09952503423380818,0.030029549404695578,0.18000317639049362,-0.4443590641021728,1.5257867574691772,0.5844293832778931,-0.0843105241656303,0.5834726095199585,0.2721106708049774
1749040739.7628477,2.1261357397274576,-2.4960400924826716,0.38121600460746624,1.3938049984988201,-6.112010868908565,-3.1999935068829095,-0.1345306798793696,0.0132295354195066,0.029445345059730507,0.1004740913470832,0.030373879284698795,0.18174748326557477,-0.4612095952033996,1.5516598224639893,0.5873697996139526,-0.0881523638963699,0.5839661359786987,0.2647444307804107
1749040739.7628868,2.1258638253738864,-2.4960126286575486,0.3812747234004641,1.3940051550755304,-6.111948227377976,-3.1996280720527746,-0.13566001167724978,0.013359033468404884,0.029664078892875544,0.10144976154985713,0.030704220073118415,0.18353659548183282,-0.4418878555297851,1.5668745040893557,0.5780500173568726,-0.0856610536575317,0.5909610986709595,0.2686012983322143
1749040739.7629237,2.1255896819438718,-2.495984795863303,0.38133416381865404,1.394207356388848,-6.111884636374796,-3.199258790916405,-0.13678671352617672,0.013489839654392183,0.029901382871893083,0.10246572521393625,0.031015100922974645,0.18537554867495468,-0.4609109163284302,1.5398757457733154,0.59133380651474,-0.0881407633423805,0.5760103464126587,0.2700386345386505
1749040739.7629602,2.12531333874674,-2.495956659501636,0.38139429907303607,1.3944117421901225,-6.111820220274511,-3.198885572604568,-0.1379140272288445,0.013620042350637039,0.030161359073175777,0.10353302663066438,0.03130254308506701,0.187269441596334,-0.4490016400814056,1.5810139179229736,0.5901174545288086,-0.0192544609308242,0.5823605060577393,0.2691152691841125
1749040739.7629964,2.12503483451296,-2.4959282866576196,0.38145508851851995,1.394618461467655,-6.111755111486787,-3.19850831719554,-0.1390460349699614,0.01374770643159892,0.030446816645223255,0.10465887029461493,0.03156439267560798,0.18922186489382353,-0.4630787074565887,1.589556336402893,0.5776851177215576,-0.0309572350233793,0.5718945264816284,0.2764090001583099
1749040739.7631123,2.1247542115999134,-2.4958997433496397,0.3815164860367413,1.3948276678963683,-6.111689438932336,-3.198126912184604,-0.14018780157375157,0.013870973383600077,0.030758978717768285,0.10584572886070892,0.03180051484300457,0.19123298907730849,-0.4393360316753387,1.5592923164367676,0.5950925350189209,-0.0524379089474678,0.5786229968070984,0.280883252620697
1749040739.7649994,2.124471508041994,-2.4958710915798537,0.38157844810699526,1.395039513674203,-6.111623319109802,-3.1977412368768983,-0.14134527739092265,0.0139881638293104,0.03109728211991196,0.10709088676768178,0.03201282622911682,0.19329774811807002,-0.4247610867023468,1.5638128519058228,0.5927119255065918,-0.0664813444018364,0.583642840385437,0.310443639755249
1749040739.80629,2.1241867476706027,-2.4958423859100334,0.3816409407987086,1.3952541417151312,-6.111556850478307,-3.197351174730666,-0.1425248943738826,0.014097883075227628,0.03145929997706772,0.10838645839143518,0.03220514823167157,0.19540459498162344,-0.4393770098686218,1.551700472831726,0.5971711277961731,-0.0438314825296402,0.5921909809112549,0.3096529841423034
1749040739.8063395,2.12389992930595,-2.4958136695011652,0.3817039454298286,1.3954716765510953,-6.11149011116475,-3.1969566314048428,-0.14373285104850006,0.0141991268705738,0.03184081881676772,0.1097198455656464,0.03238288631280624,0.1975352079637398,-0.4918904602527618,1.5583302974700928,0.5775302052497864,-0.0587882846593856,0.5915432572364807,0.2953881323337555
1749040739.8063805,2.123611016954545,-2.495784969957375,0.38176746279456897,1.3956922148797315,-6.111423159387027,-3.1965575543250693,-0.14497417253900954,0.014291379360728836,0.03223607684254666,0.11107456604815263,0.0325525736416421,0.19966532741989912,-0.4332922697067261,1.5634585618972778,0.5794719457626343,-0.0486662685871124,0.5902820229530334,0.3130412399768829
1749040739.8064194,2.123319933404487,-2.495756295769619,0.38183151568660384,1.395915817047337,-6.1113560355767005,-3.196153948804005,-0.14625172858457902,0.014374691621335088,0.03263813326241419,0.11243137296596141,0.03272134509237906,0.20176665742777938,-0.4705767631530761,1.5768282413482666,0.5906834602355957,-0.0658283755183219,0.5948566794395447,0.288687914609909
1749040739.8064573,2.1230265591318758,-2.495727634359225,0.38189614925864895,1.3961425006040369,-6.111288764963302,-3.1957458865007933,-0.14756544062458724,0.01444972894912758,0.03303931717872182,0.11376957147586261,0.032896415910678614,0.20380953986639957,-0.4879347681999206,1.552287459373474,0.5907492637634277,-0.0494727343320846,0.6135978698730469,0.2744460999965668
1749040739.8064957,2.1227307372113655,-2.495698952486176,0.3819614288026505,1.3963722366374758,-6.111221359365311,-3.195333503961649,-0.14891187231222006,0.014517778696457003,0.03343170836186707,0.11506842353883802,0.033084625363456716,0.20576596160828617,-0.460417091846466,1.5672636032104492,0.5716210007667542,-0.0382276996970176,0.588962197303772,0.2493876814842224
1749040739.8065343,2.1224322835731333,-2.49567019922252,0.3820274347659829,1.396604949268303,-6.111153817223503,-3.1949169913220663,-0.1502842986666229,0.014580717319555686,0.03380761842491259,0.11630852483049012,0.03329207952398664,0.2076124337274697,-0.4818634986877441,1.5826942920684814,0.5847947001457214,-0.0784192308783531,0.6084774732589722,0.2675006091594696
1749040739.806572,2.122131000929613,-2.4956413110695195,0.38209425508820666,1.3968405185558146,-6.111086121440721,-3.1944965731113526,-0.1516732422309888,0.014640943176786915,0.03416005501076217,0.11747304285194615,0.033523903853870725,0.2093323857814414,-0.4923176169395447,1.578763127326965,0.5875016450881958,-0.0799471959471702,0.613827645778656,0.2727025747299194
1749040739.8066094,2.121826694212485,-2.495612218348524,0.38216197524552414,1.3970787869105434,-6.111018235152899,-3.194072484059328,-0.1530673892440294,0.014701286476523856,0.034483160159844255,0.11854872202094863,0.03378410325407669,0.21091788633610964,-0.4766678810119629,1.5900694131851196,0.5944499373435974,-0.0596756637096405,0.61380934715271,0.2799204885959625
1749040739.8066468,2.1215191854392015,-2.4955828518163146,0.3822306668717868,1.397319568743109,-6.11095009613381,-3.1936449429998794,-0.15445476154938886,0.01476490554620296,0.03477261720188844,0.1195265886908264,0.0340755201383302,0.2123706354307259,-0.5080897212028503,1.6074564456939695,0.6015819907188416,-0.0920548439025878,0.5985591411590576,0.3023524880409241
1749040739.8066847,2.121208326315533,-2.4955531485435922,0.38230037650529336,1.397562662495596,-6.110881611211981,-3.1932141278510464,-0.1558240043461994,0.014835168353035779,0.03502601473660234,0.12040232214971634,0.03439986855875002,0.21370220949744567,-0.4956329464912414,1.6180973052978516,0.5789179801940918,-0.0802262425422668,0.6186804175376892,0.2887126803398132
1749040739.8067222,2.1208940072591145,-2.495523056412091,0.3823711165904394,1.3978078636232003,-6.110812652657034,-3.1927801546654844,-0.15716563823052068,0.014915505268696623,0.03524313964154782,0.12117629314620197,0.03475779962231882,0.21493348718790914,-0.4810248613357544,1.6017616987228394,0.5931122899055481,-0.0662954896688461,0.5957551002502441,0.2295580357313156
1749040739.8067589,2.120576161961904,-2.495492536991955,0.3824428608692036,1.3980549768050143,-6.1107430586069045,-3.192343063950411,-0.15847311668303923,0.015009213571064798,0.03542615084208304,0.12185330714238306,0.03514893171806819,0.21609313165175628,-0.4529580473899841,1.600206732749939,0.5931643843650818,-0.0635142773389816,0.6015946865081787,0.2315151989459991
1749040739.806796,2.1202547673960717,-2.4954615668427196,0.3825155454748387,1.3983038257714937,-6.110672639118087,-3.1919028173268766,-0.15974354217496975,0.01511920406101799,0.035579575625946325,0.12244211230996097,0.035571781440040744,0.21721505639444472,-0.4635475575923919,1.5759198665618896,0.5724902749061584,-0.1039601415395736,0.599881649017334,0.2431433200836181
1749040739.8068335,2.1199298402469586,-2.495430137413607,0.3825890756684208,1.3985542594901152,-6.110601188460779,-3.191459306503062,-0.1609779343887564,0.015247703924674417,0.03571008233331648,0.12295472858488514,0.03602357277428083,0.21833500441501827,-0.4527786076068878,1.6071268320083618,0.5875205993652344,-0.089661993086338,0.6089904308319092,0.2666663825511932
1749040739.8068795,2.1196014315913017,-2.4953982538610373,0.3826633368554806,1.3988061538791094,-6.110528503050904,-3.1910123745650028,-0.16218100617438092,0.015395956486133348,0.035826021004804774,0.12340564093275198,0.03649997348175977,0.21948666157154137,-0.5053330063819885,1.6005380153656006,0.6000145673751831,-0.0862782597541809,0.6247837543487549,0.2810874283313751
1749040739.8069184,2.119269621781575,-2.495365933215598,0.38273820769151684,1.399059408781785,-6.110454403102607,-3.190561847466532,-0.16336047617551402,0.01556397444788871,0.03593677682096026,0.12381091037187623,0.03699487652634039,0.22069796269847586,-0.4728058278560638,1.6328846216201782,0.6108042001724243,-0.0929550677537918,0.6293493509292603,0.3252628445625305
1749040739.8069556,2.1189345170430673,-2.4953332021740677,0.38281357278596273,1.3993139407526554,-6.110378754967239,-3.190107571840892,-0.1645260265582515,0.015750400644163734,0.03605202315730524,0.12418728714712056,0.03750037387521851,0.2219883007664916,-0.5223295092582703,1.613228440284729,0.6044790148735046,-0.1003266125917434,0.6201679110527039,0.3240256905555725
1749040739.8069935,2.1185962486237444,-2.495300094410355,0.3828893327534355,1.3995696731673772,-6.11030149061318,-3.189649454015996,-0.16568808706804744,0.015952509976725936,0.036180965823717215,0.12455142410349301,0.03800703783758801,0.22336716938030668,-0.540742039680481,1.644372582435608,0.5977487564086914,-0.0640136152505874,0.6359222531318665,0.3088838458061218
1749040739.8070316,2.11825497463743,-2.495266647154236,0.38296541016080815,1.3998265259423648,-6.110222621095973,-3.18918749468669,-0.16685665950028022,0.016166356849767055,0.036331640259675,0.12491926334771201,0.038504537545641045,0.22483441301824514,-0.4852015972137451,1.6178319454193115,0.5897735953330994,-0.1017393618822097,0.6011132001876831,0.2829082608222961
1749040739.8071363,2.117910883958548,-2.4952328972105655,0.3830417510631503,1.4000844073714593,-6.1101422419909275,-3.188721814362073,-0.16804036175604622,0.016387046190401336,0.036510291755191826,0.12530561760193262,0.03898250816348737,0.2263818575834755,-0.4941201508045196,1.6417396068572998,0.5842267274856567,-0.0838861092925071,0.599652111530304,0.2796939015388489
1749040739.8090367,2.117564200706757,-2.4951988773306044,0.3831183228556024,1.400343210058498,-6.11006053009036,-3.188252666226688,-0.1692457839850445,0.016609091541414867,0.0367208659067664,0.12572391382460257,0.039431499834927386,0.22799580034605027,-0.4874922633171081,1.6419235467910769,0.6200022101402283,-0.0910452529788017,0.5971542596817017,0.2361810803413391
1749040739.8502915,2.1172151872007396,-2.495164614238858,0.38319510971487464,1.400602811865518,-6.109977731813084,-3.18778043480069,-0.17047716130947824,0.016826820976659128,0.0369646600678128,0.12618603343560778,0.039843795040051734,0.22965976080006617,-0.5424601435661316,1.622303128242493,0.6110065579414368,-0.0810755491256713,0.5880939960479736,0.265010118484497
1749040739.850338,2.1168641429008828,-2.495130129143638,0.3832721069364351,1.4008630818079952,-6.10989414465916,-3.187305620131288,-0.17173631354513755,0.017034794362536597,0.0372402022672589,0.12670218245733472,0.04021391080703416,0.23135703030435822,-0.463625818490982,1.6151742935180664,0.5918722152709961,-0.0705373138189315,0.5692906975746155,0.2818673551082611
1749040739.8503792,2.1165113969187703,-2.4950954403300285,0.3833493153121163,1.4011238903947567,-6.10981009374624,-3.1868288078597793,-0.17302278332790988,0.017228199071291497,0.037543402710417915,0.1272807476178523,0.0405386879213495,0.23307279752273985,-0.4716768860816955,1.6217751502990725,0.580959141254425,-0.1073603108525276,0.5666961669921875,0.2984497249126434
1749040739.850419,2.1161572923556315,-2.495060566241179,0.38342673664887844,1.401385123910234,-6.1097259059779265,-3.1863506257349536,-0.17433411295887474,0.01740319792226513,0.037867973113849006,0.12792812357184008,0.04081698726923836,0.23479582101702032,-0.5100709199905396,1.6270761489868164,0.5896565914154053,-0.0399397164583206,0.5886720418930054,0.2937712669372558
1749040739.8504603,2.1158021620339116,-2.4950255271516495,0.3835043715058676,1.4016467020015806,-6.109641884551786,-3.1858716878849456,-0.17566623299335812,0.017557215041367032,0.03820606311718584,0.12864852535850035,0.04104912766952467,0.2365196767390513,-0.5639002919197083,1.6435728073120115,0.5874755382537842,-0.0554084330797195,0.5885825753211975,0.2771711051464081
1749040739.8504996,2.1154462967469034,-2.494990344266547,0.38358221987415253,1.4019085973523442,-6.109558286180464,-3.1853925298453984,-0.1770139709010261,0.017689155641940086,0.03854903755819513,0.12944382713018743,0.041236268583679944,0.2382435377249975,-0.6237495541572571,1.6532773971557615,0.6022101044654846,-0.0929075330495834,0.5869500637054443,0.2918767929077148
1749040739.8505375,2.115089908716367,-2.494955036215155,0.3836602847490273,1.4021708554852257,-6.109475302753106,-3.1849135394407497,-0.17837168729984618,0.017799554629059234,0.03888830531128922,0.13031348343600832,0.041379934032018825,0.23997234266782047,-0.4528557062149048,1.642748236656189,0.5740006566047668,-0.0392272919416427,0.579521656036377,0.2385884076356887
1749040739.8505754,2.1147330944661222,-2.494919613779685,0.38373857761491537,1.4024336122502492,-6.109393048654782,-3.1844348903864765,-0.17973399288757924,0.01789063725137347,0.03921610147935713,0.13125459161034989,0.04148179565953505,0.2417161913240096,-0.4736780822277069,1.6472429037094116,0.5707865357398987,-0.032995194196701,0.5492078065872192,0.2597149908542633
1749040739.8506129,2.1143758024917827,-2.4948840741881515,0.3838171241246175,1.4026971063655052,-6.109311554788036,-3.1839564866331154,-0.1810964241979353,0.017966265329762802,0.03952612826157612,0.13226215225789795,0.04154372755043544,0.2434889232215994,-0.5131516456604004,1.658623456954956,0.5701360702514648,-0.0345536768436431,0.5484694242477417,0.2924306690692901
1749040739.850655,2.1140178114586066,-2.4948483965637926,0.3838959679717702,1.4029616843724115,-6.1092307700859925,-3.183477925959628,-0.1824559192138346,0.018031745518386186,0.03981398768181003,0.13332956722163272,0.04156806554877349,0.2453060545833027,-0.4721035957336426,1.6446868181228638,0.5674490928649902,-0.0263444259762763,0.5489404201507568,0.3001133799552917
1749040739.8506937,2.1136587240724762,-2.4948125400625,0.38397517127525643,1.4032277956373218,-6.109150570462164,-3.182998490954621,-0.1838109665048802,0.018093490148952646,0.0400773866341097,0.1344493546053703,0.04155797259448622,0.24718245294923658,-0.4712966382503509,1.6418465375900269,0.565456748008728,-0.0445451252162456,0.5546380281448364,0.2941306829452514
1749040739.8507302,2.1132979804909366,-2.4947764456331676,0.38405481068469505,1.4034959756700571,-6.109070773941295,-3.1825171739196896,-0.18516139252626504,0.018158539719091513,0.04031614032875072,0.1356139678925156,0.0415178146735682,0.24913020236747063,-0.4952009916305542,1.643667697906494,0.5643102526664734,-0.0425214022397995,0.5588647723197937,0.2958200871944427
1749040739.8507671,2.1129348933927883,-2.4947400413514216,0.3841349695966002,1.4037668168694568,-6.108991159952804,-3.182032739038972,-0.1865078666676876,0.018233978766943246,0.04053202620225736,0.1368165282215717,0.041453461962160106,0.25115701929175266,-0.5234967470169067,1.6434605121612549,0.5830991864204407,-0.0542126670479774,0.5507646799087524,0.283180296421051
1749040739.8508043,2.112568704613854,-2.494703250355397,0.3842157278434454,1.4040409267554381,-6.108911490786789,-3.181543820360893,-0.18785129435412312,0.018326306210894656,0.040728543107038225,0.13805125755614886,0.041372436407441704,0.2532653848003049,-0.5182046890258789,1.67163348197937,0.5879147052764893,-0.0493223220109939,0.5531108975410461,0.2787915170192718
1749040739.850841,2.1121986603355802,-2.4946659999126504,0.3842971505731193,1.4043188751673839,-6.108831533554839,-3.181049048140562,-0.18919228455620707,0.018440848102379708,0.040910615093561524,0.13931345520406205,0.041283844783155735,0.25545236772720004,-0.4709188342094421,1.7056769132614136,0.55622798204422,-0.0616049766540527,0.5558536648750305,0.3007489740848541
1749040739.850878,2.1118240978007345,-2.4946282300971605,0.3843792778892572,1.4046011343227796,-6.108751081030672,-3.180547189583225,-0.19053081208435005,0.018581305219220193,0.04108425291244917,0.14059899106260731,0.041198080764546514,0.25771000635253855,-0.4781828224658966,1.6590412855148315,0.5615993738174438,-0.0241481065750122,0.5579858422279358,0.2957103550434112
1749040739.8509145,2.1114445315628685,-2.494589900675725,0.3844621167530322,1.4048880191141366,-6.108669969216844,-3.1800372839227906,-0.19186610338879195,0.018749500173040112,0.041256162451129494,0.14190346572827853,0.041126340540422766,0.26002610746146526,-0.4781828224658966,1.6590412855148315,0.5615993738174438,-0.0241481065750122,0.5579858422279358,0.2957103550434112
1749040739.850952,2.111059722947947,-2.4945509949091296,0.3845456369733189,1.4051796386305606,-6.108588088729368,-3.1795187477966516,-0.19319672248672973,0.018945342208468254,0.04143328336833996,0.1432213405646943,0.041080043080073375,0.2623853516802131,-0.5029417872428894,1.6656705141067505,0.5648155212402344,-0.0058485809713602,0.5567276477813721,0.3232848048210144
1749040739.8509889,2.1106697159663916,-2.4945115193345506,0.38462977329958553,1.4054758712369748,-6.108505387105999,-3.1789914284681156,-0.19452082944751067,0.01916698657328998,0.041622258754027516,0.1445453895414519,0.04107025701397701,0.2647705812728229,-0.4971542954444885,1.6762839555740356,0.5627092719078064,-0.0321943834424018,0.5711044669151306,0.3047373294830322
1749040739.851025,2.1102748292462583,-2.494471499518025,0.3847144347103717,1.405776371930884,-6.108421860862963,-3.178455592953441,-0.1958365840653732,0.01941114278075847,0.041828867997492476,0.14586673252517746,0.04110721368199897,0.26716406507048934,-0.4888797402381897,1.6950043439865112,0.566724419593811,-0.0397543460130691,0.5919613242149353,0.2684571146965027
1749040739.851129,2.109875605391601,-2.4944309729255214,0.38479951980486277,1.4060806122891487,-6.108337539113976,-3.1779118585584616,-0.19714263616219038,0.01967348015591214,0.04205748460700752,0.14717551350814886,0.04119994457519636,0.26954845478209105,-0.4917657375335693,1.6840367317199707,0.5762199759483337,-0.0386201664805412,0.5881259441375732,0.2532115280628204
1749040739.8530638,2.1094727304148377,-2.4943899807538417,0.3848849349800016,1.406387944416569,-6.1082524630790145,-3.1773610859805834,-0.19843859457449106,0.019949080795323256,0.04231063601031089,0.1484620719003122,0.04135603412649857,0.27190718910178996,-0.4758597016334533,1.671677589416504,0.5586358904838562,-0.064002439379692,0.57551109790802,0.239872545003891
1749040739.8942957,2.1090669409385603,-2.494348560481231,0.3849706112698535,1.4066976756301648,-6.108166666568546,-3.1768042618328,-0.199725345987586,0.020232893243677965,0.042588736401001054,0.14971829881686888,0.04158143788006472,0.27422431986173945,-0.5133748054504395,1.661837100982666,0.5644481778144836,-0.0697902664542198,0.5829023122787476,0.3148685395717621
1749040739.8943768,2.108658935420118,-2.4943067402944834,0.38505651658022777,1.4070091410716914,-6.108080161676638,-3.1762423928032755,-0.20100513298903505,0.020520144704395407,0.04289003763711514,0.15093880951417862,0.04188029815313996,0.27648403171674046,-0.5158910751342773,1.687563180923462,0.5677703619003296,-0.0868529081344604,0.5987311601638794,0.3500935137271881
1749040739.8944442,2.1082493010376586,-2.494264535879187,0.3851426617021155,1.4073217647153173,-6.10799293212518,-3.175676424075336,-0.20228138090247064,0.020806678101071202,0.04321080663682868,0.152121598748824,0.04225471008193942,0.2786703252404809,-0.5478780269622803,1.6815879344940186,0.5590956807136536,-0.0844191461801529,0.5973842144012451,0.3482341170310974
1749040739.8945153,2.1078384628077105,-2.494221949651045,0.3852291000526497,1.4076351029728693,-6.107904934424041,-3.175107185335429,-0.2035583383722975,0.021089192198628936,0.0435457032263844,0.15326796856084665,0.042704447293261664,0.28076731162466,-0.5081234574317932,1.6598187685012815,0.5549596548080444,-0.0763652324676513,0.6097598075866699,0.3186603784561157
1749040739.8945825,2.107426657026349,-2.4941789723378363,0.3853159221568383,1.4079488683458758,-6.107816104855728,-3.1745353613279157,-0.20484063312729436,0.021365373632741644,0.04388831073050643,0.15438170988132482,0.04322671673286425,0.28276033038130405,-0.4995584785938263,1.6757121086120603,0.5915210843086243,-0.0637697875499725,0.6133122444152832,0.3032740354537964
1749040739.8946507,2.1070139276742093,-2.494135586622037,0.38540324630322764,1.4082629332718892,-6.107726369095684,-3.1739614809775323,-0.20613283769056842,0.021633916548172687,0.04423176497654295,0.1554677365532835,0.043816035244296475,0.28463776461937706,-0.5060468316078186,1.6686118841171265,0.5634509325027466,-0.0756140723824501,0.6182202696800232,0.2988909482955932
1749040739.8947172,2.1066001422714398,-2.4940917721992757,0.3854912066822798,1.4085773165739142,-6.107635651421702,-3.1733859187906397,-0.20743910421222236,0.021894432345853622,0.0445694219439895,0.1565305474583708,0.044464290197024296,0.286393151946481,-0.520872950553894,1.6818896532058716,0.5454277396202087,-0.0323945879936218,0.6015100479125977,0.2896551191806793
1749040739.894781,2.106185022652723,-2.4940475112383544,0.38557994008196783,1.408892156708466,-6.1075438815939735,-3.172808903314353,-0.20876288423152334,0.022147264221651326,0.0448954858995041,0.15757296950425156,0.04516098698836343,0.28802708133052707,-0.52838134765625,1.67718768119812,0.518000602722168,-0.0370152443647384,0.611762523651123,0.2943796813488006
1749040739.8948455,2.105768185738509,-2.4940027930235105,0.3856695722953307,1.4092076771284934,-6.107450998915063,-3.1722305288803714,-0.2101067224792343,0.022393238001993564,0.04520550490324398,0.15859557562834814,0.04589364174796122,0.28954842142192866,-0.5668936967849731,1.6707878112792969,0.5684771537780762,-0.0390800088644027,0.6384202241897583,0.3056798577308655
1749040739.89491,2.1053491892613425,-2.4939576166461497,0.3857602057073768,1.4095241493893926,-6.107356954083273,-3.171650768214687,-0.21147212003468385,0.02263339323371024,0.04549666414258046,0.1595969802981275,0.04664827467332838,0.290974565072254,-0.5423604846000671,1.6654393672943115,0.5530728697776794,-0.0405988544225692,0.6488733291625977,0.281134694814682
1749040739.8949578,2.104927577583127,-2.4939119910683254,0.3858519096143751,1.409841859162389,-6.10726170989647,-3.1710694847409107,-0.21285948865244164,0.022868736554424327,0.04576786935534131,0.16057494448534299,0.04740998693240943,0.2923305369602684,-0.57684725522995,1.6897404193878174,0.5572987794876099,-0.0514882206916809,0.6225900650024414,0.2936121225357055
1749040739.8949962,2.104502923287325,-2.493865932556524,0.3859447144460299,1.4101610791679404,-6.107165241729909,-3.1704864446611727,-0.2142682246165024,0.02310004231172854,0.04601966475418223,0.16152796319789123,0.048163626727155344,0.2936469840735998,-0.5410079956054688,1.657940149307251,0.5543241500854492,-0.0861722975969314,0.611479640007019,0.2623082101345062
1749040739.8950334,2.104074861132214,-2.4938194600235706,0.3860386103869367,1.4104820512537808,-6.107067538383473,-3.1699013300147905,-0.21569689195403624,0.0233277028694629,0.046254034603428584,0.16245684623636755,0.048894539670645935,0.29495725298005,-0.5536960959434509,1.6666603088378906,0.539730429649353,-0.0663992688059806,0.6056817770004272,0.2754644751548767
1749040739.8950706,2.103643112159977,-2.4937725890763813,0.3861335502168862,1.410804977644562,-6.106968603701755,-3.1693137544207985,-0.21714344891439363,0.023551614678552896,0.046474111753165216,0.16336578742905783,0.049589353911298956,0.2962939309468651,-0.5390710830688477,1.6606918573379517,0.5467270016670227,-0.1035694777965545,0.592934787273407,0.3065574467182159
1749040739.8951075,2.103207497116249,-2.4937253257828655,0.38622945564942096,1.4111300193856868,-6.106868459303148,-3.1687232827456917,-0.2186054330970642,0.023771083012207914,0.04668380189723411,0.16426255527760383,0.050236695689231003,0.2976853448125641,-0.5647875666618347,1.6607422828674316,0.5549606084823608,-0.0944223925471305,0.5871602892875671,0.3060749471187591
1749040739.895153,2.1027679395592105,-2.4936776614745515,0.3863262260511168,1.4114572988741119,-6.106767148529475,-3.1681294547047796,-0.22008006145514336,0.023984738824203995,0.04688734374154309,0.1651576874243277,0.05082770055178479,0.29915253102801165,-0.5869271755218506,1.6817951202392578,0.5427311062812805,-0.0629696324467659,0.5722382664680481,0.3080625534057617
1749040739.8952038,2.1023244599296045,-2.4936295700058766,0.38642374819860653,1.411786903350791,-6.106664741212476,-3.1675318111260315,-0.2215642693940514,0.02419047942427724,0.04708884473963514,0.16606285646660135,0.05135620597725204,0.30070710268337647,-0.5729178190231323,1.6743841171264648,0.5507780909538269,-0.0372393876314163,0.5742194652557373,0.2872583866119385
1749040739.8952432,2.1018771624011467,-2.4935810085155174,0.3865219057549007,1.4121188870499812,-6.1065613382466415,-3.1669299210050412,-0.22305475217240867,0.024385460736132417,0.04729184068171926,0.1669888094090824,0.05181858780409058,0.3023502746265684,-0.595585286617279,1.6589792966842651,0.5428431630134583,-0.0557636581361293,0.5972644686698914,0.3016417026519775
1749040739.895281,2.1014262165820936,-2.4935319220367593,0.38662058737168,1.4124532709454172,-6.106457074493595,-3.166323407703913,-0.22454804882833948,0.024566173486228332,0.0474989238109481,0.1679433968297125,0.052213311869688354,0.30407312085137367,-0.5466040968894958,1.6537961959838867,0.5597988963127136,-0.0343100652098655,0.5868932604789734,0.3233065009117126
1749040739.8953192,2.1009718362032124,-2.493482251612214,0.3867196925578008,1.412790040403998,-6.1063521183515075,-3.1657119730927414,-0.2260406458249077,0.02472862327065908,0.04771147572915009,0.16893017068770658,0.05254036683248134,0.30585797496889944,-0.5683323740959167,1.6634031534194946,0.5334153175354004,-0.0606515258550643,0.5892534852027893,0.3314302563667297
1749040739.8954685,2.100514256995287,-2.4934319449573326,0.3868191346653572,1.413129142324946,-6.106246666604619,-3.1650954183280073,-0.22752903632947458,0.0248686077669523,0.047929531839787536,0.16994786494546887,0.052800778370934644,0.3076807559898403,-0.5658435225486755,1.655110239982605,0.5449285507202148,-0.0426169633865356,0.5867244005203247,0.3153740763664245
1749040739.8970356,2.1000537160432824,-2.4933809681233177,0.38691884074885796,1.413470484205386,-6.106140934069428,-3.1644736592462674,-0.2290096929053626,0.02498205591635094,0.04815179528797413,0.17099084179449234,0.05299636175982057,0.3095138993979117,-0.5517203211784363,1.6531866788864136,0.5701390504837036,-0.0426974594593048,0.58480304479599,0.3039098978042602
1749040739.9382677,2.099590434674192,-2.49332931617287,0.3870187487547127,1.4138139376699888,-6.106035138863798,-3.1638467338040783,-0.23047897523532787,0.025065378298233645,0.04837581430491961,0.1720503594556593,0.05312976937672964,0.3113295035253719,-0.5597628355026245,1.6579718589782717,0.5627202987670898,-0.0581666007637977,0.5567646026611328,0.3025047481060028
1749040739.9383135,2.0991246060936417,-2.493277020901123,0.3871188032808348,1.414159348134639,-6.1059294853571116,-3.1632147994068474,-0.2319330418340423,0.025115780281733533,0.048598332847528916,0.1731163545644721,0.05320477372904242,0.31310228754839525,-0.5402587652206421,1.6677868366241455,0.5514529347419739,-0.0446795523166656,0.5578482151031494,0.3014108538627624
1749040739.9383547,2.098656387814029,-2.4932241542248788,0.3872189516791691,1.4145065506452306,-6.10582414755724,-3.162578119402729,-0.23336782838820294,0.025131502598929562,0.048815803112103394,0.1741793623276136,0.053226636783829176,0.31481201580755613,-0.5024498105049133,1.653460144996643,0.5286937952041626,-0.04061059653759,0.5428858399391174,0.3025533854961395
1749040739.9383936,2.098185898161833,-2.4931708267737243,0.3873191423169059,1.414855390135087,-6.105719255580791,-3.161937039921964,-0.23477910855500267,0.025111967710319042,0.049025006157392616,0.17523221528915486,0.05320238246599099,0.3164451620037788,-0.5102863311767578,1.6290384531021118,0.5441094040870667,-0.0533789545297622,0.5439099073410034,0.3075964748859405
1749040739.9384315,2.0977132161819645,-2.4931171820447,0.38741932627666836,1.4152057430586835,-6.10561488696248,-3.1612919599549283,-0.23616261075887512,0.025057823481860683,0.04922369074928257,0.17627124283374054,0.05314082427511642,0.3179957276273344,-0.504086971282959,1.6226011514663696,0.563427209854126,-0.0784360766410827,0.5530685186386108,0.2775047719478607
1749040739.9384713,2.0972383845993896,-2.4930633870773473,0.3875194628020582,1.4155575369802278,-6.105511063314143,-3.1606432985733695,-0.23751416189407926,0.02497089327919617,0.04941113710703054,0.17729681466165054,0.053052293856394137,0.3194652436650499,-0.5300256013870239,1.6142022609710691,0.5458758473396301,-0.0301695950329303,0.5611145496368408,0.2644774913787842
1749040739.9385092,2.09676141548283,-2.4930096211031714,0.3876195276906806,1.4159107651685527,-6.1054077518369905,-3.159991463280854,-0.2388298614987564,0.02485406114486268,0.04958857102533626,0.17831320671055453,0.052948132329407746,0.3208620493807719,-0.5388002395629883,1.6122452020645142,0.5572065114974976,-0.056863322854042,0.5744585394859314,0.2612706422805786
1749040739.938547,2.0962822977906486,-2.49295606403066,0.3877195228623706,1.4162654941984618,-6.105304870660746,-3.1593368228331293,-0.24010632125455741,0.024711130575900304,0.04975936724415658,0.1793278822522715,0.05284009504800128,0.3221999798253921,-0.5368971228599548,1.6208343505859375,0.5434847474098206,-0.0620193779468536,0.5655325651168823,0.3023046553134918
1749040739.9385843,2.095801005436925,-2.492902886635824,0.38781948468288496,1.4166218635372507,-6.105202296693136,-3.158679686969111,-0.24134100118086596,0.024546690081318406,0.04992898732562738,0.18035034373200795,0.05273984613400772,0.32349664549665574,-0.5014689564704895,1.636674165725708,0.5409148335456848,-0.0614765584468841,0.5808178186416626,0.2767312526702881
1749040739.9386218,2.095317504267603,-2.492850243692568,0.3879194885613795,1.4169800768321148,-6.105099874419905,-3.158020294607132,-0.24253263394152416,0.024366005839376585,0.05010461869952813,0.18139071968863305,0.05265867318530498,0.3247715548319391,-0.5132128596305847,1.6378636360168457,0.5417629480361938,-0.0741745233535766,0.5783547163009644,0.2828995287418365
1749040739.9386594,2.09483175659666,-2.492798270210774,0.38801964804364825,1.4173403851957296,-6.104997424115033,-3.157358811104743,-0.24368167915874023,0.024174949180811502,0.050294527105835464,0.18245822838097214,0.0526074517764953,0.3260443667917533,-0.5312354564666748,1.6131525039672852,0.5602208375930786,-0.0827062129974365,0.5479949712753296,0.3015275001525879
1749040739.9386964,2.094343722698051,-2.492747079995147,0.38812010793632035,1.4177030635245977,-6.1048947485085785,-3.1566953340289534,-0.24479071660749926,0.023979952208532215,0.050507188820615105,0.18355963464883593,0.05259676970996333,0.3273335230594972,-0.6095870137214661,1.6570119857788086,0.5725593566894531,-0.055729754269123,0.5459855794906616,0.2708694338798523
1749040739.938733,2.093853359594939,-2.4926967652683443,0.3882210324545283,1.418068381857074,-6.104791638040578,-3.1560299055729137,-0.24586467133662449,0.02378796509777692,0.05075031055164709,0.184697816724337,0.0526370322517626,0.328655395920764,-0.5315084457397461,1.6551913022994995,0.575350284576416,-0.0521742403507232,0.5572099685668945,0.3059899806976318
1749040739.9387703,2.0933606183019897,-2.4926473960567215,0.38832259045978773,1.4184365747101046,-6.104687875877905,-3.155362528472886,-0.2469107549505907,0.023606370252545222,0.05102986289994193,0.1858705996871321,0.0527383587609266,0.3300239371175393,-0.4346364438533783,1.6272637844085691,0.5768774747848511,-0.0260817557573318,0.5952940583229065,0.2840295135974884
1749040739.9388072,2.092865441156687,-2.4925990181907345,0.3884249402267686,1.4188078119861876,-6.104583244262494,-3.154693181446735,-0.24793802439057164,0.0234428069279199,0.0513492490804419,0.18707006904062842,0.052910162007050676,0.33145068415888884,-0.4638238549232483,1.656070113182068,0.5726321935653687,-0.0192899834364652,0.5697527527809143,0.2906341552734375
1749040739.938845,2.092367760890595,-2.492551649109452,0.38852821591657316,1.4191821753222764,-6.104477533264409,-3.1540218303308087,-0.24895654637020806,0.023304885644057367,0.05170871292276153,0.18828259273475706,0.0531604353640083,0.33294492401643017,-0.5608038306236267,1.6687849760055542,0.5837984681129456,-0.0286757722496986,0.5781233310699463,0.2977553904056549
1749040739.938882,2.091867502552892,-2.4925052713130307,0.38863251736261467,1.4195596434392617,-6.104370551943782,-3.1533484323785177,-0.249976308935287,0.023199816487424012,0.05210506708339509,0.18948970505944843,0.05349488921692218,0.33451383946134033,-0.5749281644821167,1.6663954257965088,0.5832756757736206,-0.0231573730707168,0.5882461667060852,0.2995912432670593
1749040739.9389193,2.091364588381519,-2.492459824256522,0.3887379041228812,1.4199400889238092,-6.104262140795059,-3.152672933131988,-0.25100615035348034,0.02313401300259969,0.05253179395491978,0.19066984610441456,0.05391612364714716,0.3361625404997184,-0.5357897877693176,1.6661442518234253,0.5839995741844177,-0.0358137935400009,0.5982059836387634,0.2905880212783813
1749040739.938957,2.090858944567068,-2.492415196466553,0.3888443940925793,1.4203232871243405,-6.104152183532648,-3.1519952572462935,-0.2520529791909612,0.02311274020083677,0.05297953289696141,0.19180075498188653,0.05442299586759011,0.33789397091555895,-0.5330259799957275,1.6699172258377075,0.565144419670105,-0.0610816068947315,0.6135166883468628,0.3362604081630707
1749040739.9389942,2.090350508102916,-2.492371220341488,0.3889519664083952,1.4207089359613818,-6.104040615999632,-3.1513152961855835,-0.2531214373402552,0.023139852228598323,0.05343691850203741,0.19286214657716394,0.05501026952949638,0.33970874353498565,-0.5391232371330261,1.6761149168014526,0.5790344476699829,-0.0676209107041359,0.5967627167701721,0.3200099170207977
1749040739.939096,2.0898392319297807,-2.4923276721725487,0.38906056799940086,1.4210966837960413,-6.103927430345386,-3.150632896503756,-0.2542140027334718,0.023217635731988824,0.053891685231891126,0.19383821964555295,0.05566855800459025,0.3416049789508821,-0.540829598903656,1.6580770015716553,0.5898907780647278,-0.0813268646597862,0.5855058431625366,0.2949548959732055
1749040739.9410374,2.0893250872483824,-2.492284279230943,0.3891701228591112,1.4214861612867284,-6.1038126735205935,-3.149947852241622,-0.25533142389996105,0.023346759782866478,0.0543319145937876,0.19471958428902955,0.05638452754668356,0.34357820712773146,-0.5619031190872192,1.6891621351242063,0.59698086977005,-0.084860548377037,0.6106182932853699,0.3034135699272156
1749040739.9822855,2.088808062781189,-2.4922407343665234,0.389280542814839,1.4218770127542801,-6.103696440264761,-3.1492599038461413,-0.25647333490647767,0.02352633238477062,0.05474727538912604,0.19550434787616677,0.057141324855799945,0.34562136625821027,-0.5511581897735596,1.6779967546463013,0.5506883859634399,-0.0617952495813369,0.6222338676452637,0.3167871832847595
1749040739.982333,2.0882881616551576,-2.4921967168769603,0.38939173833675866,1.4222689233048127,-6.103578861768483,-3.148568744392542,-0.2576388857479812,0.023754062468364544,0.05513009614889757,0.1961983061495132,0.0579192235055249,0.3477249227102418,-0.5205667614936829,1.6939154863357544,0.5632237195968628,-0.0762876272201538,0.606486439704895,0.3261046409606933
1749040739.9823732,2.087765397370717,-2.492151917026605,0.38950362790564114,1.4226616396068703,-6.1034600918513435,-3.1478740325055528,-0.25882723138215613,0.024026515601539872,0.05547612058386848,0.19681437891779086,0.058696507495921,0.34987713750580546,-0.5467774271965027,1.696937918663025,0.5739926099777222,-0.0438860803842544,0.6120573282241821,0.3428928256034851
1749040739.9824123,2.0872397908403917,-2.492106060843431,0.3896161446912828,1.4230549839840292,-6.103340292732386,-3.147175410746946,-0.2600377764150394,0.02433943704227375,0.055784841669095704,0.19737153909436161,0.05945059886956729,0.3520644942992328,-0.552020788192749,1.7070579528808594,0.5572850704193115,-0.0610653609037399,0.6126198172569275,0.3212284743785858
1749040739.9824507,2.08671137045917,-2.4920589316884243,0.3897292398157974,1.423448862612004,-6.103219622361328,-3.1464725282883665,-0.2612701765300073,0.024688107560336587,0.05605937922334477,0.19789346992887002,0.060159392595849875,0.3542722743060903,-0.5665841102600098,1.7178610563278198,0.5445585250854492,-0.0743891447782516,0.599892795085907,0.3197581768035888
1749040739.9824896,2.0861801764881958,-2.4920103855426197,0.3898428822971597,1.4238432688605873,-6.103098224921687,-3.145765066910873,-0.2625242015232405,0.025067695055023487,0.056305938240030357,0.1984070710563869,0.06080270537393935,0.3564852456449729,-0.567790687084198,1.7013026475906372,0.5789210200309753,-0.0886088460683822,0.6058049201965332,0.327370673418045
1749040739.9825282,2.085646269788012,-2.491960357960038,0.3899570566394506,1.4242382824189292,-6.102976225522881,-3.1450527691476577,-0.2637996012187778,0.025473559959181703,0.05653294997269508,0.19894080654602048,0.061363688517722476,0.358688452572097,-0.5263742804527283,1.6844398975372314,0.609135627746582,-0.0649487450718879,0.5728879570960999,0.3391303122043609
1749040739.982566,2.0851097434432946,-2.4919088619488834,0.3900717594464253,1.4246340642491857,-6.102853729339892,-3.1443354663812437,-0.26509606702013155,0.02590146714681283,0.056750047379708866,0.1995228359105214,0.06183001022075123,0.36086811436800487,-0.5746515989303589,1.6935722827911377,0.5850049257278442,-0.0749479681253433,0.557088315486908,0.3769247531890869
1749040739.9826035,2.084570734648611,-2.4918559773661904,0.39018699610377655,1.425030847061631,-6.102730824730951,-3.1436131033084465,-0.2664132947899849,0.026347667283730097,0.05696703909954347,0.20017891580323902,0.062194604758604,0.3630126208358235,-0.5372183322906494,1.6900591850280762,0.5636163353919983,-0.0614083260297775,0.561469554901123,0.3301602602005005
1749040739.982641,2.0840294338881575,-2.4918018336428944,0.39030277785912126,1.4254289210436761,-6.102607589277553,-3.1428857543621302,-0.2677510925007385,0.026808842309905545,0.057193009534947006,0.20093016868906521,0.06245584401721152,0.3651135344794996,-0.5548698902130127,1.7096786499023438,0.5804244875907898,-0.040896937251091,0.5547624826431274,0.3416402041912079
1749040739.9826777,2.083486088889971,-2.4917465887090344,0.39041911916855754,1.4258286149070962,-6.102484097252829,-3.1421536281520304,-0.26910946406766006,0.02728194442750834,0.05743561352785194,0.20179093158857186,0.0626171119008135,0.3671664291835411,-0.5438085794448853,1.666569471359253,0.5863684415817261,-0.0271359477192163,0.5351914763450623,0.3492794632911682
1749040739.9827151,2.082941001527672,-2.4916904075169315,0.39053603521529184,1.4262302728326623,-6.1023604267915434,-3.141417057603804,-0.2704886165602244,0.02776397059444905,0.05770059132822007,0.20276697578877148,0.06268591449577914,0.3691713683241121,-0.5084978938102722,1.6789463758468628,0.5892744064331055,-0.030539333820343,0.5544289946556091,0.3532116711139679
1749040739.9827514,2.0823945164132005,-2.4916334432401244,0.3906535397657367,1.4266342285490667,-6.102236665057912,-3.1406764753743532,-0.27188885212421454,0.02825170319324757,0.05799151051635333,0.20385439210913173,0.06267277347801592,0.37113286672801205,-0.5004842877388,1.6796447038650513,0.593231201171875,-0.0283281505107879,0.5697662234306335,0.3295642733573913
1749040739.9827878,2.081847000523745,-2.4915758231864293,0.390771643640127,1.427040778543048,-6.102112909953581,-3.1399323755326196,-0.27331032255731297,0.02874143547026319,0.05830972614316396,0.20503935730529985,0.0625901764626932,0.37305926230879544,-0.5681851506233215,1.666162371635437,0.5950326323509216,-0.0533258467912673,0.5607648491859436,0.3020573258399963
1749040739.9828253,2.081298814189096,-2.4915176401953216,0.39089035393237587,1.4274501571437215,-6.10198926735361,-3.139185263487925,-0.2747526650145283,0.029228706928368275,0.05865452496539776,0.20629886384483995,0.062451788485164535,0.37496150846445775,-0.5823447108268738,1.6817396879196167,0.5853018760681152,-0.0390864424407482,0.5705397725105286,0.3236507773399353
1749040739.9828622,2.0807502752302396,-2.4914589492346124,0.39100967394891917,1.4278625167144943,-6.101865843478235,-3.1384355974815827,-0.27621459048078206,0.029708092436718767,0.05902339114823773,0.20760235915955572,0.06227200253125611,0.3768514744830747,-0.4952929615974426,1.6461751461029053,0.5520445108413696,-0.0329764857888221,0.55303955078125,0.3539255261421203
1749040739.982899,2.0802016196326347,-2.4913997682851496,0.3911296039163497,1.4282779161176782,-6.101742732738023,-3.1376837270186684,-0.2776935207110519,0.03017309798429648,0.059412316669560594,0.20891414179706813,0.062065789522049795,0.37873991172101734,-0.4886804223060608,1.6523373126983645,0.5573723316192627,-0.0138995200395584,0.5671669244766235,0.3580198884010315
1749040739.9829366,2.0796529631940057,-2.4913400824751717,0.3912501427320828,1.4286963198069866,-6.101620002222019,-3.1369298357049886,-0.2791853513623275,0.0306162055506967,0.05981609481392161,0.21019630370477035,0.06184874910787149,0.3806343047998561,-0.4879229664802551,1.670609474182129,0.5872615575790405,-0.0216197520494461,0.5688802003860474,0.3229183554649353
1749040739.982986,2.079104268681207,-2.4912798507086524,0.3913712910229598,1.4291176084196004,-6.101497674929036,-3.136173896869481,-0.2806843922658605,0.031029087176664947,0.06022857742695173,0.21141196513211913,0.0616372557126864,0.3825368706206712,-0.5370293259620667,1.6345133781433103,0.5913506746292114,-0.0477760583162307,0.5611422061920166,0.3193540573120117
1749040739.9830246,2.078555322471364,-2.491219014367152,0.3914930553534606,1.4295415998565542,-6.1013757146663705,-3.135415649531446,-0.28218352466434865,0.03140298439478865,0.06064291845895553,0.21252850274344115,0.06144859210273119,0.38444299827910283,-0.5208638906478882,1.6403504610061646,0.538483202457428,-0.0354619771242141,0.5531219244003296,0.3229103982448578
1749040739.9831305,2.07800572412882,-2.491157507645479,0.39161545278538645,1.429968077860809,-6.101254015841256,-3.134654600092311,-0.28367459982813037,0.03172922593786733,0.06105183896146578,0.21352043608442062,0.061300938096205515,0.3863404478417636,-0.480362594127655,1.6081417798995972,0.580669105052948,-0.0573448091745376,0.5417805910110474,0.357975572347641
1749040739.9850175,2.077454892089116,-2.4910952687125323,0.3917385144894872,1.4303968233073028,-6.101132400797117,-3.133890052279398,-0.28514905808041274,0.03199983421726661,0.06144793636837376,0.21437164894003105,0.06121305771412888,0.3882096173229417,-0.4982318580150604,1.5901572704315186,0.5830773711204529,-0.059178814291954,0.5376477241516113,0.3586612343788147
1749040740.0262735,2.0769020880711198,-2.491032250603232,0.39186228699401326,1.4308276422735966,-6.1010106260082875,-3.1331211648312522,-0.28659868704211483,0.03220815480584215,0.06182404582759753,0.21507670477580426,0.061203548063044726,0.39002508238674205,-0.5800936222076416,1.6340384483337402,0.5774599313735962,-0.0524851791560649,0.5560308694839478,0.3470681309700012
1749040740.0263186,2.076346461379413,-2.490968430882961,0.391986829933661,1.4312603851351935,-6.100888396976239,-3.1323470335104497,-0.2880164010101052,0.03234943915173453,0.06217364392358263,0.21564115852965415,0.06128960124106126,0.3917583810160729,-0.5153037905693054,1.6189954280853271,0.5421845316886902,-0.0374012924730777,0.5682300329208374,0.3279407918453216
1749040740.0263596,2.0757871117627036,-2.490903819522458,0.3921122096690535,1.4316949527459768,-6.100765390625495,-3.1315667914022036,-0.2893969215400171,0.03242131784039776,0.062491255549242966,0.21608092683078767,0.06148537032881671,0.39338171002463945,-0.5086477994918823,1.5727802515029907,0.5521765351295471,-0.071848452091217,0.5693739652633667,0.3402478992938995
1749040740.026399,2.075223166373745,-2.490838464623796,0.39223848878334583,1.4321312887402944,-6.100641283270883,-3.13077971887946,-0.29073725446928933,0.03242411188167841,0.06277279973773019,0.2164208978341762,0.06180017031894983,0.3948719360632875,-0.5061330199241638,1.5838215351104736,0.5457978248596191,-0.0232135504484176,0.5803582072257996,0.3271220922470093
1749040740.0264373,2.074653863043167,-2.490772455476146,0.39236571234058265,1.432569360383747,-6.10051578132904,-3.1299853516182634,-0.2920368822261952,0.03236093819393874,0.06301581743136123,0.2166930020063228,0.06223682618693387,0.39621419901505245,-0.5513877272605896,1.600303292274475,0.5376841425895691,-0.0561614856123924,0.5816205739974976,0.2843140363693237
1749040740.0264757,2.0740786286894215,-2.4907059222049543,0.39249389299891885,1.4330091338297772,-6.1003886507737635,-3.129183571534774,-0.29329763419348825,0.03223757946677408,0.06321955982053924,0.21693393390920873,0.06279047564056012,0.3974044390232456,-0.5513877272605896,1.600303292274475,0.5376841425895691,-0.0561614856123924,0.5816205739974976,0.2843140363693237
1749040740.0265138,2.0734971391956694,-2.4906390313647226,0.39262299822768554,1.4334505522941725,-6.100259740517028,-3.128374663033916,-0.29452326152206826,0.03206211691672014,0.06338495069436278,0.21718265727114022,0.06344805787581258,0.3984504032075467,-0.5495423078536987,1.5507802963256836,0.5471274256706238,-0.0588950365781784,0.5827571153640747,0.3050227761268616
1749040740.0265512,2.0729093482339076,-2.490571977267413,0.3927529430897816,1.4338935253971399,-6.100128995461188,-3.1275593193203015,-0.2957187956000788,0.03184436414293687,0.06351445273034192,0.21747779118276903,0.0641886050280201,0.39937104333458967,-0.5268561840057373,1.582937240600586,0.5178321003913879,-0.0547864437103271,0.5752794742584229,0.3289776444435119
1749040740.026589,2.072315479387378,-2.4905049695213397,0.3928835907414091,1.4343379333633008,-6.099996457372768,-3.126738593338306,-0.29688978247812337,0.03159517696994838,0.06361187034227472,0.21785499131392416,0.06498432942045447,0.40019459871401714,-0.476103276014328,1.5768392086029053,0.540686309337616,-0.0352635830640792,0.5772819519042969,0.3262639939785003
1749040740.026626,2.071715985892429,-2.490438218001916,0.3930147605661401,1.434783643361636,-6.099862254980676,-3.1259138014356385,-0.2980414700143687,0.031325731380855266,0.06368211787836923,0.2183444986530813,0.06580239348492861,0.400955916776628,-0.49817755818367,1.5596919059753418,0.5338199734687805,-0.0148888379335403,0.5631952285766602,0.3019317090511322
1749040740.026663,2.0711114895110003,-2.4903719170200485,0.39314624199851933,1.4352305315187324,-6.0997265869674875,-3.1250863972181824,-0.2991780187329355,0.031046850196148258,0.06373097111645724,0.21896908858128591,0.06660718267086477,0.40169359288298795,-0.5942609310150146,1.5880521535873413,0.5221819281578064,-0.0015218704938888,0.5711025595664978,0.3446150422096252
1749040740.0267,2.070502711484388,-2.4903062306063806,0.3932778113192847,1.4356785045531313,-6.099589701886524,-3.1242578347500682,-0.30030182324427535,0.030768426775772482,0.06376480296036939,0.21974265961034883,0.06736287701413624,0.4024473360491112,-0.5633542537689209,1.5776561498641968,0.5436184406280518,-8.793920278549194e-05,0.5600522756576538,0.3403904139995575
1749040740.0267377,2.0698904060581595,-2.490241280622408,0.3934092488332647,1.4361275172472014,-6.099451878097608,-3.1234294373455236,-0.30141303587855484,0.030498962357004007,0.06379029059689283,0.22066961573855723,0.06803611217779074,0.403255705947579,-0.4902832806110382,1.5778584480285645,0.5175091028213501,-0.026914857327938,0.5645570158958435,0.2901366949081421
1749040740.0267785,2.0692753036530154,-2.4901771390232694,0.3935403544240326,1.4365775836548025,-6.099313405560306,-3.122602284736,-0.3025093517235949,0.030245219583098875,0.06381408206620894,0.22174503326227019,0.06859851285070752,0.40415413881104173,-0.5327025651931763,1.5619560480117798,0.5270560383796692,-0.0115749090909957,0.5709978342056274,0.2692798674106598
1749040740.0268164,2.0686580677034008,-2.490113825222143,0.3936709602018006,1.4370287806306439,-6.099174570174724,-3.121777128426079,-0.3035860657292657,0.03001200019138573,0.06384242722516552,0.2229554353616265,0.06902887237663591,0.4051730713600378,-0.5647789239883423,1.6137230396270752,0.5445758700370789,-0.0169153362512588,0.5541651844978333,0.2740252912044525
1749040740.0268576,2.0680392666104184,-2.4900513091676486,0.39380093961794266,1.4374812427340165,-6.099035640418608,-3.120954341859196,-0.30463637952978145,0.029802070186134358,0.06388080265584858,0.22427991160699273,0.06931476472477056,0.406336027661239,-0.5066672563552856,1.6071020364761353,0.5342342853546143,-0.0123458355665206,0.544135570526123,0.3070752322673797
1749040740.0269296,2.0674193600589597,-2.4899895202487663,0.3939302128617251,1.4379351484236325,-6.098896855565757,-3.1201339082279618,-0.30565191368081274,0.029616262944350723,0.06393357664728257,0.22569134981078437,0.06945342244675246,0.4076577243103044,-0.4935656785964966,1.588450908660889,0.5033647418022156,-0.0383892469108104,0.5350816249847412,0.3396895229816437
1749040740.027001,2.066798697198921,-2.489928361341637,0.39405874851840333,1.4383906987149104,-6.0987584150078975,-3.119315444776387,-0.3066233550377015,0.029453772117218592,0.06400375836467445,0.22715766632818354,0.06945178875410402,0.40914245635908136,-0.4800502061843872,1.575617790222168,0.5397980213165283,0.0002839714288711,0.5417959690093994,0.3410953879356384
1749040740.0270436,2.066177523138088,-2.4898677263212554,0.39418656147647196,1.438848090741298,-6.098620468915865,-3.118498258875978,-0.3075411540083791,0.0293126050698192,0.064092860916855,0.22864306815476398,0.0693257383172155,0.4107831177042653,-0.549921989440918,1.593860149383545,0.5295091271400452,-0.0175867676734924,0.5305624008178711,0.3111469149589538
1749040740.0270813,2.0655559900137233,-2.489807518426636,0.3943137072021523,1.439307489601829,-6.098483111110953,-3.1176814284477192,-0.30839620396552436,0.029190129233004684,0.06420089444710468,0.23010948833655606,0.06909855264263833,0.41256114166936,-0.5205525159835815,1.6108005046844482,0.529348611831665,0.0250831618905067,0.5291381478309631,0.3496028780937195
1749040740.0271893,2.064934169516983,-2.4897476663024163,0.39444027291675887,1.4397690023182574,-6.098346375100831,-3.1168638976230887,-0.3091804701832927,0.02908362981170114,0.06432649493227305,0.23151834891317263,0.0687988249185719,0.41444747778323926,-0.4753426611423492,1.602483153343201,0.5283960700035095,0.0018186643719673,0.5383837223052979,0.3561134338378906
1749040740.0290806,2.064312064907689,-2.4896881347178437,0.39456636680123447,1.440232657630924,-6.098210233710496,-3.11604457792287,-0.30988755213120533,0.028990807908434432,0.06446718291704552,0.23283270873033066,0.06845803873700546,0.4164045283525272,-0.4942983388900757,1.605419397354126,0.5406932234764099,-0.0152609795331954,0.5434082746505737,0.3293738663196563
1749040740.0702677,2.0636896219151932,-2.4896289280159927,0.39469210681218253,1.440698394719224,-6.0980746020690955,-3.1152224456185205,-0.3105131544727604,0.028910170450905246,0.06461973366268721,0.23401968882436236,0.0681080920962029,0.4183887977805108,-0.5371503829956055,1.6090548038482666,0.5331032276153564,-0.0252440795302391,0.5542604923248291,0.3073189258575439
