nimar13/UR3e_dataset_trayectorias/trayectorias_ejecutadas_filtradas/quintic_func/trayectoria_240_result_filtrado.csv
timestamp,q1,q2,q3,q4,q5,q6,qd1,qd2,qd3,qd4,qd5,qd6,tau1,tau2,tau3,tau4,tau5,tau6
1749045771.9062667,5.7795855543417,0.1572679638449561,-2.3010648539297125,5.352395883527766,0.1852892908219156,-4.436280457902233,-0.004811949141954232,-0.0009262396773598328,0.002321988179072142,-0.003709395293504168,7.232511879386461e-05,0.0023399145609188303,0.0589843913912773,-0.7286100387573242,0.4909799695014953,0.0619010627269744,-0.1020727008581161,-0.0064213871955871
1749045771.9063108,5.779569261614446,0.15726731301162225,-2.30105770607884,5.352393584891338,0.18529581859860755,-4.436273240456766,-0.0048065308370410535,-0.0008476020811676298,0.0021779052795795812,-0.003433660078229377,7.044392212523553e-05,0.0023287846624765263,0.0589843913912773,-0.7286100387573242,0.4909799695014953,0.0619010627269744,-0.1020727008581161,-0.0064213871955871
1749045771.9063506,5.779553305347716,0.15726666038734474,-2.3010509036568325,5.352391337726924,0.18530212064770313,-4.4362661320854375,-0.004783648206154077,-0.0007704912594256385,0.0020335071230443828,-0.003163839926264303,6.864329998032162e-05,0.002311847389556928,0.0223409608006477,-0.7554673552513123,0.4984022974967956,0.0546911433339118,-0.1011127829551696,-0.0060604810714721
1749045771.906404,5.779538029136051,0.15726605476458855,-2.3010446904376827,5.352389136477741,0.18530797558535902,-4.4362592980126845,-0.004728372000984231,-0.0006963715693595655,0.001888517979242352,-0.002905899009907002,6.6901574971236e-05,0.00228316352290584,0.031857706606388,-0.735123872756958,0.5007837414741516,0.0552191212773323,-0.1114920675754547,-0.0204120576381683
1749045771.9064455,5.779523744032069,0.15726552716700726,-2.301039257722509,5.3523869760296074,0.1853132071479515,-4.436252884672958,-0.004628774565041895,-0.000626611794112593,0.0017431663246424587,-0.002664926011856786,6.518415959824332e-05,0.0022382587596203422,0.031857706606388,-0.735123872756958,0.5007837414741516,0.0552191212773323,-0.1114920675754547,-0.0204120576381683
1749045771.9064877,5.779510715146665,0.15726508500252223,-2.3010347313983663,5.352384853163583,0.18531769741423446,-4.436247007515334,-0.004477046730583218,-0.000562419109352127,0.0015982968135036541,-0.0024447933032862757,6.344560661275647e-05,0.0021745766622615313,0.063877135515213,-0.7405503988265991,0.5056352615356445,0.0627331510186195,-0.0919463336467742,-0.0113554298877716
1749045771.906526,5.779499150913031,0.15726471331456016,-2.3010311660990075,5.352382767570112,0.18532139211360346,-4.43624174471857,-0.0042702044759125035,-0.0005047693965657343,0.0014553561172957153,-0.0022479422557873073,6.163326183163877e-05,0.0020916149480802665,0.0431550219655036,-0.7352628707885742,0.5052993297576904,0.0614085383713245,-0.10068279504776,-0.0021097064018249
1749045771.9065626,5.779489194590212,0.1572643823210772,-2.3010285466080806,5.352380721980492,0.18532429853272422,-4.436237136740443,-0.004010305649185474,-0.00045434246099942553,0.0013162615448837128,-0.002075312829181085,5.969257288390008e-05,0.0019907648403077356,0.0411506593227386,-0.7393174171447754,0.4949441254138946,0.0797407701611518,-0.0983230024576187,0.0076811015605926
1749045771.9065993,5.7794809179840545,0.1572640588767967,-2.3010267955406967,5.35237872117721,0.18532647757835344,-4.436233190394229,-0.0037041530493321637,-0.0004114727597752877,0.0011831840615618913,-0.0019264173404997748,5.7573936119834426e-05,0.0018749321978672139,0.0527592077851295,-0.7424651384353638,0.5051871538162231,0.0494440197944641,-0.0958297252655029,-0.0097240507602691
1749045771.9066362,5.779474318459001,0.15726371864789698,-2.301025785769638,5.352376770001409,0.18532803187274302,-4.436229885346633,-0.003362521370221501,-0.0003761245542979094,0.0010582889515941345,-0.00179953985681025,5.524074088957022e-05,0.0017480458278598537,0.0527592077851295,-0.7424651384353638,0.5051871538162231,0.0494440197944641,-0.0958297252655029,-0.0097240507602691
1749045771.9066727,5.77946932098738,0.15726335579954523,-2.301025356022424,5.352374870817271,0.18532909148524834,-4.436227180797905,-0.0029989996320812953,-0.0003478958131076052,0.000943477739067526,-0.0016920249139395459,5.267801399903624e-05,0.0016145517539195291,0.048588789999485,-0.7309319972991943,0.516840398311615,0.060535043478012,-0.1077374368906021,-0.0161122381687164
1749045771.9067094,5.779465786347645,0.15726298788917756,-2.3010253282398883,5.352373021148225,0.18532979843338987,-4.436225020756972,-0.0026285812836012753,-0.0003260499465852702,0.000840168040465252,-0.0016006049445005247,4.990081899328014e-05,0.0014789645501984998,0.0432365946471691,-0.7137836813926697,0.50253826379776,0.0660538598895073,-0.0987041592597961,-0.0117949843406677
1749045771.9067464,5.779463524927866,0.15726265513617446,-2.3010255253371543,5.352371212336682,0.18533029088024086,-4.43622333746975,-0.0022661595037570975,-0.000309570508671924,0.0007491378375528409,-0.0015217098655296566,4.6961370025488e-05,0.0013455134348638576,0.0290604382753372,-0.7323200702667236,0.4974348843097687,0.0558603927493095,-0.1030376702547073,-0.0256603062152862
1749045771.9067829,5.779462314048512,0.15726241467480612,-2.3010257878594684,5.352369430034135,0.18533068826898086,-4.436222053557569,-0.0019250916537277448,-0.0002972321794085773,0.000670449301425608,-0.0014517096173744515,4.3953704900231024e-05,0.0012178923470468187,0.0602155402302742,-0.7170724868774414,0.5007887482643127,0.079001136124134,-0.108771413564682,0.0083006918430328
1749045771.90682,5.779461916173088,0.15726233131105388,-2.3010259878721993,5.352367657003872,0.1853310793411798,-4.436221083817417,-0.0016159798193096523,-0.00028768145030879776,0.0006034558296329035,-0.0013870616128196715,4.101473967955636e-05,0.0010991042167572827,0.0602155402302742,-0.7170724868774414,0.5007887482643127,0.079001136124134,-0.108771413564682,0.0083006918430328
1749045771.9068592,5.779462095877398,0.15726246667184143,-2.301026038550527,5.352365878088551,0.1853315154436534,-4.436220337512218,-0.001345777471672749,-0.0002795216965347124,0.0005468859174824844,-0.0013243640940456753,3.8320618801939505e-05,0.000991380377009191,0.0294006690382957,-0.7437465786933899,0.4924758970737457,0.0872275531291961,-0.1088356077671051,0.0033213794231414
1749045771.906896,5.779462634496878,0.15726286860041452,-2.3010258984248995,5.352364086448232,0.18533201087169282,-4.4362197216779045,-0.001117287769906942,-0.0002713989282282319,0.0004989905511856221,-0.0012603443074022099,3.607751192453795e-05,0.0008961549068151628,0.0556028857827186,-0.7091063857078552,0.5019927620887756,0.0555162131786346,-0.1116456985473632,0.0027104914188385
1749045771.9069326,5.779463342392202,0.15726356226019372,-2.3010255699669564,5.352362289631122,0.18533255006130717,-4.4362191456052065,-0.0009290782421949071,-0.00026208594278303996,0.0004577373833726868,-0.0011918301430252705,3.450641412244868e-05,0.0008140778808085571,0.0523934513330459,-0.7064504623413086,0.5014777779579163,0.0814508572220802,-0.1173203289508819,-0.0055761635303497
1749045771.9069688,5.779464069255802,0.15726454381572805,-2.3010250930441476,5.352360513892438,0.18533309927640465,-4.436218526157904,-0.0007758029302035494,-0.0002505635369039067,0.00042103386515019884,-0.0011157614687499562,3.382207280388948e-05,0.0007450574178618235,0.0692541077733039,-0.7104449272155762,0.4904297888278961,0.0647729337215423,-0.1060655713081359,-0.0206771194934844
1749045771.9070046,5.7794647124789895,0.1572657771088909,-2.301024534625711,5.352358805410522,0.18533361939309667,-4.4362177931456905,-0.0006488945445721906,-0.00023609770452776339,0.00038696125801360013,-0.001029291333817062,3.420685875744128e-05,0.0006883248801487187,0.0692541077733039,-0.7104449272155762,0.4904297888278961,0.0647729337215423,-0.1060655713081359,-0.0206771194934844
1749045771.9071386,5.779465222574423,0.15726719359811003,-2.301023976746299,5.352357227572375,0.18533407683708766,-4.436216893945305,-0.0005375640174569227,-0.00021831139530446473,0.00035400137144179177,-0.0009300093954631135,3.5781174436118085e-05,0.0006425196266507241,0.0738930851221084,-0.706203818321228,0.4880114495754242,0.0682878419756889,-0.1143768429756164,-0.0107509493827819
1749045771.9084706,5.779465603987866,0.15726869576641125,-2.3010235047948133,5.352355854233722,0.18533445097910312,-4.436215797009413,-0.00043002377543739087,-0.00019724867370481908,0.0003212382004031926,-0.0008162953847127037,3.85727969031785e-05,0.000605790673751756,0.0644077584147453,-0.6794787645339966,0.4906619489192962,0.0784512460231781,-0.1212188303470611,-0.0225519835948944
1749045771.954294,5.779465910110699,0.15727016400371596,-2.301023197591202,5.35235475968357,0.18533473754646262,-4.436214494400359,-0.0003148355849626658,-0.00017342814161333864,0.00028851779208252025,-0.0006877846070166182,4.248831379403556e-05,0.0005759139964882526,0.0851230770349502,-0.6880067586898804,0.4966537058353424,0.0862235575914383,-0.1339528858661651,-0.0167431533336639
1749045771.9543393,5.779466232594265,0.15727146663187358,-2.301023119779254,5.352354006735874,0.18533494859448466,-4.436213003583855,-0.00018227437278194684,-0.000147881219913631,0.00025655175410446246,-0.0005459037207465306,4.7290428428062025e-05,0.0005504260955193909,0.0972803682088851,-0.6804800033569336,0.4906154274940491,0.0732237547636032,-0.1304256618022918,-0.0165497362613677
1749045771.9543917,5.779466686228947,0.15727247232898753,-2.3010233163356246,5.3523536346613145,0.18533511015739174,-4.436211368402593,-2.5595710919044273e-05,-0.00012216942787087847,0.00022695272093924257,-0.0003944149219895847,5.2585267757853655e-05,0.0005267757560530338,0.0781873241066932,-0.6965800523757935,0.4784626066684723,0.0727883130311966,-0.1411809027194976,-0.0128059685230255
1749045771.9544427,5.779467391152227,0.15727306374257854,-2.301023808767935,5.352353648470918,0.18533525858890976,-4.4362096587851685,0.00015790300581387738,-9.837369708723879e-05,0.00020219385864003118,-0.00023989164149766382,5.782381159525602e-05,0.0005024956849679617,0.0846669971942901,-0.664332926273346,0.4943732917308807,0.0924102365970611,-0.1200956404209137,-0.031228095293045
1749045771.9544885,5.779468454112518,0.1572731506226099,-2.301024592768735,5.352354010629206,0.1853354359164392,-4.436207968583094,0.00036612799822199356,-7.904877074182307e-05,0.00018548934203111719,-9.204096171203907e-05,6.232108066077259e-05,0.00047539376693216844,0.1142232492566108,-0.706113338470459,0.4901511371135711,0.0911580026149749,-0.1233611702919006,-0.030412882566452
1749045771.9545271,5.779469950386843,0.15727268047216222,-2.3010256374387303,5.352354635976938,0.18533568397071679,-4.4362064109226,0.0005918226222169775,-6.71374045040906e-05,0.00018059886029832384,3.621072839333464e-05,6.52957087437726e-05,0.00044376035728155544,0.1142232492566108,-0.706113338470459,0.4901511371135711,0.0911580026149749,-0.1233611702919006,-0.030412882566452
1749045771.9545648,5.7794719081153305,0.1572716446877229,-2.3010268864067838,5.352355390513181,0.18533603721688857,-4.4362051105605715,0.0008226401576115209,-6.584255533125942e-05,0.00019156653372853882,0.0001289402818092972,6.593095302830327e-05,0.0004065838218292109,0.1379658281803131,-0.724311351776123,0.4886155426502228,0.0703349709510803,-0.1024592220783233,-0.0209030210971832
1749045771.9546022,5.779474297219325,0.1572700786882884,-2.3010282610655297,5.352356094426707,0.18533651498298342,-4.436204193022405,0.0010416636097123468,-7.846086265292521e-05,0.0002224128133689657,0.00016780651782850994,6.345609248070354e-05,0.00036376207616026256,0.1379658281803131,-0.724311351776123,0.4886155426502228,0.0703349709510803,-0.1024592220783233,-0.0209030210971832
1749045771.9546402,5.779477025115441,0.157268055661201,-2.301029665735463,5.352356529246195,0.18533711449609908,-4.436203770806637,0.001228325619294958,-0.00010818707322465694,0.00027680630378255395,0.0001329986220667356,5.7244617890037315e-05,0.0003162939010333692,0.0944653898477554,-0.7534178495407104,0.5120992660522461,0.0847795009613037,-0.0884733647108078,-0.0399300754070282
1749045771.954677,5.779479940440759,0.15726567492675045,-2.3010309941272964,5.352356448428402,0.18533780625008586,-4.4362039276425165,0.0013596262964776739,-0.00015790595905259948,0.0003577498686978478,4.524200111716075e-06,4.692278818735575e-05,0.00026643098375822967,0.0968842729926109,-0.7510315179824829,0.5289609432220459,0.075075663626194,-0.0947014689445495,-0.0293725430965423
1749045771.9547136,5.77948284397155,0.1572630470542413,-2.301032136271177,5.352355590350935,0.18533853279444262,-4.436204702642293,0.0014115112693390104,-0.0002299948362833673,0.00046732025109133616,-0.00023624185453208012,3.247924500190649e-05,0.00021777048872637065,0.0924968793988227,-0.7683266401290894,0.5209710597991943,0.0866565480828285,-0.0816655606031417,-0.0413801670074462
1749045771.9547503,5.779485503837163,0.15726027846723448,-2.301032985149124,5.352353692462507,0.18533921152970192,-4.436206076942196,0.001360274818143843,-0.00032616487218096936,0.0006065007949725746,-0.0006048750333501472,1.436373673267606e-05,0.00017526894664694417,0.0924968793988227,-0.7683266401290894,0.5209710597991943,0.0866565480828285,-0.0816655606031417,-0.0413801670074462
1749045771.9547868,5.7794876712165095,0.15725745820904974,-2.301033442427183,5.352350505146087,0.18533974176531068,-4.436207965555237,0.0011838903135079702,-0.00044737140794614465,0.0007751405245143241,-0.0011122536232241042,-6.439043138629819e-06,0.00014516180676997186,0.0963471159338951,-0.7652371525764465,0.5405664443969727,0.0562968403100967,-0.1047398746013641,-0.0349559485912323
1749045771.9548235,5.779489093329656,0.15725464869016084,-2.301033422850926,5.352345803791167,0.18534001591009389,-4.4362102163777175,0.0008632164210538818,-0.0005938205096873928,0.0009720575611531019,-0.0017631381618982336,-2.837556450032897e-05,0.00013477950293399782,0.0785489678382873,-0.7569129467010498,0.5634421110153198,0.0471839532256126,-0.098525658249855,-0.0341371297836303
1749045771.9548602,5.779489522082234,0.15725188079273272,-2.3010328570828276,5.352339397910695,0.18533993400123774,-4.43621261693946,0.00038305836905295717,-0.0007650886853146961,0.001195279027036308,-0.002555167574562541,-4.9344279471526576e-05,0.00015226044620275628,0.0477279238402843,-0.8004602193832397,0.5506482124328613,0.0321312993764877,-0.0981898605823516,-0.0182097256183624
1749045771.9548967,5.779488718331863,0.1572491523462185,-2.301031692968626,5.352331136917302,0.1853394199689183,-4.436214908139463,-0.0002669261936564238,-0.000960353089023798,0.0014423758313911387,-0.0034784245109917744,-6.678393092272508e-05,0.00020617342323691124,0.0477279238402843,-0.8004602193832397,0.5506482124328613,0.0321312993764877,-0.0981898605823516,-0.0182097256183624
1749045771.9549334,5.779486452963024,0.15724642850685677,-2.3010298953172956,5.352320913073438,0.18533843728563962,-4.436216803130799,-0.0010914892630822205,-0.001178699690768675,0.001710821258609192,-0.0045156521281046165,-7.783824612469703e-05,0.0003050750513419214,-0.0343725830316543,-0.7566865682601929,0.5509471297264099,0.0383347794413566,-0.1126751005649566,-0.0026767551898956
1749045771.95497,5.779482506670283,0.15724364318278078,-2.301027444331954,5.3523086626926695,0.18533700107569773,-4.436218008788196,-0.0020892398766488795,-0.0014194420836497205,0.0019982960414561797,-0.005643115973204694,-7.960007011049851e-05,0.00045704009008821345,-0.0343725830316543,-0.7566865682601929,0.5509471297264099,0.0383347794413566,-0.1126751005649566,-0.0026767551898956
1749045771.9550064,5.779476670472876,0.1572407016928612,-2.301024332959959,5.352294366639905,0.1853351836949819,-4.436218246943531,-0.003252299496716667,-0.001682361827990039,0.0023028900811885144,-0.006832022649383691,-6.94303341004394e-05,0.0006692107561916958,-0.0405305624008178,-0.8136980533599854,0.5699451565742493,0.0268198028206825,-0.0991888046264648,-0.0066436529159545
1749045771.9550433,5.77946874844223,0.1572374853576801,-2.3010205635612193,5.352278050656024,0.18533311172449646,-4.436217272814113,-0.004566198546703975,-0.0019677958580366804,0.0026232012195214617,-0.008050354282361753,-4.5338155667457344e-05,0.0009474120659964801,-0.0332951694726944,-0.8285194635391235,0.5871425271034241,0.0222061201930046,-0.1186313927173614,0.0045494139194488
1749045771.9550798,5.779458563116465,0.15723385832629896,-2.3010161442406245,5.352259785338745,0.1853309541518468,-4.436214888574824,-0.00601006473434822,-0.002276550197720523,0.0029583762085633814,-0.00926496099557618,-6.398477217681006e-06,0.0012958691356310898,-0.0852772891521453,-0.8158502578735352,0.5859636664390564,0.0124621093273162,-0.1150248050689697,0.014128640294075
1749045771.955116,5.779445962978967,0.15722967617486008,-2.301011084959031,5.352239685049786,0.18532890335415214,-4.43621095074081,-0.007557167414238567,-0.0026096809351761224,0.0033081497857611985,-0.010443761195562241,4.6826117375928654e-05,0.0017170361909811336,-0.0820669084787368,-0.8186911344528198,0.5719811320304871,0.000587910413742,-0.1190375387668609,0.0148113369941711
1749045771.9552224,5.7794308304122355,0.1572247953941219,-2.3010053933496124,5.352217904721725,0.18532715161756763,-4.436205371057463,-0.009175875723031671,-0.0029682143581594594,0.003672905301166214,-0.011557914883919235,0.00011190126717325623,0.002211509711418199,-0.0854135602712631,-0.8053452968597412,0.5923988819122314,-0.0108841657638549,-0.1264330744743347,0.0156589597463607
1749045771.9564552,5.779413087945725,0.15721908293011827,-2.300999070202094,5.352194633503031,0.1853258663970366,-4.436198111940113,-0.010831054480343107,-0.003352868871294132,0.004053725624477828,-0.01258384779726779,0.00018422216816451684,0.002777965461098399,-0.1194016635417938,-0.8111104965209961,0.5937297940254211,-0.0038982629776,-0.1341114342212677,0.0129562467336654
1749045771.998283,5.779392700860679,0.1572124250251762,-2.300992104802037,5.352170084383846,0.18532516758105907,-4.436189178704882,-0.01248586843714161,-0.003763815136105448,0.004452366188999641,-0.013505009352460354,0.00025685017315901906,0.0034130536702684545,-0.1077713668346405,-0.8660645484924316,0.5875353217124939,-0.0243593305349349,-0.1293173730373382,0.0241319239139556
1749045771.9983287,5.779369675370387,0.1572047344130157,-2.300984470581921,5.352144479365325,0.18532510960103343,-4.436178611192256,-0.014103906928857544,-0.004200494408108677,0.004871090418419107,-0.014313244505160515,0.00032053128214167535,0.0041112205014350485,-0.1077713668346405,-0.8660645484924316,0.5875353217124939,-0.0243593305349349,-0.1293173730373382,0.0241319239139556
1749045771.998376,5.779344052942133,0.15719595472460893,-2.300976121761665,5.352118030366706,0.1853256703078387,-4.436166476685331,-0.015651486001456785,-0.004661510815673084,0.005312352365145413,-0.015009652802064385,0.0003639338131359251,0.004864484297291108,-0.1486478596925735,-0.8606376647949219,0.6074961423873901,-0.0076152235269546,-0.1373214721679687,0.0208183526992797
1749045771.9984264,5.779315902112889,0.15718606135013846,-2.3009669918020355,5.352090917001702,0.18532674746874153,-4.436152864821301,-0.017099933131161187,-0.005144603901465715,0.005778358324575214,-0.015604807300874487,0.0003741265445793433,0.0056622493862066685,-0.123671755194664,-0.8416975140571594,0.604242742061615,-0.0007118731737136,-0.161271184682846,0.0458131432533264
1749045771.9984665,5.7792853092915495,0.15717505905005383,-2.300956994524791,5.3520632635911465,0.18532816285463308,-4.436137884255739,-0.018427616282283985,-0.005646685321654293,0.006270563494592985,-0.01611822948395253,0.00033729615034242927,0.006491260306435808,-0.1144337356090545,-0.8535540103912354,0.6032937169075012,-0.0124001502990722,-0.1797517240047454,0.0296358466148376
1749045771.998506,5.779252369773973,0.15716297757628656,-2.300946028556492,5.352035118820711,0.18532967328857713,-4.436121660424824,-0.01962146954454908,-0.006163905319749463,0.006789162251359032,-0.016577083625962396,0.00023967488746487448,0.007335781830671533,-0.1352060437202453,-0.8729218244552612,0.6106933951377869,-0.0119108259677886,-0.1829550266265869,0.0467193573713302
1749045771.9985447,5.779217179606467,0.15714986674602385,-2.300933985237886,5.35200644154713,0.18533098764424852,-4.436104333584983,-0.020677819047146998,-0.006691719959401383,0.007332626507952556,-0.017014166710408094,6.861836787351946e-05,0.00817805327198921,-0.1352060437202453,-0.8729218244552612,0.6106933951377869,-0.0119108259677886,-0.1829550266265869,0.0467193573713302
1749045771.9985816,5.779179828213404,0.15713579191336355,-2.3009207594252783,5.35197709513385,0.18533178840242903,-4.436086056113751,-0.021602418712076497,-0.007224952084137196,0.007897346897315503,-0.017465396376638263,-0.00018625782890927643,0.008999027650775333,-0.1176195293664932,-0.8828408122062683,0.6428581476211548,-0.0412208288908004,-0.2038272321224212,0.0682926476001739
1749045771.998619,5.7791403914321595,0.15712083016403441,-2.300906262004465,5.351946850855296,0.18533175574378155,-4.436066987940829,-0.022409722633554185,-0.007757852913766587,0.008477434881450422,-0.017967091858540462,-0.0005320003012738063,0.009779371224459035,-0.1082541495561599,-0.875624418258667,0.6399933695793152,-0.0198889970779418,-0.2062450945377349,0.0613805651664733
1749045771.9986565,5.7790989251401506,0.15710506710724895,-2.300890432659939,5.351915399175266,0.18533059139731747,-4.43604728931832,-0.023121507936568173,-0.008284169624399196,0.009064740280228025,-0.01855336930258586,-0.0009714319437656884,0.01050066263418494,-0.1236500293016433,-0.9002298712730408,0.642102062702179,-0.0547148734331131,-0.2307694256305694,0.0670040696859359
1749045771.9986951,5.779055460536103,0.1570885938414417,-2.3008732514195844,5.351882366689712,0.18532803915389065,-4.4360271111038365,-0.023765010199927907,-0.00879722548502027,0.009649120317321956,-0.01925392985444115,-0.0015025889032556491,0.011146696480043674,-0.15928715467453,-0.9172212481498718,0.6479272246360779,-0.0613675639033317,-0.2482980787754058,0.0583337843418121
1749045771.9987364,5.779010002536775,0.15707150352626378,-2.300854747540773,5.351847336373327,0.18532389952741665,-4.436006583976505,-0.024370758211950342,-0.009290036595077916,0.010218966729277737,-0.020092424969623494,-0.002118583380088404,0.011704773033034226,-0.1338389068841934,-0.9311372637748718,0.6528686285018921,-0.0633627101778984,-0.2435450255870819,0.0668372809886932
1749045771.9987748,5.778962532369082,0.15705388708791745,-2.3008350044266255,5.351809869176178,0.18531803732640556,-4.435985808880406,-0.02497030735530717,-0.009755509019980417,0.010761967210527051,-0.021085467639330002,-0.0028079381515243767,0.012166848393979366,-0.1258848309516906,-0.9499722123146056,0.6622186899185181,-0.0668205693364143,-0.2314151227474212,0.075117141008377
1749045771.998812,5.778913014421228,0.15703582790906012,-2.3008141596228397,5.35176952545604,0.18531038234304212,-4.435964851022745,-0.02559406920174093,-0.0101867589672736,0.011266050716233472,-0.022242251047177457,-0.0035553606785106327,0.012530424914416987,-0.1642776131629943,-0.9258283376693726,0.6564041376113892,-0.0726507306098938,-0.2379209101200103,0.1010856628417968
1749045771.998849,5.778861406031777,0.15701739573253948,-2.300792399518096,5.351725884907008,0.1853009244820296,-4.435943738887678,-0.02626941456183826,-0.010577571915970179,0.011720439756332093,-0.02356466170138671,-0.004342849934802327,0.012799077903539659,-0.1642776131629943,-0.9258283376693726,0.6564041376113892,-0.0726507306098938,-0.2379209101200103,0.1010856628417968
1749045771.998886,5.778807667722986,0.15699864030586697,-2.3007699489146605,5.351678563790103,0.18528970513248358,-4.435922468213622,-0.02701918940083812,-0.0109229771434911,0.012116706532552778,-0.02504774403459908,-0.005150984418771272,0.012982542662886247,-0.1733503341674804,-0.9461469650268556,0.6443086862564087,-0.084759421646595,-0.2493047267198562,0.0777225494384765
1749045771.9989228,5.778751771249457,0.15697958558360822,-2.3007470560719474,5.351627228856507,0.185276806458063,-4.435901009242478,-0.027860730795584255,-0.011219874646007908,0.01244970950233642,-0.02668038397058508,-0.005960233507017565,0.013096325831120628,-0.188386470079422,-0.9425349235534668,0.638316810131073,-0.0758429914712905,-0.2579116225242615,0.1001516282558441
1749045771.9989705,5.778693703974318,0.15696022567591345,-2.3007239743233723,5.351571608358008,0.18526233995941271,-4.435879314525278,-0.028805408273666896,-0.011467619546178308,0.012718281054047391,-0.02844611553408106,-0.006752153804250235,0.013160852584311638,-0.1989945471286773,-0.963098406791687,0.6553205847740173,-0.0889344960451126,-0.2523998022079468,0.0750743746757507
1749045771.9990096,5.778633469640687,0.15694052398087083,-2.3007009419624587,5.351511501167586,0.18524643551400638,-4.435857324693181,-0.029858656655019578,-0.011668453481883088,0.012925555204142415,-0.030324003939491712,-0.0075103626578970385,0.013200209094794694,-0.2015390247106552,-0.9605254530906676,0.6505330204963684,-0.1077199056744575,-0.2638247609138489,0.0915299355983734
1749045771.9990463,5.778571086368683,0.15692041663798365,-2.3006781625057395,5.351446784482215,0.1852292319618927,-4.435834970741237,-0.031020425641704628,-0.011827683220287466,0.013078872382683807,-0.03228961182912558,-0.008221218637834343,0.013240581467446486,-0.2015390247106552,-0.9605254530906676,0.6505330204963684,-0.1077199056744575,-0.2638247609138489,0.0915299355983734
1749045771.9991562,5.77850658231648,0.15689982040400402,-2.3006557873825226,5.3513774191177355,0.18521086986220717,-4.435812172923051,-0.03228595405186623,-0.011953546075947747,0.013189267968367205,-0.0343160972887685,-0.00887418426008876,0.013308524192738695,-0.2222775220870971,-0.9861425161361694,0.6564939022064209,-0.1003491431474685,-0.2520169615745544,0.1020045951008796
1749045772.0004792,5.778439988587528,0.156878643696406,-2.300633902633405,5.351303450306131,0.1851914864520931,-4.435788837762344,-0.03364677281116822,-0.012056758775420917,0.013270620572178118,-0.03637549928791157,-0.00946189375804608,0.01342920927043238,-0.2040989995002746,-0.989538311958313,0.672455370426178,-0.1239683628082275,-0.2454868406057357,0.0930932834744453
1749045772.0423312,5.778371328555112,0.1568567986435298,-2.3006125206350303,5.351225002107312,0.1851712124905312,-4.435764855505352,-0.03509183824886611,-0.012149802701116357,0.013338583741767204,-0.03844022544598498,-0.009979984682537742,0.013624808120204689,-0.2040989995002746,-0.989538311958313,0.672455370426178,-0.1239683628082275,-0.2454868406057357,0.0930932834744453
1749045772.0423777,5.7783006032212185,0.15683421197056882,-2.3005915774071957,5.351142264775245,0.1851501705909285,-4.435740100179242,-0.03660869397317907,-0.012246038182976966,0.013409439671526763,-0.040484681329239124,-0.010426763911816765,0.013913142983374495,-0.2469580322504043,-1.0150046348571775,0.6823989152908325,-0.1270641833543777,-0.2426948547363281,0.1059726476669311
1749045772.0424275,5.778227773509013,0.1568108332068699,-2.3005709356495214,5.3510554758897175,0.18512847464346419,-4.435714433341157,-0.038184560185307255,-0.012358757598950365,0.013498996928783159,-0.042486896282397574,-0.010802765506157282,0.014306717999505895,-0.2317557632923126,-1.0244262218475342,0.6852366924285889,-0.1019592955708503,-0.2484281957149505,0.1087862104177475
1749045772.0424693,5.778152742266534,0.1567866394237179,-2.300550393201387,5.350964897390408,0.1851062300220357,-4.435687711216383,-0.03980725618066132,-0.012500283877668526,0.013621618815674731,-0.0444299352585274,-0.011110234962284585,0.014812205340120347,-0.2547277212142944,-1.0306856632232666,0.6783933639526367,-0.1092457622289657,-0.2563468217849731,0.1408778727054596
1749045772.0425074,5.778075340521567,0.15676163607045723,-2.3005296961109583,5.350870791550572,0.1850835345236344,-4.4356597938535165,-0.04146587974169621,-0.012681202183338304,0.013789433572089593,-0.04630287138637146,-0.01135256396659282,0.015430416318011671,-0.284955233335495,-0.9988862872123718,0.6823821663856506,-0.128342866897583,-0.2561151087284088,0.1121481657028198
1749045772.0425472,5.777995323029095,0.15673585351367655,-2.3005085549912296,5.350773398917503,0.18506048016901702,-4.435630554427837,-0.043151203807223856,-0.012909782659270607,0.014011755654298557,-0.04810115503702036,-0.011533711921114926,0.01615673297613058,-0.284955233335495,-0.9988862872123718,0.6823821663856506,-0.128342866897583,-0.2561151087284088,0.1121481657028198
1749045772.0425894,5.777912376719651,0.15670933907925663,-2.300486663001132,5.3506729203030545,0.18503715584512045,-4.435599886904897,-0.044855798542612124,-0.013191618220577541,0.01429473733697056,-0.049826336540133645,-0.01165767357523687,0.016981924557357257,-0.2642011046409607,-1.048428297042847,0.7089771628379822,-0.1581377536058426,-0.2510671615600586,0.1380905658006668
1749045772.0426276,5.777826142841261,0.15668214521604049,-2.300463713878791,5.350569503868089,0.18501365042432005,-4.4355677107641025,-0.04657391953887273,-0.013529472699250497,0.014641259024481235,-0.051485224835365384,-0.011728065180621005,0.01789323746675441,-0.2689707279205322,-1.0402473211288452,0.711090624332428,-0.1208235546946525,-0.2439930588006973,0.1386912316083908
1749045772.042665,5.7777362506539856,0.15665431567587818,-2.300439419029998,5.35046323801301,0.1849900557611837,-4.435533972119819,-0.04830120905701732,-0.013923317063115998,0.015051045841831099,-0.053088639495101286,-0.011747894620745344,0.018875626938283905,-0.3009310364723205,-1.0883241891860962,0.7139743566513062,-0.1020824834704399,-0.245929479598999,0.151168406009674
1749045772.0427022,5.777642358267604,0.15662587253359458,-2.3004135233649636,5.35035415088391,0.1849664688953583,-4.435498641153407,-0.050034259789461466,-0.01437052421521785,0.015520972234269178,-0.05464992728816947,-0.011719557911100307,0.019912990298796188,-0.2884462177753448,-1.053892731666565,0.7140647768974304,-0.1033566668629646,-0.2572513520717621,0.1386459767818451
1749045772.0427427,5.777544194650211,0.15659680684405025,-2.30038581981627,5.350242216845459,0.18494299278957574,-4.4354617061313055,-0.051770112593576695,-0.014866191292559667,0.016045497945233994,-0.056183394066138516,-0.011645072448828673,0.02098927110942781,-0.2884462177753448,-1.053892731666565,0.7140647768974304,-0.1033566668629646,-0.2572513520717621,0.1386459767818451
1749045772.0427806,5.777441596052902,0.15656707486077492,-2.3003561620229878,5.350127368974053,0.18491973505560633,-4.435423164483143,-0.053505790656002326,-0.015403558930317604,0.016617174343976533,-0.05770277899844919,-0.011526519480141861,0.02208933503767925,-0.3031455278396606,-1.0526423454284668,0.7306016683578491,-0.1013848930597305,-0.2576574683189392,0.1668241471052169
1749045772.0428176,5.777334530441344,0.15653660036073838,-2.300324473878852,5.350009515324116,0.18489680445106008,-4.435383011788926,-0.05523798437876615,-0.01597449910579046,0.017227166528274968,-0.059219882115576,-0.01136662692485078,0.0231995604609453,-0.3628677129745483,-1.072272777557373,0.7359617948532104,-0.1063938662409782,-0.2358441948890686,0.1693026721477508
1749045772.0428543,5.777223104995798,0.15650528194161936,-2.300290754165839,5.349888556188892,0.18487430540098723,-4.4353412301989295,-0.05696297817423122,-0.016570046362570194,0.017865749100661254,-0.06074344950341412,-0.011169388287608599,0.024308123634370515,-0.3628677129745483,-1.072272777557373,0.7359617948532104,-0.1063938662409782,-0.2358441948890686,0.1693026721477508
1749045772.042894,5.777107553971632,0.1564730026963807,-2.3002550747537764,5.349764399696299,0.18485233120951433,-4.43529777832116,-0.05867685363077708,-0.01718094897901207,0.018522750503313517,-0.06227842485240161,-0.010940599706836758,0.025404989827416905,-0.3173615336418152,-1.09298837184906,0.7232061624526978,-0.144919291138649,-0.2448300570249557,0.1730457693338394
1749045772.0429318,5.7769882072442265,0.15643963931953123,-2.3002175718381688,5.349636973632001,0.18483095675775035,-4.43525258454541,-0.06037592488689799,-0.017798215136660647,0.019187939707042866,-0.06382567505712305,-0.010688214748364575,0.026481656480716934,-0.326133131980896,-1.082833766937256,0.750615656375885,-0.1363100260496139,-0.2323354929685592,0.159104973077774
1749045772.042968,5.776865443806555,0.15640506882255198,-2.3001784310751914,5.34950623257341,0.18481023133493393,-4.435205545360148,-0.06205728716113991,-0.01841362590365365,0.01985136385567739,-0.06538225592003541,-0.010422456314018865,0.027530729727579806,-0.3516700863838196,-1.0693209171295166,0.7297512292861938,-0.1339226365089416,-0.2427185773849487,0.1629548370838165
1749045772.0430045,5.776739638161003,0.15636917281107926,-2.3001378686843976,5.349372160879049,0.18479017211711832,-4.435156529795757,-0.06371932486634788,-0.019020185897222066,0.02050365294550949,-0.0669421909282479,-0.010155665226532268,0.028545442321010476,-0.3379476964473724,-1.0938235521316528,0.7469607591629028,-0.141615554690361,-0.2412156462669372,0.1767193526029586
1749045772.0430417,5.776611108917697,0.15633184040785703,-2.300096111111482,5.349234772630533,0.18477075889971595,-4.435105390511568,-0.06536204989086412,-0.01961248633670892,0.02113631009328023,-0.06849763239344171,-0.009901891549140576,0.029519234686646433,-0.3379476964473724,-1.0938235521316528,0.7469607591629028,-0.141615554690361,-0.2412156462669372,0.1767193526029586
1749045772.0430815,5.776480077369558,0.15629297089781585,-2.300053375623187,5.349094108955122,0.1847519308071352,-4.4350519808994555,-0.0669872024948697,-0.020186961653891135,0.02174200514569525,-0.07004021308790938,-0.009676252682327616,0.03044551609812878,-0.3414376378059387,-1.0994231700897217,0.741619884967804,-0.1350152641534805,-0.2470963597297668,0.1790540963411331
1749045772.04319,5.77634664083835,0.15625247664717049,-2.3000098536128863,5.348950232581577,0.18473358554738817,-4.4349961760703005,-0.06859811132572692,-0.02074202482298634,0.02231488280600468,-0.07156238938317754,-0.009494104977620115,0.03131768878495797,-0.3710911571979522,-1.078264236450195,0.7381995320320129,-0.1336868554353714,-0.2330649495124817,0.1877387017011642
1749045772.0445046,5.776210762996057,0.1562102866563011,-2.299965697787367,5.348803220213802,0.18471558140372876,-4.43493789439078,-0.07019935790089693,-0.021278067059226802,0.02285088167918225,-0.07305859750278444,-0.00937010451488533,0.03212945166259534,-0.4047987461090088,-1.075360894203186,0.7475982904434204,-0.1407812386751175,-0.2439738512039184,0.1645346283912658
1749045772.0862844,5.776072281656178,0.1561663512998656,-2.2999210138678574,5.348653154712119,0.18469774181812224,-4.434877115909388,-0.07179631980347487,-0.021797312065306957,0.023348040842827038,-0.07452607273179784,-0.00931725413785675,0.03287532140963118,-0.3677527904510498,-1.0779635906219482,0.7469795942306519,-0.132186084985733,-0.2525111436843872,0.1756533980369568
1749045772.086328,5.775930932918635,0.15612064864640948,-2.2998758568809534,5.348500119452359,0.18467986220654442,-4.4348138944999915,-0.07339466753252082,-0.022303532004133406,0.02380675438979407,-0.07596522229519184,-0.009346034346376427,0.03355124945073094,-0.3677527904510498,-1.0779635906219482,0.7469795942306519,-0.132186084985733,-0.2525111436843872,0.1756533980369568
1749045772.0863676,5.77578638833279,0.15607319174823478,-2.299830231548534,5.348344195961715,0.18466171851535118,-4.434748361444168,-0.07499986496563506,-0.022801657138239447,0.024229929601406446,-0.07737951020265567,-0.009463695176576291,0.03415519927692797,-0.3715284466743469,-1.1122844219207764,0.7468405365943909,-0.1263182759284973,-0.2404713779687881,0.1865072548389434
1749045772.086405,5.775638299370855,0.15602403497359438,-2.299784095896595,5.34818546404818,0.18464307703345134,-4.434680719320298,-0.07661669981326043,-0.0232973273835185,0.024623011150352588,-0.07877490887434661,-0.009673756584663738,0.03468758073518173,-0.3832210898399353,-1.1295174360275269,0.7420761585235596,-0.1579952090978622,-0.2486616224050521,0.1783971488475799
1749045772.0864503,5.77548634212075,0.15597327680615086,-2.2997373670963572,5.348024002432647,0.18462370514391713,-4.434611226553358,-0.07824887056816396,-0.023796432893780136,0.02499384500370997,-0.08015907195350536,-0.00997574013791642,0.03515149327422894,-0.3832210898399353,-1.1295174360275269,0.7420761585235596,-0.1579952090978622,-0.2486616224050521,0.1783971488475799
1749045772.0864902,5.7753302553709105,0.1559210570518496,-2.2996899286302295,5.347859887684957,0.1846033828436898,-4.434540174625919,-0.07989866863781996,-0.024304679007996616,0.025352364931326518,-0.08154043314410278,-0.010365141514872701,0.03555277695332191,-0.387389063835144,-1.116265892982483,0.7496030330657959,-0.1517051011323928,-0.271086573600769,0.173152357339859
1749045772.0865312,5.7751698672096206,0.15586754790639673,-2.299641638083721,5.347693189906338,0.18458191471886815,-4.434467861346395,-0.08156679448994375,-0.0248271979505738,0.025710092185777876,-0.08292739783628225,-0.010833645687669341,0.03589988796628547,-0.4081551432609558,-1.0910406112670898,0.7604088187217712,-0.1228009387850761,-0.2563658058643341,0.1624996066093444
1749045772.0865693,5.775005108474891,0.15581294029999007,-2.299592335219454,5.347523965080297,0.18455914163128795,-4.434394564391682,-0.08325233103755043,-0.025368217206035718,0.026079451970819772,-0.08432768927656083,-0.01136957491845248,0.0362036066196317,-0.4169518947601318,-1.1024621725082395,0.7725529670715332,-0.1309946030378341,-0.2691628038883209,0.1785289943218231
1749045772.0866065,5.774836014444716,0.15575742846600082,-2.299541850242091,5.3473522457645535,0.18453495093477792,-4.434320519285663,-0.08495287989886446,-0.025930784373548406,0.02647293551556851,-0.08574781810426725,-0.011958543485437343,0.036476571299948975,-0.4005565345287323,-1.101763129234314,0.7886873483657837,-0.1399874836206436,-0.2547202110290527,0.1670470833778381
1749045772.086646,5.774662717243141,0.1557011958948678,-2.2994900119288806,5.347178032523824,0.18450928383400048,-4.4342459048449125,-0.08666485506091723,-0.026516548987862463,0.026902171849818777,-0.08719263056630171,-0.01258427953689129,0.036732634616221504,-0.4005565345287323,-1.101763129234314,0.7886873483657837,-0.1399874836206436,-0.2547202110290527,0.1670470833778381
1749045772.0866833,5.774485430430136,0.15564440461628568,-2.299436654770853,5.347001287741922,0.18448213857999451,-4.434170837277576,-0.08838391621706276,-0.02712561530020728,0.027377005185793526,-0.08866494419545241,-0.013229564021595148,0.036986063591651824,-0.3964453637599945,-1.1035776138305664,0.8045111894607544,-0.1389102786779403,-0.2772337794303894,0.1816858798265457
1749045772.0867202,5.774304426136953,0.155587187962947,-2.2993816242622693,5.34682193240457,0.18445356863171855,-4.434095372395413,-0.09010549709165917,-0.027756491230584223,0.027904686175798412,-0.09016532597235748,-0.01387722082269961,0.03725064261878437,-0.4028168618679046,-1.119414448738098,0.8106957077980042,-0.1299242079257965,-0.2622299790382385,0.1689831614494323
1749045772.0867567,5.7741200057877355,0.15552964572307454,-2.2993247804016046,5.346639846444917,0.18442367575157503,-4.434019514364917,-0.09182534332096624,-0.02840615064803903,0.028489272268153384,-0.09169206051128605,-0.014511070216825444,0.0375387698566207,-0.4004548788070678,-1.100697636604309,0.8076080083847046,-0.1321844756603241,-0.2633923888206482,0.1694843918085098
1749045772.0867937,5.773932467542876,0.15547184038919312,-2.2992660006329775,5.346454873949282,0.1843925990127266,-4.433943228958134,-0.0935399443074577,-0.02907020229233354,0.029131300820690875,-0.09324132091077272,-0.01511674783699266,0.03786065554931656,-0.4237099885940552,-1.1132434606552124,0.8233640789985657,-0.1331280320882797,-0.2597755491733551,0.1654453575611114
1749045772.08683,5.7737420750442325,0.15541379379992507,-2.2992051838213876,5.3462668344327176,0.18436050141790247,-4.433866458961554,-0.09524675618332964,-0.029743138820417837,0.02982776096986346,-0.09480753976688151,-0.01568231527189166,0.03822373030471224,-0.4241306781768799,-1.1232590675354004,0.8128108382225037,-0.1377831101417541,-0.2711690366268158,0.1685601323843002
1749045772.0868664,5.773549031578232,0.15535548433674545,-2.299142256157644,5.346075539842555,0.1843275559457088,-4.43378913921615,-0.09694418082819073,-0.030418635156233144,0.03057235595973564,-0.09638398788457674,-0.0161986430915525,0.03863234875337639,-0.4610159397125244,-1.1125991344451904,0.8114909529685974,-0.1619717925786972,-0.2609494030475616,0.1610059142112732
1749045772.086903,5.773353462056076,0.15529684557473494,-2.2990771786271385,5.345880814675095,0.18429393240517586,-4.433711208924209,-0.09863136448615296,-0.031089871090954277,0.03135602038837584,-0.09796357363369945,-0.016659600664970124,0.039087828648513734,-0.4165858924388885,-1.1083860397338867,0.8130109310150146,-0.1573433130979538,-0.2693620026111603,0.1700652688741684
1749045772.0869396,5.773155403436697,0.15523776756948793,-2.2990099544043523,5.345682514679125,0.1842597858512367,-4.433632619337161,-0.10030795662995667,-0.031749862293937364,0.03216763683720383,-0.09953985363900282,-0.017062108888097567,0.03958880778026695,-0.4165858924388885,-1.1083860397338867,0.8130109310150146,-0.1573433130979538,-0.2693620026111603,0.1700652688741684
1749045772.0869758,5.772954802904457,0.15517810161841877,-2.298940633702121,5.345480538884059,0.18422524688660477,-4.433553335548358,-0.1019739781303335,-0.03239179716102311,0.0329948830739351,-0.10110819527240296,-0.01740609774114374,0.04013185030744611,-0.419747918844223,-1.1059458255767822,0.8204171657562256,-0.156471699476242,-0.2712338268756866,0.1718527376651764
1749045772.087012,5.77275152255837,0.15511766861871168,-2.2988693137342047,5.345274830921292,0.1841904141030327,-4.433473332027507,-0.10362988078395066,-0.03300938955491994,0.033825133534093194,-0.10266696453007051,-0.017694377402679564,0.04071220445738524,-0.4332129061222076,-1.0973289012908936,0.803077220916748,-0.165306270122528,-0.2589821815490722,0.163908764719963
1749045772.0871232,5.772545349925648,0.15505627059235075,-2.298796132779078,5.34506536906545,0.1841553490593661,-4.433392582947081,-0.10527677773068811,-0.03359725614446099,0.034646335968573735,-0.10421854603610739,-0.017932399776989478,0.04132460571412964,-0.4467163980007171,-1.0945194959640503,0.8134575486183167,-0.1676323860883712,-0.2507875263690948,0.1585726141929626
1749045772.0884726,5.772336014746498,0.15499370474636787,-2.2987212592396276,5.34485214872049,0.18412007429702226,-4.433311049772813,-0.10691674364259104,-0.03415130797467004,0.0354477868986969,-0.10576996244399445,-0.01812787384822318,0.04196402758197041,-0.4386094808578491,-1.109799861907959,0.7993981242179871,-0.1623022854328155,-0.2545157074928283,0.1864108890295028
1749045772.134303,5.7721232127345985,0.15492977925091042,-2.298644877962575,5.344635163794068,0.18408457481340712,-4.433228669238418,-0.10855305810134074,-0.03466912215680269,0.03622074076245459,-0.10733287812057245,-0.01829021392566491,0.04262629966249051,-0.4561635851860046,-1.09627103805542,0.8101273775100708,-0.1533593237400055,-0.2509233951568603,0.1754904091358184
1749045772.1343503,5.7719066356721225,0.15486432950535345,-2.298567176392272,5.344414393287883,0.18404880320392153,-4.433145344549012,-0.11019028689821982,-0.03515024425227221,0.0369588077941971,-0.1089228548224483,-0.018429841800106237,0.04330853165191639,-0.4464215338230133,-1.092228651046753,0.8005990386009216,-0.1808539927005767,-0.2516963183879852,0.1719089448451995
1749045772.1343906,5.771686004973647,0.15479723322897762,-2.2984883326969645,5.344189797095502,0.184012688387893,-4.433060941854839,-0.11183413683032838,-0.03559636755111684,0.03765812113768652,-0.11055785436086446,-0.018557416903638442,0.044009295926171095,-0.437461644411087,-1.1134135723114014,0.7855746150016785,-0.191699668765068,-0.2634192407131195,0.1692550480365753
1749045772.1344297,5.771461103827892,0.15472842254670516,-2.298408507201759,5.343961321680642,0.1839761473403871,-4.43297529301686,-0.11349106519456649,-0.03601134210233041,0.03831728101439419,-0.11225612279369589,-0.018683112333168935,0.04472853926441404,-0.437461644411087,-1.1134135723114014,0.7855746150016785,-0.191699668765068,-0.2634192407131195,0.1692550480365753
1749045772.134478,5.771231802053482,0.15465789144873726,-2.298327837428434,5.3437289131628,0.1839390985294335,-4.432888204565899,-0.11516767462011014,-0.03640098604061292,0.03893711183431718,-0.11403371512359704,-0.018816066261349667,0.04546723288879194,-0.4193400144577026,-1.1148943901062012,0.8128405809402466,-0.1871441006660461,-0.2735351026058197,0.1958867162466049
1749045772.1345303,5.770998068886099,0.15458569768828667,-2.298246436088329,5.343492533669718,0.18390147511119442,-4.432799471717201,-0.11686997004918248,-0.036772701339521416,0.039520294494943,-0.11590200721612044,-0.018964101054102536,0.04622682859947845,-0.4709827899932861,-1.0991029739379885,0.811363160610199,-0.2062352001667022,-0.2807120382785797,0.2015129923820495
1749045772.1345706,5.770759972390232,0.15451195929129932,-2.298164390966708,5.34325217738983,0.18386323577043306,-4.4327088955944145,-0.11860258261186873,-0.03713492660621355,0.04007095261277427,-0.11786557191768192,-0.01913372220136396,0.04700863873583908,-0.4535793364048004,-1.1052826642990112,0.784766435623169,-0.1993019133806228,-0.2758935391902923,0.1902152746915817
1749045772.1346087,5.770517668241524,0.15443684671208574,-2.2980817657919927,5.343007884482389,0.18382437143577554,-4.432616301431544,-0.12036807100904133,-0.03749648470226359,0.04059426681764376,-0.11992075631698136,-0.019330317681520347,0.047813266319095285,-0.4582834839820862,-1.133232355117798,0.7914905548095703,-0.1953348964452743,-0.2493031322956085,0.1895176172256469
1749045772.1346457,5.770271382308478,0.15436057145404145,-2.297998601415426,5.342759751681469,0.1837849066231963,-4.4325215551537385,-0.12216640303096922,-0.03786590167978432,0.04109616318511588,-0.12205519976997029,-0.019558416012686288,0.048640174180551644,-0.4582834839820862,-1.133232355117798,0.7914905548095703,-0.1953348964452743,-0.2493031322956085,0.1895176172256469
1749045772.1346824,5.770021389963694,0.15428337097986966,-2.297914916634557,5.342507937403898,0.18374489478675865,-4.4324245754300025,-0.1239946996009509,-0.03825078367357664,0.04158308482197176,-0.12424841321846819,-0.01982185492623119,0.04948742494503515,-0.4558878540992737,-1.1247388124465942,0.7599025368690491,-0.2035576105117797,-0.2749375998973846,0.1776867061853408
1749045772.134719,5.769767992758753,0.15420548940370649,-2.297830708030075,5.342252658250544,0.18370440811321154,-4.432325338755938,-0.12584728498563794,-0.038657335596840016,0.042061828950437204,-0.12647342256908956,-0.02012376212838337,0.050351578093092514,-0.4296832978725433,-1.152296781539917,0.7962314486503601,-0.2061621099710464,-0.2637491524219513,0.185878574848175
1749045772.134756,5.769511492701189,0.15412715465250687,-2.2977459486198413,5.341994175014284,0.18366352371081096,-4.432223876858268,-0.12771603298064743,-0.03909008760549043,0.0425394204632915,-0.12869935462204957,-0.020466330177639575,0.05122770615936151,-0.4773159623146057,-1.148375391960144,0.784669816493988,-0.2131841629743576,-0.2693969011306762,0.1942190825939178
1749045772.1347926,5.76925216583732,0.15404855463232967,-2.2976605858383095,5.341732769397295,0.18362230928213394,-4.432120267979983,-0.12959095046594907,-0.03955186347591575,0.04302298589929843,-0.13089470398362288,-0.020850446462006636,0.052109486502810595,-0.4417096078395843,-1.1728957891464231,0.782471239566803,-0.2287960946559906,-0.2873085737228393,0.1881807297468185
1749045772.1348286,5.768990238047014,0.15396981589988687,-2.297574539778048,5.341468715369323,0.18358081113186475,-4.432014624957201,-0.1314609166771438,-0.04004398181265835,0.04351958081549941,-0.1330308848462265,-0.021275291754238954,0.05298933934799998,-0.4467346966266632,-1.141710638999939,0.7788706421852112,-0.2079168707132339,-0.2954794764518738,0.1980613321065902
1749045772.1348646,5.768725865537019,0.15389098791464725,-2.297487702523043,5.341202249833779,0.18353904577832475,-4.431907082801906,-0.13331449662723324,-0.04056663282004984,0.04403591759190639,-0.13508558512244107,-0.021738034618824353,0.05385861627048198,-0.4363611042499542,-1.1531074047088623,0.7891303300857544,-0.1839238405227661,-0.2885991930961609,0.1963684111833572
1749045772.1349018,5.768459120859775,0.15381203472200755,-2.2973999390321866,5.340933546137247,0.18349699465208957,-4.431797787392596,-0.13514075742425438,-0.04111933490298748,0.0445779570979257,-0.1370454400950956,-0.022233723242510415,0.054707878416421225,-0.4575079381465912,-1.1475472450256348,0.7692103981971741,-0.1906055808067321,-0.2743885219097137,0.2140826284885406
1749045772.1349378,5.768189983390392,0.15373283452714168,-2.2973110896814095,5.3406626918790145,0.18345460047425843,-4.431686885737997,-0.13693003775732634,-0.04170136462229345,0.045150370264716334,-0.13890764431069522,-0.02275542122991458,0.055527314778196876,-0.4575079381465912,-1.1475472450256348,0.7692103981971741,-0.1906055808067321,-0.2743885219097137,0.2140826284885406
1749045772.1349735,5.767918332075014,0.15365318633070194,-2.2972209742631713,5.3403896705237,0.1834117642241084,-4.431574517473069,-0.13867465442957402,-0.042312076097671736,0.045755929090597544,-0.14068030276482696,-0.023294570300558506,0.05630732621991947,-0.4678825736045837,-1.1490671634674072,0.783531129360199,-0.1805468052625656,-0.2760182023048401,0.182736337184906
1749045772.1350095,5.767643938949231,0.15357282187229865,-2.2971293970654543,5.340114345876516,0.18336834287376644,-4.4314608068936625,-0.14036954949230984,-0.042951065222101466,0.04639492963917673,-0.14238153104920734,-0.023841514696423104,0.05703925120843595,-0.4263718724250793,-1.167117714881897,0.8060646057128906,-0.1929024159908294,-0.2886947095394134,0.2034261524677276
1749045772.135045,5.767366464522856,0.15349142091603055,-2.2970361528590084,5.339836450224317,0.1833241496291398,-4.431345855118049,-0.14201285636196226,-0.043618165381670126,0.047064767253067685,-0.14403749714640823,-0.02438610476794945,0.05771615893288752,-0.4263718724250793,-1.167117714881897,0.8060646057128906,-0.1929024159908294,-0.2886947095394134,0.2034261524677276
1749045772.1350813,5.767085459063141,0.15340862847622616,-2.296941034188172,5.339555579574668,0.18327895923725415,-4.431229732798942,-0.14360630465972127,-0.04431327612092501,0.047759772267675964,-0.14567973122731329,-0.02491831156026363,0.05833360927946803,-0.4232682585716247,-1.1859081983566284,0.7746315598487854,-0.1924526393413543,-0.2554594576358795,0.197817325592041
1749045772.135117,5.766800375473803,0.15332407359817168,-2.296843840971092,5.33927120107163,0.18323252031794995,-4.4311124748509165,-0.14515534241402994,-0.045036033606207525,0.04847137772897284,-0.14734210256205077,-0.025428817219958443,0.05889028570842512,-0.4406174719333648,-1.2069083452224731,0.7954443693161011,-0.2414480447769165,-0.3022840321063995,0.187886506319046
1749045772.1352203,5.766510599771313,0.1532373903384452,-2.2967443938108594,5.338982677902465,0.18318457508158098,-4.43099407957774,-0.14666886748363092,-0.045785341462626396,0.049188635523322734,-0.1490578576627466,-0.025909574166089834,0.05938843361132403,-0.4051019549369812,-1.1403982639312744,0.7889078855514526,-0.2314885556697845,-0.2799419164657593,0.188321977853775
1749045772.136536,5.766215503951811,0.1531482420565307,-2.296642552266787,5.338689315779585,0.1831348851319665,-4.430874514843945,-0.14815852264163745,-0.04655879705691531,0.049899029538983765,-0.15085702495203338,-0.026354327437053484,0.05983406321678067,-0.4475836753845215,-1.16497540473938,0.7701202034950256,-0.2592280507087707,-0.281910240650177,0.176662415266037
1749045772.17829,5.765914521976132,0.15305634938240595,-2.296538238177995,5.338390431427644,0.18308326065870525,-4.430753732852144,-0.14963759949951155,-0.047352079395726186,0.05058946830013536,-0.15276434452075277,-0.02675906525693113,0.06023689340388799,-0.437188446521759,-1.1951795816421509,0.7427356839179993,-0.223553717136383,-0.2692738771438598,0.1743329763412475
1749045772.178336,5.765607242268994,0.1529615201734057,-2.296431461955037,5.338085437045482,0.1830295890923197,-4.430631692570291,-0.15111969663333863,-0.048158415053734305,0.05124730338584063,-0.1547977287087884,-0.027122321260820797,0.06061002434039314,-0.437188446521759,-1.1951795816421509,0.7427356839179993,-0.223553717136383,-0.2692738771438598,0.1743329763412475
1749045772.178378,5.765293501687019,0.15286367727651465,-2.296322347228642,5.3377739270786595,0.1829738584972092,-4.430508385601849,-0.15261735731004417,-0.04896828608799257,0.051861237835779846,-0.1569671509790646,-0.027445230004270137,0.060969340182754655,-0.4128619134426117,-1.1780928373336792,0.7752254605293274,-0.2058055996894836,-0.2590839266777038,0.1868226528167724
1749045772.1784284,5.764973460096509,0.1527628783720314,-2.2962111474531612,5.3374557482109495,0.18291617122120732,-4.430383858547593,-0.15414093024116463,-0.049769545180693146,0.052422051472125156,-0.15927382122629147,-0.027731260785128605,0.06133266308731149,-0.4254053235054016,-1.1766953468322754,0.7566019892692566,-0.2205570787191391,-0.258772999048233,0.1725445836782455
1749045772.178476,5.764647635002666,0.15265932265773674,-2.296098248187109,5.33713103406917,0.1828567448576877,-4.430258224237389,-0.1556978297891293,-0.050548039094213994,0.05292313479501416,-0.1617095308158175,-0.0279856226279522,0.06171870641769754,-0.4475583434104919,-1.1982316970825195,0.7444335222244263,-0.2118248641490936,-0.2469782084226608,0.1760286390781402
1749045772.1785192,5.764316883080378,0.15255334148217084,-2.2959841512974513,5.336800194029074,0.18279589991205575,-4.430131656505407,-0.15729224617068058,-0.05128874136723381,0.05336085062132077,-0.16425612755331154,-0.028214418152585317,0.06214590391003599,-0.4475583434104919,-1.1982316970825195,0.7444335222244263,-0.2118248641490936,-0.2469782084226608,0.1760286390781402
1749045772.178558,5.763982327132132,0.15244537299214067,-2.295869441295885,5.336463857341065,0.18273403579664121,-4.430004367561877,-0.1589252368796813,-0.05197729795709353,0.05373473228191633,-0.1668852002293149,-0.0284236929899986,0.06263121567757414,-0.4377378523349762,-1.151822209358215,0.7415326237678528,-0.2340794205665588,-0.2682972252368927,0.1879927366971969
1749045772.178596,5.763645238390756,0.15233592340113294,-2.295754737743622,5.336122784155985,0.18267159830835739,-4.4298765715605475,-0.16059507109757581,-0.05260180340872569,0.05404750878220768,-0.1695581933558239,-0.028618561277638184,0.06318902246265276,-0.4684830605983734,-1.139704942703247,0.7455835938453674,-0.2549923062324524,-0.274535208940506,0.1728251427412033
1749045772.178633,5.7633068922844,0.15222551953706975,-2.295640640176184,5.335777760921431,0.18260904256718294,-4.429748441337495,-0.16229770124024293,-0.05315454938267036,0.0543049450094368,-0.17222728747094768,-0.028802582853029,0.06383020803969132,-0.4234307408332824,-1.1457282304763794,0.7260736227035522,-0.2765720784664154,-0.2737533450126648,0.2067587375640869
1749045772.1786702,5.762968419865602,0.15211465891813075,-2.2955276731175047,5.335429498927136,0.18254679568114793,-4.429620066955794,-0.16402727019984614,-0.053633448002869843,0.054515500268840056,-0.17483740416083124,-0.02897752688461624,0.06456149422263463,-0.4834381341934204,-1.1523704528808594,0.7572612166404724,-0.2648254632949829,-0.2760025858879089,0.209453746676445
1749045772.1787076,5.762630676872553,0.1520037642235037,-2.2954162384340284,5.335078552257867,0.1824852231276568,-4.429491424309624,-0.16577660884721124,-0.054042861458611695,0.0546898314649891,-0.17732957328540766,-0.029143584322174527,0.06538504392721842,-0.4610213935375213,-1.1286864280700684,0.7553441524505615,-0.26328045129776,-0.2581466436386108,0.1932000070810318
1749045772.1787488,5.7622941484294135,0.15189314822237107,-2.2953065806897155,5.334725266231618,0.18242460199372856,-4.429362359797988,-0.1675377246083986,-0.05439366228787652,0.054840189356344965,-0.17964562406916945,-0.02929999722026316,0.06629830549807794,-0.4747085571289062,-1.1272292137145996,0.7621657252311707,-0.2598856687545776,-0.2731243968009949,0.2218871116638183
1749045772.1787868,5.761958901178099,0.1517829931597848,-2.2951987689050406,5.334369761277018,0.18236510305833534,-4.429232593940356,-0.1693023040173408,-0.05470247046777369,0.05497977064180449,-0.18173379419117414,-0.02944597548564192,0.06729405415246242,-0.4301877021789551,-1.0974252223968506,0.7596860527992249,-0.2208118438720703,-0.2460835427045822,0.2134051024913787
1749045772.178825,5.761624587518833,0.15167334585790618,-2.2950926958084215,5.334011951466875,0.1823067825422497,-4.429101743786348,-0.17106223060665354,-0.054990134652949774,0.055122090379889147,-0.18355451057042502,-0.029581696562725118,0.06836059628370676,-0.4587022662162781,-1.1625524759292605,0.7687304615974426,-0.211532711982727,-0.2438094019889831,0.198072075843811
1749045772.1788614,5.761290499263433,0.15156412710993586,-2.294988093452204,5.333651591851654,0.18224958329394805,-4.428969361322777,-0.17281007867876264,-0.0552796360927364,0.055280427653955716,-0.18508540412485833,-0.029709154758641748,0.06948212385393819,-0.4295099377632141,-1.1712366342544556,0.7740196585655212,-0.1674175411462783,-0.260305643081665,0.2050528973340988
1749045772.1788976,5.760955660643473,0.1514551518858952,-2.294884561839901,5.3332883440427485,0.18219334418431068,-4.428834982558963,-0.17453953594992838,-0.055593687099659096,0.05546737586064721,-0.1863246515310104,-0.029832656131227528,0.07063922166002194,-0.4295099377632141,-1.1712366342544556,0.7740196585655212,-0.1674175411462783,-0.260305643081665,0.2050528973340988
1749045772.1789343,5.760618944032224,0.15134615559827583,-2.2947816052262433,5.332921845558342,0.18213781566345072,-4.4286981797327405,-0.17624575225740252,-0.055952348664348596,0.05569450347758624,-0.1872919967373733,-0.029958834917283288,0.07180954043707193,-0.4615004658699035,-1.177579045295715,0.7578912973403931,-0.1823183894157409,-0.2580294609069824,0.1983776539564132
1749045772.1789708,5.760279188129494,0.15123682144111716,-2.2946786699044264,5.332551767390993,0.18208267920794796,-4.428558608111881,-0.177925668706736,-0.05637097998430597,0.05597210785480579,-0.1880272426986762,-0.030096173355555367,0.07296866638925463,-0.4696210920810699,-1.1928105354309082,0.7918907403945923,-0.2082768678665161,-0.2582201659679413,0.2376084923744201
1749045772.1790075,5.759935300302243,0.1511268051649186,-2.2945751784335964,5.332177848670933,0.18202756905337006,-4.428416040215626,-0.17957839797341013,-0.05685876099404736,0.05630902768095654,-0.18858650996562373,-0.030254106881915918,0.07409123814479153,-0.4696210920810699,-1.1928105354309082,0.7918907403945923,-0.2082768678665161,-0.2582201659679413,0.2376084923744201
1749045772.1790438,5.759586332115512,0.15101575628929964,-2.2944705580318097,5.331799906481477,0.181972095638733,-4.428270383684626,-0.18120567995636977,-0.0574179294351319,0.0567124712062163,-0.18903697242791553,-0.030441867126344783,0.0751523523754594,-0.4493630826473236,-1.1778571605682373,0.8045417666435242,-0.2150422930717468,-0.2583320736885071,0.2321897447109222
1749045772.1791563,5.759231526175602,0.15090333704725126,-2.2943642636893813,5.3314178279468,0.18191587048539828,-4.428121682836482,-0.1828123430443677,-0.05804377296951112,0.05718781727025556,-0.18945096063471423,-0.03066724842365671,0.07612922982798503,-0.4789750277996063,-1.159519076347351,0.8152247667312622,-0.1925185024738311,-0.282064825296402,0.1918786764144897
1749045772.1804976,5.758870339099177,0.15078924091057508,-2.294255797933071,5.331031555833381,0.18185853140407354,-4.42797010665526,-0.18440659977435947,-0.05872532229562223,0.057738356111752764,-0.1899002413973191,-0.03093548655065682,0.07700300156032183,-0.4789750277996063,-1.159519076347351,0.8152247667312622,-0.1925185024738311,-0.282064825296402,0.1918786764144897
1749045772.222274,5.758502447630364,0.15067321151575055,-2.2941447287088104,5.330641077068234,0.18179976582407875,-4.4278159271522375,-0.18599995493600868,-0.059446610054533104,0.05836496458590536,-0.19045102813040707,-0.03124841962558191,0.07776038753590248,-0.4581382572650909,-1.1346962451934814,0.853186845779419,-0.1824685186147689,-0.2631628215312958,0.2124215066432953
1749045772.2223196,5.758127743192145,0.15055506122688356,-2.294030705375283,5.330246418268172,0.18173932975622076,-4.427659491976936,-0.18760655563609305,-0.06018830598000132,0.059065761542096945,-0.19115997896994277,-0.031604060121767044,0.07839503640344138,-0.4581382572650909,-1.1346962451934814,0.853186845779419,-0.1824685186147689,-0.2631628215312958,0.2124215066432953
1749045772.22236,5.757746317216378,0.15043468735474255,-2.293913471637374,5.329847647256464,0.1816770606137683,-4.427501194403303,-0.18924196328622328,-0.06092952100082859,0.05983584325558537,-0.19207120626417756,-0.031996639543895464,0.07890836960854208,-0.4943152070045471,-1.1327996253967283,0.8221118450164795,-0.1719076931476593,-0.2634576559066772,0.1863876581192016
1749045772.2224135,5.757358438076586,0.15031208362082385,-2.2937928740794837,5.329444876815966,0.18161288311765528,-4.427341442904868,-0.1909215087215479,-0.06164959206133479,0.06066721315461744,-0.1932142161954066,-0.03241710041961133,0.07930986323605096,-0.4943152070045471,-1.1327996253967283,0.8221118450164795,-0.1719076931476593,-0.2634576559066772,0.1863876581192016
1749045772.222462,5.75696452045352,0.15018734460882707,-2.293668865387018,5.329038266273948,0.1815468081480683,-4.427180631694658,-0.19265851705841733,-0.062329705713423396,0.061548980429285846,-0.19460272639014295,-0.032853929303459456,0.0796167583697505,-0.5021598935127258,-1.1318451166152954,0.8629932403564453,-0.1938714683055877,-0.2789576947689056,0.1887989938259124
1749045772.2225022,5.756565087902736,0.15006066118713834,-2.2935415016685194,5.328628016681526,0.18147892471934687,-4.427019112883559,-0.1944627074996433,-0.06295427322601109,0.06246784704874945,-0.19623441110754672,-0.03329418138762955,0.07985321558604637,-0.5021598935127258,-1.1318451166152954,0.8629932403564453,-0.1938714683055877,-0.2789576947689056,0.1887989938259124
1749045772.2225404,5.756160728666021,0.1499323052335464,-2.2934109333456147,5.328214355927087,0.18140938565291045,-4.426857170436823,-0.1963389968307967,-0.06351201379604628,0.06340886982979554,-0.19809170102390555,-0.03372455477176299,0.0800489450657417,-0.4959763288497925,-1.1375056505203247,0.8464855551719666,-0.2109423577785492,-0.2574314475059509,0.1881968975067138
1749045772.2225811,5.755752044936395,0.14980260326740785,-2.293277389371094,5.327797511951097,0.18133838822452675,-4.426694996241044,-0.1982868258920895,-0.06399672602850096,0.06435645985337149,-0.20014373567176458,-0.03413241212745446,0.08023736412517528,-0.5129728317260742,-1.1175085306167605,0.8411667346954346,-0.2386980205774307,-0.2722905874252319,0.1897739171981811
1749045772.222619,5.755339598947643,0.14967190145607712,-2.2931411557533723,5.327377676673568,0.18126615207216396,-4.42653266981056,-0.20030004589003833,-0.06440773089338483,0.06529553466053027,-0.20234940392318176,-0.03450668814770794,0.0804533610977689,-0.4828855395317077,-1.1295597553253174,0.8304722309112549,-0.2068046778440475,-0.2733014523983001,0.1860274970531463
1749045772.2226562,5.754923864617928,0.14954052800274467,-2.2930025513444576,5.32695496971636,0.18119289769918728,-4.4263701452092405,-0.202367357246367,-0.06474995788796499,0.0662126781992146,-0.2046611628629308,-0.03483864348214983,0.08073078106975283,-0.5370690226554871,-1.0916401147842407,0.8458166122436523,-0.1920548677444458,-0.2705594003200531,0.1842662692070007
1749045772.222693,5.754505196297062,0.14940876075507378,-2.2928619051206227,5.326529415246115,0.18111882929984427,-4.426207249981,-0.20447325767472174,-0.0650336359682105,0.06709713014088473,-0.20702911599581492,-0.03512242930477273,0.08109979520667393,-0.4995159804821014,-1.1029179096221924,0.8252440094947815,-0.1513927727937698,-0.269443154335022,0.2025403380393982
1749045772.2227294,5.754083822214921,0.1492768062578998,-2.292719538324488,5.3261009426904415,0.18104412475424456,-4.4260436995042145,-0.2065994018812498,-0.06527356411869265,0.06794144406338215,-0.20940477661045076,-0.03535542435672339,0.08158436158534621,-0.4995159804821014,-1.1029179096221924,0.8252440094947815,-0.1513927727937698,-0.269443154335022,0.2025403380393982
1749045772.2227664,5.753659860915278,0.14914479212370074,-2.2925757521947023,5.325669413088743,0.1809689336723308,-4.4258791264477795,-0.20872621054392904,-0.06548798419204128,0.06874171757942919,-0.21174408601574624,-0.03553831735603036,0.08220001706229,-0.4855892062187195,-1.1496593952178955,0.8363126516342163,-0.2029429376125335,-0.2701040804386139,0.1958973556756973
1749045772.2228024,5.753233350413304,0.14901277007534325,-2.2924308194905483,5.325234662974698,0.18089338217703693,-4.425713121130577,-0.21083452436396097,-0.06569714730843208,0.06949739081065669,-0.21400954564736188,-0.03567494275438452,0.08295224783747382,-0.4855892062187195,-1.1496593952178955,0.8363126516342163,-0.2029429376125335,-0.2701040804386139,0.1958973556756973
1749045772.2228386,5.75280427734082,0.1488807247068393,-2.2922849772839786,5.324796552634885,0.1808175815621342,-4.4255452766544865,-0.21290710788583633,-0.06592172315616879,0.07021070773248667,-0.21617162378764576,-0.03577192342616429,0.08383566483556297,-0.486925333738327,-1.1468822956085205,0.8026995062828064,-0.2075633108615875,-0.2683556079864502,0.2334322482347488
1749045772.2228746,5.752372597677375,0.14874858368581334,-2.292138419708347,5.32435500701115,0.1807416374575014,-4.425375233072925,-0.21492986755672272,-0.06618121941446087,0.07088599931173116,-0.21820975312199528,-0.03583819928972523,0.0848341461800815,-0.5148957967758179,-1.1479994058609009,0.854691207408905,-0.204522356390953,-0.2626325786113739,0.2148467600345611
1749045772.2229118,5.75193824842378,0.148616227752767,-2.2919912914030944,5.323910043020003,0.18066565661963446,-4.425202716559876,-0.2168927274936256,-0.06649254780096757,0.07152895180914313,-0.22011315795081354,-0.035884510923974225,0.08592199359228861,-0.5018759369850159,-1.120479941368103,0.840628445148468,-0.192408949136734,-0.2727066874504089,0.2118457704782486
1749045772.2229483,5.751501155799692,0.148483501374707,-2.291843683837182,5.3234617826931965,0.18058974949515824,-4.425027571170442,-0.21879015729008583,-0.06686881591592933,0.07214597877522584,-0.2218814984001133,-0.03592287751669897,0.08706600292407224,-0.5426310896873474,-1.1583491563796997,0.8308143019676208,-0.171629250049591,-0.3005541563034057,0.2071781456470489
1749045772.2229848,5.751061246614449,0.14835022560978434,-2.29169563662102,5.323010454310692,0.1805140277268531,-4.424849781268647,-0.22062134377599776,-0.06731838119421374,0.07274375126324457,-0.2235250595777323,-0.035966078420797125,0.08822822487572762,-0.4843824207782745,-1.163817286491394,0.8131945729255676,-0.1546262800693512,-0.2797325849533081,0.2148863971233368
1749045772.223021,5.75061846532033,0.1482162135494336,-2.291547144343791,5.32255638296809,0.18043859651432348,-4.424669481988794,-0.22238996964067248,-0.06784420080025826,0.07332887925284416,-0.22506410857594542,-0.03602711767199717,0.08936913509121629,-0.4843824207782745,-1.163817286491394,0.8131945729255676,-0.1546262800693512,-0.2797325849533081,0.2148863971233368
1749045772.2231386,5.750172793295208,0.14808128688501246,-2.2913981672834414,5.322099969560533,0.1803635423241089,-4.424486954467189,-0.2241035641308181,-0.06844353410596418,0.07390768910335123,-0.2265271589591808,-0.03611862156305653,0.09045093341478272,-0.4822435677051544,-1.1673660278320312,0.800439715385437,-0.1417479217052459,-0.2643961310386657,0.2157501131296157
1749045772.2244976,5.749724263492737,0.1479452911027659,-2.2912486428695455,5.321641656215029,0.1802889171571045,-4.424302603691911,-0.225772455603121,-0.06910806570328687,0.07448601492206618,-0.22794816411108149,-0.03625211387592369,0.0914407002789457,-0.5020595192909241,-1.1629784107208252,0.8032465577125549,-0.1813937425613403,-0.2454844415187835,0.207545593380928
1749045772.270321,5.749272964914758,0.1478081071322901,-2.2910984949798587,5.321181879022029,0.18021472162264407,-4.424116920010839,-0.22740845334413967,-0.06982449857865845,0.0750689217863653,-0.2293629694401835,-0.03643715992707858,0.09231312857594094,-0.4876816868782043,-1.2065441608428955,0.7878343462944031,-0.202526107430458,-0.2824622988700866,0.1981488168239593
1749045772.270366,5.74881903525826,0.14766965835136173,-2.2909476396584454,5.320721013684595,0.18014089018349735,-4.423930428916536,-0.22902345560554332,-0.07057562496453273,0.07566030826628833,-0.2308055570022746,-0.03668046587780678,0.09305255177574129,-0.495821088552475,-1.1676480770111084,0.7827089428901672,-0.1766297519207,-0.2883221507072449,0.1947732716798782
1749045772.2704177,5.7483626422383685,0.14752991244359814,-2.2907959873009314,5.320259321720923,0.18006728231494123,-4.4237436354713635,-0.23062818557408407,-0.0713418234390504,0.07626239057751098,-0.23230465108902548,-0.036985115345616645,0.09365404721030074,-0.495821088552475,-1.1676480770111084,0.7827089428901672,-0.1766297519207,-0.2883221507072449,0.1947732716798782
1749045772.2704709,5.74790395344442,0.14738887730857722,-2.2906434419453148,5.3197969024638745,0.17999368237020483,-4.423556969264308,-0.23223120806781694,-0.07210286038269877,0.07687513617961975,-0.23388113183747986,-0.03735015291178445,0.094123509417024,-0.4837696850299835,-1.1972497701644895,0.8051478862762451,-0.1798191368579864,-0.297074556350708,0.1809811890125274
1749045772.2705112,5.747443094900131,0.1472465901375438,-2.2904898985492617,5.319333653225126,0.17991980913829206,-4.423370734812551,-0.23383831205764785,-0.0728398091186163,0.0774957694325317,-0.23554649098648833,-0.03777064777554535,0.09447672170836954,-0.4949603080749511,-1.1246613264083862,0.7835374474525452,-0.1631088256835937,-0.2890311777591705,0.1628897190093994
1749045772.2705495,5.74698010300162,0.14710310015978229,-2.29033523987125,5.318869241078172,0.17984533450727505,-4.423185072401222,-0.23545228533894116,-0.07353686376149376,0.07811849798076322,-0.23730234836067,-0.038238226109106106,0.0947375655667965,-0.5292842984199524,-1.1883989572525024,0.7985104918479919,-0.1868415176868438,-0.2823496460914612,0.1795171648263931
1749045772.270589,5.746514880948205,0.14695844812454234,-2.2901793356142064,5.318403093780566,0.17976990973471188,-4.42299993502269,-0.2370730669299235,-0.07418282874342284,0.07873459603103652,-0.23914090884702677,-0.03874193253887616,0.09493558583447492,-0.4999532103538513,-1.1513341665267944,0.7885198593139648,-0.2016943097114563,-0.2831976413726806,0.1977321207523346
1749045772.270629,5.746047173803508,0.14681264762465215,-2.29002204680826,5.317934419212255,0.17969319707244985,-4.422815086596449,-0.23869823153209993,-0.07477210764933098,0.0793329294409834,-0.2410462047753046,-0.039269232176924594,0.09510317762426043,-0.5143828392028809,-1.2075587511062622,0.8027281165122986,-0.2307356297969818,-0.2880343496799469,0.2081455588340759
1749045772.270666,5.745576573409926,0.14666567357139243,-2.289863237466214,5.317462259201509,0.1796149034747633,-4.42263012419266,-0.24032372519339765,-0.07530508501218147,0.07990092728953259,-0.24299598659735577,-0.039806991855081866,0.09527267745853017,-0.5086446404457092,-1.184375882148743,0.8064202070236206,-0.2236403822898864,-0.2812528610229492,0.2061655968427658
1749045772.270702,5.745102557053304,0.14651746145885866,-2.289702793649055,5.316985576109677,0.17953481218658635,-4.422444523168699,-0.24194473775883288,-0.07578787473395544,0.08042590867035818,-0.24496410901631077,-0.04034234180482226,0.09547362752341475,-0.4815978705883026,-1.191570281982422,0.7522923350334167,-0.2271235883235931,-0.3014529049396515,0.2211595475673675
1749045772.2707422,5.7446245544283405,0.1463679181458518,-2.2895406476341154,5.31650336195343,0.1794528077397133,-4.422257699833897,-0.24355659160641716,-0.07623148426844077,0.08089657624098798,-0.2469231796688579,-0.04086338469190071,0.09573044865318034,-0.4815978705883026,-1.191570281982422,0.7522923350334167,-0.2271235883235931,-0.3014529049396515,0.2211595475673675
1749045772.2707798,5.744142028320175,0.14621694143100053,-2.289376802316557,5.31601475251512,0.17936889040726375,-4.422069082225774,-0.24515555520148782,-0.07665050469208996,0.08130442004331963,-0.24884715456103892,-0.04135977199384614,0.09606071487668354,-0.5401001572608948,-1.1970242261886597,0.7685461044311523,-0.2179557383060455,-0.2818690538406372,0.2221340239048004
1749045772.2708168,5.743654549344597,0.14606444284106895,-2.289211349471201,5.315519125899504,0.17928317747134923,-4.42187817728854,-0.24673951853034878,-0.07706147362189038,0.0816447804976332,-0.2507135660138739,-0.04182319319961812,0.09647417264329206,-0.4835751950740814,-1.1528804302215576,0.7529405355453491,-0.1785525828599929,-0.2856893539428711,0.2570217251777649
1749045772.2708533,5.743161848334355,0.14591036740652877,-2.289044476553753,5.315016169551831,0.1791958909555306,-4.4216846240040315,-0.24830845602282137,-0.07748106804319702,0.08191741045245045,-0.25250517877503775,-0.04224780769984719,0.09697259235493873,-0.4252509176731109,-1.1912906169891355,0.7369416952133179,-0.2008608281612396,-0.2849845588207245,0.2644644379615783
1749045772.2708938,5.742663840588266,0.14575470622387204,-2.288876460181299,5.314505910408317,0.17910733440771293,-4.421488226664026,-0.24986456864360196,-0.07792428096266511,0.08212650710600854,-0.2542110340154189,-0.04263059818476296,0.09755047537627112,-0.4428839385509491,-1.2037618160247805,0.7721083760261536,-0.2311387956142425,-0.2592450678348541,0.2440412640571594
1749045772.2709315,5.742160626434078,0.14559750051479706,-2.288707647876655,5.313988712116419,0.17901786344521786,-4.421288967547032,-0.25141200715403794,-0.0784027384460112,0.08228029356697608,-0.2558269774116587,-0.042971568593075216,0.09819655176418714,-0.4428839385509491,-1.2037618160247805,0.7721083760261536,-0.2311387956142425,-0.2592450678348541,0.2440412640571594
1749045772.270969,5.741652475494831,0.14543883760509288,-2.288538430934124,5.313465245216163,0.17892785488701005,-4.421087000875329,-0.25295617106844825,-0.07892332694465758,0.08239028688191491,-0.2573558121681446,-0.04327368788009862,0.09889588935109853,-0.5450255870819092,-1.2121806144714355,0.7691920399665833,-0.2236661612987518,-0.2722258567810058,0.2330890893936157
1749045772.2710085,5.741139799070219,0.14527883979886735,-2.288369210913696,5.3129364333054125,0.1788376778699837,-4.420882630095026,-0.25450271232332217,-0.07948731091929606,0.08247039907772999,-0.2588071545581652,-0.043542513598707984,0.09963232621423468,-0.5059895515441895,-1.217867732048035,0.7710833549499512,-0.2217144519090652,-0.2703278660774231,0.2511138916015625
1749045772.2710462,5.740623112102318,0.14511764777979816,-2.2882003622066236,5.312403376828319,0.17874766874367626,-4.420676270287191,-0.2560564693561029,-0.08009010486168325,0.08253600007569378,-0.26019695729611675,-0.04378550318631308,0.1003908792206581,-0.5059895515441895,-1.217867732048035,0.7710833549499512,-0.2217144519090652,-0.2703278660774231,0.2511138916015625
1749045772.2710826,5.7401029858400525,0.14495540109062793,-2.28803219386064,5.31186725798759,0.17865811038701163,-4.420468398242297,-0.25762056989521387,-0.08072180221676756,0.08260304390353228,-0.2615466085279911,-0.04401109785701134,0.10115978619993232,-0.4903212785720825,-1.217380404472351,0.7563463449478149,-0.2244671136140823,-0.2584004402160644,0.2273508310317993
1749045772.271119,5.739579993561164,0.14479221869862707,-2.287864914629666,5.311329233197632,0.17856921583643223,-4.420259494413846,-0.2591958824344957,-0.08136845057332535,0.08268732598383632,-0.26288156316729067,-0.04422771152001873,0.10193189800511096,-0.5257198810577393,-1.1570491790771484,0.791067898273468,-0.246972769498825,-0.2548556327819824,0.2492715120315551
1749045772.2711554,5.739054653935837,0.144628182576857,-2.287698605549323,5.310790322366925,0.1784811159238405,-4.420049983029971,-0.2607809062621758,-0.0820139157372554,0.08280389643493938,-0.26422956899991007,-0.044442772774591265,0.102705235219882,-0.4876660406589508,-1.2313505411148071,0.7872937917709351,-0.2578620612621307,-0.2637303471565246,0.2490584105253219
1749045772.27127,5.7385273786420035,0.14446332683017332,-2.2875332039364022,5.310251306448487,0.17839385104917968,-4.419840177924115,-0.26237209653817556,-0.08264204063087179,0.08296661000636857,-0.26561862668808106,-0.04466197019680001,0.10348264902868369,-0.4866751730442047,-1.2012265920639038,0.7882723212242126,-0.2539461851119995,-0.2834327816963196,0.2394829988479614
1749045772.272531,5.737998429845425,0.14429763376199467,-2.2873685009830145,5.309712643955128,0.17830736760809435,-4.419630240837395,-0.26396454080679616,-0.08323872967712996,0.08318776404068458,-0.26707483645026964,-0.044888842946907336,0.10427065732680026,-0.4866751730442047,-1.2012265920639038,0.7882723212242126,-0.2539461851119995,-0.2834327816963196,0.2394829988479614
1749045772.3142767,5.737467888968436,0.14413103638491298,-2.287204152383649,5.3091744132188685,0.17822151942651732,-4.4194201562571465,-0.2655528480434443,-0.08379360399514423,0.08347777256795935,-0.2686202649041394,-0.04512481372602404,0.10507764001623761,-0.459731787443161,-1.182034969329834,0.8060425519943237,-0.2592351734638214,-0.2780468463897705,0.2437686026096344
1749045772.3143222,5.736935635513413,0.14396342554283145,-2.2870396994630493,5.308636284001004,0.17813607429175798,-4.419209724294714,-0.2671320819098797,-0.08430097189735539,0.08384484659506251,-0.2702709620407042,-0.0453696589951022,0.10591165145095136,-0.484238862991333,-1.191602110862732,0.8176783919334412,-0.2243788391351699,-0.2768583595752716,0.24321249127388
1749045772.3143792,5.7364013375776635,0.14379466028295257,-2.2868745983965644,5.3080975230065865,0.17805072600818939,-4.418998572315018,-0.2686985647255239,-0.08476001316924792,0.08429468638769874,-0.2720352941987691,-0.045622280145729575,0.10677814181487902,-0.4773553013801574,-1.2077462673187256,0.8302306532859802,-0.2744508385658264,-0.2567140460014343,0.21693055331707
1749045772.3144484,5.735864461385675,0.14362458172844783,-2.2867082564319756,5.307557040394214,0.177965113007382,-4.418786186365176,-0.27025040536903994,-0.085174238010217,0.08483022245466132,-0.27391281772653425,-0.045881544742267855,0.10767789152537133,-0.5083941221237183,-1.1670030355453491,0.8426055908203125,-0.2816227376461029,-0.2610602974891662,0.2537561357021332
1749045772.3144925,5.735324308839607,0.14345303153444317,-2.286540074416863,5.307013482485263,0.17787884431749895,-4.418571962628149,-0.2717876617392539,-0.08555040387446557,0.08545145222879996,-0.2758939512632055,-0.04614695811222549,0.10860547287906656,-0.4669567942619324,-1.2163987159729004,0.8554443717002869,-0.3155718445777893,-0.2655782699584961,0.2523968815803528
1749045772.314532,5.734780086439998,0.1432798750236064,-2.2863694934877006,5.306465367164459,0.17779153209290077,-4.418355275705848,-0.27331211638298514,-0.08589713567482696,0.08615540689381469,-0.27796065531205283,-0.04641899831549558,0.10954854785250337,-0.4669567942619324,-1.2163987159729004,0.8554443717002869,-0.3155718445777893,-0.2655782699584961,0.2523968815803528
1749045772.314571,5.734230999024108,0.143105026875949,-2.2861960414562685,5.30591124665235,0.1777028274498582,-4.418135555581933,-0.27482671217550686,-0.08622350982357806,0.08693626002665601,-0.28008816468162057,-0.04669905937428846,0.11048823783624888,-0.5222626328468323,-1.167994499206543,0.8583372831344604,-0.2537971138954162,-0.275281012058258,0.2299411594867706
1749045772.3146088,5.733676353562709,0.14292847520019508,-2.2860193729474387,5.305349873812413,0.17761245428946873,-4.417912361577741,-0.27633476875461815,-0.08653784204882611,0.0877855716741051,-0.2822475701163306,-0.04698905547314952,0.11140062344808584,-0.5222626328468323,-1.167994499206543,0.8583372831344604,-0.2537971138954162,-0.275281012058258,0.2299411594867706
1749045772.3146465,5.733115656012072,0.1427502992546133,-2.285839297866792,5.30478034736843,0.17752023541722659,-4.417685441960169,-0.2778391615059892,-0.08684685879160577,0.08869264965472493,-0.2844088110082269,-0.04729081751425256,0.11225919456834965,-0.506854772567749,-1.200737476348877,0.834297239780426,-0.2577939927577972,-0.2909073829650879,0.2419227510690689
1749045772.3146849,5.732548688073843,0.1425706774164662,-2.285655795191952,5.304202218066711,0.17742610709916537,-4.4174547719771295,-0.27934164853026977,-0.08715533850129029,0.08964499411868673,-0.286543549876063,-0.04760545053134228,0.11303787729816706,-0.5149275064468384,-1.205198884010315,0.8328168392181396,-0.2932804524898529,-0.2996864318847656,0.2309944629669189
1749045772.3147223,5.731975557039334,0.14238988425652235,-2.2854690119871193,5.30361554722766,0.17733012131978135,-4.417220568361186,-0.2808424634650937,-0.08746620959173515,0.09062877269971713,-0.28862749800194976,-0.04793280960134389,0.11371418537711181,-0.4879849255084991,-1.1714065074920654,0.8487532734870911,-0.2807519137859344,-0.2986079156398773,0.2154577672481537
1749045772.3147616,5.731396715701463,0.14220827702206998,-2.2852792490945606,5.30302091529092,0.17723243752935522,-4.416983281551397,-0.28234020153787676,-0.08778101244653472,0.09162927545772438,-0.2906419657171484,-0.04827119846169851,0.1142720639767633,-0.4879849255084991,-1.1714065074920654,0.8487532734870911,-0.2807519137859344,-0.2986079156398773,0.2154577672481537
1749045772.3148012,5.730812948103016,0.14202627158035058,-2.2850869344009626,5.302419378257,0.177133306189861,-4.41674356671487,-0.2838319737024277,-0.0881005841237209,0.09263133766860723,-0.2925745982030829,-0.048617323941732314,0.11470406542353938,-0.5334411263465881,-1.190712571144104,0.8628047704696655,-0.2876048684120178,-0.2924985587596893,0.2336011677980423
1749045772.3148384,5.73022531436058,0.14184430720276972,-2.2848925834736744,5.30181236880544,0.17703304538864464,-4.416502233224895,-0.28531379652965605,-0.08842580466293666,0.09361976688697636,-0.2944193755437165,-0.048966483785548104,0.11501259589649601,-0.5226899981498718,-1.170543551445007,0.8294719457626343,-0.2581484913825989,-0.28646981716156,0.1957417279481887
1749045772.3148756,5.72963505151916,0.1416628008844882,-2.2846967484533405,5.301201544372808,0.17693201108007206,-4.416260173447355,-0.2867811793635607,-0.08875824600959728,0.09457981757363618,-0.2961760158134817,-0.049312942500027,0.11521009461121613,-0.4496581554412842,-1.1855953931808472,0.8150345087051392,-0.2631191313266754,-0.2959959506988525,0.220611110329628
1749045772.3149157,5.729043439379011,0.14148209570493817,-2.2844999599706504,5.300588598135577,0.17683056244328357,-4.416018276644133,-0.2882298336105233,-0.08910058439741525,0.09549770837389887,-0.29784894672214085,-0.049650450524303925,0.1153181404814544,-0.5128098726272583,-1.2043019533157349,0.8257213234901428,-0.2844730913639068,-0.2901584804058075,0.216787189245224
1749045772.3149552,5.728451652926747,0.14130241157957513,-2.284302670824052,5.299975062129722,0.1767290257402288,-4.4157773392395905,-0.28965638533128796,-0.0894566786410302,0.09636111314708143,-0.29944601932300685,-0.049972864041888714,0.11536560762571406,-0.4949098229408264,-1.2051810026168823,0.774261474609375,-0.2775223851203918,-0.2913969457149505,0.2268609404563903
1749045772.3149924,5.727860627677387,0.14112380782798117,-2.2841052112276232,5.2993621354377245,0.1766276612840645,-4.415537984687473,-0.29105896328844905,-0.08983128213623848,0.09715952453622106,-0.30097712478355254,-0.05027481023895581,0.11538609357045401,-0.4820252358913421,-1.2154674530029297,0.8141608238220215,-0.2553029060363769,-0.2714601755142212,0.237410306930542
1749045772.315029,5.727270959828765,0.14094616479372543,-2.283907763214017,5.298750563663053,0.17652663794917595,-4.415300604025997,-0.29243756232199175,-0.09022943199823748,0.09788440834255363,-0.302452836534199,-0.05055231979659257,0.11541490818403607,-0.4398809671401977,-1.2562013864517212,0.7907766699790955,-0.2398427426815033,-0.2831809222698211,0.2008205950260162
1749045772.315066,5.72668285415696,0.14076918768161611,-2.2837103577142233,5.2981405839344,0.17642601842702305,-4.415065323734268,-0.2937941185004228,-0.09065562244532831,0.09852913188724209,-0.30388315396299903,-0.05080333557566985,0.11548593457447735,-0.4560286700725555,-1.2626343965530396,0.792465090751648,-0.2451045662164688,-0.2730694413185119,0.2278902679681778
1749045772.3151762,5.726096122671601,0.1405924313897769,-2.283512893336821,5.297531936868199,0.17632575655817345,-4.414832002467623,-0.29513226888719396,-0.09111290761920579,0.09908873360500858,-0.3052764082454499,-0.05102801894598243,0.11562867140540461,-0.4560286700725555,-1.2626343965530396,0.792465090751648,-0.2451045662164688,-0.2730694413185119,0.2278902679681778
1749045772.316495,5.725510228036954,0.14041534163903738,-2.2833151720250355,5.296923935965775,0.17622570594295064,-4.414600253892702,-0.29645681448804856,-0.09160208919278728,0.09955966370742589,-0.30663841884791065,-0.05122880598650724,0.1158657518939276,-0.5285824537277222,-1.2485328912734983,0.7850027680397034,-0.2682922482490539,-0.2815402150154114,0.226202979683876
1749045772.3582892,5.72492436031817,0.14023730622463462,-2.2831169447711552,5.296315578906882,0.17612563764821473,-4.414369490524541,-0.29777295247520547,-0.09212112615020125,0.09993963186256627,-0.3079720219403392,-0.05141019683303987,0.11621119247951818,-0.5167713165283203,-1.2262024879455566,0.7825655937194824,-0.2676967084407806,-0.2833664417266845,0.2281059622764587
1749045772.3583343,5.724337535868069,0.14005771099457473,-2.2829179609658574,5.295705685727624,0.1760252649854507,-4.4141389837559215,-0.2990853725796457,-0.09266486223644049,0.1002276435527419,-0.309277067060672,-0.051578286226148046,0.11666953496219232,-0.4554952085018158,-1.2884986400604248,0.7573864459991455,-0.2617610692977905,-0.2701937556266784,0.2420506179332733
1749045772.3583791,5.723748710334338,0.1398759966705407,-2.282718016533706,5.295093052144607,0.1759242742164854,-4.4139079363756295,-0.30039732572767697,-0.09322511937488241,0.100424224799846,-0.3105508751205442,-0.05174007015830701,0.11723592974201968,-0.490251362323761,-1.2621432542800903,0.7672276496887207,-0.2587387263774872,-0.273161232471466,0.2386730909347534
1749045772.3584194,5.723156897439404,0.13969171256225626,-2.2825169964956564,5.294476605491349,0.17582235987669115,-4.4136755628047135,-0.3017097950886009,-0.09379117264787518,0.10053176885872693,-0.311789025582513,-0.05190259965156676,0.11789710452088466,-0.490251362323761,-1.2621432542800903,0.7672276496887207,-0.2587387263774872,-0.273161232471466,0.2386730909347534
1749045772.358457,5.722561279086692,0.1395045611065268,-2.282314906195665,5.293855544111797,0.17571926158763498,-4.413441168385053,-0.30302092805849856,-0.09435059689758579,0.1005549102791372,-0.3129862742107784,-0.05207209109451963,0.118633082403242,-0.5249442458152771,-1.262293815612793,0.7714176177978516,-0.2287810891866684,-0.2922536730766296,0.2529106438159942
1749045772.3584983,5.721961286249915,0.13931442526060753,-2.2821118840408867,5.2932294351801055,0.17561479698300025,-4.413204215404116,-0.3043258752955415,-0.09489042922917819,0.1005008367395602,-0.31413741335899853,-0.052253124666579595,0.11941944039774752,-0.4397591352462768,-1.1718858480453491,0.773784875869751,-0.2286300808191299,-0.2897793352603912,0.2521315515041351
1749045772.3585367,5.721356632251466,0.1391213719914763,-2.281908190073935,5.292598249299895,0.175508884537036,-4.412964364061335,-0.30561709422984806,-0.09539851866698545,0.1003794727752562,-0.315237927591399,-0.05244805176979322,0.12022983436416212,-0.4397591352462768,-1.1718858480453491,0.773784875869751,-0.2286300808191299,-0.2897793352603912,0.2521315515041351
1749045772.3585737,5.720747292345687,0.13892563008520264,-2.2817041697886116,5.291962324508051,0.1754015516690576,-4.412721482197871,-0.30688504432156016,-0.09586486201727847,0.10020349778755676,-0.3162843344651437,-0.05265668828978368,0.1210384825294006,-0.5316762924194336,-1.1628923416137695,0.7705064415931702,-0.1958240866661071,-0.271381676197052,0.2464679777622223
1749045772.358611,5.720133439912879,0.1387275471264396,-2.2815001992729025,5.291322271092355,0.17529292704953098,-4.412475625721348,-0.30811910672353265,-0.09628269254843781,0.09998817891046943,-0.31727414714835944,-0.05287631166784662,0.12182231650258007,-0.5038666725158691,-1.2456674575805664,0.7498422861099243,-0.2153911292552948,-0.2856994569301605,0.2338735461235046
1749045772.3586483,5.719515362329411,0.13852753584821215,-2.2812966231505416,5.290678844003866,0.17518322007315104,-4.41222699879393,-0.3093085372222625,-0.09664911883266426,0.09975099928691143,-0.318205472377719,-0.053101933605577696,0.12256257613999212,-0.4745884537696838,-1.245342254638672,0.7680385112762451,-0.1904533505439758,-0.2936024665832519,0.274791419506073
1749045772.3586864,5.718893384276796,0.1383260222434286,-2.2810936989506216,5.290032816605745,0.17507269336267195,-4.411975906672416,-0.3104432833119079,-0.09696520035116306,0.09951105595062162,-0.3190763536331663,-0.05332680041821781,0.12324572539537877,-0.4927529096603393,-1.2338662147521973,0.7833666801452637,-0.2192943543195724,-0.2747241258621216,0.2236901372671127
1749045772.3587303,5.718267821741583,0.13812340636069226,-2.2808915597870896,5.289384886094163,0.17496163491773226,-4.411722713610812,-0.3115145422197645,-0.09723546249766497,0.09928821293371842,-0.3198840519422238,-0.053543064964110196,0.12386367625351004,-0.4945042133331299,-1.2381293773651123,0.782188355922699,-0.2361193299293518,-0.2780727446079254,0.2407388985157013
1749045772.35878,5.717638978007848,0.13792004228531515,-2.2806902022674973,5.28873562861232,0.174850335162276,-4.411467813965267,-0.3125150136928919,-0.09746695765411023,0.09910203213016268,-0.32062449151102224,-0.053742551950723035,0.12441340733984645,-0.5321320295333862,-1.2314257621765137,0.781539261341095,-0.222822368144989,-0.2602880001068115,0.2399882823228836
1749045772.3588436,5.717007177620262,0.13771623787359594,-2.2804895000672345,5.288085505339852,0.17473907147582546,-4.411211618351533,-0.3134388954164793,-0.09766804824980121,0.09897055153039988,-0.3212920669940563,-0.053917502019072944,0.12489614056184911,-0.5321320295333862,-1.2314257621765137,0.781539261341095,-0.222822368144989,-0.2602880001068115,0.2399882823228836
1749045772.358908,5.716372820300433,0.1375122689677388,-2.280289237443604,5.287434904940388,0.1746280998110667,-4.41095455060178,-0.31428173185181807,-0.09784711706261508,0.09890902380515768,-0.32187992570651375,-0.05406116143159937,0.1253162786627691,-0.4664288759231567,-1.2029162645339966,0.8065829873085022,-0.1908199042081833,-0.2509092986583709,0.2222418785095214
1749045772.358976,5.71573642894427,0.13730839883155319,-2.2800891528104255,5.286784197730232,0.17451765070912853,-4.410697047522901,-0.3150402339797945,-0.09801140272336449,0.09892876586116303,-0.3223807372651134,-0.05416811324047326,0.1256802950780495,-0.4664288759231567,-1.2029162645339966,0.8065829873085022,-0.1908199042081833,-0.2509092986583709,0.2222418785095214
1749045772.3590417,5.715098667888993,0.13710489304113366,-2.2798889816510983,5.286133776725281,0.17440792627829937,-4.410439553561405,-0.3157121602095706,-0.09816612287903063,0.09903629341563457,-0.32278787295843153,-0.054234323127522445,0.12599571515229094,-0.4976364970207214,-1.258374571800232,0.8416758179664612,-0.2081084847450256,-0.2837768793106079,0.2462334036827087
1749045772.3591087,5.714460319300417,0.13690202334178603,-2.2796884906479713,5.285484070422551,0.1742990957108926,-4.410182506113736,-0.3162963149358556,-0.09831399412787473,0.09923289992605436,-0.323096838441369,-0.0542569747393371,0.12627026926367538,-0.5190994739532471,-1.2262951135635376,0.8533435463905334,-0.206622302532196,-0.2812813222408294,0.2464549541473388
1749045772.3591766,5.713822221521177,0.1367000593641063,-2.279487499550652,5.284835526779418,0.1741912890164775,-4.409926312265434,-0.3167926839696154,-0.09845519325455353,0.09951476851330276,-0.32330673304598806,-0.054234254674077526,0.12651125771580857,-0.4530868530273437,-1.2249791622161863,0.8152925372123718,-0.1918069571256637,-0.2597095370292663,0.2339271008968353
1749045772.359244,5.713185186208349,0.1364992518273246,-2.2792858916972545,5.284188579835005,0.1740845906361898,-4.409671321631139,-0.31720268196535956,-0.09858773418900296,0.09987359297605918,-0.32342146723121884,-0.05416526943449031,0.12672513925563575,-0.5330089926719666,-1.195521593093872,0.8372495174407959,-0.1801304519176483,-0.2721194624900818,0.2528478503227234
1749045772.359435,5.712549915758657,0.13629981289433657,-2.2790836163003707,5.283543614296747,0.17397903532814257,-4.409417801122889,-0.31752944483489226,-0.09870817231052313,0.1002975732382525,-0.323450485932935,-0.054050217384446084,0.12691732703380645,-0.4886962175369262,-1.2785357236862185,0.7999983429908752,-0.1824586242437362,-0.2642869353294372,0.2354841530323028
1749045772.360571,5.711916938304282,0.13610189851735383,-2.2788806852497365,5.282900939025967,0.17387460779780345,-4.409165916042599,-0.3177780704876826,-0.09881250663252733,0.10077258495736882,-0.32340882478184463,-0.053890833275909863,0.12709214754817538,-0.4428676962852478,-1.22795569896698,0.8121378421783447,-0.2233843207359314,-0.2737877070903778,0.2215678989887237
1749045772.4022813,5.711286568040012,0.13590559523067064,-2.278677165448074,5.28226077178149,0.17377124566190047,-4.408915719236785,-0.31795569745155194,-0.09889713205321132,0.1012833216617673,-0.32331643954782846,-0.05369102804348761,0.12725289653252406,-0.4428676962852478,-1.22795569896698,0.8121378421783447,-0.2233843207359314,-0.2737877070903778,0.2215678989887237
1749045772.402326,5.710658888939697,0.1357109114878435,-2.2784731661845403,5.281623229892921,0.17366884376488556,-4.408667147696708,-0.3180713243606874,-0.09895969122904918,0.1018142642142713,-0.32319685721222363,-0.05345758655697889,0.12740191638548204,-0.4680909514427185,-1.2353171110153198,0.8397160768508911,-0.2061337977647781,-0.2771391272544861,0.2096738666296005
1749045772.402372,5.7100337550198885,0.13551777259613398,-2.278268821060131,5.280988319232177,0.17356725771418,-4.4084200252540855,-0.31813533160336377,-0.09899969324632268,0.10235041989117433,-0.3230752826795206,-0.05320074603823506,0.12754062716035772,-0.518945574760437,-1.197921633720398,0.8318785429000854,-0.2002740204334259,-0.2644928991794586,0.1983813494443893
1749045772.4024289,5.70941080245876,0.13532601907510122,-2.278064265926102,5.28035591868332,0.1734663059503771,-4.408174071324658,-0.3181587560617426,-0.0990188106986806,0.10287785073062282,-0.32297637629933085,-0.052934446474825904,0.12766947188764818,-0.4806623458862304,-1.2293041944503784,0.8209558725357056,-0.223926305770874,-0.2529867887496948,0.21514193713665
1749045772.4024696,5.708789474347404,0.13513540981909608,-2.277859616832769,5.279725765041787,0.17336577172041737,-4.407928917380189,-0.31815243738588905,-0.09902082128930366,0.10338404067313187,-0.32292201337192816,-0.05267604372162614,0.12778778902775426,-0.455301821231842,-1.1748344898223877,0.7936919331550598,-0.2533467411994934,-0.2524071633815765,0.2271308004856109
1749045772.4025075,5.708169060717223,0.13494563191417386,-2.2776549527839616,5.2790974464091605,0.17326540747718908,-4.4076841325470175,-0.318126159628845,-0.09901119955948998,0.10385812629734062,-0.32292941148734666,-0.05244534162711543,0.12789368790686398,-0.455301821231842,-1.1748344898223877,0.7936919331550598,-0.2533467411994934,-0.2524071633815765,0.2271308004856109
1749045772.4025457,5.707548752696288,0.13475631779115974,-2.2774503064219784,5.278470408408538,0.17316494371972252,-4.407439257216331,-0.31808787261627053,-0.09899639424192008,0.10429097020828794,-0.32300997404048465,-0.0522629394907527,0.1279840403830504,-0.5182856917381287,-1.2369478940963743,0.7916896939277649,-0.2693530917167663,-0.2734467983245849,0.2006727904081344
1749045772.4025826,5.706927705268572,0.13456706889587156,-2.277245663369496,5.277843972529838,0.17306410262211067,-4.407193841209013,-0.3180430411526291,-0.09898287805590111,0.1046750393913927,-0.3231689955819352,-0.052148070129927976,0.12805467832441778,-0.4912607371807098,-1.2625036239624023,0.7709828615188599,-0.2250449061393737,-0.3005780279636383,0.2420340180397033
1749045772.4026194,5.706305103023649,0.13437748441559796,-2.277040969688806,5.277217365294601,0.17296261513759878,-4.406947482693732,-0.3179941614268545,-0.09897613386449404,0.1050040870890029,-0.3234060820780848,-0.052116257964268664,0.128100812579573,-0.4638648927211761,-1.24111008644104,0.779334545135498,-0.2027278244495391,-0.2943034768104553,0.2502814531326294
1749045772.4026563,5.7056802253823795,0.1341871931891317,-2.27683614642101,5.276589758760133,0.17286023930078362,-4.406699864630347,-0.31794049121188644,-0.09897979438565459,0.10527270641132375,-0.3237159251228047,-0.05217719391449951,0.1281176164993063,-0.4638648927211761,-1.24111008644104,0.779334545135498,-0.2027278244495391,-0.2943034768104553,0.2502814531326294
1749045772.402693,5.705052506616162,0.13399588547602195,-2.2766311089051583,5.275960321208445,0.17275677709343398,-4.406450784934095,-0.3178780457176067,-0.09899512440424149,0.10547588529774214,-0.3240890539243169,-0.05233318095907692,0.1281008837089758,-0.4628627300262451,-1.233568787574768,0.7714252471923828,-0.2460048198699951,-0.2921191453933716,0.2375095635652542
1749045772.4027295,5.70442158159533,0.13380333925601107,-2.2764257866512585,5.275328271227221,0.17265208737982957,-4.406200175114445,-0.31779990974958383,-0.09902092597407428,0.10560871355512033,-0.32451235204061585,-0.052578382422178084,0.12804767360010472,-0.4628627300262451,-1.233568787574768,0.7714252471923828,-0.2460048198699951,-0.2921191453933716,0.2375095635652542
1749045772.4027653,5.703787306407124,0.13360943521878874,-2.276220138788509,5.274692924531145,0.17254609322406014,-4.4059481021336016,-0.31769690681995455,-0.09905382146911251,0.10566636704575183,-0.32496934977952624,-0.05289896503133457,0.12795687808194833,-0.439163476228714,-1.1924216747283936,0.7621527314186096,-0.2541273534297943,-0.3066608607769012,0.2285939157009124
1749045772.4028018,5.7031497473407935,0.13341415671111298,-2.276014161580716,5.274053724735362,0.1724387831490707,-4.405694750859242,-0.3175586356863493,-0.09908879242233147,0.10564443552600027,-0.3254404745803861,-0.053274113849997334,0.1278296632645053,-0.439163476228714,-1.1924216747283936,0.7621527314186096,-0.2541273534297943,-0.3066608607769012,0.2285939157009124
1749045772.402838,5.70250914040538,0.13321757485939023,-2.2758078874075824,5.273410255496571,0.1723302069756854,-4.405440388918026,-0.31737482664158484,-0.09911984398023234,0.10553958560724336,-0.32590350775835486,-0.053677809184657664,0.1276697522567774,-0.4802410006523132,-1.2331774234771729,0.7324658632278442,-0.2542473077774048,-0.2933825254440307,0.2376073002815246
1749045772.4028738,5.7018658330189655,0.13301982337708013,-2.275601377583576,5.272762238821046,0.17222046760114168,-4.405185320556471,-0.3171368922898627,-0.09914070089960851,0.10535046893285557,-0.3263344597906864,-0.0540811754927532,0.12748351855277248,-0.4708927273750305,-1.2404158115386963,0.7597764730453491,-0.2773801982402801,-0.2730780243873596,0.2101792395114898
1749045772.4029102,5.701220226487235,0.13282107071669555,-2.2753947133729353,5.272109530138549,0.17210971064641184,-4.404929839761044,-0.31683946872334107,-0.09914548428529252,0.10507871071244229,-0.3267089638650718,-0.05445513354166946,0.1272798569053669,-0.3689237534999847,-1.2065763473510742,0.7079856991767883,-0.2613299787044525,-0.2909764945507049,0.2116797715425491
