nimar13/UR3e_dataset_trayectorias/trayectorias_ejecutadas_filtradas/quintic_func/trayectoria_001_result_filtrado.csv
timestamp,q1,q2,q3,q4,q5,q6,qd1,qd2,qd3,qd4,qd5,qd6,tau1,tau2,tau3,tau4,tau5,tau6
1749039340.4263103,-0.0776313348490718,-1.0851110868933822,-2.307187733054581,5.105426448080756,-5.676198801742851,4.913267774977315,-7.015176603471716e-05,0.00019075746490567776,4.802276903571357e-05,-9.481168096052368e-05,0.00011047803553281417,-0.001065745079070964,-0.2673167586326599,0.5796382427215576,0.981128752231598,0.5293344855308533,-0.4237303137779236,0.0014813840389251
1749039340.4263585,-0.07763458738328032,-1.0851084810381306,-2.307188204447188,5.105423313712028,-5.6761996817474705,4.913269841242019,-7.197603378124541e-05,0.00019887176039948238,4.777055221152371e-05,-9.212458418683077e-05,0.00011124155107490052,-0.001049218180761135,-0.2673167586326599,0.5796382427215576,0.981128752231598,0.5293344855308533,-0.4237303137779236,0.0014813840389251
1749039340.4263997,-0.07763770610926375,-1.0851059790338597,-2.3071886808611755,5.10542029294427,-5.67620054454574,4.913271835702538,-7.490673815276799e-05,0.00020938870165272133,4.747088350497489e-05,-8.956906145945732e-05,0.00011180617137180931,-0.0010282437402743152,-0.2596358060836792,0.571260929107666,0.9901899695396424,0.5376278162002563,-0.4220249056816101,0.0025232136249542
1749039340.4264388,-0.0776404942858907,-1.0851036614982328,-2.3071891611352893,5.105417487564832,-5.676201404266425,4.913273654401292,-7.890417851452645e-05,0.00022151888594585376,4.709393964376533e-05,-8.728714655470849e-05,0.00011185322317110977,-0.001000830497332625,-0.2675129175186157,0.5597103834152222,0.9837042689323424,0.531690776348114,-0.4240574240684509,0.0039576590061187
1749039340.4264777,-0.07764278904332043,-1.0851016037153776,-2.307189654804775,5.105414982005195,-5.676202274100796,4.9132752059705345,-8.379320699920306e-05,0.00023411247587112595,4.66134751267757e-05,-8.54294740770749e-05,0.00011103697229941147,-0.0009657212528559901,-0.2588470578193664,0.5603010654449463,0.9746456742286682,0.5293264389038086,-0.4259776473045349,-0.0076541304588317
1749039340.426515,-0.07764447899951707,-1.085099871302392,-2.307190181389442,5.105412837771937,-5.676203163948356,4.913276421919585,-8.924719510721293e-05,0.0002456814474461608,4.600750821170633e-05,-8.414145687130772e-05,0.00010901650065431557,-0.0009225849429584675,-0.2440508157014846,0.559736430644989,0.996658444404602,0.5228617191314697,-0.4154407382011413,0.0221017301082611
1749039340.426553,-0.0776455134989311,-1.0850985161987219,-2.3071907665742852,5.105411089660057,-5.67620407920644,4.913277263685773,-9.478536501039372e-05,0.0002544627970612786,4.525907523222193e-05,-8.354610419587056e-05,0.00010549533848243439,-0.000872094932903086,-0.2442330569028854,0.5696261525154114,0.9746297001838684,0.5251907706260681,-0.4245206713676452,0.0052107870578765
1749039340.4265902,-0.07764590317623317,-1.0850975730482555,-2.307191436154127,5.105409744329005,-5.676205021205237,4.913277725693921,-9.978704346698645e-05,0.0002585281282219134,4.435705010275309e-05,-8.372458177122768e-05,0.00010026663187806842,-0.0008158901989966176,-0.2659617066383362,0.5910685658454895,0.9837042689323424,0.5213421583175659,-0.4169343709945678,-0.0036699473857879
1749039340.4266274,-0.07764571304727891,-1.085097056059436,-2.3071922091139467,5.1054087817270775,-5.676205989035846,4.913277834211071,-0.00010352528147311793,0.00025594175616131985,4.329694570815317e-05,-8.46961423027716e-05,9.326039121946343e-05,-0.000756431336237229,-0.2615601420402527,0.5833903551101685,0.9759300947189332,0.5231362581253052,-0.4134396910667419,0.0078305304050445
1749039340.4266646,-0.0776450501763251,-1.0850969564650335,-2.3071930912925223,5.105408159500636,-5.67620698182616,4.9132776423337186,-0.00010522065316437465,0.00024496481323344323,4.208153232892577e-05,-8.639953055653575e-05,8.458816937098784e-05,-0.000696771395814577,-0.2613471150398254,0.5774882435798645,0.982410967350006,0.5346753597259521,-0.4210699200630188,-0.0155024528503417
1749039340.4267025,-0.0776440482798796,-1.0850972407664432,-2.307194070931325,5.10540781994739,-5.6762080002216955,4.913277221980591,-0.00010411403441961775,0.00022429694904487564,4.072104528005952e-05,-8.867834225981852e-05,7.457952266131103e-05,-0.0006402640622349518,-0.2688252329826355,0.570218026638031,0.975922703742981,0.5240433812141418,-0.423477828502655,-0.0075562000274658
1749039340.4267402,-0.07764285166140499,-1.0850978501214734,-2.307195117108504,5.105407698412092,-5.676209045958115,4.913276654173926,-9.955491663473032e-05,0.00019334054144958446,3.923272754104575e-05,-9.127302817278082e-05,6.380398338937308e-05,-0.0005902316161961499,-0.2852035760879516,0.5794323086738586,0.9785250425338744,0.5456110835075378,-0.4018275737762451,-0.0141319334506988
1749039340.426778,-0.07764160065711677,-1.0850987015147582,-2.3071961815394357,5.105407731549096,-5.676210119035965,4.913276019063631,-9.10994420327993e-05,0.00015246554401108128,3.7639480204603556e-05,-9.382221642278559e-05,5.307218828456926e-05,-0.0005496147205742342,-0.2754106521606445,0.5659067034721375,0.9824076294898988,0.5228266716003418,-0.4221795797348022,0.0026821792125701
1749039340.426816,-0.07764042023402001,-1.08509969152002,-2.307197203578526,5.105407863914076,-5.676211213074998,4.91327538707224,-7.86099487786328e-05,0.00010324702797100344,3.5967490366628125e-05,-9.587571712418238e-05,4.341041552237673e-05,-0.0005206264787307138,-0.2392371445894241,0.5621899962425232,0.9707387089729308,0.5296533107757568,-0.3950672745704651,0.009042888879776
1749039340.426854,-0.07763941259454178,-1.0851007031692037,-2.307198117700792,5.10540805196019,-5.676212310360647,4.913274812238399,-6.234555677457486e-05,4.864307121422897e-05,3.4242887892649976e-05,-9.69209293046471e-05,3.600420048363545e-05,-0.0005044349404253949,-0.2705770134925842,0.5698955655097961,0.9707626700401306,0.5293249487876892,-0.4065451025962829,-0.0038060545921325
1749039340.4268916,-0.07763865376551454,-1.0851016155892528,-2.3071988623822173,5.10540826534125,-5.676213378217195,4.913274328324094,-4.3031487951805685e-05,-6.921125175298491e-06,3.2487756692916174e-05,-9.642337301176568e-05,3.210898647941585e-05,-0.000500901094900868,-0.2681047320365906,0.558678388595581,0.97852224111557,0.5352375507354736,-0.4118839502334595,0.0027018189430236
1749039340.4269288,-0.07763819333687048,-1.0851023150604682,-2.307199389090241,5.105408486027316,-5.676214367698115,4.913273947676055,-2.1893751237240016e-05,-5.759524113917217e-05,3.0716159910703726e-05,-9.388073604489607e-05,3.292890051506065e-05,-0.0005084022444494157,-0.2467199116945266,0.5499605536460876,0.9733594059944152,0.5296350717544556,-0.4072019457817077,0.0142525732517242
1749039340.426966,-0.07763805602639723,-1.0851027055050526,-2.307199669987037,5.105408705990387,-5.676215214858878,4.9132736625051905,-6.459024835810871e-07,-9.62982659991369e-05,2.8931112687986585e-05,-8.888821468330737e-05,3.9468606744871646e-05,-0.0005237715989864589,-0.256549596786499,0.5558053851127625,0.9733399748802184,0.5352709293365479,-0.399620771408081,-0.0063431859016418
1749039340.4270034,-0.07763824382802002,-1.085102716318063,-2.3071997029739864,5.1054089242182235,-5.676215844573158,4.913273448273955,1.858384753620485e-05,-0.0001150809130438089,2.712347466785533e-05,-8.121114842449652e-05,5.236755110958749e-05,-0.0005423822775970715,-0.2501978874206543,0.5753594040870667,0.972064971923828,0.5284537076950073,-0.4147220253944397,-0.0037377774715423
1749039340.4270406,-0.0776387380560574,-1.0851023058637719,-2.3071995130134315,5.105409143624818,-5.676216176867364,4.913273268956547,3.339359608961901e-05,-0.0001056561675799255,2.527344488481244e-05,-7.085915611291342e-05,7.173042392804865e-05,-0.0005583969877827582,-0.2809997797012329,0.5734714865684509,0.9720492959022522,0.54679274559021,-0.4213889241218567,0.0026452988386154
1749039340.4270794,-0.07763950119886141,-1.0851014598294635,-2.3071991493677158,5.105409368120523,-5.676216135597127,4.913273083744545,4.132000870397794e-05,-6.0078623931008946e-05,2.335481332607228e-05,-5.815437524883637e-05,9.697187952644048e-05,-0.0005651938543102112,-0.2723129987716675,0.5514383316040039,0.9798128008842468,0.5239999294281006,-0.4139522314071655,-0.0012917965650558
1749039340.4271169,-0.07764047880319926,-1.085100184867689,-2.3071986793177155,5.105409599882437,-5.676215658666607,4.913272854384663,4.01180763665785e-05,2.846902268732238e-05,2.1341544419651143e-05,-4.378522180273951e-05,0.00012669692419338904,-0.0005559649441894454,-0.2598034143447876,0.5691889524459839,0.9655757546424866,0.5284528136253357,-0.4095277190208435,-0.0063005089759826
1749039340.4272232,-0.0776416016595712,-1.0850984992298922,-2.3071981796262198,5.10540983687005,-5.676214708161626,4.913272552073773,2.8096111697657566e-05,0.00016484701783379163,1.921578155610462e-05,-2.8836575033676206e-05,0.0001586403282340381,-0.0005244675966491654,-0.2590625286102295,0.557551383972168,0.9655574560165404,0.5284526944160461,-0.4088299870491028,0.0065366625785827
1749039340.4282818,-0.07764278859322572,-1.085096422823344,-2.3071977271910846,5.105410070781376,-5.676213278311408,4.913272162879593,4.484796742632732e-06,0.00035117282377342677,1.6976027662614398e-05,-1.4787693444230846e-05,0.00018968835122620405,-0.0004658903532543463,-0.2604128718376159,0.5603575706481934,0.95002281665802,0.5376191139221191,-0.3946327567100525,0.0001332759857177
1749039340.4702978,-0.07764395028027651,-1.0850939690064518,-2.30719739008586,5.105410285763466,-5.676211399457872,4.913271690909833,-3.0188897997810043e-05,0.000586179764718738,1.4644092220044734e-05,-3.470689044383489e-06,0.0002160034787759244,-0.0003777762289414601,-0.2748004198074341,0.5545936822891235,0.9759353399276732,0.5293325185775757,-0.4080142378807068,0.007918894290924
1749039340.4703467,-0.07764499448790516,-1.0850911397610346,-2.3071972198455613,5.105410458189632,-5.6762091371164605,4.913271158708147,-7.375788939688775e-05,0.000864826892472425,1.2269409984097794e-05,3.0148401438727116e-06,0.00023326738771070084,-0.000260927961150852,-0.2511675953865051,0.5925425291061401,0.9577946066856384,0.5296438932418823,-0.4168672561645508,-0.0012405216693878
1749039340.4703894,-0.07764583270461611,-1.0850879250525527,-2.3071972456406478,5.105410557699089,-5.676206586388172,4.913270604493425,-0.00012213912228053897,0.0011782584041622024,9.929541488358342e-06,2.4313722211556902e-06,0.00023704884486742134,-0.00012020473195650646,-0.2684698104858398,0.6002399325370789,0.9616784453392028,0.515740156173706,-0.4064992666244507,0.0259622782468795
1749039340.4704304,-0.0776463873291771,-1.0850843063200837,-2.3071974708665914,5.105410549486956,-5.676203862954174,4.913270075967549,-0.00016916326678644307,0.0015141835949389452,7.726070054461818e-06,-7.427627573059516e-06,0.0002232918648999585,3.4889954088707166e-05,-0.2819494009017944,0.6243284344673157,0.9733508229255676,0.5296090245246887,-0.4338806271553039,0.0053013116121292
1749039340.4704678,-0.07764659784478486,-1.0850802631416745,-2.3071978725500673,5.105410397581705,-5.676201092294118,4.91326962072673,-0.00020654372464558164,0.0018576977246718845,5.775714971415773e-06,-2.8540342664460467e-05,0.00018890573137823581,0.00018993124709144475,-0.2423288375139236,0.6265661120414734,0.966868817806244,0.5183901190757751,-0.4286965727806091,0.0220843106508255
1749039340.4705057,-0.07764642421041776,-1.085075781363838,-2.3071984037749513,5.105410068641922,-5.676198398590005,4.913269273927513,-0.00022401081268424097,0.002192488105870949,4.1972394872334575e-06,-6.244808458672503e-05,0.00013242334997635015,0.00032569964430504463,-0.2523204088211059,0.5913905501365662,0.957791268825531,0.5068501234054565,-0.4207422137260437,0.0272174179553985
1749039340.470545,-0.07764584628954443,-1.0850708606869186,-2.3071989990022206,5.105409535691572,-5.676195894338518,4.913269044587459,-0.00020962482678383554,0.0025022777902721795,3.0954980334694513e-06,-0.00011005895482942745,5.4679180199498114e-05,0.00041878235414995256,-0.2161722034215927,0.590836226940155,0.973339021205902,0.5024318695068359,-0.4234666228294372,0.032423660159111
1749039340.4705868,-0.0776448593003234,-1.085065520142663,-2.307199581684765,5.105408781169517,-5.676193671401825,4.913268902419846,-0.00015026559215852614,0.0027722856814974117,2.5445175497323065e-06,-0.0001714917982596626,-4.055563712362776e-05,0.0004426849602068679,-0.2455776482820511,0.6049768924713135,0.9616683721542358,0.4912006855010986,-0.4210640788078308,0.0143144577741622
1749039340.470625,-0.0776434664379598,-1.0850598008965535,-2.3072000731504496,5.105407798688073,-5.676191794139413,4.9132687671856266,-3.2277264882661374e-05,0.0029904735010327435,2.5716992343009075e-06,-0.0002459909790844007,-0.00014605344711613268,0.0003694410015965892,-0.1917139440774917,0.6102132797241211,0.9694429636001588,0.5083641409873962,-0.4230003952980041,0.0142672061920166
1749039340.4706671,-0.0776416703685501,-1.0850537666337894,-2.3072004015988465,5.105406593014482,-5.676190295024128,4.913268502120883,0.00015777213998923598,0.003148420520696602,3.1451095346341594e-06,-0.0003319414108005514,-0.0002508026091198213,0.00017164883220815096,-0.1865444928407669,0.6136722564697266,0.9720585346221924,0.503588080406189,-0.4126593470573425,0.0026371479034423
1749039340.4707096,-0.0776394649889495,-1.0850475019415542,-2.307200510222551,5.1054051780524725,-5.676189172482441,4.913267912197491,0.00043227311756259155,0.0032417724927066224,4.1655650429307406e-06,-0.00042700744799910437,-0.00033994663153598636,-0.00017519879371617942,-0.1815291196107864,0.6046692132949829,0.9694494605064392,0.4846909046173095,-0.4061210751533508,0.0001375377178192
1749039340.4707477,-0.07763682808804637,-1.085041108843994,-2.3072003636932434,5.105403573010795,-5.676188389864275,4.913266747187437,0.000801763556628441,0.003270290053060722,5.4649197879369504e-06,-0.0005284074757160536,-0.000395052509785422,-0.0006902894675130702,-0.1350359618663787,0.6071948409080505,0.9759459495544434,0.4867552518844604,-0.4050779938697815,-0.0193058252334594
1749039340.4707851,-0.07763371501415994,-1.0850347015393114,-2.3071999524144173,5.105401797399073,-5.676187874004681,4.913264709147826,0.001274183346512369,0.0032375507125127346,6.811651533158512e-06,-0.0006333170449009169,-0.00039474971470706877,-0.001385218645635683,-0.0975098460912704,0.5898018479347229,0.9914764761924744,0.4816770553588867,-0.3879728317260742,-0.0193425416946411
1749039340.4708211,-0.07763005347380417,-1.0850283996596317,-2.307199294068435,5.105399865798571,-5.676187512170476,4.913261464075163,0.0018542329920039533,0.003150359447845056,7.924482215052869e-06,-0.0007393665093490149,-0.000315751059153443,-0.002262146358720477,-0.1754658371210098,0.5850649476051331,0.9785351753234864,0.4905867576599121,-0.3820245862007141,-0.0335546135902404
1749039340.470862,-0.07762573995733825,-1.085022320895585,-2.307198432110465,5.105397783362762,-5.676187147237097,4.913256657700186,0.0025428467712384256,0.0030179282797588897,8.494319453463692e-06,-0.0008451671328329756,-0.00013422924090056467,-0.003312650029719948,-0.1179158687591552,0.5912777781486511,0.9863203167915344,0.485573410987854,-0.3737936019897461,-0.0529663860797882
1749039340.470899,-0.07762063860776677,-1.0850165742396172,-2.3071974310462027,5.1053955426956055,-5.67618657225588,4.913249935251838,0.003336778882787982,0.002850907004148549,8.214249085125115e-06,-0.000950773084156856,0.0001725181655386594,-0.004517481449310896,-0.109886348247528,0.5850470066070557,0.9798141717910768,0.4826006889343261,-0.3552635908126831,-0.0387585163116455
1749039340.4709356,-0.07761458336659079,-1.085011254948849,-2.307196368731452,5.10539312227876,-5.676185526538598,4.913240964367252,0.004228323713325761,0.0026603734910374535,6.816642844147898e-06,-0.0010579817414452964,0.0006242214185936825,-0.0058473275167218505,-0.0831325650215148,0.5799155831336975,0.9888883233070374,0.4749422073364258,-0.3546510338783264,-0.0309741497039794
1749039340.470972,-0.07760738393149583,-1.0850064415244174,-2.3071953265917626,5.105390486200101,-5.676183695593979,4.91322945935161,0.005205237193504212,0.002456903153338598,4.115696871510461e-06,-0.001170400659403058,0.0012357443373732296,-0.0072645375951711924,-0.0468236654996871,0.5909090042114258,0.9888935685157776,0.4713565111160278,-0.3377934098243713,-0.0350801795721054
1749039340.4710114,-0.07759883552707642,-1.0850021940982488,-2.3071943793007006,5.105387584762048,-5.676180716751183,4.913215204079018,0.006250954988928863,0.002249822741339886,5.294023927579775e-08,-0.001293258830065145,0.002015290563932504,-0.008725653862678064,-0.0525177419185638,0.5652961730957031,0.9785258769989014,0.4708805084228515,-0.3231277465820312,-0.0540735274553298
1749039340.4710493,-0.07758873180641504,-1.0849985532550546,-2.3071935856983683,5.105384355653013,-5.676176191534955,4.913198070427666,0.007345186411053288,0.0020467167689117104,-5.257469898511582e-06,-0.0014329930745908394,0.002962852220319916,-0.010184499644196952,-0.0574259310960769,0.5844676494598389,0.995381236076355,0.4772897362709045,-0.3093536496162414,-0.0409105420112609
1749039340.4711545,-0.07757687951891597,-1.0849955386224466,-2.307192982457791,5.10538072560016,-5.676169705149719,4.91317802952201,0.008464911544467437,0.0018532074925983622,-1.1487413678422034e-05,-0.0015966797769333067,0.004069029220915811,-0.011595554834349042,-0.0076107680797576,0.5793537497520447,1.0005539655685425,0.4624198079109192,-0.3022439479827881,-0.0685434788465499
1749039340.4722998,-0.0775631131399386,-1.0849931472187475,-2.3071925813668246,5.10537661259685,-5.676160852661505,4.913155154022657,0.009585752518736055,0.0016729844319104431,-1.8061467292536865e-05,-0.001791398539547924,0.005314341143027733,-0.012917360897654814,0.0132386311888694,0.5949687361717224,1.000546932220459,0.4745685458183288,-0.3034215569496155,-0.064854696393013
1749039340.5142832,-0.07754730770496356,-1.08499135215612,-2.3071923703264736,5.105371928846015,-5.676149270388857,4.913129610815952,0.010683638476053752,0.0015080262684766916,-2.413547498132079e-05,-0.002023606250566717,0.0066691606240996135,-0.014115722297606175,0.0240102522075176,0.5670127272605896,1.0096147060394287,0.4444845616817474,-0.3012276291847229,-0.093264602124691
1749039340.5143292,-0.0775293886465909,-1.0849901025512394,-2.307192317498063,5.105366584507482,-5.676134669761235,4.913101644505145,0.011736628902317806,0.0013589408912411064,-2.859033720950488e-05,-0.0022985729514945334,0.008094405796021538,-0.015166485276251385,0.0132901482284069,0.5759791731834412,1.0096054077148438,0.4336169362068176,-0.2692921161651611,-0.1050201207399368
1749039340.514369,-0.07750933810747701,-1.0849893252883833,-2.3071923775827874,5.105360492210571,-5.676116869917892,4.913071553240331,0.012726703956606238,0.0012253484733828997,-3.004312865416513e-05,-0.0026198985018460966,0.009543114761324353,-0.016057675246907793,0.0162987969815731,0.5597906708717346,1.019976258277893,0.4536970257759094,-0.2660331130027771,-0.0627673119306564
1749039340.5144107,-0.07748719749377893,-1.0849889287340562,-2.3071924989751733,5.105353572112309,-5.676095824899344,4.9130396596750945,0.013641297474950529,0.001106245124876415,-2.6875889650605313e-05,-0.00298911073045041,0.010962965312216138,-0.016790775496268028,0.0262817852199077,0.5763987898826599,1.0173962116241455,0.4457387328147888,-0.2550568580627441,-0.0826256498694419
1749039340.5144498,-0.07746306588502339,-1.0849888079302383,-2.3071926304901194,5.105345757060908,-5.676071641434658,4.913006280736298,0.01447436233700054,0.0010003060537623124,-1.7280162018962422e-05,-0.003405354893353494,0.012299691226994841,-0.017380959633764233,0.0516200549900531,0.5503389239311218,1.0368373394012451,0.4373324513435364,-0.2432426065206527,-0.0698818489909172
1749039340.5144875,-0.07743709373373422,-1.0849888505890088,-2.307192726583163,5.105336997185495,-5.676044583987219,4.9129716998389545,0.01522682114960588,0.0009061107023970957,6.872450346485257e-07,-0.003865213909584966,0.013501196952259188,-0.017856172874046082,0.0627544373273849,0.5658146739006042,1.0497971773147583,0.4229584634304046,-0.2595634460449219,-0.0818764269351959
1749039340.514526,-0.07740947142236063,-1.0849889435247655,-2.307192750452707,5.105327263062621,-5.67601506489945,4.912936144145413,0.015906350074135402,0.0008222914194184036,2.9044343397947713e-05,-0.004362721486296057,0.014522017924003339,-0.018255093673127172,0.086573988199234,0.5560555458068848,1.0510551929473877,0.4193112254142761,-0.239679217338562,-0.0859383642673492
1749039340.514563,-0.07738041270663877,-1.0849889796108014,-2.3071926749659046,5.105316546688739,-5.675983619181591,4.912899768058742,0.016526545029158294,0.0007476180894236782,6.982906117140355e-05,-0.004889618008268462,0.015327654181728751,-0.018624167202455976,0.1206309720873832,0.5581430792808533,1.0588679313659668,0.4344671368598938,-0.2343088090419769,-0.1187276169657707
1749039340.514604,-0.07735013373194274,-1.0849888653399802,-2.307192481784144,5.105304859981976,-5.675950865581767,4.912862642943341,0.017105604029423703,0.0006810342685271243,0.0001250593969244576,-0.005435848432222446,0.01589825337809502,-0.019014038322675595,0.1100781261920929,0.5633187890052795,1.0808885097503662,0.4200784564018249,-0.2540382742881775,-0.0878118947148323
1749039340.514641,-0.07731882911215217,-1.0849885284704979,-2.307192159277381,5.105292231325533,-5.675917457662784,4.912824752290791,0.017664710998444383,0.0006216591955525813,0.0001967175777259557,-0.005990238772036198,0.01623115310603202,-0.019475782457404993,0.0965846180915832,0.5547978281974792,1.0977635383605957,0.4209644198417663,-0.2562645673751831,-0.1120531857013702
1749039340.5146809,-0.07728664744889213,-1.0849879245632899,-2.307191699831769,5.105278701249871,-5.67588403015901,4.91278599123092,0.018226320106636343,0.0005687678300553608,0.00028676311374226966,-0.006541249271228045,0.016341912837435472,-0.02005732147850926,0.128812238574028,0.5756240487098694,1.085666537284851,0.4242436289787292,-0.2476813346147537,-0.1096512526273727
1749039340.5147736,-0.07725366936991113,-1.0849870411167235,-2.307191097028187,5.105264318316011,-5.675851146483584,4.9127461694201395,0.01881252129738501,0.0005217590528758976,0.00039717177974350477,-0.007077705145904101,0.01626365699500191,-0.02080033209740573,0.1509181857109069,0.5491572618484497,1.0908749103546145,0.398041307926178,-0.2489859014749527,-0.1424968689680099
1749039340.514812,-0.07721989128113568,-1.0849858985961949,-2.307190342920841,5.105249135763472,-5.675819252765441,4.912705016720011,0.019443628269485435,0.00048012019106865363,0.0005299855040070717,-0.007589436586055815,0.01604477506102737,-0.02173783717455387,0.1275914907455444,0.555652916431427,1.11156165599823,0.39201819896698,-0.2592545747756958,-0.1353203058242797
1749039340.5148494,-0.0771852173709809,-1.0849845484445184,-2.307189425349492,5.105233209026092,-5.675788642409366,4.912662191391723,0.02013708062536601,0.00044339388360599473,0.0006873436904643957,-0.008067791113006297,0.015745229128236896,-0.02289254856704765,0.129435509443283,0.5564290881156921,1.1232703924179075,0.4101232290267944,-0.2520157098770141,-0.1423820406198501
1749039340.5148869,-0.07714946112985395,-1.0849830686380153,-2.307188325073134,5.105216594094662,-5.675759433423059,4.91261729069792,0.02090670098892277,0.00041115113861126836,0.0008714562378461887,-0.008505997616453084,0.015431862824991874,-0.02427593259995275,0.1697787940502166,0.5457004308700562,1.1167488098144531,0.4109919667243957,-0.2358756512403488,-0.1408649235963821
1749039340.5149236,-0.07711235610428555,-1.0849815574659778,-2.3071870126658505,5.105199346832296,-5.675731559244452,4.91256986398773,0.021762302656582178,0.00038297249540370886,0.0010844824723840515,-0.00889936794859494,0.015173179489264006,-0.025887915729186462,0.1437278985977172,0.5548933744430542,1.1296859979629517,0.4043517708778381,-0.2368445694446563,-0.1458573937416076
1749039340.5149624,-0.0770735742581201,-1.0849801260977163,-2.3071854454932326,5.1051815234069515,-5.675704772791332,4.912519428562591,0.022709608149058074,0.0003584376469532518,0.0013283030722363233,-0.009245332787533608,0.015034074398096927,-0.02771714085173329,0.1723147928714752,0.5541128516197205,1.1439975500106812,0.4017850756645202,-0.231116384267807,-0.149315059185028
1749039340.5150008,-0.07703274958299167,-1.0849788902280963,-2.3071835654888844,5.105163181725612,-5.675678662841835,4.912465488649139,0.02375041611526152,0.0003371227509773286,0.0016042057706570241,-0.009543328181497784,0.015070977951394749,-0.02974170871084296,0.2104741632938385,0.5559725165367126,1.1439826488494873,0.403687834739685,-0.2188688665628433,-0.1674928814172744
1749039340.5150378,-0.0769895044790684,-1.0849779608426855,-2.3071812987048226,5.105144383240158,-5.6756526814580806,4.912407557492774,0.024882945778632558,0.00031860394614130727,0.0019125339839964888,-0.009794570307086612,0.015327803331414832,-0.03193037107110127,0.213787168264389,0.5370296835899353,1.1517807245254517,0.380806565284729,-0.2126090675592422,-0.1717762947082519
1749039340.5150745,-0.07694347644101628,-1.0849774342508427,-2.307178557583203,5.105125194160591,-5.6756261808005934,4.912345182007644,0.026102295144032464,0.0003024652398529504,0.0022523584163526024,-0.010001769620502154,0.015833005529064907,-0.034244165242383044,0.2530937194824219,0.5448119044303894,1.1570589542388916,0.3853038549423218,-0.2055127471685409,-0.17827969789505
1749039340.5151813,-0.07689434244366002,-1.0849773820825754,-2.307175246479812,5.1051056852084935,-5.675598457133732,4.912277968658122,0.027400965511448317,0.0002883088720072219,0.0026212247953213757,-0.010168838550147656,0.01659795820928085,-0.03663848648586859,0.2293520420789718,0.5400094389915466,1.175043702125549,0.3885471522808075,-0.1855490356683731,-0.1962293237447738
1749039340.516265,-0.07684183846564688,-1.0849778425669543,-2.307171270163521,5.105085929419894,-5.675568799075055,4.9122056083725605,0.028769419945401428,0.00027576640441985485,0.003015016267015587,-0.010300640441526928,0.017616742408961085,-0.03906558255750685,0.2535290718078613,0.558171808719635,1.1751631498336792,0.3717646300792694,-0.1810510903596878,-0.2000771909952163
1749039340.5623295,-0.07678577226749474,-1.0849788146294788,-2.3071665440416873,5.105065997847887,-5.6755365364561605,4.912127897608918,0.030196651160713264,0.00026450906181878686,0.0034279586968622567,-0.01040281447768273,0.01886731857470958,-0.041477414343699025,0.2607613205909729,0.5615499019622803,1.198222279548645,0.3662128150463104,-0.1665107756853103,-0.1864536106586456
1749039340.5623748,-0.07672602875903757,-1.0849802559889608,-2.307161004142405,5.105045953221123,-5.675501085744238,4.912044752646443,0.03167073758277634,0.0002542561906255153,0.003852794445727177,-0.010481692952583246,0.020313930222648442,-0.04382875345915041,0.2753574252128601,0.5313971638679504,1.1972383260726929,0.3724075853824615,-0.1699772179126739,-0.1962249279022216
1749039340.562419,-0.07666256858087747,-1.0849820856753833,-2.3071546147964868,5.105025841919248,-5.675461987881741,4.911956214865518,0.03317937163832507,0.0002447810540389863,0.004281145448081655,-0.010544300742196967,0.02191047700362379,-0.04608029853591212,0.2673849761486053,0.5318377614021301,1.2012144327163696,0.3662355840206146,-0.1578622162342071,-0.1964845657348632
1749039340.5624592,-0.07659542151814547,-1.0849841905543436,-2.307147372543939,5.105005685270861,-5.675418934851134,4.911862445826717,0.034710354281716586,0.000235913509651047,0.004704065929157757,-0.01059839185144762,0.023604513124723,-0.04820152026380914,0.275619238615036,0.5464510321617126,1.2074939012527466,0.3663203418254852,-0.1578716039657592,-0.1721875220537185
1749039340.5624976,-0.07652467682084298,-1.084986434836336,-2.3071393057582235,5.104985471963548,-5.675371782504493,4.911763711979094,0.036252060775298925,0.0002275393980405017,0.005112746459676917,-0.010652447265161357,0.0253414903924388,-0.05017291980243351,0.2876172959804535,0.5413833260536194,1.2033404111862185,0.3733771443367004,-0.1518585383892059,-0.1797892749309539
1749039340.5625362,-0.07645047218754704,-1.0849886713115897,-2.307130470479063,5.104965153693489,-5.675320549004595,4.9116603598040305,0.03779388781212244,0.00021959670031759075,0.005499288864738011,-0.010715552780877012,0.027068879080355303,-0.05198742015824842,0.2718932628631592,0.5371501445770264,1.2063452005386353,0.376376748085022,-0.1429005265235901,-0.1705531924962997
1749039340.5625775,-0.07637298211662709,-1.0849907530888199,-2.307120943663686,5.104944645641144,-5.675265400037805,4.911552783340156,0.03932668498821109,0.00021206870305413763,0.005857445966250645,-0.010797104385645446,0.02873985200873284,-0.05365070451457134,0.2700211405754089,0.5366310477256775,1.2003369331359863,0.3626781105995178,-0.1355293095111847,-0.1786627918481826
1749039340.562616,-0.07629240519030099,-1.0849925447490514,-2.307110815261129,5.104923832076276,-5.675206623330373,4.911441387302051,0.04084315399871788,0.00020497455130271788,0.006183220596325586,-0.010906339777768313,0.030316288016724355,-0.05518044876179338,0.2552364468574524,0.5464757680892944,1.2128411531448364,0.3552859425544739,-0.1361522674560547,-0.1940020024776458
1749039340.5626538,-0.07620894957177438,-1.0849939319810533,-2.307100180153302,5.104902576013659,-5.675144595722633,4.911326549960993,0.04233817601826988,0.00019835768871184208,0.006475239974597976,-0.0110517440984964,0.03177092602479018,-0.056604532809681196,0.2817184031009674,0.5192369818687439,1.2039076089859009,0.3563873171806335,-0.1559018492698669,-0.1916703581809997
1749039340.5626917,-0.07612281686120267,-1.0849948289574567,-2.3070891304345356,5.104880731065793,-5.675079746113443,4.911208590099124,0.04380901626568399,0.00019227279191055049,0.006734855540489271,-0.011240408060407266,0.03308857311794176,-0.057958427087685435,0.2885138988494873,0.5468490719795227,1.2101014852523804,0.3512008786201477,-0.1571694165468216,-0.1901861280202865
1749039340.5627286,-0.07603418569020468,-1.0849951829631426,-2.307077748178204,5.104858153728817,-5.675012517205805,4.911087741583045,0.04525536274832851,0.00018677191446578423,0.006965959349482555,-0.011477424388741542,0.034266337979898136,-0.059282024157672454,0.2911119163036346,0.5264747142791748,1.211548924446106,0.3426437973976135,-0.157692015171051,-0.2068278193473816
1749039340.5627656,-0.07594319700242796,-1.0849949761225193,-2.3070660988387752,5.104834714919389,-5.674943328590912,4.910964137796398,0.04667917733507616,0.0001818906676012794,0.007174551388557311,-0.011765401330127984,0.0353129262938578,-0.06061622043016284,0.2893106043338775,0.5229883790016174,1.241744041442871,0.333308458328247,-0.1335336714982986,-0.2127416729927063
1749039340.562802,-0.07584994269569412,-1.0849942244414328,-2.3070542254720414,5.104810310015256,-5.674872543644757,4.910837806791621,0.04808435783669173,0.000177635376382532,0.007368127986010884,-0.012104157305683497,0.03624709864176529,-0.06199955431149302,0.2709048092365265,0.5478200316429138,1.2590006589889526,0.3279613256454468,-0.1318884193897247,-0.2103304266929626
1749039340.5628393,-0.07575445877929678,-1.0849929746056768,-2.3070421439256665,5.104784866668039,-5.67480044286673,4.910708676830308,0.0494762241926124,0.0001739722487097806,0.007554977604207005,-0.012490640640143113,0.037095451714440515,-0.06346517941522173,0.3243995904922485,0.5458943247795105,1.2470942735671997,0.3353139758110046,-0.1579051166772842,-0.2165363729000091
1749039340.5628762,-0.07565672379912568,-1.0849912989225476,-2.307029839295356,5.104758349562233,-5.674727206119173,4.910576591057525,0.05086085898663352,0.00017081966009159443,0.0077434616782272895,-0.012919094313121075,0.03788973417798885,-0.06503839918941327,0.3124591112136841,0.5446782112121582,1.2390080690383911,0.337890088558197,-0.1354444324970245,-0.218638390302658
1749039340.5629127,-0.07555666287260707,-1.084989288643207,-2.307017264337196,5.104730761520691,-5.674652905345512,4.910441329436355,0.05224435897173916,0.0001680446640462128,0.007941334089030597,-0.013381462976743579,0.038663941119083285,-0.06673492013388047,0.3175348043441772,0.5640935301780701,1.2604845762252808,0.3147801756858825,-0.1090342029929161,-0.2323648482561111
1749039340.562965,-0.07545415714854367,-1.0849870461081834,-2.307004340812859,5.104702140910815,-5.674577507943101,4.910302635741414,0.05363207828202561,0.0001654647578612558,0.008155130082713359,-0.013868021475595096,0.039451438824746825,-0.06855990518158481,0.3331173658370971,0.5410383343696594,1.2593003511428833,0.3327842354774475,-0.1123784035444259,-0.228174090385437
1749039340.5630062,-0.07534905793268043,-1.084984676776867,-2.3069909645331315,5.104672555832699,-5.674500889495553,4.910160247218366,0.05502795041532947,0.00016285573968440178,0.008389643312450566,-0.014368188212953204,0.04028235341006523,-0.07050783664186087,0.3631730079650879,0.5448979735374451,1.25752854347229,0.3299919366836548,-0.0981934666633606,-0.2188801318407058
1749039340.5630436,-0.07524120410126474,-1.0849822825537612,-2.306977014183528,5.104642095857913,-5.674422853317631,4.910013924300489,0.05643396836926419,0.00015996616515198195,0.008647506616699604,-0.014871469197908065,0.04118141819601699,-0.0725631411202213,0.3695698976516723,0.5248190760612488,1.2750284671783447,0.3186495900154114,-0.093582347035408,-0.2472885549068451
1749039340.563081,-0.07513044079645716,-1.0849799572747518,-2.306962363203516,5.1046108622296105,-5.674343153475008,4.909863477643979,0.057849889954439335,0.0001565384408258894,0.008928895312131797,-0.015368459625901366,0.04216642555725719,-0.07470149934246631,0.3706991374492645,0.5569383502006531,1.293326735496521,0.3190096616744995,-0.069916546344757,-0.2402450144290924
1749039340.563131,-0.07501663696744557,-1.0849777841393267,-2.3069468933752844,5.104578957503622,-5.674261517927726,4.9097087899616,0.0592732130347606,0.00015233598427087203,0.009231380542888348,-0.015851811193121467,0.043247375158505144,-0.07689175762806118,0.3383627235889435,0.5496756434440613,1.3032721281051636,0.3258547186851501,-0.0671724677085876,-0.2447225451469421
1749039340.563171,-0.07489969927321505,-1.0849758342603006,-2.3069305085163805,5.104546475505044,-5.6741776692440355,4.909549830678346,0.06069942723532602,0.0001471751629258942,0.009549968868164472,-0.016317056504707567,0.044426347502393694,-0.0790983458052041,0.3590562045574188,0.5655759572982788,1.2746223211288452,0.3218798637390136,-0.0686764419078826,-0.2435945719480514
1749039340.5632775,-0.07477958027978722,-1.084974165697491,-2.3069131467393547,5.104513492184224,-5.674091341507981,4.909386662015717,0.06212250723128569,0.00014095994413217784,0.009877361800139659,-0.016763172736780785,0.045698052598318786,-0.08128406108451537,0.3216249942779541,0.5405238270759583,1.3038232326507568,0.3288953006267547,-0.065404400229454,-0.2109498232603073
1749039340.5642478,-0.07465627985831595,-1.0849728227233733,-2.306894790002193,5.104480057671232,-5.67400229310918,4.909219435633109,0.06353558531729314,0.00013371641694794287,0.010204450082631893,-0.017192777560244454,0.04705091894159287,-0.08341300955234318,0.3611473143100738,0.5663517713546753,1.308216214179993,0.3224831521511078,-0.0601421594619751,-0.2248702198266983
1749039340.6062756,-0.07452984009915038,-1.0849718350378346,-2.3068754699647616,5.104446189674065,-5.67391031582947,4.909048379647444,0.0649317286442446,0.00012562367246248652,0.010521026365911726,-0.017611890597998406,0.04846852826688082,-0.08545345315554953,0.3629626035690307,0.5474465489387512,1.2954111099243164,0.3157998323440552,-0.0524798184633255,-0.2384504228830337
1749039340.6063218,-0.07440033532155164,-1.0849712164428176,-2.306855269399822,5.104411868298317,-5.673815240985829,4.908873776955003,0.06630473992775356,0.00011703705706000308,0.010816663630239346,-0.01802925808863531,0.04993119004771465,-0.0873803222789737,0.3810708522796631,0.5682145357131958,1.297869324684143,0.3058728575706482,-0.0469017028808593,-0.2188514769077301
1749039340.6063628,-0.074267859316429,-1.084970962726301,-2.3068343186522555,5.104377032447844,-5.673716943443446,4.90869593717969,0.06764989401401625,0.00010849965165545572,0.011081672644716083,-0.018455308661233627,0.051417479817307626,-0.08917719951038326,0.3569739460945129,0.5648694634437561,1.3146713972091677,0.3013166785240173,-0.0376900732517242,-0.2246197611093521
1749039340.6064117,-0.07413251192341387,-1.0849710492720923,-2.3068127870570962,5.104341578381452,-5.6736153442430295,4.908515165773976,0.06896451931306558,0.00010073808194437404,0.011308029952725293,-0.018900864048922442,0.05290561102019284,-0.09083761328894574,0.4143314659595489,0.5743905901908875,1.3045012950897217,0.3096526265144348,-0.0405164808034896,-0.208354651927948
1749039340.6064568,-0.0739943869332239,-1.0849714296457016,-2.306790869854361,5.104305361579973,-5.673510412419054,4.908331734275272,0.07024834340009332,9.463951157241076e-05,0.011490166424901324,-0.0193757569233843,0.054374553404376885,-0.09236549638026559,0.4081631898880005,0.5806862711906433,1.2986301183700562,0.3033397197723388,-0.0633978545665741,-0.2122620642185211
1749039340.606496,-0.07385356320149863,-1.0849720365469782,-2.3067687718315044,5.104268203220909,-5.6734021662517415,4.908145855309174,0.07150355285998188,9.120796211786835e-05,0.011625524497144192,-0.0198875069349551,0.05580485362397331,-0.09377470316866819,0.3597537577152252,0.5790837407112122,1.3056200742721558,0.3050486743450165,-0.052696906030178,-0.2233248353004455
1749039340.6065333,-0.07371010030898947,-1.084972785991045,-2.306746689515703,5.104229901913566,-5.673290673810101,4.907957664907443,0.07273455857440732,9.149997614624246e-05,0.01171482251301932,-0.020440185304364252,0.057179164182013006,-0.09508757087472446,0.4297706186771393,0.5733858942985535,1.3026951551437378,0.3004514873027801,-0.0368080623447895,-0.2062484920024871
1749039340.606571,-0.07356403889936976,-1.08497358469182,-2.306724794128916,5.104190250233308,-5.673176052436451,4.907767213531585,0.07394749599864639,9.65421424479323e-05,0.011762001293671947,-0.021033572737057755,0.058482542131334574,-0.09633264183496684,0.3904197514057159,0.5759615302085876,1.3081265687942505,0.3007175624370575,-0.0574148707091808,-0.2107975333929062
1749039340.6066089,-0.07341540442910839,-1.0849743397293226,-2.3067032175675246,5.1041490545793105,-5.673058466823262,4.9075744661862135,0.07514952611610276,0.0001072361347021801,0.011773869114790511,-0.021662695358671196,0.059702620516618336,-0.09754180069702152,0.4060584008693695,0.5752836465835571,1.3153893947601318,0.2860635221004486,-0.047476515173912,-0.2308003306388855
1749039340.6066463,-0.07326421213724217,-1.0849749689315293,-2.3066820431889448,5.1041061562658125,-5.672938125356732,4.907379311247271,0.07634803422170298,0.0001242603783860061,0.011759503049206971,-0.022317808941202222,0.060829760054438936,-0.09874718215869134,0.4199160039424896,0.5908357501029968,1.3343424797058103,0.3048132658004761,-0.0318510308861732,-0.2173283100128173
1749039340.6066835,-0.07311047095497038,-1.0849754101809375,-2.306661302196903,5.104061451473341,-5.672815274329597,4.907181577025831,0.07754983553811767,0.00014798044866901606,0.011729497036455946,-0.022984882419075113,0.0618572463556044,-0.09997824243929718,0.4236529469490051,0.5682818293571472,1.3236404657363892,0.2854917645454407,-0.0587886050343513,-0.2286063134670257
1749039340.6067202,-0.07295418483219614,-1.0849756281256635,-2.30664097525077,5.1040149075273185,-5.672690189595903,4.9069810544408545,0.07876048448651349,0.0001783817224827063,0.011695158030359702,-0.023646592905147184,0.06278153119250125,-0.10125935358275025,0.405215710401535,0.5729445815086365,1.3290716409683228,0.2797601222991943,-0.0530591458082199,-0.2366935312747955
1749039340.606757,-0.07279535122453887,-1.0849756173502423,-2.306620998017805,5.1039665729592585,-5.67256316552548,4.906777523350816,0.0799837615846202,0.00021503690571221545,0.011667738300176334,-0.0242837790226612,0.06360247264922907,-0.10260818781126997,0.4229230284690857,0.5896369814872742,1.3334393501281738,0.3106885552406311,-0.0472691357135772,-0.2377790808677673
1749039340.6067932,-0.07263395770706446,-1.0849754016273518,-2.3066012690071913,5.1039165792580015,-5.672434501747155,4.906570779276825,0.08122138980690073,0.00025711773360236577,0.011657764556967836,-0.02487721615097079,0.064323536631554,-0.10403503018653859,0.4278866946697235,0.5671207904815674,1.3468973636627195,0.3096702694892883,-0.042426973581314,-0.240364670753479
1749039340.60683,-0.07246997841204976,-1.084975029280989,-2.3065816581544007,5.103865133323609,-5.672304488765124,4.906360656814726,0.08247301008954791,0.0003034545599665506,0.011674497223902932,-0.02540949894040864,0.06495195220308098,-0.10554301174293643,0.4558766484260559,0.5739661455154419,1.331065654754639,0.3140292763710022,-0.0415543913841247,-0.2336635291576385
1749039340.6068676,-0.07230337205098786,-1.084974565042672,-2.3065620150358246,5.103812501156597,-5.672173393662777,4.906147046191002,0.08373641775980174,0.0003526397370981629,0.011725533385774785,-0.025866770506711496,0.0654988099642471,-0.10712911831944864,0.4177479743957519,0.5820717811584473,1.345470905303955,0.3300047516822815,-0.0506963580846786,-0.238899365067482
1749039340.6069036,-0.07213408273164536,-1.0849740791899045,-2.306542176082434,5.103758984804527,-5.672041446761463,4.905929900226325,0.08500802699428762,0.00040316134630579667,0.011816554308127492,-0.026240045642988267,0.0659790403876829,-0.10878573619611558,0.4299844205379486,0.5765854716300964,1.3544156551361084,0.3413244783878326,-0.0670084506273269,-0.2643303275108337
1749039340.6069453,-0.0719620439080718,-1.0849736352466768,-2.3065219706686535,5.103704895680734,-5.671908829639592,4.905709230456868,0.08628349597834804,0.00045354590208309585,0.011951210153789018,-0.026525945167735283,0.06641114902854754,-0.11050246376971412,0.4128575325012207,0.5698366761207581,1.3638486862182615,0.3205548822879791,-0.0813511759042739,-0.243308424949646
1749039340.6070087,-0.07178718505312169,-1.0849732780849852,-2.3065012264329514,5.103650527815848,-5.671775664698005,4.905485093085348,0.0875584215413261,0.0005024866463280349,0.01213112837073432,-0.02672677688089441,0.06681657527007015,-0.11226793201332713,0.4547989964485168,0.5678231120109558,1.3662196397781372,0.3030834197998047,-0.0579775124788284,-0.2364051192998886
1749039340.6070738,-0.07160944029018232,-1.0849730246651472,-2.306479774517662,5.103596134317532,-5.671642006622522,4.90525756724611,0.08882900621876805,0.0005489401106530947,0.01235602542034725,-0.026850028226411794,0.0672186084309483,-0.11407140092066763,0.3877928853034973,0.5801646113395691,1.3579903841018677,0.3175169825553894,-0.0511071681976318,-0.247123897075653
1749039340.607253,-0.07142875808526129,-1.0849728594269723,-2.3064574554805035,5.103541909523031,-5.6715078365293525,4.90502672937396,0.09009261402681616,0.0005921847851727358,0.012623893373412604,-0.02690743065183828,0.06764091644882984,-0.11590392717140782,0.4245432317256927,0.5781056880950928,1.351293921470642,0.3244331181049347,-0.0633220225572586,-0.2332471162080764
1749039340.608386,-0.07124511083282872,-1.0849727353294165,-2.30643412637573,5.10348797843762,-5.67137305997716,4.904792628197575,0.09134815532974845,0.0006318464420369352,0.01293122867995823,-0.02691378982110138,0.06810585668280589,-0.11775895177637574,0.3949252367019653,0.5788195729255676,1.3781659603118896,0.3168977499008178,-0.0744519531726837,-0.2328463792800903
1749039340.650288,-0.07105850280948507,-1.0849725801981118,-2.306409668950448,5.1034343942277145,-5.671237510114323,4.904555264964576,0.09259626243922349,0.0006679010511326587,0.013273276505016762,-0.02688575785765924,0.06863279360522304,-0.11963224495207138,0.4578425288200378,0.583946943283081,1.3736628293991089,0.3245326578617096,-0.061453703790903,-0.2272338569164276
1749039340.6503334,-0.07086897497044671,-1.084972307004855,-2.3063839981838097,5.103381143609032,-5.671100956895324,4.904314582769061,0.09383923187651046,0.0007006672572421656,0.013644278285173988,-0.026840682612457555,0.06923664066709774,-0.12152125278273704,0.4092571139335632,0.5790037512779236,1.3659772872924805,0.3189193308353424,-0.0562206916511058,-0.2485154271125793
1749039340.6503737,-0.07067660565415436,-1.0849718261800385,-2.306357069764354,5.103328158830341,-5.670963122527641,4.904070467295655,0.09508072785611969,0.0007307967080873815,0.014037722313335246,-0.026795627742218078,0.06992680378421225,-0.12342399818293945,0.4177268743515014,0.5942148566246033,1.3683931827545166,0.3204267621040344,-0.0519367344677448,-0.2390155792236328
1749039340.6504126,-0.07048150703258617,-1.0849710578969571,-2.3063288848528485,5.103275333829624,-5.670823702171345,4.903822759200572,0.09632527638337121,0.0007592635462088065,0.014446599964397653,-0.026766620755621057,0.07070665334566893,-0.12533778303434143,0.4159742593765259,0.5956406593322754,1.3936914205551147,0.3162124454975128,-0.0613310411572456,-0.2597847580909729
1749039340.6504512,-0.07028381751989228,-1.0849699423877688,-2.3062994908004266,5.103222541388411,-5.6706823877165435,4.90357127614956,0.0975776275597354,0.0007873458993023789,0.01486366642921548,-0.02676814744802479,0.07157358910276711,-0.1272579976830741,0.4848241209983825,0.578461229801178,1.3620693683624268,0.3053667247295379,-0.0594407506287097,-0.2569767832756042
1749039340.6504889,-0.07008369036759059,-1.0849684468241314,-2.3062689772941507,5.103169647990033,-5.670538891674482,4.903315840695748,0.09884210746549205,0.0008165845271245614,0.015281702135738873,-0.02681286659644041,0.07251968314832713,-0.1291773468017288,0.425663948059082,0.5757371783256531,1.3675923347473145,0.3266586065292358,-0.0372123457491397,-0.2485870420932769
1749039340.6505268,-0.06988127894940958,-1.0849665680375784,-2.306237468352712,5.103116523779125,-5.670392968140945,4.9030563090868124,0.10012209580803977,0.0008487003994859503,0.01569377274502869,-0.026911475515259402,0.07353280055595313,-0.13108574169951417,0.4667864441871643,0.5787899494171143,1.3644827604293823,0.3294406533241272,-0.0495285354554653,-0.2628709971904754
1749039340.650564,-0.0696767201084751,-1.084964331111013,-2.306205111334049,5.103063046529938,-5.670244428406896,4.902792595917334,0.10141973440061314,0.0008854577086558069,0.016093488359102178,-0.02707263146501561,0.07459802656320094,-0.1329709964684307,0.4078048169612884,0.610115110874176,1.3858377933502195,0.3112373352050781,-0.0639400333166122,-0.2806703150272369
1749039340.650601,-0.0694701179908766,-1.0849617844864254,-2.306172064434415,5.1030091004038205,-5.670093149840261,4.902524690269607,0.10273590023521137,0.0009284722912770016,0.0164752606669478,-0.027302841278883497,0.07569919204717632,-0.13482030623986538,0.4459106922149658,0.5914068818092346,1.3566890954971311,0.3082438707351684,-0.0495671927928924,-0.2447178065776825
1749039340.6506376,-0.06926153125795234,-1.0849589926658971,-2.306138484066579,5.10295457168165,-5.669939077806053,4.902252660414367,0.10407039481765638,0.000978982987658211,0.016834547325288694,-0.0276062720719334,0.07682029420196115,-0.13662229575251225,0.4221135973930359,0.5932794213294983,1.3675434589385986,0.3065521121025085,-0.0450294241309165,-0.2592558860778808
1749039340.6506743,-0.06905096595546939,-1.0849560277853512,-2.3061045132054097,5.1028993440374855,-5.669782221397688,4.901976645973593,0.10542224430568517,0.0010376181317157435,0.017168058852574254,-0.027984491789826173,0.07794665601826183,-0.13836925265572023,0.4077267050743103,0.5797602534294128,1.3698967695236206,0.2978350222110748,-0.040654320269823,-0.2545459270477295
1749039340.6507113,-0.06883837480606834,-1.084952961288439,-2.3060702715148564,5.102843295426619,-5.669622644519647,4.901696838439372,0.10678999247086993,0.0011041965735061811,0.017473892912803567,-0.028436198127973173,0.07906574321210123,-0.1400590667973235,0.4310745894908905,0.6068375706672668,1.3527169227600098,0.3043217360973358,-0.046992190182209,-0.2535299062728882
1749039340.6507475,-0.0686236621314943,-1.084949856670723,-2.3060358479219656,5.102786297829815,-5.66946045424204,4.901413452889519,0.10817189599977445,0.0011776015728299672,0.017751562402572477,-0.02895702611390828,0.08016763462105453,-0.14169641746067602,0.4352784156799316,0.6098901033401489,1.3560786247253418,0.2843507528305053,-0.0362631827592849,-0.2103060781955719
1749039340.650785,-0.06840669283872074,-1.0849467639196178,-2.3060012962312504,5.102728220301903,-5.669295788168951,4.901126695350137,0.10956598223051389,0.0012557578219172766,0.018001899722029806,-0.029539533974658933,0.08124519693418045,-0.1432928761468187,0.4322316944599151,0.5925131440162659,1.3539211750030518,0.2895428240299225,-0.0343411639332771,-0.2479728311300277
1749039340.6508217,-0.06818730401119429,-1.0849437160209228,-2.305966634238352,5.102668935115697,-5.6691288019298804,4.900836731157606,0.11096998591689443,0.0013357284387811468,0.018226845428560914,-0.030173449003500583,0.08229404000844111,-0.144865798329549,0.4283006191253662,0.6037496328353882,1.3671300411224363,0.2788873314857483,-0.037186786532402,-0.2263366281986236
1749039340.6508577,-0.06796531807505249,-1.0849407278604049,-2.305931846456332,5.102608326252655,-5.668959657251215,4.9005436595347325,0.1123812269076279,0.0014139314836094632,0.01842915621139599,-0.030846207841937763,0.08331233393680765,-0.146436127901055,0.4267279207706451,0.6010091304779053,1.368006467819214,0.274112194776535,-0.0338602066040039,-0.2425307631492614
1749039340.6508942,-0.0677405567473592,-1.084937797875101,-2.305896890011299,5.10254629903688,-5.668788510813451,4.900247498320426,0.11379650925447618,0.0014864556146455417,0.01861208491295932,-0.031543760153749566,0.08430056176195502,-0.14802547444191572,0.4309796988964081,0.5698362588882446,1.347510576248169,0.2651336193084717,-0.0565995573997497,-0.2527749538421631
1749039340.6509304,-0.06751285495498412,-1.084934912526684,-2.3058617027436203,5.102482789350822,-5.668615504328247,4.899948180707174,0.11521210964714895,0.0015494340399595237,0.01877908659147268,-0.03225154564103481,0.08526126286915928,-0.14965298040037217,0.4470929801464081,0.5458577871322632,1.3709068298339844,0.2847561240196228,-0.0665285512804985,-0.2489151358604431
1749039340.6509666,-0.06728207381805401,-1.0849320529358273,-2.3058262123389075,5.102417770718046,-5.668440756662257,4.8996455635953415,0.11662389015356435,0.0015994200246415371,0.01893358807767536,-0.03295552327518377,0.08619879614338773,-0.1513325314358171,0.4468479454517364,0.5873628854751587,1.3608251810073853,0.2731399536132812,-0.0310855433344841,-0.2691237032413482
1749039340.6510026,-0.06704811169715416,-1.0849292022667922,-2.3057903453931283,5.10235125776459,-5.668264358915258,4.899339445352398,0.11802753407816852,0.0016337039598914465,0.01907883247260011,-0.033643132003617064,0.08711913353041058,-0.15307077575913985,0.418964684009552,0.5942409038543701,1.3539011478424072,0.2895006537437439,-0.0386463403701782,-0.2727113366127014
1749039340.651104,-0.06681091222076853,-1.0849263522619181,-2.3057540354563404,5.102283305277101,-5.668086372881057,4.8990295896559815,0.11941887245243604,0.001650527427747867,0.01921778833062404,-0.03430408205764194,0.08802968756201321,-0.15486623965953084,0.4959069490432739,0.5874857902526855,1.349299073219299,0.2704819440841675,-0.0398108139634132,-0.2806117832660675
1749039340.6522803,-0.06657046830535987,-1.0849235077290806,-2.3057172292242956,5.10221400310268,-5.66790683248542,4.898715751787503,0.12079424121738767,0.0016491804891518832,0.019353103443244198,-0.03493090259732955,0.08893915740906644,-0.15670961296868682,0.4262466132640838,0.5692191123962402,1.3546773195266724,0.2901569902896881,-0.0459393560886383,-0.2808704376220703
1749039340.6942832,-0.06632682164304769,-1.0849206883311033,-2.3056798903569002,5.102143468005841,-5.6677257470865445,4.898397704193586,0.12215079066962606,0.0016300011692446806,0.019487081964978642,-0.03551920122073792,0.08985732819011488,-0.15858508502964652,0.4167799949645996,0.5861766338348389,1.3515808582305908,0.2900420725345611,-0.0751216188073158,-0.2665736079216003
1749039340.6943307,-0.06608005788272764,-1.0849179273891716,-2.3056420010231284,5.102071833851601,-5.667543105354323,4.898075259084749,0.12348667328936287,0.001594316146009944,0.01962166499014949,-0.036067626033175655,0.09079470863618244,-0.16047246630494602,0.4179049134254455,0.6031094789505005,1.355681538581848,0.2628234624862671,-0.0503149628639221,-0.2782142758369446
1749039340.6943705,-0.06583029845500075,-1.084915267650329,-2.3056035619117967,5.101999241152317,-5.667358878895103,4.8977482867776425,0.12480107143297142,0.0015443620822731608,0.0197583977441549,-0.03657755933748517,0.09176190607212717,-0.16234974067513402,0.485466867685318,0.5986122488975525,1.3624563217163086,0.2717245817184448,-0.0485963970422744,-0.2572117149829864
1749039340.6944106,-0.06557769038571315,-1.0849127543092336,-2.3055645916178547,5.101925826585166,-5.667173025488684,4.897416728955474,0.12609408433892877,0.0014832101059164616,0.019898375161314263,-0.03705260227415315,0.09276873454061957,-0.1641956693013023,0.4178426265716553,0.5841890573501587,1.3488457202911377,0.2841301560401916,-0.0273594856262207,-0.2328790128231048
1749039340.6944485,-0.06532239543294485,-1.0849104261561715,-2.3055251258819496,5.101851712959592,-5.66698549218399,4.89708060607685,0.12736655032925237,0.001414690161264526,0.020042173739459716,-0.037497919198081965,0.09382317330594546,-0.165992113697154,0.4770187735557556,0.5982775688171387,1.3687063455581665,0.2970859706401825,-0.0294765830039978,-0.25331512093544
1749039340.694486,-0.0650645796506587,-1.084908306426719,-2.3054852164967716,5.101777000301105,-5.666796218317817,4.896740018307909,0.1286199038700887,0.0013432892330856457,0.020189795874875106,-0.037919500534494735,0.09493036130959531,-0.16772584505097665,0.4531331956386566,0.5862793922424316,1.3725379705429075,0.2929845750331878,-0.0555251687765121,-0.2416513562202453
1749039340.694524,-0.06480440418351667,-1.0849063953537263,-2.3054449292627277,5.101701758981214,-5.666605138063664,4.89639513987753,0.1298561440039131,0.0012739884729711616,0.0203406624133314,-0.0383233928942278,0.09609180522546895,-0.16938972779779635,0.4625430405139923,0.5901393890380859,1.3600633144378662,0.2733101844787597,-0.0336784422397613,-0.226737767457962
1749039340.694562,-0.06454201765329871,-1.0849046662119917,-2.3054043403548716,5.101626025905253,-5.6664121818742,4.896046207411235,0.13107793640248794,0.001212012927729881,0.020493681230464227,-0.03871495381772095,0.09730492771393923,-0.17098328049887498,0.4473727941513061,0.5758295059204102,1.3717797994613647,0.2809192836284637,-0.0184731632471084,-0.2538452744483948
1749039340.6945994,-0.0642775498928054,-1.0849030658741352,-2.305363530778262,5.101549804529332,-5.6662172764264005,4.895693503233021,0.1322888129712028,0.0011624892604777675,0.020647397105797,-0.03909821070226189,0.09856302789386905,-0.17251270150939554,0.4286439418792724,0.5930916666984558,1.3607350587844849,0.2796196043491363,-0.0278533603996038,-0.2562844455242157
1749039340.6946375,-0.06401110637661997,-1.0849015199407666,-2.305322579116695,5.101473068916056,-5.666020343295744,4.895337334792352,0.13349338779567752,0.001130032266365459,0.020800206525774082,-0.03947541572443902,0.0998556781756886,-0.17399047786220764,0.4165016114711761,0.5855634808540344,1.3634191751480105,0.2637747228145599,-0.0341825783252716,-0.261992484331131
1749039340.694675,-0.06374276291363004,-1.084899941589067,-2.3052815533332036,5.101395771259889,-5.665821297195328,4.8949780114600445,0.1346974856696466,0.001118301638462023,0.020950614216144803,-0.03984687403538161,0.10116952722851076,-0.17543466539573896,0.4436445236206054,0.600843071937561,1.363595485687256,0.2771869301795959,-0.056570753455162,-0.2619062662124634
1749039340.6947126,-0.06347256092048865,-1.0848982424781952,-2.305240502667293,5.101317851554881,-5.6656200448984135,4.894615820190855,0.13590808734830565,0.0011295817700806106,0.021097512054762266,-0.0402110843985832,0.10248941417638702,-0.17686785642658887,0.4472063481807709,0.6088101863861084,1.3609094619750977,0.2674971222877502,-0.0207171440124511,-0.2460843473672866
1749039340.694749,-0.06320050429442543,-1.0848963436450152,-2.305199450575826,5.101239247677694,-5.665416485846389,4.89425100211147,0.13713303414218148,0.0011644390669847534,0.02124045996217798,-0.040565183893238134,0.1037996476855616,-0.17831578148021268,0.4044652581214905,0.5906314253807068,1.366085171699524,0.2590495347976684,-0.0293686091899871,-0.2440916895866394
1749039340.6947863,-0.0629265590654516,-1.0848941846097122,-2.305158389449953,5.101159904290027,-5.665210515013181,4.893883732645112,0.13838049171746764,0.0012215059582328669,0.021379937175935785,-0.040905642315839555,0.10508529009004147,-0.1798054731507713,0.4562458992004394,0.5994592308998108,1.353049397468567,0.271293580532074,-0.0312883257865905,-0.2347018420696258
1749039340.6948233,-0.06265065663376487,-1.0848917296810594,-2.305117277785275,5.101079779463059,-5.6650020280100435,4.8935141076739725,0.13965823495609456,0.001297431813274582,0.02151752076273749,-0.04122911189505714,0.10633330163657373,-0.18136298587838856,0.456021249294281,0.5849606990814209,1.366055250167847,0.2620226740837097,-0.0408133119344711,-0.2512312233448028
1749039340.6948617,-0.062372700667137806,-1.0848889711863805,-2.305076040435178,5.10099884848082,-5.664790927899475,4.8931421373116395,0.1409728701636373,0.0013870295730839368,0.02165594623076136,-0.04153330606403797,0.107533415885964,-0.18301080513671428,0.4428740441799164,0.6065699458122253,1.3552372455596924,0.2977475523948669,-0.0534209907054901,-0.2693929970264435
1749039340.694899,-0.062092576728034594,-1.0848859297929043,-2.3050345722293275,5.100917104701455,-5.664577132908227,4.89276774773566,0.1423291385120959,0.0014836313497391623,0.02179901523467764,-0.04181776207720525,0.10867863547014692,-0.18476523526484778,0.4939412474632263,0.5822417140007019,1.3742512464523315,0.2823212742805481,-0.0358323380351066,-0.2783874273300171
1749039340.6949365,-0.061810162665270334,-1.0848826522970094,-2.3049927446505913,5.10083455766013,-5.664360584200569,4.892390790737958,0.1437294268935265,0.0015796432807844612,0.021951337276701108,-0.042084347451550416,0.1097652846478735,-0.18663415598328562,0.4650830030441284,0.5862917304039001,1.3584709167480469,0.2830478250980377,-0.0512609928846359,-0.2943478524684906
1749039340.6949737,-0.0615253373539255,-1.0848792073201687,-2.304950414808846,5.100751228907137,-5.664141253067288,4.892011060020161,0.1451735542960895,0.0016672577012691533,0.022117922212041365,-0.042337414251854555,0.1107926353505364,-0.18861554149840332,0.4402543306350708,0.5957022309303284,1.359520435333252,0.2850031554698944,-0.0527739860117435,-0.2665873765945434
1749039340.6950111,-0.06123798603039275,-1.0848756793128052,-2.3049074358658843,5.100667146412982,-5.663919147202298,4.891628312504784,0.14665883050320688,0.0017392421919931777,0.02230366767887157,-0.042583588196673634,0.11176220546893592,-0.19069704121833958,0.4854032397270202,0.5732690691947937,1.368869423866272,0.2575404644012451,-0.0646487399935722,-0.2788063883781433
1749039340.6951225,-0.0609480019650087,-1.0848721612277832,-2.3048636682414974,5.10058233854375,-5.663694315891384,4.891242292200493,0.14818032761244343,0.0017896916711135143,0.022512800139688607,-0.04283126892197543,0.1126768827977711,-0.19285675249849019,0.457821786403656,0.5873359441757202,1.384861707687378,0.249510645866394,-0.041137222200632,-0.275377482175827
1749039340.6962595,-0.06065528551445648,-1.0848687462750484,-2.3048189910506247,5.100496828413719,-5.663466853742174,4.890852753832664,0.1497312809966976,0.0018146202072139976,0.022748330203665536,-0.04308996347043094,0.11354005049218689,-0.19506511286575684,0.4697396159172058,0.5850486755371094,1.3656349182128906,0.2728278040885925,-0.0509499609470367,-0.2740839123725891
1749039340.7384243,-0.06035974198752497,-1.0848655193186616,-2.3047733130522925,5.100410628954607,-5.663236902255722,4.890459483769277,0.15130354642765706,0.0018122972924687114,0.023011580172976314,-0.0433695543939445,0.11435488576026312,-0.19728765090481004,0.4785853028297424,0.5945469737052917,1.3638683557510376,0.2730031907558441,-0.038825623691082,-0.2536283135414123
1749039340.738504,-0.06006127951889866,-1.0848625486826229,-2.3047265820031186,5.1003237386655815,-5.663004648418473,4.890062316619865,0.1528880707092042,0.0017832917304760351,0.023301839835946535,-0.04367954479484023,0.11512397422950912,-0.19948821094574032,0.4717321395874023,0.5795319676399231,1.3751230239868164,0.2618647217750549,-0.0438703186810016,-0.2520964443683624
1749039340.7385762,-0.05975980791786183,-1.0848598792947235,-2.3046787910246973,5.1002361380568875,-5.662770319676091,4.889661146782363,0.15447536702415363,0.0017302491899007968,0.02361620347478379,-0.04402827808739372,0.11584932950152682,-0.20163223657367016,0.4748592674732208,0.5994588136672974,1.37562358379364,0.2697573602199554,-0.04000785946846,-0.2333423942327499
1749039340.7386458,-0.05945523938418527,-1.084857528058368,-2.304629980721495,5.10014778727571,-5.662534175039757,4.88925593468983,0.15605600758270877,0.0016574730455037082,0.02394962975194169,-0.04442213414954459,0.11653283994544286,-0.20368975853876706,0.4643592536449432,0.5867862105369568,1.38090717792511,0.2615745663642883,-0.0405970215797424,-0.249805063009262
1749039340.738717,-0.05914749172724001,-1.0848554819866711,-2.3045802363801258,5.100058625919126,-5.662296492531528,4.888846707498424,0.15762114068910937,0.0015703951445496687,0.02429524135599432,-0.04486474957424868,0.11717709237468933,-0.20563785309596772,0.4478491544723511,0.5748507380485535,1.3813772201538086,0.2644144892692566,-0.0474075376987457,-0.2501808106899261
1749039340.7387877,-0.058836494007995295,-1.0848536990578483,-2.3045296804372275,5.099968576134399,-5.662057553560676,4.888433553783263,0.1591630063341477,0.0014750189505678202,0.02464484555164501,-0.045356361801535905,0.11778644582122484,-0.20746246654446474,0.472724974155426,0.5906996130943298,1.3708572387695312,0.2617600262165069,-0.0520999133586883,-0.2794846892356872
1749039340.738858,-0.05852219349424701,-1.084852111280507,-2.304478461235534,5.099877549615817,-5.6618176250756695,4.88801661188909,0.1606753879095775,0.0013774007729869815,0.024989618761187278,-0.045893398683262074,0.1183681510960582,-0.20915958218194472,0.4926679134368896,0.5761328339576721,1.351468801498413,0.2538235783576965,-0.0672970488667488,-0.2824603021144867
1749039340.7389278,-0.05820456206335085,-1.0848506294035931,-2.3044267396687625,5.099785458199812,-5.661576940491536,4.887596052144854,0.16215392676942444,0.0012832136268510022,0.02532086811520692,-0.04646841518701739,0.1189332559407889,-0.21073570325295474,0.4729413092136383,0.6225820183753967,1.3492200374603271,0.2640706598758697,-0.0673072189092636,-0.2546455562114715
1749039340.7389932,-0.05788360028219168,-1.084849149018534,-2.3043746755062555,5.099692226784896,-5.661335680455513,4.8871720541941235,0.16359624492928748,0.0011974189297655456,0.02563077004117265,-0.0470704314279882,0.11949703700313438,-0.21220756049370193,0.4341787099838257,0.6015003323554993,1.3645156621932983,0.2466982156038284,-0.0591143742203712,-0.227743774652481
1749039340.739033,-0.05755933831489759,-1.084847558030402,-2.3043224149896,5.099597806599983,-5.661093954458394,4.886744782089335,0.16500185361835232,0.00112405624274478,0.02591299513571386,-0.047685671739703915,0.12007877288163232,-0.21360089440751676,0.4782904088497162,0.6167967915534973,1.3490663766860962,0.2581466436386108,-0.0716207697987556,-0.2227213531732559
1749039340.7390714,-0.05723183389728465,-1.084845745279433,-2.3042700808521315,5.0995021865453865,-5.660851784287544,4.886314361164272,0.1663718658178965,0.0010661491580085851,0.026163154322903465,-0.04829865382573924,0.12070078820813954,-0.21494818988263262,0.4883115589618683,0.5930579304695129,1.3489298820495603,0.2541915774345398,-0.0806358903646469,-0.2078301310539245
1749039340.7391102,-0.056901168209928715,-1.084843609704527,-2.3042177653798444,5.099405400391002,-5.660609090672034,4.885880861334953,0.1677085793705075,0.0010257132902965656,0.026379031626674786,-0.048893527380082194,0.12138681404498791,-0.21628539504802255,0.4764370024204254,0.5986933708190918,1.3518491983413696,0.2507062554359436,-0.0431566834449768,-0.2097564488649368
1749039340.7391474,-0.056567440460451,-1.0848410693016028,-2.3041655266153005,5.099307528068919,-5.660365685236793,4.8854442907641165,0.1690150332421559,0.0010038390677963246,0.026560594944767826,-0.049455510902411876,0.12215980889947424,-0.2176479066815715,0.4593909382820129,0.5887897610664368,1.347222089767456,0.2778816521167755,-0.0431243479251861,-0.2390924990177154
1749039340.7391846,-0.05623076169079912,-1.0848380692145614,-2.304113387450486,5.099208690230638,-5.660121270624784,4.885004601679484,0.17029463212228732,0.0010008105484301812,0.026709794997242846,-0.04997224250516662,0.12303946864154047,-0.2190663600168834,0.4641560316085815,0.5782027244567871,1.3246827125549316,0.2760664224624634,-0.0476015359163284,-0.2466828823089599
1749039340.739222,-0.055891248064316466,-1.084834588219204,-2.304061337275716,5.0991090365032266,-5.659875451757512,4.884561707158612,0.17155088143684535,0.001016217913670346,0.026830174480646368,-0.05043487695487527,0.1240397131191187,-0.22056291379353926,0.46578449010849,0.5874324440956116,1.3433938026428225,0.268670916557312,-0.0395781248807907,-0.2864727079868316
1749039340.7392583,-0.05554901367545536,-1.084830642580131,-2.3040093359898495,5.0990087290732715,-5.659627760284269,4.884115504960119,0.17278721051007742,0.0010490307452329837,0.02692631938733101,-0.0508388316118664,0.1251664662321204,-0.2221486935525144,0.4528484940528869,0.587347686290741,1.3343939781188965,0.2538298368453979,-0.0321964398026466,-0.2686254382133484
1749039340.739296,-0.05520416273202152,-1.0848262862140503,-2.3039573203652504,5.098907924011812,-5.659377692269762,4.883665902997084,0.17400682639173004,0.0010976207573410249,0.027003201567655802,-0.0511841642001739,0.1264160553878308,-0.22382283737474726,0.4844021797180176,0.6232531666755676,1.3275926113128662,0.2696352303028106,-0.02615562453866,-0.2853934168815613
1749039340.7393324,-0.054856781020679764,-1.0848216066346963,-2.303905212823045,5.0988067530215,-5.6591247563990015,4.883212841176113,0.17521255251534978,0.0011597484082018698,0.027065490116731282,-0.051475598798004535,0.1277745439494768,-0.2255732527928736,0.4532685577869415,0.604999840259552,1.3354183435440063,0.2795187532901764,-0.006083209067583,-0.2624143660068512
1749039340.7393692,-0.05450692715890788,-1.0848167171436616,-2.3038529323956642,5.098705308081477,-5.658868527072136,4.88275630572032,0.17640665338637102,0.0012325473960991115,0.027116939821193495,-0.05172219282650178,0.12921824434371126,-0.22737886674624377,0.4415884613990783,0.5958274602890015,1.3397217988967896,0.3006033301353454,0.0005767121911048,-0.2490934133529663
1749039340.7394135,-0.0541546251003653,-1.0848117466285172,-2.303800406914986,5.098603630906401,-5.658608694571266,4.88229633409338,0.17759069575416933,0.0013125473497369426,0.027159978140207073,-0.05193660385598846,0.1307155110354603,-0.22921294013786922,0.4827143251895904,0.6237242817878723,1.3458114862442017,0.2783263027667999,-0.0174660682678222,-0.2752526998519897
1749039340.7395315,-0.053799860111252575,-1.0848068286425283,-2.3037475845361217,5.098501708430767,-5.65834510384293,4.881833010627753,0.1787655114297144,0.0013957664176130324,0.027195591538664635,-0.052133925495610314,0.13222969814042504,-0.231046961243491,0.439970850944519,0.604040801525116,1.351715087890625,0.2913660407066345,0.0040341764688491,-0.2671267986297607
1749039340.7402718,-0.053442580358603484,-1.084802091150409,-2.3036944422246064,5.098399474837634,-5.658077774788967,4.881366454463889,0.1799312925209578,0.001477884854097801,0.027223556230135098,-0.052330131978449365,0.13372294440661425,-0.2328546797932984,0.5000828504562378,0.62022465467453,1.351420760154724,0.2810636758804321,-0.0037166774272918,-0.2739073634147644
1749039340.7822928,-0.05308270503716443,-1.0847976477920287,-2.30364098928653,5.098296819923199,-5.657806899989221,4.880896802164016,0.18108779024837093,0.001554484783409275,0.02724298144561625,-0.0525402757853169,0.13516027607230846,-0.23461589960861537,0.4822924435138702,0.5835250020027161,1.3366717100143433,0.2717821002006531,-0.0397027507424354,-0.2822370529174804
1749039340.782338,-0.05272013793286114,-1.0847935910099697,-2.3035872652544565,5.09819360272816,-5.657532819597085,4.880424187486305,0.1822345484318573,0.001621321025775312,0.027253054918287983,-0.05277667936547333,0.13651342614142972,-0.23631964273647674,0.4297155737876892,0.580823540687561,1.3363686800003052,0.2690902948379516,-0.0320826023817062,-0.2658990919589996
1749039340.782378,-0.05235478346407628,-1.0847899869646374,-2.3035333328110186,5.098089668525408,-5.657255976893701,4.879948720745428,0.18337110713674892,0.0016745850321681058,0.027253820188475497,-0.05304741035466206,0.1377637749086842,-0.23796624694195653,0.4694809317588806,0.6045837998390198,1.316735863685608,0.2703568339347839,-0.0385038889944553,-0.2455378621816635
1749039340.7824166,-0.05198656153758554,-1.0847868719248606,-2.3034792674258404,5.0979848667682175,-5.656976861151903,4.879470470266831,0.18449715018760748,0.0017111415731243863,0.02724679302885578,-0.05335530351353217,0.13890393474000673,-0.23956794998296088,0.4992102980613708,0.6019324660301208,1.334276556968689,0.270365834236145,-0.0440568439662456,-0.2170506119728088
1749039340.7824552,-0.0516154182537094,-1.0847842499421843,-2.303425145889781,5.097879067654399,-5.656695946564777,4.878989448456515,0.18561261534120224,0.0017287435601504389,0.027235253489910217,-0.05369769297125018,0.1399377203743842,-0.2411476456802648,0.4755470752716064,0.5942259430885315,1.3193233013153076,0.2784595787525177,-0.0673415064811706,-0.2328857332468032
1749039340.7824934,-0.0512413311040799,-1.0847820920354136,-2.3033710359588118,5.097772175436041,-5.65641363641902,4.8785056044810595,0.18671781107707702,0.0017262441033056742,0.027224128431369454,-0.05406687831546584,0.140878523123269,-0.24273580075026405,0.4706001579761505,0.5843499302864075,1.3457818031311035,0.2712787389755249,-0.0619081035256385,-0.2390111982822418
1749039340.7825303,-0.050864309032674346,-1.0847803374901888,-2.303316988821479,5.09766413726679,-5.656130220221367,4.878018824364033,0.18781356910358288,0.0017038137445040608,0.027219484396934786,-0.054451215913934446,0.14174639460053404,-0.24436592945884894,0.4503072500228882,0.5946593880653381,1.3475323915481567,0.2777414321899414,-0.0379366129636764,-0.2864512205123901
1749039340.7825675,-0.05048438886878148,-1.0847788979326956,-2.3032630351642576,5.0975549470697805,-5.6558458487082595,4.877528937874707,0.1889014085079658,0.0016631377335786107,0.027227746854616566,-0.05483663856806583,0.14256439023967538,-0.2460693915956032,0.4325096607208252,0.5662146210670471,1.3607088327407837,0.2874825596809387,-0.0235041603446006,-0.3262463808059692
1749039340.7826052,-0.050101629863332574,-1.0847776645076643,-2.3032091845534803,5.097444644537557,-5.655560528507334,4.877035730509562,0.18998363147504982,0.0016075306142526618,0.027254816191081985,-0.055208372032323254,0.14335486032389005,-0.24787045809679467,0.4605526626110077,0.5578839182853699,1.3593261241912842,0.2752074301242828,-0.0151583924889564,-0.319316416978836
1749039340.782642,-0.04971610752584843,-1.084776517796533,-2.3031554270849472,5.097333309846652,-5.655274135273937,4.8765389584997045,0.19106326251522873,0.0015418874580169044,0.027305251277897385,-0.05555262568633538,0.14413635521514023,-0.24978250415179207,0.4647054970264435,0.5834303498268127,1.3514769077301023,0.3106850683689117,-0.0144875794649124,-0.2929724752902984
1749039340.782679,-0.049327907119823385,-1.0847753391877861,-2.3031017360248844,5.0972210549701975,-5.654986441733568,4.876038365073264,0.19214380388349714,0.0014724103424192353,0.027381655299849764,-0.05585807100940684,0.14492163497465846,-0.2518058938558305,0.4654366075992584,0.5871685147285461,1.358630657196045,0.2989044785499573,-0.0521851927042007,-0.3003370463848114
1749039340.7827158,-0.04893711655143099,-1.084774021705736,-2.3030480704533876,5.097108012737029,-5.654697155526893,4.875533696786461,0.1932288709891702,0.001406101359618061,0.0274843559135264,-0.056116975339031185,0.14571700441931953,-0.2539277563005493,0.4634190201759338,0.5896796584129333,1.380403757095337,0.2889147698879242,-0.0158245787024498,-0.2789980471134186
1749039340.78276,-0.04854381837265577,-1.0847724783425972,-2.3029943774573605,5.096994325094033,-5.654405961149559,4.875024719105887,0.19432182453506502,0.0013500750326013804,0.02761143389786041,-0.056325921981413424,0.1465229163814697,-0.2561235536485285,0.4853743314743042,0.6101800799369812,1.369149684906006,0.2990393042564392,-0.0282642878592014,-0.2980294823646545
1749039340.7828076,-0.0481480812135255,-1.0847706467963742,-2.302940593888661,5.096880132185098,-5.654112560409329,4.874511230285599,0.19542549577745713,0.0013107877041787725,0.027759106596159887,-0.05648610718564734,0.14733555852410668,-0.25836015244003346,0.4435853660106659,0.6013268828392029,1.3564791679382324,0.2958461046218872,-0.0451536923646926,-0.3266521096229553
1749039340.782846,-0.04774995178525396,-1.0847684906999222,-2.30288664791764,5.096765563601894,-5.653816706604639,4.873993072186081,0.19654203561013847,0.0012932993312597429,0.027922404215469487,-0.056603244933970426,0.1481489891326258,-0.26059998400536116,0.4767903387546539,0.6075807809829712,1.359573245048523,0.2929112315177917,-0.0299203395843505,-0.3444042205810547
1749039340.7828832,-0.04734944927660505,-1.0847659982772808,-2.302832460551983,5.096650732542577,-5.653518229136366,4.873470136795537,0.19767286428459516,0.0013006786129631394,0.028096008190239125,-0.05668712964916619,0.14895732857632113,-0.26280574310433014,0.4708439409732818,0.6189231276512146,1.3603354692459106,0.2964961528778076,-0.0437616556882858,-0.3096198439598083
1749039340.7829196,-0.04694656425070271,-1.0847631795157737,-2.3027779471196164,5.09653573292594,-5.653217047311774,4.8729423684592,0.1988186873519808,0.001333642845503652,0.0282750856657791,-0.05675091429708322,0.1497565556387139,-0.26494491154915994,0.5173783302307129,0.6229703426361084,1.370034098625183,0.2912089228630066,-0.033497080206871,-0.2717216312885284
1749039340.782956,-0.04654126383031117,-1.084760062512101,-2.302723018723915,5.096420638880169,-5.652913174079499,4.872409763766742,0.19997956127012093,0.0013904926503031758,0.02845596691568349,-0.056810165167730735,0.15054559459731134,-0.2669933005619767,0.472850888967514,0.603280246257782,1.3751726150512695,0.3089150190353393,-0.0365727692842483,-0.2361191511154174
1749039340.782992,-0.046133504009147376,-1.0847566891409133,-2.302667584005832,5.096305505460455,-5.652606711708358,4.871872372307262,0.20115500811186787,0.001467359293901619,0.0286365592140493,-0.05688175722355458,0.15132657823340118,-0.26893692460048857,0.5456061959266663,0.5855105519294739,1.3770322799682615,0.2912975549697876,-0.0053290501236915,-0.2592661380767822
1749039340.7830284,-0.04572324860246841,-1.084753110125069,-2.302611551959493,5.096190369202968,-5.652297841786845,4.871330301084476,0.20234417368424212,0.0015587320484612007,0.028816449811830104,-0.056982677771477946,0.15210438237998544,-0.2707719030526454,0.4829526543617248,0.5965336561203003,1.3738536834716797,0.2862035036087036,-0.0240149013698101,-0.2835449278354645
1749039340.7831352,-0.04531049290376883,-1.0847493799847598,-2.3025548366187527,5.096075247578397,-5.651986811636584,4.870783723561545,0.20354599482846739,0.0016581849891029244,0.02899670805050768,-0.057128814541177894,0.15288568539500894,-0.2725026162538467,0.4966002106666565,0.6048129796981812,1.3879414796829224,0.281345009803772,0.0007845610380172,-0.3263746201992035
1749039340.7842667,-0.044895288657039414,-1.0847455526546246,-2.3024973639225643,5.095960137469176,-5.651673918650654,4.870232892054906,0.20475930565440179,0.0017591904531275102,0.029179443188275186,-0.05733381394546922,0.15367785914090945,-0.27413879199519264,0.4537901282310486,0.6284240484237671,1.3838618993759155,0.2768110036849975,-0.0195655524730682,-0.3320412337779999
1749039340.8262694,-0.04447776577766583,-1.0847416782921362,-2.302439080169448,5.095845013746616,-5.651359493344434,4.869678150312693,0.2059828057174496,0.0018558982997940604,0.02936720451884907,-0.05760809575557669,0.1544879432933185,-0.2756923834683669,0.4857637286186218,0.6005452871322632,1.3877071142196655,0.2657135725021362,-0.0126740932464599,-0.3209940791130066
1749039340.826314,-0.04405814589438728,-1.084737801137619,-2.3023799606762902,5.0957298291968325,-5.651043881091482,4.869119941903933,0.2072148670753764,0.001943773031645382,0.029562325344335786,-0.05795809375209004,0.15532184368396926,-0.2771749845696505,0.4816944897174835,0.5938283205032349,1.3826167583465576,0.2756790220737457,-0.0089407712221145,-0.2830197811126709
1749039340.826354,-0.04363674356093269,-1.0847339578540682,-2.3023200169248206,5.095614516422522,-5.650727421795085,4.86855880953608,0.20845325244399693,0.0020200055152810844,0.02976631774888119,-0.0583857631840125,0.15618379091432827,-0.27859622265527206,0.4859567284584045,0.5901733636856079,1.4161734580993652,0.277151882648468,-0.024827666580677,-0.2715298533439636
1749039340.8263917,-0.04321395269737516,-1.084730175919028,-2.3022593005843865,5.095498991411858,-5.650410426549468,4.867995380703282,0.20969488519281915,0.002083647616922053,0.029979420721748397,-0.05888837058530994,0.1570760266603598,-0.27996323899833964,0.4519546329975128,0.5676937699317932,1.40597403049469,0.2795784473419189,-0.0113313952460885,-0.3162262439727783
1749039340.8264284,-0.042790217865526156,-1.0847264720973981,-2.3021979031189894,5.095383157652653,-5.650093151052792,4.867430336358386,0.21093580279815397,0.0021354586426870245,0.030200382747606384,-0.059458572926359414,0.1579986502525593,-0.28128113654503584,0.5067535042762756,0.5798733234405518,1.4117233753204346,0.2515958547592163,-0.0201458744704723,-0.3114029467105865
1749039340.826466,-0.042365991740625976,-1.0847228513473137,-2.302135950164922,5.095266909211262,-5.649775766990784,4.866864361597559,0.21217135569657336,0.002177501906761526,0.030426516866601278,-0.0600848009913342,0.15894955155186108,-0.28255415612107676,0.4994565844535827,0.5869170427322388,1.4091650247573853,0.2653327584266662,-0.0130092874169349,-0.3248128294944763
1749039340.8265026,-0.04194168145348959,-1.0847193065813292,-2.3020735906612075,5.09515013130931,-5.649458334181469,4.866298080266565,0.21339664132932876,0.0022125769081769225,0.030654008911136822,-0.06075196891833275,0.15992437438445167,-0.28378725916853215,0.4845707416534424,0.5937252640724182,1.4105972051620483,0.2371853590011596,-0.0044625736773014,-0.2915682792663574
1749039340.826539,-0.04151758771928683,-1.0847158196095537,-2.3020109818410543,5.095032697762675,-5.649140777399524,4.865731978470852,0.21460712390774722,0.002243599718678074,0.030878406786473536,-0.061442512532602245,0.16091649486323087,-0.2849876922142505,0.5321705341339111,0.6185396909713745,1.4218860864639282,0.2439719587564468,-0.0183984749019145,-0.2270833253860473
1749039340.8265755,-0.04109384221640782,-1.084712363354474,-2.301948272286682,5.094914465942224,-5.648822872235423,4.865166324918687,0.21579937178766076,0.002273040319181833,0.031095188396506872,-0.06213770250589984,0.1619170593776032,-0.2861660445986049,0.5502876043319702,0.6039590835571289,1.406944990158081,0.2530416250228882,0.0079416707158088,-0.2484407573938369
1749039340.826612,-0.04067035044558672,-1.0847089051501744,-2.3018855858224083,5.094795271063001,-5.648504243928287,4.864601098630049,0.2169718156501122,0.0023024943996800477,0.031300305878462685,-0.06281910559907629,0.162915193420571,-0.2873364086106861,0.4984874725341797,0.6010233163833618,1.4076297283172607,0.2453975081443786,0.0214232802391052,-0.270444244146347
1749039340.8266485,-0.040246748851437295,-1.0847054108246494,-2.301823008823563,5.094674922141322,-5.648184381736196,4.864035936280366,0.21812538544290752,0.002332423949163648,0.031490633169023674,-0.06347002125177975,0.16389852407994665,-0.2885155412844454,0.5212422013282776,0.5875262022018433,1.425404667854309,0.2489376962184906,0.0039116814732551,-0.3246598839759826
1749039340.8266857,-0.03982238580619476,-1.0847018492874783,-2.301760582676351,5.09455320183955,-5.647862669403491,4.863470111452199,0.21926385183949898,0.0023620653103653723,0.03166429403853573,-0.06407673237906411,0.1648541147433567,-0.2897212795192189,0.4846173524856567,0.5866594910621643,1.437697172164917,0.2364858537912368,0.0297526270151138,-0.35662841796875
1749039340.8267236,-0.03939633552271892,-1.084698197240299,-2.301698302006053,5.094429871872067,-5.64753843042942,4.8629025557320755,0.22039371793550205,0.002389489157258955,0.03182089572286694,-0.06462946704385378,0.16576979430158326,-0.29097068522459235,0.4225766658782959,0.5796093344688416,1.439283013343811,0.2531584501266479,-0.0056319180876016,-0.3311732411384582
1749039340.8267615,-0.03896745135529318,-1.0846944432760426,-2.3016361182333727,5.094304684952936,-5.647210985589362,4.862331927104963,0.22152359650887746,0.0024118027937758135,0.03196170904950836,-0.06512302424143211,0.16663572939500781,-0.2922783958257818,0.4858399629592895,0.6093246340751648,1.4319647550582886,0.2349417507648468,-0.0060069188475608,-0.2968631088733673
1749039340.8267996,-0.03853445979643537,-1.0846905902467017,-2.3015739471861387,5.094177403568362,-5.646879719111068,4.86175672504442,0.22266315265453834,0.0024254940352155764,0.032089809470723846,-0.06555703430248445,0.1674459967331108,-0.2936554733220086,0.4852246046066284,0.5969793796539307,1.4413915872573853,0.2547588050365448,0.0016347467899322,-0.2897156476974487
1749039340.8268373,-0.0380960889905554,-1.0846866547702698,-2.3015116789935037,5.094047824924114,-5.64654414826638,4.8611754441833925,0.2238218402870392,0.0024269072169197264,0.03221014542477742,-0.06593581064138739,0.16819988985160483,-0.29510882430645063,0.5199700593948364,0.6133875846862793,1.419729709625244,0.2658141553401947,-0.0070568472146987,-0.3075243234634399
1749039340.826875,-0.03765121665580017,-1.084682663426224,-2.301449188375724,5.093915809794276,-5.646203988418158,4.8605867492294035,0.22500773823865808,0.002412809205155868,0.03232946148099398,-0.06626774578398845,0.16890273608929074,-0.2966411374514439,0.5199700593948364,0.6133875846862793,1.419729709625244,0.2658141553401947,-0.0070568472146987,-0.3075243234634399
1749039340.8269117,-0.03719901388440892,-1.084678646376842,-2.301386343600181,5.093781310720627,-5.645859202355165,4.859989644062656,0.22622674888328137,0.0023809621270780815,0.0324559951906782,-0.06656424525298005,0.16956608343000937,-0.29825126942914104,0.5195571184158325,0.5789443254470825,1.4347985982894895,0.2624355554580688,0.0025303214788436,-0.3153898119926452
1749039340.8269486,-0.03673905719270276,-1.084674630194023,-2.301323012738125,5.093644393179153,-5.6455100214799145,4.859383602363696,0.22748228634704437,0.0023305973187335333,0.03259889918708707,-0.06683828237600621,0.17020721550936463,-0.2999349968226453,0.4976173639297485,0.5828293561935425,1.4586024284362793,0.2231182157993316,0.0101090259850025,-0.3173116147518158
1749039340.8269854,-0.03627138548403719,-1.0846706320178765,-2.3012590666118906,5.0935052435088695,-5.645156929939093,4.858768631566537,0.22877543160999658,0.002262699708560436,0.03276740910299103,-0.06710276520718744,0.1708480443049594,-0.3016859485925497,0.4976173639297485,0.5828293561935425,1.4586024284362793,0.2231182157993316,0.0101090259850025,-0.3173116147518158
1749039340.82709,-0.03579649112780891,-1.084666656762775,-2.3011943789431513,5.093364160109505,-5.644800610836916,4.858145257151106,0.2301054304244946,0.0021800575890267453,0.03296985663513565,-0.06736897819878071,0.17151350045737865,-0.3034964000419252,0.4845381379127502,0.5962386727333069,1.4565662145614624,0.240262746810913,-0.0290917456150054,-0.2369557619094848
1749039340.828363,-0.03531524970805558,-1.0846626981528946,-2.301128825124694,5.09322152856626,-5.644441862455541,4.85751443371347,0.2314703658595355,0.002087085337500244,0.03321268115146402,-0.0676453486016133,0.17222958288382412,-0.30535760631004505,0.5129302740097046,0.5904108285903931,1.4768143892288208,0.2564276456832886,-0.0033756792545318,-0.2832278609275818
1749039340.870493,-0.03482880518049577,-1.0846587432263193,-2.301062281256721,5.093077785277225,-5.644081498548652,4.856877404903558,0.23286782947103588,0.0019894625180795836,0.033499604748360695,-0.06793669336516638,0.17302124169517036,-0.3072595640612775,0.4817056655883789,0.5719327330589294,1.4707797765731812,0.2368363738059997,-0.0213123857975006,-0.3055070340633392
1749039340.870572,-0.03433843334635348,-1.0846547789790366,-2.300994624776785,5.092933376532425,-5.643720249303863,4.856235541909648,0.23429543433766659,0.001893643651046544,0.03383110776569429,-0.0682439828808283,0.17391025943949762,-0.30919041518829515,0.4335786402225494,0.5831466913223267,1.4735602140426636,0.2660723328590393,-0.0176735632121562,-0.3181717097759247
1749039340.8706443,-0.03384540644604729,-1.0846507993338894,-2.300925737565517,5.092788720151897,-5.643358678440073,4.855590189096457,0.23575106584725575,0.0018062878910238762,0.034204285410239205,-0.06856457366351948,0.1749132785407855,-0.3111359429213213,0.5158773064613342,0.5899773240089417,1.4959502220153809,0.2432262152433395,-0.0145706627517938,-0.3099202811717987
1749039340.870716,-0.03335087681471386,-1.0846468106381608,-2.3008555119456098,5.092644175034088,-5.642997127641271,4.854942538009819,0.2372328471037236,0.0017336537250743037,0.03461309398899979,-0.06889282811846187,0.1760401132571715,-0.31307962041190845,0.5133002400398254,0.6176465153694153,1.4734551906585691,0.2549684047698974,0.0005040764808654,-0.3126067817211151
1749039340.8707843,-0.03285579061663809,-1.0846428342588055,-2.300783859417756,5.092500021403653,-5.642635693763434,4.8542935413213275,0.23873887891699408,0.0016810105378708689,0.03504892496526259,-0.0692210288592835,0.17729249230309138,-0.3150034794269122,0.5081809163093567,0.6022289395332336,1.477213740348816,0.257921040058136,-0.0042667165398597,-0.2939035892486572
1749039340.8708534,-0.03236083592588478,-1.0846389054443948,-2.3007107212643514,5.092356452166412,-5.6422742386296125,4.853643869488516,0.24026686660464477,0.0016521319295960098,0.03550139605530927,-0.06954047818342546,0.17866339381379306,-0.31688980341231615,0.4858539700508117,0.6186631321907043,1.4732686281204224,0.2514045834541321,0.0270287431776523,-0.3014658093452453
1749039340.8709214,-0.03186642386903206,-1.0846350683992114,-2.3006360794445158,5.0922135739615,-5.64191242646927,4.852993906018485,0.2418137478359157,0.0016489418595395267,0.03595923196288935,-0.06984264931054296,0.1801371313865127,-0.3187234186169801,0.4694567918777466,0.6245705485343933,1.4686334133148191,0.2654173970222473,0.0378592498600482,-0.326802909374237
1749039340.87099,-0.031372697634516146,-1.0846313683576942,-2.300559965745796,5.092071415302061,-5.641549780603972,4.852343772585584,0.24337540072267932,0.001671373831752622,0.036411121483682314,-0.07012025222181732,0.18169030236852216,-0.3204941806133988,0.4915056228637695,0.6201663017272949,1.4750081300735474,0.2808879017829895,0.0550291687250137,-0.3095061182975769
1749039340.871059,-0.030879562140566,-1.084627842166973,-2.3004824671656414,5.091929938614262,-5.64118574941074,4.851693373240556,0.24494648036261504,0.0017174731874340613,0.036846472662755314,-0.0703681189257321,0.18329360267459677,-0.32219912949954965,0.4949590265750885,0.622543215751648,1.460663080215454,0.2425250262022018,0.0367512479424476,-0.2404928356409073
1749039340.8711257,-0.030386726926083442,-1.0846245092656945,-2.300403726070037,5.0917890530457095,-5.640819772021114,4.851042447484049,0.2465204299120709,0.001783726443387192,0.0372560300025834,-0.07058388722756256,0.18491435352845093,-0.3238437555608492,0.5182815790176392,0.5921921730041504,1.472232460975647,0.2590612471103668,0.0151956528425216,-0.2521520256996155
1749039340.8711944,-0.02989375578928987,-1.0846213648855447,-2.3003239346766238,5.091648625659565,-5.640451336015714,4.850390624160774,0.24808971410169642,0.0018655479376633707,0.03763235204440293,-0.0707685136315334,0.18651941800642796,-0.3254419469554465,0.4884534776210785,0.6152803897857666,1.4633580446243286,0.2304744869470596,0.0303974077105522,-0.2883227467536926
1749039340.8712614,-0.02940011806085563,-1.0846183768854119,-2.3002433244236893,5.091508489894902,-5.640080021796054,4.849737470713249,0.2496462883279308,0.0019578109560642793,0.037970161827881245,-0.07092662620593064,0.1880780798889204,-0.3270145011516225,0.4846472144126892,0.5824402570724487,1.4652191400527954,0.264617919921875,-0.0005610883235931,-0.2959568798542022
1749039340.8713284,-0.0289052376117447,-1.0846154869920615,-2.300162151417203,5.091368451465055,-5.6397055309112325,4.849082534494649,0.2511822498485545,0.0020553031491669918,0.038266576966626664,-0.07106664861264593,0.18956446737864852,-0.32858647577630684,0.4471971988677978,0.5954980850219727,1.4633551836013794,0.2767530381679535,0.0275890678167343,-0.3218077421188354
1749039340.8713932,-0.02840853658471506,-1.0846126164204615,-2.3000806793626034,5.091228292705871,-5.639327698032586,4.848425374384295,0.2526905667042735,0.0021530270015949443,0.03852121265918419,-0.07120055817397658,0.19095922700168208,-0.3301839520656159,0.4851573705673218,0.591753363609314,1.4539284706115725,0.2628141939640045,0.0117617547512054,-0.3105358183383941
1749039340.8714604,-0.02790947154112536,-1.0846096749699004,-2.2999991614494504,5.09108777667861,-5.6389464881635565,4.847765582060287,0.2541657736288689,0.0022463378302073145,0.038736141791109104,-0.07134315432276812,0.1922503372820862,-0.33183085273771545,0.5060495138168335,0.5958008766174316,1.4518133401870728,0.2602620422840118,0.0293930619955062,-0.290603905916214
1749039340.871527,-0.027407560538508742,-1.0846065719917144,-2.2999178227261816,5.090946652252944,-5.638561981959399,4.847102793311606,0.25560454236400804,0.0023309765375902044,0.038915695603691076,-0.07151081648106027,0.19343312903185148,-0.3335463122315382,0.4756785929203033,0.6274150013923645,1.4590269327163696,0.2381738126277923,0.0267764143645763,-0.3083441257476806
1749039340.871596,-0.02690240068984839,-1.0846032273828754,-2.2998368444836674,5.090804661141225,-5.638174352771317,4.846436690899005,0.2570060435923637,0.002403082331494245,0.03906609741343422,-0.07171986303930201,0.19450969163645943,-0.3353428683112812,0.4838058650493622,0.6104270219802856,1.451155662536621,0.222486063838005,0.0087016373872756,-0.3530381917953491
1749039340.871663,-0.026393676715932773,-1.0845995809870952,-2.2997563519389326,5.090661547576919,-5.6377838391516075,4.845767001421326,0.25837202073718724,0.002459255938867431,0.039194941233445434,-0.07198471749878828,0.1954878734361938,-0.33722554592003856,0.4767922759056091,0.5932979583740234,1.433457612991333,0.2426756471395492,0.0046213567256927,-0.3436760902404785
1749039340.8717303,-0.02588116167591041,-1.084595599206383,-2.2996764061436368,5.090517071018561,-5.637390716067225,4.84509348898724,0.25970652531544175,0.0024967009360191434,0.0393105525514749,-0.07231612226490776,0.19638005577539724,-0.3391917680972133,0.5280956029891968,0.5831549167633057,1.4439541101455688,0.2329772561788559,0.0332588031888008,-0.305494874715805
1749039340.871798,-0.025364711590631604,-1.0845912780765912,-2.299597000724878,5.090371021696685,-5.636995267325243,4.8444159481710525,0.26101533414966777,0.002513423671011188,0.03942129058193558,-0.07271963374260064,0.19720183334516903,-0.3412319340864278,0.4846377372741699,0.5769190192222595,1.435674071311951,0.2172528803348541,-0.0169493183493614,-0.2832203507423401
1749039340.8719535,-0.02484425613876006,-1.0845866426612227,-2.2995180638501154,5.090223237877123,-5.636597761126854,4.843734197993802,0.26230514423483975,0.002508442634457005,0.039534863091654514,-0.07319460037875997,0.19797068508606375,-0.343330450954561,0.5012794733047485,0.5924052000045776,1.445004105567932,0.2407552450895309,0.0035394132137298,-0.2860782742500305
1749039340.8723114,-0.024319787715079914,-1.0845817433791538,-2.29943946550605,5.0900736226384495,-5.636198430304715,4.8430480777992715,0.26358266880293063,0.0024819551154576652,0.03965772630902122,-0.07373376863339753,0.1987046743749713,-0.3454670185614678,0.473933458328247,0.5966070890426636,1.4526681900024414,0.2286385744810104,-0.0143916457891464,-0.3282705843448639
1749039340.9144912,-0.02379135061341817,-1.08457665043939,-2.299361029623174,5.089922157245354,-5.635797458503285,4.842357445247674,0.2648537342569642,0.0024354259934000616,0.03979463544189462,-0.07432358875580042,0.19942119049334628,-0.34761804447672384,0.4939582347869873,0.5900502800941467,1.443088412284851,0.1963666975498199,-0.0171872973442077,-0.3396835327148437
1749039340.914574,-0.02325903118984679,-1.084571447573384,-2.2992825498796137,5.089768908237684,-5.635394973232118,4.841662176578897,0.26612245385268,0.002371585335387581,0.03994839470148127,-0.07494522429591066,0.20013575577786624,-0.3497581508511413,0.5058507323265076,0.5979396104812622,1.4486721754074097,0.2112989276647567,-0.0084331128746271,-0.3343525528907776
1749039340.9146457,-0.022722949231826262,-1.0845662258487567,-2.2992038074786514,5.089614026217215,-5.634991046261579,4.84096216965538,0.2673905690343414,0.0022943354437108946,0.04011982815262224,-0.07557621394464215,0.2008609707393594,-0.3518617736886479,0.5985095500946045,0.5826787352561951,1.4531995058059692,0.1939145773649215,0.0246053412556648,-0.3117195963859558
1749039340.9147143,-0.022183250696766976,-1.0845610778699044,-2.299124589010258,5.089457735734163,-5.634585701065191,4.8402573503780495,0.2686570730254937,0.0022085715793743886,0.0403079582414191,-0.0761926722404102,0.20160571813231454,-0.3539048342540327,0.5050710439682007,0.5897611379623413,1.4426274299621582,0.2188306003808975,0.0209649354219436,-0.323134034872055
1749039340.914782,-0.02164010209688794,-1.0845560923434132,-2.299044702656458,5.089300317222709,-5.63417892592713,4.839547682331111,0.2699181992532868,0.0021199201798608805,0.04051034643670333,-0.07677182835957687,0.20237475552586762,-0.3558664067465865,0.4659749865531921,0.5991718769073486,1.4329386949539185,0.2132567763328552,0.0103324800729751,-0.3521144390106201
1749039340.9148474,-0.021093686661573005,-1.0845513489163525,-2.298963991341926,5.089142083203847,-5.6337706902618,4.838833178178856,0.2711677616688165,0.0020344013433270694,0.04072353188586452,-0.07729460312703826,0.2031687798655528,-0.3577302455738944,0.4351522326469421,0.5853650569915771,1.433701753616333,0.2407601624727249,-0.0300954170525074,-0.3245133757591247
1749039340.9149158,-0.02054420208535446,-1.0845469133953756,-2.298882341855955,5.088983351650172,-5.633360961090899,4.8381139102941875,0.2723977531289343,0.001958030278562329,0.04094351028408205,-0.07774785961172492,0.2039849688569292,-0.35948598955510164,0.5161193013191223,0.6004037261009216,1.458672285079956,0.2332697808742523,-0.0059368684887886,-0.3236238360404968
1749039340.914982,-0.019991859474388723,-1.0845428337230918,-2.298799689455127,5.08882441938417,-5.632949716714149,4.837390018110712,0.27359911598321085,0.001896381723090895,0.041166222125541725,-0.078125981957465,0.20481792789650968,-0.3611298507333197,0.4751721024513244,0.6177495718002319,1.4457727670669556,0.2229259610176086,-0.0142707675695419,-0.2762525677680969
1749039340.9150474,-0.019436883020202616,-1.0845391371625468,-2.298716017988215,5.088665537926107,-5.632536955308068,4.836661710577632,0.27476266612898187,0.001854148402649089,0.04138803855470589,-0.07843155424493643,0.20566091473693376,-0.36266465350998844,0.5386391878128052,0.5976862907409668,1.4377323389053345,0.2256568968296051,0.0103022307157516,-0.2976286113262176
1749039340.915113,-0.018879509621006083,-1.0845358289478864,-2.2986313560798504,5.088506893754853,-5.632122697238885,4.83592926295415,0.2758801765479527,0.0018347292407745578,0.04160621621822985,-0.0786750865403987,0.20650717326765994,-0.36409922588231164,0.437551736831665,0.5990355610847473,1.408827543258667,0.1917692869901657,-0.0125792771577835,-0.3146836161613464
1749039340.9151783,-0.018319987073671613,-1.0845328923058692,-2.2985457702175247,5.088348594602912,-5.6317069810011855,4.835193007513258,0.276945560143219,0.0018398870885875742,0.041819251086707775,-0.07887390136502337,0.2073511806433267,-0.36544730809911496,0.4696210622787475,0.617618203163147,1.400290608406067,0.2071561068296432,0.013759609311819,-0.3490642309188843
1749039340.915243,-0.017758569109546485,-1.084530289457312,-2.29845935564663,5.088190662906525,-5.631289853776982,4.834453317851407,0.2779559906363698,0.0018695194818816186,0.04202704058690455,-0.0790503979675514,0.2081896095165017,-0.36672624431127115,0.4566978216171264,0.6258350610733032,1.4370720386505127,0.2051436007022857,-0.0232325047254562,-0.3241406679153442
1749039340.9153085,-0.017195506030059392,-1.0845279632123075,-2.2983722259235995,5.088033036686351,-5.630871358723136,4.833710586878009,0.2789127516725365,0.001921585980998404,0.04223079353526588,-0.07922993931652816,0.20902184187399173,-0.36795570434976216,0.5002121329307556,0.6181324124336243,1.417364239692688,0.2136415839195251,-0.003229022026062,-0.3233572840690613
1749039340.9153738,-0.01663103099012116,-1.0845258391027963,-2.298284502004565,5.087875577130718,-5.630451522050084,4.832965199307883,0.27982163795182347,0.001992226346415042,0.042432691076142656,-0.07943858147038367,0.20984994508453136,-0.36915657013163933,0.4472246468067169,0.6139727830886841,1.4116461277008057,0.2213425785303115,-0.0096225589513778,-0.3243113756179809
1749039340.9154398,-0.016065343519942366,-1.0845238283742515,-2.2981963018816356,5.08771808138002,-5.630030343096501,4.832217500535582,0.280692815971784,0.0020760813067258552,0.042635358618843856,-0.07970083207630202,0.2106781231270508,-0.3703499873217279,0.5005375742912292,0.5989622473716736,1.4106446504592896,0.1804261654615402,-0.0039166808128356,-0.3276836276054382
1749039340.9155056,-0.015498593031470359,-1.0845218322446917,-2.2981077318354566,5.087560298711789,-5.629607789595819,4.831467765075304,0.2815401456057976,0.002166794536318341,0.04284123858032724,-0.0800376125518647,0.21151176229093438,-0.3715564883449941,0.4626773595809936,0.6012818217277527,1.4148569107055664,0.1678307950496673,0.0047823758795857,-0.2968761324882507
1749039340.9155712,-0.014930865425364452,-1.0845197475113655,-2.298018880170364,5.0874019484572335,-5.629183798800611,4.830716169107606,0.2823800516056956,0.002257640259197682,0.043051963157690214,-0.08046458779194629,0.21235627206894941,-0.372795062937995,0.4847231805324554,0.6012193560600281,1.41790771484375,0.1885031312704086,-0.0348370969295501,-0.2799081206321716
1749039340.9156375,-0.014362175435605327,-1.0845174730380338,-2.2979298138861233,5.087242738321011,-5.628758283939825,4.829962772419372,0.2832301096156246,0.00234219684948202,0.04326782235394882,-0.08099097548551816,0.21321596058209766,-0.3740820937788026,0.4847499430179596,0.5989713072776794,1.4002954959869385,0.1934615075588226,-0.0137703213840723,-0.2963257431983948
1749039340.9157026,-0.013792466223939346,-1.0845149162245504,-2.297840578360507,5.087082382071191,-5.628331144718148,4.829207514198812,0.2841075545299759,0.0024149788306869237,0.043487403217739806,-0.08161885134543237,0.21409317903662417,-0.3754301813290018,0.4709522426128387,0.6050345301628113,1.397244930267334,0.1959154307842254,0.0073197465389966,-0.2986690402030945
1749039340.915768,-0.013221616315231732,-1.0845119984211018,-2.2977511999252145,5.0869206156779825,-5.627902279853033,4.82845022446648,0.2850279108693003,0.0024719469068857545,0.04370744442444673,-0.08234288424079961,0.2149879286769132,-0.37684701790257047,0.4745598435401916,0.5897353291511536,1.3960355520248413,0.1982313096523285,0.0027691423892974,-0.3354192078113556
