nimar13/UR3e_dataset_trayectorias/trayectorias_ejecutadas_filtradas/quintic_func/trayectoria_103_result_filtrado.csv
timestamp,q1,q2,q3,q4,q5,q6,qd1,qd2,qd3,qd4,qd5,qd6,tau1,tau2,tau3,tau4,tau5,tau6
1749042019.5663097,4.666832662024391,-1.4569665605880917,-1.1811038193239347,-3.26623582850797,-0.30809167612988275,4.103151851470233,0.009622537879873449,0.0007355350051931576,-0.002326270464219679,-0.004556833138052489,-0.000562866963382423,0.007624175496628816,0.1826276332139969,0.9125095009803772,0.8236916065216064,0.2022440731525421,-0.3079566955566406,0.1200341954827308
1749042019.5663557,4.666839383361831,-1.4569751719825055,-1.1811047669694161,-3.2662367673162866,-0.3080850654238961,4.1031536543845535,0.007395951600187194,0.0006736513560010062,-0.0019214605417503102,-0.0033753148073406704,-0.0004659535030659714,0.0061601626477646955,0.157985970377922,0.9322217106819152,0.8330191969871521,0.1913232207298278,-0.2987197935581207,0.1100875362753868
1749042019.566396,4.666845757867588,-1.4569834920646312,-1.1811055720594348,-3.266237383041146,-0.3080784971709711,4.103155169699362,0.005219544152715181,0.0006137360644185407,-0.0015273076944139628,-0.002227852352804786,-0.0003681081007649375,0.004725724030260309,0.1635025888681411,0.9022358059883118,0.8307566046714783,0.2060878276824951,-0.2961615920066833,0.1048527285456657
1749042019.5664349,4.66685123036045,-1.4569911917829523,-1.1811060938768811,-3.2662374028163232,-0.3080720543463045,4.103156056591295,0.0031446896699798333,0.0005583627471029064,-0.001154338295248326,-0.001147328374526565,-0.0002692085918932632,0.003350828494175214,0.1436087638139724,0.9021309018135072,0.8571347594261169,0.217793583869934,-0.2918328940868377,0.0672577992081642
1749042019.5664723,4.666855298883517,-1.4569979824549657,-1.1811062176259632,-3.266236630162053,-0.30806580617223817,4.103156021927118,0.0012166249826544011,0.0005103219475718281,-0.0008112368317826256,-0.00016315961531364486,-0.0001691404515272271,0.0020618776091026175,0.1393101066350937,0.9124101400375366,0.866800844669342,0.2176989912986755,-0.2918175756931305,0.0844818502664566
1749042019.566511,4.666857545495483,-1.4570036313277144,-1.1811058634379357,-3.2662349666719335,-0.3080598054154702,4.103154846196735,-0.0005278123748039767,0.00047244274453099756,-0.0005042395905282116,0.0007001309926808363,-6.78429688886393e-05,0.0008805555704097868,0.106203019618988,0.9157292246818542,0.8811699151992798,0.2361687123775482,-0.2819801867008209,0.0745882764458656
1749042019.5665486,4.666857659754319,-1.4570079715587805,-1.181104991405781,-3.266232419632843,-0.30805409026472036,4.103152401545216,-0.0020616092467629393,0.00044736419659277446,-0.00023688153422178927,0.0014240626057628544,3.458920830066961e-05,-0.00017679089022549574,0.1175806522369384,0.9108148217201232,0.8921917676925659,0.2580787539482116,-0.2613156735897064,0.071257896721363
1749042019.5665858,4.666855453554431,-1.4570109065995194,-1.1811036025068833,-3.2662290956923554,-0.30804868887064407,4.103148660138418,-0.003368106859990071,0.0004372710540590575,-1.0084332770739369e-05,0.001997036009364403,0.00013776891699740162,-0.001099268694945024,0.1041813492774963,0.8989172577857971,0.9127692580223083,0.2540142238140106,-0.2670362889766693,0.0427392721176147
1749042019.5666232,4.66685086708784,-1.4570124097713235,-1.1811017358101332,-3.2662251825841295,-0.3080436242917523,4.103143692434728,-0.004440681116329219,0.0004436159719809869,0.00017747875440602106,0.0024148288308836457,0.00024087833612040541,-0.0018811642068130878,0.0876113325357437,0.9087932109832764,0.9169905781745912,0.2295940220355987,-0.2619173228740692,0.0310765970498323
1749042019.5666645,4.666843966513715,-1.4570125201270048,-1.1810994627009321,-3.266220922179772,-0.3080389183490243,4.103137656391234,-0.005281708177287801,0.00046685725835643156,0.00032883615281798596,0.0026806783936342026,0.00034257072473644875,-0.0025214326962523237,0.0592601001262664,0.9340309500694276,0.9105759263038636,0.250640869140625,-0.248713880777359,0.0509069561958313
1749042019.566702,4.666834934238673,-1.4570113354701686,-1.1810968790724563,-3.266216579030309,-0.3080345938532987,4.103130779753044,-0.005901027059865467,0.0005062463041709679,0.0004480955155606525,0.0028048640096449804,0.000440949235622192,-0.0030230869685565027,0.0644960701465606,0.9013304114341736,0.9189991354942322,0.2605229616165161,-0.2442030906677246,0.0394232198596
1749042019.566739,4.666824052837349,-1.457009003041244,-1.1810940965828574,-3.266212409120861,-0.30803067514614835,4.103123338063171,-0.006314153762212583,0.0005597013559413993,0.0005398462331251948,0.002803735162272312,0.0005336462775135297,-0.0033925605683712743,0.0746704787015914,0.9102548360824584,0.9234053492546082,0.2766624391078949,-0.2609101235866546,0.052259262651205
1749042019.5667765,4.666811683987765,-1.457005708263495,-1.181091234029777,-3.2662086333591103,-0.3080271869972784,4.103115630932066,-0.006540485783932825,0.0006238030805325104,0.0006086680420831267,0.0026982271973352,0.0006180048345841247,-0.003639062856885913,0.0884780883789062,0.9104672074317932,0.9365692734718324,0.2716979086399078,-0.246953547000885,0.0514452308416366
1749042019.5668137,4.666798244342852,-1.4570016621226771,-1.1810884095550425,-3.2662054189802214,-0.30802415201687405,4.103107958696139,-0.006601669436077694,0.0006939411739489297,0.0006587950649453028,0.0025120211472341785,0.000691338093502207,-0.0037739233298116517,0.0878813415765762,0.9270270466804504,0.9442413449287416,0.2908597886562347,-0.2479071021080017,0.0115709714591503
1749042019.566851,4.666784180644062,-1.456997088022017,-1.1810857339748453,-3.2662028699529557,-0.308021586929759,4.103100601100409,-0.006520223104842815,0.0007646286745220548,0.0006939444094006023,0.002269585210321787,0.0007512240933494358,-0.003809940000024196,0.0772811323404312,0.9202237725257874,0.9378746151924132,0.2724787592887878,-0.2442140281200409,0.0301442109048366
1749042019.5668874,4.666769946295627,-1.4569922090990282,-1.1810833053050644,-3.2662010255777343,-0.3080194982383604,4.103093799130703,-0.0063184526704538465,0.0008299801314538192,0.0007172789731677659,0.0019943530285261124,0.0007957845871976853,-0.0037607717299002245,0.0609425604343414,0.9120165705680848,0.9379872679710388,0.2781701385974884,-0.2544654905796051,0.0057038031518459
1749042019.566924,4.666755980922099,-1.456987236879761,-1.1810812045023948,-3.266199865433573,-0.3080178780526668,4.103087740690589,-0.006017669082767967,0.000884320643164468,0.0007314488730829652,0.001707253125498251,0.0008239028032809236,-0.003640420331854592,0.0662040114402771,0.8805569410324097,0.9396280646324158,0.2765556871891022,-0.2520881593227386,0.022312968969345
1749042019.5669644,4.666742693244336,-1.4569823618073652,-1.1810794923732078,-3.266199318585761,-0.30801670119175517,4.103082550656179,-0.005637707712291891,0.0009228581222043335,0.0007386540047865786,0.0014257280753108613,0.0008353496193384791,-0.0034628292726291954,0.0739521384239196,0.8765130639076233,0.9509374499320984,0.2970226407051086,-0.2639009952545166,0.0148389972746372
1749042019.5670087,4.666730446471739,-1.4569777458772057,-1.181078207461152,-3.26619927516931,-0.30801592472527645,4.10307828595139,-0.005196736291458438,0.0009423212391790085,0.0007406877826483863,0.0011632947459833077,0.0008308065838396028,-0.0032415929450685483,0.052378810942173,0.8728553652763367,0.9528042674064636,0.2866108119487762,-0.2555985152721405,0.029043648391962
1749042019.5670598,4.66671954504727,-1.45697351756531,-1.1810773646723305,-3.266199598904886,-0.3080154905517131,4.103074936306895,-0.004711318672814041,0.0009414554364057043,0.0007389459958520606,0.0009296138490929033,0.0008117920655489266,-0.002989741143949929,0.0792281553149223,0.8854829668998718,0.950488805770874,0.2972667813301086,-0.2436543405055999,0.0379492789506912
1749042019.567183,4.666710222292649,-1.4569697692355335,-1.181076954594285,-3.2662001395782463,-0.308015330524925,4.103072430888973,-0.004196683211462626,0.0009212885553903883,0.0007344040963184901,0.0007309669755714195,0.0007805097646088386,-0.0027195524943764574,0.0727969631552696,0.8844942450523376,0.9618059396743774,0.2890079319477081,-0.2473372220993042,0.0027085207402706
1749042019.569035,4.666702629815623,-1.456966556837376,-1.1810769438428612,-3.2662007448045833,-0.30801537266176693,4.103070650045758,-0.0036671343123102166,0.0008851202690439635,0.000727577914106793,0.0005709891581747616,0.0007396455183149559,-0.002442362578566312,0.0685861185193061,0.8912137150764465,0.9475566744804382,0.2892314195632934,-0.2615935206413269,0.0215069018304348
1749042019.6104589,4.666696830513306,-1.4569639011100488,-1.1810772770346432,-3.266201270517571,-0.3080155466908798,4.103069440545446,-0.003136543342791736,0.0008382380719858777,0.000718487886320008,0.00045148097687622984,0.000692139597489747,-0.002168358329655034,0.0820383206009864,0.89481121301651,0.9563063979148864,0.2732608318328857,-0.2497837841510772,0.0438611358404159
1749042019.6105044,4.666692796942269,-1.4569617893950737,-1.181077880876024,-3.266201589738325,-0.30801578781993316,4.103068632387142,-0.002618856934807508,0.0007874007721473863,0.0007066467905375616,0.00037312936521933355,0.0006409593083737878,-0.0019063737201337472,0.0624000951647758,0.8919581174850464,0.9563034176826476,0.2892096936702728,-0.251832365989685,0.0219599790871143
1749042019.610545,4.6666904158449904,-1.4569601777872494,-1.181078670404699,-3.2662015993509197,-0.30801603879273376,4.1030680555782055,-0.0021285631560295833,0.0007401525058800492,0.0006910870162715312,0.000335997859414004,0.0005888923928706176,-0.0016637110324737026,0.0355379208922386,0.894780695438385,0.9631050229072572,0.2985011041164398,-0.2524651288986206,0.0231552012264728
1749042019.6105838,4.6666894984095535,-1.4569589941177437,-1.1810795568571058,-3.26620122478492,-0.30801625132828647,4.103067555786294,-0.001681057058382779,0.0007040392296243813,0.0006704375607721625,0.0003396971439334088,0.0005383764962351568,-0.0014460060678879462,0.0727556273341178,0.8909956812858582,0.9673808217048644,0.2725102007389068,-0.2669025957584381,0.0329988077282905
1749042019.610622,4.666689794877266,-1.4569581425004583,-1.1810804561965313,-3.266200422644156,-0.30801638814740856,4.1030670080352705,-0.001292847321344394,0.0006858002825852586,0.0006430550622041319,0.000383205520516437,0.0004913743636102016,-0.0012571417836115227,0.0490176603198051,0.8951371312141418,0.9548824429512024,0.2859827578067779,-0.2615211308002472,0.0333884581923484
1749042019.6106603,4.666691011416912,-1.4569575098634477,-1.1810812971359619,-3.2661991814333575,-0.30801642601321744,4.103066327462509,-0.0009815481317411786,0.000690603352335762,0.0006072078905555482,0.0004643675937065864,0.0004492988971385543,-0.0010992019087156734,0.0531458035111427,0.897831916809082,0.9543644785881042,0.2788454592227936,-0.2695817053318023,0.0241929478943347
1749042019.6106982,4.666692826762406,-1.4569569744224236,-1.181082027544445,-3.2661975206738707,-0.3080163592957728,4.103065475868663,-0.0007656085062186123,0.0007213841618070149,0.0005613073949397505,0.0005791515003360689,0.0004129872934685759,-0.0009724500790238668,0.0479863509535789,0.88584303855896,0.9443187713623048,0.3065767884254455,-0.2737799286842346,0.0391353070735931
1749042019.6107352,4.66669490623004,-1.456956415708141,-1.1810826183565732,-3.2661954889305487,-0.30801620310175754,4.103064462905035,-0.0006637476600482233,0.0007783434914951202,0.0005041759981912183,0.0007207858720200154,0.0003827196226422628,-0.000875322998248617,0.0314799472689628,0.9435015320777892,0.9322789311408995,0.2916010320186615,-0.2575846314430237,0.0297118723392486
1749042019.6107724,4.666696911578459,-1.4569557255338683,-1.1810830643993524,-3.2661931615424327,-0.30801599488422843,4.103063341572746,-0.0006940910395154737,0.0008586433840886124,0.00043533823388166107,0.0008789243645177622,0.0003582746035308013,-0.000804436413094065,0.0273626819252967,0.919262170791626,0.9014484286308287,0.3015383183956146,-0.2705155611038208,0.0396550670266151
1749042019.6108086,4.6666985064982365,-1.4569548190762747,-1.181083381879211,-3.266190638960474,-0.30801579340018637,4.103062198956067,-0.0008730356312990535,0.0009563299802817527,0.00035531740571868967,0.0010389962147845416,0.0003390139543050688,-0.0007546158279152235,0.029395617544651,0.9155527949333192,0.915762722492218,0.2959316968917846,-0.2699528038501739,0.0215293727815151
1749042019.610845,4.66669935878458,-1.4569536450170695,-1.1810836026545295,-3.266188046401005,-0.3080156740544245,4.1030611440670555,-0.0012139105012600108,0.0010624904768904368,0.0002659160441248024,0.0011818951772349618,0.00032398636606111535,-0.0007189746894807532,0.0226430669426918,0.9108809232711792,0.9059833884239196,0.2936415374279022,-0.2612676322460174,0.0419844202697277
1749042019.610885,4.6666991410897065,-1.4569521935623824,-1.181083765821465,-3.2661855350777613,-0.3080157203469572,4.103060294914289,-0.001725534218203193,0.0011656266697118258,0.00017045256078896718,0.0012841364483004534,0.0003120425893382397,-0.0006890676469430044,0.0129677876830101,0.8969643712043762,0.8932237029075623,0.2817958295345306,-0.2695777118206024,0.0416304394602775
1749042019.6109223,4.666697532471387,-1.4569505012756343,-1.1810839075253143,-3.2661832847153875,-0.3080160121978776,4.1030597666337485,-0.0024108021365856977,0.0012522045257064415,7.392113872175907e-05,0.0013185724773964343,0.00030195403103265166,-0.0006551443276388909,-0.0061339288949966,0.8711143732070923,0.8967248797416687,0.2884527146816253,-0.2750847637653351,0.0414590537548065
1749042019.610959,4.6666942226702846,-1.4569486520613637,-1.1810840503067002,-3.2661815064903146,-0.308016612848299,4.10305966210396,-0.0032654619474321946,0.0013073299891467889,-1.6960726463497075e-05,0.0012557051834446657,0.000292528345239301,-0.00060652054330816,0.007404625415802,0.8879975080490112,0.8931531310081482,0.2746964395046234,-0.2638933956623077,0.0533763468265533
1749042019.6109958,4.666688920137627,-1.4569467741846802,-1.1810841936749308,-3.2661804451051397,-0.30801755649831636,4.103060065942675,-0.004277251285013787,0.0013155108363530313,-9.38508957899868e-05,0.0010655664549888558,0.0002827165334996959,-0.0005320703062684977,-0.0075678974390029,0.8623366355895996,0.9015260338783264,0.2566024363040924,-0.2597075402736664,0.057046353816986
1749042019.6110327,4.666681363580684,-1.456945033738587,-1.1810843077478272,-3.266180378485369,-0.3080188388606638,4.1030610420233815,-0.005425568234853938,0.001261483353870019,-0.00014705441601698532,0.0007200649736117732,0.00027170689605159813,-0.00042082488314378985,-0.0179642885923385,0.8664863109588623,0.906952977180481,0.2486947476863861,-0.268769770860672,0.0721133351325988
1749042019.611069,4.666671335677153,-1.4569436253801116,-1.1810843313974053,-3.2661816136863018,-0.30802041242441913,4.103062633800999,-0.006681816115192058,0.001131094475184578,-0.00016598273951886648,0.0001956215575989009,0.00025900173735714943,-0.0002626457883106266,-0.0312983021140098,0.8313649296760559,0.9140762090682985,0.2399021983146667,-0.2677621245384216,0.0808770507574081
1749042019.6111054,4.666658676953281,-1.456942761333853,-1.181084175304961,-3.2661844780871165,-0.3080221874069352,4.103064866242752,-0.008010504394617611,0.0009122250538715359,-0.00013979579428950538,-0.0005241540043523535,0.0002444730614369846,-4.8919164096392714e-05,-0.0147361457347869,0.8248016238212585,0.91725891828537,0.2105035781860351,-0.2659091651439667,0.0948974937200546
1749042019.6111417,4.666643297659781,-1.4569426595355581,-1.1810837290365033,-3.2661893057704012,-0.30802403827400526,4.1030677483687485,-0.009371100860684541,0.000595719545223131,-5.819827574524866e-05,-0.0014460433633517525,0.0002283937134268851,0.00022679732407766934,-0.0499093458056449,0.7838428020477295,0.9235321879386902,0.19173464179039,-0.2615233063697815,0.0947663486003875
1749042019.6111774,4.666625185739161,-1.4569435315390726,-1.1810828703731013,-3.2661964198674336,-0.30802581470996326,4.103071276162195,-0.010720527553089852,0.00017625933008737755,8.766582039006324e-05,-0.0025653773207274127,0.00021144071425897238,0.000568252701849864,-0.0432814769446849,0.7452588081359863,0.9315622448921204,0.1819170415401458,-0.2584153413772583,0.0994121432304382
1749042019.6112845,4.666604409584125,-1.4569455707708574,-1.181081475067839,-3.2662061122765103,-0.3080273553393944,4.103075436308615,-0.012016095798339425,-0.00034690922167205057,0.0003043037305808094,-0.003865067845462128,0.0001946681113344351,0.0009761802116552387,-0.0806758552789688,0.7325849533081055,0.943160593509674,0.1601424813270568,-0.2532832324504852,0.1285471767187118
1749042019.6130624,4.666581115023382,-1.4569489419443757,-1.181079425750707,-3.2662186224896845,-0.3080285023991452,4.1030802113376925,-0.013218606583896838,-0.0009694956913216842,0.0005950558197001743,-0.00531573450049833,0.0001794477467260198,0.0014482294536928093,-0.0751576945185661,0.7230456471443176,0.9609727263450624,0.1482331454753875,-0.2585945427417755,0.116057239472866
1749042019.654286,4.6665555165199075,-1.4569537726099644,-1.1810766193629378,-3.2662341175437386,-0.30802911579686093,4.103085586282546,-0.014295310904030363,-0.0016820345033028178,0.0009594886861377627,-0.00687702199817799,0.00016737810773074838,0.00197917403787372,-0.1005968675017356,0.6721553802490234,0.9703601002693176,0.1262072622776031,-0.2562223672866821,0.1157901734113693
1749042019.654331,4.666527882864795,-1.456960147619772,-1.1810729729257332,-3.2662526754727117,-0.30802908531384543,4.103091556373037,-0.015222424733337684,-0.0024701702099807856,0.0013931174915258965,-0.008500064026013264,0.00016016398213373898,0.002561371615242501,-0.0909115523099899,0.6757266521453857,0.986303985118866,0.1093715652823448,-0.2349115312099456,0.1336474269628524
1749042019.6543703,4.6664985179795195,-1.4569681068510503,-1.1810684275555685,-3.2662742748266442,-0.30802833993469847,4.103098134865249,-0.01598691984393039,-0.0033153722224010594,0.0018875513499732191,-0.010130918220203903,0.000159472986773422,0.00318541202745419,-0.0921528935432434,0.6530508399009705,1.0178135633468628,0.0704530701041221,-0.236294150352478,0.1447189748287201
1749042019.6544087,4.6664677380920585,-1.4569776462076545,-1.1810629505105648,-3.266298792471375,-0.3080268535678657,4.103105359875447,-0.016587372630363226,-0.004196028036790122,0.0024311021370991316,-0.011714685909587802,0.00016677896688263398,0.0038408646370112136,-0.0821623653173446,0.628503143787384,1.010725021362305,0.0835488066077232,-0.2407867312431335,0.1691736578941345
1749042019.654447,4.666435847499963,-1.4569887218163005,-1.1810565349038005,-3.2663260108784558,-0.3080246469578384,4.1031132989767505,-0.017033757494496867,-0.005088818834531041,0.0030098136992076498,-0.013199930737523048,0.00018320622655038172,0.00451703314713246,-0.0777560770511627,0.5646275877952576,0.9934882521629332,0.0878923386335372,-0.238415390253067,0.1778910458087921
1749042019.6544847,4.666403115948972,-1.45700125717676,-1.1810491968473755,-3.2663556346416356,-0.308021786117529,4.103122050397718,-0.01734620796883727,-0.00597026615392273,0.0036087732755095774,-0.014542928325057271,0.00020939162421623416,0.0052036396995784,-0.0876187831163406,0.5872449278831482,1.0118887424468994,0.1083292812108993,-0.2314620018005371,0.1608844399452209
1749042019.6545222,4.666369760758055,-1.4570151525693473,-1.1810409703185352,-3.266387314426083,-0.30801837773432705,4.103131739992535,-0.017552905137830147,-0.0068183322062281,0.0042135004753577265,-0.015711246151822362,0.00024538276343387156,0.005891378518710691,-0.0979258343577385,0.5954497456550598,1.024059176445007,0.1136130541563034,-0.2448269128799438,0.1726899445056915
1749042019.6545594,4.666335935960701,-1.457030295445581,-1.1810319006881596,-3.2664206754238494,-0.3080145618853211,4.103142513696907,-0.017687356726900312,-0.007613936078903028,0.004811208311965268,-0.016686207661452575,0.00029058922145235787,0.006572293993920884,-0.0944547802209854,0.6055868864059448,1.0436015129089355,0.1115839555859565,-0.2345638275146484,0.1668256223201751
1749042019.6545963,4.666301729229807,-1.4570465702472284,-1.181022038125715,-3.266455346922443,-0.30801050250804146,4.1031545258708295,-0.017785386694464018,-0.008342225283513487,0.005391790048941411,-0.017463949271661717,0.00034379980253923997,0.0072399478868768324,-0.1424187123775482,0.5730225443840027,1.052196979522705,0.1284430027008056,-0.2216663658618927,0.1716251224279403
1749042019.6546335,4.666267165827948,-1.4570638663195765,-1.1810114317785216,-3.2664909897681413,-0.3080063764279297,4.103167924650777,-0.017882165008415073,-0.008993451564782973,0.0059484570612844505,-0.018054997045240443,0.0004032721118453713,0.007889352300541204,-0.1129149198532104,0.5656408071517944,1.0495333671569824,0.1110356003046035,-0.2250539064407348,0.1853069961071014
1749042019.6546702,4.6662322177869875,-1.4570820831533162,-1.1810001250206033,-3.266527319098798,-0.30800236190212515,4.1031828359994185,-0.018009575886547686,-0.009563355331939579,0.006477994677719159,-0.01848250236756748,0.0004668914997618743,0.008516667015231795,-0.1221757978200912,0.5543197989463806,1.0336893796920776,0.1211966946721077,-0.230190634727478,0.1494299471378326
1749042019.6547074,4.6661968161829535,-1.4571011327904857,-1.1809881516482659,-3.2665641205139755,-0.30799862739585887,4.103199348384912,-0.018194155992743405,-0.010053042067265842,0.006980617490144098,-0.01877942656106953,0.0005323859131093011,0.009118693447292716,-0.0904077589511871,0.5277895331382751,1.0534173250198364,0.1382512897253036,-0.220910370349884,0.1802801638841629
1749042019.654743,4.666160864585877,-1.4571209396330158,-1.1809755328577276,-3.2666012587416002,-0.30799532094278864,4.103217499968346,-0.018455742662213667,-0.010468404159662645,0.0074594253513537235,-0.0189850402553249,0.0005975742038698775,0.009692239144433953,-0.1113161146640777,0.5218348503112793,1.040374517440796,0.1203991994261741,-0.2267944812774658,0.1826730519533157
1749042019.654784,4.666124252146615,-1.4571414380858794,-1.1809622750717619,-3.2666386787420882,-0.3079925602823646,4.1032372699396875,-0.018806874471317278,-0.010819187725400541,0.00791950839772895,-0.01914112581810457,0.0006606207826832154,0.010233470030010015,-0.1347193717956543,0.5105284452438354,1.0596343278884888,0.1069874390959739,-0.2339395880699157,0.1757545620203018
1749042019.6548214,4.666086865035451,-1.4571625685932155,-1.1809483689771638,-3.266676399888019,-0.30799042407191635,4.103258575194568,-0.019252901922881125,-0.011117828006388927,0.008366815103852895,-0.019288262510838667,0.0007202695852359075,0.01073739963226185,-0.1511663198471069,0.5189045667648315,1.079787254333496,0.1373119056224823,-0.2148083448410034,0.1965946555137634
1749042019.654858,4.666048595031524,-1.4571842727716764,-1.1809337902523835,-3.2667145043641397,-0.30798894471746285,4.103281272810094,-0.019792705235516878,-0.011378183167633123,0.008806951424559423,-0.019462539349142875,0.0007760331801522758,0.011197664444573029,-0.1633743345737457,0.5127500295639038,1.0667716264724731,0.1089198514819145,-0.2275828123092651,0.1849099695682525
1749042019.6548948,4.666009344170005,-1.4572064884555542,-1.180918502235193,-3.2667531214457117,-0.30798810356836365,4.103305167861743,-0.020419876300794053,-0.011614288001484169,0.009244094164038685,-0.019692976900841885,0.0008283169459004393,0.011606687187096157,-0.1737500429153442,0.4969838559627533,1.0743558406829834,0.1298516243696212,-0.2155225276947021,0.1745839715003967
1749042019.654941,4.665969024821949,-1.4572291455095063,-1.180902460264403,-3.2667924098207592,-0.30798782921515067,4.1033300253250635,-0.021124193298734936,-0.011839233445283452,0.009680173985075691,-0.019999850444136363,0.0008784642191905438,0.011956243820886765,-0.1523249447345733,0.5081421136856079,1.100115418434143,0.1170670390129089,-0.2134944200515747,0.1820206642150879
1749042019.654986,4.66592755557877,-1.4572521633209317,-1.180885616918411,-3.266832540293717,-0.30798799942835864,4.103355584470623,-0.02189319641661866,-0.012064261611341642,0.010114432218628852,-0.020394004671968096,0.0009287171274817627,0.012238357927025136,-0.1646626144647598,0.4832063615322113,1.106869339942932,0.1273176074028015,-0.1968677639961242,0.1848686039447784
1749042019.6550238,4.665884854535093,-1.4572754509361856,-1.180867927219357,-3.2668736808677954,-0.30798844700829325,4.10338157436364,-0.02271367189592407,-0.012298146373853111,0.010543399685537995,-0.020877145129516834,0.000982098075426519,0.01244638104649263,-0.1656146198511123,0.4714979827404022,1.096242070198059,0.1174284592270851,-0.2028665542602539,0.182001382112503
1749042019.6551251,4.665840832465247,-1.4572989106157521,-1.18084935324518,-3.2669159855200536,-0.3079889695552568,4.103407729388991,-0.023572884188126444,-0.01254689878271592,0.010961286821170391,-0.02144299118242063,0.0010422252053334398,0.012576093195250656,-0.1834827363491058,0.4892653226852417,1.118994951248169,0.1233894675970077,-0.1936355829238891,0.1866986155509948
1749042019.6570373,4.6657953886437395,-1.457322445036102,-1.1808298682325915,-3.266959587114686,-0.307989342902487,4.103433803634169,-0.02445946369970186,-0.012813795285502444,0.011360710816516113,-0.0220790892181383,0.0011130790905033857,0.012626666431914619,-0.2059923112392425,0.4356819689273834,1.1077861785888672,0.124613270163536,-0.1881487369537353,0.1831727027893066
1749042019.702329,4.665748411594121,-1.4573459676816927,-1.1808094606005606,-3.26700459391886,-0.3079893375537548,4.103459582641754,-0.025363937450527462,-0.013099686444796624,0.01173363067758914,-0.022769027331683737,0.0011987375954052592,0.012601362330191334,-0.1984955370426178,0.4692098796367645,1.1010565757751465,0.1195138543844223,-0.1848898530006408,0.1806810200214386
1749042019.702377,4.665699785796712,-1.457369415398028,-1.1807881381080638,-3.2670510884175687,-0.3079887367903731,4.103484891215947,-0.026278948297226736,-0.01340351611887333,0.012072335427844388,-0.023494775198775165,0.001303093500992012,0.01250787283369831,-0.2275902926921844,0.4523971080780029,1.0988154411315918,0.1224327236413955,-0.1751433610916137,0.1782474815845489
1749042019.7024171,4.665649403353484,-1.4573927616197209,-1.1807659318420014,-3.2670991270791734,-0.3079873543453945,4.103509596995769,-0.02719922905612339,-0.013722968270630973,0.012370341132486737,-0.024238894508225858,0.0014295678116448705,0.012358258643457952,-0.2112974524497985,0.4674427211284637,1.091416835784912,0.1168393939733505,-0.1672723293304443,0.1625877618789672
1749042019.7024548,4.665597177321757,-1.4574160283886795,-1.1807428992343572,-3.26714874054404,-0.3079850491984423,4.103533610878873,-0.02812139276161728,-0.014055157321502303,0.012623088838578732,-0.02498641498422604,0.0015808322366706255,0.012168484304818872,-0.2112974524497985,0.4674427211284637,1.091416835784912,0.1168393939733505,-0.1672723293304443,0.1625877618789672
1749042019.702497,4.665543052006778,-1.457439295101831,-1.1807191249694833,-3.2671999348891685,-0.30798173544554325,4.103556886207246,-0.029043592353254946,-0.014397286555419442,0.012828382762783903,-0.02572623314571204,0.0017585572635403744,0.011957587776737943,-0.2478712499141693,0.4303613901138305,1.094265103340149,0.1127825826406478,-0.1679258346557617,0.1737239360809326
1749042019.7025344,4.665487005967193,-1.4574627022589675,-1.1806947186953864,-3.2672526952972243,-0.3079773862391311,4.103579418426496,-0.0299651049364348,-0.014747215747341568,0.012986556432967918,-0.026451950509220553,0.001963206499841698,0.011746551533687014,-0.2377938032150268,0.4269234538078308,1.104775071144104,0.1075068116188049,-0.1532866358757019,0.1827675402164459
1749042019.7025716,4.665429045925478,-1.4574864492844635,-1.1806698091082848,-3.2673069930339476,-0.30797203208532203,4.103601245889093,-0.030885904529127234,-0.015103897451971517,0.013100398737176075,-0.027162119544702587,0.002193901805165918,0.011556965015550388,-0.2391569018363952,0.4046803116798401,1.1023143529891968,0.0880164802074432,-0.1477585136890411,0.1777507066726684
1749042019.7026088,4.6653691931519505,-1.4575107863369532,-1.1806445349346417,-3.2673627953059468,-0.307965754752875,4.103622451190276,-0.031806293462001554,-0.015467653691670687,0.013174904542132727,-0.027859917798192083,0.0024483849172113794,0.011409587424889144,-0.2330084443092346,0.4105348587036133,1.1123071908950806,0.103661447763443,-0.1358039081096649,0.1789330840110778
1749042019.7026455,4.665307466603422,-1.4575360005722475,-1.1806190340085096,-3.267420076148797,-0.3079586782214939,4.103643161537371,-0.03272665859430249,-0.01584027112299292,0.013216926627507602,-0.02855232948452687,0.002723097456809165,0.011322931821917933,-0.2186200022697448,0.4219645857810974,1.119420051574707,0.109599120914936,-0.1394944936037063,0.1687021553516388
1749042019.7026827,4.665243867921017,-1.4575623976857173,-1.1805934318725477,-3.2674788257279546,-0.30795095759827745,4.103663546528761,-0.03364739893770754,-0.016224901983518385,0.013234794662508128,-0.029248968433984546,0.0030133900720662656,0.011311990009033391,-0.2548738121986389,0.3891884088516235,1.1040184497833252,0.1056632027029991,-0.1426178514957428,0.1675352901220321
1749042019.702719,4.66517837219277,-1.4575902799696818,-1.1805678313263996,-3.2675390556188386,-0.3079427663959052,4.1036838123174695,-0.034569033981837916,-0.0166257783109122,0.01323794094419439,-0.02996070975025369,0.0033138517498809117,0.011387204907672217,-0.2311125248670578,0.3969947397708893,1.112239122390747,0.1172302216291427,-0.1474620550870895,0.1892786026000976
1749042019.7027562,4.665110926036763,-1.4576199226432436,-1.1805423041711178,-3.2676007987221825,-0.3079342824942714,4.103704192104425,-0.035492453842823186,-0.017047776288480233,0.013236544709271544,-0.030698305465319927,0.00361872519496375,0.011553782691100719,-0.2444249391555786,0.3885117173194885,1.1034291982650757,0.092269130051136,-0.1445328593254089,0.1909704208374023
1749042019.7027967,4.6650414521524,-1.4576515507721863,-1.180516885960061,-3.26766410415719,-0.30792567350360023,4.103724933886648,-0.03641923319285023,-0.017495896502569868,0.01324118723681576,-0.03147114802801043,0.003922353911121014,0.011811423649438406,-0.2444249391555786,0.3885117173194885,1.1034291982650757,0.092269130051136,-0.1445328593254089,0.1909704208374023
1749042019.702834,4.664969857741098,-1.4576853195767911,-1.1804915738948916,-3.267729029173328,-0.307917082811195,4.103746287138434,-0.03735192330021266,-0.017974743759448044,0.013262502947630874,-0.03228632063939177,0.004219603325965288,0.012154527548131096,-0.2491117566823959,0.3812694251537323,1.123401165008545,0.1103290617465972,-0.1328000575304031,0.1818505823612213
1749042019.7028706,4.664896043562531,-1.4577213010734396,-1.180466327337273,-3.2677956310854483,-0.3079086179756902,4.103768490380828,-0.03829426208438957,-0.018488087463758383,0.013310816698964455,-0.03314803634096534,0.004506215044692086,0.012572883452159,-0.2544143795967102,0.3745425641536712,1.1180135011672974,0.0930808335542678,-0.1284693628549575,0.1936924159526825
1749042019.7029068,4.664819911112079,-1.4577594794241802,-1.1804410701165708,-3.267863961911868,-0.3079003430172996,4.10379176120097,-0.039251273656609964,-0.019038556201735713,0.013395770380784697,-0.034057515605635566,0.004779079445634584,0.013052786974573908,-0.2677837610244751,0.3756763339042663,1.1287492513656616,0.1020951271057128,-0.1151985973119735,0.1852975934743881
1749042019.702947,4.664741367031291,-1.4577997559539186,-1.1804156941111457,-3.2679340669598265,-0.3078922753918046,4.103816289403148,-0.04022923880651307,-0.0196274780568975,0.013525956195737435,-0.035013285849776574,0.00503643032876445,0.01357845652057825,-0.2714434862136841,0.3802716434001922,1.1429656744003296,0.121504470705986,-0.1043986603617668,0.1796255409717559
1749042019.7029974,4.664660325244435,-1.4578419630476116,-1.1803900641385487,-3.26800598701551,-0.30788438728890294,4.103842233135939,-0.04123551168628314,-0.02025484349042222,0.013708583679075842,-0.0360118180643477,0.005277964819511229,0.014133567490850676,-0.2584507465362549,0.3308122456073761,1.159462332725525,0.1069335266947746,-0.1128845438361167,0.1894612908363342
1749042019.7030394,4.664576707689435,-1.4578858848601257,-1.1803640243756202,-3.2680797629041938,-0.30787660999140204,4.103869717388371,-0.042278165247134195,-0.02091935591077532,0.013949209662872959,-0.03704836362797981,0.005504874074661902,0.014702708803368655,-0.2974210679531097,0.3597500026226043,1.1542938947677612,0.1020346134901046,-0.1151651367545127,0.1875271052122116
1749042019.7030764,4.664490444221916,-1.4579312822927823,-1.1803374061262963,-3.26815544100205,-0.30786883986006763,4.103898834096352,-0.04336548296376737,-0.02161854146387457,0.014251554363579399,-0.03811782964385902,0.005719750554740575,0.015272596017608797,-0.3030896186828613,0.3560664355754852,1.1514034271240234,0.0993846505880355,-0.1228569224476814,0.1992375552654266
1749042019.7031126,4.664401471997925,-1.4579779196737057,-1.1803100361629497,-3.268233078396065,-0.307860944996544,4.103929643104921,-0.044505357095068906,-0.022348898845460055,0.014617414724097716,-0.039215538056987506,0.005926334877128974,0.015832938356646547,-0.2981412410736084,0.3741814196109772,1.158759355545044,0.1146632730960846,-0.1260836124420166,0.1958197802305221
1749042019.703149,4.66430973456428,-1.458025590575693,-1.1802817445811635,-3.2683127466218282,-0.30785277234805564,4.103962173441486,-0.04570467465458215,-0.02310607708375868,0.015046674615494781,-0.04033775537020717,0.006129088299062006,0.016376926951769094,-0.3123129606246948,0.3399911224842071,1.1791040897369385,0.1091260537505149,-0.1019238978624343,0.1915967166423797
1749042019.7032535,4.664215180911326,-1.4580741401598012,-1.1802523712718402,-3.2683945332402904,-0.30784415562479406,4.103996424760276,-0.04696876587853174,-0.023885081647466413,0.015537406735913523,-0.04148195323972461,0.006332616370153303,0.016901362233453912,-0.3091104328632355,0.3270048797130584,1.1734752655029297,0.1058437675237655,-0.0935143083333969,0.1854251027107238
1749042019.705028,4.664117764848879,-1.458123481517418,-1.1802217705629672,-3.2684785408567127,-0.3078349247701481,4.104032369194557,-0.048300974181463105,-0.024680527455801425,0.016086061882856634,-0.042646846161320404,0.00654100649539677,0.01740646062234991,-0.323971688747406,0.3162376582622528,1.181529879570007,0.0763243585824966,-0.1079304367303848,0.2009728401899337
1749042019.7503102,4.664017445120171,-1.4581736038397908,-1.1801898140678646,-3.268564883520951,-0.30782491767627174,4.104069953964463,-0.04970239484018876,-0.025486965925562627,0.016687741450533672,-0.04383231546925807,0.0067571653766916925,0.01789538703588385,-0.3298433125019073,0.3173331618309021,1.1847389936447144,0.0786005109548568,-0.0942102521657943,0.1880183666944503
1749042019.750357,4.6639141863934634,-1.458224571130355,-1.180156392109088,-3.26865368086865,-0.3078139941823512,4.104109104874875,-0.05117181742560315,-0.026299298388647006,0.01733654557784784,-0.04503933707073763,0.006982252566914644,0.018373566977306372,-0.3516126573085785,0.327692449092865,1.1918014287948608,0.106108970940113,-0.082244649529457,0.1779936850070953
1749042019.7503974,4.663807960595149,-1.4582765118336847,-1.180121414185266,-3.2687450508290232,-0.3078020512689409,4.104149730458322,-0.052705884111345816,-0.027113256161198505,0.01802598385925796,-0.046269979951219925,0.007215306667946303,0.01884784478432898,-0.3354496955871582,0.2954963445663452,1.2188218832015991,0.0944572165608406,-0.0970036089420318,0.1819956749677658
1749042019.7504406,4.663698747352047,-1.458329601769106,-1.1800848088258027,-3.268839102043434,-0.3077890372668276,4.104191726267073,-0.05429944133270529,-0.027925896165169647,0.018749428014137887,-0.047527464264402186,0.007453144953555844,0.01932557002357966,-0.3646875023841858,0.3017676472663879,1.2082258462905884,0.08425123244524,-0.0816993713378906,0.1938634663820266
1749042019.7504802,4.663586532210356,-1.4583840440504743,-1.1800465229486898,-3.2689359271998706,-0.3077749623322802,4.104234978899519,-0.055946025612894176,-0.02873604189160267,0.019500574287183468,-0.048816205568492976,0.007690576528821493,0.019813710638750055,-0.3386699259281158,0.2948867678642273,1.1977168321609497,0.0790373235940933,-0.0799994468688964,0.1857204586267471
1749042019.7505252,4.663471302038491,-1.4584400495203405,-1.1800065206916985,-3.2690355983252224,-0.30775990269044184,4.104279369706367,-0.05763839958684217,-0.029544594925479915,0.020273869317399964,-0.050141750701076127,0.007920908701990111,0.020318104757317778,-0.3456734120845794,0.3061607778072357,1.213338017463684,0.0869953632354736,-0.0808904618024826,0.1892400085926056
1749042019.7505636,4.66335303817378,-1.4584978199632714,-1.1799647817399757,-3.269138164727334,-0.30774399724647045,4.104324778530718,-0.05936905223903126,-0.030354652128672503,0.021064844801297833,-0.051510527289466056,0.008136668949941455,0.02084295988240963,-0.3468481600284576,0.3156212866306305,1.218065857887268,0.1050813943147659,-0.0691180229187011,0.2029369473457336
1749042019.7506013,4.663231708821039,-1.4585575349409263,-1.1799212993187,-3.2692436537823264,-0.3077274367178201,4.104371088086672,-0.06113060049210943,-0.031171387148633996,0.021870311771827248,-0.05292937040080418,0.00833043520929288,0.021390674875115076,-0.3456522822380066,0.2561047673225403,1.2231334447860718,0.084637776017189,-0.0710031688213348,0.1909951120615005
1749042019.7506382,4.663107262667996,-1.4586193422184068,-1.1798760780453001,-3.269352074280381,-0.30771044673599546,4.104418189611729,-0.06291606884610974,-0.032001688515883434,0.022688385083190876,-0.05440485131658949,0.008495672491963955,0.02196199509657594,-0.3739981055259704,0.2706341743469238,1.215995192527771,0.0564207136631011,-0.0686059296131134,0.1943391412496566
1749042019.7506752,4.662979625619199,-1.458683351560166,-1.1798291316588874,-3.2694634217600522,-0.3076932670072531,4.104465990200257,-0.06471906464193584,-0.03285358261152905,0.023518335244992267,-0.05594250267450486,0.008627499930842192,0.0225564303861082,-0.3635707497596741,0.2569226920604706,1.2132282257080078,0.0608156993985176,-0.0585155598819255,0.2020372301340103
1749042019.7507124,4.662848701990493,-1.4587496318879885,-1.1797804804176844,-3.2695776851526914,-0.30767612883254636,4.1045144215937555,-0.06653389457775469,-0.03373549785024763,0.02436029061088239,-0.0575460776429846,0.008723336109101995,0.02317279830765176,-0.350583553314209,0.2951927185058594,1.2200475931167605,0.0676136240363121,-0.0775953531265258,0.1875895410776138
1749042019.750749,4.6627143805494535,-1.4588182119799644,-1.1797301479484104,-3.269694853962171,-0.30765923335806955,4.104563449187631,-0.0683556729456012,-0.03465544010791381,0.025214834366952557,-0.05921696845079277,0.008783376795316392,0.023809729951810993,-0.3915162980556488,0.259189248085022,1.2259583473205566,0.079088270664215,-0.0775129795074462,0.1826385557651519
1749042019.7507858,4.662576544633107,-1.458889084700936,-1.179678157649865,-3.2698149251375015,-0.30764273283853383,4.104613079131067,-0.0701804496443645,-0.03562015403190913,0.026082553803339206,-0.060953849657757846,0.00881085007017835,0.02446600519257049,-0.3629725575447082,0.2252701818943023,1.2284024953842163,0.0663892775774002,-0.0840135067701339,0.1868531852960586
1749042019.7508223,4.662435084482674,-1.45896221417599,-1.1796245291456158,-3.2699379089757254,-0.30762671691601295,4.104663361353519,-0.07200534482727398,-0.03663435119836059,0.026963599024070768,-0.0627525438817991,0.00881198575084657,0.025140656585716684,-0.37462317943573,0.2258438616991043,1.212599515914917,0.0830537527799606,-0.0692975670099258,0.2004449069499969
1749042019.7508583,4.662289909195268,-1.4590375447217492,-1.1795692753709393,-3.27006383389793,-0.3076112055096322,4.104714387345397,-0.07382863701464625,-0.037700093154411904,0.027857295952528498,-0.0646060673845114,0.008795649397485816,0.025832864038184314,-0.353914350271225,0.2377784997224807,1.2354469299316406,0.0419817790389061,-0.0743876844644546,0.1881081610918045
1749042019.7508943,4.66214095557702,-1.4591150101761687,-1.1795124006320994,-3.270192750475942,-0.30759614924693257,4.104766283011221,-0.0756497330411496,-0.038816409773790715,0.028761844962320347,-0.06650480772555946,0.008772636684200934,0.02654172300093939,-0.3933877050876617,0.1935528665781021,1.223189353942871,0.0744104534387588,-0.0771055966615676,0.1908268183469772
1749042019.7509303,4.66198819183453,-1.459194542561542,-1.1794538997285784,-3.2703247351825255,-0.3075814372846553,4.10481919807569,-0.07746896267507525,-0.0399792004666009,0.02967413111030558,-0.06843680112752132,0.008754692223504694,0.02726599204714465,-0.4053271412849426,0.224910631775856,1.229115605354309,0.0600027367472648,-0.0704745799303054,0.1907005608081817
1749042019.7509692,4.661831615301118,-1.459276079393989,-1.179393758216215,-3.2704598938386287,-0.3075669111481561,4.104873293885757,-0.07928718529654397,-0.041181418909000844,0.030589671946983758,-0.07038809385656396,0.008753381315966483,0.028003914909737672,-0.3144303560256958,0.2206103056669235,1.236045479774475,0.0782445296645164,-0.0521282777190208,0.1919552087783813
1749042019.7510085,4.661671244780858,-1.4593595691364762,-1.1793319540095877,-3.2705983639898184,-0.3075523824360548,4.104928731190795,-0.0811052535501397,-0.04241350690723928,0.031502724356464375,-0.07234318029310396,0.008778974354665915,0.028753177165216946,-0.4014737010002136,0.1811850517988205,1.2290527820587158,0.0580878257751464,-0.0567852072417736,0.2024340331554412
1749042019.7510457,4.661507109162755,-1.4594449744780686,-1.1792684605633514,-3.270740314913111,-0.3075376520814292,4.104985659117634,-0.08292343042207871,-0.043664033206663636,0.032406558065378885,-0.07428551456988797,0.00883948724603618,0.029511007379985632,-0.4083940684795379,0.2058134526014328,1.217714786529541,0.0626166611909866,-0.0648946985602378,0.1940810978412628
1749042019.7510822,4.661339234582363,-1.4595322735772758,-1.179203251697853,-3.2708859437594757,-0.30752252902525334,4.105044206355355,-0.08474088997518477,-0.04492049368922409,0.03329388287394568,-0.07619809972064333,0.008939967756715286,0.030274378509772052,-0.4053606390953064,0.2012487947940826,1.2173463106155396,0.064797468483448,-0.0449314303696155,0.1856363713741302
1749042019.751119,4.661167632591495,-1.4596214599106205,-1.1791363077119126,-3.2710354664197623,-0.3075068463924192,4.105104475347757,-0.08655543523481705,-0.04617021720266349,0.03415739395126176,-0.07806416452974942,0.009082057891693907,0.031040226653612564,-0.4345955848693847,0.2150501012802124,1.2219820022583008,0.0609972923994064,-0.0515042506158351,0.2024764716625213
1749042019.751228,4.660992291564826,-1.4597125414597372,-1.1790676219069678,-3.271189102173916,-0.3074904736823012,4.105166539800314,-0.0883635283072567,-0.047401295514545146,0.03499037867793573,-0.07986793270580293,0.009263825357485182,0.0318055993992305,-0.4394193291664123,0.2183217257261276,1.199543595314026,0.0566464699804782,-0.0195964872837066,0.1881361901760101
1749042019.753046,4.660813173134173,-1.459805539638004,-1.1789972063466285,-3.27134705225416,-0.30747332423518975,4.105230445069037,-0.09016065848187012,-0.04860343751965092,0.035787314396205354,-0.08159546868461597,0.009479850111617727,0.03256767955039932,-0.4109641313552856,0.2362273633480072,1.19041645526886,0.0576061569154262,-0.0421594083309173,0.2089957445859909
1749042019.794291,4.660630214957916,-1.4599004880232342,-1.178925095797625,-3.271509474077547,-0.3074553581271511,4.105296210318914,-0.09194200318758228,-0.049768653457897265,0.03654438793114616,-0.08323555659708158,0.009721562340268294,0.03332368792131262,-0.4167077541351318,0.2434344887733459,1.21703040599823,0.0464640036225318,-0.0290179625153541,0.2032789140939712
1749042019.7943373,4.660443340299862,-1.4599974308560706,-1.1788513491853347,-3.2716764546798447,-0.30743658133413115,4.105363831071747,-0.09370328317951972,-0.050891703860640784,0.0372598922269297,-0.08478054155856035,0.009977839022198346,0.03407072638977618,-0.3596949279308319,0.2272339612245559,1.2274399995803833,0.0740463286638259,-0.0139525150880217,0.1979976594448089
1749042019.794377,4.660252473229043,-1.4600964212487346,-1.1787760481884269,-3.2718479882690716,-0.3074170422796996,4.105433281078844,-0.09544167691452154,-0.05197028995611638,0.03793449294603076,-0.08622704431164922,0.01023586324749898,0.034805657148479,-0.3596949279308319,0.2272339612245559,1.2274399995803833,0.0740463286638259,-0.0139525150880217,0.1979976594448089
1749042019.7944157,4.660057556007195,-1.4601975190385479,-1.1786992926916322,-3.272023963247275,-0.30739682667508567,4.105504513204891,-0.09715664079786562,-0.05300500545909354,0.038571379782779296,-0.08757646233024541,0.010482222712573019,0.0355251148163004,-0.4297605156898498,0.2074523121118545,1.2156394720077517,0.0450152158737182,-0.0389306992292404,0.1784688830375671
1749042019.7944522,4.6598585637484105,-1.4603007882758279,-1.1786211930390387,-3.272204162891925,-0.30737605099883586,4.105577459703202,-0.09885049248598546,-0.05399910062508523,0.03917630259121895,-0.08883518881999851,0.010704171844586047,0.036225715841193024,-0.431627869606018,0.2050069272518158,1.1850478649139404,0.0568507760763168,0.0031422898173332,0.2059705257415771
1749042019.79449,4.659655512074929,-1.4604062943674716,-1.1785418596823856,-3.272388280927519,-0.3073548544745617,4.105652032454815,-0.1005286525557888,-0.054958116779656466,0.03975745327980083,-0.09001449324313408,0.010890924676659435,0.036904475414986426,-0.4266380965709686,0.2151907831430435,1.184228777885437,0.0951637029647827,-0.0024120844900608,0.1865937411785125
1749042019.7945309,4.659448456050636,-1.4605141007667164,-1.178461391660314,-3.2725759494800215,-0.3073333894353357,4.1057281236318355,-0.10219948416303364,-0.05588943434236157,0.04032512852162697,-0.09113000904132162,0.011034809742263106,0.03755938293620622,-0.433000385761261,0.1967924237251281,1.1842873096466064,0.0664375871419906,-0.0151290688663721,0.1961528956890106
1749042019.7945683,4.659237481537596,-1.4606242649808854,-1.178379865795399,-3.2727667742267212,-0.30731181047589556,4.10580560741774,-0.10387370688666775,-0.05680175413955259,0.04089112366924871,-0.09220080167641202,0.011132119086107665,0.03819003845951518,-0.4035371541976928,0.2051284611225128,1.1937634944915771,0.0524162799119949,-0.0298664662986993,0.2124416828155517
1749042019.794605,4.659022691973704,-1.4607368338902176,-1.1782973283028553,-3.2729603709285047,-0.30729026328262565,4.105884343861812,-0.1055634016622351,-0.05770451477552753,0.04146785648486533,-0.0932480701030926,0.011183517839670896,0.03879822259404391,-0.4500451385974884,0.2085262387990951,1.189132571220398,0.0498240068554878,-0.0378599464893341,0.1828295886516571
1749042019.7946415,4.658804194132539,-1.4608518389122274,-1.1782137899298757,-3.273156398513668,-0.30726887406448644,4.105964185933417,-0.10728068310540133,-0.05860724314154161,0.0420672706494964,-0.09429363291863109,0.011193938930192496,0.0393882633699718,-0.4707787930965423,0.2190453112125396,1.193632960319519,0.0548581108450889,-0.0290169417858123,0.2091358751058578
1749042019.7946787,4.6585820858788916,-1.460969291983803,-1.1781292251703597,-3.2733545854732466,-0.3072477401371986,4.106044989952628,-0.10903618463141918,-0.05951884158437991,0.042699608241329,-0.0953584014823984,0.01117196379830088,0.03996707723379372,-0.4409995079040527,0.2020760774612426,1.2025294303894043,0.0350158065557479,-0.0141948871314525,0.1836884468793869
1749042019.7947154,4.658356447636318,-1.461089183311025,-1.178043575706052,-3.2735547477705333,-0.30722692184476985,4.106126628273005,-0.11083755779752553,-0.06044683420036774,0.04337217226972414,-0.09646102312277027,0.011128777397360087,0.04054380012201383,-0.3476315438747406,0.2122429311275482,1.205511212348938,0.0676472410559654,-0.0199083425104618,0.185085579752922
1749042019.7947557,4.658127337917021,-1.4612114813962738,-1.1779567579300156,-3.273756797455004,-0.30720643597322195,4.106209002187186,-0.1126882183308186,-0.061396622198781774,0.04408822655676047,-0.09761682024804363,0.011076865925128628,0.041128990571242925,-0.3764283657073974,0.213795006275177,1.1983562707901,0.0577484890818595,-0.0101263411343097,0.1891559660434723
1749042019.794793,4.6578947925004135,-1.4613361352427703,-1.1778686739763902,-3.2739607418440997,-0.3071862511534994,4.106292052907556,-0.11458657581005013,-0.062370825433199155,0.04484619132367758,-0.09883709823262919,0.01102867359676927,0.04173347488415904,-0.429484874010086,0.2248479723930359,1.1961472034454346,0.0536688044667243,-0.0018823333084583,0.1995240449905395
1749042019.7948294,4.657658826739894,-1.461463078059291,-1.1777792250153198,-3.274166673833044,-0.3071662862577231,4.106375768979201,-0.11652594964056247,-0.06336880704259013,0.045639280490488134,-0.1001288635873699,0.010995433146056022,0.04236699519532101,-0.4624598622322082,0.1755720973014831,1.2130892276763916,0.0361654758453369,0.0106254294514656,0.2110463380813598
1749042019.7948656,4.657419440476746,-1.4615922314537773,-1.1776883249369894,-3.2743747547636834,-0.30714641310764207,4.106460189230359,-0.1184952747072735,-0.06438648566627189,0.04645568872325653,-0.10149497077449028,0.010986332652865227,0.043036885295917725,-0.4582249522209167,0.1890162229537964,1.1823182106018066,0.0224440097808837,0.0099923089146614,0.2031114399433136
1749042019.794902,4.657176624754097,-1.46172350925194,-1.1775959123633668,-3.27458519217085,-0.30712646452578163,4.106545401059622,-0.12048052893149598,-0.06541652420717983,0.0472793736506097,-0.10293467550791746,0.01100809097556938,0.043747009851217225,-0.4076603949069977,0.2248554974794387,1.16283118724823,0.0245569720864295,-0.0061095841228961,0.1783703714609146
1749042019.794938,4.656930369176426,-1.4618568207040021,-1.177501959330798,-3.274798215381656,-0.30710624773416373,4.1066315343630215,-0.12246662065963348,-0.06644893796084693,0.048091399902351985,-0.10444450872249239,0.011064907975714406,0.0444971511894281,-0.4225914478302002,0.1846888214349746,1.1973702907562256,0.0175844244658947,-0.0078905224800109,0.1986556500196457
1749042019.7949746,4.65668066870158,-1.4619920735655072,-1.1774064757135947,-3.275014052230817,-0.3070855617601258,4.106718751708938,-0.12443934574016498,-0.06747210158268505,0.04887173294661437,-0.10601932385447378,0.011158667214199893,0.04528293204060032,-0.4310617446899414,0.1879687309265136,1.1821885108947754,0.0194538086652755,-0.0031285732984542,0.2117705047130584
1749042019.7950108,4.656427528882056,-1.4621291778610546,-1.1773095091512182,-3.2752329099657786,-0.3070642165470008,4.1068072355297875,-0.12638702679062883,-0.06847407412942054,0.04960130125011397,-0.1076533403396732,0.011289233475699535,0.04609626030927074,-0.4198023080825805,0.1832986027002334,1.1475746631622314,0.0091761574149131,-0.0075605474412441,0.1908844709396362
1749042019.7951093,4.6561709689488024,-1.4622680507994466,-1.1772111407638048,-3.2754549626267218,-0.30704205128947004,4.106897173229401,-0.12830157502625977,-0.06944410364466422,0.050264084735081364,-0.10934101451239936,0.011454721345670164,0.04692620440754105,-0.3883407115936279,0.2232664078474044,1.1207599639892578,0.0224702134728431,0.0071588680148124,0.1704782843589782
1749042019.797008,4.655911022570939,-1.4624086224275696,-1.1771114773338116,-3.27568034589561,-0.30701894993157425,4.1069887413978625,-0.1301789045806577,-0.0703741118233923,0.05084895023710894,-0.11107760344239255,0.011651694239298578,0.047760160603447406,-0.437394380569458,0.1875175386667251,1.148474931716919,0.0125030577182769,0.0107436031103134,0.2026083916425705
1749042019.838303,4.655647736478356,-1.4625508407494225,-1.1770106409456635,-3.2759091590213565,-0.30699485228684903,4.107082090859707,-0.1320187988155285,-0.07125991693105452,0.05135097279579926,-0.11285933721368244,0.011875338219900273,0.04858514779852707,-0.4287202060222626,0.2426020801067352,1.1488796472549438,-0.0045166015625,0.0117508023977279,0.1980227828025818
1749042019.8383515,4.655381167251079,-1.4626946748910623,-1.1769087573314045,-3.276141472300059,-0.30696975960516243,4.107177334730703,-0.13382441798532,-0.0721019648635504,0.05177206404836892,-0.11468317144718908,0.012119696089818171,0.04938905407324351,-0.4376057088375091,0.220895305275917,1.1525928974151611,0.0276832431554794,0.0247119516134262,0.2136898189783096
1749042019.8383925,4.65511137654945,-1.4628401156021273,-1.1768059443582848,-3.276377337736259,-0.3069437337887818,4.10727454147848,-0.1356016358807964,-0.07290541323590134,0.052120840697466274,-0.11654614297812606,0.012378028938483294,0.05016166489026525,-0.4302546679973602,0.2890265583992004,1.1414833068847656,0.0286675319075584,0.0266116112470626,0.1953280419111251
1749042019.8384316,4.654838425142863,-1.4629871733559079,-1.1767023021528196,-3.276616799896445,-0.30691689017155555,4.107373733978817,-0.13735833243468484,-0.0736795261971879,0.052411766967147354,-0.11844440307196075,0.012643313396571597,0.05089533213753474,-0.4554529190063476,0.1971082985401153,1.1392332315444946,0.0052904523909091,0.0295349434018135,0.1864086091518402
1749042019.8384693,4.6545623663792375,-1.4631358748553398,-1.1765979062025376,-3.2768599038697883,-0.30688938488919326,4.107474894096497,-0.13910369803397113,-0.07443645582553678,0.05266368709105876,-0.12037207602835247,0.012908818340817007,0.05158520622544056,-0.4303463399410248,0.2052658498287201,1.1438850164413452,-0.0035020262002944,0.0168278515338897,0.2036462128162384
1749042019.8385105,4.654283239954907,-1.463286258692538,-1.1764928043641816,-3.2771066980225263,-0.30686139893338743,4.1075779710025495,-0.14084755489398024,-0.07518958918023592,0.0528979346672417,-0.12232017931078173,0.013168663991659198,0.0522290515696702,-0.4414334893226623,0.2290684580802917,1.1640839576721191,-0.0018321424722671,0.015613667666912,0.204024001955986
1749042019.8385491,4.654001066630488,-1.4634383705976657,-1.176387018057118,-3.2773572307433216,-0.3068331212944253,4.107682890756877,-0.14259967631570153,-0.07595171258993486,0.05313625885378216,-0.12427589517046586,0.013418262329057814,0.05282677508168215,-0.416750818490982,0.193970650434494,1.1774622201919556,-0.0157424509525299,-0.0015419796109199,0.2100749611854553
1749042019.8385856,4.653715843954543,-1.4635922586149346,-1.1762805471367321,-3.2776115420034144,-0.3068047330375625,4.1077895648302425,-0.14436908251289748,-0.07673327347646099,0.05339882608463562,-0.12622246090485553,0.013654568693231027,0.05337987036681146,-0.4913150072097778,0.1726263761520385,1.1911271810531616,-0.0089786946773529,0.0341626480221748,0.1997731626033783
1749042019.838622,4.6534275427041125,-1.4637479687279078,-1.1761733772178022,-3.277869651740797,-0.3067763933981237,4.107897896023472,-0.14616331450847916,-0.0775410032054734,0.05370253219435434,-0.12813984459413358,0.013876127247136995,0.05389097750547728,-0.4769407212734222,0.175969123840332,1.1919037103652954,-0.0229258090257644,0.0465560406446456,0.2079845368862152
1749042019.8386629,4.653136104098984,-1.4639055415536735,-1.1760654877728034,-3.278131547714706,-0.30674822855961453,4.108007781231975,-0.14798773043615995,-0.07837710489198232,0.05405980021107818,-0.13000622167587672,0.014082945963011304,0.05436368068812021,-0.4501386880874634,0.1815353780984878,1.197373628616333,-0.0228767544031143,0.0397593490779399,0.2082448303699493
1749042019.8387,4.652841438551502,-1.4640650104248982,-1.17595685928097,-3.278397175657224,-0.3067203235686134,4.10811911140788,-0.14984490481250726,-0.07923911274629498,0.05447795803553717,-0.13180009957228186,0.014276268031716114,0.05480255287032949,-0.4563227891921997,0.1807650327682495,1.2122418880462646,-0.0006070211529731,0.0169379971921443,0.2088777720928192
1749042019.8387363,4.652543426958003,-1.4642264005873975,-1.1758474780553054,-3.2786664342300433,-0.30669271758411026,4.108231769873371,-0.15173421443436969,-0.08012041615646501,0.05495920333603793,-0.13350279177147675,0.014458307891496332,0.0552133531499468,-0.4656901359558105,0.1912763267755508,1.1970850229263306,0.0053123203106224,0.0390490256249904,0.177308440208435
1749042019.8387733,4.6522419250686,-1.4643897287397916,-1.1757373380962826,-3.278939176437561,-0.3066654023812599,4.108345630788061,-0.15365166893675047,-0.08101134442765617,0.05550108570209254,-0.13510085840406263,0.014632001392707188,0.05560322004158673,-0.4800244271755218,0.2022203654050827,1.1999045610427856,-0.0002822503447532,0.0236852131783962,0.174959123134613
1749042019.8388093,4.65193677088302,-1.4645550020368268,-1.1756264402277259,-3.2792152179566534,-0.30663832380717354,4.108460559771795,-0.15559001367081682,-0.0819006428518391,0.05609738183846554,-0.1365881297291998,0.014800796721539037,0.05598070392571118,-0.3945479989051819,0.1655978858470916,1.207455039024353,-0.0017160773277282,0.0388274155557155,0.1934207677841186
1749042019.8388462,4.651627794804697,-1.464722216022938,-1.1755147894142208,-3.279494351652922,-0.3066113857170333,4.108576418151228,-0.1575391085631204,-0.08277713282589033,0.05673921446288418,-0.13796700060257824,0.0149684936679027,0.05635555164807792,-0.4605870842933655,0.1925548017024994,1.2100791931152344,0.0352726131677627,0.0429963059723377,0.21230548620224
1749042019.8388834,4.651314832141158,-1.464891351637135,-1.1754023911391989,-3.2797763665603292,-0.30658445584747007,4.108693071177939,-0.15948656780714374,-0.08363133108310203,0.05741626727402882,-0.13924879713192806,0.015139123895054467,0.05673826466001569,-0.4506554901599884,0.2067209333181381,1.2130043506622314,0.0103434771299362,0.0672512799501419,0.2082056701183319
1749042019.8389204,4.650997737040443,-1.4650623722209417,-1.1752892471180094,-3.2800610688188288,-0.30655737319918613,4.108810399369607,-0.1614186353956954,-0.08445680658749659,0.0581179703585624,-0.14045315104314487,0.015316852765420634,0.057139534164515136,-0.4615405201911926,0.2348511815071106,1.2314001321792605,0.0043840706348419,0.061422660946846,0.2038496434688568
1749042019.838963,4.650676396342275,-1.4652352219947182,-1.175175349993143,-3.2803483015325803,-0.30652995675711486,4.108928311250411,-0.16332126985325263,-0.08525108298600013,0.058834563143644054,-0.14160645833717386,0.01550587301668469,0.057569665526704256,-0.4900978505611419,0.2158564329147339,1.232030749320984,0.0064396262168884,0.0473651364445686,0.2045637518167495
1749042019.8390126,4.6503507415364105,-1.4654098273002785,-1.17506067662289,-3.280637960447526,-0.3065020155688628,4.109046755275446,-0.16518139665672812,-0.0860159528196864,0.05955797214956446,-0.14273961909386124,0.015710252356576415,0.05803805516019641,-0.4767473340034485,0.1911156326532364,1.2332680225372314,-0.0033644922077655,0.0575564503669738,0.2058662474155426
1749042019.8390522,4.650020757026873,-1.4655861009458746,-1.1749451802878024,-3.2809300029573425,-0.30647336018305266,4.1091657285733705,-0.16698823668772583,-0.08675715411149268,0.06028245798001391,-0.14388532877955607,0.01593369605919879,0.05855273137551191,-0.4506191909313202,0.2485043406486511,1.2254502773284912,-0.0172574520111084,0.0430473163723945,0.2038399577140808
1749042019.83916,4.6496864831796065,-1.4657639487412568,-1.1748287831366384,-3.2812244491344207,-0.3064438152214143,4.10928528039648,-0.16873454851429015,-0.08748345880235692,0.06100499378079769,-0.14507521423564881,0.016179201012512672,0.05911995228058814,-0.5073660612106323,0.2084222733974456,1.249720811843872,-0.0141139328479766,0.0509111210703849,0.2031404227018356
1749042019.8410215,4.649348013617421,-1.465943276502199,-1.1747113707891474,-3.2815213748720504,-0.3064132324611849,4.109405508949917,-0.17041758264204138,-0.08820531770017492,0.06172535155497172,-0.1463370909226754,0.016448613134840705,0.05974386302757178,-0.4665736854076385,0.2305309474468231,1.2498302459716797,-0.0257259830832481,0.047251883894205,0.2171640843153
1749042019.8822858,4.6490054879056455,-1.4661239957662107,-1.174592790865421,-3.2818208984170334,-0.3063815033336449,4.109526551505241,-0.1720395757503556,-0.08893328001203192,0.06244590149836937,-0.14769257827759433,0.01674214800067713,0.060426229131462374,-0.4769718945026397,0.1812528520822525,1.2200424671173096,-0.0136331021785736,0.062917061150074,0.2231345325708389
1749042019.882332,4.648659082031355,-1.466306026977673,-1.1744728564610425,-3.282123162325055,-0.30634856943075717,4.109648568968498,-0.173607698792051,-0.08967644433936434,0.06317116330795072,-0.1491552666359432,0.01705797885497722,0.06116627121638871,-0.433870404958725,0.2241470515727996,1.2450361251831057,-0.044013537466526,0.0899800211191177,0.2167599350214004
1749042019.882372,4.648308998882201,-1.466489299574666,-1.1743513546106568,-3.2824283131558687,-0.30631442961902267,4.109771726916738,-0.17513347041821486,-0.09044119414627345,0.06390717745662239,-0.15072959262253352,0.017392017176785405,0.0619606311548043,-0.4744742512702942,0.2287673205137252,1.2957249879837036,-0.0145248472690582,0.0866419896483421,0.2265366017818451
1749042019.88241,4.647955459611909,-1.4666737490794142,-1.1742280589183298,-3.2827364811767943,-0.3062791425705928,4.109896175479724,-0.1766317277516972,-0.09123041941024328,0.06466078846020619,-0.1524105402655784,0.017737991175341382,0.06280349939725634,-0.5092905163764954,0.201867401599884,1.2807681560516355,-0.0427427142858505,0.0914294347167015,0.2272739708423614
1749042019.8824482,4.64759869552972,-1.466859312057444,-1.1741027449308754,-3.283047762106821,-0.3062428237802716,4.1100220305912085,-0.1781193025546222,-0.09204333525354128,0.06543894075863588,-0.15418422563049192,0.01808786459568997,0.06368691921938797,-0.4860659539699554,0.2103080600500106,1.2679288387298584,-0.06170155107975,0.0871750339865684,0.2215253859758377
1749042019.882486,4.6472389396698714,-1.4670459206421258,-1.1739752064828957,-3.2833622026011797,-0.3062056365837799,4.1101493592150975,-0.17961357417233062,-0.09287590389858558,0.06624806103236146,-0.15602934090555004,0.018432552132409928,0.06460125205684461,-0.4650940597057342,0.2542228698730469,1.27560293674469,-0.0007345452904701,0.0669429004192352,0.2248241007328033
1749042019.8825235,4.646876417253067,-1.467233498827541,-1.1738452711110676,-3.2836797908383972,-0.306167777571773,4.110278170977297,-0.18113105272443766,-0.09372177431550771,0.0670935445928535,-0.15791933884947223,0.018762811382072746,0.06553575333633473,-0.4866166710853576,0.210494577884674,1.2721179723739624,-0.0142482090741395,0.0838876590132713,0.2308123409748077
1749042019.8825612,4.646511334380589,-1.4674219624674025,-1.1737128126840737,-3.2840004532722915,-0.3061294580568069,4.110408417943388,-0.1826860964835472,-0.09457358102237474,0.06797931654924674,-0.15982514529134667,0.01907015264494799,0.06647919102963394,-0.4714607298374176,0.2543568015098572,1.270683526992798,-0.0342316702008247,0.081448383629322,0.2295857965946197
1749042019.882602,4.646143864598441,-1.467611223884974,-1.1735777595838446,-3.28432405825598,-0.3060908844817478,4.110540003080805,-0.18428981754823412,-0.09542438568720679,0.06890743203788283,-0.16171811923836116,0.01934761934284446,0.06742044478311209,-0.4731677174568176,0.2198327779769897,1.2857334613800049,-0.0088905245065689,0.0754902213811874,0.2142197489738464
1749042019.88264,4.645774133865189,-1.4678012007428995,-1.173440097139484,-3.284650426737377,-0.3060522412367892,4.1106727964753365,-0.18594921194424752,-0.09626900943317672,0.06987771032209276,-0.16357295231641175,0.019590344867157702,0.0683490372194238,-0.4388863146305084,0.2670469880104065,1.272544264793396,-0.0253715515136718,0.085819736123085,0.2000585794448852
1749042019.8826768,4.645402205801083,-1.4679918279623319,-1.17329986369456,-3.284979349681979,-0.3060136787684349,4.110806656956421,-0.18766656807654872,-0.0971050096743283,0.0708874400732102,-0.1653702022436798,0.019795860331779002,0.06925555648170373,-0.4743303656578064,0.2538038492202759,1.2968833446502686,-0.0188727229833602,0.0899384617805481,0.2021865546703338
1749042019.8827128,4.645028069955098,-1.4681830711078725,-1.1731571407400538,-3.2853106114776365,-0.3059753081557402,4.110941455818374,-0.18943922685700088,-0.09793311502281776,0.07193122266238744,-0.16709817466046079,0.019964183225229724,0.07013193896108062,-0.4786036014556885,0.2537189722061157,1.2856385707855225,-0.0085360556840896,0.0671240985393524,0.1848982572555542
1749042019.8827498,4.644651635369248,-1.4683749393917878,-1.1730120387299892,-3.2856440181937505,-0.30593720124968093,4.111077099167975,-0.1912597462972333,-0.0987570366960571,0.07300101867703448,-0.1687539083229703,0.020097742075433033,0.07097161514686133,-0.4376697540283203,0.2461383044719696,1.2712229490280151,-0.0123692788183689,0.0751924887299537,0.2262575030326843
1749042019.8827858,4.644272730149867,-1.46856749617701,-1.1728646810458585,-3.2859794288766326,-0.3058993940744909,4.111213546112329,-0.1931164623459649,-0.09958270213638336,0.07408642697334529,-0.1703430977320116,0.02020118652247569,0.07176957314090042,-0.447751522064209,0.2460516691207885,1.2744479179382324,-0.0351628214120864,0.0964378714561462,0.2106109857559204
1749042019.8828218,4.643891106266101,-1.4687608648992232,-1.1727151888010816,-3.286316787025216,-0.3058618910398983,4.111350821111837,-0.19499438176720363,-0.10041707745673402,0.0751751746783672,-0.17187891630930374,0.020281110246042736,0.07252241821075352,-0.4900704324245453,0.1824439316987991,1.2646619081497192,-0.0026168078184127,0.0932235494256019,0.2002509981393814
1749042019.882858,4.643506448464148,-1.4689552288618462,-1.17256366892035,-3.2866561483012555,-0.30582466824056254,4.111489019766278,-0.1968763299245923,-0.10126682959061784,0.0762537559485833,-0.17337986881945672,0.020345695057871906,0.07322846878148997,-0.4550652503967285,0.1782735288143158,1.2598333358764648,-0.008705124258995,0.0824236571788787,0.2105286568403244
1749042019.8828957,4.6431183869886725,-1.4691508241656577,-1.172410207433007,-3.286997699659249,-0.30578767491367587,4.111628307708346,-0.1987442938070391,-0.10213710555978224,0.07730813616343267,-0.17486696277544214,0.020404278402961815,0.07388785177163389,-0.4950729608535766,0.1711594313383102,1.247321605682373,0.0047873929142951,0.0897244289517402,0.2107797265052795
1749042019.8829365,4.64272651486593,-1.4693479258615907,-1.1722548691488002,-3.2873417647221874,-0.30575083265856,4.11176891227116,-0.2005809060432368,-0.10303067180999724,0.07832443358812594,-0.17636060199246512,0.020466852585212594,0.07450250361601861,-0.4698719084262848,0.1983052790164947,1.2420779466629028,0.0015071285888552,0.0953127965331077,0.2156768441200256
1749042019.882987,4.642330411006747,-1.469546828205646,-1.17209770374469,-3.2876887908780277,-0.30571403262799696,4.111911106639185,-0.20237098298452771,-0.10394757327473388,0.07928950110799066,-0.17787764958888955,0.020543515003187962,0.07507599270778384,-0.4671200513839721,0.1836241781711578,1.2228509187698364,-0.0201908200979232,0.0931156128644943,0.223141610622406
1749042019.8830276,4.641929669965265,-1.4697478206852994,-1.1719387570038362,-3.288039315636879,-0.3056771318704885,4.112055186642066,-0.2041029672544578,-0.10488536053653379,0.08019135784206323,-0.17942908045280748,0.020643894204455622,0.07561314554476115,-0.5198940634727478,0.2036870867013931,1.2229480743408203,-0.0258118957281112,0.0838309973478317,0.2260428220033645
1749042019.8831377,4.641523937796989,-1.4699511622184058,-1.1717780849003956,-3.288393913198441,-0.3056399510129295,4.112201441259636,-0.2057700680801023,-0.10583981625544471,0.08101946289343243,-0.18101854970074358,0.020776568822807658,0.07611952756934674,-0.4860009849071502,0.1527376025915146,1.2232694625854492,-0.0505583435297012,0.0878304839134216,0.2181440144777298
1749042019.885047,4.641112951212338,-1.4701570564938473,-1.1716157675481524,-3.288753126445906,-0.3056022758481768,4.112350119230694,-0.20737088875258006,-0.10680600631241002,0.08176487238634238,-0.18264205200121467,0.02094847917173688,0.07660085385433678,-0.4601619839668274,0.2442645877599716,1.218760967254639,-0.0110285766422748,0.076888233423233,0.2151526808738708
1749042019.9263103,4.640696574402535,-1.4703656318799223,-1.1714519196083397,-3.2891173939522353,-0.30556386476393,4.112501395821623,-0.20890940835063623,-0.10777940321113837,0.0824203598245362,-0.1842886572243741,0.021164321185880207,0.07706239043657548,-0.4601619839668274,0.2442645877599716,1.218760967254639,-0.0110285766422748,0.076888233423233,0.2151526808738708
1749042019.926396,4.640274825520543,-1.470576929548782,-1.1712866937862874,-3.289486984735473,-0.3055244625753726,4.112655345256804,-0.21039432209637432,-0.10875680328636537,0.08298059280133131,-0.18594212196094567,0.021425926542422025,0.07750839333505335,-0.4459539353847503,0.2089581340551376,1.212061047554016,0.0003024563193321,0.0826059654355049,0.2235358208417892
1749042019.92647,4.639847884993705,-1.4707909026396195,-1.1711202753141372,-3.289861953397075,-0.3054838198550333,4.112811924283647,-0.2118378743334021,-0.10973680998683982,0.08344243943974367,-0.18758304207351634,0.021731671408935862,0.07794164193860127,-0.4598319828510284,0.2177286595106125,1.1993556022644043,-0.0155758932232856,0.0934152007102966,0.2281894385814666
1749042019.926541,4.639416082142394,-1.4710074268225832,-1.1709528681649328,-3.2902421237131185,-0.3054417158257608,4.112970970012032,-0.21325438120848925,-0.11071978083876688,0.08380542807012517,-0.18919116054762708,0.022075999820079163,0.07836314551935394,-0.4368388056755066,0.2066604942083358,1.1846346855163574,0.0005446076393127,0.1009923666715622,0.2223593741655349
1749042019.9266114,4.638979863027375,-1.4712263197148685,-1.1707846769097823,-3.2906271015876656,-0.3053979823696915,4.113132211593635,-0.21465863361235,-0.11170729159338508,0.08407231328993675,-0.19074748566862124,0.02244917299591576,0.078772108778585,-0.4810506999492645,0.1596126556396484,1.1838359832763672,-0.0205995049327611,0.1131274402141571,0.2296904623508453
1749042019.9266794,4.638539746886472,-1.4714473653035414,-1.1706158895284886,-3.2910163124858784,-0.30535252648789346,4.1132952926658195,-0.2160643392193678,-0.11270129668053691,0.08424962906415744,-0.19223599036357078,0.022837355713175286,0.0791662164662188,-0.4730952978134155,0.2120186686515808,1.1649785041809082,-0.0054570287466049,0.1088410764932632,0.2162114083766937
1749042019.926746,4.638096279049481,-1.4716703402125777,-1.170446665300625,-3.2914090561594107,-0.30530534851612695,4.113459800721419,-0.21748274793371478,-0.11370322110499229,0.08434805875296006,-0.19364481184834278,0.02322313413234421,0.0795422444608838,-0.4982141852378845,0.1521619856357574,1.1189632415771484,-0.0307894945144653,0.0959261581301689,0.224512904882431
1749042019.9268134,4.637649986242078,-1.471895039791241,-1.1702771291788614,-3.2918045715360744,-0.30525655359069104,4.113625299898148,-0.21892160852225254,-0.11471320181419768,0.08438244437152899,-0.19496699668693857,0.023586531073405893,0.07989694825944936,-0.4740719199180603,0.1725372523069381,1.1537084579467771,-0.0131358057260513,0.1349924206733703,0.2365260422229766
1749042019.9268818,4.637201337668274,-1.4721213024040052,-1.1701073714134798,-3.2922021052181187,-0.30520635426562526,4.113791364178932,-0.22038459066879257,-0.11572963061578427,0.08437130772202375,-0.19620090064128254,0.023906532458981868,0.08022813664281367,-0.4892974495887756,0.1855198144912719,1.1647331714630127,-0.0095108896493911,0.1187142953276634,0.2407756596803665
1749042019.926952,4.636750713189233,-1.4723490301864428,-1.169937449737086,-3.2926009775459675,-0.3051550628943264,4.113957608522148,-0.22187124864161129,-0.11674906836010035,0.08433586235654347,-0.19735034855805766,0.024163048120974872,0.08053580730450055,-0.4399788975715637,0.1819037497043609,1.1681607961654663,-0.0086324252188205,0.0886521115899086,0.2153533846139907
1749042019.9270186,4.636298378750212,-1.472578204589734,-1.1697673913993973,-3.293000640874926,-0.3051030735541064,4.114123716149302,-0.22337751219362212,-0.11776652185006588,0.08429862399890493,-0.19842460613994775,0.024339109770750555,0.08082319260962426,-0.45604407787323,0.2058727294206619,1.1760168075561523,0.0010335743427276,0.0860877037048339,0.2411736696958542
1749042019.9270885,4.635844469078167,-1.47280889546348,-1.169597193384119,-3.2934007256752365,-0.30505083478020195,4.114289460902762,-0.22489660732691427,-0.11877600855709156,0.08428182518521157,-0.1994381429722793,0.02442299750305698,0.081097536749679,-0.5063007473945618,0.1797198802232742,1.1938337087631226,0.0189277082681655,0.0605922080576419,0.1860282719135284
1749042019.927151,4.635388978218559,-1.4730412629829865,-1.1694268205412848,-3.293801071098035,-0.3049988157484482,4.114454723835102,-0.22642026645276664,-0.11977128735664169,0.08430587472167647,-0.20041011033375833,0.024409935222893156,0.08137041904393176,-0.5168521404266357,0.1650344282388687,1.2184070348739624,0.0107396319508552,0.0818381458520889,0.2190950959920883
1749042019.9271898,4.634931759105835,-1.4732755521817196,-1.1692562025316642,-3.294201737520675,-0.30494746943600404,4.114619502969762,-0.22794008066573054,-0.12074661561101681,0.08438807847011638,-0.20136345009097592,0.024303038849172055,0.08165747989818915,-0.4827190041542053,0.1913845092058181,1.207129716873169,0.0243010241538286,0.062818631529808,0.2232769131660461
1749042019.9272263,4.634472533755565,-1.4735120801233836,-1.1690852312182005,-3.294602999328823,-0.30489719660517317,4.114783914964227,-0.22944884434310628,-0.12169740692077259,0.08454177677050131,-0.2023235992470189,0.02411333455275899,0.0819775019453206,-0.4474346339702606,0.1935033500194549,1.2399917840957642,0.0170057043433189,0.0576280020177364,0.1962236762046814
1749042019.9272633,4.634010915804813,-1.4737512158694654,-1.1689137605504973,-3.2950053171668845,-0.304848314279095,4.114948187675911,-0.23094172474640612,-0.12262070304434369,0.08477597231633453,-0.20331683653900726,0.02385884421646047,0.08235091262214755,-0.4123940169811249,0.1549692153930664,1.213848352432251,0.0074099004268646,0.0649406462907791,0.2098981291055679
1749042019.9272995,4.633546446743519,-1.4739933534547194,-1.168741611068848,-3.295409290463333,-0.30480103180157375,4.115112643347155,-0.23241707560483582,-0.12351542392790335,0.085095429765212,-0.20436840538829992,0.023562899639535523,0.0827978561135125,-0.4167867004871368,0.1497666388750076,1.235702633857727,0.0075612068176269,0.0624379590153694,0.2002636343240738
1749042019.9273362,4.633078645668452,-1.4742388782266134,-1.1685685807125574,-3.2958155933129656,-0.30475543663490673,4.115277672971159,-0.23387674311386286,-0.12438240148389956,0.08550113876545183,-0.20550061981654155,0.023251947883749617,0.08333602267445477,-0.4224393367767334,0.1938112378120422,1.2294760942459106,-0.0215985924005508,0.0673756897449493,0.2196049839258194
1749042019.9273725,4.632607069483297,-1.474488127464156,-1.168394462460499,-3.296224899602109,-0.3047114908516262,4.115443703253216,-0.2353258092036946,-0.12522421734457392,0.08599097089594523,-0.2067311925680695,0.022953137486123865,0.08397845607873539,-0.4561921060085296,0.1822261959314346,1.2224208116531372,-0.0222401320934295,0.0600799806416034,0.2247655391693115
1749042019.9274087,4.632131376660478,-1.4747413476506939,-1.168219067383241,-3.2966378061915105,-0.30466903807905976,4.115611158620518,-0.2367718592616307,-0.1260448560790648,0.08656035298446968,-0.20807199863478498,0.022691951262350445,0.08473160741720165,-0.4437957406044006,0.1894925385713577,1.2244545221328735,-0.0033722221851348,0.0796316415071487,0.2406893372535705
1749042019.9275386,4.631651383989474,-1.474998653287663,-1.1680422492003906,-3.2970547653652376,-0.304627819680919,4.1157804221203955,-0.23822398218852656,-0.12684918483658505,0.08720283127253446,-0.2095284083116043,0.02249010674039775,0.08559393541548521,-0.4437957406044006,0.1894925385713577,1.2244545221328735,-0.0033722221851348,0.0796316415071487,0.2406893372535705
1749042019.929063,4.631167103754611,-1.4752599947098912,-1.1678639243923288,-3.297476038464321,-0.3045874981991338,4.115951800400722,-0.23969174185795064,-0.12764230127145704,0.08791049562741113,-0.2110992206467409,0.022363899778864108,0.0865553168911969,-0.4681824445724487,0.1842686086893081,1.2701696157455444,-0.0185183063149452,0.0969458371400833,0.2332710027694702
1749042019.9702897,4.63067875084187,-1.4755251427967713,-1.1676840818463026,-3.297901679913089,-0.3045476854933901,4.116125498187124,-0.24118429233594532,-0.12842883425163557,0.08867433097571376,-0.21277713274553717,0.02232312302804135,0.08759741087371294,-0.4534001648426056,0.2420177459716797,1.2889633178710938,-0.0088912397623062,0.0773934423923492,0.230280339717865
1749042019.9703386,4.630186716449247,-1.4757936952903343,-1.167502778677318,-3.2983315540297546,-0.30450797272027263,4.116301605925188,-0.24270970413047524,-0.12921230023778502,0.08948461643358922,-0.21454961496412603,0.022370639107545984,0.08869495656673655,-0.4569189548492431,0.1902215182781219,1.2826262712478638,-0.0211902409791946,0.0923949033021926,0.2388847172260284
1749042019.9703796,4.629691514340239,-1.4760651040899702,-1.167320122976694,-3.2987653787863773,-0.3044679593549761,4.116480101247952,-0.24427449734866846,-0.12999461023923267,0.09033147220823788,-0.21640003614756875,0.02250262134699172,0.08981783748613215,-0.4857423603534698,0.1909056305885315,1.2791600227355957,-0.0398340374231338,0.0856914669275283,0.2255484163761139
1749042019.970418,4.629193711569606,-1.476338718655873,-1.1671362474161784,-3.2992027855493724,-0.3044272787949017,4.116660862342113,-0.24588335884857476,-0.13077581387574141,0.09120557093164174,-0.21830889040414392,0.0227093970526596,0.09093364808664076,-0.5001059770584106,0.1633201390504837,1.281955599784851,-0.0338804237544536,0.0916329696774482,0.2302598357200622
1749042019.970456,4.6286938560829896,-1.4766138391869619,-1.1669512786733887,-3.299643383493511,-0.3043856186568449,4.11684369000238,-0.24753901602048634,-0.1315541638751247,0.09209892780433625,-0.2202549977017443,0.022976753724711124,0.09201046081690287,-0.4770268201828003,0.1714802384376526,1.2912468910217283,-0.0346657745540142,0.0648290738463401,0.2168038785457611
1749042019.9704936,4.62819241072859,-1.476889773702024,-1.1667653071979995,-3.300086819810235,-0.30434273469255096,4.117028334902978,-0.24924222096222887,-0.1323265588113248,0.09300560968196861,-0.2222165710674101,0.023287515119859176,0.09301950126576991,-0.4478588402271271,0.1970167607069015,1.2336015701293943,-0.0185149013996124,0.0958269163966178,0.2321959435939788
1749042019.9705317,4.627689699889662,-1.4771658940903778,-1.1665783610536176,-3.300532829583482,-0.304298458199042,4.117214526894879,-0.2509917913560883,-0.13308935080397669,0.09392217972096227,-0.22417207328372665,0.023623177654347467,0.09393748271233657,-0.4975969791412353,0.1674697399139404,1.2749592065811155,-0.0316551327705383,0.0814019441604614,0.2283313125371933
1749042019.970569,4.627185872276933,-1.4774416868863567,-1.166390386954227,-3.300981271452313,-0.30425269770078506,4.117402003674803,-0.25278469284437305,-0.13383939949976345,0.09484772282930219,-0.22610084557770702,0.023965424925058754,0.094748409488751,-0.5718424916267395,0.219398558139801,1.2632741928100586,-0.0374870039522647,0.0859316885471344,0.2309354543685913
1749042019.9706063,4.626680881430183,-1.4777167948707908,-1.166201241078552,-3.3014321469726116,-0.3042054362892692,4.1175905366944825,-0.25461620913957483,-0.13457515277765503,0.0957833749118705,-0.22798357320210094,0.024297398169353817,0.09544471187041198,-0.5036277770996094,0.2534486353397369,1.2793281078338623,-0.0312731489539146,0.099760815501213,0.1756884604692459
1749042019.970644,4.626174484018104,-1.4779910458261916,-1.1660106914970694,-3.301885602984461,-0.3041567260701006,4.117779952476555,-0.256480267997365,-0.1352974830336681,0.09673139515865516,-0.2298027148153315,0.024604669991496183,0.09602762338519938,-0.4781258702278137,0.2504611313343048,1.2909131050109863,-0.0547079741954803,0.0907598435878753,0.1969784498214721
1749042019.9706805,4.625666255012433,-1.4782644652132109,-1.1658184328259649,-3.3023419172998927,-0.3041066807038001,4.117970147640975,-0.25836994882300934,-0.13601003870540954,0.0976939424268234,-0.2315430227954861,0.024875926319069746,0.096506776458371,-0.524631142616272,0.2385370433330536,1.2803282737731934,-0.0478698536753654,0.1046593487262725,0.2122541069984436
1749042019.9707174,4.625155618251998,-1.4785372704889066,-1.1656241120844524,-3.302801468796089,-0.30405546644976683,4.11816109619177,-0.260278128096185,-0.1367189883607698,0.09867179652375613,-0.23319221743821447,0.025103395754895973,0.09689908327743622,-0.5468770861625671,0.256450355052948,1.2967290878295898,-0.0681251361966133,0.1022460758686065,0.2331335097551345
1749042019.9707544,4.624641890744539,-1.4788098463516677,-1.165427363145728,-3.303264693856204,-0.3040032918174554,4.118352848102383,-0.2621981672274495,-0.1374322026035473,0.09966327258702726,-0.2347417782101566,0.025283075122531733,0.09722705374284979,-0.4708811640739441,0.2012578845024109,1.2714985609054563,-0.043869636952877,0.1075518876314163,0.2169248312711715
1749042019.9707909,4.624124338896191,-1.4790827022655804,-1.1652278461075902,-3.3037320323695236,-0.3039503958688576,4.118545518845068,-0.2641245262916917,-0.13815807282021872,0.10066351913012268,-0.2361877192253454,0.02541479279748188,0.09751674495500093,-0.5137332677841187,0.1881569027900695,1.2694333791732788,-0.0320233702659606,0.1070177406072616,0.2264874577522277
1749042019.9708283,4.62360224396943,-1.4793564160129045,-1.1650252873775901,-3.304203868252707,-0.3038970352122612,4.118739270211276,-0.26605319252795717,-0.13890425092878217,0.10166429933044302,-0.23753116931359577,0.02550213673692516,0.09779554460332598,-0.5122446417808533,0.2255112677812576,1.2519264221191406,-0.0342772677540779,0.100056916475296,0.2446008622646331
1749042019.9708643,4.623074971733578,-1.4796315695782107,-1.1648195159271053,-3.304680471514433,-0.3038434697036653,4.118934283924338,-0.26798184346932147,-0.13967659224262458,0.10265426342584517,-0.23877861499291791,0.025552254493317165,0.09808999075294231,-0.5099051594734192,0.169585570693016,1.2698283195495603,-0.0615372136235237,0.0952295362949371,0.2268343418836593
1749042019.9709008,4.622542037579312,-1.4799086860209831,-1.1646104908300363,-3.3051619510106316,-0.30378994679015947,4.119130731452215,-0.2699097149312261,-0.14047850810090842,0.10361965281511362,-0.23994177421341784,0.02557550742994301,0.09842381894663088,-0.5099051594734192,0.169585570693016,1.2698283195495603,-0.0615372136235237,0.0952295362949371,0.2268343418836593
1749042019.9709468,4.622003155167801,-1.4801881772256307,-1.1643983152777713,-3.305648228309732,-0.3037366844030952,4.119328745484635,-0.27183720422436036,-0.14131081384791772,0.10454534282155038,-0.24103717694203874,0.025584939856588593,0.0988163862666844,-0.5395750403404236,0.2338039726018905,1.2318633794784546,-0.0857353061437606,0.1135264188051223,0.2358579635620117
1749042019.9709992,4.621458257403872,-1.4804703111012731,-1.1641832337128493,-3.3061390412047267,-0.30368385275757803,4.119528399165671,-0.2737653008245402,-0.14217201860884876,0.10541611451944666,-0.24208555220451958,0.025595524549906934,0.09928156103978784,-0.5706560611724854,0.2473760992288589,1.2417539358139038,-0.0801020115613937,0.1042047142982482,0.2478183805942535
1749042019.9710386,4.620907485118903,-1.480755202300688,-1.163965612011185,-3.306633978657977,-0.30363155645555195,4.119729697226607,-0.2756949755549092,-0.14305888010642792,0.10621802315291978,-0.24311103859185,0.02562317997542499,0.09982711246361467,-0.5347577333450317,0.2603821456432342,1.2256044149398804,-0.0759409442543983,0.1332031339406967,0.2198132425546646
1749042019.9711485,4.620351148379299,-1.4810428245333573,-1.1637459045620495,-3.307132539739989,-0.30357981918764637,4.119932579543149,-0.2776266432665614,-0.14396699218720985,0.10693970414817601,-0.2441401154768797,0.025683610712101946,0.1004545953395617,-0.4245032072067261,0.2672954201698303,1.2012574672698977,-0.023458257317543,0.1301725059747696,0.228777676820755
1749042019.9730215,4.6197896719369025,-1.481333038144681,-1.163524614541752,-3.3076342028300303,-0.3035285733363652,4.120136934641811,-0.27955976030890645,-0.14489122502661422,0.10757345175964156,-0.24520010767726683,0.02579107576154982,0.10115969442232782,-0.553276538848877,0.1891960203647613,1.2144941091537476,-0.0341055840253829,0.1332517862319946,0.2544877529144287
1749042020.0143003,4.619223537084797,-1.481625625444136,-1.1633022537619773,-3.308138490882126,-0.3034776561428478,4.120342619604558,-0.28149258675848293,-0.14582597656517435,0.10811593263297015,-0.24631721471214363,0.02595721692517701,0.10193296722535669,-0.5553157925605774,0.1886050105094909,1.195992112159729,-0.0568367280066013,0.1570487916469574,0.2388399094343185
1749042020.014346,4.61865322883323,-1.481920327539141,-1.1630793069938032,-3.3086450222798813,-0.30342681348961525,4.120549483129914,-0.2834221453657335,-0.14676533493045854,0.10856844848750921,-0.24751422337033877,0.02619007023879826,0.10276090534198447,-0.539546549320221,0.1895901560783386,1.181557297706604,-0.0957119241356849,0.1393942683935165,0.2368406653404235
1749042020.014386,4.618079193068108,-1.4822168785933665,-1.1628562037548809,-3.3091535417086515,-0.3033757119439955,4.120757389109206,-0.2853443877628248,-0.14770330862046477,0.10893672647361279,-0.24880826120605404,0.026493339910365444,0.10362722012542394,-0.5334095358848572,0.2219230681657791,1.2088334560394287,-0.0855787172913551,0.1564689725637436,0.2582201361656189
1749042020.0144248,4.6175018052072,-1.482515035375814,-1.1626332987867893,-3.3096639298576327,-0.3033239593284708,4.120966238372181,-0.2872545089606856,-0.14863422399624185,0.10923028629299308,-0.2502090159617856,0.026865954383225803,0.10451424040767854,-0.4930296242237091,0.2004832923412323,1.1821526288986206,-0.0893657952547073,0.1412801891565323,0.2582149803638458
1749042020.0144625,4.616921350335883,-1.4828146012221428,-1.1624108610018147,-3.3101761940666976,-0.30327113359602537,4.121175986195844,-0.28914728921927263,-0.14955325838477826,0.10946150325255613,-0.25171774029931426,0.027301878674315164,0.10540428259457119,-0.5604044198989868,0.2236566543579101,1.2095820903778076,-0.0980639159679412,0.1560622453689575,0.2170750200748443
1749042020.0145,4.616338014326495,-1.4831154440207772,-1.1621890695929706,-3.3106904440920095,-0.30321681897576663,4.12138665306503,-0.2910173453506456,-0.15045694902862455,0.10964454149927917,-0.2533271493561514,0.027790152020995863,0.10628082738233235,-0.5722450017929077,0.2296545207500457,1.1984939575195312,-0.0920797735452652,0.148134708404541,0.2102790474891662
1749042020.0145369,4.615751885128965,-1.4834175077285945,-1.1619680154297611,-3.3112068580537763,-0.3031606470616138,4.121598326449509,-0.29285922619482935,-0.15134346132432572,0.10979434936106892,-0.2550221194207686,0.02831515593854662,0.10712934167926648,-0.5192010998725891,0.2350161522626876,1.2326329946517944,-0.1008160710334777,0.1590562611818313,0.2179678380489349
1749042020.0145743,4.615162962848555,-1.4837208166024383,-1.1617477059652666,-3.3117256437157576,-0.3031023390162453,4.121811152318311,-0.2946673356232114,-0.15221244557516958,0.10992587013878823,-0.25678099388454606,0.02885716772529903,0.10793764735433894,-0.523036539554596,0.2328191101551056,1.2163633108139038,-0.0818451195955276,0.166878268122673,0.2420714646577835
1749042020.014611,4.614571176707558,-1.4840254713525727,-1.1615280724914367,-3.312247000036333,-0.30304174393250566,4.12202531679671,-0.2964356974240992,-0.15306444729798238,0.11005353197590101,-0.2585773065127857,0.029393280906115753,0.10869585034465579,-0.4993132054805755,0.2144742906093597,1.193425178527832,-0.1080639362335205,0.1776471734046936,0.2178100198507309
1749042020.0146475,4.613976406992124,-1.4843316371008382,-1.1613089792020839,-3.312771083643334,-0.30297886804121543,4.122241020420699,-0.2981576183266992,-0.15390000877545598,0.11019097844820547,-0.26038179173791015,0.029898751315595707,0.10939594907759079,-0.5493680238723755,0.1684866100549698,1.2050182819366455,-0.1414169073104858,0.1693850755691528,0.2051046192646026
1749042020.014685,4.613378510481868,-1.4846395240907764,-1.1610902337774325,-3.313297984232143,-0.302913889895892,4.122458449047146,-0.29982535753537165,-0.1547187319288148,0.1103509382755518,-0.26216459144523824,0.030348752677685605,0.11003129207356317,-0.5789964199066162,0.1439372301101684,1.2144503593444824,-0.1076093018054962,0.1816631853580474,0.2485945522785186
1749042020.0147214,4.612777347984205,-1.484949362963723,-1.16087159915402,-3.3138277114873693,-0.30284715784368427,4.122677745867757,-0.301429926649401,-0.15551860014073415,0.11054513118155962,-0.26389752927306076,0.030720420056973795,0.11059605769613122,-0.4850988984107971,0.1781288683414459,1.2200781106948853,-0.0803759321570396,0.1566545069217682,0.2327426522970199
1749042020.0147576,4.612172812134319,-1.4852613768301313,-1.1606528061004018,-3.314360194114181,-0.30277916820559886,4.122898988160089,-0.30296109974113267,-0.15629576490695948,0.11078414573185195,-0.26555622205300716,0.03099496128598959,0.11108491516541515,-0.4963560402393341,0.1990679204463958,1.2648268938064575,-0.0539399310946464,0.1630798876285553,0.2426289618015289
1749042020.014794,4.611564853035589,-1.485575752548911,-1.1604335663070566,-3.3148952896295083,-0.30271052568250884,4.123122171214927,-0.30440764924082864,-0.15704483551393125,0.11107726231501384,-0.2671217344813501,0.031159562485106974,0.11149299680068117,-0.5483290553092957,0.1879248321056366,1.2464479207992554,-0.0669492930173873,0.1484524309635162,0.237495020031929
1749042020.01483,4.610953499185715,-1.485892613762057,-1.1602135857599118,-3.3154328023946187,-0.30264189081498216,4.123347200975003,-0.30575778837535883,-0.15775953948640217,0.11143220554192507,-0.2685815553852731,0.031208822146837723,0.11181624981874745,-0.4756993353366852,0.2408182770013809,1.2528575658798218,-0.079531118273735,0.1422753930091858,0.2345487922430038
1749042020.014866,4.610338871432137,-1.4862119982149558,-1.1599925780848797,-3.315972507092374,-0.3025739215873512,4.1235738961056745,-0.3069997950082188,-0.15843351309453682,0.11185480115847359,-0.2699298609732641,0.031145512353871488,0.11205214622761345,-0.4985828101634979,0.2217848747968673,1.2589497566223145,-0.1044382899999618,0.1308491230010986,0.2267450094223022
1749042020.0149028,4.609721188057105,-1.4865338416841694,-1.1597702774508845,-3.3165141750217617,-0.30250721671442776,4.123801999057081,-0.30812278190842457,-0.15906097263113592,0.11234850841783912,-0.27116719308645343,0.03098056434675528,0.11220063686525868,-0.4728841781616211,0.2122243046760559,1.2389174699783323,-0.0773186832666397,0.1244983226060867,0.2238190174102783
1749042020.014939,4.609100759534586,-1.48685797055623,-1.1595464506169524,-3.31705760064943,-0.30244226697200866,4.1240311943485555,-0.30911755426951,-0.15963711502138953,0.11291382302250944,-0.2722996951398728,0.03073228650745564,0.1122651623668912,-0.4875364303588867,0.1883133947849273,1.254703402519226,-0.044628195464611,0.150684967637062,0.2166222035884857
1749042020.0149755,4.608477972417403,-1.4871841046864744,-1.159320907666569,-3.3176026255440054,-0.3023794188556624,4.124261131389839,-0.30997747663600106,-0.16015825885756566,0.11354760387276268,-0.27333792899598297,0.03042492671072877,0.1122534927806452,-0.5008326172828674,0.1626775562763214,1.272790551185608,-0.0327585786581039,0.1401313543319702,0.1865321099758148
1749042020.0150251,4.607853263287746,-1.487511871350667,-1.1590935107174694,-3.31814915623513,-0.302318852563753,4.124491449009456,-0.3106992671613973,-0.16062186936572753,0.11424245442146094,-0.2742951840028725,0.030086769447272677,0.11217817099765949,-0.4799682199954986,0.1943126618862152,1.3020576238632202,0.0055490992963314,0.1554383337497711,0.2000257670879364
1749042020.015139,4.607227085317041,-1.4878408297865489,-1.1588641795543575,-3.318697172239309,-0.3022605742939828,4.124721799476067,-0.31128363115008895,-0.16102662488193392,0.11498635173251041,-0.275185230693561,0.02974799461014285,0.11205639386187204,-0.412913054227829,0.232684701681137,1.2930353879928589,-0.0229197219014167,0.1402927339076995,0.2191181033849716
1749042020.0170455,4.6065998712775444,-1.4881705041991808,-1.1586328930795535,-3.3192467212562367,-0.3022044214952734,4.124951870801793,-0.3117356360905545,-0.16137257837708674,0.1157627154670793,-0.2760196897256234,0.02943851286987566,0.1119092706603134,-0.4893075227737427,0.2035759836435318,1.2616254091262815,-0.062663733959198,0.1253638714551925,0.2145230323076248
1749042020.0583122,4.605971997641595,-1.4885004215391375,-1.1583996860161851,-3.3197979007015532,-0.30215007913696657,4.125181406822916,-0.3120647467523632,-0.16166133508120117,0.11655102025362604,-0.2768054607937615,0.029185943185701172,0.11176051177738812,-0.5024101138114929,0.2280171513557434,1.257158637046814,-0.0857748910784721,0.1429296731948852,0.1888379007577896
1749042020.0583642,4.605343754503777,-1.4888301493074285,-1.15816464138316,-3.3203508277504676,-0.302097104950501,4.125410224462073,-0.3122844941261164,-0.16189610379481736,0.11732791525123992,-0.27754281075922377,0.029013836772127082,0.11163467730315123,-0.48043093085289,0.2290709316730499,1.2512909173965454,-0.0995447859168052,0.1563688963651657,0.2227672338485717
1749042020.0584085,4.604715325189051,-1.4891593284824165,-1.157927880406457,-3.320905602802203,-0.30204496162935607,4.125638226921087,-0.3124118090387192,-0.16208152002275325,0.11806870068823482,-0.2782246421903888,0.028940204346944488,0.11155515461564951,-0.4151868820190429,0.2225946485996246,1.2510319948196411,-0.0653232485055923,0.1422110497951507,0.223499983549118
1749042020.0584471,4.604086777749588,-1.4894876975337392,-1.1576895520862336,-3.3214622727774152,-0.3019930540952577,4.125865411079622,-0.3124660773355114,-0.16222324882295336,0.11874897048567538,-0.27883717761609045,0.02897638167608151,0.11154206217662159,-0.4401472806930542,0.2210199832916259,1.2575684785842896,-0.0488488227128982,0.1515219509601593,0.2236153185367584
1749042020.0584843,4.603458068919928,-1.4898151051839192,-1.1574498242765068,-3.3220208005860017,-0.3019407700611947,4.126091867594185,-0.31246799109045326,-0.16232748440813816,0.11934625098816123,-0.27936195131874514,0.029126269269856092,0.11161029641809103,-0.4802339076995849,0.1789209544658661,1.25737202167511,-0.0561165511608123,0.1472857594490051,0.21393983066082
1749042020.0585215,4.602829060140292,-1.4901415115674512,-1.1572088771013105,-3.3225810456984286,-0.3018875218303042,4.126317773018538,-0.31243830995631755,-0.16240050823404317,0.11984150603633319,-0.27977876050897854,0.029385993759164338,0.1117679284085895,-0.5282016396522522,0.2109697759151458,1.232179045677185,-0.0354838818311691,0.1436925083398819,0.2315415740013122
1749042020.0585585,4.602199544685204,-1.490466979035764,-1.1569668984633508,-3.3231427585454187,-0.3018327864316502,4.126543374258612,-0.31239668189505626,-0.1624484212732618,0.12022040531522966,-0.280069135217735,0.029744044816946244,0.1120151164031715,-0.4554834365844726,0.2821965515613556,1.239537239074707,-0.0688749924302101,0.167384535074234,0.2041235268115997
1749042020.058596,4.60156928396972,-1.4907916547050082,-1.1567240808982517,-3.3237055889943554,-0.3017761405411344,4.126768966467214,-0.3123606545888126,-0.1624770582947475,0.12047426070162712,-0.28021986767162893,0.030181926926445432,0.11234365210708862,-0.4514809250831604,0.2231824696063995,1.2232389450073242,-0.0343910008668899,0.1796238869428634,0.2032005935907364
1749042020.0586326,4.600938049691873,-1.4911157471372276,-1.1564806192996937,-3.324269106852398,-0.30171728704484757,4.126994865972537,-0.3123449459213398,-0.16249199426131752,0.1206005401066932,-0.28022612563524335,0.03067532364308318,0.11273721341305677,-0.5168200135231018,0.2444314062595367,1.2129912376403809,-0.0033997744321823,0.1514764428138733,0.2153956890106201
1749042020.0586698,4.6003056674540765,-1.49143949956,-1.1562367097937631,-3.324832830568383,-0.30165607144070494,4.127221380111431,-0.31236098695984155,-0.16249853183567356,0.12060288802791018,-0.28009367400159246,0.031195712346567702,0.11317234628289385,-0.5269104838371277,0.2394555509090423,1.192193627357483,0.0288729518651962,0.1456794589757919,0.218950942158699
1749042020.05871,4.599672057428797,-1.491763161779676,-1.155992550641586,-3.3253962593125377,-0.3015924876355632,4.127448776121827,-0.31241672424691497,-0.16250162388499576,0.1204906246480697,-0.2798398096603713,0.03171231038176866,0.11362013868214973,-0.4781887829303741,0.225713774561882,1.2022331953048706,-0.0090032145380973,0.1584822833538055,0.2295939028263092
1749042020.058748,4.599037268137631,-1.4920869625939186,-1.1557483459367661,-3.325958903636105,-0.3015266735846272,4.1276772516974,-0.3125166472257271,-0.16250578162923282,0.12027776114135401,-0.27949280820029737,0.032194197693361015,0.11404848780403237,-0.4611653089523315,0.2190550416707992,1.1781620979309082,-0.0075743943452835,0.1768014281988144,0.2200547754764557
1749042020.0587883,4.598401499975141,-1.4924110845343175,-1.1555043119292328,-3.326520311073732,-0.30145889784661944,4.127906910189483,-0.3126619842686772,-0.16251507334088303,0.11998165158512686,-0.2790899417220284,0.0326124492872564,0.11442480479667347,-0.5177180171012878,0.1480955630540847,1.2000563144683838,-0.0348051637411117,0.1621994376182556,0.2100169062614441
1749042020.0588255,4.597765115606685,-1.4927356433121362,-1.1552606844018156,-3.3270800850951643,-0.3013895387640987,4.128137743247858,-0.3128510086949943,-0.16253328865528663,0.11962148169502539,-0.27867435694250264,0.0329421102088931,0.11471894526639197,-0.5052317380905151,0.1940754354000091,1.218280553817749,-0.0141682717949152,0.1598384529352188,0.2259253561496734
1749042020.0588644,4.597128634978945,-1.4930606748467516,-1.15501772422559,-3.327637897988539,-0.30131905859872626,4.128369622820534,-0.313079417171056,-0.16256424410990541,0.11921683913661948,-0.27829122538652123,0.03316384788986888,0.11490609592870756,-0.5065969228744507,0.2016690671443939,1.2446081638336182,-0.0210916623473167,0.1279271245002746,0.1842017918825149
1749042020.0589025,4.596492713660719,-1.4933861324720523,-1.15477571764778,-3.328193499699442,-0.30124797531309755,4.128602303437595,-0.31334076083537815,-0.16261209242142774,0.11878658954975226,-0.277983594508384,0.033265134868354314,0.11496930346544462,-0.4594160616397857,0.2268039882183075,1.2270750999450684,0.0132657140493392,0.1259949803352356,0.177592322230339
1749042020.058939,4.5958581045718025,-1.4937118955444502,-1.1545349684909232,-3.3287467249536746,-0.3011768344401711,4.1288354350956835,-0.31362691264313464,-0.16268143296149357,0.11834818766292801,-0.2777883374333179,0.03324087030654946,0.11490133631825249,-0.5131755471229553,0.2321852743625641,1.212059497833252,-0.016368918120861,0.13507741689682,0.209005206823349
1749042020.058975,4.595225604432222,-1.4940377886398926,-1.1542957812188523,-3.329297500407347,-0.3011061824067455,4.12906858667837,-0.3139285568251414,-0.16277704343667232,0.11791741198392854,-0.2777325649853769,0.03309343852295072,0.11470564665283714,-0.4886595606803894,0.2108366191387176,1.2201048135757446,-0.0265097096562385,0.1475416123867035,0.1959156692028045
1749042020.0590186,4.594595987212735,-1.4943636087095182,-1.1540584360447272,-3.3298458527000094,-0.301036541153302,4.129301279222434,-0.3142356922820251,-0.16290316909880362,0.1175083873234421,-0.27783083083815996,0.03283229085832296,0.1143963222904536,-0.4435552656650543,0.2023836970329284,1.2006137371063232,-0.0326531380414962,0.1248452216386795,0.1877062916755676
1749042020.059056,4.593969927925124,-1.4946891566028204,-1.153823159007237,-3.33039191757777,-0.30096838291072714,4.129533027313614,-0.31453813858956875,-0.16306248231332335,0.1171337119564126,-0.27808340826553846,0.032473182069858095,0.11399703519064223,-0.452354371547699,0.1651654243469238,1.226580262184143,-0.046352632343769,0.116857036948204,0.2008535265922546
