nimar13/UR3e_dataset_trayectorias/trayectorias_ejecutadas/quintic/trayectoria_127_result.csv
timestamp,q1,q2,q3,q4,q5,q6,qd1,qd2,qd3,qd4,qd5,qd6,tau1,tau2,tau3,tau4,tau5,tau6
1749034846.1185043,1.0291852951049805,-1.0681539934924622,-0.13159702718257904,1.5460762220570068,1.206801414489746,-0.3726084868060511,-0.002336898585781455,-0.001363866264000535,0.0036099948920309544,-0.0008413446485064924,6.17540572420694e-05,-0.0001665891904849559,0.06794261932373047,-0.8998545408248901,-0.4532920718193054,-0.24155789613723755,-0.17586761713027954,-0.0818193256855011
1749034846.1185815,1.0291852951049805,-1.0681539934924622,-0.13159702718257904,1.5460762220570068,1.206801414489746,-0.3726084868060511,-0.002336898585781455,-0.001363866264000535,0.0036099948920309544,-0.0008413446485064924,6.17540572420694e-05,-0.0001665891904849559,0.06794261932373047,-0.8998545408248901,-0.4532920718193054,-0.24155789613723755,-0.17586761713027954,-0.0818193256855011
1749034846.118645,1.029176950454712,-1.0681299728206177,-0.1315816342830658,1.5460797983356933,1.2068359851837158,-0.37259227434267217,-0.001964803319424391,-0.0009414975647814572,0.0034125582315027714,-0.0014287211233749986,6.480795127572492e-05,-0.00015510027878917754,0.07674659788608551,-0.898460865020752,-0.45701080560684204,-0.2435569167137146,-0.19033142924308777,-0.09321606159210205
1749034846.1187036,1.0291852951049805,-1.068130151634552,-0.13156941533088684,1.5460678774067382,1.2068443298339844,-0.37259227434267217,-0.0016960485372692347,-0.0007503012311644852,0.003130614059045911,-0.0017264436464756727,6.27524423180148e-05,-0.00014993135118857026,0.0766594186425209,-0.9193027019500732,-0.44454583525657654,-0.2416553497314453,-0.19766241312026978,-0.09454676508903503
1749034846.1187637,1.0291852951049805,-1.068130151634552,-0.13156941533088684,1.5460678774067382,1.2068443298339844,-0.37259227434267217,-0.0016960485372692347,-0.0007503012311644852,0.003130614059045911,-0.0017264436464756727,6.27524423180148e-05,-0.00014993135118857026,0.0766594186425209,-0.9193027019500732,-0.44454583525657654,-0.2416553497314453,-0.19766241312026978,-0.09454676508903503
1749034846.1188304,1.029200792312622,-1.0681228798678895,-0.13155722618103027,1.5460643011280517,1.2068061828613281,-0.3726084868060511,-0.0012635316234081984,-0.000673493486829102,0.0025227246806025505,-0.0019118624040856957,5.8699792134575546e-05,-0.00014056111103855073,0.06013386324048042,-0.8838047981262207,-0.4559768736362457,-0.2538449168205261,-0.18205060064792633,-0.08255216479301453
1749034846.1188955,1.029200792312622,-1.0681228798678895,-0.13155722618103027,1.5460643011280517,1.2068061828613281,-0.3726084868060511,-0.0012635316234081984,-0.000673493486829102,0.0025227246806025505,-0.0019118624040856957,5.8699792134575546e-05,-0.00014056111103855073,0.06013386324048042,-0.8838047981262207,-0.4559768736362457,-0.2538449168205261,-0.18205060064792633,-0.08255216479301453
1749034846.1189609,1.0291684865951538,-1.0681311649135132,-0.1315886676311493,1.5460643011280517,1.2068204879760742,-0.3725999037372034,-0.0010947859846055508,-0.0005997619009576738,0.0021782738622277975,-0.0017170457867905498,5.684651841875166e-05,-0.0001363025512546301,0.05365907400846481,-0.9028804302215576,-0.4357113540172577,-0.24983671307563782,-0.19598530232906342,-0.1034473329782486
1749034846.1190257,1.0291650295257568,-1.0681384366801758,-0.13159222900867462,1.546055479640625,1.2068122625350952,-0.3725960890399378,-0.0007735793478786945,-0.0004907159600406885,0.0017294554272666574,-0.001401247107423842,5.3468436817638576e-05,-0.00012851497740484774,0.04776783660054207,-0.8928530216217041,-0.4383928179740906,-0.24876463413238525,-0.20470604300498962,-0.0906258076429367
1749034846.1190956,1.0291650295257568,-1.0681384366801758,-0.13159222900867462,1.546055479640625,1.2068122625350952,-0.3725960890399378,-0.0007735793478786945,-0.0004907159600406885,0.0017294554272666574,-0.001401247107423842,5.3468436817638576e-05,-0.00012851497740484774,0.04776783660054207,-0.8928530216217041,-0.4383928179740906,-0.24876463413238525,-0.20470604300498962,-0.0906258076429367
1749034846.1191657,1.02922785282135,-1.068130151634552,-0.1315765231847763,1.5460678774067382,1.2068407535552979,-0.3726156393634241,-0.00067767413565889,-0.00044982563122175634,0.0015581819461658597,-0.0012846622848883271,5.192559547140263e-05,-0.00012494590191636235,0.06743042171001434,-0.8985989689826965,-0.4512613117694855,-0.25858595967292786,-0.20033317804336548,-0.09316782653331757
1749034846.119234,1.0291650295257568,-1.0681695503047486,-0.1315765082836151,1.5460871893116455,1.2068241834640503,-0.3726156393634241,-0.000601904175709933,-0.000415228889323771,0.0014252865221351385,-0.0011444338597357273,5.046933074481785e-05,-0.0001215687079820782,0.09872326254844666,-0.8822139501571655,-0.4521889090538025,-0.2404066026210785,-0.21354088187217712,-0.09167680144309998
1749034846.1192925,1.0291876792907715,-1.068162278538086,-0.13156427443027496,1.5460590559193115,1.2068097591400146,-0.37260467210878545,-0.0004922613152302802,-0.0003598738112486899,0.0011311981361359358,-0.0009721719543449581,4.778881339007057e-05,-0.00011533653741935268,0.07291331887245178,-0.8810323476791382,-0.45248451828956604,-0.25350862741470337,-0.21565355360507965,-0.09581907093524933
1749034846.1193502,1.0291876792907715,-1.068162278538086,-0.13156427443027496,1.5460590559193115,1.2068097591400146,-0.37260467210878545,-0.0004922613152302802,-0.0003598738112486899,0.0011311981361359358,-0.0009721719543449581,4.778881339007057e-05,-0.00011533653741935268,0.07291331887245178,-0.8810323476791382,-0.45248451828956604,-0.25350862741470337,-0.21565355360507965,-0.09581907093524933
1749034846.119408,1.0292150974273682,-1.0681348007968445,-0.13157296180725098,1.5460716921040039,1.2068513631820679,-0.3726275602923792,-0.000451025553047657,-0.0003373845247551799,0.0009188199182972312,-0.0009100043098442256,2.9745749998255633e-05,-0.00011245293717365712,0.09287849068641663,-0.8881971836090088,-0.44778913259506226,-0.23453250527381897,-0.2052430808544159,-0.09720069169998169
1749034846.1194673,1.0291614532470703,-1.0681467217257996,-0.13157296180725098,1.546055479640625,1.2068216800689697,-0.3725999037372034,-0.0003865266335196793,-0.00029990472830832005,0.0007728329510428011,-0.0008058972307480872,2.2333377273753285e-05,-0.0001071000297088176,0.08080624043941498,-0.8669778108596802,-0.4523361325263977,-0.2483704388141632,-0.2061775028705597,-0.10272473096847534
1749034846.1195242,1.0291805267333984,-1.068150357609131,-0.13155235350131989,1.5460590559193115,1.2068133354187012,-0.37259227434267217,-0.00036064014420844615,-0.0002841241657733917,0.0006827868637628853,-0.0007334693800657988,2.1635802113451064e-05,-0.00010460916382726282,0.09664753079414368,-0.8744434118270874,-0.44991254806518555,-0.240023672580719,-0.2212103307247162,-0.12141931056976318
1749034846.1195815,1.0291577577590942,-1.068150357609131,-0.13156940042972565,1.5460435587116699,1.2068204879760742,-0.3726084868060511,-0.0003381142159923911,-0.00026992097264155746,0.0006064609042368829,-0.0006670492002740502,2.1100062440382317e-05,-0.00010223288700217381,0.0795309990644455,-0.8517425060272217,-0.4474893808364868,-0.227378711104393,-0.22983211278915405,-0.11699417233467102
1749034846.1196408,1.0291684865951538,-1.0681467217257996,-0.13157296180725098,1.5460471349903564,1.2068288326263428,-0.37258893648256475,-0.0003181885404046625,-0.00025707014719955623,0.0005451643373817205,-0.0006105999927967787,2.0611736545106396e-05,-9.996170410886407e-05,0.09066544473171234,-0.8653794527053833,-0.4529414772987366,-0.24527880549430847,-0.22735412418842316,-0.11545738577842712
1749034846.1197064,1.0291684865951538,-1.0681467217257996,-0.13157296180725098,1.5460471349903564,1.2068288326263428,-0.37258893648256475,-0.0003181885404046625,-0.00025707014719955623,0.0005451643373817205,-0.0006105999927967787,2.0611736545106396e-05,-9.996170410886407e-05,0.09066544473171234,-0.8653794527053833,-0.4529414772987366,-0.24527880549430847,-0.22735412418842316,-0.11545738577842712
1749034846.1198666,1.029150128364563,-1.0681420725635071,-0.13154184818267822,1.5460516649433593,1.2068443298339844,-0.3726123015033167,-0.00028464003116823733,-0.00023472025350201875,0.0005089037003926933,-0.0004545676929410547,1.9707878891495056e-05,-0.000102373851404991,0.09462419152259827,-0.8660668730735779,-0.4641474485397339,-0.24213886260986328,-0.24122418463230133,-0.102283775806427
1749034846.12147,1.0291733741760254,-1.0681348007968445,-0.13157996535301208,1.5460399824329834,1.2067817449569702,-0.37258893648256475,-0.00027038747793994844,-0.000224928226089105,0.0004867265815846622,-0.0004100106889382005,1.9285498638055287e-05,-0.00011025378626072779,0.12292470037937164,-0.8409017324447632,-0.45491403341293335,-0.22092697024345398,-0.24418094754219055,-0.11754080653190613
1749034846.162479,1.0291614532470703,-1.0681156081012269,-0.13154540956020355,1.5460435587116699,1.2068252563476562,-0.37260133424867803,-0.000218890534597449,-0.0002159459108952433,0.0004528433782979846,-0.0003751939511857927,1.8880860807257704e-05,-0.0001097738859243691,0.13552473485469818,-0.8469976186752319,-0.4478030204772949,-0.24788987636566162,-0.24960583448410034,-0.10592442750930786
1749034846.1625528,1.0291614532470703,-1.0681156081012269,-0.13154540956020355,1.5460435587116699,1.2068252563476562,-0.37260133424867803,-0.000218890534597449,-0.0002159459108952433,0.0004528433782979846,-0.0003751939511857927,1.8880860807257704e-05,-0.0001097738859243691,0.13552473485469818,-0.8469976186752319,-0.4478030204772949,-0.24788987636566162,-0.24960583448410034,-0.10592442750930786
1749034846.1626203,1.0291852951049805,-1.0681695503047486,-0.1315608024597168,1.5460399824329834,1.2068288326263428,-0.37258893648256475,-0.00019589460862334818,-0.00019995342881884426,0.00039595988346263766,-0.0003213639138266444,2.1296907561918488e-06,-0.0001058328416547738,0.10209941864013672,-0.8293356895446777,-0.4440140128135681,-0.2299225628376007,-0.243233323097229,-0.11539903283119202
1749034846.1626885,1.029192566871643,-1.0681539934924622,-0.13155236840248108,1.5460280615040283,1.2068493366241455,-0.37260467210878545,-0.00018770118185784668,-0.0001928136480273679,0.0003725338901858777,-0.0002999094722326845,3.7633867577824276e-07,-0.00010380729509051889,0.08465468138456345,-0.849823534488678,-0.4547579884529114,-0.2154178023338318,-0.24858975410461426,-0.1191047728061676
1749034846.1627543,1.029192566871643,-1.0681539934924622,-0.13155236840248108,1.5460280615040283,1.2068493366241455,-0.37260467210878545,-0.00018770118185784668,-0.0001928136480273679,0.0003725338901858777,-0.0002999094722326845,3.7633867577824276e-07,-0.00010380729509051889,0.08465468138456345,-0.849823534488678,-0.4547579884529114,-0.2154178023338318,-0.24858975410461426,-0.1191047728061676
1749034846.1628191,1.0291924476623535,-1.0681384366801758,-0.13154540956020355,1.5460752683826904,1.2068133354187012,-0.3726123015033167,-0.00014779550838284194,-0.00018616636225488037,0.00035172636853531003,-0.0002811424492392689,6.65029915580817e-08,-0.00010185132850892842,0.13938656449317932,-0.8634661436080933,-0.47429582476615906,-0.237758070230484,-0.2522957921028137,-0.11522501707077026
1749034846.1628828,1.0291696786880493,-1.0680875343135376,-0.13156427443027496,1.5460516649433593,1.2068324089050293,-0.37260467210878545,0.00014017467037774622,-0.0002002602122956887,0.00031638654763810337,-0.0002498778630979359,2.0766619535095288e-09,-9.814853547140956e-05,0.15827371180057526,-0.9241774082183838,-0.5097147822380066,-0.2157093584537506,-0.24365109205245972,-0.0953284502029419
1749034846.162948,1.029176950454712,-1.068150357609131,-0.13154888153076172,1.546055479640625,1.2068252563476562,-0.3725960890399378,0.002042478881776333,-0.00022403261391445994,0.00015682181401643902,-0.0002752327418420464,3.6696795602253474e-10,-9.639668860472739e-05,0.162301167845726,-0.935958743095398,-0.507599413394928,-0.22667279839515686,-0.238053560256958,-0.09902364015579224
1749034846.163013,1.029176950454712,-1.068150357609131,-0.13154888153076172,1.546055479640625,1.2068252563476562,-0.3725960890399378,0.002042478881776333,-0.00022403261391445994,0.00015682181401643902,-0.0002752327418420464,3.6696795602253474e-10,-9.639668860472739e-05,0.162301167845726,-0.935958743095398,-0.507599413394928,-0.22667279839515686,-0.238053560256958,-0.09902364015579224
1749034846.163077,1.0292205810546875,-1.0681348007968445,-0.13154540956020355,1.546062632197998,1.2068133354187012,-0.3726123015033167,0.002765186596661806,-0.00021089514484629035,0.00010291179205523804,-0.0002682906633708626,6.484708603426981e-11,-9.470604709349573e-05,0.1505381464958191,-0.948613166809082,-0.5219802856445312,-0.21749532222747803,-0.23824280500411987,-0.10046273469924927
1749034846.1631405,1.029188871383667,-1.0681311649135132,-0.13155236840248108,1.5460361677357177,1.2068049907684326,-0.37261945406068975,0.0026285648345947266,-0.0016550644068047404,9.455345571041107e-05,-0.0002567244227975607,1.145916000977465e-11,-9.307314030593261e-05,0.16867251694202423,-0.9568688869476318,-0.5165309309959412,-0.2365005910396576,-0.2514530420303345,-0.1035071611404419
1749034846.163206,1.0291852951049805,-1.0681384366801758,-0.13154888153076172,1.5460752683826904,1.2068477869033813,-0.37259227434267217,0.0019256937084719539,-0.002414057031273842,8.964939479483292e-05,-0.0002452677290420979,2.0249539892103208e-12,-9.149636025540531e-05,0.1697179228067398,-0.9153836965560913,-0.5237970352172852,-0.24285271763801575,-0.248551607131958,-0.10189661383628845
1749034846.163269,1.0291852951049805,-1.0681658548167725,-0.1315607875585556,1.5460435587116699,1.2068407535552979,-0.3725999037372034,0.0016965944087132812,-0.0018794465577229857,4.561812602332793e-05,-0.00023463736579287797,3.578305728980935e-13,-8.997188706416637e-05,0.23621301352977753,-0.9322363138198853,-0.5349943041801453,-0.23262137174606323,-0.26708024740219116,-0.11080378293991089
1749034846.1633384,1.0292043685913086,-1.0681119722178956,-0.13154888153076172,1.5460435587116699,1.2068636417388916,-0.37257367769350225,0.0016423906199634075,-0.0014898456865921617,4.094824907951988e-05,-0.00022486929083243012,6.323241897535775e-14,-8.849691948853433e-05,0.2532411217689514,-0.9499735832214355,-0.5468128323554993,-0.2274860143661499,-0.2733001708984375,-0.10786592960357666
1749034846.163397,1.0292096138000488,-1.0681539934924622,-0.13155236840248108,1.546062632197998,1.2068204879760742,-0.37260467210878545,0.00682750903069973,-0.001146986149251461,3.4069176990669803e-07,-0.00020757147285621613,-4.196221925667487e-05,-8.56885380926542e-05,0.23597171902656555,-0.996353268623352,-0.567240834236145,-0.2575228214263916,-0.30058056116104126,-0.1430862545967102
1749034846.163463,1.029217004776001,-1.0681311649135132,-0.13157999515533447,1.5460471349903564,1.2068133354187012,-0.3726313749896448,0.0074033052660524845,-0.001850145636126399,2.2244735831122853e-08,-0.0001998861989704892,-0.0015604484360665083,-9.453099482925609e-05,0.26850226521492004,-0.9653355479240417,-0.5828332901000977,-0.25130078196525574,-0.3227979838848114,-0.15059661865234375
1749034846.1635296,1.0292717218399048,-1.0681887430003663,-0.1315608024597168,1.5460280615040283,1.2068322896957397,-0.3726123015033167,0.008848381228744984,-0.003425252391025424,-0.001237923395819962,-0.0002111234498443082,-0.0034013872500509024,-0.00010769316577352583,0.2731351852416992,-0.9796016216278076,-0.576057493686676,-0.2516087293624878,-0.308976948261261,-0.17685428261756897
1749034846.1635973,1.0292717218399048,-1.0681887430003663,-0.1315608024597168,1.5460280615040283,1.2068322896957397,-0.3726123015033167,0.008848381228744984,-0.003425252391025424,-0.001237923395819962,-0.0002111234498443082,-0.0034013872500509024,-0.00010769316577352583,0.2731351852416992,-0.9796016216278076,-0.576057493686676,-0.2516087293624878,-0.308976948261261,-0.17685428261756897
1749034846.1636634,1.0292644500732422,-1.0682089489749451,-0.1315957009792328,1.5460435587116699,1.2067888975143433,-0.3726432959185999,0.008941823616623878,-0.004446057602763176,-0.002212044084444642,-0.00021468814520630985,-0.004655195400118828,-0.00010548308637226,0.3004506528377533,-0.9567307829856873,-0.5599114894866943,-0.24359863996505737,-0.32845813035964966,-0.19006836414337158
1749034846.16373,1.0293039083480835,-1.068174199467041,-0.13157296180725098,1.5460125642963867,1.2067997455596924,-0.37263232866396123,0.010455003939568996,-0.002924942644312978,-0.0014551441418007016,-0.00021967610518913716,-0.007048537954688072,-0.00903411116451025,0.289069801568985,-0.9840337634086609,-0.5766292810440063,-0.2634024918079376,-0.3440861105918884,-0.16834399104118347
1749034846.1639028,1.0293283462524414,-1.0682016772082825,-0.1315956711769104,1.5460435587116699,1.2067806720733643,-0.3726561705218714,0.010267713107168674,-0.0028995925094932318,-0.001105400500819087,-0.00022589815489482135,-0.009376880712807178,-0.011203435249626637,0.32558101415634155,-0.9890092015266418,-0.5786381959915161,-0.2674371898174286,-0.3521149456501007,-0.163974791765213
1749034846.165337,1.0293283462524414,-1.0682016772082825,-0.1315956711769104,1.5460435587116699,1.2067806720733643,-0.3726561705218714,0.010267713107168674,-0.0028995925094932318,-0.001105400500819087,-0.00022589815489482135,-0.009376880712807178,-0.011203435249626637,0.32558101415634155,-0.9890092015266418,-0.5786381959915161,-0.2674371898174286,-0.3521149456501007,-0.163974791765213
1749034846.2064893,1.029343843460083,-1.0682016772082825,-0.13155727088451385,1.546050711269043,1.206763744354248,-0.37268382707704717,0.01123727299273014,-0.003135901875793934,-0.0010368071962147951,-0.0002748652477748692,-0.010606605559587479,-0.011871060356497765,0.3406044542789459,-0.9762452244758606,-0.5854752659797668,-0.2691676914691925,-0.3591551184654236,-0.14309684932231903
1749034846.2065647,1.0293686389923096,-1.068175033932068,-0.13157296180725098,1.5460035043903808,1.2066657543182373,-0.372716252003805,0.013920016586780548,-0.0038007409311830997,-0.0010214934591203928,-0.0019764015451073647,-0.012357557192444801,-0.011832787655293941,0.3133097290992737,-0.985503613948822,-0.6075912714004517,-0.28277450799942017,-0.36235591769218445,-0.17435579001903534
1749034846.2066317,1.029462456703186,-1.0682053130916138,-0.13157296180725098,1.546039028758667,1.2066837549209595,-0.3727472464190882,0.015764765441417694,-0.0033491081558167934,-0.0011624894104897976,-0.0019636235665529966,-0.01286514662206173,-0.012591704726219177,0.30413538217544556,-0.9895934462547302,-0.6212111711502075,-0.27899783849716187,-0.3490629196166992,-0.17445369064807892
1749034846.2066994,1.0294479131698608,-1.0682297509959717,-0.1316005289554596,1.5460352140614013,1.2066570520401,-0.3727830092059534,0.015344282612204552,-0.0035844212397933006,-0.002717261202633381,-0.0016619970556348562,-0.013924938626587391,-0.014566603116691113,0.34603363275527954,-1.003844141960144,-0.6117711663246155,-0.27170032262802124,-0.3625944256782532,-0.16157785058021545
1749034846.2067654,1.0294479131698608,-1.0682297509959717,-0.1316005289554596,1.5460352140614013,1.2066570520401,-0.3727830092059534,0.015344282612204552,-0.0035844212397933006,-0.002717261202633381,-0.0016619970556348562,-0.013924938626587391,-0.014566603116691113,0.34603363275527954,-1.003844141960144,-0.6117711663246155,-0.27170032262802124,-0.3625944256782532,-0.16157785058021545
1749034846.2068305,1.029468059539795,-1.0682534736445923,-0.1316004991531372,1.5460035043903808,1.206597089767456,-0.37280399004091436,0.017061827704310417,-0.003890078281983733,-0.003157925559207797,-0.0014450931921601295,-0.015866506844758987,-0.01522060390561819,0.3044200539588928,-1.010462760925293,-0.6044145226478577,-0.28581660985946655,-0.3751665949821472,-0.16786448657512665
1749034846.2068968,1.0295007228851318,-1.0682068032077332,-0.13156941533088684,1.546050711269043,1.206573247909546,-0.37286264101137334,0.017834529280662537,-0.004049709066748619,-0.002846288727596402,-0.0012483817990869284,-0.016889376565814018,-0.017287086695432663,0.3227335810661316,-1.0153008699417114,-0.617256760597229,-0.3007219433784485,-0.3706749677658081,-0.16478797793388367
1749034846.206962,1.0295437574386597,-1.068203167324402,-0.13161243498325348,1.5460073190876464,1.206533670425415,-0.3728368918048304,0.017510786652565002,-0.004935816861689091,-0.0025794049724936485,-0.0012947742361575365,-0.018366971984505653,-0.01884925179183483,0.31191378831863403,-1.0068674087524414,-0.6199979186058044,-0.30968576669692993,-0.37248745560646057,-0.1656775027513504
1749034846.207028,1.029658317565918,-1.0682581228068848,-0.1316089630126953,1.546010895366333,1.2064615488052368,-0.3729594389544886,0.01791572757065296,-0.006496133282780647,-0.003083856776356697,-0.0033596425782889128,-0.02201225236058235,-0.019972415640950203,0.3286598324775696,-0.9990938305854797,-0.6319864988327026,-0.3042379915714264,-0.3676648736000061,-0.16710886359214783
1749034846.2070956,1.029666543006897,-1.0682353538325806,-0.1316208839416504,1.5459953981586914,1.2064135074615479,-0.372995678578512,0.018626775592565536,-0.006106480024755001,-0.004040468484163284,-0.0037100822664797306,-0.023955391719937325,-0.020058462396264076,0.3416287899017334,-1.0215754508972168,-0.6404199600219727,-0.29286378622055054,-0.34499475359916687,-0.1600121557712555
1749034846.2071612,1.029711127281189,-1.068309025173523,-0.1316208839416504,1.5459605890461425,1.2063846588134766,-0.37303144136537725,0.020491354167461395,-0.006554669234901667,-0.004726138431578875,-0.003746466711163521,-0.023610496893525124,-0.017406679689884186,0.3106793165206909,-1.0452040433883667,-0.6370456218719482,-0.32445228099823,-0.32835516333580017,-0.1447068154811859
1749034846.207227,1.0297504663467407,-1.068298117523529,-0.1316365897655487,1.5459989744373779,1.206305742263794,-0.37307960191835576,0.020747579634189606,-0.007586312014609575,-0.005605453159660101,-0.0038167303428053856,-0.022506872192025185,-0.018549900501966476,0.31303125619888306,-1.050541877746582,-0.6215547323226929,-0.30294060707092285,-0.33123916387557983,-0.15659934282302856
1749034846.207293,1.0297504663467407,-1.068298117523529,-0.1316365897655487,1.5459989744373779,1.206305742263794,-0.37307960191835576,0.020747579634189606,-0.007586312014609575,-0.005605453159660101,-0.0038167303428053856,-0.022506872192025185,-0.018549900501966476,0.31303125619888306,-1.050541877746582,-0.6215547323226929,-0.30294060707092285,-0.33123916387557983,-0.15659934282302856
1749034846.2073598,1.0297794342041016,-1.0682856005481263,-0.13164496421813965,1.5459331709095459,1.2062574625015259,-0.3731182257281702,0.0203611608594656,-0.00835372507572174,-0.0054898951202631,-0.004718482960015535,-0.022244980558753014,-0.0187727939337492,0.3213791847229004,-1.0295891761779785,-0.6412996053695679,-0.3348979949951172,-0.31850406527519226,-0.1380426436662674
1749034846.207425,1.0298588275909424,-1.0683136743358155,-0.13164496421813965,1.5459596353718261,1.2062060832977295,-0.3731473127948206,0.021070050075650215,-0.007293413393199444,-0.0047090789303183556,-0.0054215965792536736,-0.020633025094866753,-0.018077420070767403,0.2623744606971741,-1.040006160736084,-0.6446865200996399,-0.3165745139122009,-0.3224944770336151,-0.15510106086730957
1749034846.207491,1.0299220085144043,-1.0683264893344422,-0.13167229294776917,1.5459167200275878,1.206113576889038,-0.3732073942767542,0.021216092631220818,-0.006505009718239307,-0.004589168354868889,-0.006965866312384605,-0.019400695338845253,-0.018126949667930603,0.28710538148880005,-1.0682876110076904,-0.6545279026031494,-0.32117077708244324,-0.30652257800102234,-0.13750365376472473
1749034846.2075577,1.0299696922302246,-1.068357602959015,-0.1316651999950409,1.5459434229084472,1.2060775756835938,-0.3732698599444788,0.021487385034561157,-0.0073455083183944225,-0.005752411670982838,-0.006470490247011185,-0.01788054034113884,-0.01784667931497097,0.2982648015022278,-1.069455862045288,-0.6504808664321899,-0.3381059765815735,-0.29660195112228394,-0.16059626638889313
1749034846.2076252,1.0299696922302246,-1.068357602959015,-0.1316651999950409,1.5459434229084472,1.2060775756835938,-0.3732698599444788,0.021487385034561157,-0.0073455083183944225,-0.005752411670982838,-0.006470490247011185,-0.01788054034113884,-0.01784667931497097,0.2982648015022278,-1.069455862045288,-0.6504808664321899,-0.3381059765815735,-0.29660195112228394,-0.16059626638889313
1749034846.2076921,1.0299696922302246,-1.068357602959015,-0.1316651999950409,1.5459434229084472,1.2060775756835938,-0.3732698599444788,0.021487385034561157,-0.0073455083183944225,-0.005752411670982838,-0.006470490247011185,-0.01788054034113884,-0.01784667931497097,0.2982648015022278,-1.069455862045288,-0.6504808664321899,-0.3381059765815735,-0.29660195112228394,-0.16059626638889313
1749034846.2077584,1.030102252960205,-1.0684021276286622,-0.13170506060123444,1.5458716589161376,1.2059779167175293,-0.3734172026263636,0.0245107002556324,-0.00810987502336502,-0.005638569127768278,-0.007842025719583035,-0.016668984666466713,-0.01915712095797062,0.2851146459579468,-1.097768783569336,-0.6542385816574097,-0.3342321813106537,-0.29586631059646606,-0.1604558229446411
1749034846.2079134,1.030102252960205,-1.0684021276286622,-0.13170506060123444,1.5458716589161376,1.2059779167175293,-0.3734172026263636,0.0245107002556324,-0.00810987502336502,-0.005638569127768278,-0.007842025719583035,-0.016668984666466713,-0.01915712095797062,0.2851146459579468,-1.097768783569336,-0.6542385816574097,-0.3342321813106537,-0.29586631059646606,-0.1604558229446411
1749034846.2093859,1.030189871788025,-1.0684643548778077,-0.1317291259765625,1.5458358961292724,1.2059141397476196,-0.3734191099749964,0.02488403022289276,-0.008538615889847279,-0.006732490845024586,-0.007617987226694822,-0.016170088201761246,-0.02062634378671646,0.2934671938419342,-1.1008480787277222,-0.6579164862632751,-0.3332746922969818,-0.324088454246521,-0.16431863605976105
1749034846.2502997,1.0302499532699585,-1.0684378904155274,-0.13174450397491455,1.545839472407959,1.2059130668640137,-0.37350160280336553,0.025205597281455994,-0.009135163389146328,-0.006725584156811237,-0.007956496439874172,-0.01672378182411194,-0.02087581530213356,0.3017536699771881,-1.1063363552093506,-0.6594489216804504,-0.3451341688632965,-0.33344388008117676,-0.17185711860656738
1749034846.2503457,1.0303131341934204,-1.0684424203685303,-0.13175643980503082,1.545839472407959,1.2058460712432861,-0.37353784242738897,0.02612130530178547,-0.009243495762348175,-0.007216726429760456,-0.007717098109424114,-0.016881048679351807,-0.021677149459719658,0.3226097822189331,-1.0916593074798584,-0.6567550897598267,-0.34340041875839233,-0.3200616240501404,-0.16535495221614838
1749034846.2503855,1.0303213596343994,-1.068481521015503,-0.13176512718200684,1.5457960802265625,1.2058029174804688,-0.37356549898256475,0.02788502536714077,-0.010237764567136765,-0.0074086119420826435,-0.007854219526052475,-0.01778699830174446,-0.022000787779688835,0.3233916759490967,-1.1101505756378174,-0.6457937359809875,-0.3595145046710968,-0.32547616958618164,-0.17053772509098053
1749034846.2504237,1.0303810834884644,-1.0685135287097474,-0.13178052008152008,1.545787735576294,1.2058017253875732,-0.37362558046449834,0.028745189309120178,-0.01025068387389183,-0.007331598084419966,-0.008264404721558094,-0.01970466412603855,-0.023717956617474556,0.33282023668289185,-1.1182054281234741,-0.6562905311584473,-0.3573153018951416,-0.32211899757385254,-0.18445806205272675
1749034846.2504606,1.0304292440414429,-1.0684943360141297,-0.1318046897649765,1.545787735576294,1.2057459354400635,-0.3736313025103968,0.029621344059705734,-0.01109401322901249,-0.008230977691709995,-0.008861756883561611,-0.02005327306687832,-0.025781650096178055,0.36987438797950745,-1.1401914358139038,-0.6600989699363708,-0.34537506103515625,-0.32620376348495483,-0.18072150647640228
1749034846.2504995,1.0305205583572388,-1.0685410064509888,-0.13183224201202393,1.545755072230957,1.2057294845581055,-0.37371761003603154,0.030593255534768105,-0.011599221266806126,-0.0083863390609622,-0.009118782356381416,-0.021204235032200813,-0.026774736121296883,0.3670615553855896,-1.1195440292358398,-0.6561670303344727,-0.3509315252304077,-0.3397742509841919,-0.17767739295959473
1749034846.2505374,1.0305205583572388,-1.0685410064509888,-0.13183224201202393,1.545755072230957,1.2057294845581055,-0.37371761003603154,0.030593255534768105,-0.011599221266806126,-0.0083863390609622,-0.009118782356381416,-0.021204235032200813,-0.026774736121296883,0.3670615553855896,-1.1195440292358398,-0.6561670303344727,-0.3509315252304077,-0.3397742509841919,-0.17767739295959473
1749034846.2505755,1.0306401252746582,-1.0685774248889466,-0.13182173669338226,1.5457188326069335,1.2056610584259033,-0.3738339583026331,0.03330446779727936,-0.012714093551039696,-0.008470069617033005,-0.010297560133039951,-0.023931220173835754,-0.029586609452962875,0.36892035603523254,-1.1333304643630981,-0.658981204032898,-0.35152488946914673,-0.37110525369644165,-0.1991693079471588
1749034846.2506125,1.0306401252746582,-1.0685774248889466,-0.13182173669338226,1.5457188326069335,1.2056610584259033,-0.3738339583026331,0.03330446779727936,-0.012714093551039696,-0.008470069617033005,-0.010297560133039951,-0.023931220173835754,-0.029586609452962875,0.36892035603523254,-1.1333304643630981,-0.658981204032898,-0.35152488946914673,-0.37110525369644165,-0.1991693079471588
1749034846.25065,1.0307115316390991,-1.068612353210785,-0.1318647563457489,1.5456878381916503,1.2056324481964111,-0.37391645113100225,0.03477500379085541,-0.013505040667951107,-0.00920878630131483,-0.009463287889957428,-0.026269549503922462,-0.03128562122583389,0.39549732208251953,-1.1495623588562012,-0.6579802632331848,-0.35299602150917053,-0.36158478260040283,-0.18867631256580353
1749034846.2506862,1.0308001041412354,-1.0686099094203492,-0.1318696290254593,1.545652075404785,1.2055087089538574,-0.3740447203265589,0.037418194115161896,-0.01276969164609909,-0.009435823187232018,-0.00984878744930029,-0.03155674412846565,-0.033742669969797134,0.3688301146030426,-1.1649566888809204,-0.6605587601661682,-0.36937856674194336,-0.3485056757926941,-0.21501457691192627
1749034846.2507224,1.0308001041412354,-1.0686099094203492,-0.1318696290254593,1.545652075404785,1.2055087089538574,-0.3740447203265589,0.037418194115161896,-0.01276969164609909,-0.009435823187232018,-0.00984878744930029,-0.03155674412846565,-0.033742669969797134,0.3688301146030426,-1.1649566888809204,-0.6605587601661682,-0.36937856674194336,-0.3485056757926941,-0.21501457691192627
1749034846.2507586,1.0309754610061646,-1.0687000912478943,-0.13192129135131836,1.5456194120594482,1.20536470413208,-0.37416059175600225,0.039661746472120285,-0.0125571358948946,-0.009418669156730175,-0.010314853861927986,-0.034977395087480545,-0.03870334103703499,0.3829908072948456,-1.1541486978530884,-0.6675746440887451,-0.37363219261169434,-0.37776923179626465,-0.20708006620407104
1749034846.2507954,1.0310862064361572,-1.068716661339142,-0.13193319737911224,1.5455950933643798,1.2052280902862549,-0.3742602507220667,0.04174301028251648,-0.012720536440610886,-0.009418175555765629,-0.010512780398130417,-0.03747296333312988,-0.04264029487967491,0.36178645491600037,-1.147417426109314,-0.6699857115745544,-0.37056058645248413,-0.3501163721084595,-0.20560598373413086
1749034846.2508318,1.0310862064361572,-1.068716661339142,-0.13193319737911224,1.5455950933643798,1.2052280902862549,-0.3742602507220667,0.04174301028251648,-0.012720536440610886,-0.009418175555765629,-0.010512780398130417,-0.03747296333312988,-0.04264029487967491,0.36178645491600037,-1.147417426109314,-0.6699857115745544,-0.37056058645248413,-0.3501163721084595,-0.20560598373413086
1749034846.2508683,1.031154751777649,-1.068756715660431,-0.13195383548736572,1.5455676752277832,1.2051786184310913,-0.37435990968813115,0.04401662200689316,-0.011741330847144127,-0.01039186306297779,-0.01067581307142973,-0.03862366825342178,-0.04303598031401634,0.35343584418296814,-1.1672905683517456,-0.6649737358093262,-0.3749581575393677,-0.3302300274372101,-0.20689207315444946
1749034846.2509043,1.0313382148742676,-1.0687731069377442,-0.13200868666172028,1.5455195146748046,1.204983115196228,-0.37449962297548467,0.04354142025113106,-0.011874133720993996,-0.00976099818944931,-0.01099023874849081,-0.04183271527290344,-0.04375124350190163,0.4252460300922394,-1.1718727350234985,-0.6716410517692566,-0.3742528259754181,-0.3076944053173065,-0.19576790928840637
1749034846.2509406,1.0313382148742676,-1.0687731069377442,-0.13200868666172028,1.5455195146748046,1.204983115196228,-0.37449962297548467,0.04354142025113106,-0.011874133720993996,-0.00976099818944931,-0.01099023874849081,-0.04183271527290344,-0.04375124350190163,0.4252460300922394,-1.1718727350234985,-0.6716410517692566,-0.3742528259754181,-0.3076944053173065,-0.19576790928840637
1749034846.250981,1.0314981937408447,-1.0688525599292298,-0.1320652961730957,1.5455028253742675,1.2048449516296387,-0.37471038499941045,0.0477982796728611,-0.01257924735546112,-0.010662616230547428,-0.010852229781448841,-0.043211936950683594,-0.044608913362026215,0.37518638372421265,-1.1558506488800049,-0.6646504998207092,-0.3786245584487915,-0.2865721583366394,-0.20535039901733398
1749034846.2510223,1.0314981937408447,-1.0688525599292298,-0.1320652961730957,1.5455028253742675,1.2048449516296387,-0.37471038499941045,0.0477982796728611,-0.01257924735546112,-0.010662616230547428,-0.010852229781448841,-0.043211936950683594,-0.044608913362026215,0.37518638372421265,-1.1558506488800049,-0.6646504998207092,-0.3786245584487915,-0.2865721583366394,-0.20535039901733398
1749034846.2514017,1.031697154045105,-1.0688964289477845,-0.13211670517921448,1.5454503732868652,1.2046494483947754,-0.3748710791217249,0.048591770231723785,-0.01243390329182148,-0.011263665743172169,-0.00977126695215702,-0.04144672304391861,-0.04814937710762024,0.353270947933197,-1.1716092824935913,-0.6531057953834534,-0.39628055691719055,-0.2936219871044159,-0.1936773657798767
1749034846.2533622,1.0318323373794556,-1.068923906689026,-0.13211320340633392,1.5454231935688476,1.2045942544937134,-0.37501746812929326,0.05066195875406265,-0.013390566222369671,-0.01040065847337246,-0.009847231209278107,-0.0405653715133667,-0.04903349652886391,0.34394189715385437,-1.160160779953003,-0.6603501439094543,-0.38832172751426697,-0.30889707803726196,-0.21470187604427338
1749034846.29428,1.0318323373794556,-1.068923906689026,-0.13211320340633392,1.5454231935688476,1.2045942544937134,-0.37501746812929326,0.05066195875406265,-0.013390566222369671,-0.01040065847337246,-0.009847231209278107,-0.0405653715133667,-0.04903349652886391,0.34394189715385437,-1.160160779953003,-0.6603501439094543,-0.38832172751426697,-0.30889707803726196,-0.21470187604427338
1749034846.2943256,1.0320115089416504,-1.068999544983246,-0.1321648359298706,1.545391007060669,1.2043815851211548,-0.37515145937074834,0.05324959382414818,-0.01449178159236908,-0.01103450357913971,-0.01090371236205101,-0.04397422820329666,-0.05176287889480591,0.3617326021194458,-1.1610177755355835,-0.660427987575531,-0.40157628059387207,-0.3047952950000763,-0.19515320658683777
1749034846.294365,1.032124638557434,-1.068988637333252,-0.13218893110752106,1.5453664499470214,1.2043300867080688,-0.3753011862384241,0.054268620908260345,-0.014010856859385967,-0.011734061874449253,-0.010562000796198845,-0.043723829090595245,-0.05267181620001793,0.33619925379753113,-1.176571011543274,-0.6661843061447144,-0.3940950632095337,-0.30231600999832153,-0.2058136761188507
1749034846.2944036,1.0322318077087402,-1.0690197509578248,-0.1322127729654312,1.5453738409229736,1.2042367458343506,-0.3754642645465296,0.054822854697704315,-0.014581517316401005,-0.012004164978861809,-0.009727150201797485,-0.04388042539358139,-0.051952797919511795,0.34868744015693665,-1.1819812059402466,-0.6540848016738892,-0.4033460021018982,-0.30569207668304443,-0.19742999970912933
1749034846.294441,1.0323394536972046,-1.0690715473941346,-0.13222146034240723,1.5453392702290039,1.2041609287261963,-0.3754938284503382,0.05630973353981972,-0.014278617687523365,-0.01181255467236042,-0.009940276853740215,-0.04423476755619049,-0.05188855528831482,0.3711172640323639,-1.178935170173645,-0.6443271636962891,-0.40892207622528076,-0.3269662857055664,-0.21333430707454681
1749034846.2944782,1.0323394536972046,-1.0690715473941346,-0.13222146034240723,1.5453392702290039,1.2041609287261963,-0.3754938284503382,0.05630973353981972,-0.014278617687523365,-0.01181255467236042,-0.009940276853740215,-0.04423476755619049,-0.05188855528831482,0.3711172640323639,-1.178935170173645,-0.6443271636962891,-0.40892207622528076,-0.3269662857055664,-0.21333430707454681
1749034846.2945178,1.032555103302002,-1.0690925878337403,-0.132285013794899,1.5453027921864013,1.2039340734481812,-0.37574941316713506,0.05803242698311806,-0.014921986497938633,-0.011143200099468231,-0.010831358842551708,-0.04589962214231491,-0.05496085435152054,0.3632352948188782,-1.200652837753296,-0.6656978130340576,-0.401949405670166,-0.32421770691871643,-0.20390382409095764
1749034846.2945552,1.0327095985412598,-1.0691207212260743,-0.13231581449508667,1.5452629762836914,1.203865647315979,-0.37588340440859014,0.05930488556623459,-0.015834642574191093,-0.010870645754039288,-0.011886568740010262,-0.04621382802724838,-0.05768050625920296,0.3574399948120117,-1.2167774438858032,-0.6597049236297607,-0.4251256585121155,-0.3322349190711975,-0.17990578711032867
1749034846.2945921,1.0327095985412598,-1.0691207212260743,-0.13231581449508667,1.5452629762836914,1.203865647315979,-0.37588340440859014,0.05930488556623459,-0.015834642574191093,-0.010870645754039288,-0.011886568740010262,-0.04621382802724838,-0.05768050625920296,0.3574399948120117,-1.2167774438858032,-0.6597049236297607,-0.4251256585121155,-0.3322349190711975,-0.17990578711032867
1749034846.2946293,1.032802700996399,-1.0691912335208436,-0.13231754302978516,1.5452775198170166,1.2037663459777832,-0.37600833574403936,0.06045509874820709,-0.015996668487787247,-0.012054597027599812,-0.011899298056960106,-0.04688861221075058,-0.05871068313717842,0.37897568941116333,-1.2151119709014893,-0.6593226194381714,-0.405373752117157,-0.3485373258590698,-0.18612726032733917
1749034846.2946656,1.0329457521438599,-1.0692469042590638,-0.13231754302978516,1.5452381807514648,1.203701138496399,-0.37608415285219365,0.061128683388233185,-0.015940219163894653,-0.011480888351798058,-0.011888253502547741,-0.04759569466114044,-0.058794885873794556,0.35043129324913025,-1.2312995195388794,-0.6609883904457092,-0.42841678857803345,-0.346328467130661,-0.16898255050182343
1749034846.2947013,1.0330109596252441,-1.0692476791194458,-0.13238467276096344,1.5452107626148681,1.2035704851150513,-0.3762167135821741,0.06357914209365845,-0.016927851364016533,-0.011773836798965931,-0.012167458422482014,-0.04924444481730461,-0.059682611376047134,0.39931729435920715,-1.2216917276382446,-0.6776800751686096,-0.40099993348121643,-0.34947556257247925,-0.20717690885066986
1749034846.2947376,1.0332976579666138,-1.0692761701396485,-0.13241706788539886,1.5451428133198242,1.2033159732818604,-0.37647897401918584,0.06471334397792816,-0.017916128039360046,-0.012171979062259197,-0.013621551916003227,-0.05262274667620659,-0.0615096390247345,0.39793431758880615,-1.2288134098052979,-0.662091851234436,-0.41425246000289917,-0.3677515983581543,-0.20046614110469818
1749034846.294774,1.0332976579666138,-1.0692761701396485,-0.13241706788539886,1.5451428133198242,1.2033159732818604,-0.37647897401918584,0.06471334397792816,-0.017916128039360046,-0.012171979062259197,-0.013621551916003227,-0.05262274667620659,-0.0615096390247345,0.39793431758880615,-1.2288134098052979,-0.662091851234436,-0.41425246000289917,-0.3677515983581543,-0.20046614110469818
1749034846.29481,1.0336027145385742,-1.0693600934794922,-0.13247202336788177,1.545086308116577,1.2031420469284058,-0.3767460028277796,0.07067278772592545,-0.01880592666566372,-0.012235689908266068,-0.015018992125988007,-0.055015478283166885,-0.06463685631752014,0.3625737428665161,-1.2497214078903198,-0.6625896692276001,-0.4213132858276367,-0.3772876560688019,-0.21474435925483704
1749034846.294846,1.0336027145385742,-1.0693600934794922,-0.13247202336788177,1.545086308116577,1.2031420469284058,-0.3767460028277796,0.07067278772592545,-0.01880592666566372,-0.012235689908266068,-0.015018992125988007,-0.055015478283166885,-0.06463685631752014,0.3625737428665161,-1.2497214078903198,-0.6625896692276001,-0.4213132858276367,-0.3772876560688019,-0.21474435925483704
1749034846.2948816,1.0336923599243164,-1.0693963331035157,-0.13248884677886963,1.545069857234619,1.203002691268921,-0.3768547216998499,0.06954187154769897,-0.01980431005358696,-0.013038030825555325,-0.015862751752138138,-0.05557344853878021,-0.06507734954357147,0.44055867195129395,-1.2555259466171265,-0.6580166220664978,-0.4185679256916046,-0.39642056822776794,-0.22009268403053284
1749034846.2949178,1.0338515043258667,-1.0694830578616639,-0.13254085183143616,1.545046015376709,1.2029224634170532,-0.3769939581500452,0.07310356199741364,-0.02080974169075489,-0.0131699712947011,-0.016168061643838882,-0.05818925052881241,-0.06707189232110977,0.37543368339538574,-1.2306541204452515,-0.6804830431938171,-0.4107341170310974,-0.39707833528518677,-0.22673848271369934
1749034846.2949538,1.0340111255645752,-1.0695224565318604,-0.13254918158054352,1.5449988084980468,1.2028180360794067,-0.37713414827455694,0.07401159405708313,-0.01947109028697014,-0.013198241591453552,-0.015977131202816963,-0.061603110283613205,-0.06863604485988617,0.4019083082675934,-1.2389824390411377,-0.6629883646965027,-0.4211023151874542,-0.37846532464027405,-0.23445138335227966
1749034846.2949898,1.034153938293457,-1.069519655113556,-0.13259218633174896,1.5449854570576171,1.2027089595794678,-0.37728864351381475,0.07474694401025772,-0.019479665905237198,-0.012696023099124432,-0.015840716660022736,-0.06362149864435196,-0.07003027200698853,0.391875684261322,-1.2653687000274658,-0.6526607275009155,-0.44306403398513794,-0.38525456190109253,-0.24279288947582245
1749034846.2954297,1.034441351890564,-1.0695797365954895,-0.13262474536895752,1.5449096399494628,1.2023907899856567,-0.37759286562074834,0.0797797292470932,-0.021238230168819427,-0.01413227990269661,-0.017043273895978928,-0.06519816815853119,-0.07419657707214355,0.39125150442123413,-1.2908316850662231,-0.6632563471794128,-0.429860383272171,-0.42592769861221313,-0.22239598631858826
1749034846.2973845,1.034441351890564,-1.0695797365954895,-0.13262474536895752,1.5449096399494628,1.2023907899856567,-0.37759286562074834,0.0797797292470932,-0.021238230168819427,-0.01413227990269661,-0.017043273895978928,-0.06519816815853119,-0.07419657707214355,0.39125150442123413,-1.2908316850662231,-0.6632563471794128,-0.429860383272171,-0.42592769861221313,-0.22239598631858826
1749034846.3390799,1.0346487760543823,-1.0696866673282166,-0.13262639939785004,1.5448741155811767,1.2022817134857178,-0.37773257890810186,0.08070086687803268,-0.021774642169475555,-0.014505288563668728,-0.017996743321418762,-0.06896183639764786,-0.0746726244688034,0.41351914405822754,-1.2745963335037231,-0.6751917600631714,-0.44578447937965393,-0.40074947476387024,-0.2384829819202423
1749034846.339127,1.035018801689148,-1.0697232645801087,-0.13272078335285187,1.5447704034992675,1.201931118965149,-0.37802058855165654,0.0859752967953682,-0.023397721350193024,-0.01564679481089115,-0.019687743857502937,-0.07522586733102798,-0.07826574891805649,0.43703240156173706,-1.3254876136779785,-0.6812368631362915,-0.4411778151988983,-0.40903013944625854,-0.24924594163894653
1749034846.3391666,1.035198450088501,-1.0697906178287049,-0.1327173411846161,1.5447694498249511,1.2018061876296997,-0.37818700471986944,0.08697742223739624,-0.024733152240514755,-0.0161298755556345,-0.020221222192049026,-0.07827049493789673,-0.08266942948102951,0.39485591650009155,-1.2702733278274536,-0.6677175164222717,-0.4372224807739258,-0.362833172082901,-0.2523736357688904
1749034846.3392162,1.0353496074676514,-1.0698278707316895,-0.1327497959136963,1.5447367864796142,1.2016311883926392,-0.3783209959613245,0.08984021097421646,-0.02466888725757599,-0.0162305049598217,-0.020984012633562088,-0.07812003791332245,-0.0880088061094284,0.4359143376350403,-1.2808631658554077,-0.6729681491851807,-0.4361388385295868,-0.3727148473262787,-0.2265361100435257
1749034846.3392694,1.0353496074676514,-1.0698278707316895,-0.1327497959136963,1.5447367864796142,1.2016311883926392,-0.3783209959613245,0.08984021097421646,-0.02466888725757599,-0.0162305049598217,-0.020984012633562088,-0.07812003791332245,-0.0880088061094284,0.4359143376350403,-1.2808631658554077,-0.6729681491851807,-0.4361388385295868,-0.3727148473262787,-0.2265361100435257
1749034846.3393185,1.0354828834533691,-1.0698864620975037,-0.1328081488609314,1.544677658671997,1.2014353275299072,-0.37852698961366826,0.08867314457893372,-0.024783946573734283,-0.01565878465771675,-0.02095429040491581,-0.07816008478403091,-0.08858849108219147,0.447702020406723,-1.2929400205612183,-0.6939058303833008,-0.4212356507778168,-0.385102778673172,-0.24805323779582977
1749034846.3393662,1.035841941833496,-1.069997863178589,-0.1328805536031723,1.5445939737507324,1.2011239528656006,-0.3788707892047327,0.09467535465955734,-0.024642523378133774,-0.016890153288841248,-0.021464239805936813,-0.0836077481508255,-0.09299620240926743,0.3864677846431732,-1.2905693054199219,-0.6740851998329163,-0.44456443190574646,-0.362011194229126,-0.2315252125263214
1749034846.3394175,1.035841941833496,-1.069997863178589,-0.1328805536031723,1.5445939737507324,1.2011239528656006,-0.3788707892047327,0.09467535465955734,-0.024642523378133774,-0.016890153288841248,-0.021464239805936813,-0.0836077481508255,-0.09299620240926743,0.3864677846431732,-1.2905693054199219,-0.6740851998329163,-0.44456443190574646,-0.362011194229126,-0.2315252125263214
1749034846.339471,1.0360558032989502,-1.0700351160815735,-0.13291296362876892,1.5445329385944824,1.2008968591690063,-0.3790934721576136,0.09459327161312103,-0.02514081820845604,-0.017311448231339455,-0.021545588970184326,-0.08483073860406876,-0.09602881222963333,0.4307398498058319,-1.3219304084777832,-0.6782563924789429,-0.43884211778640747,-0.34561821818351746,-0.22808252274990082
1749034846.3395126,1.0364470481872559,-1.0701502126506348,-0.13296958804130554,1.5444611746021728,1.2006340026855469,-0.37951976457704717,0.09933065623044968,-0.028447242453694344,-0.01847449317574501,-0.023001262918114662,-0.085385262966156,-0.09880813956260681,0.45088428258895874,-1.3194048404693604,-0.6837282180786133,-0.43941670656204224,-0.33408448100090027,-0.22660180926322937
1749034846.3395507,1.0366393327713013,-1.0702295464328309,-0.13299715518951416,1.5443855959125976,1.200391411781311,-0.3797510305987757,0.10137465596199036,-0.02872932143509388,-0.01945824921131134,-0.0230430755764246,-0.08505681157112122,-0.10034564882516861,0.42292484641075134,-1.3027920722961426,-0.6688639521598816,-0.4287448227405548,-0.34404832124710083,-0.21888142824172974
1749034846.3395884,1.0368494987487793,-1.0702653688243409,-0.13305343687534332,1.5443493562885742,1.200278878211975,-0.37990075746645147,0.10213032364845276,-0.02905360609292984,-0.019469469785690308,-0.023813514038920403,-0.08376374840736389,-0.10044205188751221,0.45195990800857544,-1.3485305309295654,-0.6901065111160278,-0.4337974786758423,-0.36136239767074585,-0.22694572806358337
1749034846.3396258,1.0368494987487793,-1.0702653688243409,-0.13305343687534332,1.5443493562885742,1.200278878211975,-0.37990075746645147,0.10213032364845276,-0.02905360609292984,-0.019469469785690308,-0.023813514038920403,-0.08376374840736389,-0.10044205188751221,0.45195990800857544,-1.3485305309295654,-0.6901065111160278,-0.4337974786758423,-0.36136239767074585,-0.22694572806358337
1749034846.3396626,1.0372681617736816,-1.0703584116748353,-0.13314113020896912,1.5442725855061035,1.1999510526657104,-0.38035375276674444,0.1097937673330307,-0.03094060905277729,-0.020369378849864006,-0.02538497932255268,-0.08525726944208145,-0.10194668918848038,0.3994033634662628,-1.3047947883605957,-0.6816314458847046,-0.4413703382015228,-0.39357808232307434,-0.251311331987381
1749034846.3396997,1.0374926328659058,-1.0704340499690552,-0.13321168720722198,1.5442053514667968,1.1997627019882202,-0.3805654684649866,0.10710839927196503,-0.02942819893360138,-0.020660892128944397,-0.02603870816528797,-0.08641091734170914,-0.1030600517988205,0.4461277425289154,-1.3292837142944336,-0.6674190759658813,-0.44970783591270447,-0.4237624704837799,-0.2629307806491852
1749034846.3397386,1.0374926328659058,-1.0704340499690552,-0.13321168720722198,1.5442053514667968,1.1997627019882202,-0.3805654684649866,0.10710839927196503,-0.02942819893360138,-0.020660892128944397,-0.02603870816528797,-0.08641091734170914,-0.1030600517988205,0.4461277425289154,-1.3292837142944336,-0.6674190759658813,-0.44970783591270447,-0.4237624704837799,-0.2629307806491852
1749034846.3397787,1.037907600402832,-1.0705573719790955,-0.13327674567699432,1.544097586269043,1.1993680000305176,-0.38095361391176397,0.11134891957044601,-0.03244852274656296,-0.020340437069535255,-0.02712997980415821,-0.09005839377641678,-0.10534901916980743,0.4875078499317169,-1.3346565961837769,-0.6928211450576782,-0.4135854244232178,-0.42211318016052246,-0.27445876598358154
1749034846.3398163,1.037907600402832,-1.0705573719790955,-0.13327674567699432,1.544097586269043,1.1993680000305176,-0.38095361391176397,0.11134891957044601,-0.03244852274656296,-0.020340437069535255,-0.02712997980415821,-0.09005839377641678,-0.10534901916980743,0.4875078499317169,-1.3346565961837769,-0.6928211450576782,-0.4135854244232178,-0.42211318016052246,-0.27445876598358154
1749034846.339853,1.0383855104446411,-1.0706739586642762,-0.13331089913845062,1.5440117555805664,1.1990081071853638,-0.38141137758363897,0.11704271286725998,-0.0338430181145668,-0.021192295476794243,-0.028141003102064133,-0.09614533931016922,-0.11072318255901337,0.4641116261482239,-1.322442889213562,-0.6915583610534668,-0.4157540798187256,-0.43334317207336426,-0.2667839229106903
1749034846.3398895,1.0386528968811035,-1.0707652133754273,-0.13337767124176025,1.543944998378418,1.1988126039505005,-0.3815730253802698,0.1185411885380745,-0.0346497967839241,-0.022039156407117844,-0.02730533666908741,-0.10127734392881393,-0.11218109726905823,0.5065090656280518,-1.3566406965255737,-0.6861172914505005,-0.4053431749343872,-0.4384195804595947,-0.28308793902397156
1749034846.3400111,1.0386528968811035,-1.0707652133754273,-0.13337767124176025,1.543944998378418,1.1988126039505005,-0.3815730253802698,0.1185411885380745,-0.0346497967839241,-0.022039156407117844,-0.02730533666908741,-0.10127734392881393,-0.11218109726905823,0.5065090656280518,-1.3566406965255737,-0.6861172914505005,-0.4053431749343872,-0.4384195804595947,-0.28308793902397156
1749034846.3413775,1.0387911796569824,-1.0708174270442505,-0.1334221512079239,1.5439035135456542,1.198600172996521,-0.38180762926210576,0.12140154093503952,-0.0366092324256897,-0.023091571405529976,-0.027070285752415657,-0.10361508280038834,-0.11375074088573456,0.4485853314399719,-1.3194921016693115,-0.6837098598480225,-0.4188424348831177,-0.3990745544433594,-0.30138182640075684
1749034846.386325,1.039066195487976,-1.0708770912936707,-0.133449986577034,1.5438241201588134,1.1984153985977173,-0.3820274511920374,0.12324605882167816,-0.03670859336853027,-0.02462165430188179,-0.027784474194049835,-0.10617828369140625,-0.11641120910644531,0.48158156871795654,-1.3096908330917358,-0.6692285537719727,-0.4342895746231079,-0.4184132516384125,-0.28507959842681885
1749034846.3863723,1.0396242141723633,-1.0710092645934601,-0.1335649937391281,1.5437123018452148,1.1979516744613647,-0.38252240816225225,0.12929119169712067,-0.03761174529790878,-0.021437138319015503,-0.02966313622891903,-0.11676308512687683,-0.12252858281135559,0.4250371754169464,-1.328166127204895,-0.7355881333351135,-0.39725878834724426,-0.3739774525165558,-0.257701575756073
1749034846.386413,1.0398411750793457,-1.0710806411555787,-0.13361285626888275,1.54366843282666,1.197704792022705,-0.3827932516681116,0.12820002436637878,-0.03832196071743965,-0.022854546085000038,-0.029104365035891533,-0.11594723165035248,-0.12551426887512207,0.48397818207740784,-1.3281142711639404,-0.7056868672370911,-0.4016777575016022,-0.3757858872413635,-0.27478939294815063
1749034846.3864522,1.0398411750793457,-1.0710806411555787,-0.13361285626888275,1.54366843282666,1.197704792022705,-0.3827932516681116,0.12820002436637878,-0.03832196071743965,-0.022854546085000038,-0.029104365035891533,-0.11594723165035248,-0.12551426887512207,0.48397818207740784,-1.3281142711639404,-0.7056868672370911,-0.4016777575016022,-0.3757858872413635,-0.27478939294815063
1749034846.38649,1.0403488874435425,-1.0712521535209198,-0.13369354605674744,1.5435163217731933,1.197219967842102,-0.38335973421205694,0.1344756931066513,-0.04010249301791191,-0.0251272264868021,-0.02905019372701645,-0.11848608404397964,-0.12985233962535858,0.4454381763935089,-1.3271275758743286,-0.7055177092552185,-0.4186393618583679,-0.3451697826385498,-0.24361081421375275
1749034846.3865407,1.0406644344329834,-1.071367160683014,-0.1337449848651886,1.5434793668934326,1.196952223777771,-0.38359243074526006,0.13658587634563446,-0.03972842916846275,-0.02493704855442047,-0.030080292373895645,-0.11821867525577545,-0.13039375841617584,0.44091150164604187,-1.333083987236023,-0.7126542329788208,-0.41331613063812256,-0.3452538251876831,-0.2429598867893219
1749034846.3865857,1.0409317016601562,-1.0714126986316224,-0.1337861716747284,1.543423815364502,1.196736216545105,-0.38386327425111944,0.13811081647872925,-0.04026257246732712,-0.025125961750745773,-0.028827987611293793,-0.11666133254766464,-0.13137604296207428,0.4417386054992676,-1.333141803741455,-0.7096787691116333,-0.4158669412136078,-0.3537381887435913,-0.2519080638885498
1749034846.3866246,1.0412003993988037,-1.0714921218207856,-0.1338375210762024,1.5433799463459472,1.1964998245239258,-0.3841350714312952,0.1396053582429886,-0.04036754369735718,-0.0250827856361866,-0.028461437672376633,-0.11561299115419388,-0.13075488805770874,0.47926056385040283,-1.3305044174194336,-0.715301513671875,-0.4385380446910858,-0.35947108268737793,-0.2481783926486969
1749034846.386662,1.0412003993988037,-1.0714921218207856,-0.1338375210762024,1.5433799463459472,1.1964998245239258,-0.3841350714312952,0.1396053582429886,-0.04036754369735718,-0.0250827856361866,-0.028461437672376633,-0.11561299115419388,-0.13075488805770874,0.47926056385040283,-1.3305044174194336,-0.715301513671875,-0.4385380446910858,-0.35947108268737793,-0.2481783926486969
1749034846.3866992,1.0417832136154175,-1.0716755253127594,-0.1339266300201416,1.5432554918476562,1.1959933042526245,-0.3846696058856409,0.14371009171009064,-0.041185278445482254,-0.02632041461765766,-0.030622491613030434,-0.11415043473243713,-0.13135544955730438,0.3836885690689087,-1.3557316064834595,-0.7150512337684631,-0.43044498562812805,-0.40747031569480896,-0.2835972309112549
1749034846.3867364,1.0420728921890259,-1.0717121225646515,-0.13400568068027496,1.543163700694702,1.1957929134368896,-0.3849528471576136,0.14386332035064697,-0.04170246422290802,-0.02675323188304901,-0.03082195669412613,-0.11337559670209885,-0.13240665197372437,0.4496929943561554,-1.363007664680481,-0.7039756774902344,-0.42138543725013733,-0.42640990018844604,-0.29015976190567017
1749034846.3867798,1.0420728921890259,-1.0717121225646515,-0.13400568068027496,1.543163700694702,1.1957929134368896,-0.3849528471576136,0.14386332035064697,-0.04170246422290802,-0.02675323188304901,-0.03082195669412613,-0.11337559670209885,-0.13240665197372437,0.4496929943561554,-1.363007664680481,-0.7039756774902344,-0.42138543725013733,-0.42640990018844604,-0.29015976190567017
1749034846.3868244,1.0423837900161743,-1.0718590182117005,-0.13408489525318146,1.543116255397461,1.1955960988998413,-0.3852132002459925,0.14672577381134033,-0.04395433887839317,-0.027394426986575127,-0.030963892117142677,-0.11934761703014374,-0.1395493745803833,0.4568668305873871,-1.3381727933883667,-0.7128823399543762,-0.4394165873527527,-0.42671677470207214,-0.26656609773635864
1749034846.3868623,1.0429518222808838,-1.0720003110221406,-0.13417397439479828,1.542998953456543,1.1951302289962769,-0.3857763449298304,0.1516328901052475,-0.04345088452100754,-0.02950948290526867,-0.0321480855345726,-0.12121005356311798,-0.14398112893104553,0.40272414684295654,-1.3557465076446533,-0.6971123814582825,-0.4452087879180908,-0.43903499841690063,-0.26437538862228394
1749034846.3868995,1.0432597398757935,-1.0721455377391358,-0.13423380255699158,1.5429276663013916,1.1948603391647339,-0.3860710302935999,0.15260934829711914,-0.04505486041307449,-0.029591351747512817,-0.033559009432792664,-0.12444114685058594,-0.14746452867984772,0.42821255326271057,-1.3450677394866943,-0.690581738948822,-0.4451156556606293,-0.44899386167526245,-0.26508450508117676
1749034846.3869476,1.0435352325439453,-1.0721747738173981,-0.13432489335536957,1.5428861814686279,1.1946032047271729,-0.38635093370546514,0.15324527025222778,-0.04417154937982559,-0.028525078669190407,-0.033898454159498215,-0.1312839239835739,-0.14984354376792908,0.4450390338897705,-1.369079351425171,-0.7114924788475037,-0.44392722845077515,-0.43608248233795166,-0.26261091232299805
1749034846.387005,1.0435352325439453,-1.0721747738173981,-0.13432489335536957,1.5428861814686279,1.1946032047271729,-0.38635093370546514,0.15324527025222778,-0.04417154937982559,-0.028525078669190407,-0.033898454159498215,-0.1312839239835739,-0.14984354376792908,0.4450390338897705,-1.369079351425171,-0.7114924788475037,-0.44392722845077515,-0.43608248233795166,-0.26261091232299805
1749034846.3870664,1.0438709259033203,-1.072290526037552,-0.1343661993741989,1.5428024965473632,1.1943130493164062,-0.3866818586932581,0.15639767050743103,-0.04927951470017433,-0.029775939881801605,-0.03385602682828903,-0.13374951481819153,-0.15168103575706482,0.4349043071269989,-1.3353781700134277,-0.718295156955719,-0.43769699335098267,-0.4268122613430023,-0.25342264771461487
1749034846.3871264,1.0442143678665161,-1.0723509055427094,-0.13441051542758942,1.5427259641834716,1.1940369606018066,-0.38699323335756475,0.15980002284049988,-0.04869911074638367,-0.031562916934490204,-0.03432077541947365,-0.13839881122112274,-0.15321969985961914,0.4307903051376343,-1.3144361972808838,-0.7052820324897766,-0.44535207748413086,-0.41059041023254395,-0.25951358675956726
1749034846.3871942,1.0445387363433838,-1.0724665981582184,-0.13448292016983032,1.5426511007496337,1.1937803030014038,-0.3873046080218714,0.15862493216991425,-0.045665863901376724,-0.03088543191552162,-0.035109806805849075,-0.14212307333946228,-0.15419016778469086,0.42666900157928467,-1.3521689176559448,-0.680088222026825,-0.43518680334091187,-0.3776938319206238,-0.24803128838539124
1749034846.3872588,1.045162320137024,-1.0726738435081025,-0.13460274040699005,1.5425376135059814,1.1931861639022827,-0.38789636293520147,0.16004441678524017,-0.04652153700590134,-0.031722914427518845,-0.034744273871183395,-0.14132896065711975,-0.15340492129325867,0.48233503103256226,-1.3462016582489014,-0.6867790222167969,-0.42725759744644165,-0.3768962025642395,-0.27712395787239075
1749034846.3873053,1.045162320137024,-1.0726738435081025,-0.13460274040699005,1.5425376135059814,1.1931861639022827,-0.38789636293520147,0.16004441678524017,-0.04652153700590134,-0.031722914427518845,-0.034744273871183395,-0.14132896065711975,-0.15340492129325867,0.48233503103256226,-1.3462016582489014,-0.6867790222167969,-0.42725759744644165,-0.3768962025642395,-0.27712395787239075
1749034846.387447,1.045162320137024,-1.0726738435081025,-0.13460274040699005,1.5425376135059814,1.1931861639022827,-0.38789636293520147,0.16004441678524017,-0.04652153700590134,-0.031722914427518845,-0.034744273871183395,-0.14132896065711975,-0.15340492129325867,0.48233503103256226,-1.3462016582489014,-0.6867790222167969,-0.42725759744644165,-0.3768962025642395,-0.27712395787239075
1749034846.3893862,1.0461547374725342,-1.0729769331267853,-0.1348051130771637,1.5423061090656738,1.1923497915267944,-0.38883906999696904,0.1692807823419571,-0.04995811730623245,-0.03159782290458679,-0.03692720830440521,-0.14029668271541595,-0.1584445685148239,0.4821121394634247,-1.347674012184143,-0.7132641673088074,-0.4674358367919922,-0.42849892377853394,-0.26367631554603577
1749034846.430285,1.0461547374725342,-1.0729769331267853,-0.1348051130771637,1.5423061090656738,1.1923497915267944,-0.38883906999696904,0.1692807823419571,-0.04995811730623245,-0.03159782290458679,-0.03692720830440521,-0.14029668271541595,-0.1584445685148239,0.4821121394634247,-1.347674012184143,-0.7132641673088074,-0.4674358367919922,-0.42849892377853394,-0.26367631554603577
1749034846.4303312,1.0464775562286377,-1.0730528098395844,-0.13487036526203156,1.5422298151203613,1.192077398300171,-0.38914519945253545,0.17036330699920654,-0.0509955994784832,-0.033426228910684586,-0.03511907160282135,-0.1439184844493866,-0.160888671875,0.4522624611854553,-1.3495452404022217,-0.690251886844635,-0.4736703932285309,-0.41519099473953247,-0.28879690170288086
1749034846.4303718,1.0468533039093018,-1.0731643599322815,-0.13493362069129944,1.5421497064777832,1.191777229309082,-0.38952762285341436,0.17008265852928162,-0.05066699907183647,-0.03280198946595192,-0.03544793277978897,-0.1459122598171234,-0.1661895215511322,0.41725438833236694,-1.3228713274002075,-0.665364682674408,-0.48743319511413574,-0.4107447564601898,-0.25703877210617065
1749034846.430411,1.0475605726242065,-1.0733451408198853,-0.13506583869457245,1.542001410121582,1.1912133693695068,-0.3902228514300745,0.17334380745887756,-0.05201036110520363,-0.032407958060503006,-0.037421420216560364,-0.15240508317947388,-0.17011474072933197,0.4653158187866211,-1.3368602991104126,-0.6862209439277649,-0.4796660244464874,-0.4191027283668518,-0.261563777923584
1749034846.430449,1.047870397567749,-1.073472724562027,-0.13512268662452698,1.5419015127369384,1.190877079963684,-0.3905265966998499,0.17214076220989227,-0.05181610956788063,-0.03399128094315529,-0.037991348654031754,-0.1538154035806656,-0.1719786822795868,0.3664376437664032,-1.2510888576507568,-0.6560165286064148,-0.48122191429138184,-0.36779576539993286,-0.22791986167430878
1749034846.4304864,1.047870397567749,-1.073472724562027,-0.13512268662452698,1.5419015127369384,1.190877079963684,-0.3905265966998499,0.17214076220989227,-0.05181610956788063,-0.03399128094315529,-0.037991348654031754,-0.1538154035806656,-0.1719786822795868,0.3664376437664032,-1.2510888576507568,-0.6560165286064148,-0.48122191429138184,-0.36779576539993286,-0.22791986167430878
1749034846.4305236,1.0485776662826538,-1.0736918908408661,-0.13525821268558502,1.5417813497730712,1.1902650594711304,-0.39120465913881475,0.1688290536403656,-0.04848363995552063,-0.029091713950037956,-0.03776836395263672,-0.15127116441726685,-0.17228683829307556,0.4720597565174103,-1.3468481302261353,-0.7060973644256592,-0.4877525866031647,-0.39343398809432983,-0.24232587218284607
1749034846.4305608,1.0485776662826538,-1.0736918908408661,-0.13525821268558502,1.5417813497730712,1.1902650594711304,-0.39120465913881475,0.1688290536403656,-0.04848363995552063,-0.029091713950037956,-0.03776836395263672,-0.15127116441726685,-0.17228683829307556,0.4720597565174103,-1.3468481302261353,-0.7060973644256592,-0.4877525866031647,-0.39343398809432983,-0.24232587218284607
1749034846.4305978,1.0492888689041138,-1.0738917154124756,-0.13539354503154755,1.5416478353687744,1.189635992050171,-0.3918831984149378,0.18267464637756348,-0.05883115902543068,-0.03624561429023743,-0.03748457878828049,-0.15709246695041656,-0.17402036488056183,0.507938027381897,-1.3287787437438965,-0.7101401090621948,-0.48832014203071594,-0.42947402596473694,-0.2723369896411896
1749034846.4306352,1.0497323274612427,-1.0739766520312806,-0.13545875251293182,1.5415608125874023,1.1893398761749268,-0.392249886189596,0.186172753572464,-0.061307113617658615,-0.03801420331001282,-0.03709813207387924,-0.15824821591377258,-0.17648443579673767,0.45593124628067017,-1.3224725723266602,-0.6811671853065491,-0.5168092846870422,-0.42463910579681396,-0.2671460807323456
1749034846.4306724,1.0497323274612427,-1.0739766520312806,-0.13545875251293182,1.5415608125874023,1.1893398761749268,-0.392249886189596,0.186172753572464,-0.061307113617658615,-0.03801420331001282,-0.03709813207387924,-0.15824821591377258,-0.17648443579673767,0.45593124628067017,-1.3224725723266602,-0.6811671853065491,-0.5168092846870422,-0.42463910579681396,-0.2671460807323456
1749034846.4307096,1.0504645109176636,-1.0742623072913666,-0.13557550311088562,1.5414044099995117,1.1887253522872925,-0.39301950136293584,0.19231140613555908,-0.057685211300849915,-0.03936658427119255,-0.03935213014483452,-0.16134963929653168,-0.18306776881217957,0.4706701636314392,-1.3133795261383057,-0.6678842306137085,-0.5240587592124939,-0.44178903102874756,-0.24345135688781738
1749034846.4307456,1.0508363246917725,-1.0743861061385651,-0.1356821060180664,1.5413281160541992,1.1883734464645386,-0.39337236086000615,0.19379684329032898,-0.05999098718166351,-0.039178550243377686,-0.0410335548222065,-0.16064411401748657,-0.1854124218225479,0.42041149735450745,-1.2724720239639282,-0.6578668355941772,-0.5110066533088684,-0.4229029417037964,-0.25822433829307556
1749034846.4307868,1.0512166023254395,-1.074505792265274,-0.1357264667749405,1.5412482458302001,1.1881049871444702,-0.39372092882265264,0.19267575442790985,-0.06143075227737427,-0.036333732306957245,-0.042631909251213074,-0.15971136093139648,-0.18782921135425568,0.40818044543266296,-1.2381480932235718,-0.6816186308860779,-0.5157957077026367,-0.4614526927471161,-0.25420376658439636
1749034846.4308248,1.0516204833984375,-1.0745751720717927,-0.13577954471111298,1.5411361890980224,1.1878081560134888,-0.39413434663881475,0.19067931175231934,-0.05547433719038963,-0.03586537763476372,-0.04411100223660469,-0.16506889462471008,-0.18680812418460846,0.4517870545387268,-1.3059818744659424,-0.7092167139053345,-0.500432550907135,-0.43838679790496826,-0.2636077404022217
1749034846.4308612,1.0516204833984375,-1.0745751720717927,-0.13577954471111298,1.5411361890980224,1.1878081560134888,-0.39413434663881475,0.19067931175231934,-0.05547433719038963,-0.03586537763476372,-0.04411100223660469,-0.16506889462471008,-0.18680812418460846,0.4517870545387268,-1.3059818744659424,-0.7092167139053345,-0.500432550907135,-0.43838679790496826,-0.2636077404022217
1749034846.430898,1.0523837804794312,-1.0748342138579865,-0.135981947183609,1.5409752565571289,1.187139868736267,-0.3948729673968714,0.19319160282611847,-0.057529665529727936,-0.037714991718530655,-0.04679135978221893,-0.17131347954273224,-0.18759986758232117,0.49468040466308594,-1.343260645866394,-0.6978838443756104,-0.49473118782043457,-0.466693639755249,-0.27263811230659485
1749034846.430934,1.052807331085205,-1.0749502641013642,-0.13601991534233093,1.5408643919178466,1.1867607831954956,-0.39524776140321904,0.19636856019496918,-0.058715254068374634,-0.041071780025959015,-0.04769403114914894,-0.1765226572751999,-0.18806245923042297,0.505791187286377,-1.3311986923217773,-0.6609373092651367,-0.4848591089248657,-0.4442218542098999,-0.3059333860874176
1749034846.430971,1.052807331085205,-1.0749502641013642,-0.13601991534233093,1.5408643919178466,1.1867607831954956,-0.39524776140321904,0.19636856019496918,-0.058715254068374634,-0.041071780025959015,-0.04769403114914894,-0.1765226572751999,-0.18806245923042297,0.505791187286377,-1.3311986923217773,-0.6609373092651367,-0.4848591089248657,-0.4442218542098999,-0.3059333860874176
1749034846.4310071,1.0535837411880493,-1.0751583737185975,-0.13620688021183014,1.5406951147266845,1.1860333681106567,-0.39602977434267217,0.2035040557384491,-0.05839578062295914,-0.039170511066913605,-0.049073513597249985,-0.1821753978729248,-0.19309599697589874,0.5167279839515686,-1.329877257347107,-0.6837410926818848,-0.47615891695022583,-0.4013642966747284,-0.2956581711769104
1749034846.43142,1.0535837411880493,-1.0751583737185975,-0.13620688021183014,1.5406951147266845,1.1860333681106567,-0.39602977434267217,0.2035040557384491,-0.05839578062295914,-0.039170511066913605,-0.049073513597249985,-0.1821753978729248,-0.19309599697589874,0.5167279839515686,-1.329877257347107,-0.6837410926818848,-0.47615891695022583,-0.4013642966747284,-0.2956581711769104
1749034846.4333503,1.0544620752334595,-1.075416938667633,-0.13635964691638947,1.5404681402393798,1.1853240728378296,-0.39682037035097295,0.20497387647628784,-0.05885451287031174,-0.04115859046578407,-0.05196583643555641,-0.18016615509986877,-0.20022061467170715,0.5048892498016357,-1.3545684814453125,-0.6523122787475586,-0.46869516372680664,-0.4071892499923706,-0.27728044986724854
1749034846.4742744,1.054828405380249,-1.07558028519664,-0.13645045459270477,1.5403665739246826,1.184882640838623,-0.39723521867860967,0.20678235590457916,-0.06008363515138626,-0.04179651290178299,-0.05224107578396797,-0.18265555799007416,-0.2053796797990799,0.5364853143692017,-1.3747652769088745,-0.6647824645042419,-0.46323007345199585,-0.4131401479244232,-0.2687525749206543
1749034846.4743202,1.054828405380249,-1.07558028519664,-0.13645045459270477,1.5403665739246826,1.184882640838623,-0.39723521867860967,0.20678235590457916,-0.06008363515138626,-0.04179651290178299,-0.05224107578396797,-0.18265555799007416,-0.2053796797990799,0.5364853143692017,-1.3747652769088745,-0.6647824645042419,-0.46323007345199585,-0.4131401479244232,-0.2687525749206543
1749034846.4743612,1.0556669235229492,-1.075784758930542,-0.13663077354431152,1.5401660638996582,1.1842011213302612,-0.3980625311480921,0.2112095206975937,-0.06136859208345413,-0.042853280901908875,-0.053904250264167786,-0.1877666562795639,-0.2108781337738037,0.5207405686378479,-1.3369739055633545,-0.631313681602478,-0.42892390489578247,-0.4007570445537567,-0.24230684340000153
1749034846.4743998,1.0560998916625977,-1.0759507280639191,-0.13670624792575836,1.5400351720997314,1.1838287115097046,-0.39851314226259404,0.21307598054409027,-0.06210111454129219,-0.04054141417145729,-0.05362849682569504,-0.18672703206539154,-0.20769008994102478,0.5037766695022583,-1.3457975387573242,-0.6515144109725952,-0.42022964358329773,-0.4159620404243469,-0.2438420057296753
1749034846.4744377,1.0560998916625977,-1.0759507280639191,-0.13670624792575836,1.5400351720997314,1.1838287115097046,-0.39851314226259404,0.21307598054409027,-0.06210111454129219,-0.04054141417145729,-0.05362849682569504,-0.18672703206539154,-0.20769008994102478,0.5037766695022583,-1.3457975387573242,-0.6515144109725952,-0.42022964358329773,-0.4159620404243469,-0.2438420057296753
1749034846.474475,1.0569826364517212,-1.0761598509601136,-0.1368553787469864,1.5398377615162353,1.1831055879592896,-0.39933854738344365,0.21848340332508087,-0.06192293390631676,-0.04136016592383385,-0.04945007711648941,-0.18585586547851562,-0.21046605706214905,0.489503413438797,-1.3448532819747925,-0.6598133444786072,-0.4284965991973877,-0.41660431027412415,-0.25948524475097656
1749034846.4745116,1.0569826364517212,-1.0761598509601136,-0.1368553787469864,1.5398377615162353,1.1831055879592896,-0.39933854738344365,0.21848340332508087,-0.06192293390631676,-0.04136016592383385,-0.04945007711648941,-0.18585586547851562,-0.21046605706214905,0.489503413438797,-1.3448532819747925,-0.6598133444786072,-0.4284965991973877,-0.41660431027412415,-0.25948524475097656
1749034846.4745488,1.0578776597976685,-1.0763924282840271,-0.13704590499401093,1.5396451193043212,1.1823757886886597,-0.40013105074037725,0.22108255326747894,-0.06779462099075317,-0.040407780557870865,-0.048974279314279556,-0.1860608011484146,-0.2159033715724945,0.5110171437263489,-1.2985540628433228,-0.6798439621925354,-0.44708168506622314,-0.4461127519607544,-0.26239800453186035
1749034846.4745853,1.0582890510559082,-1.076531932955124,-0.1371108740568161,1.5395774084278564,1.18193781375885,-0.40063172975649053,0.22508957982063293,-0.06553728133440018,-0.041381947696208954,-0.04902191087603569,-0.1901538223028183,-0.2201523780822754,0.5498259663581848,-1.3406063318252563,-0.6917859315872192,-0.4453962743282318,-0.4791473150253296,-0.2702632248401642
1749034846.4746225,1.0582890510559082,-1.076531932955124,-0.1371108740568161,1.5395774084278564,1.18193781375885,-0.40063172975649053,0.22508957982063293,-0.06553728133440018,-0.041381947696208954,-0.04902191087603569,-0.1901538223028183,-0.2201523780822754,0.5498259663581848,-1.3406063318252563,-0.6917859315872192,-0.4453962743282318,-0.4791473150253296,-0.2702632248401642
1749034846.4746597,1.0591696500778198,-1.0767867130092164,-0.13725163042545319,1.5393647390552978,1.1811543703079224,-0.4015305677997034,0.22990413010120392,-0.06675661355257034,-0.042426493018865585,-0.04768502712249756,-0.19531971216201782,-0.22288991510868073,0.47448718547821045,-1.2992645502090454,-0.6770179867744446,-0.4749235212802887,-0.4630049169063568,-0.2313448190689087
1749034846.474696,1.0591696500778198,-1.0767867130092164,-0.13725163042545319,1.5393647390552978,1.1811543703079224,-0.4015305677997034,0.22990413010120392,-0.06675661355257034,-0.042426493018865585,-0.04768502712249756,-0.19531971216201782,-0.22288991510868073,0.47448718547821045,-1.2992645502090454,-0.6770179867744446,-0.4749235212802887,-0.4630049169063568,-0.2313448190689087
1749034846.4747314,1.0600847005844116,-1.077062265282013,-0.13743023574352264,1.539172812099121,1.1803689002990723,-0.40237361589540654,0.22930020093917847,-0.06443938612937927,-0.04187849164009094,-0.05032269284129143,-0.19799818098545074,-0.2191527783870697,0.5339518785476685,-1.3625837564468384,-0.7057147026062012,-0.4623648524284363,-0.4474130868911743,-0.25874078273773193
1749034846.4747682,1.0605798959732056,-1.0772184294513245,-0.13747979700565338,1.5390917497822265,1.1799354553222656,-0.40281898180116826,0.23082147538661957,-0.06698088347911835,-0.04275497421622276,-0.05024859309196472,-0.19856855273246765,-0.2170490175485611,0.5446639060974121,-1.3609286546707153,-0.7048323154449463,-0.4450182318687439,-0.4666227102279663,-0.29215407371520996
1749034846.4748042,1.0605798959732056,-1.0772184294513245,-0.13747979700565338,1.5390917497822265,1.1799354553222656,-0.40281898180116826,0.23082147538661957,-0.06698088347911835,-0.04275497421622276,-0.05024859309196472,-0.19856855273246765,-0.2170490175485611,0.5446639060974121,-1.3609286546707153,-0.7048323154449463,-0.4450182318687439,-0.4666227102279663,-0.29215407371520996
1749034846.4748406,1.0615266561508179,-1.0774270755103608,-0.13767899572849274,1.5388843256184082,1.179181456565857,-0.4037249724017542,0.23672470450401306,-0.0667242780327797,-0.04525993391871452,-0.047610774636268616,-0.19923721253871918,-0.22279953956604004,0.5236472487449646,-1.3881136178970337,-0.6878418922424316,-0.492360919713974,-0.4589334726333618,-0.28122013807296753
1749034846.474877,1.0615266561508179,-1.0774270755103608,-0.13767899572849274,1.5388843256184082,1.179181456565857,-0.4037249724017542,0.23672470450401306,-0.0667242780327797,-0.04525993391871452,-0.047610774636268616,-0.19923721253871918,-0.22279953956604004,0.5236472487449646,-1.3881136178970337,-0.6878418922424316,-0.492360919713974,-0.4589334726333618,-0.28122013807296753
1749034846.4749131,1.0620120763778687,-1.0776010912707825,-0.13774366676807404,1.5387951570698242,1.17875075340271,-0.4041679541217249,0.24035990238189697,-0.06727328896522522,-0.04605147987604141,-0.048770610243082047,-0.19878816604614258,-0.22688882052898407,0.5149846076965332,-1.3593895435333252,-0.6837010979652405,-0.4898994565010071,-0.48337629437446594,-0.2878355085849762
1749034846.4749491,1.0624603033065796,-1.077714131479599,-0.13787086308002472,1.538695974940918,1.1783273220062256,-0.40463477769960576,0.2393512725830078,-0.06855781376361847,-0.047132328152656555,-0.04960193112492561,-0.20160117745399475,-0.2307465374469757,0.5080937743186951,-1.3745030164718628,-0.675938606262207,-0.49171650409698486,-0.4552501142024994,-0.2923373878002167
1749034846.4749851,1.0629514455795288,-1.0778647822192688,-0.13796694576740265,1.5385956007191162,1.1779215335845947,-0.40506202379335576,0.2409704625606537,-0.06903940439224243,-0.047851648181676865,-0.0508270263671875,-0.20716853439807892,-0.2345481514930725,0.5087478756904602,-1.3708877563476562,-0.6743102669715881,-0.4977163076400757,-0.46710753440856934,-0.28733372688293457
1749034846.475352,1.0633728504180908,-1.078040139084198,-0.13803569972515106,1.538480206126831,1.177518367767334,-0.40556461015810186,0.24373656511306763,-0.06927081197500229,-0.04669354856014252,-0.05105516314506531,-0.20862528681755066,-0.2309654951095581,0.5692992806434631,-1.3631649017333984,-0.6694533824920654,-0.5030561089515686,-0.46314194798469543,-0.30767837166786194
1749034846.4773457,1.06388521194458,-1.0781603020480652,-0.1381472498178482,1.53839556753125,1.177108883857727,-0.4059961477862757,0.24772395193576813,-0.06949517130851746,-0.04646025598049164,-0.050813231617212296,-0.21638494729995728,-0.23575928807258606,0.5111263394355774,-1.389014482498169,-0.6866271495819092,-0.5090253353118896,-0.4306926131248474,-0.29146575927734375
1749034846.522297,1.0648869276046753,-1.078396813278534,-0.13833624124526978,1.5382026869007568,1.1762256622314453,-0.40698129335512334,0.2513841390609741,-0.07100412994623184,-0.04832301661372185,-0.052815526723861694,-0.21711459755897522,-0.24339230358600616,0.5026679635047913,-1.3628325462341309,-0.6501034498214722,-0.5352237224578857,-0.4191489815711975,-0.2922670245170593
1749034846.5223455,1.0648869276046753,-1.078396813278534,-0.13833624124526978,1.5382026869007568,1.1762256622314453,-0.40698129335512334,0.2513841390609741,-0.07100412994623184,-0.04832301661372185,-0.052815526723861694,-0.21711459755897522,-0.24339230358600616,0.5026679635047913,-1.3628325462341309,-0.6501034498214722,-0.5352237224578857,-0.4191489815711975,-0.2922670245170593
1749034846.5223875,1.0653865337371826,-1.0785802167705079,-0.13841280341148376,1.538078947658203,1.1757588386535645,-0.4074772039996546,0.24888503551483154,-0.07300979644060135,-0.048138562589883804,-0.0544869527220726,-0.2151842564344406,-0.24978841841220856,0.5282455682754517,-1.3491321802139282,-0.6788934469223022,-0.5261802673339844,-0.3986666202545166,-0.2756398618221283
1749034846.5224261,1.0659230947494507,-1.0787440997413178,-0.13851232826709747,1.537970705623291,1.175354242324829,-0.4079998175250452,0.2505815029144287,-0.07791207730770111,-0.048536140471696854,-0.056232206523418427,-0.21255217492580414,-0.2523721754550934,0.6092399954795837,-1.3381035327911377,-0.6810923218727112,-0.5129610300064087,-0.4679888188838959,-0.24528641998767853
1749034846.5224636,1.0669231414794922,-1.0790210527232666,-0.1387166827917099,1.5377704340168457,1.174544095993042,-0.409006420766012,0.2602894902229309,-0.07780642807483673,-0.050115715712308884,-0.05929829925298691,-0.21497784554958344,-0.24853995442390442,0.49635982513427734,-1.2959259748458862,-0.6491528153419495,-0.49366456270217896,-0.45305395126342773,-0.24695812165737152
1749034846.5225005,1.0669231414794922,-1.0790210527232666,-0.1387166827917099,1.5377704340168457,1.174544095993042,-0.409006420766012,0.2602894902229309,-0.07780642807483673,-0.050115715712308884,-0.05929829925298691,-0.21497784554958344,-0.24853995442390442,0.49635982513427734,-1.2959259748458862,-0.6491528153419495,-0.49366456270217896,-0.45305395126342773,-0.24695812165737152
1749034846.522538,1.0679785013198853,-1.079345927839615,-0.1389121264219284,1.537517471904419,1.1735758781433105,-0.40995675722231084,0.26320338249206543,-0.07737160474061966,-0.04859118536114693,-0.059471406042575836,-0.22423341870307922,-0.241749569773674,0.5285364985466003,-1.3438386917114258,-0.7148047089576721,-0.5174839496612549,-0.44457608461380005,-0.32536107301712036
1749034846.5225754,1.0684866905212402,-1.0795326989940186,-0.13900820910930634,1.537393494243286,1.1731531620025635,-0.41041642824281865,0.2637707591056824,-0.0773782953619957,-0.05001270771026611,-0.06071518361568451,-0.2285335808992386,-0.2465275526046753,0.5389361381530762,-1.3528817892074585,-0.6879269480705261,-0.5067377090454102,-0.4333718419075012,-0.3264463245868683
1749034846.5226119,1.0690585374832153,-1.0796686869910737,-0.13910777866840363,1.537257357234619,1.1727060079574585,-0.4109609762774866,0.2653852701187134,-0.07667436450719833,-0.05116135627031326,-0.06267497688531876,-0.23009173572063446,-0.2522411048412323,0.4532988667488098,-1.3080425262451172,-0.6558690071105957,-0.5063127875328064,-0.3902131915092468,-0.323879212141037
1749034846.5226486,1.0690585374832153,-1.0796686869910737,-0.13910777866840363,1.537257357234619,1.1727060079574585,-0.4109609762774866,0.2653852701187134,-0.07667436450719833,-0.05116135627031326,-0.06267497688531876,-0.23009173572063446,-0.2522411048412323,0.4532988667488098,-1.3080425262451172,-0.6558690071105957,-0.5063127875328064,-0.3902131915092468,-0.323879212141037
1749034846.5226853,1.0695894956588745,-1.079856352215149,-0.13921602070331573,1.53713767110791,1.1722736358642578,-0.41146880785097295,0.2671361565589905,-0.07500439137220383,-0.050561465322971344,-0.06399829685688019,-0.22784753143787384,-0.25550922751426697,0.5389808416366577,-1.3813642263412476,-0.691179096698761,-0.48233354091644287,-0.43128088116645813,-0.3311554491519928
1749034846.522725,1.0706535577774048,-1.0801493686488648,-0.1394357830286026,1.5369006830402832,1.1713016033172607,-0.412511173878805,0.2696180045604706,-0.0775204673409462,-0.05152080953121185,-0.0655275210738182,-0.22585751116275787,-0.25616514682769775,0.5241135954856873,-1.3319414854049683,-0.6596655249595642,-0.4769896864891052,-0.43596017360687256,-0.31037774682044983
1749034846.5227618,1.0711898803710938,-1.080293433075287,-0.13954032957553864,1.5367647844501953,1.1707868576049805,-0.41302615800966436,0.2702719569206238,-0.07513432949781418,-0.05078025534749031,-0.06556987017393112,-0.22983282804489136,-0.26075685024261475,0.520767867565155,-1.3779613971710205,-0.6672825217247009,-0.477520227432251,-0.43307065963745117,-0.3092450499534607
1749034846.5228152,1.0711898803710938,-1.080293433075287,-0.13954032957553864,1.5367647844501953,1.1707868576049805,-0.41302615800966436,0.2702719569206238,-0.07513432949781418,-0.05078025534749031,-0.06556987017393112,-0.22983282804489136,-0.26075685024261475,0.520767867565155,-1.3779613971710205,-0.6672825217247009,-0.477520227432251,-0.43307065963745117,-0.3092450499534607
1749034846.5228646,1.0717546939849854,-1.0804262918284913,-0.1396329402923584,1.5366322237202148,1.1703379154205322,-0.41352922121156865,0.27567195892333984,-0.07690966129302979,-0.050958454608917236,-0.06498058140277863,-0.23120762407779694,-0.259354829788208,0.5490356087684631,-1.4267207384109497,-0.7120385766029358,-0.46334946155548096,-0.43395596742630005,-0.3421818017959595
1749034846.5229032,1.072309970855713,-1.0806162518313904,-0.13976013660430908,1.5365120607563476,1.169835090637207,-0.41409475008119756,0.27956056594848633,-0.08022452890872955,-0.05415090546011925,-0.06441470235586166,-0.24004490673542023,-0.2668633460998535,0.5217225551605225,-1.3440947532653809,-0.6906478404998779,-0.4701482653617859,-0.37881749868392944,-0.335807740688324
1749034846.5229397,1.073440670967102,-1.0809251827052613,-0.13996383547782898,1.536282702083252,1.1689410209655762,-0.41522103944887334,0.27986258268356323,-0.08042565733194351,-0.05241650715470314,-0.06459470093250275,-0.23948810994625092,-0.2762777507305145,0.4506242275238037,-1.3220651149749756,-0.6681587100028992,-0.48599913716316223,-0.3532317876815796,-0.24400897324085236
1749034846.5229762,1.073440670967102,-1.0809251827052613,-0.13996383547782898,1.536282702083252,1.1689410209655762,-0.41522103944887334,0.27986258268356323,-0.08042565733194351,-0.05241650715470314,-0.06459470093250275,-0.23948810994625092,-0.2762777507305145,0.4506242275238037,-1.3220651149749756,-0.6681587100028992,-0.48599913716316223,-0.3532317876815796,-0.24400897324085236
1749034846.5230126,1.073961853981018,-1.0811277788928528,-0.14005295932292938,1.5361315447041015,1.168445348739624,-0.4157455603228968,0.2789737582206726,-0.0806766003370285,-0.05184167996048927,-0.0669248104095459,-0.2342163622379303,-0.2729012966156006,0.5726982355117798,-1.4062386751174927,-0.6964511275291443,-0.4544828534126282,-0.38705307245254517,-0.27016618847846985
1749034846.523049,1.0751206874847412,-1.0814415377429505,-0.14026083052158356,1.535844011897705,1.1674818992614746,-0.41685516039003545,0.28886982798576355,-0.08506622910499573,-0.05541420355439186,-0.06236904859542847,-0.2350785732269287,-0.26634442806243896,0.4353967308998108,-1.3005428314208984,-0.6712855100631714,-0.46297213435173035,-0.43551987409591675,-0.33479222655296326
1749034846.5230856,1.0757004022598267,-1.0816356998733063,-0.14037396013736725,1.535715027446411,1.1670608520507812,-0.4173625151263636,0.2876233160495758,-0.08458752930164337,-0.05268111079931259,-0.059631217271089554,-0.23703180253505707,-0.2674797475337982,0.4431479871273041,-1.2905497550964355,-0.6774000525474548,-0.49642300605773926,-0.4332859516143799,-0.3311033546924591
1749034846.5231216,1.0762531757354736,-1.0817937117866059,-0.14047354459762573,1.535606785411499,1.1665078401565552,-0.41792089143861944,0.28668591380119324,-0.08321370929479599,-0.05368181690573692,-0.060377564281225204,-0.2403578758239746,-0.27235159277915955,0.5749381184577942,-1.336038589477539,-0.6871699094772339,-0.5007582902908325,-0.4560280442237854,-0.33896198868751526
1749034846.5233684,1.0762531757354736,-1.0817937117866059,-0.14047354459762573,1.535606785411499,1.1665078401565552,-0.41792089143861944,0.28668591380119324,-0.08321370929479599,-0.05368181690573692,-0.060377564281225204,-0.2403578758239746,-0.27235159277915955,0.5749381184577942,-1.336038589477539,-0.6871699094772339,-0.5007582902908325,-0.4560280442237854,-0.33896198868751526
1749034846.5253239,1.0774120092391968,-1.0821054142764588,-0.1407003551721573,1.535346193904541,1.1656208038330078,-0.41906577745546514,0.2942737936973572,-0.08527474105358124,-0.055060118436813354,-0.06144905462861061,-0.2473098337650299,-0.2817636728286743,0.44924601912498474,-1.3062599897384644,-0.6673715710639954,-0.5087395310401917,-0.4110713303089142,-0.3312056064605713
1749034846.5702963,1.0780119895935059,-1.082301066522934,-0.14079785346984863,1.535245342845581,1.1650593280792236,-0.41957027116884404,0.291700154542923,-0.08318008482456207,-0.05530022084712982,-0.06366073340177536,-0.24528254568576813,-0.27913981676101685,0.48218774795532227,-1.3226039409637451,-0.6746078133583069,-0.4987078905105591,-0.4492226243019104,-0.32140275835990906
1749034846.5703442,1.0780119895935059,-1.082301066522934,-0.14079785346984863,1.535245342845581,1.1650593280792236,-0.41957027116884404,0.291700154542923,-0.08318008482456207,-0.05530022084712982,-0.06366073340177536,-0.24528254568576813,-0.27913981676101685,0.48218774795532227,-1.3226039409637451,-0.6746078133583069,-0.4987078905105591,-0.4492226243019104,-0.32140275835990906
1749034846.5703905,1.0785995721817017,-1.0824387532523652,-0.14087821543216705,1.5351244646259765,1.164579153060913,-0.4201605955706995,0.29075103998184204,-0.08252911269664764,-0.05333130806684494,-0.06266412883996964,-0.24430125951766968,-0.28167206048965454,0.5467046499252319,-1.3567228317260742,-0.711269199848175,-0.476673424243927,-0.47355684638023376,-0.31940120458602905
1749034846.5704293,1.0791616439819336,-1.0826531809619446,-0.1410050392150879,1.5350043016621093,1.1640913486480713,-0.42073089281191045,0.2944714426994324,-0.08458628505468369,-0.05433357506990433,-0.06017271429300308,-0.24552111327648163,-0.28217580914497375,0.536649227142334,-1.3352915048599243,-0.7103991508483887,-0.5250733494758606,-0.4994862675666809,-0.3522251546382904
1749034846.570467,1.0803788900375366,-1.0829515916160126,-0.14124195277690887,1.5347611147114257,1.1631077527999878,-0.4218943754779261,0.29850369691848755,-0.08663877844810486,-0.05700153112411499,-0.06120217218995094,-0.25707295536994934,-0.2976214289665222,0.48061323165893555,-1.3013768196105957,-0.6709455847740173,-0.5460522174835205,-0.46928417682647705,-0.28068646788597107
1749034846.5705044,1.0810186862945557,-1.083119497900345,-0.14134995639324188,1.5346714693256835,1.1626139879226685,-0.4225075880633753,0.29701539874076843,-0.08323941379785538,-0.05730060487985611,-0.06368706375360489,-0.26041945815086365,-0.297704815864563,0.5852057337760925,-1.3954205513000488,-0.7102041840553284,-0.5318382382392883,-0.46456706523895264,-0.2327517718076706
1749034846.5705416,1.0815831422805786,-1.0833276373199006,-0.14147013425827026,1.5345045763203125,1.1620360612869263,-0.42311412492860967,0.3017752170562744,-0.08645404875278473,-0.058360084891319275,-0.06579066812992096,-0.2617746591567993,-0.2960665225982666,0.575869083404541,-1.3663485050201416,-0.695416271686554,-0.5193830132484436,-0.45757395029067993,-0.26279664039611816
1749034846.5705793,1.0815831422805786,-1.0833276373199006,-0.14147013425827026,1.5345045763203125,1.1620360612869263,-0.42311412492860967,0.3017752170562744,-0.08645404875278473,-0.058360084891319275,-0.06579066812992096,-0.2617746591567993,-0.2960665225982666,0.575869083404541,-1.3663485050201416,-0.695416271686554,-0.5193830132484436,-0.45757395029067993,-0.26279664039611816
1749034846.5706203,1.0821913480758667,-1.0834987324527283,-0.141566202044487,1.534419222468994,1.1615008115768433,-0.42368919054140264,0.30544450879096985,-0.08778823912143707,-0.05889303237199783,-0.06713356077671051,-0.2626364231109619,-0.29008930921554565,0.5132396221160889,-1.3095036745071411,-0.6854743957519531,-0.5265791416168213,-0.44257983565330505,-0.30657750368118286
1749034846.570659,1.0828497409820557,-1.0836664301208039,-0.14170531928539276,1.5342437463947753,1.160983920097351,-0.4242633024798792,0.3063887655735016,-0.08745516091585159,-0.05949254706501961,-0.06803836673498154,-0.25937700271606445,-0.28728625178337097,0.46133384108543396,-1.3105024099349976,-0.6512032151222229,-0.541373074054718,-0.45336833596229553,-0.32934045791625977
1749034846.5706964,1.08403480052948,-1.0840118390372773,-0.14192645251750946,1.53396384298291,1.1599541902542114,-0.4254573027240198,0.3014594316482544,-0.0870128870010376,-0.0568511039018631,-0.07095210254192352,-0.2606315612792969,-0.29418644309043884,0.5175708532333374,-1.3024159669876099,-0.6822105646133423,-0.5207359194755554,-0.46142324805259705,-0.3049956262111664
1749034846.570733,1.084687352180481,-1.08422343552623,-0.14203794300556183,1.5338348585316162,1.159406065940857,-0.4260175863849085,0.30524754524230957,-0.09068704396486282,-0.05717724189162254,-0.07410827279090881,-0.2644236981868744,-0.29585275053977966,0.5591548085212708,-1.327650785446167,-0.6940978169441223,-0.5025396347045898,-0.45530936121940613,-0.3130488395690918
1749034846.5707695,1.084687352180481,-1.08422343552623,-0.14203794300556183,1.5338348585316162,1.159406065940857,-0.4260175863849085,0.30524754524230957,-0.09068704396486282,-0.05717724189162254,-0.07410827279090881,-0.2644236981868744,-0.29585275053977966,0.5591548085212708,-1.327650785446167,-0.6940978169441223,-0.5025396347045898,-0.45530936121940613,-0.3130488395690918
1749034846.5708063,1.0859142541885376,-1.0845847588828583,-0.14228181540966034,1.5335392194935302,1.1583260297775269,-0.4271953741656702,0.3081114888191223,-0.09004785865545273,-0.0590689592063427,-0.07760061323642731,-0.26936453580856323,-0.29807543754577637,0.476042240858078,-1.3263638019561768,-0.7079786658287048,-0.47087979316711426,-0.4165850281715393,-0.3245953321456909
1749034846.5708432,1.0866049528121948,-1.0847526055625458,-0.14239470660686493,1.5333828169056396,1.1578289270401,-0.42779428163637334,0.3079189360141754,-0.09136860072612762,-0.06036066263914108,-0.07671123743057251,-0.26739105582237244,-0.29992204904556274,0.4440290927886963,-1.23488187789917,-0.6450008749961853,-0.48558586835861206,-0.4015139937400818,-0.3146388530731201
1749034846.5708795,1.0872048139572144,-1.0849871796420594,-0.1424994319677353,1.5332268911549072,1.1573081016540527,-0.4284279982196253,0.30786383152008057,-0.08812953531742096,-0.057953059673309326,-0.07732794433832169,-0.2665843069553375,-0.3051508665084839,0.5364965200424194,-1.304343581199646,-0.7006397247314453,-0.46190333366394043,-0.4224051237106323,-0.30036965012550354
1749034846.5709193,1.0878251791000366,-1.085102067594864,-0.14263856410980225,1.5331017214008789,1.1567062139511108,-0.42901498476137334,0.3114730417728424,-0.0877332016825676,-0.05889502167701721,-0.07827398926019669,-0.26873257756233215,-0.3078010380268097,0.42286160588264465,-1.290895938873291,-0.7050361037254333,-0.446662038564682,-0.4134212136268616,-0.2506517171859741
1749034846.5709565,1.0878251791000366,-1.085102067594864,-0.14263856410980225,1.5331017214008789,1.1567062139511108,-0.42901498476137334,0.3114730417728424,-0.0877332016825676,-0.05889502167701721,-0.07827398926019669,-0.26873257756233215,-0.3078010380268097,0.42286160588264465,-1.290895938873291,-0.7050361037254333,-0.446662038564682,-0.4134212136268616,-0.2506517171859741
1749034846.5709934,1.0890192985534668,-1.0854884845069428,-0.142878457903862,1.5327700811573486,1.1556283235549927,-0.4302585760699671,0.30736443400382996,-0.08755681663751602,-0.05916672945022583,-0.07278354465961456,-0.2705595791339874,-0.29968130588531494,0.4838753938674927,-1.2988592386245728,-0.6760882139205933,-0.4705543518066406,-0.3907932937145233,-0.25017890334129333
1749034846.5710306,1.0896660089492798,-1.0856651228717347,-0.14299564063549042,1.5326365667530517,1.1551026105880737,-0.4308841864215296,0.3073306977748871,-0.08774944394826889,-0.059645529836416245,-0.07261002063751221,-0.2700207531452179,-0.2965249717235565,0.4527164697647095,-1.303398609161377,-0.685499906539917,-0.43060705065727234,-0.38581669330596924,-0.3002021908760071
1749034846.5710666,1.0902936458587646,-1.085829959516861,-0.14311884343624115,1.532472773189209,1.1545679569244385,-0.43145543733705694,0.3102881908416748,-0.08907890319824219,-0.061705730855464935,-0.07120902836322784,-0.2669382691383362,-0.2967911958694458,0.4965621531009674,-1.3012678623199463,-0.6510398983955383,-0.44547104835510254,-0.392673134803772,-0.30862101912498474
1749034846.5711021,1.0902936458587646,-1.085829959516861,-0.14311884343624115,1.532472773189209,1.1545679569244385,-0.43145543733705694,0.3102881908416748,-0.08907890319824219,-0.061705730855464935,-0.07120902836322784,-0.2669382691383362,-0.2967911958694458,0.4965621531009674,-1.3012678623199463,-0.6510398983955383,-0.44547104835510254,-0.392673134803772,-0.30862101912498474
1749034846.5713942,1.0909202098846436,-1.086006448870041,-0.1432751715183258,1.5323526102253417,1.154043197631836,-0.43200761476625615,0.3127421736717224,-0.08960828930139542,-0.06288211792707443,-0.0702638179063797,-0.26492443680763245,-0.3001183271408081,0.44314706325531006,-1.297303557395935,-0.6441358923912048,-0.45202165842056274,-0.3920884132385254,-0.3025653660297394
1749034846.5734222,1.0909202098846436,-1.086006448870041,-0.1432751715183258,1.5323526102253417,1.154043197631836,-0.43200761476625615,0.3127421736717224,-0.08960828930139542,-0.06288211792707443,-0.0702638179063797,-0.26492443680763245,-0.3001183271408081,0.44314706325531006,-1.297303557395935,-0.6441358923912048,-0.45202165842056274,-0.3920884132385254,-0.3025653660297394
1749034846.6182997,1.092145323753357,-1.0863980215838929,-0.14351512491703033,1.5320603090473632,1.1529514789581299,-0.433267895375387,0.3109322786331177,-0.09052301198244095,-0.06169199198484421,-0.06633787602186203,-0.2623549699783325,-0.30272263288497925,0.45998793840408325,-1.3016413450241089,-0.6242727041244507,-0.4765795171260834,-0.4469451308250427,-0.2754625380039215
1749034846.6183445,1.092145323753357,-1.0863980215838929,-0.14351512491703033,1.5320603090473632,1.1529514789581299,-0.433267895375387,0.3109322786331177,-0.09052301198244095,-0.06169199198484421,-0.06633787602186203,-0.2623549699783325,-0.30272263288497925,0.45998793840408325,-1.3016413450241089,-0.6242727041244507,-0.4765795171260834,-0.4469451308250427,-0.2754625380039215
1749034846.6183844,1.093384861946106,-1.0867426258376618,-0.14374691247940063,1.531845970744751,1.1518957614898682,-0.4344256559955042,0.3176385760307312,-0.09454575926065445,-0.06082508713006973,-0.06524909287691116,-0.27000200748443604,-0.3012523055076599,0.44616565108299255,-1.3108842372894287,-0.6615504622459412,-0.4923951029777527,-0.4458235502243042,-0.3275216519832611
1749034846.6184232,1.0940208435058594,-1.0869279366782685,-0.14387890696525574,1.531679316157959,1.1513917446136475,-0.4350326696978968,0.31447458267211914,-0.09286614507436752,-0.06030340865254402,-0.06480072438716888,-0.27219998836517334,-0.3063293993473053,0.4424862563610077,-1.238027811050415,-0.6397200226783752,-0.5047265887260437,-0.38930732011795044,-0.308342844247818
1749034846.618466,1.0952879190444946,-1.0873226088336487,-0.14409512281417847,1.5314463812061767,1.1502996683120728,-0.4362900892840784,0.31323519349098206,-0.09178200364112854,-0.05886468663811684,-0.06525498628616333,-0.2700144052505493,-0.3129853308200836,0.4552679657936096,-1.2252576351165771,-0.6389148235321045,-0.52186119556427,-0.40550923347473145,-0.2240702211856842
1749034846.6185048,1.0958961248397827,-1.087526724939682,-0.14421498775482178,1.531306429500244,1.1497442722320557,-0.43690425554384404,0.3167380392551422,-0.08875302970409393,-0.058225367218256,-0.06633386760950089,-0.27045175433158875,-0.3108580708503723,0.48015111684799194,-1.3205808401107788,-0.6547507643699646,-0.5157802104949951,-0.4326115846633911,-0.24562354385852814
1749034846.6185427,1.0958961248397827,-1.087526724939682,-0.14421498775482178,1.531306429500244,1.1497442722320557,-0.43690425554384404,0.3167380392551422,-0.08875302970409393,-0.058225367218256,-0.06633386760950089,-0.27045175433158875,-0.3108580708503723,0.48015111684799194,-1.3205808401107788,-0.6547507643699646,-0.5157802104949951,-0.4326115846633911,-0.24562354385852814
1749034846.6185832,1.0965079069137573,-1.087663934831955,-0.14434365928173065,1.5311588483997802,1.1492164134979248,-0.43749887148012334,0.31494390964508057,-0.09056981652975082,-0.05941671505570412,-0.06602419167757034,-0.27743008732795715,-0.30706995725631714,0.4785635471343994,-1.2945646047592163,-0.6510714292526245,-0.5128916501998901,-0.41368967294692993,-0.29487404227256775
1749034846.6186452,1.097775936126709,-1.088062898521759,-0.14459094405174255,1.5309013563343505,1.1481209993362427,-0.4387410322772425,0.31834858655929565,-0.09004171937704086,-0.057669300585985184,-0.0687171071767807,-0.27274954319000244,-0.3048754036426544,0.44297271966934204,-1.218300700187683,-0.6582285761833191,-0.5086085200309753,-0.3913140296936035,-0.29595834016799927
1749034846.618712,1.097775936126709,-1.088062898521759,-0.14459094405174255,1.5309013563343505,1.1481209993362427,-0.4387410322772425,0.31834858655929565,-0.09004171937704086,-0.057669300585985184,-0.0687171071767807,-0.27274954319000244,-0.3048754036426544,0.44297271966934204,-1.218300700187683,-0.6582285761833191,-0.5086085200309753,-0.3913140296936035,-0.29595834016799927
1749034846.6187785,1.0983954668045044,-1.088188038473465,-0.14469197392463684,1.5307294565388183,1.1475608348846436,-0.43935901323427373,0.3155350387096405,-0.08606872707605362,-0.058503612875938416,-0.0711984857916832,-0.2683272063732147,-0.30491769313812256,0.4402831792831421,-1.2927991151809692,-0.6440480351448059,-0.49799010157585144,-0.42437875270843506,-0.2734437882900238
1749034846.6188443,1.0990345478057861,-1.088415489797928,-0.14482749998569489,1.5305775839039306,1.147007942199707,-0.43996984163393194,0.314908504486084,-0.0904298722743988,-0.05980392172932625,-0.07245852798223495,-0.26515647768974304,-0.3059186041355133,0.5182130932807922,-1.2699683904647827,-0.6585125923156738,-0.48139217495918274,-0.4405069053173065,-0.2900949716567993
