nimar13/UR3e_dataset_trayectorias/trayectorias_ejecutadas/quintic/trayectoria_046_result.csv
timestamp,q1,q2,q3,q4,q5,q6,qd1,qd2,qd3,qd4,qd5,qd6,tau1,tau2,tau3,tau4,tau5,tau6
1749033482.6237023,-0.19639426866640264,-1.0258026880076905,-2.081744432449341,0.6341859537312011,-5.7500067988978785,0.9407825469970703,1.3123503469019642e-19,-9.944038174580783e-05,2.743744805843027e-24,-4.40710969940028e-08,1.199091173020861e-07,-8.696275470565507e-12,0.26274269819259644,-0.21991053223609924,0.7680588960647583,-0.09590861201286316,0.19499389827251434,0.07901568710803986
1749033482.625757,-0.19642335573305303,-1.0258026284030457,-2.0817067623138428,0.6341897684284667,-5.749959592019216,0.9407944083213806,1.2492442315847014e-23,-9.676744230091572e-05,1.1697013798463392e-26,-1.3761903838727108e-09,3.744353715973148e-09,-2.7155507660234224e-13,0.2732316851615906,-0.22803106904029846,0.7533587217330933,-0.08557119965553284,0.20896880328655243,0.06990328431129456
1749033482.6283455,-0.1964047590838831,-1.0257517260364075,-2.081728935241699,0.6341742712208251,-5.750022355710165,0.9408171772956848,1.218838416296908e-25,-9.54842907958664e-05,7.637314194548958e-28,-2.4318724811678294e-10,6.616666103909097e-10,-4.798662891201434e-14,0.2785961627960205,-0.20692938566207886,0.7704377174377441,-0.0949634239077568,0.19236443936824799,0.0744614452123642
1749033482.6296854,-0.1964357534991663,-1.0257288974574585,-2.0817253589630127,0.6341742712208251,-5.74998772541155,0.9407980442047119,1.1891726663991902e-27,-9.423455776413903e-05,4.9866205203464154e-29,-4.2973742619967226e-11,1.1692342927194233e-10,-8.479740855619946e-15,0.2699611186981201,-0.22707051038742065,0.7688651084899902,-0.09508109837770462,0.20001782476902008,0.0907449722290039
1749033482.6317246,-0.19645482698549444,-1.0258026284030457,-2.081721782684326,0.6341933447071533,-5.749947790299551,0.9408063888549805,1.1602290238322266e-29,-9.301704267272726e-05,3.2559071985573e-30,-7.593911610648263e-12,2.066159743296936e-11,-1.4984590936915074e-15,0.2479119747877121,-0.20399048924446106,0.762070894241333,-0.07002048939466476,0.18537460267543793,0.06433124840259552
1749033482.6336908,-0.19641238847841436,-1.0257672232440491,-2.0817031860351562,0.6341778474995117,-5.749986712132589,0.9407944083213806,1.13198965754666e-31,-9.18307778192684e-05,2.125874715594872e-31,-1.3419238593589955e-12,3.651121072145713e-12,-2.647934313306698e-16,0.24512316286563873,-0.21485641598701477,0.7582892775535583,-0.0966004729270935,0.20001785457134247,0.07264506816864014
1749033482.6356823,-0.19641668001283819,-1.0258026284030457,-2.081721782684326,0.6341778474995117,-5.749963347111837,0.9408290982246399,1.1044377376959957e-33,-9.067432256415486e-05,1.3880441536653026e-32,-2.3713203709668784e-13,6.451914740315812e-13,-4.679178083733226e-17,0.2746238112449646,-0.21494868397712708,0.7830557823181152,-0.07685799151659012,0.19884653389453888,0.0677473396062851
1749033482.6376805,-0.19642717043031865,-1.0258026284030457,-2.0817103385925293,0.6341549593159179,-5.749987665806906,0.9407944679260254,1.0775563141981164e-35,-8.954649820225313e-05,9.062937466920023e-34,-4.1903719399548e-14,1.1401211192588884e-13,-8.268599146295409e-18,0.26183944940567017,-0.23918291926383972,0.7486414909362793,-0.07896031439304352,0.20524315536022186,0.04270409047603607
1749033482.6396918,-0.19640857378114873,-1.025772587662079,-2.0817182064056396,0.6341933447071533,-5.749991242085592,0.9407861232757568,1.0513293296380427e-37,-8.844670810503885e-05,5.917450615448266e-35,-7.404826399401085e-15,2.014713604823505e-14,-1.461148170830766e-18,0.26989591121673584,-0.20609214901924133,0.7585846185684204,-0.07948009669780731,0.19089685380458832,0.06603862345218658
1749033482.6416595,-0.19641620317567998,-1.0257952970317383,-2.081721782684326,0.6341587740131835,-5.749995056782858,0.9407980442047119,1.0257406667965158e-39,-8.737330790609121e-05,3.863672143372016e-36,-1.3085104729620729e-15,3.560210343900175e-15,-2.5820024060657654e-19,0.25801968574523926,-0.20810595154762268,0.7740489840507507,-0.10151965171098709,0.20931755006313324,0.06911686062812805
1749033482.643728,-0.1964362303363245,-1.025818185215332,-2.081744432449341,0.6341587740131835,-5.749991301690237,0.940809965133667,1.0008073632207844e-41,-8.632575918454677e-05,2.5227017975931495e-37,-2.312275273342316e-16,6.291265747326391e-16,-4.562669451470827e-20,0.2646371126174927,-0.22275209426879883,0.7625371217727661,-0.08416090160608292,0.19320185482501984,0.06057560443878174
1749033482.6456904,-0.19641620317567998,-1.0258144301227112,-2.081721782684326,0.6341933447071533,-5.7499985734568995,0.9408171772956848,9.80908925027372e-44,-8.530307241016999e-05,1.6471438083342737e-38,-4.0860330053788064e-17,1.1117327285047393e-16,-8.062716030868325e-21,0.2573516368865967,-0.20134666562080383,0.7573350667953491,-0.11143200844526291,0.2069515436887741,0.07526351511478424
1749033482.6476822,-0.19645482698549444,-1.025779740219452,-2.0817408561706543,0.6341850000568847,-5.749996010457174,0.940778911113739,1.401298464324817e-45,-8.430425077676773e-05,1.0754671441015463e-39,-7.220448813627415e-18,1.9645483299852754e-17,-1.4247665024375221e-21,0.23441897332668304,-0.2147192656993866,0.7699700593948364,-0.08815773576498032,0.21261028945446014,0.07458232343196869
1749033482.6497188,-0.19641620317567998,-1.0257626932910462,-2.0817408561706543,0.6341778474995117,-5.7499523798571985,0.9408052563667297,0.0,-8.33285303087905e-05,7.022046734578091e-41,-1.2759289899951891e-18,9.857910299615469e-06,-2.5177120567965527e-22,0.2539040446281433,-0.24732619524002075,0.7579470276832581,-0.08609634637832642,0.2141624242067337,0.06353537738323212
1749033482.6516793,-0.19639999071230108,-1.0257745546153565,-2.081744432449341,0.6341742712208251,-5.749994997178213,0.9407789707183838,0.0,-8.237523434218019e-05,4.5850485752708015e-42,-2.254700220869545e-19,1.7419961295672692e-06,-4.4490609628430685e-23,0.23581092059612274,-0.2588042914867401,0.7481553554534912,-0.07122313231229782,0.18696235120296478,0.07276375591754913
1749033482.6536558,-0.1964362303363245,-1.025787131195404,-2.0817408561706543,0.6341933447071533,-5.7499757448779505,0.9407752752304077,0.0,-8.15660459920764e-05,2.9987787136551085e-43,-3.984291842476679e-20,3.078289694258274e-07,-7.861958175388131e-24,0.22815118730068207,-0.25724563002586365,0.7704208493232727,-0.07641471177339554,0.18240849673748016,0.07879754155874252
1749033482.655638,-0.1964343229876917,-1.025787131195404,-2.0817103385925293,0.6341897684284667,-5.74995601574053,0.9407861232757568,0.0,-7.536766497651115e-05,1.961817850054744e-44,-7.040661682638034e-21,5.439660810679925e-08,-1.3892904517087935e-24,0.20032759010791779,-0.2938229739665985,0.7375739216804504,-0.10549957305192947,0.1810896247625351,0.05658389627933502
1749033482.6576357,-0.19641286531557256,-1.0257907670787354,-2.0817067623138428,0.6341969209858398,-5.74995601574053,0.9407980442047119,0.0,-0.00010023382492363453,1.401298464324817e-45,-1.2441587040751185e-21,9.612452167573338e-09,-2.455021911747363e-25,0.2174803763628006,-0.28317317366600037,0.7473490834236145,-0.09438440203666687,0.1848950833082199,0.06239965558052063
1749033482.6596632,-0.1964510122882288,-1.0257989329150696,-2.081728935241699,0.6341897684284667,-5.749940399323599,0.9408171772956848,0.0,-0.002385892439633608,0.0,-2.1985588769478153e-22,1.6986210216174413e-09,-4.338281691843854e-26,0.20598061382770538,-0.23188048601150513,0.7453067302703857,-0.08796386420726776,0.17931650578975677,0.056703969836235046
1749033482.661637,-0.1964476744281214,-1.0258072179606934,-2.0817372798919678,0.6341778474995117,-5.749972168599264,0.9408135414123535,0.0,-0.0034681223332881927,0.0,-3.8850841068613935e-23,3.0016417129630213e-10,-7.666198810372391e-27,0.19714371860027313,-0.22400808334350586,0.7582682371139526,-0.10210342705249786,0.18170593678951263,0.04713980853557587
1749033482.6636539,-0.19645482698549444,-1.0258072179606934,-2.0817253589630127,0.6341933447071533,-5.749959592019216,0.9408254623413086,0.0,-0.002545176073908806,0.0,-6.865350750777166e-24,5.304215747181651e-11,-1.3546977747310206e-27,0.16662278771400452,-0.22969871759414673,0.7609649896621704,-0.09293322265148163,0.15648917853832245,0.05181148648262024
1749033482.6656346,-0.19641620317567998,-1.0257988733104249,-2.0817067623138428,0.6341969209858398,-5.750003163014547,0.9407861232757568,0.0,-0.0017524997238069773,0.0,-1.2131796212009183e-24,9.373106457655211e-12,-2.3938928837569325e-28,0.14525870978832245,-0.23584556579589844,0.7792551517486572,-0.11070924252271652,0.18556751310825348,0.04281702637672424
1749033482.6676333,-0.19641286531557256,-1.0258072179606934,-2.0817372798919678,0.6341897684284667,-5.749963347111837,0.9408326745033264,0.0,-0.0013219114625826478,0.0,-2.1438155450805752e-25,1.6563262263472045e-12,-5.6521512306062505e-06,0.14015255868434906,-0.24157124757766724,0.7925683259963989,-0.111558698117733,0.2061844915151596,0.0334780216217041
1749033482.6696286,-0.19642860094179326,-1.0258263510516663,-2.0817253589630127,0.6341897684284667,-5.749959592019216,0.9407980442047119,0.0,-0.001061444403603673,0.0,-3.788347033291656e-26,2.9269021559717723e-13,-9.987944622480427e-07,0.13835881650447845,-0.2458857297897339,0.8036208152770996,-0.12680372595787048,0.2116030603647232,0.018559157848358154
1749033482.6716375,-0.19637805620302373,-1.025787131195404,-2.081728935241699,0.6341547208973388,-5.749966923390524,0.9408171772956848,1.506833086750703e-05,-0.0008868406875990331,0.0,-5.787420377600938e-06,5.0212605856359005e-05,-1.7649746553161094e-07,0.11665999889373779,-0.19880366325378418,0.8388839960098267,-0.14240747690200806,0.23112277686595917,-0.002270743250846863
1749033482.6739001,-0.19646722475160772,-1.0258191388896485,-2.081756591796875,0.6341623502918701,-5.75003815094103,0.9407898187637329,-4.338413054938428e-05,-0.0007616141228936613,0.0,-2.2323532903101295e-05,6.910297815920785e-05,-0.0010738533455878496,0.09683360159397125,-0.24303990602493286,0.8406347632408142,-0.13165637850761414,0.2308223992586136,-0.0014581233263015747
1749033482.6756535,-0.19640142122377569,-1.0258072179606934,-2.0817253589630127,0.6341623502918701,-5.749979499970571,0.9407944679260254,-0.0017141848802566528,-0.0006674184114672244,0.0,-0.002197836060076952,0.0001857217139331624,-0.004474850837141275,0.0619746595621109,-0.19884240627288818,0.8649851083755493,-0.14671707153320312,0.2530660033226013,-0.009941011667251587
1749033482.6776874,-0.1964476744281214,-1.0258573454669495,-2.0817253589630127,0.6341814237781982,-5.749972108994619,0.9407702684402466,-0.00338574917986989,-0.0005939610418863595,3.430373681112542e-06,-0.004384547937661409,0.0012167405802756548,-0.0077868299558758736,0.08220632374286652,-0.22340285778045654,0.8986720442771912,-0.15633827447891235,0.27134454250335693,-0.0281917005777359
1749033482.6796308,-0.19644004503359014,-1.0257725280574341,-2.081713914871216,0.6341540056416015,-5.749920372162954,0.9407463073730469,-0.003064903896301985,-0.0005350730498321354,0.003588692983612418,-0.005814870819449425,0.004702117294073105,-0.009268838912248611,0.062221407890319824,-0.20660215616226196,0.891571044921875,-0.15164321660995483,0.2743404507637024,-0.023773163557052612
1749033482.681643,-0.1964510122882288,-1.0257689517787476,-2.0817253589630127,0.6341075140186767,-5.7499117890941065,0.9407221078872681,-0.0027225620578974485,-0.00048682314809411764,0.00545963179320097,-0.006513623986393213,0.00687834806740284,-0.010301811620593071,0.0744616836309433,-0.20376145839691162,0.8863406181335449,-0.14884373545646667,0.2781720757484436,-0.016123995184898376
1749033482.6836746,-0.19639426866640264,-1.02581079423938,-2.081728935241699,0.6341182428547363,-5.749935869370596,0.9407185316085815,-0.0031873774714767933,-0.0004465509264264256,0.005051642190665007,-0.0076654693111777306,0.008221847005188465,-0.012618524953722954,0.01766940951347351,-0.18213844299316406,0.899676501750946,-0.1710667610168457,0.29275909066200256,-0.03613053262233734
1749033482.6856632,-0.1964328924762171,-1.0257880848697205,-2.0816822052001953,0.6340991693684082,-5.749899927769796,0.9407066106796265,-0.00445534149184823,-0.0004124342231079936,0.005298000760376453,-0.008138306438922882,0.009338125586509705,-0.014958085492253304,0.040161073207855225,-0.1701749861240387,0.9610645771026611,-0.17252519726753235,0.31056687235832214,-0.05048626661300659
1749033482.6876316,-0.19646007219423467,-1.025791661148407,-2.081651210784912,0.6340741354176025,-5.749860171471731,0.9406789541244507,-0.0066636004485189915,-0.00031997455516830087,0.008204055018723011,-0.00903319101780653,0.011718660593032837,-0.01790960691869259,-0.004424743354320526,-0.1482764333486557,0.968751847743988,-0.16556096076965332,0.3324390947818756,-0.06157796084880829
1749033482.6896381,-0.19650775591005498,-1.025818185215332,-2.081681251525879,0.6340576845356445,-5.749844674264089,0.9406739473342896,-0.007996693253517151,-0.00025755970273166895,0.011181863024830818,-0.011114540509879589,0.01475509162992239,-0.02049962431192398,0.037426628172397614,-0.13145920634269714,0.9594387412071228,-0.18653050065040588,0.3392389416694641,-0.034289032220840454
1749033482.691644,-0.19650298753847295,-1.0258191388896485,-2.081669330596924,0.634054108256958,-5.749843660985128,0.9406065940856934,-0.008115538395941257,-0.00022387733042705804,0.012267060577869415,-0.01278013363480568,0.017508238554000854,-0.02028903365135193,-0.014113008975982666,-0.10639441013336182,0.9703515768051147,-0.17872777581214905,0.35968828201293945,-0.04674099385738373
1749033482.6936624,-0.19653493562807256,-1.0258191388896485,-2.081641912460327,0.6340021330067138,-5.749776069317953,0.9405826330184937,-0.00926031731069088,2.55171034950763e-05,0.014355839230120182,-0.013947591185569763,0.02127327024936676,-0.020118175074458122,-0.016537968069314957,-0.08957599103450775,0.9845364689826965,-0.19604334235191345,0.33971330523490906,-0.06390739232301712
1749033482.6957347,-0.19651967683901006,-1.0258263510516663,-2.0815987586975098,0.6339623171040039,-5.74971986213793,0.9405657052993774,-0.010627292096614838,0.00020496432262007147,0.015176751650869846,-0.015281443484127522,0.022673476487398148,-0.019791241735219955,-0.02631262317299843,-0.06943241506814957,0.9766178727149963,-0.19481885433197021,0.32024288177490234,-0.05265866965055466
1749033482.6976428,-0.19655877748598272,-1.0257880252650757,-2.0815627574920654,0.6339658933826904,-5.749704305325643,0.9405261278152466,-0.0113834198564291,0.00024848736939020455,0.015902772545814514,-0.016525037586688995,0.02213924191892147,-0.01920579932630062,-0.03251289948821068,-0.049792833626270294,0.9592782855033875,-0.1936091035604477,0.31322425603866577,-0.07666470855474472
1749033482.6996562,-0.19656783739198858,-1.0257917207530518,-2.0815231800079346,0.6339375215717773,-5.74967194000353,0.9404779076576233,-0.01245343778282404,0.0018276515183970332,0.014995928853750229,-0.01729133352637291,0.02108876034617424,-0.020193856209516525,-0.036500632762908936,-0.04171281307935715,0.9893814325332642,-0.19647352397441864,0.3260391056537628,-0.06735940277576447
1749033482.7016225,-0.19659835497011358,-1.025837318306305,-2.0815341472625732,0.6338621813007812,-5.7496429721461695,0.9404541850090027,-0.013239839114248753,0.0017576601821929216,0.015682291239500046,-0.017287589609622955,0.01838705502450466,-0.020810957998037338,-0.07640107721090317,-0.052813850343227386,0.9901955127716064,-0.17200174927711487,0.33162567019462585,-0.06136785447597504
1749033482.7036352,-0.1965873877154749,-1.0258108538440247,-2.081451177597046,0.6338540750690917,-5.74956858554949,0.9404333829879761,-0.01445327140390873,0.002335192868486047,0.016281036660075188,-0.017044709995388985,0.01689573936164379,-0.021324075758457184,-0.07309350371360779,-0.020888254046440125,1.00364351272583,-0.1962129771709442,0.3402861952781677,-0.09486411511898041
1749033482.7056415,-0.19659215608705694,-1.0257880848697205,-2.081446647644043,0.6338376241871337,-5.7495325843440455,0.9404010772705078,-0.014848900027573109,0.003249088069424033,0.016381900757551193,-0.01721574366092682,0.018075397238135338,-0.023382294923067093,-0.0753202736377716,0.00012477487325668335,1.010512113571167,-0.19860292971134186,0.33889880776405334,-0.10968121886253357
1749033482.7076416,-0.19661170641054326,-1.025791661148407,-2.0814263820648193,0.6338168817707519,-5.74950880209078,0.940357506275177,-0.01513638161122799,0.0038960014935582876,0.018026353791356087,-0.016324805095791817,0.018573546782135963,-0.0249392781406641,-0.09917493909597397,0.012412875890731812,1.0186970233917236,-0.19802172482013702,0.3341197073459625,-0.10186546295881271
1749033482.7096555,-0.19662458101381475,-1.025779740219452,-2.0813865661621094,0.6337532240101318,-5.749483648930685,0.9402937889099121,-0.015090415254235268,0.00503874896094203,0.0188604649156332,-0.01573292724788189,0.018509965389966965,-0.027410313487052917,-0.09226934611797333,0.03006308525800705,1.0177628993988037,-0.1922421157360077,0.3521379232406616,-0.12545989453792572
1749033482.711632,-0.19666797319521123,-1.025779740219452,-2.0813350677490234,0.6337532240101318,-5.749451045189993,0.9402568340301514,-0.01567152887582779,0.005764341447502375,0.019983386620879173,-0.015613241121172905,0.01974632404744625,-0.02840893156826496,-0.11776041984558105,0.027576886117458344,1.013677716255188,-0.21020595729351044,0.3452005684375763,-0.12629596889019012
1749033482.7136877,-0.1967108885394495,-1.025787131195404,-2.081292152404785,0.6337205606647949,-5.749396924172537,0.9402086734771729,-0.015495369210839272,0.00646209018304944,0.02046814002096653,-0.015413385815918446,0.020378906279802322,-0.03181386739015579,-0.13690130412578583,0.03271237760782242,1.038211703300476,-0.22276592254638672,0.3755932152271271,-0.14179562032222748
1749033482.715643,-0.196726147328512,-1.0257507723620911,-2.081298351287842,0.6336812215992431,-5.749329868947164,0.9401450157165527,-0.015965735539793968,0.008138560689985752,0.020211677998304367,-0.014847882091999054,0.02012881450355053,-0.033707939088344574,-0.134324312210083,0.057587530463933945,1.0593376159667969,-0.2177301049232483,0.40053802728652954,-0.1254570335149765
1749033482.7176409,-0.19675141969789678,-1.0257471364787598,-2.08125901222229,0.633669300670288,-5.749351565037863,0.9401013851165771,-0.016190825030207634,0.009039551950991154,0.02122071012854576,-0.015112527646124363,0.02230520360171795,-0.03621529042720795,-0.14373549818992615,0.06208507716655731,1.05832040309906,-0.23377034068107605,0.3811608850955963,-0.13331076502799988
1749033482.7197125,-0.19682199159731084,-1.025716022854187,-2.08119535446167,0.6336206632801513,-5.7492839137660425,0.9399932622909546,-0.016605546697974205,0.009705455042421818,0.02335384115576744,-0.017238754779100418,0.02486024983227253,-0.038713473826646805,-0.15955308079719543,0.050284162163734436,1.051042914390564,-0.21832051873207092,0.3895553946495056,-0.14680397510528564
1749033482.7216623,-0.19682675996889287,-1.0257197183421631,-2.0811595916748047,0.6335968214222412,-5.749216918145315,0.9399608373641968,-0.01724179834127426,0.010036725550889969,0.024837937206029892,-0.01857312209904194,0.02669447660446167,-0.04084331542253494,-0.1850777566432953,0.04893691465258598,1.0539562702178955,-0.24038150906562805,0.3908420205116272,-0.17622599005699158
1749033482.7236636,-0.19682771364320928,-1.0256943267634888,-2.0811078548431396,0.6335603433796386,-5.749192003403799,0.9398502707481384,-0.01710204780101776,0.011880763806402683,0.025104036554694176,-0.019510505720973015,0.028019508346915245,-0.043972667306661606,-0.19320449233055115,0.08256057649850845,1.0800421237945557,-0.2665620446205139,0.40985965728759766,-0.1777842491865158
1749033482.725706,-0.19687062898744756,-1.0256906312755127,-2.0810792446136475,0.6335279184528808,-5.749128524457113,0.939781665802002,-0.018798653036355972,0.010784082114696503,0.02517511323094368,-0.021497832611203194,0.030101293697953224,-0.04681432992219925,-0.1994646191596985,0.10182519257068634,1.1049859523773193,-0.25487884879112244,0.411132276058197,-0.19667935371398926
1749033482.7276819,-0.19692641893495733,-1.0256357353976746,-2.0810275077819824,0.6334604459949951,-5.749027911816732,0.939697265625,-0.018839947879314423,0.011991714127361774,0.026841310784220695,-0.02265084907412529,0.030842630192637444,-0.0488964319229126,-0.1880282759666443,0.11222471296787262,1.1288892030715942,-0.2728622257709503,0.4361999034881592,-0.18953397870063782
1749033482.729641,-0.19699603716005498,-1.025608317261078,-2.0809326171875,0.6334089475819091,-5.749048058186666,0.9396046996116638,-0.019370663911104202,0.012751217000186443,0.029533475637435913,-0.02474910579621792,0.034003112465143204,-0.05131235346198082,-0.20463629066944122,0.08747841417789459,1.1116026639938354,-0.26785916090011597,0.4474414587020874,-0.17284312844276428
1749033482.7316601,-0.19701701799501592,-1.0255912107280274,-2.080916166305542,0.6333731847950439,-5.748957101498739,0.9394965171813965,-0.020596662536263466,0.013005256652832031,0.030014734715223312,-0.02588186226785183,0.03654095530509949,-0.05316596105694771,-0.21780024468898773,0.11016121506690979,1.1211963891983032,-0.28562796115875244,0.4478772282600403,-0.19566091895103455
1749033482.7336564,-0.19702560106386358,-1.0255792897990723,-2.0808491706848145,0.6333078581043701,-5.748900655900137,0.9393807053565979,-0.020917749032378197,0.012674205005168915,0.030932752415537834,-0.027011483907699585,0.039935000240802765,-0.05436539277434349,-0.21146218478679657,0.09844664484262466,1.144924521446228,-0.2882298231124878,0.4417242407798767,-0.20980900526046753
1749033482.7356536,-0.1970608870135706,-1.0255554479411622,-2.0807807445526123,0.6332596975513916,-5.748838726674215,0.9392800331115723,-0.02127329260110855,0.013089570216834545,0.0322796106338501,-0.027628252282738686,0.042667318135499954,-0.055649761110544205,-0.2347162365913391,0.12608909606933594,1.1566566228866577,-0.2879570424556732,0.46120911836624146,-0.21559710800647736
1749033482.7376478,-0.19708234468568975,-1.025519685154297,-2.0807249546051025,0.6332151132770996,-5.748686496411459,0.9391213059425354,-0.022715425118803978,0.013232603669166565,0.03334663808345795,-0.028693661093711853,0.043887779116630554,-0.058677252382040024,-0.22225093841552734,0.12186367064714432,1.1645734310150146,-0.303928017616272,0.48832714557647705,-0.19879528880119324
1749033482.7396555,-0.19719964662660772,-1.0255352419665833,-2.0806453227996826,0.6331478792377929,-5.7486059109317225,0.9390081167221069,-0.024460533633828163,0.013017331250011921,0.03500942885875702,-0.0303694698959589,0.0450158454477787,-0.060370415449142456,-0.2212531566619873,0.13505512475967407,1.182625412940979,-0.2871823310852051,0.4982149004936218,-0.19433727860450745
1749033482.7416906,-0.19726640382875615,-1.0254715246013184,-2.080573558807373,0.6330680090137939,-5.7485525647746485,0.9388731718063354,-0.024911414831876755,0.01291783805936575,0.03557481989264488,-0.03261750191450119,0.04663398861885071,-0.062257587909698486,-0.2586249113082886,0.14761194586753845,1.1954034566879272,-0.30941301584243774,0.4982667565345764,-0.20962552726268768
1749033482.7436807,-0.19726878801454717,-1.0254632395556946,-2.08052134513855,0.633030577296875,-5.748403672372,0.9387640357017517,-0.026212412863969803,0.013186110183596611,0.0392780601978302,-0.034442223608493805,0.04983653500676155,-0.06224573776125908,-0.22467640042304993,0.13565556704998016,1.1931138038635254,-0.31617262959480286,0.4996424913406372,-0.21452510356903076
1749033482.7456238,-0.1972740332232874,-1.0254077476314087,-2.080425262451172,0.6329278188892822,-5.74831456342806,0.9386316537857056,-0.026789963245391846,0.01234401948750019,0.04083467274904251,-0.03660551458597183,0.05358952283859253,-0.06326517462730408,-0.25394049286842346,0.14678946137428284,1.1943012475967407,-0.3088124394416809,0.4801270365715027,-0.21970932185649872
1749033482.7476468,-0.19739896455873662,-1.0253921312144776,-2.0803065299987793,0.6328517633625488,-5.7482099572764795,0.9385391473770142,-0.027166012674570084,0.012632369995117188,0.04227129742503166,-0.03797764331102371,0.055440694093704224,-0.0658542811870575,-0.2524392008781433,0.14886292815208435,1.2032597064971924,-0.3110130727291107,0.49423447251319885,-0.24705344438552856
1749033482.7496605,-0.1974242369281214,-1.0253684681705018,-2.0802299976348877,0.6327518659779052,-5.748120609913961,0.9383906722068787,-0.028014935553073883,0.012262285687029362,0.04389793425798416,-0.03904007375240326,0.055611543357372284,-0.06701197475194931,-0.24627389013767242,0.1431819349527359,1.1999086141586304,-0.3115900754928589,0.5032626390457153,-0.2560214698314667
1749033482.7516258,-0.19751006761659795,-1.0253756803325196,-2.0801496505737305,0.6326789098927001,-5.748018030320303,0.9382851123809814,-0.029001440852880478,0.012635898776352406,0.04549209773540497,-0.04093724489212036,0.055985573679208755,-0.07222187519073486,-0.2736392915248871,0.18183964490890503,1.2192820310592651,-0.3108869791030884,0.49543288350105286,-0.23014982044696808
1749033482.7536101,-0.1975339094745081,-1.025300995712616,-2.080031633377075,0.6326142984577636,-5.747863713894979,0.9381022453308105,-0.030305756255984306,0.012974241748452187,0.04682820290327072,-0.04243998974561691,0.057994041591882706,-0.07681116461753845,-0.2640756666660309,0.16268572211265564,1.1986052989959717,-0.30742573738098145,0.511279284954071,-0.20789337158203125
1749033482.7556152,-0.1976264158831995,-1.0253399175456543,-2.079951286315918,0.632502480144165,-5.747774247323171,0.9379421472549438,-0.03142312169075012,0.013159302063286304,0.04838123917579651,-0.043999701738357544,0.06015610322356224,-0.07675835490226746,-0.2799547612667084,0.18940669298171997,1.2225568294525146,-0.30079078674316406,0.5270890593528748,-0.22641390562057495
1749033482.7576592,-0.197639290486471,-1.0253192347339173,-2.0798397064208984,0.6324145036884765,-5.747645560895101,0.9378208518028259,-0.03274231776595116,0.013461511582136154,0.05000508949160576,-0.045206014066934586,0.06259819120168686,-0.07758671045303345,-0.27035951614379883,0.20203626155853271,1.232527732849121,-0.3074105679988861,0.5165192484855652,-0.22953945398330688
1749033482.7596757,-0.1976836363421839,-1.0252487820437928,-2.079763174057007,0.632321758861206,-5.74752259651293,0.9376332759857178,-0.03377488628029823,0.014419535174965858,0.05199354887008667,-0.04617416113615036,0.0641888976097107,-0.08270040899515152,-0.25383758544921875,0.18359225988388062,1.2234928607940674,-0.2967567443847656,0.531862735748291,-0.20969808101654053
1749033482.7616694,-0.19779712358583623,-1.0252595704844971,-2.0796589851379395,0.6322411733814697,-5.74740577140917,0.9374722838401794,-0.035241421312093735,0.014472701586782932,0.05342308059334755,-0.046925127506256104,0.06585072726011276,-0.0845852866768837,-0.2540501654148102,0.21028168499469757,1.2239614725112915,-0.3148913085460663,0.5316681265830994,-0.21888303756713867
1749033482.76367,-0.19786531129945928,-1.0252042573741456,-2.0795445442199707,0.632129355067871,-5.747251633797781,0.9372414350509644,-0.03477635234594345,0.01481103990226984,0.05509982258081436,-0.047437943518161774,0.06735476106405258,-0.0863177627325058,-0.28272801637649536,0.22313176095485687,1.2287184000015259,-0.2954849600791931,0.554953396320343,-0.20067118108272552
1749033482.7658253,-0.19792539278139287,-1.025195912723877,-2.0794243812561035,0.632033033961914,-5.747092072163717,0.937100887298584,-0.03625937178730965,0.014648300595581532,0.05517766997218132,-0.04826238751411438,0.0694926455616951,-0.08615981787443161,-0.29178208112716675,0.23299765586853027,1.2561991214752197,-0.3095564842224121,0.5523924231529236,-0.20080488920211792
1749033482.7676864,-0.19804364839662725,-1.0251767200282593,-2.079312801361084,0.6319557863422851,-5.746975843106405,0.9369361400604248,-0.0367419458925724,0.014924573712050915,0.0585358589887619,-0.04966685175895691,0.07231328636407852,-0.08822769671678543,-0.2530880570411682,0.22803334891796112,1.233446478843689,-0.31136560440063477,0.5443004965782166,-0.20203304290771484
1749033482.7696311,-0.1980531851397913,-1.0251129430583497,-2.079209327697754,0.6318282324024658,-5.746841911469595,0.9367440938949585,-0.0372537299990654,0.01483114529401064,0.05867170915007591,-0.05117984861135483,0.07381007820367813,-0.08851856738328934,-0.2820660471916199,0.22925835847854614,1.2243990898132324,-0.2950247526168823,0.5411612391471863,-0.20496396720409393
1749033482.7716484,-0.19817144075502569,-1.0251119893840333,-2.0790977478027344,0.6317311960407714,-5.746641818677084,0.9365951418876648,-0.040139928460121155,0.01567872241139412,0.0590737983584404,-0.051712095737457275,0.07628218829631805,-0.08797288686037064,-0.245273619890213,0.23007071018218994,1.253907561302185,-0.3092510998249054,0.5492743849754333,-0.20655015110969543
1749033482.7736228,-0.19819623628725225,-1.0250917834094544,-2.078953742980957,0.6316074567982177,-5.746519748364584,0.9363679885864258,-0.038432493805885315,0.015988977625966072,0.061227306723594666,-0.05321366339921951,0.07794151455163956,-0.08878930658102036,-0.280878484249115,0.245317280292511,1.2492101192474365,-0.30257993936538696,0.5460293292999268,-0.19557766616344452
1749033482.7756624,-0.19827300706972295,-1.0250680607608338,-2.078810453414917,0.6315075594135742,-5.746333066617147,0.9362151622772217,-0.03802559897303581,0.016643963754177094,0.06519710272550583,-0.054513171315193176,0.08027686923742294,-0.08885739743709564,-0.32751452922821045,0.24217402935028076,1.202163815498352,-0.30925512313842773,0.5391460657119751,-0.2190501093864441
1749033482.777682,-0.19836742082704717,-1.0250089329532166,-2.078706741333008,0.6313986021229248,-5.7461857239352625,0.9360194206237793,-0.0404290035367012,0.016743887215852737,0.06286060065031052,-0.05624106526374817,0.08212770521640778,-0.08740534633398056,-0.3292519450187683,0.24578765034675598,1.2498486042022705,-0.29340702295303345,0.5289809107780457,-0.23344366252422333
1749033482.7796817,-0.19850188890566045,-1.0249814552119751,-2.0785434246063232,0.6312903600880126,-5.746048156415121,0.9358464479446411,-0.040434159338474274,0.017260465770959854,0.06531894207000732,-0.05747654289007187,0.08213019371032715,-0.08973807096481323,-0.3179863393306732,0.26204079389572144,1.246882677078247,-0.2964383363723755,0.531495988368988,-0.2468336522579193
1749033482.781656,-0.19853097597231084,-1.0249442023089905,-2.078411340713501,0.6311778265186767,-5.745862905179159,0.9356698989868164,-0.04291210696101189,0.01783544011414051,0.06687916070222855,-0.05813070014119148,0.08321579545736313,-0.0938473790884018,-0.3006717264652252,0.25845450162887573,1.2496659755706787,-0.29252511262893677,0.5456331372261047,-0.22722865641117096
1749033482.7836444,-0.19864446321596319,-1.0249322217753907,-2.078280210494995,0.6310266691395263,-5.745698157941,0.9354628324508667,-0.0433223657310009,0.017999840900301933,0.0689762607216835,-0.059266068041324615,0.08341320604085922,-0.09205994009971619,-0.3026362657546997,0.30488133430480957,1.2353883981704712,-0.2840167284011841,0.5310090184211731,-0.2728668451309204
1749033482.785665,-0.1986783186541956,-1.0248773258975525,-2.0781362056732178,0.6309215265461425,-5.745499555264608,0.9352971315383911,-0.041728369891643524,0.01923232339322567,0.06936123967170715,-0.0597962848842144,0.08387359976768494,-0.09498373419046402,-0.34827670454978943,0.2862723767757416,1.2441558837890625,-0.2971685230731964,0.5297817587852478,-0.28450271487236023
1749033482.7877123,-0.19878131548036748,-1.0248327416232605,-2.0780045986175537,0.6307577329822998,-5.745345715676443,0.9350472092628479,-0.04432706907391548,0.01953386515378952,0.07034917175769806,-0.06021055951714516,0.08564475178718567,-0.09841308742761612,-0.35483312606811523,0.28858834505081177,1.243457317352295,-0.28627610206604004,0.521470308303833,-0.2722603678703308
1749033482.789679,-0.19885760942567998,-1.0247897666743775,-2.0778801441192627,0.6306723791309814,-5.7451775709735315,0.9348586797714233,-0.044799864292144775,0.01956189051270485,0.0723925456404686,-0.05997009947896004,0.0885671004652977,-0.1043439656496048,-0.34252265095710754,0.28954464197158813,1.2337228059768677,-0.2890816330909729,0.5289007425308228,-0.28517183661460876
1749033482.7917233,-0.19894487062563115,-1.024756984119751,-2.077721357345581,0.6305278974720459,-5.744969550763265,0.9346266984939575,-0.04628019407391548,0.020412523299455643,0.07477743923664093,-0.06268136203289032,0.08786933124065399,-0.1084088459610939,-0.3518509268760681,0.27755486965179443,1.2392866611480713,-0.2766706943511963,0.5247775912284851,-0.2356526255607605
1749033482.7937152,-0.1990440527545374,-1.0247249764255066,-2.0775651931762695,0.6303917604633789,-5.744813684617178,0.9344414472579956,-0.04781104624271393,0.020760878920555115,0.0768616795539856,-0.06514733284711838,0.08674458414316177,-0.10843943804502487,-0.33696654438972473,0.2708176374435425,1.2394202947616577,-0.26551222801208496,0.5513198375701904,-0.23557990789413452
1749033482.7956903,-0.19914323488344365,-1.0246694845012208,-2.077378749847412,0.6302553850361328,-5.744621757661001,0.9341661334037781,-0.04974236339330673,0.020334580913186073,0.0787527933716774,-0.06491084396839142,0.088288813829422,-0.1131589338183403,-0.3511531352996826,0.3090389668941498,1.2114317417144775,-0.27109479904174805,0.5662956237792969,-0.2369619607925415
1749033482.7976859,-0.19924670854677373,-1.0246804517558594,-2.0772383213043213,0.6301233011433105,-5.744457248841421,0.9339727163314819,-0.04868810996413231,0.021372104063630104,0.07831034064292908,-0.06314268708229065,0.09262354671955109,-0.1172301396727562,-0.3569837808609009,0.3214067220687866,1.2248073816299438,-0.2831359803676605,0.5696427226066589,-0.20928120613098145
1749033482.7997015,-0.19932252565492803,-1.024609999065735,-2.077052116394043,0.6300346094318847,-5.7442461291896265,0.933716893196106,-0.05025403946638107,0.022473417222499847,0.08192779868841171,-0.06396617740392685,0.09731224924325943,-0.11900856345891953,-0.385948121547699,0.2780984044075012,1.1988976001739502,-0.28899702429771423,0.5386165976524353,-0.20959652960300446
1749033482.8016858,-0.1994383970843714,-1.0245617193034668,-2.0768964290618896,0.6298863130756835,-5.744093660508291,0.9334957599639893,-0.05088721960783005,0.02237924560904503,0.08135593682527542,-0.06610581278800964,0.09645360708236694,-0.12070988863706589,-0.3916296362876892,0.3234400451183319,1.1743392944335938,-0.27924418449401855,0.541703462600708,-0.20978502929210663
1749033482.8037026,-0.1995461622821253,-1.0245052141002198,-2.0767321586608887,0.6297618585773925,-5.743897084389822,0.9332517981529236,-0.05120975151658058,0.02222316898405552,0.08164416998624802,-0.06704708933830261,0.09721363335847855,-0.12029244750738144,-0.3578951358795166,0.326204389333725,1.2174993753433228,-0.2941335141658783,0.5594720840454102,-0.20919425785541534
1749033482.8056798,-0.1995909849749964,-1.0244385165027161,-2.0765492916107178,0.6296292978474121,-5.743706349526541,0.933008074760437,-0.05150965601205826,0.02305540442466736,0.08308350294828415,-0.06931519508361816,0.09930046647787094,-0.1211368516087532,-0.40071970224380493,0.3121647834777832,1.2125519514083862,-0.29077237844467163,0.5646064877510071,-0.20629243552684784
1749033482.8077042,-0.19973308244814092,-1.0244057935527344,-2.076396942138672,0.6295162874409179,-5.743509356175558,0.9327400326728821,-0.054948218166828156,0.02396027185022831,0.08490188419818878,-0.07095105946063995,0.10124368965625763,-0.12080926448106766,-0.37217581272125244,0.33097463846206665,1.2015964984893799,-0.2933361828327179,0.5622363090515137,-0.22048135101795197
1749033482.8097231,-0.1998985449420374,-1.0243737262538453,-2.076233148574829,0.6293882566639404,-5.743278745804922,0.9324839115142822,-0.053767427802085876,0.024803373962640762,0.08642347902059555,-0.0703069269657135,0.1041017472743988,-0.12272832542657852,-0.38365715742111206,0.31027504801750183,1.1941310167312622,-0.2984599769115448,0.5449880957603455,-0.22526493668556213
1749033482.811696,-0.19995242754091436,-1.0243254464915772,-2.0760653018951416,0.6292165952869873,-5.743094031010763,0.9322075843811035,-0.0550098642706871,0.0256720632314682,0.0870770737528801,-0.07037822157144547,0.10603504627943039,-0.12130214273929596,-0.40569597482681274,0.30823829770088196,1.1858407258987427,-0.32480698823928833,0.5503771901130676,-0.24153241515159607
1749033482.813734,-0.20005971590151006,-1.0242276948741456,-2.0758514404296875,0.6290947633930664,-5.7428625861751,0.9320178031921387,-0.05704282596707344,0.02597244828939438,0.08903669565916061,-0.07315666228532791,0.10978361964225769,-0.1260298788547516,-0.3607906401157379,0.30971577763557434,1.1629602909088135,-0.30587437748908997,0.5213311314582825,-0.23791058361530304
1749033482.8157094,-0.20016366640199834,-1.0241903823665162,-2.075683355331421,0.6289357382008056,-5.742630724106924,0.9317460656166077,-0.05927206575870514,0.025764048099517822,0.08933522552251816,-0.0749918594956398,0.11287926137447357,-0.12519782781600952,-0.32087695598602295,0.31072407960891724,1.165403127670288,-0.2964637875556946,0.515301525592804,-0.2108619213104248
1749033482.8177042,-0.20030576387514287,-1.0241929453662415,-2.0755109786987305,0.6288058000751953,-5.7423991600619715,0.9315491318702698,-0.05624179542064667,0.02617388404905796,0.09036911278963089,-0.07658561319112778,0.10983951389789581,-0.12510201334953308,-0.39820289611816406,0.31005173921585083,1.18105149269104,-0.31141722202301025,0.5278216600418091,-0.2445894032716751
1749033482.8197117,-0.20038253465761358,-1.0241223138621827,-2.075312614440918,0.6286024290272216,-5.7421868483172815,0.9312883615493774,-0.05806035175919533,0.02624051831662655,0.09077054262161255,-0.07784189283847809,0.10847032815217972,-0.12874166667461395,-0.37350109219551086,0.3229779303073883,1.1738978624343872,-0.29725998640060425,0.5177643299102783,-0.27285265922546387
1749033482.8216937,-0.20051795641054326,-1.0240430992892762,-2.0751209259033203,0.6284496027180175,-5.741939608250753,0.9309975504875183,-0.05898338556289673,0.026535434648394585,0.09043023735284805,-0.07861807942390442,0.11135994642972946,-0.13386981189250946,-0.37298062443733215,0.3208419680595398,1.1774343252182007,-0.3061138987541199,0.5262495875358582,-0.2424858808517456
1749033482.8236907,-0.20065242448915654,-1.024002806549408,-2.0749645233154297,0.6282617288776855,-5.741754893456594,0.9307406544685364,-0.05967629328370094,0.026966344565153122,0.09303531050682068,-0.08095256984233856,0.1116294115781784,-0.1340605467557907,-0.3876354992389679,0.3055144250392914,1.160632848739624,-0.2790563702583313,0.515470564365387,-0.2458224892616272
1749033482.825648,-0.2007525602923792,-1.0239544671824952,-2.0747690200805664,0.6281367975422363,-5.741526905690328,0.9304567575454712,-0.06018953025341034,0.027399471029639244,0.09256521612405777,-0.08081873506307602,0.10799608379602432,-0.13767990469932556,-0.37304413318634033,0.34039977192878723,1.1822121143341064,-0.2896243929862976,0.5524771213531494,-0.2514145076274872
1749033482.827648,-0.20084935823549444,-1.0238986176303406,-2.0745625495910645,0.6279524999805908,-5.741310421620504,0.9301839470863342,-0.06003817915916443,0.027793874964118004,0.0963330790400505,-0.08125803619623184,0.11047688126564026,-0.14086954295635223,-0.41609469056129456,0.335628867149353,1.1703402996063232,-0.2933427691459656,0.570003867149353,-0.2354811578989029
1749033482.8296967,-0.20101958910097295,-1.0238458079150696,-2.0743706226348877,0.6277724939533691,-5.741063062344686,0.9298691749572754,-0.06076279282569885,0.02793292887508869,0.09517167508602142,-0.08411230146884918,0.11284471303224564,-0.14284318685531616,-0.40979236364364624,0.3281837999820709,1.1738332509994507,-0.2835595905780792,0.5761870741844177,-0.2506113350391388
1749033482.8316412,-0.2011321226703089,-1.0237483543208619,-2.0742106437683105,0.6276117998310546,-5.740818325673239,0.9295879006385803,-0.061516061425209045,0.02869459241628647,0.0969913974404335,-0.08493698388338089,0.11474094539880753,-0.14422613382339478,-0.38267624378204346,0.32480713725090027,1.1688252687454224,-0.27757206559181213,0.5567246675491333,-0.2322763204574585
1749033482.8336313,-0.20125896135439092,-1.0237391156009217,-2.0739872455596924,0.6274592119404296,-5.740617756043569,0.9292961359024048,-0.06167222931981087,0.02902740053832531,0.09758535027503967,-0.08126342296600342,0.11496046930551529,-0.14381620287895203,-0.4253511428833008,0.32214492559432983,1.1724735498428345,-0.30714064836502075,0.561014711856842,-0.24446052312850952
1749033482.8356876,-0.2014091650592249,-1.023686246281006,-2.07381534576416,0.6273025709339599,-5.740311805401937,0.9289762377738953,-0.06307671964168549,0.029056696221232414,0.09738538414239883,-0.08314751088619232,0.1159958764910698,-0.14477841556072235,-0.43075522780418396,0.3548571467399597,1.178611397743225,-0.30336520075798035,0.5752418041229248,-0.2554197609424591
1749033482.8376632,-0.20152074495424444,-1.0235912960818787,-2.0736045837402344,0.6271535593220214,-5.740059558545248,0.9287154078483582,-0.06487217545509338,0.03059595823287964,0.09840953350067139,-0.08413579314947128,0.11791083961725235,-0.147215336561203,-0.365566611289978,0.3345338702201843,1.1983730792999268,-0.3188495635986328,0.5907989740371704,-0.2552396059036255
1749033482.83962,-0.20164853731264287,-1.0235318702510376,-2.0733978748321533,0.6269573408314209,-5.739893023167745,0.9283873438835144,-0.0660577043890953,0.03174225240945816,0.09880881011486053,-0.0879473090171814,0.12081123888492584,-0.1465582251548767,-0.38723263144493103,0.3249843418598175,1.2091312408447266,-0.3051221966743469,0.5676532983779907,-0.2570485472679138
1749033482.8416455,-0.20176870027651006,-1.023471788769104,-2.0732178688049316,0.6267763811298828,-5.739656869565145,0.9281099438667297,-0.06638430804014206,0.029789013788104057,0.09789039939641953,-0.08951880037784576,0.1227932944893837,-0.14935758709907532,-0.3932529091835022,0.31126365065574646,1.2007883787155151,-0.2849578261375427,0.5906625986099243,-0.2661164402961731
1749033482.8436997,-0.2019279638873499,-1.0234396022609253,-2.073033332824707,0.6266113954731445,-5.739331666623251,0.9278022646903992,-0.06736216694116592,0.030818944796919823,0.09902822226285934,-0.08765309303998947,0.12569569051265717,-0.1527860313653946,-0.39090800285339355,0.3445807099342346,1.281146764755249,-0.2970176339149475,0.5605153441429138,-0.2676222324371338
1749033482.8457124,-0.20201284090151006,-1.023383156662323,-2.0728421211242676,0.6263858514973144,-5.739121739064352,0.9275366067886353,-0.06633254140615463,0.0322800911962986,0.10155044496059418,-0.0882038101553917,0.12654390931129456,-0.15443861484527588,-0.4169890284538269,0.3216385841369629,1.2133629322052002,-0.33145320415496826,0.5622931122779846,-0.2891121804714203
1749033482.8476613,-0.20220643678774053,-1.0233458441546937,-2.072641611099243,0.626220627421997,-5.7388386766063135,0.927201509475708,-0.07011188566684723,0.03139058127999306,0.1021147072315216,-0.08990517258644104,0.12757538259029388,-0.1595223993062973,-0.39456549286842346,0.35262244939804077,1.254360318183899,-0.30725955963134766,0.5693161487579346,-0.27509623765945435
1749033482.8496354,-0.20232707658876592,-1.023263470535614,-2.072446823120117,0.626053972835205,-5.738567594681875,0.9268736839294434,-0.0675746500492096,0.03070283867418766,0.10548418015241623,-0.09128294140100479,0.12698543071746826,-0.1633199006319046,-0.36417514085769653,0.3602888286113739,1.235230803489685,-0.3109132945537567,0.577042818069458,-0.26074501872062683
1749033482.8516648,-0.20247394243349248,-1.0231914681247254,-2.0722312927246094,0.6258668142506103,-5.738323036824362,0.9265633821487427,-0.06822468340396881,0.03099287673830986,0.10613275319337845,-0.09295954555273056,0.13032551109790802,-0.16630300879478455,-0.40020185708999634,0.37244874238967896,1.243720531463623,-0.3233746886253357,0.5709609389305115,-0.23611538112163544
1749033482.8536305,-0.20264798799623662,-1.0231277507594605,-2.072004795074463,0.6256865698048095,-5.738067452107565,0.9261811971664429,-0.07231079041957855,0.03203204274177551,0.10778526961803436,-0.09438461810350418,0.1290912628173828,-0.16694000363349915,-0.36653488874435425,0.34784847497940063,1.2448697090148926,-0.2940041422843933,0.5767043828964233,-0.2611919045448303
1749033482.8556309,-0.20275575319399053,-1.023068146114685,-2.071812152862549,0.6254789072224121,-5.737814370785848,0.9258401989936829,-0.07006298005580902,0.03225601464509964,0.10935793071985245,-0.09526597708463669,0.12800480425357819,-0.16707003116607666,-0.3939811587333679,0.35836565494537354,1.2457464933395386,-0.31256285309791565,0.607448399066925,-0.23728959262371063
1749033482.8576443,-0.20290786424745733,-1.02299256742511,-2.071530818939209,0.6252896028706054,-5.737562481557028,0.9255278706550598,-0.07128852605819702,0.03403552621603012,0.11039182543754578,-0.09637334197759628,0.13083428144454956,-0.1659729778766632,-0.3904421627521515,0.34847745299339294,1.2518606185913086,-0.32262223958969116,0.615033745765686,-0.26866671442985535
1749033482.8605366,-0.20304423967470342,-1.0229361218265076,-2.071345329284668,0.6250814634510498,-5.737294975911276,0.9252105951309204,-0.07197500020265579,0.03320462256669998,0.11184458434581757,-0.09786976873874664,0.13262760639190674,-0.16527323424816132,-0.37472885847091675,0.34168142080307007,1.253556251525879,-0.31145185232162476,0.6123834848403931,-0.269201397895813
1749033482.8617098,-0.20321733156313115,-1.0228256744197388,-2.0710794925689697,0.6249047952839355,-5.737003270779745,0.9248703122138977,-0.0723540335893631,0.03294049948453903,0.11286261677742004,-0.0993681401014328,0.13280469179153442,-0.16887900233268738,-0.382487416267395,0.3669799268245697,1.2701492309570312,-0.3132230341434479,0.6426631212234497,-0.24348726868629456
1749033482.863645,-0.20335036913026983,-1.0227973026088257,-2.070852756500244,0.6246973711201171,-5.736746851597921,0.9245269894599915,-0.07241041213274002,0.03265810012817383,0.11540758609771729,-0.10203902423381805,0.1383742243051529,-0.16726282238960266,-0.39514222741127014,0.4020557403564453,1.2703312635421753,-0.31513524055480957,0.6192747950553894,-0.2859336733818054
1749033482.8656516,-0.20347100893129522,-1.022775487308838,-2.070612668991089,0.6244806486317138,-5.736400846635,0.9241974949836731,-0.07317118346691132,0.03485271334648132,0.11687678843736649,-0.10511637479066849,0.1439167857170105,-0.17098891735076904,-0.4080856442451477,0.3708040416240692,1.2467046976089478,-0.28781747817993164,0.6136809587478638,-0.29867494106292725
1749033482.8676555,-0.20364028612245733,-1.0226687353900452,-2.0703768730163574,0.6243075567432861,-5.736155275498525,0.9238575100898743,-0.0736033022403717,0.03526419401168823,0.12139613181352615,-0.10545769333839417,0.14830255508422852,-0.17268496751785278,-0.3834730386734009,0.3502568304538727,1.222880482673645,-0.28405535221099854,0.5648062229156494,-0.29153138399124146
1749033482.8696527,-0.20378047624696904,-1.0225775402835389,-2.0701377391815186,0.6241068082996826,-5.735836211835043,0.9235211610794067,-0.07164594531059265,0.03532588109374046,0.12073488533496857,-0.1057305783033371,0.15039241313934326,-0.1767996847629547,-0.38394805788993835,0.3738475441932678,1.2227193117141724,-0.29920414090156555,0.5547555088996887,-0.2865658402442932
1749033482.8716528,-0.20392018953432256,-1.0225288432887574,-2.0698864459991455,0.6238366800495605,-5.735473875199453,0.9231484532356262,-0.0755811408162117,0.03569184988737106,0.12446103245019913,-0.10529255867004395,0.15534749627113342,-0.18000014126300812,-0.4056936800479889,0.3771726191043854,1.2139240503311157,-0.3145216107368469,0.5418278574943542,-0.27892714738845825
1749033482.8735938,-0.2040923277484339,-1.022434191112854,-2.0696351528167725,0.6236321169086914,-5.735181216393606,0.9227685928344727,-0.07426584511995316,0.037115588784217834,0.12467213720083237,-0.10412299633026123,0.1518615335226059,-0.18240724503993988,-0.401138573884964,0.35833969712257385,1.195990800857544,-0.2999516725540161,0.5306590795516968,-0.268878310918808
1749033482.8756578,-0.20422918001283819,-1.0224004548839112,-2.069364070892334,0.6234311300465087,-5.734872643147604,0.9224117994308472,-0.07595591247081757,0.036777887493371964,0.12370400130748749,-0.10771293193101883,0.15021201968193054,-0.18443000316619873,-0.3874787986278534,0.34007200598716736,1.2077425718307495,-0.31635093688964844,0.5487586259841919,-0.27428996562957764
1749033482.8776648,-0.20440751711000615,-1.0222936433604737,-2.0691163539886475,0.6232186990925292,-5.734581236039297,0.922054648399353,-0.07988079637289047,0.03655001148581505,0.12668439745903015,-0.10876521468162537,0.152241051197052,-0.18819330632686615,-0.38911426067352295,0.3678862154483795,1.1885172128677368,-0.2826996147632599,0.5208836793899536,-0.2738550007343292
1749033482.8796852,-0.20453292528261358,-1.022240774040558,-2.0688652992248535,0.6230003076740722,-5.7342538873301905,0.9216631054878235,-0.07664438337087631,0.036108504980802536,0.12833210825920105,-0.10771976411342621,0.15098661184310913,-0.1843489110469818,-0.3877398371696472,0.37878090143203735,1.1999664306640625,-0.30056309700012207,0.554776132106781,-0.27189356088638306
1749033482.8817194,-0.2047360579120081,-1.022169367676117,-2.0686018466949463,0.6227976518818359,-5.733957652245657,0.9212857484817505,-0.07890676707029343,0.03755009174346924,0.12911710143089294,-0.10778768360614777,0.15125183761119843,-0.1878780871629715,-0.3919224739074707,0.38099080324172974,1.172755241394043,-0.30204734206199646,0.5583545565605164,-0.285158634185791
1749033482.8836665,-0.20489198366274053,-1.0220901531032105,-2.0683305263519287,0.6226126390644531,-5.733642164860861,0.9208661913871765,-0.07948185503482819,0.0371885821223259,0.13081029057502747,-0.11166844516992569,0.1511186957359314,-0.18855269253253937,-0.4286560118198395,0.39187467098236084,1.150483250617981,-0.3099275827407837,0.554063081741333,-0.28699952363967896
1749033482.8856614,-0.20507604280580694,-1.022002474670746,-2.0680713653564453,0.6223932939716796,-5.73333722749819,0.9205166101455688,-0.08046138286590576,0.037741366773843765,0.12962324917316437,-0.11209208518266678,0.153250589966774,-0.19107259809970856,-0.3935214877128601,0.4054962992668152,1.1935876607894897,-0.2954649031162262,0.5703360438346863,-0.28232473134994507
1749033482.887664,-0.2052519957171839,-1.0219569367221375,-2.0678153038024902,0.6221880155750732,-5.733022097741262,0.9201125502586365,-0.08145391196012497,0.03876606002449989,0.13044250011444092,-0.10942912101745605,0.1551058292388916,-0.19354522228240967,-0.430976927280426,0.38763627409935,1.1907291412353516,-0.34303757548332214,0.564149022102356,-0.2731752395629883
1749033482.8896549,-0.2053740660296839,-1.0218506020358582,-2.0675487518310547,0.6219495969959716,-5.732733968888418,0.9197319746017456,-0.0830310583114624,0.037902478128671646,0.13120120763778687,-0.1131921336054802,0.156744122505188,-0.1962229311466217,-0.4034115672111511,0.379811555147171,1.1888139247894287,-0.3320281207561493,0.5878264307975769,-0.271035373210907
1749033482.8916392,-0.20556956926454717,-1.0217785996249695,-2.067234754562378,0.6217002111622314,-5.732358459626333,0.9193472862243652,-0.08366107195615768,0.03869007155299187,0.13151314854621887,-0.11457864195108414,0.1588103473186493,-0.19744978845119476,-0.4036422669887543,0.4088130295276642,1.2062619924545288,-0.33886122703552246,0.5839471817016602,-0.28786396980285645
1749033482.8936646,-0.20570689836610967,-1.021698312168457,-2.0670061111450195,0.621488018626831,-5.73206210533251,0.9189268350601196,-0.08457116037607193,0.03942355141043663,0.1336447298526764,-0.11748433113098145,0.16163502633571625,-0.19944748282432556,-0.37081438302993774,0.3888170123100281,1.1969703435897827,-0.33347761631011963,0.5715360045433044,-0.2736823856830597
1749033482.8956587,-0.20592958131899053,-1.021634117966034,-2.066711902618408,0.621229811305664,-5.731714610253469,0.918554425239563,-0.08515329658985138,0.03887632489204407,0.13271069526672363,-0.11794924736022949,0.16398049890995026,-0.1995907425880432,-0.37194785475730896,0.3910192549228668,1.2238034009933472,-0.338489294052124,0.5487463474273682,-0.28349798917770386
1749033482.897624,-0.20608979860414678,-1.0215076965144654,-2.0664594173431396,0.6209751802631835,-5.731403891240255,0.9180747866630554,-0.08492592722177505,0.03844732418656349,0.13437215983867645,-0.12354886531829834,0.16772526502609253,-0.19996877014636993,-0.383583664894104,0.388760507106781,1.1824780702590942,-0.32759830355644226,0.5655584335327148,-0.2720905542373657
1749033482.8996558,-0.20620805421938115,-1.0214507740787049,-2.066171884536743,0.6207400995441894,-5.73109877506365,0.9177214503288269,-0.08398201316595078,0.03973323851823807,0.13176703453063965,-0.12274067103862762,0.1652444452047348,-0.2022879421710968,-0.4073510766029358,0.3893688917160034,1.2752472162246704,-0.31516629457473755,0.5661822557449341,-0.28674161434173584
1749033482.9016109,-0.2064302603351038,-1.021359698181488,-2.065908908843994,0.6204671102711181,-5.730747465287344,0.9172815680503845,-0.08783979713916779,0.040879324078559875,0.13366416096687317,-0.1216668114066124,0.16202862560749054,-0.20226499438285828,-0.4046292304992676,0.3862204849720001,1.2537837028503418,-0.32459306716918945,0.6200697422027588,-0.2981444001197815
1749033482.903655,-0.20659953752626592,-1.0212829273990174,-2.0656139850616455,0.6202341753193359,-5.730418864880697,0.916900634765625,-0.08548126369714737,0.04317408427596092,0.13703909516334534,-0.12381657212972641,0.16729827225208282,-0.2075817734003067,-0.4089304506778717,0.3297647535800934,1.25917649269104,-0.3246932625770569,0.5925228595733643,-0.28452885150909424
1749033482.906323,-0.20681459108461553,-1.0211918515018006,-2.0653510093688965,0.619971438045166,-5.730052832757131,0.9165271520614624,-0.08885511010885239,0.041470203548669815,0.13865379989147186,-0.12632901966571808,0.1666358858346939,-0.20929154753684998,-0.391215056180954,0.35647398233413696,1.229962706565857,-0.2775839567184448,0.6217439770698547,-0.29884135723114014
1749033482.9076707,-0.20698291460146123,-1.021104173069336,-2.065063953399658,0.6197034555622558,-5.729762677346365,0.9160558581352234,-0.08676373213529587,0.040170736610889435,0.14164258539676666,-0.12242814153432846,0.16994164884090424,-0.21253077685832977,-0.3978591561317444,0.39670005440711975,1.2398271560668945,-0.30178600549697876,0.6300182342529297,-0.29299473762512207
1749033482.9096737,-0.2071159521685999,-1.021000162964203,-2.0647921562194824,0.6194440561481933,-5.729380373154775,0.9156427979469299,-0.08878640830516815,0.041988834738731384,0.14055877923965454,-0.12224556505680084,0.17517995834350586,-0.21320661902427673,-0.422889769077301,0.3980751037597656,1.2617777585983276,-0.3203123211860657,0.6251981258392334,-0.30022186040878296
1749033482.9116604,-0.2073276678668421,-1.02095182359729,-2.064504384994507,0.6192347246357421,-5.729016725217001,0.9152102470397949,-0.09138362854719162,0.0435170941054821,0.14375902712345123,-0.12329871952533722,0.1784651279449463,-0.2182641178369522,-0.3951694965362549,0.36351439356803894,1.2234383821487427,-0.32046255469322205,0.6139796376228333,-0.2850416302680969
1749033482.9136875,-0.20745641389955694,-1.0208633106997986,-2.064248561859131,0.6190249162861328,-5.728646163140432,0.9147861003875732,-0.09123359620571136,0.043770115822553635,0.14483490586280823,-0.124106265604496,0.1832924336194992,-0.2172866314649582,-0.3894031345844269,0.3502711057662964,1.2133982181549072,-0.3110724985599518,0.6027126908302307,-0.27762991189956665
1749033482.9156387,-0.20770675340761358,-1.0207830232432862,-2.0639450550079346,0.618729754085205,-5.72827780643572,0.9142909646034241,-0.09138660877943039,0.04283140227198601,0.14635556936264038,-0.12468496710062027,0.1861540973186493,-0.22029253840446472,-0.4083695411682129,0.3734135925769806,1.275842308998108,-0.3392946720123291,0.5551698207855225,-0.2952437698841095
1749033482.9176514,-0.20791560808290654,-1.0206916493228455,-2.063627243041992,0.6184894281574707,-5.727956537400381,0.9138776063919067,-0.0928211584687233,0.043279148638248444,0.14768409729003906,-0.12702743709087372,0.18591175973415375,-0.22013521194458008,-0.3766550123691559,0.3529871106147766,1.2332669496536255,-0.321981817483902,0.5539520978927612,-0.29517921805381775
1749033482.9196172,-0.20804864565004522,-1.0205421608737488,-2.0632970333099365,0.6182214456745605,-5.727549795304434,0.913471519947052,-0.092707559466362,0.04342247173190117,0.1491522341966629,-0.12735393643379211,0.18785057961940765,-0.22422155737876892,-0.399370938539505,0.38924896717071533,1.2482987642288208,-0.3433191776275635,0.5259212851524353,-0.3016117215156555
1749033482.921633,-0.20824033418764287,-1.0205435913852234,-2.0630288124084473,0.6179844576069335,-5.727204565201895,0.9129765033721924,-0.09610342234373093,0.04341164603829384,0.15123343467712402,-0.12978176772594452,0.18471616506576538,-0.22754724323749542,-0.35911065340042114,0.3424512445926666,1.2130082845687866,-0.3330828547477722,0.5544000267982483,-0.26580750942230225
1749033482.9236557,-0.20841724077333623,-1.0204160970500489,-2.0627171993255615,0.6177283960529785,-5.726825479661123,0.9125076532363892,-0.09240008145570755,0.04313204437494278,0.15174196660518646,-0.1306290328502655,0.18363863229751587,-0.22895175218582153,-0.41461730003356934,0.3577158451080322,1.2288497686386108,-0.33789801597595215,0.5877510905265808,-0.2607819139957428
1749033482.9256444,-0.20861703554262334,-1.0203440946391602,-2.062437057495117,0.6174585062214355,-5.726488117371694,0.9120665788650513,-0.09556020796298981,0.04310351237654686,0.15208567678928375,-0.13318751752376556,0.18464165925979614,-0.2283056229352951,-0.41308262944221497,0.3764375150203705,1.220491647720337,-0.31381213665008545,0.5782208442687988,-0.25330957770347595
1749033482.928008,-0.20881683031191045,-1.0201981228641053,-2.0621178150177,0.6171981531330566,-5.726089958344595,0.9116100668907166,-0.09332747757434845,0.04437646269798279,0.15392988920211792,-0.13549789786338806,0.18629354238510132,-0.22749722003936768,-0.41855093836784363,0.3799891471862793,1.218636393547058,-0.3311803936958313,0.5889288187026978,-0.2849055230617523
1749033482.9296906,-0.20897370973695928,-1.0201404851726075,-2.0617754459381104,0.6169296938129882,-5.725662414227621,0.9111331105232239,-0.0951770469546318,0.045017555356025696,0.16010764241218567,-0.13667818903923035,0.18909335136413574,-0.22660256922245026,-0.43735408782958984,0.3549344539642334,1.1708331108093262,-0.31167250871658325,0.5764253735542297,-0.29367607831954956
1749033482.9316752,-0.2092216650592249,-1.0200565618327637,-2.0614171028137207,0.6166445451923828,-5.725337688122885,0.9106850028038025,-0.09795228391885757,0.04621809348464012,0.1603003740310669,-0.13704156875610352,0.19192752242088318,-0.23036837577819824,-0.44193702936172485,0.3587493598461151,1.1913385391235352,-0.3216041624546051,0.572117269039154,-0.28602802753448486
1749033482.9336362,-0.20942908922304326,-1.0199607771686097,-2.0611255168914795,0.6163613039204101,-5.7249102036105555,0.9102244973182678,-0.09636195003986359,0.04496161267161369,0.1597251445055008,-0.14030200242996216,0.19376985728740692,-0.2295003980398178,-0.4313424527645111,0.3420468866825104,1.1510009765625,-0.314312607049942,0.5479754209518433,-0.3143230974674225
1749033482.935612,-0.2096179167376917,-1.019885079269745,-2.060786485671997,0.6160587507435302,-5.72456139722933,0.9097834825515747,-0.09971095621585846,0.044712651520967484,0.1585749238729477,-0.1355888545513153,0.19772905111312866,-0.23381046950817108,-0.38763585686683655,0.35912883281707764,1.1474162340164185,-0.32632046937942505,0.5308258533477783,-0.3026600182056427
1749033482.9376237,-0.20981866518129522,-1.019770161514618,-2.06048321723938,0.6158057886311035,-5.724192921315328,0.9093098044395447,-0.09975522011518478,0.0453311912715435,0.16025304794311523,-0.13402311503887177,0.19299377501010895,-0.23853392899036407,-0.4102209806442261,0.38323402404785156,1.2137782573699951,-0.34046557545661926,0.5633562207221985,-0.31306469440460205
1749033482.9396374,-0.21004993120302373,-1.0197214645198365,-2.0601437091827393,0.6155602174946289,-5.723774317895071,0.9088072776794434,-0.10071439296007156,0.045737408101558685,0.16059409081935883,-0.1374148428440094,0.1948760598897934,-0.24049852788448334,-0.41763997077941895,0.38466623425483704,1.198678731918335,-0.3371528685092926,0.5882629752159119,-0.30850890278816223
1749033482.9416528,-0.21019488969911748,-1.0195790094188233,-2.05981707572937,0.6152335840412597,-5.723335508500234,0.9083365201950073,-0.10076285153627396,0.04656413197517395,0.16270574927330017,-0.13373784720897675,0.1937461644411087,-0.2468615174293518,-0.4216633141040802,0.37390726804733276,1.176650047302246,-0.3738161325454712,0.6071320176124573,-0.257754385471344
1749033482.9436464,-0.21043807664980108,-1.0195260804942627,-2.059490442276001,0.61497609197583,-5.72293454805483,0.9077906012535095,-0.10159143805503845,0.04688755422830582,0.16256411373615265,-0.1364227831363678,0.19718097150325775,-0.2431972175836563,-0.4486039876937866,0.3812493681907654,1.2010678052902222,-0.37547585368156433,0.6019623279571533,-0.28372281789779663
1749033482.945648,-0.210639778767721,-1.019418255691864,-2.0591471195220947,0.6147157388874511,-5.722524348889486,0.9073229432106018,-0.1030387133359909,0.04695786535739899,0.16201019287109375,-0.13890434801578522,0.20100721716880798,-0.2464943379163742,-0.3776378631591797,0.35278642177581787,1.1863646507263184,-0.37929728627204895,0.5687029361724854,-0.2628597319126129
1749033482.9476547,-0.2108386198626917,-1.0192840856364747,-2.058823823928833,0.6144236761280517,-5.722107950841085,0.9068493247032166,-0.10354861617088318,0.048842787742614746,0.16174840927124023,-0.14181958138942719,0.20516930520534515,-0.24854716658592224,-0.44754818081855774,0.36774417757987976,1.2468008995056152,-0.3596632480621338,0.5612006187438965,-0.2865660786628723
1749033482.9496226,-0.21103221574892217,-1.019230381851532,-2.058500051498413,0.6140999036976318,-5.721738461648123,0.906337559223175,-0.10371925681829453,0.05041081830859184,0.16230422258377075,-0.14388112723827362,0.2067163735628128,-0.25139662623405457,-0.40699681639671326,0.31820785999298096,1.2389729022979736,-0.3810548782348633,0.5465139746665955,-0.2988213300704956
1749033482.9525445,-0.211283032094137,-1.0191033643535157,-2.058185338973999,0.6138340669819335,-5.7213473359691065,0.9058486819267273,-0.10531792044639587,0.04742416366934776,0.1649143546819687,-0.14952872693538666,0.21044941246509552,-0.25433647632598877,-0.4215061664581299,0.38437432050704956,1.2317596673965454,-0.355230450630188,0.5237532258033752,-0.28656911849975586
1749033482.9537046,-0.21153623262514287,-1.0190349978259583,-2.0578813552856445,0.6135415273853759,-5.720927480851309,0.9052853584289551,-0.10612540692090988,0.04809271916747093,0.16728726029396057,-0.14773674309253693,0.20707853138446808,-0.25602859258651733,-0.39737361669540405,0.34990763664245605,1.1862646341323853,-0.33743441104888916,0.536912202835083,-0.23992154002189636
1749033482.9556563,-0.21171600023378545,-1.0188990396312256,-2.057537317276001,0.6132332521625976,-5.720507685338156,0.9047635197639465,-0.10532429814338684,0.04834071174263954,0.16851924359798431,-0.14964644610881805,0.2076844871044159,-0.2542726397514343,-0.411727637052536,0.36264920234680176,1.2101178169250488,-0.35051316022872925,0.5329841375350952,-0.25301840901374817
1749033482.9575982,-0.2119529883014124,-1.0188313287547608,-2.0571987628936768,0.6129249769398193,-5.720127348099844,0.9042810797691345,-0.10698891431093216,0.051185961812734604,0.16800406575202942,-0.1536448746919632,0.20580221712589264,-0.25121214985847473,-0.42698177695274353,0.3483660817146301,1.2488741874694824,-0.3112070560455322,0.5884016752243042,-0.27817997336387634
1749033482.9596581,-0.21206647554506475,-1.018711046581604,-2.05686354637146,0.6125814157673339,-5.719712201748983,0.9037730097770691,-0.10869184881448746,0.05034913495182991,0.17303213477134705,-0.1495312750339508,0.20585274696350098,-0.2523626983165741,-0.3690253496170044,0.32064902782440186,1.2287768125534058,-0.35325801372528076,0.6113935708999634,-0.27698883414268494
1749033482.9616485,-0.21237689653505498,-1.0186432761004944,-2.056528329849243,0.6123315530964355,-5.719291631375448,0.9032785892486572,-0.10792775452136993,0.04871562123298645,0.17393508553504944,-0.1496938019990921,0.20778600871562958,-0.24889321625232697,-0.4073829650878906,0.39875340461730957,1.2371242046356201,-0.35371124744415283,0.6138129830360413,-0.3171237111091614
1749033482.9636655,-0.2125938574420374,-1.018534855251648,-2.0562117099761963,0.6120270925709228,-5.718879942093984,0.9027458429336548,-0.11098504066467285,0.0511990524828434,0.17760686576366425,-0.14763712882995605,0.21091222763061523,-0.2536967694759369,-0.36687055230140686,0.3472203016281128,1.1852861642837524,-0.3822958767414093,0.6132360696792603,-0.29141706228256226
1749033482.9656413,-0.21278649965395147,-1.018381492500641,-2.055842638015747,0.611734076137207,-5.718401257191793,0.9022185802459717,-0.10869379341602325,0.051456306129693985,0.17932426929473877,-0.14863048493862152,0.21435417234897614,-0.2568001449108124,-0.4086933434009552,0.35987740755081177,1.1892703771591187,-0.3695148527622223,0.5994221568107605,-0.31734004616737366
1749033482.9676557,-0.21303064027895147,-1.0183468025973816,-2.05548357963562,0.6114179331013183,-5.717992428933279,0.9017049670219421,-0.11116039752960205,0.051394712179899216,0.17907030880451202,-0.14892767369747162,0.2175838053226471,-0.2604214549064636,-0.37784287333488464,0.3568825423717499,1.1812926530838013,-0.37902143597602844,0.6104710102081299,-0.31110823154449463
1749033482.9696503,-0.2132037321673792,-1.0182162088206788,-2.0551369190216064,0.6110822397419433,-5.717516664658682,0.9012038707733154,-0.11069466173648834,0.0504043884575367,0.17839820683002472,-0.1515491008758545,0.22061043977737427,-0.2636324167251587,-0.42298534512519836,0.35545042157173157,1.183822512626648,-0.38506922125816345,0.5396052002906799,-0.28404298424720764
1749033482.9716382,-0.21342784563173467,-1.0181514781764527,-2.0547893047332764,0.6108204561420898,-5.717081669961111,0.9006595015525818,-0.11213570833206177,0.05013652518391609,0.17916594445705414,-0.15516167879104614,0.22377927601337433,-0.26277095079421997,-0.42022109031677246,0.38387811183929443,1.20940101146698,-0.3565801978111267,0.5529516935348511,-0.31271031498908997
1749033482.9748287,-0.21366388002504522,-1.018055872326233,-2.0544488430023193,0.6104609209248046,-5.716708723698751,0.9001345634460449,-0.11355698108673096,0.051165126264095306,0.18174679577350616,-0.15787984430789948,0.2222299724817276,-0.26376792788505554,-0.41645169258117676,0.3742911219596863,1.1805542707443237,-0.35659894347190857,0.5656799674034119,-0.3229611814022064
1749033482.9757025,-0.21392661729921514,-1.0179361265948792,-2.054086446762085,0.6101326185413818,-5.716261688862936,0.899578332901001,-0.11290761828422546,0.05173659697175026,0.18269509077072144,-0.16058459877967834,0.22311994433403015,-0.26855331659317017,-0.43666476011276245,0.37334126234054565,1.1915630102157593,-0.3407183885574341,0.5794697403907776,-0.33235597610473633
1749033482.9776447,-0.2141049543963831,-1.0178319972804566,-2.053692579269409,0.6098081308552246,-5.715794686471121,0.8990375995635986,-0.11361376941204071,0.052667684853076935,0.18217603862285614,-0.15923267602920532,0.22409605979919434,-0.27539047598838806,-0.4119749069213867,0.3423326313495636,1.189814805984497,-0.33743542432785034,0.5804870128631592,-0.2926790714263916
1749033482.9796474,-0.21434003511537725,-1.017709032898285,-2.0533647537231445,0.6094919878193359,-5.715350631867544,0.8985245227813721,-0.11343250423669815,0.05233146995306015,0.18260778486728668,-0.16176246106624603,0.22391377389431,-0.2788006365299225,-0.44000256061553955,0.34261414408683777,1.168658971786499,-0.3284805417060852,0.6043604016304016,-0.26533883810043335
1749033482.981653,-0.21456844011415654,-1.0176085394671937,-2.0529744625091553,0.6091865736195068,-5.714945379887716,0.8979317545890808,-0.11622381955385208,0.05184447020292282,0.182224839925766,-0.15643593668937683,0.2244911789894104,-0.27958986163139343,-0.4208948016166687,0.36561933159828186,1.212667465209961,-0.36210715770721436,0.5977903604507446,-0.2371821105480194
1749033482.983658,-0.2148044745074671,-1.0174859923175354,-2.0525906085968018,0.6088458734699707,-5.714427057896749,0.8973913192749023,-0.11497878283262253,0.05502817779779434,0.18328642845153809,-0.15643170475959778,0.23080749809741974,-0.2761008143424988,-0.45896923542022705,0.3584969639778137,1.2397143840789795,-0.38850241899490356,0.6048569679260254,-0.26752573251724243
1749033482.9856505,-0.21505290666689092,-1.0173973006061097,-2.052259683609009,0.6085647779652099,-5.713952366505758,0.8968027830123901,-0.12110371887683868,0.0543760322034359,0.1857423186302185,-0.15923316776752472,0.22827458381652832,-0.27603384852409363,-0.4060590863227844,0.2960242033004761,1.2184991836547852,-0.36854010820388794,0.5915758609771729,-0.28311416506767273
1749033482.9876478,-0.21530038515199834,-1.0172697466662903,-2.0518605709075928,0.608252688045166,-5.713542286549703,0.8962736129760742,-0.11759345978498459,0.05310568958520889,0.18539893627166748,-0.15689216554164886,0.23244068026542664,-0.2758060097694397,-0.47923219203948975,0.391313761472702,1.245649814605713,-0.3653697073459625,0.5566122531890869,-0.3169034719467163
1749033482.9896295,-0.21554881731142217,-1.017193691139557,-2.051501512527466,0.6079398828693847,-5.713055078183309,0.8957331776618958,-0.11909665167331696,0.05399882793426514,0.1882207840681076,-0.15784290432929993,0.23164892196655273,-0.2753632664680481,-0.4397674798965454,0.36494508385658264,1.2383654117584229,-0.3928939700126648,0.5943701863288879,-0.34666937589645386
1749033482.9916372,-0.21577388445009404,-1.017077164059021,-2.0511183738708496,0.6075960832783203,-5.712533179913656,0.8951960206031799,-0.11968136578798294,0.05691402778029442,0.19226180016994476,-0.16168983280658722,0.23296482861042023,-0.27974018454551697,-0.43788018822669983,0.32626286149024963,1.2142583131790161,-0.39885351061820984,0.5994583368301392,-0.3309778571128845
1749033482.9936647,-0.21598607698549444,-1.016957477932312,-2.050747871398926,0.6072954374500732,-5.712131504212515,0.8946345448493958,-0.12091513723134995,0.055221326649188995,0.1929987668991089,-0.16499696671962738,0.23509155213832855,-0.28081557154655457,-0.4240022897720337,0.3112284541130066,1.194563627243042,-0.39492905139923096,0.5739104151725769,-0.3136678636074066
1749033482.995655,-0.21624643007387334,-1.0168107909015198,-2.0503642559051514,0.6069626051136474,-5.711612943802969,0.8940351009368896,-0.12112271040678024,0.05318482965230942,0.19135314226150513,-0.16866272687911987,0.23562432825565338,-0.28344714641571045,-0.43812474608421326,0.3821921944618225,1.212490439414978,-0.39896100759506226,0.6001710295677185,-0.309225857257843
1749033482.9978364,-0.21647388139833623,-1.0167113107493897,-2.050009250640869,0.6065947252460937,-5.711164299641744,0.8934823274612427,-0.11939007043838501,0.055154621601104736,0.19232052564620972,-0.17246639728546143,0.23401738703250885,-0.28617629408836365,-0.4459744989871979,0.35522279143333435,1.255604863166809,-0.36505258083343506,0.5996866822242737,-0.32617896795272827
1749033482.999677,-0.21671563783754522,-1.0166382950595398,-2.0496296882629395,0.6062218385883789,-5.710746888314382,0.8929248452186584,-0.12384656071662903,0.05567336827516556,0.1952984631061554,-0.17107351124286652,0.23433811962604523,-0.2863997220993042,-0.39248281717300415,0.3636110723018646,1.2375330924987793,-0.3507549464702606,0.6060694456100464,-0.3465813994407654
1749033483.0016706,-0.2170494238482874,-1.0164994162372132,-2.0492312908172607,0.6058580118366699,-5.71025669971575,0.8923408389091492,-0.12293816357851028,0.055901333689689636,0.19777263700962067,-0.17666999995708466,0.2336418628692627,-0.2932552993297577,-0.43045803904533386,0.3371468782424927,1.1914095878601074,-0.3383585214614868,0.6548103094100952,-0.32797396183013916
1749033483.0036569,-0.2172187010394495,-1.0164265197566529,-2.0488011837005615,0.6055444914051513,-5.709816340600149,0.8917206525802612,-0.12274011224508286,0.05590811371803284,0.19705836474895477,-0.17119364440441132,0.23194609582424164,-0.30049076676368713,-0.4228872060775757,0.3634716272354126,1.2219436168670654,-0.3366471230983734,0.6577790975570679,-0.29910266399383545
1749033483.0056374,-0.2174604574786585,-1.016259567146637,-2.0484135150909424,0.6051644521900634,-5.7093064228640955,0.8911076784133911,-0.12545126676559448,0.05621309578418732,0.1977871060371399,-0.16967718303203583,0.23385600745677948,-0.30347296595573425,-0.4547756016254425,0.3615095615386963,1.2184820175170898,-0.3623460531234741,0.6778808236122131,-0.2557424306869507
1749033483.0076501,-0.21771556535829717,-1.0161517423442383,-2.047987222671509,0.6048158842274169,-5.708818499241964,0.8904985785484314,-0.12769007682800293,0.05696620047092438,0.20012295246124268,-0.16879774630069733,0.23674547672271729,-0.30057868361473083,-0.40968558192253113,0.35875484347343445,1.236328363418579,-0.358454167842865,0.7021105885505676,-0.276507169008255
1749033483.009653,-0.2179487387286585,-1.0160321158221741,-2.0475962162017822,0.6045209604450683,-5.708330277596609,0.8898587226867676,-0.12751071155071259,0.05733511596918106,0.20242281258106232,-0.1689738631248474,0.24102240800857544,-0.2964266836643219,-0.4268285632133484,0.3227737843990326,1.1886816024780273,-0.36392471194267273,0.692513644695282,-0.2897540330886841
1749033483.0116658,-0.21819001833070928,-1.0159592193416138,-2.0471696853637695,0.6041666704365234,-5.707821492348806,0.8893207311630249,-0.1277768313884735,0.056291364133358,0.20211341977119446,-0.16988372802734375,0.24721908569335938,-0.29581207036972046,-0.44872888922691345,0.3908061683177948,1.2189812660217285,-0.3842351734638214,0.6745693683624268,-0.31560999155044556
1749033483.0136857,-0.21850759187807256,-1.0158358973315735,-2.0467822551727295,0.6038216787525634,-5.70732152858843,0.8887159824371338,-0.12943030893802643,0.055046048015356064,0.20189547538757324,-0.17168574035167694,0.2492988556623459,-0.295116662979126,-0.3901280462741852,0.3838047385215759,1.2216475009918213,-0.38732486963272095,0.6226500272750854,-0.33691906929016113
1749033483.0156462,-0.2187131086932581,-1.0157185953906556,-2.0463593006134033,0.6034807401844482,-5.706782583390371,0.8881310224533081,-0.1294982135295868,0.05658126249909401,0.20199105143547058,-0.17458124458789825,0.2530191242694855,-0.2991017997264862,-0.4505698084831238,0.39809900522232056,1.231858730316162,-0.38826683163642883,0.592756450176239,-0.32876986265182495
1749033483.017643,-0.21898967424501592,-1.0155955714038392,-2.0459253787994385,0.603139801616333,-5.7062392870532435,0.8875493407249451,-0.1287703961133957,0.056431032717227936,0.2004411518573761,-0.1769503951072693,0.25067856907844543,-0.30105605721473694,-0.4120296537876129,0.3559466302394867,1.2275657653808594,-0.3645811080932617,0.593509316444397,-0.3210957646369934
1749033483.0197117,-0.2192137877093714,-1.0154805344394227,-2.0455574989318848,0.6027363973804931,-5.705754641686575,0.886917233467102,-0.13181932270526886,0.056495301425457,0.2004518359899521,-0.18067635595798492,0.24736249446868896,-0.30020490288734436,-0.40620341897010803,0.3981773555278778,1.2417758703231812,-0.3667840361595154,0.6127153635025024,-0.3149283826351166
1749033483.0216649,-0.2195056120501917,-1.015379325752594,-2.0451390743255615,0.6023787695118408,-5.705259148274557,0.88631272315979,-0.12861809134483337,0.057135991752147675,0.2022940069437027,-0.17911510169506073,0.2458828091621399,-0.30226796865463257,-0.44931888580322266,0.421486496925354,1.245979905128479,-0.34855175018310547,0.6493805050849915,-0.3279768228530884
1749033483.0236707,-0.2197497526751917,-1.0152560037425538,-2.0447232723236084,0.601998968715332,-5.704770926629202,0.8857155442237854,-0.13111573457717896,0.058459628373384476,0.2041868269443512,-0.17878443002700806,0.2482338696718216,-0.3025475740432739,-0.4134109318256378,0.4083770215511322,1.2584444284439087,-0.34135282039642334,0.6442768573760986,-0.3886403441429138
1749033483.0257313,-0.22000343004335576,-1.0151127141765137,-2.044316530227661,0.6016499239155273,-5.704298202191488,0.8850870132446289,-0.13215447962284088,0.0612843818962574,0.20767945051193237,-0.1811736524105072,0.24927932024002075,-0.3113499581813812,-0.42421117424964905,0.3263792097568512,1.2572479248046875,-0.3236907124519348,0.6421545743942261,-0.3433101177215576
1749033483.0276358,-0.22028667131532842,-1.0149696630290528,-2.0438976287841797,0.601320667857788,-5.703747514878408,0.8844621181488037,-0.1326538324356079,0.05804546922445297,0.20922662317752838,-0.17830143868923187,0.2562156617641449,-0.3179529309272766,-0.4476303458213806,0.3782802224159241,1.239159345626831,-0.37221622467041016,0.5959551930427551,-0.2735348343849182
1749033483.0296347,-0.22053558031191045,-1.0148920577815552,-2.0435028076171875,0.6009444433399658,-5.703243736420767,0.8837946057319641,-0.13034656643867493,0.05970444902777672,0.2084071785211563,-0.17777316272258759,0.25572583079338074,-0.3164076805114746,-0.4448566436767578,0.3778688311576843,1.2562209367752075,-0.3538917899131775,0.6008402705192566,-0.23854084312915802
1749033483.0316432,-0.22077638307680303,-1.014744297867157,-2.0430715084075928,0.6005887228199462,-5.702708605919973,0.8831766843795776,-0.13294360041618347,0.06216004863381386,0.2090417891740799,-0.1790158897638321,0.2575269639492035,-0.31349700689315796,-0.40552812814712524,0.3657402992248535,1.2530664205551147,-0.37923663854599,0.5799381136894226,-0.2785055935382843
1749033483.0336425,-0.2210448423968714,-1.0146120947650452,-2.0426642894744873,0.6002158361622314,-5.7022157351123255,0.8825833797454834,-0.13561297953128815,0.06134575977921486,0.21255746483802795,-0.18163764476776123,0.25873494148254395,-0.312069833278656,-0.4320654571056366,0.33887237310409546,1.233768105506897,-0.36779409646987915,0.6018985509872437,-0.3111623525619507
1749033483.035646,-0.22130090395082647,-1.014493541126587,-2.0422141551971436,0.5998520094105224,-5.701637689267294,0.8819703459739685,-0.13448572158813477,0.05955435335636139,0.21552829444408417,-0.18381790816783905,0.2559475898742676,-0.310038685798645,-0.4302753210067749,0.3666595220565796,1.223599910736084,-0.3921492397785187,0.626402735710144,-0.3552451431751251
1749033483.0376272,-0.22130090395082647,-1.014493541126587,-2.0422141551971436,0.5998520094105224,-5.701637689267294,0.8819703459739685,-0.13448572158813477,0.05955435335636139,0.21552829444408417,-0.18381790816783905,0.2559475898742676,-0.310038685798645,-0.4302753210067749,0.3666595220565796,1.223599910736084,-0.3921492397785187,0.626402735710144,-0.3552451431751251
1749033483.0396352,-0.2218688170062464,-1.0142837327769776,-2.041356086730957,0.599125786418579,-5.700617913399832,0.8806496262550354,-0.13541512191295624,0.06153588369488716,0.21653354167938232,-0.18619835376739502,0.26063236594200134,-0.31706053018569946,-0.4233185052871704,0.3583126366138458,1.2379475831985474,-0.359502911567688,0.6146796345710754,-0.32076627016067505
1749033483.0416389,-0.22218209901918584,-1.0141450327685853,-2.040921211242676,0.598700686092041,-5.700090352688925,0.8800365924835205,-0.1353565752506256,0.06215372309088707,0.2196476310491562,-0.1918896585702896,0.2635480761528015,-0.31998905539512634,-0.4393622875213623,0.34999096393585205,1.188838005065918,-0.331283301115036,0.6070402264595032,-0.29864639043807983
1749033483.0436885,-0.22248441377748662,-1.0139900010875245,-2.040471076965332,0.598332329387329,-5.699569706116812,0.879379391670227,-0.13733762502670288,0.06229454278945923,0.2216416597366333,-0.18900847434997559,0.2631780505180359,-0.32123225927352905,-0.47138750553131104,0.3592683672904968,1.1907682418823242,-0.3475724458694458,0.6115745902061462,-0.331616073846817
1749033483.0457532,-0.22272998491396123,-1.0138895076564332,-2.0400631427764893,0.5979711252399902,-5.699049774800436,0.8787577748298645,-0.14017781615257263,0.06319550424814224,0.2231787145137787,-0.18820413947105408,0.2647377848625183,-0.3226984739303589,-0.4561699628829956,0.37801167368888855,1.2204679250717163,-0.36155813932418823,0.6198942065238953,-0.3546094298362732
1749033483.0476754,-0.2230137030230921,-1.0137580198100586,-2.0396084785461426,0.5976497369953613,-5.698526147996084,0.878105103969574,-0.14357078075408936,0.06428743153810501,0.2234547734260559,-0.1879437118768692,0.26633384823799133,-0.3301374316215515,-0.41724637150764465,0.3349955677986145,1.1995484828948975,-0.35981303453445435,0.6321011781692505,-0.32404258847236633
1749033483.0496247,-0.22329456010927373,-1.0135942262462159,-2.0391769409179688,0.5972577768513183,-5.697998289261953,0.877413272857666,-0.13804496824741364,0.06334520131349564,0.22071880102157593,-0.1883072555065155,0.2670513987541199,-0.3341112434864044,-0.3904421329498291,0.26640790700912476,1.157956600189209,-0.3511333465576172,0.6075394749641418,-0.26696446537971497
1749033483.0516524,-0.22355252901186162,-1.0135094088367005,-2.0387187004089355,0.5968655782886962,-5.697497073804037,0.8767321705818176,-0.1366104930639267,0.05948754400014877,0.21371342241764069,-0.1886804848909378,0.26806730031967163,-0.33293452858924866,-0.3433186709880829,0.2893337905406952,1.161069631576538,-0.37492114305496216,0.570868968963623,-0.2169579118490219
1749033483.0536363,-0.22386008897890264,-1.0134016436389466,-2.038287401199341,0.5965050893970947,-5.696939233933584,0.8760861754417419,-0.13470055162906647,0.05590241402387619,0.20703035593032837,-0.1913151741027832,0.26553741097450256,-0.3236018717288971,-0.3995867967605591,0.3701930642127991,1.2590327262878418,-0.35863956809043884,0.6093831062316895,-0.24157893657684326
1749033483.0556276,-0.2241280714618128,-1.0132302206805726,-2.0378644466400146,0.596132679576538,-5.696356181298391,0.8754770755767822,-0.13572277128696442,0.059123795479536057,0.20859302580356598,-0.19222430884838104,0.2651910185813904,-0.31866055727005005,-0.40413805842399597,0.3680230975151062,1.2860724925994873,-0.36190685629844666,0.5872331261634827,-0.3052964210510254
1749033483.057613,-0.2244198958026331,-1.0131498140147706,-2.0374250411987305,0.5957166391560058,-5.695863250886099,0.8748403787612915,-0.13595157861709595,0.06044675037264824,0.2138446718454361,-0.1956949681043625,0.2676446735858917,-0.3199143707752228,-0.40287989377975464,0.32894688844680786,1.256608009338379,-0.32046937942504883,0.5953949689865112,-0.3297565281391144
1749033483.0596457,-0.22466546693910772,-1.013017551308014,-2.036982297897339,0.5953351694294433,-5.695300821457998,0.8741492629051208,-0.13441310822963715,0.059772152453660965,0.21773499250411987,-0.19160248339176178,0.26405954360961914,-0.3235248029232025,-0.42510509490966797,0.3888024687767029,1.2059271335601807,-0.32566821575164795,0.6012921929359436,-0.3008042871952057
1749033483.0616302,-0.22492963472475225,-1.0128706258586426,-2.0365591049194336,0.5949594217487792,-5.694792036210195,0.8734920024871826,-0.13659913837909698,0.06287701427936554,0.21855540573596954,-0.19272443652153015,0.26731792092323303,-0.3244224488735199,-0.47345632314682007,0.5076494812965393,1.3648364543914795,-0.36040544509887695,0.6599413156509399,-0.3671165108680725
1749033483.0636292,-0.2252286116229456,-1.0127502244761963,-2.0360844135284424,0.5946132379719238,-5.694267515336172,0.8728036284446716,-0.14588630199432373,0.07316215336322784,0.22475871443748474,-0.18817991018295288,0.2729586064815521,-0.3250933289527893,-0.4926563799381256,0.3452872037887573,1.33474862575531,-0.38078975677490234,0.6596992015838623,-0.3497524857521057
1749033483.065624,-0.2254570166217249,-1.0126027029803772,-2.0356266498565674,0.5942210394093017,-5.6937347690211695,0.8721649050712585,-0.14523319900035858,0.07113432884216309,0.2328975349664688,-0.18995915353298187,0.2810250520706177,-0.32999804615974426,-0.4551568627357483,0.32041963934898376,1.2515374422073364,-0.3961286246776581,0.5945882797241211,-0.34490329027175903
1749033483.0676982,-0.22572213808168584,-1.012502209549286,-2.03519606590271,0.59383670865979,-5.6931138078318995,0.8714653253555298,-0.1465345174074173,0.07038567215204239,0.23593756556510925,-0.1941911280155182,0.2880675792694092,-0.3357190489768982,-0.41990214586257935,0.2611076235771179,1.188008427619934,-0.4076165556907654,0.5815259218215942,-0.35285693407058716
1749033483.0696204,-0.22604543367494756,-1.0123581451228638,-2.0347084999084473,0.5934123235889892,-5.692548696194784,0.870792806148529,-0.14581255614757538,0.06717029213905334,0.23355843126773834,-0.20007413625717163,0.28660911321640015,-0.34298285841941833,-0.4584192931652069,0.3411083221435547,1.2371058464050293,-0.388205349445343,0.5796266198158264,-0.3263792395591736
1749033483.0716586,-0.22631484666933233,-1.0121994775584717,-2.034238338470459,0.5930065351673584,-5.69194990793337,0.8700955510139465,-0.14731284976005554,0.06683116406202316,0.23401346802711487,-0.2033543884754181,0.28534793853759766,-0.34715044498443604,-0.4714969992637634,0.37082111835479736,1.275636911392212,-0.38571134209632874,0.5824392437934875,-0.3000463545322418
1749033483.0736263,-0.22660428682436162,-1.012121931915619,-2.0337870121002197,0.5925699907490234,-5.691428248082296,0.8694418668746948,-0.14915059506893158,0.06631861627101898,0.23718371987342834,-0.2130875140428543,0.28592729568481445,-0.348785400390625,-0.4080667495727539,0.33104413747787476,1.2090716361999512,-0.31040775775909424,0.5801731944084167,-0.2658325433731079
1749033483.0756955,-0.22694665590395147,-1.012014166717865,-2.0333046913146973,0.5921615797230224,-5.690833036099569,0.8686915040016174,-0.1470140665769577,0.06483307480812073,0.2352742701768875,-0.21004953980445862,0.28733575344085693,-0.34847912192344666,-0.4381965696811676,0.320793479681015,1.2006136178970337,-0.30869197845458984,0.5730756521224976,-0.31155669689178467
1749033483.077629,-0.22723180452455694,-1.0118235510638733,-2.032813310623169,0.5917319494434814,-5.69022918144335,0.8679899573326111,-0.1486576497554779,0.06429048627614975,0.23523761332035065,-0.21265770494937897,0.28863969445228577,-0.3466264307498932,-0.48496806621551514,0.43359944224357605,1.2830041646957397,-0.3044671416282654,0.5802059769630432,-0.3592863082885742
1749033483.0796852,-0.22751266161073858,-1.0117262166789551,-2.032320022583008,0.5913280683704834,-5.689696733151571,0.8672857284545898,-0.15022949874401093,0.06622999161481857,0.2371375560760498,-0.20785120129585266,0.2926922142505646,-0.3504662811756134,-0.5031075477600098,0.41468703746795654,1.2516605854034424,-0.3125497102737427,0.5768751502037048,-0.3512040674686432
1749033483.0815942,-0.22784787813295537,-1.0115749400905152,-2.0318286418914795,0.5909702020832519,-5.689103428517477,0.8666080236434937,-0.14984920620918274,0.06728029996156693,0.2365109622478485,-0.20530593395233154,0.2886515259742737,-0.35447999835014343,-0.4732015132904053,0.35926175117492676,1.2570711374282837,-0.350925087928772,0.6181781888008118,-0.3336080312728882
1749033483.0836356,-0.22815210023988897,-1.0114552539638062,-2.0313808917999268,0.5905420023151855,-5.68851608434786,0.8659186363220215,-0.15194903314113617,0.06730108708143234,0.2333371341228485,-0.20617230236530304,0.2885732054710388,-0.35277557373046875,-0.45553895831108093,0.38375771045684814,1.3093407154083252,-0.37446463108062744,0.6170878410339355,-0.3349265158176422
1749033483.0856447,-0.22846824327577764,-1.0113184613040467,-2.03088641166687,0.5901331144520263,-5.688009504471914,0.8651794791221619,-0.15356384217739105,0.06783917546272278,0.2354501336812973,-0.2071727216243744,0.29155346751213074,-0.3550208508968353,-0.4684954583644867,0.41649171710014343,1.3551429510116577,-0.3933648467063904,0.6765849590301514,-0.3796350359916687
1749033483.0876591,-0.2287529150592249,-1.0111832183650513,-2.0304195880889893,0.5897211271473388,-5.687355283890859,0.8644945025444031,-0.15478847920894623,0.0686028003692627,0.24028418958187103,-0.20988045632839203,0.29663458466529846,-0.3606269657611847,-0.4688910245895386,0.4217655062675476,1.34354829788208,-0.41031119227409363,0.6748596429824829,-0.3911907970905304
1749033483.0896115,-0.22908050218691045,-1.0110553067973633,-2.029940128326416,0.5892688471027832,-5.686728660260336,0.8637422323226929,-0.15557345747947693,0.07319764792919159,0.24198509752750397,-0.21619702875614166,0.3007895350456238,-0.3679787218570709,-0.4196116328239441,0.32033559679985046,1.2922382354736328,-0.3797672390937805,0.6164213418960571,-0.34772488474845886
1749033483.0917497,-0.22938281694521123,-1.010872797375061,-2.029454231262207,0.5888396936604003,-5.6861388126956385,0.8629743456840515,-0.1573815792798996,0.06736508011817932,0.24101446568965912,-0.21422769129276276,0.30442115664482117,-0.36993905901908875,-0.40723058581352234,0.4339514970779419,1.384512186050415,-0.3951464295387268,0.5941408276557922,-0.32997316122055054
1749033483.0936756,-0.22970563570131475,-1.0107396405986329,-2.0289711952209473,0.5884262758442382,-5.685518507157461,0.8622835874557495,-0.15660427510738373,0.06960485130548477,0.24549464881420135,-0.21716263890266418,0.30627211928367615,-0.37172073125839233,-0.4463960528373718,0.41392725706100464,1.3550021648406982,-0.40210670232772827,0.591590940952301,-0.32204627990722656
1749033483.0956419,-0.23005801836122686,-1.0105458062938233,-2.0284647941589355,0.5879465776630859,-5.684927169476644,0.8615316152572632,-0.15718303620815277,0.07494755834341049,0.24824947118759155,-0.21707598865032196,0.3080853521823883,-0.37287765741348267,-0.43677380681037903,0.3490764796733856,1.3449817895889282,-0.35999536514282227,0.6005552411079407,-0.33251842856407166
1749033483.097619,-0.2303078810321253,-1.0104324382594605,-2.027949571609497,0.5874981123157959,-5.68427294889559,0.8608019351959229,-0.15723778307437897,0.07060862332582474,0.2517058253288269,-0.218938946723938,0.31013616919517517,-0.3747938275337219,-0.4261678457260132,0.36605969071388245,1.2850065231323242,-0.37697839736938477,0.5733553171157837,-0.33550724387168884
1749033483.09963,-0.2305854002581995,-1.0103039902499695,-2.0274507999420166,0.587075873012207,-5.683719221745626,0.8600221872329712,-0.15825562179088593,0.07117363810539246,0.25438520312309265,-0.21878108382225037,0.3126700818538666,-0.3761094808578491,-0.4542813003063202,0.3799530267715454,1.2874131202697754,-0.3673861622810364,0.5850765705108643,-0.35580816864967346
1749033483.1016345,-0.23092395464052373,-1.0101569455913086,-2.0268895626068115,0.5866278845020751,-5.68310791650881,0.8592652082443237,-0.1582595854997635,0.07266606390476227,0.2587515115737915,-0.2188115268945694,0.31368181109428406,-0.3758327066898346,-0.46375107765197754,0.34749409556388855,1.2381784915924072,-0.3466986417770386,0.5509257316589355,-0.34040117263793945
1749033483.1036317,-0.23125249544252569,-1.0100284975818177,-2.026362419128418,0.58616749822583,-5.682458941136495,0.8584461808204651,-0.15715374052524567,0.07267813384532928,0.2594972252845764,-0.2211446613073349,0.3133026957511902,-0.37849435210227966,-0.474015474319458,0.35909515619277954,1.2072341442108154,-0.3675466775894165,0.5509065389633179,-0.3406241536140442
1749033483.1056027,-0.23154956499208623,-1.0098497432521363,-2.025885581970215,0.5857381063648681,-5.681827012692587,0.8577190041542053,-0.16032303869724274,0.07330929487943649,0.25924521684646606,-0.22598335146903992,0.3120559751987457,-0.38099512457847595,-0.4512981176376343,0.32755568623542786,1.1866477727890015,-0.3304540514945984,0.5818293690681458,-0.34889301657676697
1749033483.1076806,-0.23191672960390264,-1.00973732889209,-2.0253396034240723,0.5852741438099365,-5.681182686482565,0.8569381833076477,-0.1615004986524582,0.07325953990221024,0.25913265347480774,-0.22163470089435577,0.3092412054538727,-0.38335010409355164,-0.4564160704612732,0.3960499167442322,1.2329751253128052,-0.3602786660194397,0.623879075050354,-0.33737194538116455
1749033483.1096463,-0.2322023550616663,-1.0095688861659546,-2.0248258113861084,0.584836407298706,-5.680582825337545,0.856224536895752,-0.1617029905319214,0.07556366920471191,0.26161274313926697,-0.22451452910900116,0.31366634368896484,-0.3844394385814667,-0.48835626244544983,0.3533497154712677,1.2257007360458374,-0.317394495010376,0.622708261013031,-0.31595009565353394
1749033483.1116257,-0.23254663148988897,-1.0094130796245118,-2.024310827255249,0.5843915182301025,-5.67995918193926,0.8553888201713562,-0.16295722126960754,0.07598879188299179,0.2613256871700287,-0.2211746722459793,0.31732022762298584,-0.38541778922080994,-0.45650309324264526,0.3562695384025574,1.2019076347351074,-0.3547351360321045,0.5677998661994934,-0.31809356808662415
1749033483.1136937,-0.23289853731264287,-1.0092695516398926,-2.0238027572631836,0.5839401918598632,-5.67933160463442,0.8546745777130127,-0.1644560694694519,0.07597310841083527,0.2597242295742035,-0.21931669116020203,0.3216855227947235,-0.385572224855423,-0.46513012051582336,0.3324594795703888,1.189112901687622,-0.37830665707588196,0.55464768409729,-0.33991724252700806
1749033483.1156788,-0.2332385222064417,-1.0091172617724915,-2.023334503173828,0.5835022169300537,-5.678679887448446,0.8539224863052368,-0.16418497264385223,0.07500571012496948,0.25844886898994446,-0.2169760912656784,0.3181138038635254,-0.3846711218357086,-0.4316752254962921,0.39596542716026306,1.271622657775879,-0.3977133631706238,0.6018927693367004,-0.3731343150138855
1749033483.1176333,-0.23355228105653936,-1.0089664620212098,-2.0228359699249268,0.5830575662800292,-5.678066674862997,0.8531341552734375,-0.1635633409023285,0.07812345772981644,0.2595809996128082,-0.21965639293193817,0.3169134557247162,-0.38767632842063904,-0.44548359513282776,0.31620654463768005,1.2612011432647705,-0.4206894338130951,0.6111275553703308,-0.36790281534194946
1749033483.1196873,-0.23391849199403936,-1.0088141721538086,-2.022339105606079,0.5825933653065185,-5.677412275468008,0.8523333072662354,-0.16589504480361938,0.07605438679456711,0.25867071747779846,-0.22330592572689056,0.31646519899368286,-0.3912264108657837,-0.45985889434814453,0.35851535201072693,1.2800062894821167,-0.38954150676727295,0.6200685501098633,-0.3370821177959442
1749033483.121661,-0.23422462144960576,-1.0086887043765564,-2.0218193531036377,0.5821637350269775,-5.6767489353763025,0.8515644073486328,-0.1669561117887497,0.07769112288951874,0.25961947441101074,-0.2277359515428543,0.31914636492729187,-0.3935832679271698,-0.4439014494419098,0.332915723323822,1.2932583093643188,-0.43063846230506897,0.618023693561554,-0.3526626527309418
1749033483.1236296,-0.23461944261659795,-1.0085179966739197,-2.0212929248809814,0.5816916662403564,-5.676057283078329,0.8508145809173584,-0.16725490987300873,0.07651323825120926,0.26198071241378784,-0.22397711873054504,0.3208886384963989,-0.3953929841518402,-0.4135691523551941,0.30600130558013916,1.2787666320800781,-0.3985404372215271,0.596550464630127,-0.35995495319366455
1749033483.1256902,-0.23495275179018194,-1.0083354872516175,-2.0208117961883545,0.5812067228504638,-5.675409738217489,0.849952220916748,-0.16621123254299164,0.07513421028852463,0.2636283040046692,-0.22770148515701294,0.3193907141685486,-0.3968466520309448,-0.40478700399398804,0.3567909002304077,1.2752385139465332,-0.38936105370521545,0.5797196626663208,-0.335359126329422
1749033483.1276655,-0.23527032533754522,-1.008229748611786,-2.0202527046203613,0.5807534891315917,-5.674774114285604,0.8491893410682678,-0.16452744603157043,0.07557652145624161,0.26467326283454895,-0.22477218508720398,0.3188755214214325,-0.39784958958625793,-0.45263439416885376,0.3916659653186798,1.2899044752120972,-0.41666778922080994,0.6152413487434387,-0.32683801651000977
1749033483.129645,-0.2356017271624964,-1.0080745381167908,-2.019710063934326,0.5803002554127197,-5.674119595681326,0.848368227481842,-0.16698434948921204,0.0764482244849205,0.2704193592071533,-0.22665835916996002,0.3189816474914551,-0.39827489852905273,-0.43753567337989807,0.35200953483581543,1.2399379014968872,-0.4157702922821045,0.6393201351165771,-0.3178783059120178
1749033483.1316266,-0.23591930070985967,-1.007887379532196,-2.019157886505127,0.5798508363911132,-5.673491124306814,0.8476004004478455,-0.1653643101453781,0.07583116739988327,0.2715003490447998,-0.22931213676929474,0.3206932842731476,-0.3989037871360779,-0.4457254111766815,0.35703831911087036,1.2118713855743408,-0.3871636986732483,0.6326500177383423,-0.3204638361930847
1749033483.1336534,-0.23629790941347295,-1.0078134697726746,-2.018646240234375,0.579383059138916,-5.672882084046499,0.8468247652053833,-0.16589313745498657,0.07548800855875015,0.2701500952243805,-0.23051071166992188,0.32344862818717957,-0.39785856008529663,-0.43641480803489685,0.36446812748908997,1.207417607307434,-0.4110826849937439,0.5958642363548279,-0.3373345136642456
1749033483.1356378,-0.2366264502154749,-1.0075757664493104,-2.018075466156006,0.5789024072834472,-5.672168854867117,0.8460351228713989,-0.16721521317958832,0.07503966987133026,0.26997116208076477,-0.23579849302768707,0.32427626848220825,-0.4006935656070709,-0.4171593189239502,0.38363197445869446,1.2486052513122559,-0.3778109848499298,0.6197797060012817,-0.3119358420372009
1749033483.137716,-0.2369754950152796,-1.007455365066864,-2.017554759979248,0.5784110265919189,-5.671521250401632,0.8452010154724121,-0.16720172762870789,0.07908423244953156,0.27069729566574097,-0.23375314474105835,0.3234112560749054,-0.40219542384147644,-0.47296538949012756,0.35907885432243347,1.2282514572143555,-0.3938710391521454,0.6180830001831055,-0.33570951223373413
1749033483.1396506,-0.23726112047304326,-1.0073067110827942,-2.0170230865478516,0.577965183848999,-5.670841638241903,0.8444235920906067,-0.16767112910747528,0.07945404201745987,0.269885778427124,-0.2358599305152893,0.3237278163433075,-0.40215104818344116,-0.4234812259674072,0.3371546268463135,1.2642768621444702,-0.3585454821586609,0.6526324152946472,-0.3439285159111023
1749033483.1416352,-0.23764545122255498,-1.007119671707489,-2.0164713859558105,0.5774993139454345,-5.670164112244741,0.8436220288276672,-0.17004495859146118,0.07866879552602768,0.2700067162513733,-0.2320910543203354,0.32746607065200806,-0.40685784816741943,-0.42907989025115967,0.3520432710647583,1.3231778144836426,-0.38644346594810486,0.6452768445014954,-0.3571321368217468
1749033483.1436806,-0.23799640337099248,-1.0069990915111084,-2.0159316062927246,0.5770467954822998,-5.669480804597036,0.8427610993385315,-0.16893160343170166,0.07999235391616821,0.27190738916397095,-0.2325129210948944,0.33102136850357056,-0.41210946440696716,-0.454679936170578,0.3809615969657898,1.3091766834259033,-0.4044705033302307,0.6128361821174622,-0.3211570382118225
1749033483.1456494,-0.2383483091937464,-1.0067418378642579,-2.0153870582580566,0.576610727901123,-5.668871764336721,0.8419384360313416,-0.17066025733947754,0.08160828053951263,0.2731054425239563,-0.23221834003925323,0.3330969214439392,-0.4109499752521515,-0.4373791813850403,0.2958652973175049,1.2767484188079834,-0.4167391061782837,0.6013752818107605,-0.27146685123443604
1749033483.147643,-0.23866206804384404,-1.0066517156413575,-2.014793872833252,0.576117678279541,-5.668224100266592,0.8411223888397217,-0.17123645544052124,0.07844138890504837,0.2759911119937897,-0.23404553532600403,0.3327341377735138,-0.40723946690559387,-0.4255221486091614,0.363724946975708,1.3113280534744263,-0.42726945877075195,0.6441423296928406,-0.31638047099113464
1749033483.14966,-0.23906451860536748,-1.0065224331668396,-2.0142695903778076,0.5756372648426513,-5.66753733554949,0.8402622938156128,-0.17148520052433014,0.08147487044334412,0.27923962473869324,-0.23933625221252441,0.32986167073249817,-0.4066024124622345,-0.4474726617336273,0.31602805852890015,1.2596032619476318,-0.41600117087364197,0.6600801348686218,-0.3341904282569885
