nimar13/UR3e_dataset_trayectorias/trayectorias_ejecutadas/quintic/trayectoria_007_result.csv
timestamp,q1,q2,q3,q4,q5,q6,qd1,qd2,qd3,qd4,qd5,qd6,tau1,tau2,tau3,tau4,tau5,tau6
1749032217.5265138,4.638995170593262,-1.211910293703415,0.023717228566304982,-3.0848266086974085,4.788974761962891,-6.246478706841366,-0.0028660125099122524,0.00022298371186479926,-0.00027096952544525266,-1.4201333442542818e-06,-0.00036972848465666175,0.0013240496627986431,0.06965284049510956,-0.3581622540950775,-0.32823747396469116,0.19797207415103912,0.047940850257873535,-0.007227048277854919
1749032217.5265946,4.639007568359375,-1.2119019788554688,0.02374440828432256,-3.084829946557516,4.788939952850342,-6.246454637740747,-0.003649672958999872,0.0002162852615583688,-0.00025557135813869536,-2.5095243927353295e-07,-0.0009552501724101603,0.00247049774043262,0.08774477988481522,-0.3560543954372406,-0.33675098419189453,0.21583564579486847,0.027379177510738373,0.015441536903381348
1749032217.5266657,4.639011383056641,-1.211885855799057,0.023741070424215138,-3.0848142109312953,4.788938999176025,-6.2464615183519285,-0.004968917462974787,0.0002099772827932611,-0.00021824546274729073,-4.434593137148113e-08,-0.0012626878451555967,0.0035148970782756805,0.09510671347379684,-0.3523208200931549,-0.347464919090271,0.2195872962474823,0.0357203483581543,-0.02589370310306549
1749032217.5267355,4.638978958129883,-1.2119175058654328,0.023741070424215138,-3.0848175487914027,4.788900375366211,-6.246464886014358,-0.004681195132434368,0.00020402744121383876,-0.00018521276069805026,0.0002875454956665635,-0.001309949322603643,0.003835813608020544,0.0925857275724411,-0.3616362512111664,-0.33305007219314575,0.2225756049156189,0.045986756682395935,-0.004390746355056763
1749032217.526801,4.638970375061035,-1.211894766693451,0.023741070424215138,-3.084806104699606,4.78892707824707,-6.24644618133177,-0.004343609791249037,0.00019840490131173283,-0.0001747895439621061,0.0018619690090417862,-0.0016052130376920104,0.0037185288965702057,0.09737766534090042,-0.3471182882785797,-0.3265734314918518,0.21586193144321442,0.01762109249830246,-0.006910845637321472
1749032217.5268712,4.638963222503662,-1.2119174760631104,0.02375680605043584,-3.0848337612547816,4.788923263549805,-6.246415216718809,-0.00392435397952795,0.00019308416813146323,-0.0001666042226133868,0.0030113263055682182,-0.0015822533750906587,0.003701945301145315,0.07834238559007645,-0.3684782087802887,-0.31796807050704956,0.2150639146566391,0.025431141257286072,-3.813207149505615e-05
1749032217.5269394,4.638951301574707,-1.2118702989867707,0.023760620747701466,-3.084806104699606,4.788961410522461,-6.246387999747888,-0.003796879667788744,0.00018804155115503818,-0.0001397671876475215,0.002852171892300248,-0.001472705858759582,0.00477984081953764,0.0823187306523323,-0.3635018765926361,-0.31899601221084595,0.21963800489902496,0.019583888351917267,0.012945897877216339
1749032217.5270073,4.638962268829346,-1.2119057339480896,0.023741070424215138,-3.084790369073385,4.7889580726623535,-6.246422115956442,-0.004380898084491491,0.00018385096336714923,-0.0001156893340521492,0.0024723841343075037,-0.0012039744760841131,0.004846425727009773,0.06539252400398254,-0.36735883355140686,-0.3350685238838196,0.19867995381355286,0.031786203384399414,-0.00586371123790741
1749032217.5270734,4.638947486877441,-1.2118984025767823,0.023760620747701466,-3.0848099193968714,4.788919448852539,-6.246428933237688,-0.004211306106299162,0.00012081965542165563,-0.00010979951912304386,0.0020015761256217957,-0.0010253427317366004,0.004758414812386036,0.06565261632204056,-0.34154579043388367,-0.3241461515426636,0.20925821363925934,0.011249706149101257,0.001969277858734131
1749032217.5271401,4.638900279998779,-1.2118740540793915,0.023729626332418263,-3.084806104699606,4.78890323638916,-6.246447995548145,-0.0039045820012688637,0.0001171082622022368,-0.0001054336826200597,0.0015904741594567895,-0.0009305728017352521,0.004460460040718317,0.06910934299230576,-0.3498508036136627,-0.32918888330459595,0.21425390243530273,0.009769394993782043,-0.0013304203748703003
1749032217.5272067,4.638920307159424,-1.2119093102267762,0.023741070424215138,-3.084825178185934,4.78891134262085,-6.2464289406882685,-0.003862302517518401,0.00013673077046405524,-0.00010146565909963101,0.0012291144812479615,-0.0008991292561404407,0.00401373440399766,0.07581712305545807,-0.3630087077617645,-0.31888991594314575,0.19865520298480988,0.019552558660507202,0.021519064903259277
1749032217.5272746,4.6389312744140625,-1.2119605404189606,0.02375680605043584,-3.0848099193968714,4.788923263549805,-6.246413614843981,-0.003555843373760581,0.00015360426914412528,-9.778988169273362e-05,0.0008870798628777266,-0.000812566198874265,0.0035154595971107483,0.07365913689136505,-0.33495137095451355,-0.3317232131958008,0.2045629769563675,0.03766980767250061,0.01807670295238495
1749032217.527341,4.638864040374756,-1.2118740540793915,0.02374440828432256,-3.0847937069334925,4.78892707824707,-6.246394831930296,-0.0030537887942045927,0.000171602179761976,-9.437143307877705e-05,0.0008018450462259352,-0.0008069059695117176,0.003139604115858674,0.06411717087030411,-0.34344592690467834,-0.34338003396987915,0.21303124725818634,0.03083091974258423,0.006889529526233673
1749032217.5274081,4.6388678550720215,-1.2118776601604004,0.023763958607808888,-3.084797521630758,4.788922309875488,-6.246428914611236,-0.0027254766318947077,0.0006789175095036626,-1.441362746845698e-05,0.0007318063289858401,-0.000677774369250983,0.003200259292498231,0.054218947887420654,-0.3333103358745575,-0.31904101371765137,0.19426323473453522,0.02886221557855606,-0.0001126602292060852
1749032217.5274742,4.6389031410217285,-1.2118666929057618,0.02375680605043584,-3.084790369073385,4.788915157318115,-6.246413585041658,-0.002241570968180895,0.0008758249459788203,5.81148051423952e-05,0.0007262983708642423,-0.0005682320334017277,0.0039035596419125795,0.06216512620449066,-0.36013659834861755,-0.3343433737754822,0.212812140583992,0.03184796869754791,0.008002199232578278
1749032217.527541,4.6389031410217285,-1.2118895810893555,0.02375680605043584,-3.0847937069334925,4.7888994216918945,-6.246384185050623,-0.002080808160826564,0.0009012443479150534,6.084773121983744e-05,0.000672252441290766,-0.000570537697058171,0.0043011624366045,0.0635361522436142,-0.3421499729156494,-0.3427469730377197,0.19510595500469208,0.027835823595523834,-0.0006356984376907349
1749032217.5276072,4.63887882232666,-1.2118702989867707,0.023763958607808888,-3.084797521630758,4.788923263549805,-6.246360235159294,-0.0019111098954454064,0.001730336807668209,5.915485235163942e-05,0.0006727996515110135,-0.000534018618054688,0.0038702369201928377,0.08572036027908325,-0.3535366952419281,-0.33648353815078735,0.2047162801027298,0.022044137120246887,0.008263207972049713
1749032217.5276735,4.638906955718994,-1.2119040352157135,0.02374440828432256,-3.08477844814443,4.788930416107178,-6.246393271033661,-0.0018310125451534986,0.0016169586451724172,5.729190161218867e-05,0.0006341003463603556,-0.0004890815471298993,0.002916545607149601,0.06581664830446243,-0.35124829411506653,-0.3307000398635864,0.20524413883686066,0.01758137345314026,-0.0038191676139831543
1749032217.5277393,4.638871192932129,-1.2118740242770691,0.02372628847231084,-3.084797521630758,4.788918495178223,-6.246343307440178,-0.0014747920213267207,0.0016615281347185373,5.552568836719729e-05,0.0005613011308014393,-0.0004489151469897479,0.0023020273074507713,0.07530772686004639,-0.36204972863197327,-0.3350721001625061,0.20189741253852844,0.01121734082698822,0.0187876895070076
1749032217.5278044,4.638918876647949,-1.2118693453124543,0.02372628847231084,-3.0848099193968714,4.788930416107178,-6.24638989219536,-0.0011945239966735244,0.001531018759123981,5.3864099754719064e-05,0.0004998287186026573,-0.00041450117714703083,0.001923001604154706,0.06803296506404877,-0.35242006182670593,-0.34430432319641113,0.2202257215976715,0.022983208298683167,0.013608448207378387
1749032217.5280087,4.638891220092773,-1.2118621331504364,0.02375346819032842,-3.084813734094137,4.788895606994629,-6.246350113545553,-0.00110080954618752,0.0014194408431649208,5.2298844821052626e-05,0.00044984370470046997,-0.00038491463055834174,0.0015628315741196275,0.08091650903224945,-0.3381746709346771,-0.3282209634780884,0.20840473473072052,0.036262452602386475,0.016012020409107208
1749032217.5297592,4.638832092285156,-1.2119076412967225,0.02376872697939092,-3.084801336328024,4.788931369781494,-6.246355094258682,-0.0009893795941025019,0.001429124386049807,5.082205098005943e-05,0.0004088435380253941,-0.0003592479624785483,0.0010705420281738043,0.0860857218503952,-0.355658620595932,-0.3455158472061157,0.20039336383342743,0.01225040853023529,0.009638108313083649
1749032217.5705118,4.638891220092773,-1.2118346256068726,0.02375346819032842,-3.084766527215475,4.7888922691345215,-6.246358618383304,-0.0008698462042957544,0.0015237590996548533,4.942644955008291e-05,0.00037470710230991244,-0.00037690234603360295,0.0008429880253970623,0.06563891470432281,-0.3474455773830414,-0.33264410495758057,0.21063271164894104,0.030355632305145264,0.011759281158447266
1749032217.5705886,4.638899326324463,-1.2118455034545441,0.023765389119283498,-3.084797521630758,4.788907527923584,-6.246343296264307,-0.0007762612658552825,0.002215232700109482,4.8105375753948465e-05,0.00034583828528411686,-0.0003670181322377175,0.0008156606345437467,0.0952417254447937,-0.35231950879096985,-0.35222041606903076,0.2083103507757187,0.042034052312374115,0.02011491358280182
1749032217.570657,4.6388983726501465,-1.2118466061404725,0.023772541676656544,-3.0847817860045375,4.78891134262085,-6.246412061397926,-0.000700684089679271,0.0021488878410309553,4.6853198000462726e-05,0.00034292691270820796,-0.00034880873863585293,0.0007237946265377104,0.09884889423847198,-0.34519505500793457,-0.34507936239242554,0.20180736482143402,0.03224663436412811,0.01189161092042923
1749032217.5707257,4.6388750076293945,-1.2118418973735352,0.023746792470113576,-3.0847817860045375,4.78892707824707,-6.246358633284466,-0.0005594301619566977,0.0023248118814080954,4.5664466597372666e-05,0.00035212712828069925,-0.00033086148323491216,0.0007260924903675914,0.09761638194322586,-0.3372141718864441,-0.35596221685409546,0.19551853835582733,0.030774876475334167,0.027629278600215912
1749032217.570793,4.6389031410217285,-1.211833582525589,0.02373391786684209,-3.0847894153990687,4.788949489593506,-6.246396709476606,-0.0005131879006512463,0.0022001909092068672,4.453458313946612e-05,0.0003358078538440168,-0.0003144034999422729,0.0006646012188866735,0.0879620909690857,-0.33723652362823486,-0.36062508821487427,0.20539329946041107,0.03420935571193695,0.009239472448825836
1749032217.5708604,4.638895034790039,-1.2118299764445801,0.023762051259176076,-3.0847817860045375,4.78891134262085,-6.2463586444603365,-0.000474518135888502,0.0021537495777010918,4.345925844972953e-05,0.00031705584842711687,-0.0002994488750118762,0.0006034504040144384,0.09563135355710983,-0.34763461351394653,-0.3503737449645996,0.20688897371292114,0.03179647773504257,0.00415271520614624
1749032217.5709276,4.638891220092773,-1.211807207470276,0.023780647908345998,-3.084766527215475,4.7888994216918945,-6.24634670490493,-0.00044119369704276323,0.002346623921766877,4.243472722009756e-05,0.00029962341068312526,-0.00028586096595972776,0.0005509846960194409,0.11074510216712952,-0.35528314113616943,-0.36154890060424805,0.2092459499835968,0.052375271916389465,0.015627674758434296
1749032217.5709949,4.638899326324463,-1.2118263703635712,0.02376872697939092,-3.0847817860045375,4.788934230804443,-6.246373955403463,-0.00041238413541577756,0.002360195154324174,4.1457289626123384e-05,0.00028388676582835615,-0.0002734465233515948,0.000558018044102937,0.09436055272817612,-0.33749938011169434,-0.3595564365386963,0.18839631974697113,0.04403211176395416,0.00587356835603714
1749032217.571061,4.63887882232666,-1.2117982667735596,0.02375346819032842,-3.084766527215475,4.788937568664551,-6.246396724377767,-0.0003870456712320447,0.002267648698762059,4.052391886943951e-05,0.0002696965530049056,-0.00026205723406746984,0.0005321258795447648,0.09516545385122299,-0.3377724885940552,-0.35095924139022827,0.20911754667758942,0.05184556543827057,0.004293747246265411
1749032217.5711286,4.638856410980225,-1.2117745739272614,0.02375346819032842,-3.0847937069334925,4.788934230804443,-6.246384162698881,-0.00036541736335493624,0.002282567787915468,3.963164272136055e-05,0.00025686106528155506,-0.00025159152573905885,0.0004979959921911359,0.1231575608253479,-0.32773900032043457,-0.3575184941291809,0.18170031905174255,0.041111186146736145,0.00282943993806839
1749032217.5711942,4.638922214508057,-1.2118092638305207,0.02373391786684209,-3.084801336328024,4.788915157318115,-6.24634670117964,-0.00011286707740509883,0.0021540706511586905,3.877784183714539e-05,0.0002451901382301003,-0.00024192602722905576,0.00046618576743640006,0.11916473507881165,-0.34582141041755676,-0.3552324175834656,0.17247946560382843,0.02634255588054657,0.0035504624247550964
1749032217.5712597,4.638942241668701,-1.2118128699115296,0.02373391786684209,-3.0847937069334925,4.788916110992432,-6.246365435664551,-0.00010408701200503856,0.0021158442832529545,3.79599878215231e-05,0.00023453045287169516,-0.00023296973085962236,0.0004378790326882154,0.13071396946907043,-0.3233635425567627,-0.33886176347732544,0.20182722806930542,0.05090489238500595,-0.0003364458680152893
1749032217.5713274,4.638910293579102,-1.2117782098105927,0.023750130330220998,-3.0847627125182093,4.788938999176025,-6.2463620270239275,-1.617356792849023e-05,0.002103762701153755,3.717597064678557e-05,0.0002247646334581077,-0.00014497667143587023,0.0004127597203478217,0.12353673577308655,-0.3105970621109009,-0.31797081232070923,0.1772133857011795,0.052330270409584045,0.019792310893535614
1749032217.571394,4.638895034790039,-1.2117901009372254,0.02375680605043584,-3.084804674188131,4.7888922691345215,-6.246373962854044,-1.577991497470066e-07,0.002289810683578253,3.642366937128827e-05,0.0001899196213344112,-9.208233677782118e-05,0.00032957547227852046,0.1404600292444229,-0.32117417454719543,-0.3339071273803711,0.16217979788780212,0.06208495795726776,0.029917016625404358
1749032217.571461,4.638895034790039,-1.2117901009372254,0.02375680605043584,-3.084804674188131,4.7888922691345215,-6.246373962854044,-1.577991497470066e-07,0.002289810683578253,3.642366937128827e-05,0.0001899196213344112,-9.208233677782118e-05,0.00032957547227852046,0.1404600292444229,-0.32117417454719543,-0.3339071273803711,0.16217979788780212,0.06208495795726776,0.029917016625404358
1749032217.5715277,4.638922214508057,-1.2118254762938996,0.023737732564107716,-3.0847817860045375,4.788923263549805,-6.246350106094972,0.0029201768338680267,0.0025176843628287315,3.500689854263328e-05,0.00016681740817148238,-7.510746945627034e-05,0.0009320006356574595,0.12334565818309784,-0.3227415382862091,-0.32132524251937866,0.16313105821609497,0.02837611734867096,0.05081915110349655
1749032217.5715945,4.638927459716797,-1.2118217808059235,0.023741070424215138,-3.084790369073385,4.788961410522461,-6.246368859206335,0.0026080049574375153,0.002345913788303733,3.433905658312142e-05,0.0001495086180511862,-7.185295544331893e-05,0.0017518628155812621,0.1499764621257782,-0.34011080861091614,-0.31296592950820923,0.15791791677474976,0.027873091399669647,0.03657034412026405
1749032217.5716615,4.638887405395508,-1.2118056875518342,0.02375346819032842,-3.0847937069334925,4.788923263549805,-6.246362019573347,0.0017796148313209414,0.0019986629486083984,3.369620390003547e-05,0.00012774099013768137,-8.877219079295173e-05,0.003870989428833127,0.14921864867210388,-0.31804779171943665,-0.319183886051178,0.17340263724327087,0.013676434755325317,0.020906221121549606
1749032217.5717275,4.63889217376709,-1.2117746037295838,0.023760620747701466,-3.0848099193968714,4.788923263549805,-6.246353540812628,0.0012734851334244013,0.001807844266295433,3.3076990803238004e-05,0.00012054614489898086,-9.711948223412037e-05,0.006372233387082815,0.16081173717975616,-0.31608521938323975,-0.32365769147872925,0.14521420001983643,0.003424614667892456,0.03660045191645622
1749032217.5717933,4.638922214508057,-1.2117662888816376,0.023741070424215138,-3.084813734094137,4.788895606994629,-6.246338177715437,0.0011248579248785973,0.0015060908626765013,3.248010398237966e-05,0.00011613967217272148,-0.00011405433906475082,0.007077839225530624,0.16862893104553223,-0.31593212485313416,-0.3234606385231018,0.14450377225875854,-0.0004285275936126709,0.04317247495055199
1749032217.571967,4.63889217376709,-1.2117937368205567,0.023710552846090138,-3.0847937069334925,4.788904190063477,-6.246326048170225,0.001119630760513246,0.0013860344188287854,3.190441566403024e-05,0.00011241933680139482,-0.00020912731997668743,0.007205576170235872,0.17322924733161926,-0.3040158748626709,-0.3113154172897339,0.1570267528295517,-0.03137578070163727,0.04437573254108429
1749032217.5736938,4.638915061950684,-1.211778239612915,0.02372628847231084,-3.084813734094137,4.78891134262085,-6.246319145207302,0.001119424239732325,0.0013835856225341558,3.134877988486551e-05,8.934905054047704e-05,-0.000342730461852625,0.007323028054088354,0.1916475147008896,-0.2979908883571625,-0.32458096742630005,0.14891330897808075,-0.04790326952934265,0.045932937413454056
1749032217.614315,4.638949871063232,-1.2117926639369507,0.023741070424215138,-3.0848099193968714,4.788907527923584,-6.246283415948049,0.0011232129763811827,0.0015021435683593154,3.0812097975285724e-05,8.068724855547771e-05,-0.0019283194560557604,0.008281964808702469,0.16981524229049683,-0.2937628924846649,-0.32856130599975586,0.16083890199661255,-0.06413176655769348,0.07565925270318985
1749032217.6143627,4.638911247253418,-1.2118046146682282,0.02375680605043584,-3.0848099193968714,4.788848876953125,-6.246298764144079,0.0031826647464185953,0.0023022356908768415,3.0293584131868556e-05,7.731492951279506e-05,-0.004653974436223507,0.010016649030148983,0.14481009542942047,-0.2964056432247162,-0.32278311252593994,0.15045540034770966,-0.07202497124671936,0.0640590563416481
1749032217.6144035,4.638962268829346,-1.2117854219726105,0.02372628847231084,-3.084813734094137,4.78890323638916,-6.246267836784021,0.0029670223593711853,0.0023141568526625633,2.979214877996128e-05,7.498015474993736e-05,-0.0058820308186113834,0.011605280451476574,0.17866365611553192,-0.28788742423057556,-0.3364337086677551,0.15404358506202698,-0.0794767439365387,0.08147072046995163
1749032217.6144435,4.6388959884643555,-1.211800978784897,0.02374440828432256,-3.0847937069334925,4.788906574249268,-6.246262468640701,0.0025022714398801327,0.002731072949245572,2.930708069470711e-05,7.29214953025803e-05,-0.006946270819753408,0.012026600539684296,0.190556138753891,-0.2789628207683563,-0.32997143268585205,0.14593751728534698,-0.0904669314622879,0.07329872995615005
1749032217.6144826,4.638923645019531,-1.2117698949626465,0.02374440828432256,-3.0848285160460414,4.788847923278809,-6.246238373463051,0.0018076034029945731,0.002552131423726678,2.883755041693803e-05,7.099718641256914e-05,-0.008455390110611916,0.012704434804618359,0.1874343305826187,-0.30064597725868225,-0.33128494024276733,0.16392186284065247,-0.09664331376552582,0.08889840543270111
1749032217.6145208,4.638938903808594,-1.2117305260947724,0.02374440828432256,-3.084813734094137,4.7888288497924805,-6.246260911469356,0.0015045725740492344,0.002443789504468441,2.8382837626850232e-05,6.917721475474536e-05,-0.009642827324569225,0.014513214118778706,0.20924878120422363,-0.32323157787323,-0.34546875953674316,0.16961631178855896,-0.09502984583377838,0.09465547651052475
1749032217.614559,4.638935089111328,-1.2117388111403962,0.023747746144429982,-3.0848285160460414,4.788850784301758,-6.246214621012108,0.0015510376542806625,0.002695093397051096,2.1060901417513378e-05,6.744860002072528e-05,-0.011773842386901379,0.01598699949681759,0.21621108055114746,-0.30945178866386414,-0.34254539012908936,0.17946790158748627,-0.10250933468341827,0.07009638845920563
1749032217.614601,4.638967037200928,-1.2117424470237275,0.02372628847231084,-3.084813734094137,4.78880500793457,-6.246206116174356,0.0018189054680988193,0.0028394374530762434,1.422046079824213e-05,6.580393528565764e-05,-0.013822900131344795,0.016417842358350754,0.20409391820430756,-0.28946030139923096,-0.35702794790267944,0.1667352318763733,-0.10445095598697662,0.10082268714904785
1749032217.6146395,4.638935089111328,-1.2117186051658173,0.023710552846090138,-3.084797521630758,4.788808822631836,-6.246178638433115,0.0024371182080358267,0.0029164478182792664,1.3580631275544874e-05,6.42384693492204e-05,-0.01519249938428402,0.01725475676357746,0.22260497510433197,-0.3080887794494629,-0.3600005507469177,0.1765119433403015,-0.1053791493177414,0.10571759194135666
1749032217.614677,4.638920307159424,-1.2117652159980317,0.023722473775045216,-3.084806104699606,4.7887959480285645,-6.246147666369573,0.0026225848123431206,0.0034333502408117056,1.3351387678994797e-05,6.274543557083234e-05,-0.01662011630833149,0.018324313685297966,0.213087260723114,-0.30299440026283264,-0.37155628204345703,0.19265234470367432,-0.14273473620414734,0.08406083285808563
1749032217.6147146,4.638978958129883,-1.2117377680591126,0.023760620747701466,-3.0847746334471644,4.788763999938965,-6.246111650262968,0.0028913712594658136,0.003761021886020899,1.3154431144357659e-05,6.131979171186686e-05,-0.019146684557199478,0.017451530322432518,0.19230541586875916,-0.301857590675354,-0.36816346645355225,0.17773959040641785,-0.11781592667102814,0.09454470127820969
1749032217.6147518,4.638944149017334,-1.211725966339447,0.023741070424215138,-3.0848285160460414,4.788736820220947,-6.246055327598945,0.0025134084280580282,0.003891407512128353,1.2964821507921442e-05,7.633225322933868e-05,-0.019966930150985718,0.01624957099556923,0.2150009721517563,-0.30038848519325256,-0.3863767981529236,0.19492356479167938,-0.11473649740219116,0.09608980268239975
1749032217.614792,4.638963222503662,-1.211706058388092,0.02372628847231084,-3.084813734094137,4.7887163162231445,-6.2460552530931395,0.0022895303554832935,0.0033816599752753973,8.465102041554928e-07,7.756896229693666e-05,-0.019510814920067787,0.016309162601828575,0.21796636283397675,-0.3133578300476074,-0.3932186961174011,0.17352671921253204,-0.13641862571239471,0.08834226429462433
1749032217.6148307,4.638956069946289,-1.2117296022227784,0.023722473775045216,-3.08482088665151,4.788743495941162,-6.246034302060501,0.0020060150418430567,0.0032430822029709816,5.5271069498985526e-08,7.64310680096969e-05,-0.01909804530441761,0.016558291390538216,0.2278430461883545,-0.3096325397491455,-0.4056161046028137,0.2032209038734436,-0.12293080985546112,0.11865726113319397
1749032217.614868,4.6389594078063965,-1.2116967898658295,0.02374440828432256,-3.084813734094137,4.788667678833008,-6.245960839335815,0.0019410820677876472,0.003285171464085579,3.6088056987182426e-09,7.499755156459287e-05,-0.01854807510972023,0.01618296094238758,0.2419607937335968,-0.3059372305870056,-0.40443289279937744,0.20599786937236786,-0.11338159441947937,0.11832720041275024
1749032217.6149056,4.638963222503662,-1.2116942566684266,0.023741070424215138,-3.084801336328024,4.788609027862549,-6.245967708771126,0.0021615836303681135,0.003517927136272192,2.356292383431935e-10,3.096619911957532e-05,-0.017425499856472015,0.016707899048924446,0.21299400925636292,-0.3077715039253235,-0.41817641258239746,0.235235795378685,-0.1426028609275818,0.12406681478023529
1749032217.6149423,4.638963222503662,-1.2116549176028748,0.02375680605043584,-3.0847937069334925,4.7885613441467285,-6.245938509945766,0.0028839237056672573,0.003725422779098153,-0.000797738553956151,3.490912786219269e-05,-0.018370117992162704,0.017206713557243347,0.226389080286026,-0.3047223687171936,-0.4480106830596924,0.22028043866157532,-0.14527678489685059,0.11941677331924438
1749032217.614979,4.638971328735352,-1.2116585236838837,0.023729626332418263,-3.0847817860045375,4.78856897354126,-6.245910674576656,0.0028216338250786066,0.0038181357085704803,-0.0017510532634332776,4.715921386377886e-05,-0.019029296934604645,0.016839250922203064,0.21365642547607422,-0.3204386830329895,-0.4375803470611572,0.23749618232250214,-0.15647391974925995,0.12261730432510376
1749032217.615016,4.639009952545166,-1.2116693419269104,0.023732964192525685,-3.084797521630758,4.78849458694458,-6.245866243039266,0.002856756094843149,0.0038845010567456484,-0.0026622884906828403,6.951523391762748e-05,-0.019133836030960083,0.016967259347438812,0.25106099247932434,-0.3178684413433075,-0.4236299991607666,0.24034900963306427,-0.14971254765987396,0.12925328314304352
1749032217.6150537,4.638971328735352,-1.2116465729526062,0.02371389070619756,-3.0847937069334925,4.788454055786133,-6.245873119925157,0.002505423966795206,0.0038916831836104393,-0.002773539163172245,0.0009190667187795043,-0.02017376199364662,0.019242024049162865,0.24809938669204712,-0.3259809613227844,-0.4451613426208496,0.2536085546016693,-0.17157936096191406,0.13753226399421692
1749032217.6157327,4.6390533447265625,-1.2116148632815857,0.02371389070619756,-3.084804674188131,4.788444995880127,-6.245794289057152,0.0025368179194629192,0.003978823311626911,-0.0026721754111349583,0.002319300314411521,-0.02099642902612686,0.02040867693722248,0.2807580530643463,-0.32334545254707336,-0.43439269065856934,0.25657859444618225,-0.167685404419899,0.15253481268882751
1749032217.61771,4.638987064361572,-1.2116346818259736,0.023717228566304982,-3.084773679772848,4.788340091705322,-6.245782073830263,0.0026921979151666164,0.0041402531787753105,-0.002992394845932722,0.0029291987884789705,-0.021384183317422867,0.02170044742524624,0.2625107765197754,-0.33671873807907104,-0.46355193853378296,0.27760934829711914,-0.19833838939666748,0.14987388253211975
1749032217.6583052,4.6390061378479,-1.2116538447192688,0.023717228566304982,-3.084761758843893,4.788365840911865,-6.245749775563375,0.0033440631814301014,0.0041139679960906506,-0.0043848492205142975,0.0033929317723959684,-0.023506712168455124,0.023576518520712852,0.27253955602645874,-0.30800408124923706,-0.4536181688308716,0.2847399413585663,-0.1852898895740509,0.1369868814945221
1749032217.6583517,4.638998985290527,-1.211665765648224,0.02368623415102178,-3.084746023217672,4.788307189941406,-6.245694704596893,0.00385138182900846,0.004445634316653013,-0.005559047684073448,0.003950353711843491,-0.024273525923490524,0.02437397465109825,0.26547306776046753,-0.326846182346344,-0.43918511271476746,0.27892163395881653,-0.19777962565422058,0.15194162726402283
1749032217.6583917,4.639031410217285,-1.2116367679885407,0.023705307637349904,-3.084749837914938,4.788223743438721,-6.245638113711969,0.003954077139496803,0.004134361632168293,-0.005720064043998718,0.004717916715890169,-0.026942206546664238,0.02676517143845558,0.2803131639957428,-0.3069379925727844,-0.44363516569137573,0.2981754541397095,-0.1975977122783661,0.17147108912467957
1749032217.6584306,4.639011383056641,-1.2115667027286072,0.023677651082174123,-3.084722181359762,4.7882184982299805,-6.245589982961313,0.0044546304270625114,0.0044861542992293835,-0.005916346330195665,0.00627041794359684,-0.028871776536107063,0.02677088975906372,0.2658308744430542,-0.3428918719291687,-0.4517786502838135,0.3119840919971466,-0.18605279922485352,0.1641024947166443
1749032217.6584682,4.639019012451172,-1.211590127354004,0.02367288271059209,-3.0847259960570277,4.788124084472656,-6.245526712630884,0.004682446829974651,0.004719753749668598,-0.006527546793222427,0.007362664211541414,-0.031034257262945175,0.028592318296432495,0.26821765303611755,-0.3280245065689087,-0.442739874124527,0.28757163882255554,-0.19813257455825806,0.17480824887752533
1749032217.6585069,4.639051914215088,-1.2115776997855683,0.02364999452699834,-3.08471741298818,4.788056373596191,-6.2454819718943995,0.0048027560114860535,0.004775797016918659,-0.007212733384221792,0.007179527543485165,-0.031965889036655426,0.029305828735232353,0.27463316917419434,-0.34955930709838867,-0.4580085277557373,0.30516910552978516,-0.20640040934085846,0.19506388902664185
1749032217.6585453,4.639026641845703,-1.2115511757186432,0.023653809224263966,-3.0847093067564906,4.788039684295654,-6.245430629943506,0.0046173883602023125,0.003992065321654081,-0.0076673091389238834,0.007964342832565308,-0.03390442207455635,0.033011700958013535,0.2757665514945984,-0.3436179757118225,-0.4463474452495575,0.29688534140586853,-0.21202144026756287,0.19370973110198975
1749032217.6585844,4.639059066772461,-1.211581365471222,0.023641888295308888,-3.0846783123412074,4.7879180908203125,-6.245354805384771,0.005740784108638763,0.002945934422314167,-0.007730131037533283,0.009167217649519444,-0.03479601442813873,0.033673327416181564,0.2828196585178375,-0.32548093795776367,-0.4578055441379547,0.31684941053390503,-0.21598955988883972,0.18892927467823029
1749032217.658623,4.639036178588867,-1.2115813356688996,0.023633305226461232,-3.084646841088766,4.787854194641113,-6.245283186678783,0.0060897087678313255,0.002474975073710084,-0.0077578229829669,0.009660995565354824,-0.03619685396552086,0.03608622029423714,0.25961029529571533,-0.32945579290390015,-0.45566168427467346,0.30611875653266907,-0.21634842455387115,0.19450896978378296
1749032217.6586607,4.639113426208496,-1.2115584474853058,0.023621384297506154,-3.0846382580199183,4.787829399108887,-6.245219417159454,0.0063097537495195866,0.002312219003215432,-0.007838824763894081,0.00905490480363369,-0.03821728378534317,0.03822828456759453,0.2779918313026428,-0.30288052558898926,-0.45309990644454956,0.32150542736053467,-0.2177012860774994,0.18473634123802185
1749032217.658698,4.639051914215088,-1.2115849715522309,0.023593727742330373,-3.0845991573729457,4.7877373695373535,-6.245123286043302,0.006125504616647959,0.0027706658001989126,-0.007760480511933565,0.009754693135619164,-0.038975249975919724,0.038939300924539566,0.2687627673149109,-0.32739418745040894,-0.45260390639305115,0.30131909251213074,-0.24301756918430328,0.18642447888851166
1749032217.6587353,4.6390790939331055,-1.2115502518466492,0.023569885884420216,-3.0846063099303187,4.787712574005127,-6.245066907499925,0.005802054423838854,0.0030101637821644545,-0.007653154898434877,0.010710383765399456,-0.04009193927049637,0.040814582258462906,0.26469528675079346,-0.3372640013694763,-0.46258366107940674,0.31705334782600403,-0.24827876687049866,0.20011557638645172
1749032217.6587725,4.639106750488281,-1.2115419668010254,0.02358562151064092,-3.0845781765379847,4.787593841552734,-6.244991258029835,0.006539675872772932,0.0031237013172358274,-0.007937050424516201,0.01038237102329731,-0.0417608805000782,0.04319233447313309,0.2501366138458252,-0.3126187324523926,-0.4568327069282532,0.32063764333724976,-0.25442519783973694,0.19581177830696106
1749032217.6588132,4.639123916625977,-1.2115140420249482,0.02354604402651006,-3.0845543346800746,4.7874603271484375,-6.244895134364263,0.007205314002931118,0.003087868681177497,-0.00826835073530674,0.011413278989493847,-0.044019896537065506,0.04482395201921463,0.2928970456123352,-0.33189958333969116,-0.4591286778450012,0.32083815336227417,-0.254280686378479,0.18786002695560455
1749032217.6588535,4.639183044433594,-1.2115419966033478,0.023525540028707326,-3.08453430751943,4.78741455078125,-6.244836639855997,0.006949939299374819,0.003141455352306366,-0.00824025459587574,0.011676501482725143,-0.04522903263568878,0.04577106609940529,0.25572776794433594,-0.3259243369102478,-0.4777706265449524,0.32250720262527466,-0.24059787392616272,0.17942962050437927
1749032217.6588917,4.639151096343994,-1.211533175115921,0.023490730916158498,-3.084503313104147,4.787288188934326,-6.244727026914255,0.005858562886714935,0.003115275176241994,-0.0083433473482728,0.01145666092634201,-0.046456411480903625,0.04622156172990799,0.26248759031295776,-0.31894487142562866,-0.4832407236099243,0.32017502188682556,-0.2662802040576935,0.20577464997768402
1749032217.658929,4.639166831970215,-1.2115021508983155,0.023497883473531544,-3.0844794712462367,4.787201404571533,-6.2446190307485026,0.005748068448156118,0.0029983087442815304,-0.009104005992412567,0.011392991989850998,-0.047367021441459656,0.047770678997039795,0.2944187819957733,-0.3425986170768738,-0.4600074291229248,0.34337183833122253,-0.2727575898170471,0.1781441569328308
1749032217.658967,4.639214038848877,-1.211502121095993,0.02349263826479131,-3.0844866238036097,4.787105560302734,-6.244519572948114,0.006702060345560312,0.0028356662951409817,-0.009298312477767467,0.010984132997691631,-0.048408232629299164,0.048183951526880264,0.2551933825016022,-0.347842812538147,-0.454257607460022,0.3255541920661926,-0.28645211458206177,0.1877567172050476
1749032217.6590044,4.639159679412842,-1.2115140122226258,0.023465458546773732,-3.084458967248434,4.786994457244873,-6.2444235051618975,0.006996917072683573,0.00277087464928627,-0.009302728809416294,0.010954758152365685,-0.049629710614681244,0.04923481494188309,0.2848411500453949,-0.35752207040786743,-0.45091453194618225,0.3282681703567505,-0.28651461005210876,0.19762590527534485
1749032217.6590416,4.639203071594238,-1.2115176779082795,0.02344972292055303,-3.0844036541380824,4.786919593811035,-6.244318656866447,0.0064928061328828335,0.002694816095754504,-0.009535402059555054,0.010854730382561684,-0.049891721457242966,0.051510363817214966,0.285717636346817,-0.35020312666893005,-0.4572071135044098,0.3303713798522949,-0.3183012902736664,0.1905606985092163
1749032217.6596353,4.639242649078369,-1.2114626628211518,0.023425881062642873,-3.0844108066954554,4.78682279586792,-6.244226012622015,0.0062456149607896805,0.0028148635756224394,-0.009552166797220707,0.010181107558310032,-0.05139205604791641,0.05326789617538452,0.2975069284439087,-0.3285008668899536,-0.4624518156051636,0.34745556116104126,-0.3230264484882355,0.16356146335601807
1749032217.6616776,4.639242649078369,-1.2114626628211518,0.023425881062642873,-3.0844108066954554,4.78682279586792,-6.244226012622015,0.0062456149607896805,0.0028148635756224394,-0.009552166797220707,0.010181107558310032,-0.05139205604791641,0.05326789617538452,0.2975069284439087,-0.3285008668899536,-0.4624518156051636,0.34745556116104126,-0.3230264484882355,0.16356146335601807
1749032217.702284,4.639242649078369,-1.2114471954158326,0.023432556782857716,-3.084367891351217,4.786743640899658,-6.244075235222475,0.0070307874120771885,0.0026027977000921965,-0.008905263617634773,0.01032846886664629,-0.053819335997104645,0.05182451754808426,0.3034578859806061,-0.3338400423526764,-0.45471447706222534,0.34667885303497314,-0.3222619295120239,0.17575916647911072
1749032217.7023308,4.6392741203308105,-1.2115010184100647,0.023396793995992482,-3.0843669376769007,4.786504745483398,-6.243894923721449,0.007248015142977238,0.002610913710668683,-0.010396848432719707,0.010518142953515053,-0.056979287415742874,0.05047646909952164,0.296516478061676,-0.3318790793418884,-0.46253469586372375,0.34420478343963623,-0.3324302136898041,0.18986254930496216
1749032217.7023711,4.639270305633545,-1.2114544373801728,0.023354355488912404,-3.0843383274474085,4.786392688751221,-6.243771221731798,0.0074060894548892975,0.0024766046553850174,-0.010119677521288395,0.010500907897949219,-0.059040214866399765,0.05337502807378769,0.2947404682636261,-0.33664411306381226,-0.4710407555103302,0.3645414710044861,-0.3409269452095032,0.19229499995708466
1749032217.702411,4.639313220977783,-1.2114627820304413,0.023322884236470998,-3.0843311748900355,4.786277770996094,-6.243682168667213,0.008167707361280918,0.0029525149147957563,-0.010617702268064022,0.01089766900986433,-0.06332939118146896,0.05416393280029297,0.3096288740634918,-0.3452303111553192,-0.4710708558559418,0.36510229110717773,-0.3468325138092041,0.21226799488067627
1749032217.7024503,4.639309406280518,-1.2114418608001252,0.02331430116762334,-3.0843035183348597,4.786110877990723,-6.243543062602178,0.00810188427567482,0.003537667216733098,-0.011086438782513142,0.011284328997135162,-0.0676921159029007,0.05716341733932495,0.3010287582874298,-0.3344646394252777,-0.4734264314174652,0.3667594790458679,-0.32437777519226074,0.17411091923713684
1749032217.7024918,4.639333724975586,-1.2114418608001252,0.02330953279604131,-3.0842672787108363,4.785948276519775,-6.243462376539604,0.008548840880393982,0.003697327570989728,-0.010818755254149437,0.011900443583726883,-0.0700477808713913,0.05954774469137192,0.29111146926879883,-0.3601718246936798,-0.4709138572216034,0.36152201890945435,-0.2980775833129883,0.18002822995185852
1749032217.70253,4.63932991027832,-1.211433694963791,0.023288551961080373,-3.084231515923971,4.785844326019287,-6.243299540375368,0.008390464819967747,0.0032924211118370295,-0.011421164497733116,0.012564566917717457,-0.06983789056539536,0.060989417135715485,0.28232184052467346,-0.3235982060432434,-0.4731557071208954,0.36661070585250854,-0.30147841572761536,0.20307466387748718
1749032217.7025676,4.639400482177734,-1.211414561872818,0.023258034382955373,-3.0842391453185023,4.785716533660889,-6.24322916964163,0.00888816174119711,0.0029989653266966343,-0.01159539632499218,0.013125422410666943,-0.07238437235355377,0.0610395185649395,0.3047774136066437,-0.3270412087440491,-0.48372989892959595,0.3681298494338989,-0.3133053183555603,0.18198518455028534
1749032217.7026048,4.639362335205078,-1.2114492517760773,0.023221794758931935,-3.084180017510885,4.785534381866455,-6.243112441395418,0.00930622685700655,0.0026912083849310875,-0.012007052078843117,0.013455678708851337,-0.07492168992757797,0.061008259654045105,0.2876696288585663,-0.3323214650154114,-0.46225160360336304,0.37787431478500366,-0.2926947772502899,0.18671445548534393
1749032217.7026417,4.639363765716553,-1.2114690107158204,0.023182217274801076,-3.0841719112791957,4.785394191741943,-6.242949269955055,0.008695939555764198,0.003013887209817767,-0.012958320789039135,0.013835188001394272,-0.07666721940040588,0.06338093429803848,0.28668320178985596,-0.33222052454948425,-0.4559258222579956,0.38710054755210876,-0.2965805232524872,0.2060137689113617
1749032217.7026794,4.639406681060791,-1.2114337247661133,0.023174111043111623,-3.084132333795065,4.785226821899414,-6.242798354719774,0.008995642885565758,0.0030637660529464483,-0.012333347462117672,0.014219125732779503,-0.07942429184913635,0.06631960719823837,0.2840760350227356,-0.31652048230171204,-0.4559842348098755,0.36761030554771423,-0.25887832045555115,0.2215484082698822
1749032217.7027166,4.639445781707764,-1.2114181977561493,0.023122612630025685,-3.0841433010497035,4.785064697265625,-6.242702242230074,0.009330463595688343,0.0029891333542764187,-0.012832014821469784,0.014739307574927807,-0.07770984619855881,0.06887685507535934,0.3037241995334625,-0.33027639985084534,-0.4525992274284363,0.39311257004737854,-0.29666411876678467,0.20235976576805115
1749032217.7027535,4.639402866363525,-1.2113716167262574,0.02311736742128545,-3.0840684376158656,4.784904479980469,-6.242515441273348,0.00957691390067339,0.0028959999326616526,-0.01204653736203909,0.01563391089439392,-0.07612192630767822,0.0702776163816452,0.3118515908718109,-0.319697767496109,-0.4660320580005646,0.38222169876098633,-0.2950035631656647,0.19161105155944824
1749032217.7027895,4.639439105987549,-1.2114254099181672,0.02310496965517217,-3.0840641460814417,4.784765243530273,-6.242389988397257,0.009901457466185093,0.0030001902487128973,-0.012379678897559643,0.01616506651043892,-0.07754229009151459,0.07145612686872482,0.29285579919815063,-0.3395267128944397,-0.45249858498573303,0.40011292695999146,-0.2889111042022705,0.2104460597038269
1749032217.7028263,4.639517307281494,-1.211397961979248,0.023046795521871388,-3.084047933618063,4.784629821777344,-6.242261335496799,0.010723387822508812,0.0034267182927578688,-0.012489368207752705,0.01667557656764984,-0.07783929258584976,0.07421482354402542,0.26856890320777893,-0.33175694942474365,-0.46221157908439636,0.3890175223350525,-0.29645904898643494,0.20106258988380432
1749032217.7028627,4.6395063400268555,-1.211397961979248,0.0230487028705042,-3.083973070184225,4.784416198730469,-6.2420744637595575,0.010194984264671803,0.003531301161274314,-0.011829204857349396,0.01682872138917446,-0.08007635921239853,0.0754363015294075,0.282913476228714,-0.33777621388435364,-0.48056772351264954,0.4003340005874634,-0.3014228940010071,0.18650446832180023
1749032217.7029,4.639495372772217,-1.211417095070221,0.023006264363424123,-3.083949228326315,4.784292221069336,-6.241899136696951,0.010126913897693157,0.0030878977850079536,-0.013558208011090755,0.016914986073970795,-0.08051904290914536,0.07587377727031708,0.292410284280777,-0.31744471192359924,-0.4341931641101837,0.3932744860649109,-0.32482045888900757,0.1847546547651291
1749032217.702937,4.6395263671875,-1.211413488989212,0.02299386659731084,-3.0839325390257777,4.784090042114258,-6.241804942731754,0.011009478010237217,0.0026638400740921497,-0.012770140543580055,0.01757602021098137,-0.07974456250667572,0.0764874592423439,0.27219536900520325,-0.29293712973594666,-0.4530978500843048,0.39948928356170654,-0.3146258592605591,0.19393154978752136
1749032217.7029736,4.639542579650879,-1.2114243370345612,0.022929970418111623,-3.0838810406126917,4.783937931060791,-6.241624698285953,0.0099161546677351,0.002505537122488022,-0.012998608872294426,0.01825452595949173,-0.07958094775676727,0.07788831740617752,0.30570805072784424,-0.32899072766304016,-0.4549148380756378,0.4038369655609131,-0.3253061771392822,0.16788333654403687
1749032217.7030113,4.639558792114258,-1.211354987030365,0.022929970418111623,-3.0838643513121546,4.783731937408447,-6.241456743572847,0.010114556178450584,0.0028045903891324997,-0.012523312121629715,0.01823108084499836,-0.08053870499134064,0.0793050229549408,0.3183523416519165,-0.32356563210487366,-0.4342672526836395,0.413499116897583,-0.32857781648635864,0.1793803870677948
1749032217.7036557,4.6395745277404785,-1.211370514040329,0.022898022328512013,-3.083809038201803,4.7835917472839355,-6.24135031202902,0.010251994244754314,0.002955361269414425,-0.012966401875019073,0.018278852105140686,-0.08166254311800003,0.07888715714216232,0.2875896394252777,-0.33018580079078674,-0.45016440749168396,0.41807329654693604,-0.3472781777381897,0.19852469861507416
1749032217.705646,4.639633655548096,-1.2113659542850037,0.022889439259664357,-3.0837813816466273,4.783412456512451,-6.241125490759508,0.010360109619796276,0.0029649436473846436,-0.012863232754170895,0.018628740683197975,-0.08319402486085892,0.07905732840299606,0.30863162875175476,-0.3220163583755493,-0.4338189661502838,0.4183771014213562,-0.3572255074977875,0.17890751361846924
1749032217.746325,4.63965368270874,-1.211354987030365,0.022849861775533498,-3.083714624444479,4.783265113830566,-6.240972519163982,0.01086385641247034,0.0026797063183039427,-0.012813582085072994,0.018986739218235016,-0.08641801029443741,0.0794939249753952,0.2762690782546997,-0.3047092854976654,-0.4454103708267212,0.43324118852615356,-0.3158990740776062,0.20010751485824585
1749032217.746374,4.63967752456665,-1.2114088100245972,0.022832695637838185,-3.0836979351439417,4.78310489654541,-6.240797806774275,0.01075899600982666,0.002583898603916168,-0.01305461023002863,0.019158298149704933,-0.0880126953125,0.08020055294036865,0.27890634536743164,-0.29681697487831116,-0.4385877251625061,0.4098484218120575,-0.31781503558158875,0.22392043471336365
1749032217.7464175,4.6396942138671875,-1.2113424402526398,0.02278596559633428,-3.083665987054342,4.782914161682129,-6.240629449729816,0.011021953076124191,0.002779169473797083,-0.012724392116069794,0.019992323592305183,-0.08544309437274933,0.08125753700733185,0.28949445486068726,-0.2867726981639862,-0.45574450492858887,0.4372911751270294,-0.3740518093109131,0.21581272780895233
1749032217.7464569,4.6396942138671875,-1.2113342446139832,0.02276927629579717,-3.0836178265013636,4.78268575668335,-6.2404493803726595,0.01162230595946312,0.0033422328997403383,-0.013206053525209427,0.02073841728270054,-0.08974079042673111,0.08323419839143753,0.292422354221344,-0.32106655836105347,-0.4353143572807312,0.42798736691474915,-0.3708682656288147,0.18704363703727722
1749032217.7464974,4.639690399169922,-1.2113498014262696,0.022733513508931935,-3.0835820637144984,4.7824788093566895,-6.240308668707506,0.011044129729270935,0.0037628612481057644,-0.013068553060293198,0.02089237980544567,-0.09312658756971359,0.08350759744644165,0.28869760036468506,-0.28796228766441345,-0.4550819993019104,0.43817389011383057,-0.3244621157646179,0.1951965093612671
1749032217.74656,4.6397385597229,-1.2113305193236847,0.022709194813863576,-3.083534379998678,4.782299041748047,-6.240137148891584,0.010214128531515598,0.0033174387644976377,-0.013757028616964817,0.021588977426290512,-0.09926735609769821,0.08452443778514862,0.2968345582485199,-0.30526646971702576,-0.4304448962211609,0.4380325675010681,-0.32922694087028503,0.2191101610660553
1749032217.746609,4.63978910446167,-1.211373196249344,0.022666756306783498,-3.0835172138609828,4.78212308883667,-6.239968754594223,0.011629978194832802,0.003112431615591049,-0.013507935218513012,0.0215449221432209,-0.09810307621955872,0.08587323874235153,0.3032744824886322,-0.29446202516555786,-0.4478108882904053,0.4375499188899994,-0.3492409288883209,0.227277472615242
1749032217.746648,4.6397905349731445,-1.2113378804973145,0.02265817323793584,-3.0834504566588343,4.78189754486084,-6.239800978695051,0.011803903616964817,0.0029134477954357862,-0.014289206825196743,0.02330520562827587,-0.10017141699790955,0.08947718143463135,0.2908543348312378,-0.30370309948921204,-0.431446373462677,0.42228204011917114,-0.34158575534820557,0.23297996819019318
1749032217.7466855,4.639778137207031,-1.2113068264773865,0.022630993519918263,-3.0833989582457484,4.781744480133057,-6.239624168966905,0.011644164100289345,0.0028423708863556385,-0.013672950677573681,0.02382410690188408,-0.10248789191246033,0.09136747568845749,0.2692454755306244,-0.2927050292491913,-0.44165438413619995,0.43624794483184814,-0.33142203092575073,0.21862004697322845
1749032217.7467227,4.639880180358887,-1.2113140386394043,0.02257091203798467,-3.08335079769277,4.7815260887146,-6.2394282596754,0.011801138520240784,0.003394305007532239,-0.014195123687386513,0.02389703318476677,-0.1047029197216034,0.0928245410323143,0.2650770843029022,-0.2891633212566376,-0.43797191977500916,0.4455459713935852,-0.32780373096466064,0.2396887242794037
1749032217.7467594,4.639822483062744,-1.2113104325583954,0.022554699574605763,-3.0832911930479945,4.7812886238098145,-6.239232901726858,0.011417370289564133,0.0031863513868302107,-0.013946287333965302,0.024132875725626945,-0.1061285138130188,0.0945105254650116,0.2611459791660309,-0.2901366949081421,-0.43926897644996643,0.4332357347011566,-0.3338196277618408,0.2326911836862564
1749032217.7467968,4.639881610870361,-1.2113104325583954,0.022568527852193654,-3.083243032495016,4.781073570251465,-6.239040695373909,0.011336162686347961,0.003424110123887658,-0.014610874466598034,0.024095233529806137,-0.10669027268886566,0.09868276119232178,0.2682481110095978,-0.2960366904735565,-0.43772798776626587,0.4276517927646637,-0.34033849835395813,0.2301327884197235
1749032217.7468333,4.639843940734863,-1.2113642555526276,0.02251750627626592,-3.083214422265524,4.780873775482178,-6.23882427463402,0.010537178255617619,0.004225289914757013,-0.014110038988292217,0.024959111586213112,-0.1083374097943306,0.10306721180677414,0.28415584564208984,-0.2928655445575714,-0.4549369812011719,0.42193689942359924,-0.34222620725631714,0.21555742621421814
1749032217.7468698,4.639918804168701,-1.2113140386394043,0.02249032655824834,-3.0831510029234828,4.780657768249512,-6.238627281283037,0.010989196598529816,0.0042243460193276405,-0.015072560869157314,0.02545800246298313,-0.10993584245443344,0.103050597012043,0.30180591344833374,-0.3113512098789215,-0.4483620822429657,0.4245370924472809,-0.3494153320789337,0.2186807096004486
1749032217.746906,4.639925956726074,-1.2112985116294404,0.022469345723287404,-3.08310665706777,4.7804388999938965,-6.238373052571909,0.010720607824623585,0.004510166123509407,-0.014659295789897442,0.025979910045862198,-0.11047584563493729,0.10472755879163742,0.2965371608734131,-0.3190649449825287,-0.43899187445640564,0.42479413747787476,-0.354877233505249,0.21444734930992126
1749032217.7469466,4.6400017738342285,-1.211262122993805,0.022417847310201466,-3.0830589733519496,4.7802324295043945,-6.238191448395149,0.011126015335321426,0.0045451573096215725,-0.015563122928142548,0.02609816938638687,-0.1113157868385315,0.10742086172103882,0.28827348351478577,-0.30010727047920227,-0.4431841969490051,0.41759997606277466,-0.3453806936740875,0.2139773666858673
1749032217.7469842,4.6400017738342285,-1.211278275852539,0.022390667592183888,-3.0829955540099085,4.779974460601807,-6.237937379871504,0.011212915182113647,0.004375292453914881,-0.015286627225577831,0.025832444429397583,-0.11259407550096512,0.10897492617368698,0.26262035965919495,-0.3056384027004242,-0.4447282552719116,0.43964987993240356,-0.3728199601173401,0.20957407355308533
1749032217.7470212,4.640029430389404,-1.2112539571574708,0.02232677141298467,-3.0829669437804164,4.779774188995361,-6.237755749617712,0.011071776039898396,0.004373777192085981,-0.016018938273191452,0.02583574503660202,-0.11495649069547653,0.1096552386879921,0.23910900950431824,-0.2854611575603485,-0.44714874029159546,0.4318593740463257,-0.3861570358276367,0.20842541754245758
1749032217.7470644,4.640034198760986,-1.2112856370261689,0.022333923970357716,-3.082918783227438,4.7795090675354,-6.237511631344454,0.011146179400384426,0.004764546174556017,-0.01604003831744194,0.025686468929052353,-0.11781611293554306,0.11034936457872391,0.27624836564064026,-0.3090614378452301,-0.4525216817855835,0.4379441440105438,-0.39000481367111206,0.20220831036567688
1749032217.7471015,4.640082359313965,-1.2112694543651124,0.022313419972554982,-3.082820554772848,4.779316425323486,-6.237287208681003,0.010925659909844398,0.004801614675670862,-0.016858108341693878,0.026893164962530136,-0.11920011043548584,0.11056544631719589,0.2845902740955353,-0.2875042259693146,-0.4426490366458893,0.42370015382766724,-0.39633822441101074,0.22103223204612732
1749032217.7477343,4.640078544616699,-1.2112456423095246,0.022292915974752248,-3.082792421380514,4.779019355773926,-6.237062298004524,0.01060801837593317,0.005070437677204609,-0.01719164103269577,0.026765355840325356,-0.1247958168387413,0.11446724086999893,0.2995065450668335,-0.29768499732017517,-0.4432606101036072,0.42606914043426514,-0.3595147132873535,0.2078239768743515
1749032217.7496817,4.640078544616699,-1.2112300854972382,0.022234265004293263,-3.0827323398985804,4.778783798217773,-6.2368425394045275,0.010965943336486816,0.005419245921075344,-0.01660045050084591,0.027050379663705826,-0.12563835084438324,0.11269169300794601,0.28045588731765747,-0.29831498861312866,-0.45858991146087646,0.43952926993370056,-0.36307111382484436,0.22240477800369263
1749032217.790504,4.6400861740112305,-1.2112218004516144,0.022214237843648732,-3.0826808414854945,4.778505802154541,-6.236594125871555,0.01130972895771265,0.005522328428924084,-0.01730237528681755,0.027009930461645126,-0.12767963111400604,0.11278636008501053,0.29666298627853394,-0.29517248272895813,-0.4525475800037384,0.44163233041763306,-0.36647677421569824,0.24526347219944
1749032217.7905805,4.64015007019043,-1.2111679774573822,0.02216226259340459,-3.0826169453062953,4.778196334838867,-6.236389909182684,0.012083830311894417,0.005146707408130169,-0.017552928999066353,0.028101032599806786,-0.13403204083442688,0.11510668694972992,0.2806851267814636,-0.28582999110221863,-0.43983498215675354,0.44275394082069397,-0.35038962960243225,0.25179246068000793
1749032217.7906508,4.640162467956543,-1.2112254065326233,0.02215749422182256,-3.0825888119139613,4.777952671051025,-6.23609941104521,0.011860735714435577,0.005511456169188023,-0.018033646047115326,0.028881408274173737,-0.13497544825077057,0.11893118172883987,0.2876714766025543,-0.2850174903869629,-0.4502399265766144,0.4341970384120941,-0.3249025046825409,0.23337070643901825
1749032217.7907186,4.640236854553223,-1.2111715835383912,0.022083584462301076,-3.08250155071401,4.7776780128479,-6.235917780791418,0.01188133005052805,0.005312411580234766,-0.018110763281583786,0.030427832156419754,-0.1343289166688919,0.1186574399471283,0.27912285923957825,-0.2973712384700775,-0.4409489333629608,0.41050297021865845,-0.32735878229141235,0.23480507731437683
1749032217.790786,4.6401824951171875,-1.211193398838379,0.022085491810933888,-3.0824414692320765,4.777403354644775,-6.235657166932718,0.012353558093309402,0.006414468865841627,-0.017684968188405037,0.030062003061175346,-0.13586917519569397,0.12169754505157471,0.2711542248725891,-0.29969707131385803,-0.4578801095485687,0.42340007424354553,-0.3493981957435608,0.2476763129234314
1749032217.790855,4.640233993530273,-1.211158112888672,0.022014919911519826,-3.082381387750143,4.777117729187012,-6.235372189675466,0.012192647904157639,0.00670470530167222,-0.01859077624976635,0.03134368732571602,-0.1381424218416214,0.12592469155788422,0.2978776693344116,-0.3105243444442749,-0.4587823748588562,0.4296600818634033,-0.32803237438201904,0.23336933553218842
1749032217.790923,4.64027738571167,-1.2111114722541352,0.021982494984762013,-3.0823217831053675,4.7768731117248535,-6.23514220142831,0.012971700169146061,0.006408084183931351,-0.019001467153429985,0.030884992331266403,-0.13825911283493042,0.12937314808368683,0.27045875787734985,-0.33147624135017395,-0.45577967166900635,0.42152583599090576,-0.3345324993133545,0.2139861285686493
1749032217.7909896,4.640230178833008,-1.2111498278430481,0.021954838429586232,-3.082273622552389,4.776607036590576,-6.234905526285068,0.012671064585447311,0.00599659513682127,-0.018792107701301575,0.02980164811015129,-0.13569484651088715,0.1321241706609726,0.2895328402519226,-0.2942856550216675,-0.4509733319282532,0.4340868294239044,-0.3516700565814972,0.215012788772583
1749032217.7910564,4.64030122756958,-1.2110840541175385,0.02190715471376592,-3.0822178326048792,4.776320457458496,-6.234598759804861,0.012917157262563705,0.005551300477236509,-0.019272159785032272,0.030140647664666176,-0.13904725015163422,0.13432341814041138,0.2860768139362335,-0.32123684883117676,-0.45465952157974243,0.444055438041687,-0.3436845541000366,0.18105487525463104
1749032217.791123,4.640341758728027,-1.2111223501018067,0.021901909505025685,-3.082123418847555,4.776062488555908,-6.2343151720808905,0.0134113235399127,0.006320333573967218,-0.019474098458886147,0.031068675220012665,-0.13688109815120697,0.1348138153553009,0.30111435055732727,-0.3060869574546814,-0.450095534324646,0.43369176983833313,-0.3634128272533417,0.21516548097133636
1749032217.791188,4.640334606170654,-1.211077944641449,0.021847073231832326,-3.0820824108519496,4.775744915008545,-6.234076883886949,0.013236836530268192,0.006661472842097282,-0.019199157133698463,0.032134443521499634,-0.13836915791034698,0.13500936329364777,0.321853905916214,-0.30681756138801575,-0.45946308970451355,0.4310333728790283,-0.395003080368042,0.189978688955307
1749032217.7912543,4.64040470123291,-1.2110897165587922,0.021799389516012013,-3.082041402856344,4.775453567504883,-6.233766176049606,0.01370820589363575,0.006671465467661619,-0.01992332749068737,0.03285473212599754,-0.14652295410633087,0.13562476634979248,0.2926994860172272,-0.31123030185699463,-0.45921120047569275,0.4160671532154083,-0.3589271903038025,0.19228605926036835
1749032217.7913196,4.640413761138916,-1.21104250968013,0.021778408681051076,-3.0819508037962855,4.775248050689697,-6.233489983026878,0.013587748631834984,0.006773953326046467,-0.020554032176733017,0.0330587737262249,-0.1460871398448944,0.13532397150993347,0.29139286279678345,-0.35496994853019714,-0.4649137854576111,0.4148077964782715,-0.3629226088523865,0.20960763096809387
1749032217.7913837,4.64044189453125,-1.2110379499248047,0.021746460591451466,-3.081871648828024,4.774911403656006,-6.233287893478767,0.014224965125322342,0.006315863225609064,-0.020094525068998337,0.032430823892354965,-0.15050098299980164,0.13447986543178558,0.2913205623626709,-0.34085458517074585,-0.4629913866519928,0.42749977111816406,-0.387515127658844,0.19914957880973816
1749032217.7914484,4.6404500007629395,-1.2110415560058136,0.021709744130269826,-3.0818311176695765,4.774620532989502,-6.232980396841661,0.014023702591657639,0.006862241309136152,-0.02015114389359951,0.03346293419599533,-0.15378756821155548,0.13607347011566162,0.29975882172584534,-0.32086804509162903,-0.4734395444393158,0.4308617413043976,-0.36659500002861023,0.21523907780647278
1749032217.7915156,4.64044713973999,-1.2110260289958497,0.02167398134340459,-3.0817634067931117,4.774291038513184,-6.23270054185857,0.014790473505854607,0.0071756793186068535,-0.020969217643141747,0.03401096537709236,-0.15532690286636353,0.13549169898033142,0.2965310513973236,-0.33041998744010925,-0.4610886871814728,0.4227340817451477,-0.36065059900283813,0.22480803728103638
1749032217.7915812,4.640485763549805,-1.2109897893718262,0.021622959767476857,-3.081703325311178,4.773952007293701,-6.232409145926134,0.014759422279894352,0.007260702550411224,-0.021935483440756798,0.034896861761808395,-0.15573453903198242,0.134982630610466,0.33800703287124634,-0.3354822099208832,-0.4670279920101166,0.4144209325313568,-0.37194499373435974,0.2686406075954437
1749032217.7916481,4.64056396484375,-1.2109705072692414,0.021578137074605763,-3.0816194019713343,4.773652076721191,-6.232120745127098,0.016411496326327324,0.006768507417291403,-0.02218611352145672,0.03659691661596298,-0.1571301966905594,0.140143483877182,0.31722331047058105,-0.3496088981628418,-0.47800880670547485,0.4159944951534271,-0.3585169017314911,0.25772613286972046
1749032217.791715,4.640593528747559,-1.210954026584961,0.02154237428774053,-3.0815164051451625,4.773344993591309,-6.231835749243395,0.016505582258105278,0.006731459405273199,-0.022124266251921654,0.036508966237306595,-0.1583382487297058,0.14401939511299133,0.3003973960876465,-0.3227883577346802,-0.46046608686447144,0.4013552665710449,-0.36892247200012207,0.23385033011436462
1749032217.7917802,4.640636920928955,-1.2109348636916657,0.021518532429830373,-3.081475873986715,4.772987365722656,-6.231532171611683,0.01676667481660843,0.0067540425807237625,-0.021876037120819092,0.03553101420402527,-0.1602056324481964,0.14639563858509064,0.309517502784729,-0.34064358472824097,-0.47452670335769653,0.4090214669704437,-0.3558723032474518,0.22339506447315216
1749032217.791938,4.640676975250244,-1.210911051636078,0.021455113087789357,-3.0813924274840296,4.772676467895508,-6.2312320734011095,0.016619114205241203,0.006821785122156143,-0.02185995690524578,0.034483399242162704,-0.16127294301986694,0.14838673174381256,0.30094534158706665,-0.3202263116836548,-0.4921094477176666,0.41937077045440674,-0.36542943120002747,0.2100185751914978
1749032217.7937157,4.64072322845459,-1.2109457117370148,0.02142221132387334,-3.0813285313048304,4.772322654724121,-6.230978515242235,0.016438793390989304,0.007023620884865522,-0.02261769399046898,0.03423045575618744,-0.16212239861488342,0.15111525356769562,0.2887951731681824,-0.3629905581474304,-0.4744768440723419,0.4183027446269989,-0.36633020639419556,0.22486189007759094
1749032217.8342948,4.64075231552124,-1.2109021109393616,0.021385971699849904,-3.0812722645201625,4.772061824798584,-6.230647400264637,0.01738893613219261,0.006635007914155722,-0.023436998948454857,0.03439769521355629,-0.16672885417938232,0.1538100242614746,0.3081403374671936,-0.32690051198005676,-0.47283297777175903,0.42174479365348816,-0.3869672417640686,0.2191661149263382
1749032217.8343406,4.64075231552124,-1.2109219890883942,0.02135354677309209,-3.081200738946432,4.77168083190918,-6.230364136640922,0.016967233270406723,0.007245396729558706,-0.023617098107933998,0.03500983119010925,-0.16630037128925323,0.15385356545448303,0.3098071217536926,-0.33965492248535156,-0.4726635217666626,0.4204404056072235,-0.35561493039131165,0.21330106258392334
1749032217.834381,4.640824317932129,-1.2108399730971833,0.02128631273378545,-3.0811168156065882,4.771387100219727,-6.23005867773761,0.016863878816366196,0.007456406019628048,-0.023867158219218254,0.03668484091758728,-0.16620537638664246,0.1573876440525055,0.29237282276153564,-0.34732571244239807,-0.47917822003364563,0.4161517024040222,-0.39346596598625183,0.2116318643093109
1749032217.83442,4.640836238861084,-1.2108701032451172,0.021238152180806935,-3.0810376606383265,4.771010398864746,-6.229727406297819,0.01685504801571369,0.007389788515865803,-0.02474486269056797,0.035986896604299545,-0.17304418981075287,0.1567150503396988,0.2981661558151245,-0.35205116868019104,-0.47735700011253357,0.40938374400138855,-0.3824615180492401,0.20934148132801056
1749032217.8344579,4.640872955322266,-1.2108664971641083,0.021179024373189748,-3.080966135064596,4.770687580108643,-6.2294684688197535,0.017144054174423218,0.0071725803427398205,-0.025592412799596786,0.03613017499446869,-0.17320474982261658,0.15740807354450226,0.3124721050262451,-0.3278608024120331,-0.47854843735694885,0.42210066318511963,-0.38150209188461304,0.24829527735710144
1749032217.834501,4.640861988067627,-1.2108426553061982,0.021130863820211232,-3.0808822117247523,4.770347595214844,-6.229121998195545,0.017689377069473267,0.007310673128813505,-0.02446775697171688,0.03686825558543205,-0.1758439838886261,0.1631089448928833,0.2897748351097107,-0.3394576609134674,-0.47037968039512634,0.4094276428222656,-0.35887759923934937,0.212566539645195
1749032217.8345418,4.640909194946289,-1.2108727556518097,0.02109414735902959,-3.0808259449400843,4.769997596740723,-6.228821523730652,0.017723161727190018,0.007528151385486126,-0.024830808863043785,0.03638555854558945,-0.1771976798772812,0.1621297299861908,0.30816248059272766,-0.35136786103248596,-0.4858674705028534,0.4313405752182007,-0.36549341678619385,0.2623942196369171
1749032217.8345795,4.640913486480713,-1.2108172339252015,0.02103120485414678,-3.0807506046690882,4.769638538360596,-6.228466633950369,0.01803785189986229,0.0072074998170137405,-0.025299686938524246,0.036737438291311264,-0.17997239530086517,0.16434356570243835,0.31844815611839294,-0.3404928147792816,-0.4849392771720886,0.4171445965766907,-0.37641438841819763,0.25227198004722595
1749032217.834617,4.6410088539123535,-1.2107825738242646,0.020967785512105763,-3.080675264398092,4.769303321838379,-6.228099141513006,0.018943792209029198,0.006829180754721165,-0.026295512914657593,0.037411779165267944,-0.17853116989135742,0.16865035891532898,0.30654752254486084,-0.3338317573070526,-0.47394484281539917,0.4264662265777588,-0.3755526840686798,0.2566879391670227
1749032217.8346546,4.6410603523254395,-1.2107861799052735,0.020954434071676076,-3.0805865726866664,4.768917560577393,-6.227738891039984,0.018223119899630547,0.006963699124753475,-0.027572650462388992,0.03764249011874199,-0.17839939892292023,0.17104122042655945,0.2876617908477783,-0.3401336669921875,-0.4717862010002136,0.43908873200416565,-0.4183350205421448,0.2253362536430359
1749032217.8346918,4.641053199768066,-1.2107933920672913,0.020882431660787404,-3.080526968041891,4.768585205078125,-6.22736277455558,0.01878550834953785,0.007389833219349384,-0.027239149436354637,0.03855687379837036,-0.18241946399211884,0.17376244068145752,0.29127249121665955,-0.3454732894897461,-0.45980405807495117,0.4276989698410034,-0.3954678773880005,0.20473384857177734
1749032217.8347287,4.6410932540893555,-1.2107933920672913,0.020834271107808888,-3.080458780328268,4.768148899078369,-6.227053813879387,0.018776308745145798,0.006993886083364487,-0.027279360219836235,0.03927155211567879,-0.1836804896593094,0.17261022329330444,0.2985767126083374,-0.33350810408592224,-0.46009209752082825,0.42466479539871216,-0.41388267278671265,0.2421359121799469
1749032217.8347652,4.641148090362549,-1.210710422401764,0.02076751390566045,-3.0803781948485316,4.7677903175354,-6.226758968328134,0.01831650920212269,0.006494735833257437,-0.027732830494642258,0.03913671895861626,-0.1889805942773819,0.17321988940238953,0.3080063760280609,-0.32475546002388,-0.4608383774757385,0.4377567768096924,-0.41425228118896484,0.23564936220645905
1749032217.834802,4.641176700592041,-1.2107540231994172,0.020726505910054982,-3.080299516717428,4.767352104187012,-6.226352103297607,0.019221950322389603,0.006396547891199589,-0.028599703684449196,0.039967555552721024,-0.19375890493392944,0.17186878621578217,0.33211401104927063,-0.3177376985549927,-0.47550633549690247,0.4338938295841217,-0.37806230783462524,0.2260092943906784
1749032217.834839,4.641243934631348,-1.210710422401764,0.020665947590963185,-3.0802318058409632,4.7669782638549805,-6.226043451820509,0.020964358001947403,0.006691938731819391,-0.029109232127666473,0.04051106423139572,-0.1981387436389923,0.17656882107257843,0.2786334156990051,-0.336509108543396,-0.45653191208839417,0.44433021545410156,-0.3545055091381073,0.22297173738479614
1749032217.8348756,4.641229152679443,-1.2107494634440918,0.020583931599752248,-3.080128332177633,4.7666096687316895,-6.225707438086168,0.020236724987626076,0.007244796957820654,-0.029025394469499588,0.04116619750857353,-0.1976325958967209,0.17387095093727112,0.2967269718647003,-0.3378885090351105,-0.460789293050766,0.4481313228607178,-0.356405109167099,0.254901260137558
1749032217.834912,4.641324043273926,-1.210710422401764,0.020518128071920216,-3.0800792179503382,4.766207695007324,-6.225313838814394,0.01979173719882965,0.0065002888441085815,-0.029278377071022987,0.04172849282622337,-0.1965087652206421,0.17754262685775757,0.2902212142944336,-0.32728511095046997,-0.4618508517742157,0.43574199080467224,-0.35389024019241333,0.26061108708381653
1749032217.8349488,4.641328811645508,-1.2106784147075196,0.020467106495992482,-3.0800076923766078,4.765758037567139,-6.224983170871631,0.019821133464574814,0.006083244923502207,-0.029840096831321716,0.04241180419921875,-0.19672457873821259,0.17926879227161407,0.28437158465385437,-0.3247281610965729,-0.45393019914627075,0.44498515129089355,-0.3659398853778839,0.26570770144462585
1749032217.8349855,4.64142370223999,-1.2106473308852692,0.02042276064027959,-3.079904695550436,4.765418529510498,-6.224596578870909,0.01943628303706646,0.006072285119444132,-0.029610440135002136,0.043457865715026855,-0.19647116959095,0.18240675330162048,0.29251039028167725,-0.3237484395503998,-0.4552854299545288,0.4361358880996704,-0.37511754035949707,0.2704228162765503
1749032217.8350227,4.641459941864014,-1.2106473606875916,0.020346943532125294,-3.079770704308981,4.765017032623291,-6.2242396290050905,0.020146049559116364,0.0063362717628479,-0.030018310993909836,0.0433027483522892,-0.20236988365650177,0.18697293102741241,0.2977863550186157,-0.3216209411621094,-0.4317569434642792,0.4574452042579651,-0.35743287205696106,0.26398366689682007
1749032217.8356729,4.641432762145996,-1.210615651016571,0.0202868620501917,-3.079729219476217,4.764638900756836,-6.223871119563476,0.021018318831920624,0.007127551827579737,-0.02988447993993759,0.04410203546285629,-0.20172923803329468,0.18773768842220306,0.2907664179801941,-0.3369893729686737,-0.4472462236881256,0.4366946220397949,-0.38553500175476074,0.2530171275138855
1749032217.8376524,4.641496658325195,-1.2106464070132752,0.020246330891744435,-3.0796104870238246,4.764251708984375,-6.223482851182119,0.02142203599214554,0.006029909942299128,-0.03031780757009983,0.04437653720378876,-0.20808999240398407,0.1893642544746399,0.28799891471862793,-0.31435495615005493,-0.45005637407302856,0.4346584677696228,-0.3890419900417328,0.26184970140457153
1749032217.878508,4.641529083251953,-1.2106228929809113,0.020155254994527638,-3.0795146427550257,4.763833045959473,-6.223110646252529,0.020335262641310692,0.005801815073937178,-0.030673513188958168,0.044622816145420074,-0.20637686550617218,0.1927368938922882,0.30756017565727234,-0.32187962532043457,-0.43574774265289307,0.4480317234992981,-0.3743365705013275,0.2601104974746704
1749032217.8785923,4.641561508178711,-1.210642622118332,0.020098511372701466,-3.07944979290151,4.763445854187012,-6.222729780022995,0.0215156152844429,0.005339913070201874,-0.030504906550049782,0.044999390840530396,-0.20873630046844482,0.19099673628807068,0.29941892623901367,-0.29261350631713867,-0.43284428119659424,0.45161932706832886,-0.3672182559967041,0.27468591928482056
1749032217.878662,4.6416168212890625,-1.210621939306595,0.020007912312642873,-3.0793472729124964,4.762957572937012,-6.22231120640506,0.022468052804470062,0.00636078417301178,-0.02990710362792015,0.044023048132658005,-0.20869192481040955,0.19141773879528046,0.2848852276802063,-0.29992181062698364,-0.45729565620422363,0.455339252948761,-0.38941365480422974,0.28481918573379517
1749032217.8787313,4.641711711883545,-1.2105980974486847,0.01997834840883428,-3.0792862377562464,4.762573719024658,-6.221929610018627,0.022430885583162308,0.006696783006191254,-0.030121421441435814,0.04432523250579834,-0.21094216406345367,0.19355864822864532,0.29971593618392944,-0.3056536316871643,-0.4468633830547333,0.46890223026275635,-0.38515907526016235,0.28216055035591125
1749032217.8787985,4.641680717468262,-1.2106100183776398,0.019914929066793263,-3.0791832409300746,4.7621355056762695,-6.2215684729265135,0.02167198434472084,0.006303057074546814,-0.030865635722875595,0.04516850411891937,-0.20812541246414185,0.19512557983398438,0.31386882066726685,-0.3081287145614624,-0.4489592909812927,0.4599578380584717,-0.4037250280380249,0.28977054357528687
1749032217.8788686,4.641748428344727,-1.210606412296631,0.019855324422017873,-3.0790678463377894,4.761701583862305,-6.221110053603546,0.021709071472287178,0.006013630423694849,-0.031321872025728226,0.04594165459275246,-0.21280606091022491,0.1990782916545868,0.3000631630420685,-0.2971707582473755,-0.43664640188217163,0.4541906714439392,-0.4408652186393738,0.29313236474990845
1749032217.8789353,4.641772270202637,-1.2105670434287568,0.0197680632220667,-3.0790192089476527,4.761267185211182,-6.220704943184749,0.021777421236038208,0.00633882824331522,-0.03135852888226509,0.048662297427654266,-0.21354717016220093,0.20206783711910248,0.3213646113872528,-0.29805466532707214,-0.43731942772865295,0.4628799855709076,-0.4251500368118286,0.2914922535419464
1749032217.8790033,4.641828536987305,-1.2105861765197297,0.019723240529195607,-3.0788613758482875,4.760812759399414,-6.220299970601694,0.02277946285903454,0.007480224594473839,-0.03198248893022537,0.04924412816762924,-0.21996790170669556,0.2054307758808136,0.2898501753807068,-0.30906346440315247,-0.4400087594985962,0.44293004274368286,-0.40497907996177673,0.24687781929969788
1749032217.879071,4.641880035400391,-1.2105656129172822,0.019651238118306935,-3.078804155389303,4.760374069213867,-6.219931107257501,0.022873982787132263,0.006813621614128351,-0.032089713960886,0.04934777319431305,-0.2241916060447693,0.20681534707546234,0.3018508553504944,-0.3023332357406616,-0.44382935762405396,0.4529232382774353,-0.39418360590934753,0.2467866837978363
1749032217.8791382,4.641924858093262,-1.2105500859073182,0.019591633473531544,-3.078700681725973,4.759903907775879,-6.219499338661329,0.022632913663983345,0.00674944743514061,-0.03196822106838226,0.04712042957544327,-0.2266269028186798,0.20836690068244934,0.2885574996471405,-0.29408302903175354,-0.43622758984565735,0.46809011697769165,-0.3534412384033203,0.24078862369060516
1749032217.8792067,4.641963958740234,-1.210522012119629,0.019500080739156544,-3.0786291561522425,4.759453296661377,-6.219083931540148,0.02260780893266201,0.006675497628748417,-0.03209049254655838,0.04715634882450104,-0.22582122683525085,0.20855025947093964,0.2988085150718689,-0.2889200747013092,-0.44512009620666504,0.466677725315094,-0.36697274446487427,0.2217509150505066
1749032217.879275,4.642036437988281,-1.210506485109665,0.01947480836977178,-3.0785285435118617,4.759033679962158,-6.218691151832239,0.023014524951577187,0.006961813196539879,-0.031821608543395996,0.049352675676345825,-0.2249349057674408,0.2061263769865036,0.30015069246292114,-0.2812485694885254,-0.45595863461494446,0.45627084374427795,-0.3822827935218811,0.28193333745002747
1749032217.8793428,4.642044544219971,-1.210506485109665,0.019402329121724904,-3.0784136257567347,4.758610248565674,-6.218251373861925,0.023067908361554146,0.007455682847648859,-0.03186824172735214,0.04949527978897095,-0.22413785755634308,0.20922540128231049,0.2969798743724823,-0.2928800880908966,-0.44546669721603394,0.4752712845802307,-0.39573273062705994,0.24271312355995178
1749032217.8794096,4.642111778259277,-1.210479037170746,0.01932412782777959,-3.0783330402769984,4.758089542388916,-6.217814240847723,0.023432059213519096,0.007839405909180641,-0.032129622995853424,0.0504569336771965,-0.2317270189523697,0.2102021723985672,0.28981152176856995,-0.2970271706581116,-0.45725154876708984,0.45588117837905884,-0.3756682276725769,0.277602881193161
1749032217.8794754,4.642201900482178,-1.2104707223227997,0.01926738420595342,-3.078226228753561,4.757631301879883,-6.2173818613039415,0.023525739088654518,0.0074789151549339294,-0.0336686372756958,0.05146342143416405,-0.232350155711174,0.21142777800559998,0.27965742349624634,-0.28685712814331055,-0.458249032497406,0.45959872007369995,-0.4105226397514343,0.28293120861053467
1749032217.8795433,4.642211437225342,-1.2104307276061554,0.019214455281392873,-3.0781146488585414,4.757172107696533,-6.2169063354479235,0.023625515401363373,0.007585518527776003,-0.03473343327641487,0.053469203412532806,-0.23948250710964203,0.21239101886749268,0.29174166917800903,-0.2868112027645111,-0.4393507242202759,0.4600854218006134,-0.34209486842155457,0.27003785967826843
1749032217.8796103,4.642244338989258,-1.2104152005961915,0.019135777150289357,-3.0780259571471156,4.756667613983154,-6.21648703912367,0.024130959063768387,0.007815265096724033,-0.03310783952474594,0.054040856659412384,-0.23885874450206757,0.21528147161006927,0.30165326595306396,-0.30621886253356934,-0.42416638135910034,0.4436831772327423,-0.3360937535762787,0.2681102454662323
1749032217.8796778,4.642350196838379,-1.2104070645621796,0.01907521883119756,-3.0778995953001917,4.756208419799805,-6.216080766414301,0.02398248016834259,0.00732770748436451,-0.03198106214404106,0.05230984464287758,-0.23777247965335846,0.21643300354480743,0.2929604649543762,-0.30327028036117554,-0.4586639106273651,0.4593174457550049,-0.34786003828048706,0.28509053587913513
1749032217.8797445,4.642366886138916,-1.210414246921875,0.019019428883687794,-3.0777603588499964,4.755745887756348,-6.215660218392507,0.023282846435904503,0.007523881737142801,-0.033097028732299805,0.05030505359172821,-0.2337849736213684,0.2162599116563797,0.31532737612724304,-0.3029806911945343,-0.45000016689300537,0.4488871991634369,-0.37439078092575073,0.2788981795310974
1749032217.8798113,4.642366886138916,-1.210414246921875,0.019019428883687794,-3.0777603588499964,4.755745887756348,-6.215660218392507,0.023282846435904503,0.007523881737142801,-0.033097028732299805,0.05030505359172821,-0.2337849736213684,0.2162599116563797,0.31532737612724304,-0.3029806911945343,-0.45000016689300537,0.4488871991634369,-0.37439078092575073,0.2788981795310974
1749032217.879977,4.642477989196777,-1.2104095381549378,0.01898652711977178,-3.0776878796019496,4.755251884460449,-6.21523338208069,0.023901037871837616,0.008547923527657986,-0.03322142735123634,0.05120708793401718,-0.23433436453342438,0.21990205347537994,0.3197304308414459,-0.28860488533973694,-0.4504137337207794,0.46370428800582886,-0.367394357919693,0.2872418165206909
1749032217.8816545,4.6424760818481445,-1.2103348833373566,0.018811527882711232,-3.0774876079955042,4.754279613494873,-6.214315254484312,0.02426179312169552,0.008591956458985806,-0.03484894335269928,0.05376117676496506,-0.23999954760074615,0.22376398742198944,0.3306543529033661,-0.30326026678085327,-0.4497607946395874,0.4536325931549072,-0.37958282232284546,0.27431443333625793
1749032217.9222891,4.642560005187988,-1.2103422445109864,0.018770519887105763,-3.077360769311422,4.7538275718688965,-6.213883068655626,0.025042148306965828,0.00935425516217947,-0.03458746522665024,0.053087152540683746,-0.24651867151260376,0.2266312837600708,0.30387333035469055,-0.299752801656723,-0.44442975521087646,0.4513688087463379,-0.3719736635684967,0.284186452627182
1749032217.922335,4.64261531829834,-1.210264579658844,0.01869851747621709,-3.077256818810934,4.753294944763184,-6.2134505102979105,0.024933762848377228,0.008909773081541061,-0.03362299129366875,0.05259367823600769,-0.25017249584198,0.22969584167003632,0.3112163543701172,-0.3010239899158478,-0.47461867332458496,0.44733428955078125,-0.39386186003685,0.2997836768627167
1749032217.922378,4.6426825523376465,-1.2102401119521637,0.018634621297017873,-3.0771452389159144,4.752820014953613,-6.212978478764192,0.02504134736955166,0.008859413675963879,-0.03442024812102318,0.05289139226078987,-0.2525591254234314,0.2318829596042633,0.32533177733421326,-0.32596200704574585,-0.4662550687789917,0.44934195280075073,-0.3701595067977905,0.2859896123409271
1749032217.9224188,4.642674922943115,-1.210313693886139,0.018578354512349904,-3.077034135858053,4.752352237701416,-6.212484192346231,0.02470114268362522,0.008959079161286354,-0.03544168546795845,0.0515010766685009,-0.24936282634735107,0.23635898530483246,0.3202207088470459,-0.3220735788345337,-0.4660952389240265,0.4631890058517456,-0.38073423504829407,0.2448348104953766
1749032217.9224582,4.642765998840332,-1.2102702421000977,0.01849061647524053,-3.0769459209837855,4.751799583435059,-6.212013971303598,0.024902351200580597,0.010095489211380482,-0.034442562609910965,0.05221761390566826,-0.24574680626392365,0.23402298986911774,0.3404181897640228,-0.30827441811561584,-0.48489513993263245,0.45528796315193176,-0.3993259072303772,0.2786938548088074
1749032217.9224968,4.6428070068359375,-1.2102583211711426,0.018415753041402638,-3.0768071613707484,4.751273155212402,-6.211565051470892,0.025534648448228836,0.009993774816393852,-0.035689808428287506,0.05330941081047058,-0.24920189380645752,0.2376893311738968,0.29105302691459656,-0.32633641362190247,-0.46307265758514404,0.4751948118209839,-0.42876482009887695,0.2466793656349182
1749032217.9225352,4.642866611480713,-1.2102225583842774,0.018355671559469044,-3.076702734033102,4.7507123947143555,-6.21106551984419,0.0254349522292614,0.009853435680270195,-0.03518926352262497,0.05382049083709717,-0.2506631016731262,0.23674868047237396,0.33865267038345337,-0.297391414642334,-0.47288069128990173,0.46130216121673584,-0.4180592894554138,0.2698487639427185
1749032217.9225724,4.642918586730957,-1.210206077699997,0.01828319231142217,-3.076622625390524,4.750224590301514,-6.210578147565023,0.027185291051864624,0.010374696925282478,-0.03560447320342064,0.053330402821302414,-0.26046669483184814,0.2375590205192566,0.2658190131187439,-0.32715490460395813,-0.4945518672466278,0.4652808904647827,-0.3424896001815796,0.27535468339920044
1749032217.9226096,4.642947196960449,-1.2101780039123078,0.01819926897157842,-3.07651486019277,4.7497053146362305,-6.210104692970411,0.027140319347381592,0.00986479315906763,-0.03588728979229927,0.05426603555679321,-0.26496925950050354,0.2392732799053192,0.28214138746261597,-0.3402886390686035,-0.4871726930141449,0.47439688444137573,-0.33476585149765015,0.27201682329177856
1749032217.9226472,4.642995834350586,-1.2101350289634247,0.018148247395650685,-3.0763918362059535,4.749172210693359,-6.209639642630712,0.026854850351810455,0.010803557932376862,-0.03656260669231415,0.05589266121387482,-0.26644477248191833,0.24060821533203125,0.2877144515514374,-0.32734084129333496,-0.4742814302444458,0.45427000522613525,-0.3064427375793457,0.2722804844379425
1749032217.922685,4.643062591552734,-1.2101158660701294,0.018064324055806935,-3.0762530765929164,4.7486572265625,-6.209116030727522,0.026919955387711525,0.010468858294188976,-0.03680703043937683,0.05615365505218506,-0.26102414727211,0.24492135643959045,0.3111196458339691,-0.3224942982196808,-0.4836026132106781,0.4642009139060974,-0.3206064701080322,0.24015706777572632
1749032217.922722,4.643117904663086,-1.2100920242122193,0.01799184480776006,-3.076156278649801,4.74815559387207,-6.208651360367433,0.027155281975865364,0.010221689939498901,-0.03721489757299423,0.056535832583904266,-0.2579219937324524,0.24240364134311676,0.3075580894947052,-0.32464003562927246,-0.4787435233592987,0.45641112327575684,-0.3648623526096344,0.24874266982078552
1749032217.9227595,4.6431708335876465,-1.210113839512207,0.01792031923402959,-3.0760604343810023,4.747640609741211,-6.2081776599036615,0.02718578651547432,0.010463925078511238,-0.03754713386297226,0.057315193116664886,-0.25664836168289185,0.2457846850156784,0.310640424489975,-0.3313738703727722,-0.49009084701538086,0.46111518144607544,-0.40396416187286377,0.2171366810798645
1749032217.9227965,4.643207550048828,-1.210082159643509,0.017847839985982716,-3.0759250126280726,4.7470831871032715,-6.207646388803617,0.027315182611346245,0.010720565915107727,-0.037725429981946945,0.05700748786330223,-0.2587561011314392,0.24513308703899384,0.32780811190605164,-0.34027257561683655,-0.4791204035282135,0.4583372175693512,-0.42649638652801514,0.27944445610046387
1749032217.9228342,4.643259048461914,-1.210047499542572,0.01777965227235967,-3.0758210621275843,4.746584892272949,-6.207141902540819,0.027143945917487144,0.010511270724236965,-0.038337286561727524,0.05788017436861992,-0.26532235741615295,0.24612237513065338,0.33624887466430664,-0.35889002680778503,-0.49293413758277893,0.4645248055458069,-0.41062217950820923,0.2804458439350128
1749032217.9228709,4.643338680267334,-1.2100495261004944,0.017679993306295216,-3.0756942234435023,4.7460150718688965,-6.206672143434183,0.027057761326432228,0.01091194711625576,-0.03866545855998993,0.05993220955133438,-0.2712557017803192,0.24791458249092102,0.3173563480377197,-0.3446590006351471,-0.47994109988212585,0.43463730812072754,-0.38829129934310913,0.26834049820899963
1749032217.9229076,4.643370151519775,-1.2099867922118683,0.017623249684469044,-3.0755745373167933,4.745489120483398,-6.206136759613649,0.02733623795211315,0.010992556810379028,-0.038803379982709885,0.06034674495458603,-0.2729548215866089,0.24834389984607697,0.3476178050041199,-0.34682780504226685,-0.48617425560951233,0.4368289113044739,-0.3741779625415802,0.2670879662036896
1749032217.9229453,4.643430233001709,-1.209982232456543,0.01756745973695928,-3.0754548511900843,4.744981288909912,-6.205641266201631,0.029450759291648865,0.01014369074255228,-0.040747497230768204,0.057167813181877136,-0.2717634439468384,0.24853432178497314,0.32483410835266113,-0.3321765959262848,-0.4831833839416504,0.45977962017059326,-0.3752368092536926,0.2616256773471832
1749032217.9229822,4.643521785736084,-1.20993925750766,0.017494980488912404,-3.075369974175924,4.7443928718566895,-6.205124002193109,0.02912858873605728,0.010852232575416565,-0.03953245282173157,0.05773527920246124,-0.27339476346969604,0.2538814842700958,0.33523455262184143,-0.3610853850841522,-0.4787181615829468,0.47677338123321533,-0.38190293312072754,0.2503291964530945
1749032217.9230187,4.643519401550293,-1.2099464696696778,0.01739532152284795,-3.0752464733519496,4.743857383728027,-6.204650882874624,0.02855701558291912,0.010375631041824818,-0.03896478936076164,0.05971428006887436,-0.27671125531196594,0.2545827329158783,0.31844562292099,-0.3421972692012787,-0.4979758858680725,0.4618370532989502,-0.4327658414840698,0.26071181893348694
1749032217.9236505,4.643601894378662,-1.2098754209331055,0.0173113981830042,-3.07511105159902,4.743304252624512,-6.204083930944101,0.027601568028330803,0.010128214955329895,-0.040679823607206345,0.05922386050224304,-0.2833680212497711,0.2558628022670746,0.34334680438041687,-0.3711259067058563,-0.49833574891090393,0.47084906697273254,-0.3769122362136841,0.26634347438812256
1749032217.9257429,4.6436381340026855,-1.2098947030356904,0.01722413698305303,-3.0749956570067347,4.742734909057617,-6.203614559267656,0.02846551686525345,0.010730519890785217,-0.04090232029557228,0.06021689996123314,-0.2878940999507904,0.2580503523349762,0.3407382071018219,-0.3508285880088806,-0.4816974699497223,0.4696342647075653,-0.3578377068042755,0.2671898901462555
1749032217.966293,4.643725395202637,-1.2098361414721985,0.017146889363424123,-3.0748678646483363,4.742145538330078,-6.203075517212049,0.02945958822965622,0.010421606712043285,-0.04296548292040825,0.06300272047519684,-0.2879098057746887,0.2589692175388336,0.337205171585083,-0.33943819999694824,-0.47250068187713623,0.44615912437438965,-0.3608757555484772,0.27504950761795044
1749032217.966339,4.643778324127197,-1.20984701931987,0.01707488695253545,-3.074740072289938,4.741656303405762,-6.2025335172759455,0.02907457761466503,0.009903451427817345,-0.04251366853713989,0.06360770761966705,-0.28260254859924316,0.26006609201431274,0.33114683628082275,-0.3531510531902313,-0.4626312851905823,0.4371585249900818,-0.38130950927734375,0.2776679992675781
1749032217.96638,4.6438188552856445,-1.2098196011832734,0.0169909636126917,-3.0746051273741664,4.741062164306641,-6.202021647487776,0.029554808512330055,0.010638494044542313,-0.039776336401700974,0.06083942577242851,-0.281337171792984,0.26192912459373474,0.35011476278305054,-0.3467441201210022,-0.4964269995689392,0.4430849552154541,-0.4067172408103943,0.26100459694862366
1749032217.9664195,4.643917083740234,-1.2098106306842347,0.016949955617086232,-3.0745045147337855,4.7404608726501465,-6.20150345960726,0.030721725896000862,0.009942336939275265,-0.04162536934018135,0.06013578549027443,-0.28548136353492737,0.26587599515914917,0.3223123848438263,-0.33598652482032776,-0.49221014976501465,0.4621616005897522,-0.42444145679473877,0.25480344891548157
1749032217.9664586,4.643961429595947,-1.209774987106659,0.016831700001851857,-3.074369092980856,4.739907741546631,-6.201003011559145,0.030964860692620277,0.011136647313833237,-0.043022140860557556,0.06244255229830742,-0.2888122797012329,0.26472172141075134,0.30874836444854736,-0.33850783109664917,-0.47304579615592957,0.46054431796073914,-0.4293256402015686,0.27295738458633423
1749032217.9664974,4.64403772354126,-1.20974753916774,0.016747776662008107,-3.074249883691305,4.739312648773193,-6.200436372553007,0.02956968918442726,0.010319414548575878,-0.042915355414152145,0.06400458514690399,-0.29624512791633606,0.265889048576355,0.33318421244621277,-0.3563765585422516,-0.4755525588989258,0.44237130880355835,-0.3740779757499695,0.28371426463127136
1749032217.966536,4.644053936004639,-1.2097932261279603,0.016663853322164357,-3.074102064172262,4.738753795623779,-6.199913833533422,0.029532352462410927,0.009781335480511189,-0.0428537055850029,0.06472457945346832,-0.2989717721939087,0.26821982860565186,0.3445943593978882,-0.35510143637657166,-0.4786694347858429,0.4334433376789093,-0.35158324241638184,0.26464685797691345
1749032217.966575,4.644141674041748,-1.209726707344391,0.016579929982320607,-3.073939462701315,4.738169193267822,-6.199386719857351,0.031042540445923805,0.009925649501383305,-0.04350539296865463,0.06440670043230057,-0.29723891615867615,0.2705989181995392,0.32407060265541077,-0.3443865478038788,-0.47737956047058105,0.43912625312805176,-0.3559683859348297,0.26530516147613525
1749032217.966613,4.644205093383789,-1.2096993786147614,0.016483608876363576,-3.073874136010641,4.73757791519165,-6.198839191590444,0.03063228167593479,0.010628171265125275,-0.043543457984924316,0.06421595066785812,-0.2964218556880951,0.27074840664863586,0.32478654384613037,-0.3415919542312622,-0.47106683254241943,0.435211718082428,-0.3815649449825287,0.2764182984828949
1749032217.9666512,4.644289493560791,-1.2096719306758423,0.016396347676412404,-3.0737348995604457,4.736988067626953,-6.198278133069174,0.030664930120110512,0.009533884935081005,-0.0441569909453392,0.06367490440607071,-0.30007773637771606,0.27669522166252136,0.3358985185623169,-0.33001822233200073,-0.46071523427963257,0.43789005279541016,-0.430270791053772,0.24523372948169708
1749032217.966693,4.644286632537842,-1.2096444827369233,0.016312424336568654,-3.0735918484129847,4.736421585083008,-6.1977824235903185,0.03093055635690689,0.009535850957036018,-0.04374353960156441,0.06265580654144287,-0.30171844363212585,0.27581310272216797,0.32114240527153015,-0.3370324373245239,-0.46856775879859924,0.43994781374931335,-0.42716333270072937,0.2890859842300415
1749032217.9667315,4.644372940063477,-1.2096470159343262,0.016228500996724904,-3.0734406910338343,4.735757350921631,-6.197248820458547,0.03108120523393154,0.009524133987724781,-0.044060736894607544,0.06462949514389038,-0.3071797490119934,0.28064316511154175,0.34287673234939575,-0.33262887597084045,-0.4709728956222534,0.45147404074668884,-0.3931347131729126,0.2642931044101715
1749032217.966769,4.644453525543213,-1.2096398037723084,0.016135517750875294,-3.0733400783934535,4.735146522521973,-6.1966343263732355,0.0314212404191494,0.00947844423353672,-0.04476109519600868,0.06581594794988632,-0.3073336184024811,0.2824556231498718,0.3084997534751892,-0.3519980311393738,-0.4798623025417328,0.42716848850250244,-0.384563684463501,0.2951669991016388
1749032217.966806,4.6445136070251465,-1.2096226972392579,0.016029183064595998,-3.07322420696401,4.734516143798828,-6.1960520709501665,0.031353313475847244,0.010179813951253891,-0.04497728869318962,0.06621173769235611,-0.3072153627872467,0.2832008898258209,0.3348153531551361,-0.32220280170440674,-0.4614427089691162,0.43344253301620483,-0.3917475640773773,0.2826746106147766
1749032217.9668434,4.64457368850708,-1.2095760864070435,0.01594859758485967,-3.0730582676329554,4.733899116516113,-6.195502851401464,0.031554438173770905,0.00917244702577591,-0.044823646545410156,0.06597258895635605,-0.3038035035133362,0.286121129989624,0.292636513710022,-0.34705081582069397,-0.4681796133518219,0.4298475384712219,-0.4017307460308075,0.26757103204727173
1749032217.9668808,4.644649028778076,-1.2095988553813477,0.015864197407857716,-3.0729452572264613,4.733308792114258,-6.1949540118323725,0.031808752566576004,0.009644892066717148,-0.04480298236012459,0.06544103473424911,-0.30813419818878174,0.28311896324157715,0.3227364420890808,-0.32584935426712036,-0.4686986207962036,0.4439896047115326,-0.4176534414291382,0.2913934588432312
1749032217.966918,4.644705295562744,-1.2095397275737305,0.015787903462545216,-3.0727983913817347,4.732664108276367,-6.19439080754389,0.03167290613055229,0.00931994616985321,-0.04555617645382881,0.06656671315431595,-0.31371188163757324,0.2838009297847748,0.31020885705947876,-0.3459993600845337,-0.4754517078399658,0.4149167239665985,-0.4189598858356476,0.32222482562065125
1749032217.9669545,4.6446990966796875,-1.2095152002624054,0.015688244496480763,-3.0726667843260707,4.732029914855957,-6.1937919969307345,0.03204020857810974,0.009434222243726254,-0.04602481797337532,0.06806959956884384,-0.31793004274368286,0.2863081991672516,0.33536380529403687,-0.3207416534423828,-0.4713778495788574,0.44479939341545105,-0.4007643163204193,0.3423978388309479
1749032217.9669917,4.6446990966796875,-1.2095152002624054,0.015688244496480763,-3.0726667843260707,4.732029914855957,-6.1937919969307345,0.03204020857810974,0.009434222243726254,-0.04602481797337532,0.06806959956884384,-0.31793004274368286,0.2863081991672516,0.33536380529403687,-0.3207416534423828,-0.4713778495788574,0.44479939341545105,-0.4007643163204193,0.3423978388309479
1749032217.9670284,4.644888401031494,-1.20952262104068,0.015492264424459279,-3.0723759136595667,4.730814456939697,-6.192661460732118,0.032941725105047226,0.009005272760987282,-0.046532243490219116,0.06851842999458313,-0.3181709051132202,0.29374343156814575,0.34091511368751526,-0.346063494682312,-0.46584343910217285,0.428402304649353,-0.4295884966850281,0.32810163497924805
1749032217.9676847,4.644926071166992,-1.2094559234431763,0.015415493641988576,-3.0722671947874964,4.730140686035156,-6.192072738205091,0.032663557678461075,0.008301446214318275,-0.04715128615498543,0.06933537125587463,-0.31926512718200684,0.29685476422309875,0.3308137059211731,-0.3428119421005249,-0.46489036083221436,0.4109901189804077,-0.4471285045146942,0.30994153022766113
1749032217.9696226,4.645031929016113,-1.2094631654075165,0.015316311513082326,-3.072116037408346,4.729542255401611,-6.191487547253267,0.03329598158597946,0.009017824195325375,-0.046765752136707306,0.06928077340126038,-0.32398349046707153,0.2989039719104767,0.34189122915267944,-0.32905900478363037,-0.4736923277378082,0.43077874183654785,-0.42559173703193665,0.30909863114356995
1749032218.0103447,4.6450886726379395,-1.2094786924174805,0.01522380510439092,-3.0719763241209925,4.72885274887085,-6.190868202839987,0.03412153944373131,0.008725176565349102,-0.04632537066936493,0.07062511146068573,-0.33015480637550354,0.29829904437065125,0.3147991895675659,-0.3167351484298706,-0.48546871542930603,0.4275060296058655,-0.42109841108322144,0.3374076187610626
1749032218.0103958,4.645175933837891,-1.209426925783493,0.015143219624654591,-3.0718099079527796,4.728121280670166,-6.190240156148569,0.03240162134170532,0.009162294678390026,-0.04865704104304314,0.07233696430921555,-0.33254048228263855,0.30282631516456604,0.3204384446144104,-0.33304381370544434,-0.45941880345344543,0.4048526883125305,-0.3528631925582886,0.2870654761791229
1749032218.0104375,4.645220756530762,-1.2094388467124482,0.015028778706685841,-3.07171692470693,4.727492809295654,-6.189612034951345,0.03481654077768326,0.008895600214600563,-0.04865079000592232,0.07033360004425049,-0.3302476406097412,0.30505532026290894,0.3063011169433594,-0.3268423080444336,-0.43850117921829224,0.41826653480529785,-0.3472271263599396,0.28807684779167175
1749032218.0104766,4.64527702331543,-1.2093994480422516,0.014901463185445607,-3.0715848408141078,4.726839065551758,-6.188993994389669,0.035522423684597015,0.009266272187232971,-0.04612163454294205,0.06813465058803558,-0.32955437898635864,0.3052302300930023,0.30460694432258606,-0.3128272294998169,-0.48291194438934326,0.41966018080711365,-0.371468722820282,0.2864741086959839
1749032218.0105178,4.645367622375488,-1.2093983751586457,0.01484853426088506,-3.0714336834349574,4.72613525390625,-6.188427072261469,0.034418072551488876,0.009248764254152775,-0.0467144176363945,0.06900288164615631,-0.32764050364494324,0.3054928779602051,0.30630987882614136,-0.3098193407058716,-0.47052037715911865,0.4592915177345276,-0.38168883323669434,0.2724388539791107
1749032218.0105608,4.6454057693481445,-1.2093792420676728,0.01474029222597295,-3.071256300012106,4.725524425506592,-6.187816430126325,0.03337473422288895,0.00905334297567606,-0.0480988472700119,0.06982345134019852,-0.33055415749549866,0.30696412920951843,0.3221377432346344,-0.31704509258270264,-0.4727212190628052,0.43786418437957764,-0.3717518448829651,0.29892033338546753
1749032218.0106037,4.645484447479248,-1.2093864542296906,0.014644447957174123,-3.071131845513815,4.724867343902588,-6.187206585203306,0.033604782074689865,0.008554660715162754,-0.049573302268981934,0.07076037675142288,-0.33180826902389526,0.3044382929801941,0.32243603467941284,-0.33117324113845825,-0.44639503955841064,0.43743211030960083,-0.3783562183380127,0.33408281207084656
1749032218.0106425,4.645537376403809,-1.2093502444079895,0.014567200337545216,-3.0710188351073207,4.724189281463623,-6.186575863753454,0.03449356183409691,0.008890172466635704,-0.04781457781791687,0.07273447513580322,-0.33080217242240906,0.30644553899765015,0.3381562829017639,-0.3186657428741455,-0.4563056528568268,0.4220011830329895,-0.392086923122406,0.34295588731765747
1749032218.010682,4.645648002624512,-1.2093466085246583,0.014440361653463185,-3.0708443127074183,4.723498821258545,-6.1859647447811525,0.03379682078957558,0.009099672548472881,-0.048022326081991196,0.07146778702735901,-0.3313750922679901,0.3103630244731903,0.31109198927879333,-0.31091275811195374,-0.4717634618282318,0.4300614595413208,-0.4181322157382965,0.3469906151294708
1749032218.0107195,4.64567232131958,-1.209307239656784,0.014344517384664357,-3.0707198582091273,4.722853183746338,-6.185338605438368,0.03457001969218254,0.008367706090211868,-0.049658048897981644,0.07052125781774521,-0.33665037155151367,0.31335926055908203,0.3338307738304138,-0.29192492365837097,-0.46670296788215637,0.4297677278518677,-0.4169112741947174,0.3034359812736511
1749032218.0107565,4.645751953125,-1.209307239656784,0.014260594044820607,-3.0705534420409144,4.722116470336914,-6.184701774512426,0.034675441682338715,0.009046461433172226,-0.0495472326874733,0.07172682881355286,-0.3396774232387543,0.313306599855423,0.3259316682815552,-0.31035569310188293,-0.4423942565917969,0.4472925066947937,-0.3763895034790039,0.2866609990596771
1749032218.010797,4.645828723907471,-1.2093098920634766,0.014148537312642873,-3.070397516290182,4.721414566040039,-6.184145596121446,0.03354279696941376,0.008918292820453644,-0.04899337515234947,0.07222137600183487,-0.3412490785121918,0.31322696805000305,0.33635109663009644,-0.3252163827419281,-0.4749129116535187,0.42673224210739136,-0.3393368721008301,0.2906269431114197
1749032218.0108354,4.645881175994873,-1.2092590791038056,0.014068428670064748,-3.07028927425527,4.720744609832764,-6.183473695312635,0.03471493348479271,0.009038529358804226,-0.048903655260801315,0.07268530875444412,-0.34184688329696655,0.3145298361778259,0.32998478412628174,-0.3173407316207886,-0.4662395715713501,0.43083691596984863,-0.3451029360294342,0.32969650626182556
1749032218.0108728,4.645967483520508,-1.2092471581748505,0.013960663472310841,-3.070141454736227,4.720049858093262,-6.18283381709923,0.03578311577439308,0.00892391987144947,-0.04952234774827957,0.07344724982976913,-0.34145161509513855,0.3142144978046417,0.3352048099040985,-0.31369003653526306,-0.4476802349090576,0.415050745010376,-0.3549455404281616,0.3421689569950104
1749032218.0109098,4.646024703979492,-1.2092388433269043,0.013852898274556935,-3.0699898205199183,4.7193169593811035,-6.182206783686773,0.03531501814723015,0.009423419833183289,-0.05010892078280449,0.07404987514019012,-0.33998557925224304,0.3167566955089569,0.2976672649383545,-0.30180394649505615,-0.4582633376121521,0.4113653004169464,-0.3783830404281616,0.3161323070526123
1749032218.0109518,4.646135330200195,-1.2092424494079133,0.013756577168599904,-3.069881578485006,4.7186126708984375,-6.181607742105619,0.03534281253814697,0.009464843198657036,-0.05025706812739372,0.07437710464000702,-0.3416670560836792,0.3223896920681,0.32102885842323303,-0.28512048721313477,-0.4514491558074951,0.4003487229347229,-0.3651377558708191,0.2979011535644531
1749032218.0109897,4.6461920738220215,-1.209203080540039,0.013644997273580373,-3.069695611993307,4.717965602874756,-6.180918317531244,0.035342708230018616,0.00990957673639059,-0.05009135603904724,0.07486417144536972,-0.34153255820274353,0.32631048560142517,0.33133837580680847,-0.30903366208076477,-0.4481000304222107,0.4137730896472931,-0.3579944372177124,0.29019278287887573
1749032218.0110278,4.646217346191406,-1.2091985505870362,0.013552490864888966,-3.069552084008688,4.717306613922119,-6.180283475910322,0.03625056520104408,0.009756788611412048,-0.05053398385643959,0.07558609545230865,-0.34093448519706726,0.32622650265693665,0.3257266879081726,-0.32174748182296753,-0.4586711823940277,0.4191303253173828,-0.35240983963012695,0.31845390796661377
1749032218.011065,4.646343231201172,-1.2091283959201355,0.01345998445619756,-3.0693847141661585,4.716543674468994,-6.179622646664278,0.03575387969613075,0.010470774956047535,-0.052050452679395676,0.07622016966342926,-0.3416234254837036,0.3290172219276428,0.3372092843055725,-0.2874317765235901,-0.4398844242095947,0.410053551197052,-0.393446683883667,0.28660112619400024
1749032218.011103,4.646395683288574,-1.2091466051391144,0.013332668934957326,-3.0692602596678675,4.7158684730529785,-6.178912211452619,0.035301197320222855,0.011595657095313072,-0.049855176359415054,0.07654865086078644,-0.3449133634567261,0.33312705159187317,0.35904332995414734,-0.3282839059829712,-0.4606214761734009,0.41954219341278076,-0.39942416548728943,0.2694548964500427
