nimar13/UR3e_dataset_trayectorias/trayectorias_ejecutadas/quintic/trayectoria_073_result.csv
timestamp,q1,q2,q3,q4,q5,q6,qd1,qd2,qd3,qd4,qd5,qd6,tau1,tau2,tau3,tau4,tau5,tau6
1749034201.0503094,-3.8752453962909144,-1.023003415470459,-1.7389013767242432,3.1689364153095703,-2.3295021692859095,4.368289470672607,-0.044011350721120834,0.001438703271560371,-0.038536958396434784,0.036884985864162445,-0.0433824360370636,0.049377188086509705,-0.2432555854320526,0.47305819392204285,0.8325542211532593,0.6997061371803284,-0.12901723384857178,0.1550251543521881
1749034201.0503662,-3.8752453962909144,-1.023003415470459,-1.7389013767242432,3.1689364153095703,-2.3295021692859095,4.368289470672607,-0.044011350721120834,0.001438703271560371,-0.038536958396434784,0.036884985864162445,-0.0433824360370636,0.049377188086509705,-0.2432555854320526,0.47305819392204285,0.8325542211532593,0.6997061371803284,-0.12901723384857178,0.1550251543521881
1749034201.0504122,-3.8754408995257776,-1.022991494541504,-1.7390539646148682,3.169102354640625,-2.3297322432147425,4.36842155456543,-0.03864985704421997,0.0010488104308024049,-0.03711062669754028,0.03190803900361061,-0.03777693584561348,0.043834224343299866,-0.2092267870903015,0.48269960284233093,0.8528268337249756,0.7037545442581177,-0.15715530514717102,0.16160708665847778
1749034201.0504518,-3.8754408995257776,-1.022991494541504,-1.7390539646148682,3.169102354640625,-2.3297322432147425,4.36842155456543,-0.03864985704421997,0.0010488104308024049,-0.03711062669754028,0.03190803900361061,-0.03777693584561348,0.043834224343299866,-0.2092267870903015,0.48269960284233093,0.8528268337249756,0.7037545442581177,-0.15715530514717102,0.16160708665847778
1749034201.050489,-3.8755455652820032,-1.022991494541504,-1.7392100095748901,3.169252558345459,-2.3297980467425745,4.368569850921631,-0.033987049013376236,0.0007561961538158357,-0.031207727268338203,0.02855616994202137,-0.035130228847265244,0.0396442748606205,-0.22912254929542542,0.47416678071022034,0.8459843397140503,0.6950467228889465,-0.14826586842536926,0.16130897402763367
1749034201.0505261,-3.875629488621847,-1.023003415470459,-1.7392421960830688,3.1692730623432617,-2.3298779169665735,4.368645191192627,-0.03183881565928459,0.0006631380529142916,-0.030033225193619728,0.027064776048064232,-0.032718271017074585,0.036657627671957016,-0.21144482493400574,0.4882567226886749,0.8644007444381714,0.6950253248214722,-0.14182540774345398,0.17504583299160004
1749034201.0505633,-3.875629488621847,-1.023003415470459,-1.7392421960830688,3.1692730623432617,-2.3298779169665735,4.368645191192627,-0.03183881565928459,0.0006631380529142916,-0.030033225193619728,0.027064776048064232,-0.032718271017074585,0.036657627671957016,-0.21144482493400574,0.4882567226886749,0.8644007444381714,0.6950253248214722,-0.14182540774345398,0.17504583299160004
1749034201.0506003,-3.875706736241476,-1.0230221909335633,-1.739377737045288,3.1693340974995117,-2.3300278822528284,4.368776321411133,-0.027789175510406494,0.0005324047524482012,-0.027038995176553726,0.02367260679602623,-0.028795389458537102,0.032890643924474716,-0.21661816537380219,0.4741399586200714,0.8950919508934021,0.696935772895813,-0.12630155682563782,0.16245251893997192
1749034201.0506365,-3.875816885625021,-1.0229637187770386,-1.7394099235534668,3.1693903642841796,-2.3300493399249476,4.368890762329102,-0.026006871834397316,0.00048459964455105364,-0.024608701467514038,0.02094089426100254,-0.027946745976805687,0.0305172149091959,-0.18962445855140686,0.4472288489341736,0.9011417627334595,0.7124632596969604,-0.13260862231254578,0.15548084676265717
1749034201.0506732,-3.875816885625021,-1.0229637187770386,-1.7394099235534668,3.1693903642841796,-2.3300493399249476,4.368890762329102,-0.026006871834397316,0.00048459964455105364,-0.024608701467514038,0.02094089426100254,-0.027946745976805687,0.0305172149091959,-0.18962445855140686,0.4472288489341736,0.9011417627334595,0.7124632596969604,-0.13260862231254578,0.15548084676265717
1749034201.05071,-3.8758893648730677,-1.0229950708201905,-1.7395092248916626,3.1694695192524414,-2.330160681401388,4.3689866065979,-0.022196775302290916,0.0004107917775399983,-0.020350338891148567,0.01811799593269825,-0.02383517101407051,0.025695180520415306,-0.19960160553455353,0.46125683188438416,0.883490800857544,0.7163144946098328,-0.11993838101625443,0.15710969269275665
1749034201.0507472,-3.8758748213397425,-1.023022250538208,-1.7395107746124268,3.16951767980542,-2.330236260090963,4.368984222412109,-0.019821397960186005,0.0003817885590251535,-0.018789201974868774,0.01722206175327301,-0.02179836295545101,0.022578001022338867,-0.2085878998041153,0.4569191634654999,0.8962476253509521,0.6988509297370911,-0.1306913197040558,0.15238694846630096
1749034201.0507843,-3.8759267965899866,-1.0229720634273072,-1.7395743131637573,3.1695596414753417,-2.33026367822756,4.369047164916992,-0.01807238534092903,0.0003565769293345511,-0.017558107152581215,0.01644430123269558,-0.018091104924678802,0.021088413894176483,-0.2034933865070343,0.46339213848114014,0.9047030210494995,0.693240761756897,-0.1167820543050766,0.18060867488384247
1749034201.0508213,-3.8759923616992396,-1.0229950708201905,-1.739617109298706,3.169576807613037,-2.3302610556231897,4.369098663330078,-0.016291629523038864,0.0003344550495967269,-0.01471629273146391,0.015057485550642014,-0.017442991957068443,0.018699584528803825,-0.20527246594429016,0.4719792604446411,0.8835132718086243,0.677501916885376,-0.11305330693721771,0.16152028739452362
1749034201.0508578,-3.8759923616992396,-1.0229950708201905,-1.739617109298706,3.169576807613037,-2.3302610556231897,4.369098663330078,-0.016291629523038864,0.0003344550495967269,-0.01471629273146391,0.015057485550642014,-0.017442991957068443,0.018699584528803825,-0.20527246594429016,0.4719792604446411,0.8835132718086243,0.677501916885376,-0.11305330693721771,0.16152028739452362
1749034201.050899,-3.876014296208517,-1.023006872539856,-1.739634394645691,3.1696249681660156,-2.330270592366354,4.36913537979126,-0.013015994802117348,0.00029758462915197015,-0.011645317077636719,0.011963055469095707,-0.012922137975692749,0.014757209457457066,-0.2179768681526184,0.45364364981651306,0.9014750719070435,0.6824066638946533,-0.11476041376590729,0.16027091443538666
1749034201.050941,-3.8760483900653284,-1.0229720634273072,-1.7396736145019531,3.169614477748535,-2.330353323613302,4.369147300720215,-0.011570660397410393,0.0002820406516548246,-0.010587421245872974,0.010446282103657722,-0.01084408350288868,0.013258332386612892,-0.1904211938381195,0.45474350452423096,0.9173216819763184,0.6659189462661743,-0.14452573657035828,0.14635413885116577
1749034201.05098,-3.8760743776904505,-1.023003415470459,-1.7396701574325562,3.16962639867749,-2.330388132725851,4.369174957275391,-0.009823530912399292,0.00026806010282598436,-0.008642157539725304,0.008490283973515034,-0.009780154563486576,0.011789430864155293,-0.20681126415729523,0.4645259976387024,0.9242078065872192,0.6490422487258911,-0.11784050613641739,0.13440881669521332
1749034201.0510168,-3.8760862986194056,-1.0229720634273072,-1.7396939992904663,3.1696416574665527,-2.330400292073385,4.369218349456787,-0.007951727136969566,0.0002553656231611967,-0.005835983902215958,0.006375122349709272,-0.00890330970287323,0.009915986098349094,-0.1401732861995697,0.45808902382850647,0.9406852722167969,0.6208029389381409,-0.08886263519525528,0.1195419579744339
1749034201.051053,-3.8760862986194056,-1.0229720634273072,-1.7396939992904663,3.1696416574665527,-2.330400292073385,4.369218349456787,-0.007951727136969566,0.0002553656231611967,-0.005835983902215958,0.006375122349709272,-0.00890330970287323,0.009915986098349094,-0.1401732861995697,0.45808902382850647,0.9406852722167969,0.6208029389381409,-0.08886263519525528,0.1195419579744339
1749034201.0516698,-3.8760948816882532,-1.023003415470459,-1.7396905422210693,3.1696345049091796,-2.330377165471212,4.369246959686279,-0.002803415060043335,0.00023329685791395605,-0.0022615259513258934,0.0025582602247595787,-0.00370059278793633,0.005016887094825506,-0.10809232294559479,0.4558245837688446,0.9426155090332031,0.6147560477256775,-0.06187302619218826,0.14380590617656708
1749034201.0536392,-3.8760948816882532,-1.023003415470459,-1.7396905422210693,3.1696345049091796,-2.330377165471212,4.369246959686279,-0.002803415060043335,0.00023329685791395605,-0.0022615259513258934,0.0025582602247595787,-0.00370059278793633,0.005016887094825506,-0.10809232294559479,0.4558245837688446,0.9426155090332031,0.6147560477256775,-0.06187302619218826,0.14380590617656708
1749034201.0945365,-3.87614089647402,-1.0230292838862916,-1.7396717071533203,3.1696502405354003,-2.3303735891925257,4.369222640991211,-0.0009733702754601836,0.00022363611788023263,-0.0016565570840612054,0.0014023184776306152,-0.0018933492247015238,0.002908698981627822,-0.1086178869009018,0.45165833830833435,0.9643051624298096,0.6093761324882507,-0.036996401846408844,0.10345695912837982
1749034201.0946176,-3.8761239687549036,-1.0230139654925843,-1.739698886871338,3.1696535783955078,-2.3303616682635706,4.369200229644775,0.003617572132498026,0.00020652794046327472,-0.0003811043861787766,9.95261943899095e-05,-0.00028978101909160614,0.0008230938110500574,-0.1033795103430748,0.44712427258491516,0.9738943576812744,0.5720443725585938,-0.00476161390542984,0.08261919021606445
1749034201.094691,-3.876101557408468,-1.0230341714671631,-1.7396786212921143,3.169656916255615,-2.33034593263735,4.3692851066589355,0.0033278800547122955,0.00019891968986485153,-0.0001892866421258077,1.7587321053724736e-05,-5.120735295349732e-05,1.58096900122473e-05,-0.09588953107595444,0.4493873417377472,0.9956459999084473,0.569351077079773,0.0019511878490447998,0.0795285701751709
1749034201.094762,-3.876101557408468,-1.0230341714671631,-1.7396786212921143,3.169656916255615,-2.33034593263735,4.3692851066589355,0.0033278800547122955,0.00019891968986485153,-0.0001892866421258077,1.7587321053724736e-05,-5.120735295349732e-05,1.58096900122473e-05,-0.09588953107595444,0.4493873417377472,0.9956459999084473,0.569351077079773,0.0019511878490447998,0.0795285701751709
1749034201.0948322,-3.876061979924337,-1.022991494541504,-1.7396786212921143,3.1696693140217285,-2.330392901097433,4.369235038757324,0.004448714200407267,0.00018527088104747236,-8.404669642914087e-06,5.491921797329269e-07,0.001977379899471998,-0.0006978563615120947,-0.06991101056337357,0.4601602256298065,1.0250535011291504,0.5413548350334167,0.029701344668865204,0.05484844744205475
1749034201.0949028,-3.8760159651385706,-1.0229755204967041,-1.7396905422210693,3.169665976161621,-2.3303735891925257,4.369187831878662,0.00511422473937273,0.00017913283954840153,-5.487648877533502e-07,9.704803005661233e-08,0.0024846692103892565,-0.001575140398927033,-0.06620538979768753,0.4461986720561981,1.0205597877502441,0.5442519187927246,0.052521079778671265,0.051791638135910034
1749034201.0949724,-3.876050058995382,-1.022988037472107,-1.7396632432937622,3.1696464258381347,-2.3303616682635706,4.369194984436035,0.006229601334780455,0.00017337259487248957,-3.583042484933685e-08,1.7149405451277744e-08,0.002153952606022358,-0.003108841134235263,-0.05069226399064064,0.44081607460975647,1.053715467453003,0.5206776857376099,0.05028211325407028,0.04701501131057739
1749034201.095041,-3.8760295549975794,-1.0230258268168946,-1.7396632432937622,3.169656916255615,-2.3303616682635706,4.3691911697387695,0.006999603006988764,0.00016798038268461823,0.0017185520846396685,-0.0003009303181897849,0.0018117907457053661,-0.004160294309258461,-0.08610087633132935,0.46874359250068665,1.0461574792861938,0.5219120979309082,0.06657791137695312,0.04855829477310181
1749034201.0951114,-3.876019302998678,-1.0230104488185425,-1.7396820783615112,3.16962639867749,-2.330353323613302,4.369183540344238,0.005899279378354549,0.00018734064360614866,0.0018921630689874291,-0.001119070453569293,0.0016530717257410288,-0.004528833087533712,-0.06747160851955414,0.45153161883354187,1.0472463369369507,0.5357146263122559,0.07268993556499481,0.05600547790527344
1749034201.0951796,-3.8759990374194544,-1.0229950708201905,-1.7396478652954102,3.1696502405354003,-2.330365244542257,4.369194984436035,0.005286386702209711,0.0001844716607593,0.0015013536904007196,-0.0018043969757854939,0.0015606257366016507,-0.004327590111643076,-0.07139506936073303,0.49779728055000305,1.0437387228012085,0.5255017280578613,0.08373007923364639,0.033120423555374146
1749034201.0952485,-3.8760059515582483,-1.022988037472107,-1.7396667003631592,3.16964499532666,-2.330353323613302,4.369141578674316,0.004817525390535593,0.00017925557040143758,0.0013734326930716634,-0.002275764709338546,0.0021492275409400463,-0.0037930565886199474,-0.011493649333715439,0.47307077050209045,1.0525752305984497,0.5346072912216187,0.06979642808437347,0.039979517459869385
1749034201.0953155,-3.876014296208517,-1.022991494541504,-1.7396701574325562,3.1696416574665527,-2.330298964177267,4.369174957275391,0.00445968983694911,0.00017429016588721424,0.0011615981347858906,-0.002219492569565773,0.0027732294984161854,-0.003079051151871681,-0.02644963189959526,0.47844135761260986,1.0744472742080688,0.5387551188468933,0.0679335743188858,0.04115098714828491
1749034201.0953836,-3.876014296208517,-1.022991494541504,-1.7396701574325562,3.1696416574665527,-2.330298964177267,4.369174957275391,0.00445968983694911,0.00017429016588721424,0.0011615981347858906,-0.002219492569565773,0.0027732294984161854,-0.003079051151871681,-0.02644963189959526,0.47844135761260986,1.0744472742080688,0.5387551188468933,0.0679335743188858,0.04115098714828491
1749034201.0954325,-3.8760176340686243,-1.023006872539856,-1.7396701574325562,3.1696416574665527,-2.330306355153219,4.369179725646973,0.005174834746867418,0.0001695972023298964,0.0009362614946439862,-0.0020996127277612686,0.0029215754475444555,-0.0024508736096322536,-0.05127176269888878,0.49227309226989746,1.0794305801391602,0.5065773725509644,0.0841711238026619,0.02224591374397278
1749034201.0954707,-3.8759661356555384,-1.022991494541504,-1.7396478652954102,3.169614477748535,-2.330329481755392,4.369174957275391,0.003923312295228243,0.0001836929441196844,0.0008031516917981207,-0.0018824769649654627,0.003313252003863454,-0.0025248248130083084,-0.04012423753738403,0.5203603506088257,1.080284595489502,0.5121333599090576,0.08097557723522186,0.020424023270606995
1749034201.0955074,-3.8759587446795862,-1.0229637187770386,-1.7396632432937622,3.1696368890949707,-2.330301825200216,4.369140148162842,0.0030914591625332832,0.0001361172180622816,0.000760227907449007,-0.0021955121774226427,0.0031990809366106987,-0.002841321285814047,-0.04891794174909592,0.533427357673645,1.0758395195007324,0.5001236200332642,0.0943833738565445,0.023984193801879883
1749034201.095544,-3.8759589830981653,-1.0229720634273072,-1.7396513223648071,3.16962115346875,-2.330301825200216,4.369147300720215,0.0025755532551556826,0.0020998413674533367,0.0006814339431002736,-0.002617722610011697,0.002781365066766739,-0.0032067187130451202,-0.025037258863449097,0.5613197088241577,1.0725903511047363,0.49214935302734375,0.09064528346061707,0.030513659119606018
1749034201.09558,-3.875950638447897,-1.0230139058879395,-1.7396667003631592,3.169609232539795,-2.3303330580340784,4.369128227233887,0.0021032101940363646,0.004303051624447107,0.0006150412955321372,-0.0032279258593916893,0.0021890124771744013,-0.003064235206693411,-0.03616735339164734,0.5181432962417603,1.0547746419906616,0.48810458183288574,0.06601521372795105,0.030230343341827393
1749034201.0956168,-3.876000944768087,-1.0229790967753907,-1.7396632432937622,3.1695749002644042,-2.3303330580340784,4.369128227233887,0.001967159565538168,0.004872448276728392,0.000560286920517683,-0.0032127744052559137,0.0018081007292494178,-0.0029023773968219757,-0.021830961108207703,0.5083755254745483,1.0605108737945557,0.510732889175415,0.07801970839500427,0.02932339906692505
1749034201.095653,-3.876000944768087,-1.0229790967753907,-1.7396632432937622,3.1695749002644042,-2.3303330580340784,4.369128227233887,0.001967159565538168,0.004872448276728392,0.000560286920517683,-0.0032127744052559137,0.0018081007292494178,-0.0029023773968219757,-0.021830961108207703,0.5083755254745483,1.0605108737945557,0.510732889175415,0.07801970839500427,0.02932339906692505
1749034201.0957735,-3.8759422937976282,-1.0229552549174805,-1.7396786212921143,3.1695753771015625,-2.330336872731344,4.369139194488525,0.0017939596436917782,0.003081247676163912,0.0004756111593451351,-0.0021349499002099037,0.0016463844804093242,-0.0031405871268361807,-0.0023376531898975372,0.5467087030410767,1.0472674369812012,0.4878283143043518,0.10635103285312653,0.028219148516654968
1749034201.0976598,-3.8759854475604456,-1.0229637187770386,-1.7396632432937622,3.1695939737507324,-2.3303330580340784,4.369116306304932,0.001641352311708033,0.003386274678632617,0.00044220249401405454,-0.0017542536370456219,0.0022874861024320126,-0.003481769235804677,-0.051529258489608765,0.5206719040870667,1.0622127056121826,0.4813719391822815,0.10033799707889557,0.014078319072723389
1749034201.142359,-3.8759267965899866,-1.0229279559901734,-1.7396820783615112,3.16957871496167,-2.330270592366354,4.36913537979126,0.0014249365776777267,0.004849250894039869,0.0004131812311243266,-0.0015164752257987857,0.002702193334698677,-0.0034455014392733574,-0.025089532136917114,0.5006301403045654,1.067249059677124,0.4851647615432739,0.11157138645648956,0.0003672689199447632
1749034201.14241,-3.875949207936422,-1.0229314130595704,-1.7396786212921143,3.1695820528217773,-2.330297056828634,4.36913537979126,0.0013068412663415074,0.005218861158937216,0.0003877388371620327,-0.0014919902896508574,0.0027519352734088898,-0.003554841736331582,-0.04447151720523834,0.5236175656318665,1.0662747621536255,0.4965866804122925,0.11027497798204422,-0.007032707333564758
1749034201.1424518,-3.875935141240255,-1.0229348701289673,-1.7396905422210693,3.1695820528217773,-2.330270592366354,4.36912727355957,0.00117128633428365,0.005339510273188353,0.00036524797906167805,-0.00178724923171103,0.0029265955090522766,-0.004101441707462072,-0.05522587150335312,0.5164880752563477,1.0715841054916382,0.48310911655426025,0.14944706857204437,-0.014838024973869324
1749034201.1424906,-3.875969473515646,-1.0229194921306153,-1.7396632432937622,3.1695548731037597,-2.330336872731344,4.369122505187988,0.0010277957189828157,0.005127917043864727,0.0003692639875225723,-0.0017689422238618135,0.0033874723594635725,-0.006291969679296017,-0.017828628420829773,0.4953781068325043,1.0949565172195435,0.48383408784866333,0.1451762169599533,-0.01328970491886139
1749034201.1425323,-3.8759613672839563,-1.0228762787631531,-1.7396667003631592,3.1695729929157714,-2.3302815596209925,4.369083881378174,0.0008838580106385052,0.0047218818217515945,0.0003723879053723067,-0.001667104777880013,0.005444043781608343,-0.00839260034263134,-0.01943681389093399,0.5106996297836304,1.0955851078033447,0.5014541149139404,0.1496516317129135,-0.012137770652770996
1749034201.1425712,-3.8759613672839563,-1.0228762787631531,-1.7396667003631592,3.1695729929157714,-2.3302815596209925,4.369083881378174,0.0008838580106385052,0.0047218818217515945,0.0003723879053723067,-0.001667104777880013,0.005444043781608343,-0.00839260034263134,-0.01943681389093399,0.5106996297836304,1.0955851078033447,0.5014541149139404,0.1496516317129135,-0.012137770652770996
1749034201.1426094,-3.8759613672839563,-1.0228762787631531,-1.7396667003631592,3.1695729929157714,-2.3302815596209925,4.369083881378174,0.0008838580106385052,0.0047218818217515945,0.0003723879053723067,-0.001667104777880013,0.005444043781608343,-0.00839260034263134,-0.01943681389093399,0.5106996297836304,1.0955851078033447,0.5014541149139404,0.1496516317129135,-0.012137770652770996
1749034201.142654,-3.875930372868673,-1.0228867095759888,-1.7396701574325562,3.1695548731037597,-2.3302574793445032,4.369071006774902,0.000714589492417872,0.005354885943233967,0.001675724401138723,-0.0009484618785791099,0.008304265327751637,-0.012427743524312973,-0.019321754574775696,0.5158194303512573,1.128273844718933,0.5036076307296753,0.19303593039512634,-0.029473677277565002
1749034201.1426942,-3.875949207936422,-1.0228713315776368,-1.7396513223648071,3.169569655055664,-2.330233637486593,4.369012355804443,0.0005248988163657486,0.005035755690187216,0.0027805024292320013,-0.0008060700492933393,0.010082471184432507,-0.01312742754817009,-0.009771846234798431,0.49289044737815857,1.1117514371871948,0.4817466735839844,0.2150336652994156,-0.06674408912658691
1749034201.1427329,-3.875949207936422,-1.0228713315776368,-1.7396513223648071,3.169569655055664,-2.330233637486593,4.369012355804443,0.0005248988163657486,0.005035755690187216,0.0027805024292320013,-0.0008060700492933393,0.010082471184432507,-0.01312742754817009,-0.009771846234798431,0.49289044737815857,1.1117514371871948,0.4817466735839844,0.2150336652994156,-0.06674408912658691
1749034201.1427705,-3.875911537800924,-1.0228509467891236,-1.7396239042282104,3.1695729929157714,-2.3301737944232386,4.368988513946533,0.0006764870486222208,0.004340610466897488,0.002430099993944168,-0.0006196968024596572,0.01649240404367447,-0.017542174085974693,-0.02012084424495697,0.48225390911102295,1.135411024093628,0.49842894077301025,0.20665574073791504,-0.04044643044471741
1749034201.142812,-3.8759422937976282,-1.0228390258601685,-1.7396513223648071,3.1695729929157714,-2.3301690260516565,4.368956565856934,0.0013159040827304125,0.0035261246375739574,0.002330609131604433,-0.0005555963725782931,0.01823330670595169,-0.018070319667458534,-0.03955918550491333,0.5160568356513977,1.1518347263336182,0.5101068615913391,0.20401492714881897,-0.044026151299476624
1749034201.1428504,-3.875911537800924,-1.0228321117213746,-1.739646315574646,3.1695729929157714,-2.330113951359884,4.368940830230713,0.0012629705015569925,0.0030845922883599997,0.0027103277388960123,-0.0005035681533627212,0.01932646706700325,-0.01811225339770317,-0.022614672780036926,0.4858015775680542,1.1604970693588257,0.4981735944747925,0.18859532475471497,-0.041146814823150635
1749034201.1428874,-3.8759081999408167,-1.0228321117213746,-1.739627480506897,3.1695729929157714,-2.3300705591784876,4.368906497955322,0.0012057134881615639,0.002906146924942732,0.004953423514962196,-0.0004604822606779635,0.018560875207185745,-0.018629278987646103,-0.007013052701950073,0.5198574662208557,1.1708024740219116,0.5097277164459229,0.20367032289505005,-0.05606219172477722
1749034201.1429276,-3.8759081999408167,-1.0228321117213746,-1.739627480506897,3.1695729929157714,-2.3300705591784876,4.368906497955322,0.0012057134881615639,0.002906146924942732,0.004953423514962196,-0.0004604822606779635,0.018560875207185745,-0.018629278987646103,-0.007013052701950073,0.5198574662208557,1.1708024740219116,0.5097277164459229,0.20367032289505005,-0.05606219172477722
1749034201.1429653,-3.875930372868673,-1.0228117269328614,-1.7396379709243774,3.1695729929157714,-2.33000618616213,4.368896484375,0.0009485260234214365,0.004219170194119215,0.00537492148578167,-0.00039324472891166806,0.017968369647860527,-0.019471939653158188,-0.0019194930791854858,0.4944935142993927,1.1757357120513916,0.5125541090965271,0.20972204208374023,-0.08892945200204849
1749034201.1430018,-3.875891987477438,-1.0228082698634644,-1.7396190166473389,3.1695729929157714,-2.3299389521228235,4.368850231170654,0.0009379229159094393,0.004003401845693588,0.005202781409025192,-0.0003665034309960902,0.017666254192590714,-0.02140679769217968,0.018916554749011993,0.4901493787765503,1.1897852420806885,0.5047233700752258,0.19089028239250183,-0.08510006219148636
1749034201.1430385,-3.875911299382345,-1.0228117269328614,-1.7395946979522705,3.1695548731037597,-2.3299112955676478,4.3688178062438965,0.0009322281694039702,0.0036984109319746494,0.006005602423101664,-0.0003431726072449237,0.016924871131777763,-0.022712813690304756,-0.01169489324092865,0.4898039698600769,1.1889715194702148,0.5226985216140747,0.22355014085769653,-0.09613427519798279
1749034201.1430788,-3.8758893648730677,-1.0227998060039063,-1.7395827770233154,3.169569655055664,-2.329901997243063,4.368770122528076,0.0009429109049960971,0.0029460492078214884,0.007541204337030649,-0.00032263953471556306,0.016991427168250084,-0.025010982528328896,0.03170423209667206,0.49530792236328125,1.197658658027649,0.5219246745109558,0.21381282806396484,-0.10211583971977234
1749034201.143116,-3.8759151140796106,-1.022787408237793,-1.7395708560943604,3.1695548731037597,-2.3298984209643763,4.368746280670166,0.0012389409821480513,0.0024210039991885424,0.00913915503770113,-0.0003044277254957706,0.01791469007730484,-0.02678515575826168,0.04064497724175453,0.5057123899459839,1.186081886291504,0.5197182893753052,0.2246132791042328,-0.08458107709884644
1749034201.143153,-3.875906531010763,-1.0228187602809449,-1.7395554780960083,3.169569655055664,-2.329850498829977,4.368698596954346,0.0031756567768752575,0.0020725245121866465,0.00902840681374073,-0.0002881638938561082,0.018278688192367554,-0.028298882767558098,0.02042999118566513,0.5036957859992981,1.1988776922225952,0.5423647165298462,0.2327902615070343,-0.11941414326429367
1749034201.1432922,-3.875906531010763,-1.0228187602809449,-1.7395554780960083,3.169569655055664,-2.329850498829977,4.368698596954346,0.0031756567768752575,0.0020725245121866465,0.00902840681374073,-0.0002881638938561082,0.018278688192367554,-0.028298882767558098,0.02042999118566513,0.5036957859992981,1.1988776922225952,0.5423647165298462,0.2327902615070343,-0.11941414326429367
1749034201.1436956,-3.87589937845339,-1.022775487308838,-1.7395281791687012,3.169551058406494,-2.329810921345846,4.368700981140137,0.004063947591930628,0.0019912810530513525,0.009151340462267399,-0.0002735519374255091,0.018826253712177277,-0.029795609414577484,0.0023559927940368652,0.49298369884490967,1.226998209953308,0.5240585207939148,0.22073863446712494,-0.1275399923324585
1749034201.1862948,-3.8758748213397425,-1.022775487308838,-1.7394646406173706,3.169538660640381,-2.3297234217273157,4.36855936050415,0.004249490797519684,0.0022103656083345413,0.011004437692463398,-0.0002483674034010619,0.020790109410881996,-0.03392168879508972,-0.002390991896390915,0.5177997350692749,1.226690649986267,0.5304426550865173,0.25791704654693604,-0.13984864950180054
1749034201.18634,-3.8758629004107874,-1.022775487308838,-1.7394869327545166,3.169576807613037,-2.3296828905688685,4.368483543395996,0.004826673772186041,0.00251496909186244,0.011746013537049294,-0.00023743869678582996,0.022084109485149384,-0.03691535070538521,0.009778197854757309,0.4842677116394043,1.2269550561904907,0.53669273853302,0.3021434545516968,-0.1500236988067627
1749034201.1863794,-3.8758629004107874,-1.022775487308838,-1.7394357919692993,3.1695925432392578,-2.329620424901144,4.368403434753418,0.004895579069852829,0.00213497132062912,0.013110760599374771,-0.00022743178124073893,0.023880546912550926,-0.03883574903011322,0.025996550917625427,0.5036078691482544,1.2258614301681519,0.5446301698684692,0.3112353980541229,-0.15410549938678741
1749034201.1864183,-3.8758583704577845,-1.022782341842987,-1.7394511699676514,3.1695548731037597,-2.329564158116476,4.3683366775512695,0.005845864303410053,0.0019245289731770754,0.013927268795669079,-0.0001885606616269797,0.025614121928811073,-0.04089901223778725,0.03078458085656166,0.4889114201068878,1.2164627313613892,0.5312789678573608,0.3227374851703644,-0.1357795149087906
1749034201.1864567,-3.8758512179004114,-1.022775487308838,-1.7393995523452759,3.169558210963867,-2.3295281569110315,4.368222236633301,0.0053695072419941425,0.0019933530129492283,0.014221543446183205,-0.000175978391780518,0.030136283487081528,-0.0431777648627758,0.031851835548877716,0.5073245763778687,1.2159252166748047,0.5366173982620239,0.3233150839805603,-0.15908578038215637
1749034201.186494,-3.8758774439441126,-1.022778944378235,-1.7393722534179688,3.1695548731037597,-2.329491202031271,4.368173122406006,0.005016077775508165,0.002509204437956214,0.01359692495316267,-0.000168465034221299,0.032095395028591156,-0.04498191922903061,0.04622650891542435,0.4904226064682007,1.2340481281280518,0.5538778901100159,0.3251558542251587,-0.1757349967956543
1749034201.1865335,-3.8758464495288294,-1.0227670234492798,-1.7393672466278076,3.1695548731037597,-2.3293843905078333,4.368062973022461,0.0060723815113306046,0.0031684483401477337,0.01360189076513052,-0.0001622256386326626,0.03551680967211723,-0.046289265155792236,0.04065454378724098,0.4828106462955475,1.2331962585449219,0.5500955581665039,0.3207700848579407,-0.17283743619918823
1749034201.1865742,-3.875842873250143,-1.0227174919894715,-1.7393239736557007,3.1695729929157714,-2.329336706792013,4.367990493774414,0.0070426794700324535,0.0028140144422650337,0.013665412552654743,-0.00015655065362807363,0.0377068892121315,-0.04826323688030243,0.036722831428050995,0.5058826804161072,1.2333855628967285,0.5593876838684082,0.32318317890167236,-0.1816416084766388
1749034201.1866124,-3.8758190313922327,-1.022785798912384,-1.739284873008728,3.169558210963867,-2.3292489687549036,4.367863655090332,0.007426547352224588,0.0022014030255377293,0.014331327751278877,-0.00015128075028769672,0.03914690390229225,-0.05036630854010582,0.03161817789077759,0.4795175790786743,1.2367407083511353,0.5667882561683655,0.32878178358078003,-0.19288241863250732
1749034201.1866496,-3.875796143208639,-1.0227516454509278,-1.7392867803573608,3.169558210963867,-2.3291340509997767,4.367741107940674,0.006923092063516378,0.0016321948496624827,0.013797705993056297,-0.00012959430750925094,0.041656848043203354,-0.05180560424923897,0.05870385468006134,0.4745878279209137,1.2276753187179565,0.5646837949752808,0.3254311680793762,-0.1900615692138672
1749034201.1866868,-3.875803534184591,-1.0227516454509278,-1.7392317056655884,3.1695892053791503,-2.329074207936422,4.36763858795166,0.006773408502340317,0.0014739222824573517,0.014351112768054008,-0.00011560703569557518,0.04389273747801781,-0.05231723189353943,0.056834626942873,0.5035486221313477,1.2581992149353027,0.5734093189239502,0.35567158460617065,-0.21017995476722717
1749034201.186724,-3.875810686741964,-1.0227585595897217,-1.7392078638076782,3.169569655055664,-2.329001251851217,4.367529392242432,0.008146615698933601,0.0012277167988941073,0.014222619123756886,-9.050624066730961e-05,0.04639429971575737,-0.054543670266866684,0.05283274129033089,0.4805068075656891,1.248070478439331,0.5626355409622192,0.3214573264122009,-0.20123009383678436
1749034201.1867607,-3.8758097330676478,-1.0227502149394532,-1.739168643951416,3.1695892053791503,-2.328913990651266,4.367456912994385,0.007829172536730766,0.0008208185317926109,0.01511177234351635,-8.157747652148828e-05,0.047748006880283356,-0.05709826201200485,0.051688335835933685,0.5155543684959412,1.2562505006790161,0.5705586671829224,0.3315526247024536,-0.19793567061424255
1749034201.1868026,-3.8757360617267054,-1.0227208894542237,-1.7391595840454102,3.169551058406494,-2.3287747542010706,4.367302894592285,0.008011949248611927,0.0009177089668810368,0.014858505688607693,3.070594175369479e-05,0.04837556555867195,-0.05827241763472557,0.08528397232294083,0.4882153570652008,1.2434329986572266,0.5944404602050781,0.3136175870895386,-0.1845836192369461
1749034201.1868403,-3.875727955495016,-1.0227362674525757,-1.7391393184661865,3.169569655055664,-2.3287535349475306,4.367187023162842,0.007955755107104778,0.0009510162053629756,0.015606584027409554,7.110829756129533e-05,0.04807986691594124,-0.057072270661592484,0.07997271418571472,0.503133237361908,1.2443434000015259,0.5842756032943726,0.33216744661331177,-0.20724564790725708
1749034201.186894,-3.875727955495016,-1.0227362674525757,-1.7391393184661865,3.169569655055664,-2.3287535349475306,4.367187023162842,0.007955755107104778,0.0009510162053629756,0.015606584027409554,7.110829756129533e-05,0.04807986691594124,-0.057072270661592484,0.07997271418571472,0.503133237361908,1.2443434000015259,0.5842756032943726,0.33216744661331177,-0.20724564790725708
1749034201.186934,-3.8757386843310755,-1.0227397245219727,-1.7390797138214111,3.1695663171955566,-2.3285115400897425,4.366987705230713,0.007985028438270092,0.0013544288231059909,0.015081292018294334,0.00012061400047969073,0.0497090183198452,-0.057394009083509445,0.07266111671924591,0.4970366060733795,1.2479974031448364,0.5941886901855469,0.36148589849472046,-0.23163601756095886
1749034201.1869714,-3.8756993452655237,-1.0227501553348084,-1.7390673160552979,3.1695939737507324,-2.3283966223346155,4.3668212890625,0.007984912022948265,0.0012738872319459915,0.015710854902863503,0.000688693777192384,0.05120083689689636,-0.05899473652243614,0.05197989195585251,0.5060272812843323,1.2540861368179321,0.582882285118103,0.3488406538963318,-0.2301032692193985
1749034201.1870081,-3.8756993452655237,-1.0227501553348084,-1.7390673160552979,3.1695939737507324,-2.3283966223346155,4.3668212890625,0.007984912022948265,0.0012738872319459915,0.015710854902863503,0.000688693777192384,0.05120083689689636,-0.05899473652243614,0.05197989195585251,0.5060272812843323,1.2540861368179321,0.582882285118103,0.3488406538963318,-0.2301032692193985
1749034201.1870449,-3.8756240049945276,-1.0227124255946656,-1.7389888763427734,3.169551058406494,-2.3282745520221155,4.366539478302002,0.008389551192522049,0.0009239676874130964,0.015162298455834389,0.0007960536750033498,0.05248412862420082,-0.06426640599966049,0.051560401916503906,0.5016310811042786,1.2743114233016968,0.6053692102432251,0.35757148265838623,-0.2309090495109558
1749034201.187082,-3.875666681920187,-1.022719458942749,-1.73895263671875,3.1696130472370605,-2.32815128961672,4.3664398193359375,0.007865292020142078,0.000766551704145968,0.015232947655022144,0.000766067358199507,0.053003888577222824,-0.06616882234811783,0.059721849858760834,0.4933342933654785,1.2638839483261108,0.6002905964851379,0.36525213718414307,-0.207488551735878
1749034201.1876802,-3.8756614367114466,-1.0227208894542237,-1.738940715789795,3.1695939737507324,-2.328008476887838,4.366327285766602,0.007465428207069635,0.0007718738634139299,0.015602454543113708,0.0007163349073380232,0.0539061576128006,-0.06602472066879272,0.061754561960697174,0.4993152618408203,1.2714052200317383,0.6119142770767212,0.37686511874198914,-0.21159732341766357
1749034201.1897535,-3.8756614367114466,-1.0227208894542237,-1.738940715789795,3.1695939737507324,-2.328008476887838,4.366327285766602,0.007465428207069635,0.0007718738634139299,0.015602454543113708,0.0007163349073380232,0.0539061576128006,-0.06602472066879272,0.061754561960697174,0.4993152618408203,1.2714052200317383,0.6119142770767212,0.37686511874198914,-0.21159732341766357
1749034201.2343035,-3.8756113688098353,-1.0227312606624146,-1.7389013767242432,3.1695853906818847,-2.3279128710376185,4.366185188293457,0.007974187843501568,0.0006857967237010598,0.015855032950639725,0.0007144723203964531,0.05514790862798691,-0.06590168923139572,0.07842104136943817,0.5184692740440369,1.2695070505142212,0.6167984008789062,0.3758581280708313,-0.2454439103603363
1749034201.2343493,-3.87559158006777,-1.022719458942749,-1.7388930320739746,3.1695820528217773,-2.327796761189596,4.366003036499023,0.008253620006144047,0.0007065627723932266,0.016404714435338974,0.000675300951115787,0.05695442482829094,-0.06913791596889496,0.07924386858940125,0.4813193380832672,1.2722142934799194,0.6243311762809753,0.364141583442688,-0.21012535691261292
1749034201.2343893,-3.8756096998797815,-1.0227551025203248,-1.738836407661438,3.169569655055664,-2.3275883833514612,4.365724563598633,0.00818102341145277,0.0006593692814931273,0.016750579699873924,0.00069380336208269,0.054884910583496094,-0.07194820046424866,0.06278297305107117,0.5249141454696655,1.2855902910232544,0.6257174015045166,0.3887059986591339,-0.2014407217502594
1749034201.2344284,-3.875554863606588,-1.0227089685252686,-1.7388160228729248,3.1696130472370605,-2.3274927775012415,4.365596294403076,0.007793053053319454,0.0006111591937951744,0.016699111089110374,0.0007328627398237586,0.056579701602458954,-0.07301949709653854,0.07493822276592255,0.4979618489742279,1.2983731031417847,0.6233446598052979,0.385559618473053,-0.18434098362922668
1749034201.234466,-3.87553579012026,-1.022761957054474,-1.7387644052505493,3.1695939737507324,-2.3273265997516077,4.365457057952881,0.008132210932672024,0.000551373406779021,0.017430514097213745,0.0010649908799678087,0.0586225725710392,-0.07282868772745132,0.10577015578746796,0.555733323097229,1.3055636882781982,0.6362990140914917,0.40098145604133606,-0.19387295842170715
1749034201.2345037,-3.8755393663989466,-1.0227704805186768,-1.738725185394287,3.16959731161084,-2.32719856897463,4.365313529968262,0.008263925090432167,0.0006097252480685711,0.019011011347174644,0.0011665135389193892,0.05902336537837982,-0.07315666973590851,0.07553720474243164,0.5397869944572449,1.2924213409423828,0.6614725589752197,0.40327727794647217,-0.21220023930072784
1749034201.2345417,-3.8755345980273646,-1.0227397245219727,-1.7387237548828125,3.169590635890625,-2.327071730290548,4.365227699279785,0.009112200699746609,0.0015793477650731802,0.019124751910567284,0.001168245100416243,0.06024874374270439,-0.07224620878696442,0.09207278490066528,0.5326060056686401,1.297450065612793,0.6666286587715149,0.3924044370651245,-0.22392499446868896
1749034201.234579,-3.8755138556109827,-1.0227278035930176,-1.7386531829833984,3.1695939737507324,-2.3269830385791224,4.365042686462402,0.008754334412515163,0.0017574202502146363,0.01925799436867237,0.001319353235885501,0.06308646500110626,-0.074241042137146,0.07051639258861542,0.5304369330406189,1.289739727973938,0.6507687568664551,0.3733384609222412,-0.19246557354927063
1749034201.234616,-3.875471893941061,-1.0226811331561585,-1.7386174201965332,3.169609232539795,-2.32683235803713,4.364902973175049,0.00834026001393795,0.002477172529324889,0.018985308706760406,0.0013811163371428847,0.06330787390470505,-0.07426315546035767,0.10078664869070053,0.5276564955711365,1.313322901725769,0.6605964303016663,0.3842041492462158,-0.20866866409778595
1749034201.2346535,-3.875467363988058,-1.0227158826640625,-1.7385965585708618,3.169614477748535,-2.3267234007464808,4.364712715148926,0.009634030982851982,0.0027373014017939568,0.019129330292344093,0.0015997954178601503,0.06239238753914833,-0.07495830208063126,0.0801720917224884,0.5124004483222961,1.3380475044250488,0.6675896644592285,0.37863123416900635,-0.20634883642196655
1749034201.2346907,-3.8754590193377894,-1.0226691526225586,-1.7385488748550415,3.1696058946796875,-2.3266189734088343,4.364562511444092,0.009316818788647652,0.0025268238969147205,0.020061001181602478,0.0018277158960700035,0.06180503964424133,-0.07555743306875229,0.07491382956504822,0.5147324800491333,1.3145109415054321,0.670068621635437,0.395643949508667,-0.210109144449234
1749034201.2347267,-3.8754316012011927,-1.022679643040039,-1.7385238409042358,3.1696058946796875,-2.3264766375171106,4.364468097686768,0.009510168805718422,0.002488449914380908,0.02162305638194084,0.002470433944836259,0.06438080221414566,-0.075318343937397,0.0929834246635437,0.4936997592449188,1.31232488155365,0.6796703338623047,0.3868246078491211,-0.21395869553089142
1749034201.2347631,-3.8754316012011927,-1.022679643040039,-1.7385238409042358,3.1696058946796875,-2.3264766375171106,4.364468097686768,0.009510168805718422,0.002488449914380908,0.02162305638194084,0.002470433944836259,0.06438080221414566,-0.075318343937397,0.0929834246635437,0.4936997592449188,1.31232488155365,0.6796703338623047,0.3868246078491211,-0.21395869553089142
1749034201.2347991,-3.8754189650165003,-1.022657410507538,-1.7384127378463745,3.1696488100239257,-2.3262444178210657,4.364123344421387,0.009253785945475101,0.0020754667930305004,0.021962512284517288,0.002959206234663725,0.06594149023294449,-0.07982754707336426,0.10540159791707993,0.5419471859931946,1.301878809928894,0.6803207993507385,0.4108479917049408,-0.23628516495227814
1749034201.234835,-3.875383440648214,-1.0226950210383912,-1.7383617162704468,3.1696178156086425,-2.3260815779315394,4.363955974578857,0.009154126048088074,0.0019150243606418371,0.02284407801926136,0.002791397739201784,0.06596381962299347,-0.07942751795053482,0.13032133877277374,0.5273260474205017,1.3112770318984985,0.6911394596099854,0.4268408715724945,-0.2331998646259308
1749034201.2348714,-3.875366751347677,-1.022664265041687,-1.7383288145065308,3.1696178156086425,-2.325925890599386,4.363797187805176,0.010157719254493713,0.0023177792318165302,0.02369413711130619,0.0027450707275420427,0.06640701740980148,-0.07922357320785522,0.13843338191509247,0.5028818249702454,1.3104928731918335,0.687639057636261,0.43473440408706665,-0.2491181194782257
1749034201.2349074,-3.875366751347677,-1.022664265041687,-1.7383288145065308,3.1696178156086425,-2.325925890599386,4.363797187805176,0.010157719254493713,0.0023177792318165302,0.02369413711130619,0.0027450707275420427,0.06640701740980148,-0.07922357320785522,0.13843338191509247,0.5028818249702454,1.3104928731918335,0.687639057636261,0.43473440408706665,-0.2491181194782257
1749034201.234944,-3.875359598790304,-1.022679643040039,-1.738293170928955,3.169656916255615,-2.3257630507098597,4.36361837387085,0.0100069809705019,0.0027753058820962906,0.024080615490674973,0.0031616734340786934,0.06812548637390137,-0.08163455873727798,0.1040252074599266,0.5177468657493591,1.3083173036575317,0.7062917351722717,0.4262210726737976,-0.24540334939956665
1749034201.2349806,-3.87533408800234,-1.0227018755725403,-1.7381854057312012,3.1696383196064453,-2.3255534807788294,4.363275527954102,0.00993225909769535,0.002746487967669964,0.024527736008167267,0.004032977856695652,0.07213465869426727,-0.08965165913105011,0.11705430597066879,0.49948832392692566,1.3207279443740845,0.6877804398536682,0.4395759403705597,-0.23141361773014069
1749034201.235017,-3.8753066698657435,-1.0226438802531739,-1.7381218671798706,3.1696879106708984,-2.32535964647402,4.36306619644165,0.01075371541082859,0.0026653774548321962,0.025255898013710976,0.004540955647826195,0.07445986568927765,-0.09104816615581512,0.11959676444530487,0.5177872180938721,1.3121888637542725,0.6906084418296814,0.4278795123100281,-0.2129327952861786
1749034201.2350533,-3.8753066698657435,-1.0226438802531739,-1.7381218671798706,3.1696879106708984,-2.32535964647402,4.36306619644165,0.01075371541082859,0.0026653774548321962,0.025255898013710976,0.004540955647826195,0.07445986568927765,-0.09104816615581512,0.11959676444530487,0.5177872180938721,1.3121888637542725,0.6906084418296814,0.4278795123100281,-0.2129327952861786
1749034201.2350893,-3.8752599398242396,-1.022671179180481,-1.7380707263946533,3.1696807581135253,-2.3252349535571497,4.3629021644592285,0.010762509889900684,0.002663323422893882,0.025567255914211273,0.005165620241314173,0.07663866877555847,-0.09160882979631424,0.11834722757339478,0.5388829112052917,1.3239099979400635,0.6918951869010925,0.41699397563934326,-0.2286522090435028
1749034201.2357032,-3.875234667454855,-1.0226438802531739,-1.7379692792892456,3.1696931558796386,-2.324904505406515,4.362570762634277,0.011952449567615986,0.0032205625902861357,0.026296459138393402,0.005320976488292217,0.08015526086091995,-0.09682126343250275,0.1263882964849472,0.5065434575080872,1.3187487125396729,0.6801704168319702,0.43172183632850647,-0.1920156478881836
1749034201.2376428,-3.875234667454855,-1.0226438802531739,-1.7379692792892456,3.1696931558796386,-2.324904505406515,4.362570762634277,0.011952449567615986,0.0032205625902861357,0.026296459138393402,0.005320976488292217,0.08015526086091995,-0.09682126343250275,0.1263882964849472,0.5065434575080872,1.3187487125396729,0.6801704168319702,0.43172183632850647,-0.1920156478881836
1749034201.2823002,-3.875176016484396,-1.0226319593242188,-1.7378699779510498,3.1697327333637695,-2.3246074358569544,4.362071514129639,0.011285640299320221,0.003475907724350691,0.02692866139113903,0.005694168154150248,0.08252958953380585,-0.10028688609600067,0.11741544306278229,0.48495614528656006,1.323119878768921,0.6809460520744324,0.4131821393966675,-0.19335949420928955
1749034201.282347,-3.8751679102527063,-1.0226660531810303,-1.737841248512268,3.1697375017353515,-2.3243983427630823,4.3618998527526855,0.011165966279804707,0.0027131331153213978,0.02839607559144497,0.00535228755325079,0.08454623073339462,-0.0993073359131813,0.15797078609466553,0.511929988861084,1.309786081314087,0.6968349814414978,0.4107065200805664,-0.16979102790355682
1749034201.282388,-3.875143353139059,-1.0226473373225708,-1.7377623319625854,3.169734163875244,-2.32424241701235,4.361743927001953,0.010022039525210857,0.002402819227427244,0.029058409854769707,0.005636624991893768,0.0852971225976944,-0.09901750087738037,0.1342947781085968,0.5059444904327393,1.305958867073059,0.6888035535812378,0.3925497829914093,-0.17986060678958893
1749034201.282431,-3.8751543203936976,-1.0225886863521119,-1.737721562385559,3.16978041707959,-2.3240819613086146,4.361513137817383,0.009869907051324844,0.002207905752584338,0.028393521904945374,0.005366557277739048,0.08587516099214554,-0.0988357663154602,0.1331978738307953,0.527288556098938,1.2978533506393433,0.6760690808296204,0.4137396216392517,-0.20855294167995453
1749034201.2824705,-3.8751543203936976,-1.0225886863521119,-1.737721562385559,3.16978041707959,-2.3240819613086146,4.361513137817383,0.009869907051324844,0.002207905752584338,0.028393521904945374,0.005366557277739048,0.08587516099214554,-0.0988357663154602,0.1331978738307953,0.527288556098938,1.2978533506393433,0.6760690808296204,0.4137396216392517,-0.20855294167995453
1749034201.2825086,-3.875114981328146,-1.022604064350464,-1.7376734018325806,3.16978041707959,-2.3238521257983606,4.361314296722412,0.010127397254109383,0.002017078921198845,0.027998533099889755,0.005116431973874569,0.08604006469249725,-0.09809906780719757,0.12200481444597244,0.5146661996841431,1.326431155204773,0.6820669770240784,0.37936586141586304,-0.20197363197803497
1749034201.282547,-3.875075642262594,-1.0226270717433472,-1.7375468015670776,3.1697885233112792,-2.3235719839679163,4.360912322998047,0.01009642519056797,0.002514753956347704,0.030558165162801743,0.005107795353978872,0.08306484669446945,-0.09685802459716797,0.13979676365852356,0.5135344862937927,1.2949647903442383,0.6835483312606812,0.4061477780342102,-0.24001823365688324
1749034201.2825885,-3.875075642262594,-1.0226270717433472,-1.7375468015670776,3.1697885233112792,-2.3235719839679163,4.360912322998047,0.01009642519056797,0.002514753956347704,0.030558165162801743,0.005107795353978872,0.08306484669446945,-0.09685802459716797,0.13979676365852356,0.5135344862937927,1.2949647903442383,0.6835483312606812,0.4061477780342102,-0.24001823365688324
1749034201.2826269,-3.8750513235675257,-1.0225886863521119,-1.7374299764633179,3.1698004442402343,-2.3232317606555384,4.360522270202637,0.010096696205437183,0.002696920419111848,0.03130361810326576,0.005770012736320496,0.08667077124118805,-0.09925413876771927,0.16486744582653046,0.5258089900016785,1.2976922988891602,0.673770546913147,0.3996833562850952,-0.23219308257102966
1749034201.2826636,-3.8750394026385706,-1.0225991767695923,-1.737367033958435,3.1698123651691894,-2.3230677286731165,4.360322952270508,0.010657048784196377,0.002841330599039793,0.03219826892018318,0.005954944062978029,0.08479530364274979,-0.09884770214557648,0.13889871537685394,0.5019465088844299,1.2869923114776611,0.6810914874076843,0.4407964050769806,-0.250784307718277
1749034201.2827008,-3.875011984501974,-1.0226144951632996,-1.7372831106185913,3.169809027309082,-2.3228769938098353,4.360140323638916,0.01083980780094862,0.0030455421656370163,0.03115140274167061,0.005510208662599325,0.08527003973722458,-0.09876681864261627,0.14584611356258392,0.48758649826049805,1.2808148860931396,0.6733123064041138,0.4397345185279846,-0.2720518112182617
1749034201.28274,-3.8749881426440638,-1.0225564998439332,-1.7372382879257202,3.169809027309082,-2.3227058092700403,4.3598856925964355,0.011034033261239529,0.0034652838949114084,0.030206043273210526,0.005086388438940048,0.0865451917052269,-0.10049459338188171,0.15737281739711761,0.5016113519668579,1.3128846883773804,0.6958949565887451,0.4538919925689697,-0.2871509790420532
1749034201.282778,-3.8749361673938196,-1.0225564998439332,-1.7371753454208374,3.169848604793213,-2.3225768248187464,4.35972261428833,0.011459318920969963,0.0029882576782256365,0.031634796410799026,0.004703867714852095,0.09111887961626053,-0.1065615564584732,0.16764412820339203,0.5197944045066833,1.2932294607162476,0.6909950971603394,0.4441271424293518,-0.2876144051551819
1749034201.2828162,-3.8749399820910853,-1.0225718778422852,-1.7371306419372559,3.169848604793213,-2.3223887125598353,4.359476566314697,0.010934966616332531,0.002703209640458226,0.032509397715330124,0.004923626314848661,0.09404303133487701,-0.11132757365703583,0.17411993443965912,0.5218976140022278,1.2768782377243042,0.701912522315979,0.43043845891952515,-0.26010382175445557
1749034201.2828536,-3.8749352137195032,-1.022553102379181,-1.7370516061782837,3.1698600488850097,-2.322179142628805,4.359253883361816,0.011435690335929394,0.002320467261597514,0.0324699841439724,0.004929777234792709,0.09240252524614334,-0.11105668544769287,0.16690149903297424,0.5093104243278503,1.284193992614746,0.6895706653594971,0.43521279096603394,-0.2741585373878479
1749034201.2828941,-3.874899450932638,-1.0225599569133301,-1.7369921207427979,3.1698762613483886,-2.3220377604113978,4.359007358551025,0.012577029876410961,0.002378205070272088,0.03203858062624931,0.004778074566274881,0.09454692900180817,-0.11642718315124512,0.16384141147136688,0.512942373752594,1.2967711687088013,0.6948971748352051,0.451201856136322,-0.27190110087394714
1749034201.2829356,-3.8748486677752894,-1.022551493053772,-1.736899733543396,3.169903441066406,-2.3218067328082483,4.3587565422058105,0.011682731099426746,0.0027200141921639442,0.032313015311956406,0.005602418910712004,0.09851861000061035,-0.1197548359632492,0.16316945850849152,0.5085237622261047,1.2916159629821777,0.704882025718689,0.44571566581726074,-0.23747923970222473
1749034201.2829726,-3.8748441378222864,-1.0225704473308106,-1.7368478775024414,3.1698776918598632,-2.321620051060812,4.358495235443115,0.01143439207226038,0.002908348338678479,0.03262332081794739,0.005571099929511547,0.10076954960823059,-0.12051080912351608,0.18724286556243896,0.5072154998779297,1.300225853919983,0.6693800091743469,0.425400972366333,-0.2315472513437271
1749034201.2830093,-3.8748045603381556,-1.0225550097278138,-1.7367912530899048,3.1699082094379882,-2.3214126268969935,4.358306884765625,0.01129636075347662,0.0027517082635313272,0.03283919766545296,0.005427406169474125,0.10339854657649994,-0.12226387113332748,0.1967545747756958,0.5099579095840454,1.2881603240966797,0.666120171546936,0.42606550455093384,-0.2415972352027893
1749034201.2830532,-3.8748045603381556,-1.0225550097278138,-1.7367912530899048,3.1699082094379882,-2.3214126268969935,4.358306884765625,0.01129636075347662,0.0027517082635313272,0.03283919766545296,0.005427406169474125,0.10339854657649994,-0.12226387113332748,0.1967545747756958,0.5099579095840454,1.2881603240966797,0.666120171546936,0.42606550455093384,-0.2415972352027893
1749034201.2830908,-3.874807421361105,-1.022548035984375,-1.7367199659347534,3.169896288509033,-2.3211851755725306,4.35803747177124,0.011899815872311592,0.0026956500951200724,0.03269951045513153,0.005012623965740204,0.10333678126335144,-0.12135498225688934,0.16256141662597656,0.49805858731269836,1.3044675588607788,0.688303530216217,0.43261468410491943,-0.22867389023303986
1749034201.2831275,-3.874751869832174,-1.0225117963603516,-1.7365878820419312,3.1699201303669433,-2.320754114781515,4.3575663566589355,0.012422057799994946,0.0033115593250840902,0.033438559621572495,0.004395308438688517,0.10897882282733917,-0.12076623737812042,0.18762582540512085,0.5167298913002014,1.3297797441482544,0.6833332777023315,0.385812908411026,-0.25498300790786743
1749034201.283676,-3.874739948903219,-1.0224844974330445,-1.736515760421753,3.169947786922119,-2.3205626646624964,4.357339859008789,0.013044473715126514,0.003129360731691122,0.03379800543189049,0.005334571469575167,0.10589524358510971,-0.12184535712003708,0.17442385852336884,0.5026846528053284,1.3372622728347778,0.6877337098121643,0.40784743428230286,-0.2786143720149994
1749034201.2856667,-3.874739948903219,-1.0224844974330445,-1.736515760421753,3.169947786922119,-2.3205626646624964,4.357339859008789,0.013044473715126514,0.003129360731691122,0.03379800543189049,0.005334571469575167,0.10589524358510971,-0.12184535712003708,0.17442385852336884,0.5026846528053284,1.3372622728347778,0.6877337098121643,0.40784743428230286,-0.2786143720149994
1749034201.3262973,-3.8747025171863,-1.0224964183619996,-1.736380696296692,3.1699372965046386,-2.3201196829425257,4.356822967529297,0.01287330687046051,0.0029126370791345835,0.03397032991051674,0.0059801689349114895,0.10981272906064987,-0.12351604551076889,0.19620278477668762,0.5117723345756531,1.3279653787612915,0.6871374249458313,0.4167049527168274,-0.3055308163166046
1749034201.326347,-3.8746560255633753,-1.0225152534297486,-1.7363240718841553,3.1699678140827636,-2.3198815027820032,4.356541633605957,0.012734792195260525,0.002734615933150053,0.03430534526705742,0.00514901801943779,0.10999811440706253,-0.12674851715564728,0.19211265444755554,0.47159451246261597,1.3427691459655762,0.6860684752464294,0.4047470688819885,-0.31552720069885254
1749034201.3263872,-3.8745885531054896,-1.0224844974330445,-1.7362868785858154,3.169961138362549,-2.319681469594137,4.35629415512085,0.013582470826804638,0.002500430215150118,0.034850239753723145,0.004477787297219038,0.10563690960407257,-0.1338696926832199,0.20181605219841003,0.4871528744697571,1.346149206161499,0.6882741451263428,0.4329022467136383,-0.27203449606895447
1749034201.3264258,-3.8745885531054896,-1.0224844974330445,-1.7362868785858154,3.169961138362549,-2.319681469594137,4.35629415512085,0.013582470826804638,0.002500430215150118,0.034850239753723145,0.004477787297219038,0.10563690960407257,-0.1338696926832199,0.20181605219841003,0.4871528744697571,1.346149206161499,0.6882741451263428,0.4329022467136383,-0.27203449606895447
1749034201.3264637,-3.87461501756777,-1.0224879545024415,-1.7361611127853394,3.1699840265461425,-2.3195160071002405,4.356038570404053,0.013417668640613556,0.002605859888717532,0.034912433475255966,0.004121935460716486,0.10711745172739029,-0.13562864065170288,0.21138255298137665,0.5246126055717468,1.3703855276107788,0.709258496761322,0.43142345547676086,-0.2639450430870056
1749034201.3265018,-3.8745253721820276,-1.0224879545024415,-1.736060380935669,3.1700350481220703,-2.319010559712545,4.355470657348633,0.014109218493103981,0.0025321159046143293,0.036091286689043045,0.00580050190910697,0.1114746481180191,-0.1439466029405594,0.2062128484249115,0.518375039100647,1.3485870361328125,0.6901000738143921,0.43821340799331665,-0.23880061507225037
1749034201.3265386,-3.8745363394366663,-1.0224725765040894,-1.7359952926635742,3.169997377986572,-2.318803612385885,4.355179786682129,0.01436125673353672,0.002599854487925768,0.036538392305374146,0.006336651276797056,0.11190648376941681,-0.1470847725868225,0.21072140336036682,0.5025661587715149,1.3578215837478638,0.6858075261116028,0.46103280782699585,-0.2243775576353073
1749034201.326579,-3.874519173298971,-1.0224452775767823,-1.7358890771865845,3.170015497798584,-2.3186097780810755,4.354842662811279,0.014308259822428226,0.002318396931514144,0.03688855841755867,0.0058977012522518635,0.11312752962112427,-0.1489555984735489,0.22199076414108276,0.5215460658073425,1.373972773551941,0.6803973913192749,0.4695306122303009,-0.19483508169651031
1749034201.3266168,-3.874495331441061,-1.0224794906428833,-1.7358176708221436,3.17002455770459,-2.3183401266681116,4.354572296142578,0.015480064786970615,0.002401745645329356,0.03699260577559471,0.00496229063719511,0.11504579335451126,-0.14949843287467957,0.2088274359703064,0.5159875154495239,1.375495195388794,0.6926203370094299,0.4741561710834503,-0.19795720279216766
1749034201.326654,-3.8744242827044886,-1.0224641126445313,-1.7357609272003174,3.170036478633545,-2.318131987248556,4.35427713394165,0.015228254720568657,0.0026330403052270412,0.03752300143241882,0.004958285018801689,0.11859844624996185,-0.1477573662996292,0.206194669008255,0.50179123878479,1.38508141040802,0.6910521984100342,0.46021121740341187,-0.2001837193965912
1749034201.3266907,-3.8743887583362024,-1.0224829477122803,-1.7356888055801392,3.170036478633545,-2.3178539911853235,4.353940486907959,0.015631355345249176,0.003421037457883358,0.038500379770994186,0.005961844231933355,0.12154493480920792,-0.1475563496351242,0.20356762409210205,0.5118012428283691,1.3835943937301636,0.7010048031806946,0.4773378372192383,-0.22395122051239014
1749034201.326728,-3.8743887583362024,-1.0224829477122803,-1.7356888055801392,3.170036478633545,-2.3178539911853235,4.353940486907959,0.015631355345249176,0.003421037457883358,0.038500379770994186,0.005961844231933355,0.12154493480920792,-0.1475563496351242,0.20356762409210205,0.5118012428283691,1.3835943937301636,0.7010048031806946,0.4773378372192383,-0.22395122051239014
1749034201.3267648,-3.8743613401996058,-1.0224556487849732,-1.7356048822402954,3.1700517374226074,-2.317697350178854,4.3536458015441895,0.015000324696302414,0.0037593042943626642,0.038837626576423645,0.006527706515043974,0.12449409812688828,-0.14349225163459778,0.20283368229866028,0.5103805065155029,1.3847825527191162,0.700007975101471,0.4518977999687195,-0.21681995689868927
1749034201.3268008,-3.874323908482687,-1.0224521917155762,-1.7354365587234497,3.17007224142041,-2.3171632925616663,4.353068828582764,0.015838833525776863,0.00277246767655015,0.03946607932448387,0.005412911996245384,0.12496961653232574,-0.142227903008461,0.21621647477149963,0.5300344824790955,1.408866047859192,0.6786638498306274,0.45361024141311646,-0.2513673007488251
1749034201.326841,-3.87427264848818,-1.0224592250636597,-1.735349178314209,3.1700994211384277,-2.316946570073263,4.35280179977417,0.016932494938373566,0.002501068403944373,0.04020855203270912,0.005025625228881836,0.1247422844171524,-0.14374542236328125,0.2174077332019806,0.537285566329956,1.3870729207992554,0.7196671962738037,0.45353442430496216,-0.27058660984039307
1749034201.3268783,-3.8742480913745325,-1.0224746030620118,-1.7352813482284546,3.1700960832783203,-2.3166590372668665,4.352523326873779,0.016367796808481216,0.0026863899547606707,0.04011775180697441,0.005942253861576319,0.12566067278385162,-0.14947697520256042,0.20978108048439026,0.5309129953384399,1.3952622413635254,0.6961752772331238,0.48299282789230347,-0.2623997926712036
1749034201.3269145,-3.8741899172412317,-1.0224242967418213,-1.7351974248886108,3.170123262996338,-2.316376272832052,4.352240085601807,0.016301773488521576,0.0031262896955013275,0.04105230048298836,0.007031257729977369,0.12860113382339478,-0.14962266385555267,0.21824130415916443,0.5292482376098633,1.4166579246520996,0.7080783247947693,0.4505343437194824,-0.27027571201324463
1749034201.32695,-3.874169413243429,-1.0224159520915528,-1.7351288795471191,3.170135660762451,-2.3161092440234583,4.351917743682861,0.01681077666580677,0.0033406889997422695,0.04285277798771858,0.007862074300646782,0.12705987691879272,-0.15331107378005981,0.21904607117176056,0.5394507646560669,1.383876919746399,0.67608642578125,0.43044981360435486,-0.25968462228775024
1749034201.3269866,-3.8741331736194056,-1.0224159520915528,-1.7350142002105713,3.170147104854248,-2.315821949635641,4.351588726043701,0.016352877020835876,0.003448355244472623,0.04268549010157585,0.0069647072814404964,0.12716443836688995,-0.15591658651828766,0.2270420789718628,0.5104246735572815,1.3941524028778076,0.6803588271141052,0.4708014726638794,-0.2413676679134369
1749034201.3270223,-3.874108378087179,-1.0224076074412842,-1.7349491119384766,3.170174761409424,-2.315589729939596,4.3512864112854,0.016628505662083626,0.0034359826240688562,0.04052884876728058,0.0062972488813102245,0.13051246106624603,-0.15817445516586304,0.2087479829788208,0.49706026911735535,1.4109601974487305,0.6965658664703369,0.44767042994499207,-0.2255551517009735
1749034201.3277292,-3.874108378087179,-1.0224076074412842,-1.7349491119384766,3.170174761409424,-2.315589729939596,4.3512864112854,0.016628505662083626,0.0034359826240688562,0.04052884876728058,0.0062972488813102245,0.13051246106624603,-0.15817445516586304,0.2087479829788208,0.49706026911735535,1.4109601974487305,0.6965658664703369,0.44767042994499207,-0.2255551517009735
1749034201.329785,-3.87407356897463,-1.0224005740932007,-1.7348532676696777,3.170156164760254,-2.31535774866213,4.350964069366455,0.016572628170251846,0.0035059007350355387,0.04223793372511864,0.006196488626301289,0.12777671217918396,-0.15816792845726013,0.22424611449241638,0.5157704949378967,1.4299569129943848,0.6842570900917053,0.46600016951560974,-0.23368611931800842
1749034201.3743083,-3.874039951954977,-1.022407667045929,-1.7346512079238892,3.170211001033447,-2.31476861635317,4.35034704208374,0.017376605421304703,0.0031825369223952293,0.04483650624752045,0.0073157199658453465,0.1325296312570572,-0.16096355020999908,0.25203457474708557,0.526462972164154,1.4157103300094604,0.6890778541564941,0.4560636878013611,-0.2507372200489044
1749034201.3743556,-3.87398869196047,-1.0223494333079834,-1.7345553636550903,3.170184774989746,-2.314512554799215,4.350027561187744,0.017411008477211,0.0034358191769570112,0.04376625269651413,0.0071708387695252895,0.13426990807056427,-0.15872113406658173,0.22896823287010193,0.5370565056800842,1.412802815437317,0.6763125658035278,0.45241403579711914,-0.2610990107059479
1749034201.374396,-3.8739452997790735,-1.0223682683757325,-1.7344902753829956,3.170208616847656,-2.3142526785479944,4.349643707275391,0.018191983923316002,0.003282469930127263,0.04272545129060745,0.006618397776037455,0.1359519213438034,-0.1593143492937088,0.23680773377418518,0.5345733761787415,1.4504750967025757,0.6777857542037964,0.4554828703403473,-0.281809538602829
1749034201.3744354,-3.8739452997790735,-1.0223682683757325,-1.7344902753829956,3.170208616847656,-2.3142526785479944,4.349643707275391,0.018191983923316002,0.003282469930127263,0.04272545129060745,0.006618397776037455,0.1359519213438034,-0.1593143492937088,0.23680773377418518,0.5345733761787415,1.4504750967025757,0.6777857542037964,0.4554828703403473,-0.281809538602829
1749034201.3744738,-3.87392503419985,-1.0223874014667054,-1.7344063520431519,3.1702157694050292,-2.3139079252826136,4.349306583404541,0.018255924805998802,0.0035387047100812197,0.04440568760037422,0.006710826884955168,0.13857825100421906,-0.1656331717967987,0.2300897240638733,0.5256803631782532,1.43601393699646,0.6704740524291992,0.4596092402935028,-0.27015453577041626
1749034201.3745117,-3.873845640813009,-1.0223528903773804,-1.7342231273651123,3.170254870052002,-2.3134074846850794,4.348641395568848,0.018670009449124336,0.004285688977688551,0.046326037496328354,0.005905750207602978,0.13848726451396942,-0.17130745947360992,0.24251364171504974,0.5067715048789978,1.4462882280349731,0.6852942705154419,0.4411349892616272,-0.2789689898490906
1749034201.3745484,-3.873824421559469,-1.0223284524730225,-1.7341238260269165,3.1702634531208496,-2.31305438676943,4.348345756530762,0.018712949007749557,0.004182822071015835,0.047040995210409164,0.005259305704385042,0.13894560933113098,-0.1740526705980301,0.2409258335828781,0.5137655138969421,1.4356820583343506,0.6901117563247681,0.44747859239578247,-0.24165073037147522
1749034201.374586,-3.873824421559469,-1.0223284524730225,-1.7341238260269165,3.1702634531208496,-2.31305438676943,4.348345756530762,0.018712949007749557,0.004182822071015835,0.047040995210409164,0.005259305704385042,0.13894560933113098,-0.1740526705980301,0.2409258335828781,0.5137655138969421,1.4356820583343506,0.6901117563247681,0.44747859239578247,-0.24165073037147522
1749034201.3746238,-3.873714033757345,-1.0223356646350403,-1.7339476346969604,3.170287771815918,-2.3124759832965296,4.347619533538818,0.01913589797914028,0.004365934059023857,0.04754377901554108,0.004950471222400665,0.13991700112819672,-0.17598669230937958,0.2519882619380951,0.5023674964904785,1.419590950012207,0.6876495480537415,0.4295126795768738,-0.24453487992286682
1749034201.3746612,-3.873693291340963,-1.0223542612842103,-1.7338364124298096,3.1702753740498046,-2.312211577092306,4.347304344177246,0.01862434297800064,0.003825557418167591,0.04816305637359619,0.005571058485656977,0.1402975171804428,-0.17558060586452484,0.26069343090057373,0.5389832854270935,1.4375499486923218,0.7096139788627625,0.46786022186279297,-0.24484038352966309
1749034201.3746982,-3.8736301104175013,-1.0223237437060853,-1.7337592840194702,3.1703335481831054,-2.311979357396261,4.346883773803711,0.01968527026474476,0.0035854512825608253,0.04934050142765045,0.0061495485715568066,0.1414339393377304,-0.17545221745967865,0.24354736506938934,0.5415678024291992,1.4478087425231934,0.7096244096755981,0.482148140668869,-0.271386981010437
1749034201.374735,-3.873633925114767,-1.022330955868103,-1.7336480617523193,3.170323057765625,-2.311676565800802,4.346565246582031,0.019727228209376335,0.00330531713552773,0.051098406314849854,0.006156620569527149,0.14459626376628876,-0.1764691025018692,0.2528570294380188,0.5306947827339172,1.4311580657958984,0.6982478499412537,0.48346489667892456,-0.28560537099838257
1749034201.3747723,-3.8735857645617884,-1.022300974731781,-1.7335431575775146,3.1703354555317382,-2.311361614857809,4.346221446990967,0.01972014270722866,0.003584459191188216,0.05258147418498993,0.00619554053992033,0.1476251780986786,-0.1781257838010788,0.23827141523361206,0.5463094115257263,1.4030839204788208,0.6981619000434875,0.4804137349128723,-0.2575557827949524
1749034201.3748093,-3.8735762278186243,-1.0222928088954468,-1.7334319353103638,3.170332117671631,-2.311065975819723,4.345837116241455,0.020113138481974602,0.004340462386608124,0.049871765077114105,0.00643523596227169,0.15046697854995728,-0.177674800157547,0.240017831325531,0.5420548915863037,1.4147918224334717,0.6864628791809082,0.45414164662361145,-0.2933279871940613
1749034201.374847,-3.8735762278186243,-1.0222928088954468,-1.7334319353103638,3.170332117671631,-2.311065975819723,4.345837116241455,0.020113138481974602,0.004340462386608124,0.049871765077114105,0.00643523596227169,0.15046697854995728,-0.177674800157547,0.240017831325531,0.5420548915863037,1.4147918224334717,0.6864628791809082,0.45414164662361145,-0.2933279871940613
1749034201.3748865,-3.873481575642721,-1.0222307604602356,-1.7332367897033691,3.170393629665039,-2.3104785124408167,4.345097064971924,0.020443972200155258,0.005262856837362051,0.05127781257033348,0.007711156737059355,0.15362296998500824,-0.1849122792482376,0.25169140100479126,0.49516722559928894,1.4321142435073853,0.6776611804962158,0.4596508741378784,-0.29232877492904663
1749034201.3749232,-3.8734422365771692,-1.022240774040558,-1.7331326007843018,3.170410318965576,-2.3101442495929163,4.3447394371032715,0.020560821518301964,0.00491679459810257,0.052484288811683655,0.007583294995129108,0.1552879959344864,-0.18786481022834778,0.24526989459991455,0.5187383890151978,1.4207769632339478,0.6805573105812073,0.45689481496810913,-0.27698445320129395
1749034201.3749597,-3.8733702341662806,-1.0222410720637818,-1.733036756515503,3.1704022127338867,-2.309864346181051,4.34436559677124,0.021181819960474968,0.004371376242488623,0.04988203942775726,0.007491070311516523,0.15436403453350067,-0.1895236074924469,0.2563575208187103,0.5018113255500793,1.4514344930648804,0.7005695700645447,0.46460995078086853,-0.2796071767807007
1749034201.3749962,-3.873356644307272,-1.0222326082042237,-1.7329164743423462,3.1704069811054687,-2.3095062414752405,4.3439717292785645,0.02159588597714901,0.004049548413604498,0.05132857710123062,0.008146315813064575,0.157504603266716,-0.19226448237895966,0.2443600296974182,0.507778525352478,1.4542078971862793,0.6769872307777405,0.4581839144229889,-0.2643915116786957
1749034201.375033,-3.873263422642843,-1.022228793506958,-1.7327898740768433,3.1704341608234863,-2.3092263380633753,4.343593120574951,0.02146005444228649,0.0038621090352535248,0.05331192910671234,0.008213674649596214,0.1544041782617569,-0.19493767619132996,0.28593429923057556,0.5234938859939575,1.4512468576431274,0.6814225316047668,0.47320154309272766,-0.26166635751724243
1749034201.3750691,-3.8732669989215296,-1.022201494579651,-1.7326855659484863,3.1704465585895996,-2.308894697819845,4.343191623687744,0.0217661801725626,0.004184363875538111,0.05422002449631691,0.007532704155892134,0.1552245020866394,-0.19285307824611664,0.2535557150840759,0.5027113556861877,1.4515477418899536,0.6860018968582153,0.513014554977417,-0.2860451936721802
1749034201.3751056,-3.8731988112079065,-1.022200421696045,-1.732608675956726,3.170454664821289,-2.308579746876852,4.342810153961182,0.022120226174592972,0.004751208238303661,0.055167775601148605,0.007188393268734217,0.1574319750070572,-0.19552315771579742,0.27222204208374023,0.5165855288505554,1.4342131614685059,0.6853125095367432,0.47591298818588257,-0.3018883466720581
1749034201.3756464,-3.8731587568866175,-1.0222242635539551,-1.7324663400650024,3.170485659236572,-2.3082528750049036,4.3424201011657715,0.021185602992773056,0.004647806752473116,0.05580857768654823,0.0069558508694171906,0.15850089490413666,-0.19757913053035736,0.27740195393562317,0.5002282857894897,1.4329354763031006,0.6978082060813904,0.4972997307777405,-0.2712767720222473
1749034201.377637,-3.8731587568866175,-1.0222242635539551,-1.7324663400650024,3.170485659236572,-2.3082528750049036,4.3424201011657715,0.021185602992773056,0.004647806752473116,0.05580857768654823,0.0069558508694171906,0.15850089490413666,-0.19757913053035736,0.27740195393562317,0.5002282857894897,1.4329354763031006,0.6978082060813904,0.4972997307777405,-0.2712767720222473
1749034201.418281,-3.8730910460101526,-1.022181288605072,-1.7322108745574951,3.17049424230542,-2.3075597921954554,4.341620445251465,0.02185962162911892,0.004217702429741621,0.05725938826799393,0.006646430119872093,0.16678278148174286,-0.2050839364528656,0.2742556929588318,0.516666829586029,1.413692593574524,0.6986463665962219,0.5046026706695557,-0.2781323790550232
1749034201.4183273,-3.8730910460101526,-1.022181288605072,-1.7322108745574951,3.17049424230542,-2.3075597921954554,4.341620445251465,0.02185962162911892,0.004217702429741621,0.05725938826799393,0.006646430119872093,0.16678278148174286,-0.2050839364528656,0.2742556929588318,0.516666829586029,1.413692593574524,0.6986463665962219,0.5046026706695557,-0.2781323790550232
1749034201.418368,-3.873084608708517,-1.0221765798381348,-1.7321186065673828,3.170506163234375,-2.3072405497180384,4.341195583343506,0.02305907942354679,0.004008619114756584,0.05831371992826462,0.00681298365816474,0.16912129521369934,-0.20765797793865204,0.2511928677558899,0.5150547623634338,1.4029732942581177,0.7051129341125488,0.4753192365169525,-0.2723415493965149
1749034201.4184065,-3.8729313055621546,-1.022145227794983,-1.731882095336914,3.1705266672321777,-2.306542460118429,4.340386390686035,0.022485964000225067,0.004149783868342638,0.05960887670516968,0.008009799756109715,0.17481344938278198,-0.2099786102771759,0.26593121886253357,0.49602559208869934,1.4013404846191406,0.7029074430465698,0.4474402070045471,-0.2656441032886505
1749034201.4184434,-3.8728867212878626,-1.0221803349307557,-1.7317779064178467,3.1705538469501953,-2.3061521689044397,4.33991813659668,0.022723302245140076,0.004530233331024647,0.06045107915997505,0.008333917707204819,0.17278824746608734,-0.21026256680488586,0.28261876106262207,0.520423173904419,1.3767791986465454,0.6996349096298218,0.4607720971107483,-0.2610207796096802
1749034201.418484,-3.8728702704059046,-1.0221591752818604,-1.7316582202911377,3.1705848413654785,-2.305836025868551,4.3395161628723145,0.02436952479183674,0.0050063724629580975,0.06024027243256569,0.008286016061902046,0.1751851737499237,-0.21141470968723297,0.2728399634361267,0.516930341720581,1.3926615715026855,0.7013126611709595,0.4552296996116638,-0.2875431180000305
1749034201.4185214,-3.872803274785177,-1.0221486252597352,-1.7315106391906738,3.1705710130878906,-2.305469814931051,4.339081764221191,0.02386111579835415,0.004586550407111645,0.06104835495352745,0.008582278154790401,0.1723524034023285,-0.21066589653491974,0.27699658274650574,0.5108009576797485,1.3741179704666138,0.695062518119812,0.4667424261569977,-0.2868538796901703
1749034201.4185588,-3.872803274785177,-1.0221486252597352,-1.7315106391906738,3.1705710130878906,-2.305469814931051,4.339081764221191,0.02386111579835415,0.004586550407111645,0.06104835495352745,0.008582278154790401,0.1723524034023285,-0.21066589653491974,0.27699658274650574,0.5108009576797485,1.3741179704666138,0.695062518119812,0.4667424261569977,-0.2868538796901703
1749034201.4185956,-3.8727577368365687,-1.0221284192851563,-1.7312742471694946,3.1706101137348632,-2.30479342142214,4.33819580078125,0.02344958297908306,0.004449627362191677,0.060832709074020386,0.008919992484152317,0.1760500967502594,-0.21498315036296844,0.2952688932418823,0.5243402719497681,1.3794795274734497,0.6952840685844421,0.4704478979110718,-0.28902333974838257
1749034201.4186325,-3.8727577368365687,-1.0221284192851563,-1.7312742471694946,3.1706101137348632,-2.30479342142214,4.33819580078125,0.02344958297908306,0.004449627362191677,0.060832709074020386,0.008919992484152317,0.1760500967502594,-0.21498315036296844,0.2952688932418823,0.5243402719497681,1.3794795274734497,0.6952840685844421,0.4704478979110718,-0.28902333974838257
1749034201.418669,-3.8726583162890833,-1.0221511882594605,-1.7310349941253662,3.1706806856342773,-2.3040452639209192,4.337410926818848,0.023616930469870567,0.0039632925763726234,0.061950381845235825,0.009208237752318382,0.1796017438173294,-0.22102287411689758,0.2947854697704315,0.519668698310852,1.3804376125335693,0.6927279233932495,0.4688452482223511,-0.2729356288909912
1749034201.4187057,-3.8725717703448694,-1.022057370548584,-1.7308993339538574,3.1706926065632324,-2.3037121931659144,4.3369140625,0.025255214422941208,0.0038796125445514917,0.06394580006599426,0.008842098526656628,0.18290108442306519,-0.22277121245861053,0.2743871510028839,0.54482102394104,1.3496900796890259,0.6760755777359009,0.46683093905448914,-0.2861836552619934
1749034201.4187424,-3.872511688862936,-1.022080735569336,-1.730735182762146,3.17072503148999,-2.3033459822284144,4.3364763259887695,0.025396985933184624,0.004406691063195467,0.06178063526749611,0.008722133934497833,0.1866685152053833,-0.22414518892765045,0.2734137773513794,0.5096776485443115,1.3655400276184082,0.6916001439094543,0.4714576005935669,-0.284869521856308
1749034201.4187791,-3.8724833170520228,-1.0220735234073182,-1.7306629419326782,3.1707092958637695,-2.302985731755392,4.336015701293945,0.025774583220481873,0.00480032991617918,0.06328799575567245,0.00860904436558485,0.18820948898792267,-0.227047398686409,0.2874256372451782,0.5163048505783081,1.370139479637146,0.6779911518096924,0.4626009166240692,-0.2948475778102875
1749034201.4188159,-3.872451130543844,-1.0220459264567872,-1.7305229902267456,3.1707331377216796,-2.3025413195239466,4.335506916046143,0.025599762797355652,0.005102888215333223,0.06718989461660385,0.00916996132582426,0.18990521132946014,-0.22756655514240265,0.28209367394447327,0.502733051776886,1.3107799291610718,0.682887077331543,0.4304630756378174,-0.2711241543292999
1749034201.4188523,-3.872394625340597,-1.022052840595581,-1.7303649187088013,3.1707417207905273,-2.3022170702563685,4.335057735443115,0.02606235072016716,0.004780839197337627,0.06409525871276855,0.008658054284751415,0.1866789311170578,-0.2307402342557907,0.28870075941085815,0.5019712448120117,1.33334481716156,0.6835194826126099,0.4566931426525116,-0.28223735094070435
1749034201.4188888,-3.8722806612597864,-1.022060052757599,-1.7302486896514893,3.1707612711140136,-2.3018136660205286,4.334619522094727,0.025948593392968178,0.004672509152442217,0.06394945085048676,0.008580056950449944,0.19010671973228455,-0.23259958624839783,0.2818891108036041,0.5223391056060791,1.3437128067016602,0.6790081262588501,0.4462253451347351,-0.2668483853340149
1749034201.4189253,-3.8722952047931116,-1.022060052757599,-1.7301173210144043,3.170768900508545,-2.30147368112673,4.334145545959473,0.02568420022726059,0.004596637096256018,0.06510022282600403,0.008340919390320778,0.18744349479675293,-0.2342701554298401,0.2844996154308319,0.5185052752494812,1.3278632164001465,0.6817513704299927,0.47233515977859497,-0.27117204666137695
1749034201.418963,-3.8722952047931116,-1.022060052757599,-1.7301173210144043,3.170768900508545,-2.30147368112673,4.334145545959473,0.02568420022726059,0.004596637096256018,0.06510022282600403,0.008340919390320778,0.18744349479675293,-0.2342701554298401,0.2844996154308319,0.5185052752494812,1.3278632164001465,0.6817513704299927,0.47233515977859497,-0.27117204666137695
1749034201.419,-3.8722220102893274,-1.0220481318286438,-1.7298444509506226,3.1707779604145507,-2.300703827534811,4.333207607269287,0.02552502229809761,0.0046026743948459625,0.0651850774884224,0.006814372260123491,0.19400601089000702,-0.23370595276355743,0.301030695438385,0.5308215618133545,1.3221793174743652,0.7026088237762451,0.47967833280563354,-0.26436811685562134
1749034201.4196317,-3.8721428553210657,-1.0220206540874024,-1.7297247648239136,3.1708051401325683,-2.3003087679492396,4.3327460289001465,0.026485957205295563,0.004760777577757835,0.06480930000543594,0.007891049608588219,0.19727016985416412,-0.23354694247245789,0.2926504909992218,0.5173701047897339,1.3346447944641113,0.7086041569709778,0.4694255590438843,-0.2864686846733093
1749034201.4216428,-3.8721428553210657,-1.0220206540874024,-1.7297247648239136,3.1708051401325683,-2.3003087679492396,4.3327460289001465,0.026485957205295563,0.004760777577757835,0.06480930000543594,0.007891049608588219,0.19727016985416412,-0.23354694247245789,0.2926504909992218,0.5173701047897339,1.3346447944641113,0.7086041569709778,0.4694255590438843,-0.2864686846733093
1749034201.462282,-3.872082773839132,-1.0220278662494202,-1.7295892238616943,3.170825644130371,-2.2999184767352503,4.33228063583374,0.0262891948223114,0.004693183116614819,0.064516082406044,0.009146525524556637,0.1994345635175705,-0.23682403564453125,0.28960320353507996,0.520012378692627,1.3517714738845825,0.6883630752563477,0.4791320264339447,-0.28379732370376587
1749034201.4623277,-3.8720315138446253,-1.0219896000674744,-1.7294830083847046,3.1708637911030273,-2.299537960683004,4.331791400909424,0.026129981502890587,0.004952154587954283,0.06379976123571396,0.009700608439743519,0.20121926069259644,-0.2356545478105545,0.29088813066482544,0.5259007215499878,1.3436475992202759,0.6871988773345947,0.45457783341407776,-0.3086690306663513
1749034201.4623682,-3.871927324925558,-1.021953360443451,-1.7292088270187378,3.170888586635254,-2.298673693333761,4.330855369567871,0.02744141034781933,0.005596550181508064,0.06441667675971985,0.009377403184771538,0.20292769372463226,-0.24494899809360504,0.3047081232070923,0.508755624294281,1.3470048904418945,0.6947945356369019,0.43836092948913574,-0.2886647582054138
1749034201.4624069,-3.8718791643725794,-1.0219797056964417,-1.7290583848953247,3.170881910915039,-2.2982855478869837,4.330343723297119,0.02749580703675747,0.005688375793397427,0.0643521174788475,0.008931300602853298,0.20352785289287567,-0.24718089401721954,0.2962082624435425,0.5147916674613953,1.3879036903381348,0.7057855725288391,0.4892060458660126,-0.3273356854915619
1749034201.4624448,-3.871808115636007,-1.0219761294177552,-1.7289577722549438,3.1709210115620117,-2.2978642622577112,4.3298115730285645,0.02812180109322071,0.005048868712037802,0.06780067086219788,0.009523010812699795,0.20563443005084991,-0.2549457848072052,0.311424195766449,0.532638430595398,1.3611881732940674,0.6877686381340027,0.47791650891304016,-0.252206027507782
1749034201.4624825,-3.871808115636007,-1.0219761294177552,-1.7289577722549438,3.1709210115620117,-2.2978642622577112,4.3298115730285645,0.02812180109322071,0.005048868712037802,0.06780067086219788,0.009523010812699795,0.20563443005084991,-0.2549457848072052,0.311424195766449,0.532638430595398,1.3611881732940674,0.6877686381340027,0.47791650891304016,-0.252206027507782
1749034201.462525,-3.8716848532306116,-1.021902696495392,-1.7286787033081055,3.1709367471882324,-2.297046486531393,4.328765392303467,0.027570240199565887,0.004633195698261261,0.06544387340545654,0.009377623908221722,0.21021007001399994,-0.25216975808143616,0.2918216586112976,0.509215235710144,1.3589979410171509,0.6835141777992249,0.4581747055053711,-0.24026744067668915
1749034201.4625626,-3.8716636339770716,-1.0219217103770752,-1.7285534143447876,3.1709605890461425,-2.2966464201556605,4.328240394592285,0.027514558285474777,0.0048101418651640415,0.06632602959871292,0.008183780126273632,0.2104770690202713,-0.2519316077232361,0.29673731327056885,0.5310541391372681,1.3668155670166016,0.6925981640815735,0.45669886469841003,-0.250910222530365
1749034201.4625995,-3.8716636339770716,-1.0219217103770752,-1.7285534143447876,3.1709605890461425,-2.2966464201556605,4.328240394592285,0.027514558285474777,0.0048101418651640415,0.06632602959871292,0.008183780126273632,0.2104770690202713,-0.2519316077232361,0.29673731327056885,0.5310541391372681,1.3668155670166016,0.6925981640815735,0.45669886469841003,-0.250910222530365
1749034201.4626365,-3.8715999762164515,-1.0219252866557618,-1.728406548500061,3.1709539133259277,-2.2962196508990687,4.327718734741211,0.02810596488416195,0.005103785078972578,0.06669313460588455,0.007287544663995504,0.21135854721069336,-0.25291264057159424,0.28181710839271545,0.518064558506012,1.3692249059677124,0.7101409435272217,0.47388699650764465,-0.2626596689224243
1749034201.4626737,-3.8714848200427454,-1.021917001610138,-1.7281582355499268,3.1710240083881835,-2.295353953038351,4.3267316818237305,0.029094500467181206,0.004683278035372496,0.06666593253612518,0.008736818097531796,0.21384967863559723,-0.2572531998157501,0.2997684180736542,0.5594344735145569,1.390120506286621,0.7062445282936096,0.4638443887233734,-0.25267577171325684
1749034201.4627106,-3.8714011351214808,-1.0218816560557862,-1.7280343770980835,3.171048327083252,-2.29495078722109,4.326230525970459,0.02910291962325573,0.004728407133370638,0.066106416285038,0.010277866385877132,0.212834894657135,-0.25765782594680786,0.2986122965812683,0.5403574109077454,1.4172766208648682,0.7100964784622192,0.47004958987236023,-0.24908024072647095
1749034201.4627478,-3.8713489214526575,-1.0218852919391175,-1.727918267250061,3.171055956477783,-2.2944968382464808,4.325667381286621,0.02938789129257202,0.005338451825082302,0.06741557270288467,0.011082521639764309,0.21480979025363922,-0.2550961375236511,0.27762243151664734,0.5268389582633972,1.433312177658081,0.6879925727844238,0.487845778465271,-0.2640678882598877
1749034201.462785,-3.8713489214526575,-1.0218852919391175,-1.727918267250061,3.171055956477783,-2.2944968382464808,4.325667381286621,0.02938789129257202,0.005338451825082302,0.06741557270288467,0.011082521639764309,0.21480979025363922,-0.2550961375236511,0.27762243151664734,0.5268389582633972,1.433312177658081,0.6879925727844238,0.487845778465271,-0.2640678882598877
1749034201.4628222,-3.8712714354144495,-1.0218222302249451,-1.727623701095581,3.1711160379597167,-2.2936375776873987,4.324618816375732,0.028482310473918915,0.005940092261880636,0.06913924217224121,0.009983689524233341,0.21777032315731049,-0.2575925588607788,0.29129138588905334,0.5237385630607605,1.414397120475769,0.6786004900932312,0.48457208275794983,-0.2959384620189667
1749034201.4628587,-3.8712077776538294,-1.0218341511539002,-1.7274832725524902,3.171100302333496,-2.293211285267965,4.324133396148682,0.0281845610588789,0.0054519567638635635,0.06956290453672409,0.00893409550189972,0.21909880638122559,-0.2596297264099121,0.2940821349620819,0.5100663304328918,1.4231181144714355,0.7053712010383606,0.49465563893318176,-0.3156760632991791
1749034201.462898,-3.871136728917257,-1.0218185943416138,-1.7273480892181396,3.171121283168457,-2.292752806340353,4.323596477508545,0.028645874932408333,0.005396127700805664,0.07030028849840164,0.007947488687932491,0.2253066748380661,-0.2633666694164276,0.2985621392726898,0.5293645262718201,1.4448180198669434,0.7023290991783142,0.4722766876220703,-0.31293997168540955
1749034201.4629352,-3.871073071156637,-1.0218185943416138,-1.7272006273269653,3.171133204097412,-2.2923134008990687,4.323082447052002,0.028644979000091553,0.005040257703512907,0.07163732498884201,0.008941153064370155,0.2253231257200241,-0.2668793797492981,0.29253503680229187,0.531332790851593,1.42728853225708,0.7073870301246643,0.4330012798309326,-0.28871724009513855
1749034201.4629908,-3.8710015455829065,-1.0218066734126587,-1.7270761728286743,3.1711532312580566,-2.2919021288501185,4.3224945068359375,0.029175635427236557,0.005350766237825155,0.07230879366397858,0.009962206706404686,0.22899097204208374,-0.2689022123813629,0.30366426706314087,0.5273014903068542,1.4087169170379639,0.7001320719718933,0.40499770641326904,-0.28014227747917175
1749034201.4630485,-3.8710015455829065,-1.0218066734126587,-1.7270761728286743,3.1711532312580566,-2.2919021288501185,4.3224945068359375,0.029175635427236557,0.005350766237825155,0.07230879366397858,0.009962206706404686,0.22899097204208374,-0.2689022123813629,0.30366426706314087,0.5273014903068542,1.4087169170379639,0.7001320719718933,0.40499770641326904,-0.28014227747917175
1749034201.4637015,-3.87091309229006,-1.0217703145793458,-1.7267725467681885,3.1711808878132324,-2.2909496466266077,4.321408748626709,0.02889389730989933,0.006019989028573036,0.07427359372377396,0.009353810921311378,0.22304952144622803,-0.2721666395664215,0.34019356966018677,0.5321437120437622,1.3985382318496704,0.7250054478645325,0.48606234788894653,-0.28505268692970276
1749034201.4656549,-3.870833698903219,-1.0217932027629395,-1.7265976667404175,3.1712276178547363,-2.2905262152301233,4.320835113525391,0.03144563362002373,0.005508262198418379,0.0735761746764183,0.008328191004693508,0.22556135058403015,-0.2762407064437866,0.28139135241508484,0.551513135433197,1.411271333694458,0.7143369317054749,0.48409873247146606,-0.2887023687362671
1749034201.5062838,-3.870753351842062,-1.0217858713916321,-1.7264573574066162,3.1712352472492675,-2.2900593916522425,4.320297718048096,0.03182957321405411,0.005526520311832428,0.07592740654945374,0.008022017776966095,0.2280828207731247,-0.2807847857475281,0.28737473487854004,0.5423348546028137,1.413027286529541,0.7200313806533813,0.4883185029029846,-0.2551303803920746
1749034201.5063288,-3.870741669331686,-1.0217884939960022,-1.7263201475143433,3.1712633806416015,-2.2896319071399134,4.319698333740234,0.029905730858445168,0.005539055448025465,0.07356993108987808,0.008519339375197887,0.22939009964466095,-0.2838571071624756,0.3066810965538025,0.5659008026123047,1.4396119117736816,0.7315738797187805,0.4920685887336731,-0.2294737845659256
1749034201.506369,-3.870741669331686,-1.0217884939960022,-1.7263201475143433,3.1712633806416015,-2.2896319071399134,4.319698333740234,0.029905730858445168,0.005539055448025465,0.07356993108987808,0.008519339375197887,0.22939009964466095,-0.2838571071624756,0.3066810965538025,0.5659008026123047,1.4396119117736816,0.7315738797187805,0.4920685887336731,-0.2294737845659256
1749034201.506407,-3.870581928883688,-1.0217347306064148,-1.7260019779205322,3.171295328731201,-2.2887378374682825,4.318587303161621,0.031161068007349968,0.006030613090842962,0.07529877126216888,0.010556977242231369,0.22998426854610443,-0.28037118911743164,0.28969141840934753,0.5453694462776184,1.4431240558624268,0.724022626876831,0.4950883388519287,-0.24689359962940216
1749034201.5064445,-3.8705409208880823,-1.0217263859561463,-1.7258460521697998,3.171303911800049,-2.2882676760302942,4.318026542663574,0.031365957111120224,0.005967380944639444,0.076532743871212,0.010277925059199333,0.23381657898426056,-0.27547234296798706,0.29181116819381714,0.5361326932907104,1.4251374006271362,0.695481538772583,0.5111351609230042,-0.27133575081825256
1749034201.5064824,-3.8705409208880823,-1.0217263859561463,-1.7258460521697998,3.171303911800049,-2.2882676760302942,4.318026542663574,0.031365957111120224,0.005967380944639444,0.076532743871212,0.010277925059199333,0.23381657898426056,-0.27547234296798706,0.29181116819381714,0.5361326932907104,1.4251374006271362,0.695481538772583,0.5111351609230042,-0.27133575081825256
1749034201.50652,-3.8704596201526087,-1.0216973584941407,-1.7255263328552246,3.1713549333759765,-2.2872825304614466,4.316932201385498,0.032618749886751175,0.006587112322449684,0.07803118973970413,0.0109868124127388,0.2382524013519287,-0.28085261583328247,0.2858080267906189,0.535963773727417,1.444566011428833,0.7138113379478455,0.5214083194732666,-0.3224998712539673
1749034201.506558,-3.8704596201526087,-1.0216973584941407,-1.7255263328552246,3.1713549333759765,-2.2872825304614466,4.316932201385498,0.032618749886751175,0.006587112322449684,0.07803118973970413,0.0109868124127388,0.2382524013519287,-0.28085261583328247,0.2858080267906189,0.535963773727417,1.444566011428833,0.7138113379478455,0.5214083194732666,-0.3224998712539673
1749034201.5065958,-3.870274368916647,-1.0216890138438721,-1.7252142429351807,3.1713945108601074,-2.2863333860980433,4.315795421600342,0.03046584129333496,0.007631218526512384,0.08200479298830032,0.011008881963789463,0.24246585369110107,-0.2901933789253235,0.3170410990715027,0.5209082961082458,1.4143108129501343,0.7124661803245544,0.4938907027244568,-0.3023745119571686
1749034201.5066335,-3.870274368916647,-1.0216890138438721,-1.7252142429351807,3.1713945108601074,-2.2863333860980433,4.315795421600342,0.03046584129333496,0.007631218526512384,0.08200479298830032,0.011008881963789463,0.24246585369110107,-0.2901933789253235,0.3170410990715027,0.5209082961082458,1.4143108129501343,0.7124661803245544,0.4938907027244568,-0.3023745119571686
1749034201.5066702,-3.8702378908740442,-1.0216735166362305,-1.7250430583953857,3.1713997560688476,-2.2858389059649866,4.315170764923096,0.03029591776430607,0.006643860600888729,0.0836208239197731,0.010441776365041733,0.24673625826835632,-0.28632891178131104,0.3394519090652466,0.5378342866897583,1.3908636569976807,0.7202373147010803,0.49438637495040894,-0.3244022727012634
1749034201.506707,-3.8700748125659388,-1.0216108125499268,-1.7247114181518555,3.171454592342041,-2.2848106066333216,4.3140130043029785,0.03308721259236336,0.006530136801302433,0.08469425141811371,0.010158257558941841,0.2470361888408661,-0.2927592396736145,0.2918214201927185,0.5096747875213623,1.3955163955688477,0.7251516580581665,0.4968279302120209,-0.3488520383834839
1749034201.5067437,-3.869999710713522,-1.0216098588756104,-1.7245553731918335,3.171447439784668,-2.284281078969137,4.313444137573242,0.033136945217847824,0.007327486295253038,0.08261691778898239,0.010053282603621483,0.24818189442157745,-0.30164119601249695,0.28000307083129883,0.5021010041236877,1.3665573596954346,0.7215309143066406,0.4825616478919983,-0.3018319010734558
1749034201.50678,-3.869967047368185,-1.0216415089419861,-1.7243601083755493,3.1714798647114257,-2.283811871205465,4.31279993057251,0.03293735161423683,0.0067905159667134285,0.08183953166007996,0.010048194788396358,0.2477792352437973,-0.306348979473114,0.2873193621635437,0.5117984414100647,1.3965821266174316,0.7273120284080505,0.5006341934204102,-0.28819137811660767
1749034201.5068154,-3.869967047368185,-1.0216415089419861,-1.7243601083755493,3.1714798647114257,-2.283811871205465,4.31279993057251,0.03293735161423683,0.0067905159667134285,0.08183953166007996,0.010048194788396358,0.2477792352437973,-0.306348979473114,0.2873193621635437,0.5117984414100647,1.3965821266174316,0.7273120284080505,0.5006341934204102,-0.28819137811660767
1749034201.506852,-3.8698464075671595,-1.021593229179718,-1.7240245342254639,3.1715189653583984,-2.282754723225729,4.311582565307617,0.033090367913246155,0.006604792084544897,0.08393366634845734,0.010628108866512775,0.2526302933692932,-0.30773666501045227,0.31216806173324585,0.5154162645339966,1.402551531791687,0.73372483253479,0.48959341645240784,-0.25992855429649353
1749034201.5068884,-3.869758907948629,-1.0216087263873597,-1.7238496541976929,3.1715428072163085,-2.28223163286318,4.310986042022705,0.03364517167210579,0.006854046601802111,0.08481531590223312,0.01083653885871172,0.2529676556587219,-0.3020738661289215,0.3223161995410919,0.5276371836662292,1.3738725185394287,0.7131749391555786,0.487030029296875,-0.3133610486984253
1749034201.5069246,-3.869702402745382,-1.0215621155551453,-1.7236906290054321,3.1715704637714843,-2.281752411519186,4.310385227203369,0.033988241106271744,0.007438430562615395,0.08574143052101135,0.011354961432516575,0.25524282455444336,-0.3017779290676117,0.29303720593452454,0.524488091468811,1.370805025100708,0.7246139645576477,0.4321937561035156,-0.32858937978744507
1749034201.506961,-3.869654719029562,-1.0215066236308594,-1.7234933376312256,3.1715757089802246,-2.2812417189227503,4.3097920417785645,0.03347019478678703,0.006528784055262804,0.08647093176841736,0.012057317420840263,0.25578099489212036,-0.30607351660728455,0.31391358375549316,0.5088938474655151,1.3720214366912842,0.72802734375,0.46475863456726074,-0.3548938035964966
1749034201.5069976,-3.869563643132345,-1.021510199909546,-1.723310112953186,3.171649141902588,-2.280715290700094,4.30918025970459,0.03408785164356232,0.006222306285053492,0.08767105638980865,0.012317048385739326,0.25230470299720764,-0.31077834963798523,0.29427215456962585,0.5170485377311707,1.3575466871261597,0.7153485417366028,0.4805397391319275,-0.32551464438438416
1749034201.5076618,-3.86947209039797,-1.0215102595141907,-1.7231616973876953,3.17165391027417,-2.280165497456686,4.3085479736328125,0.03330202028155327,0.006647911388427019,0.08798515796661377,0.011872182600200176,0.25293850898742676,-0.31330710649490356,0.3012619614601135,0.5274587869644165,1.336866855621338,0.7149209976196289,0.47223109006881714,-0.29481443762779236
1749034201.5096655,-3.8694468180285853,-1.0214984577945252,-1.722965955734253,3.1716596323200683,-2.279666248952047,4.307927131652832,0.03377668559551239,0.006268481723964214,0.08759120851755142,0.010528923012316227,0.2529676854610443,-0.31496962904930115,0.30078256130218506,0.5285765528678894,1.3372085094451904,0.721403181552887,0.48570966720581055,-0.32816508412361145
1749034201.5504272,-3.8693910280810755,-1.0215128821185608,-1.7228021621704102,3.171705408687256,-2.2791903654681605,4.307277679443359,0.03372322767972946,0.006869420409202576,0.0855284184217453,0.010258277878165245,0.25735709071159363,-0.3137319087982178,0.3083140254020691,0.5401638746261597,1.3559865951538086,0.7277664542198181,0.4793042540550232,-0.3493878245353699
1749034201.5505004,-3.8693071047412317,-1.0214663308909913,-1.7225944995880127,3.1717139917561035,-2.278656307850973,4.306638240814209,0.03446349874138832,0.0067317602224648,0.08713562041521072,0.01185899693518877,0.25811517238616943,-0.3200613856315613,0.27563899755477905,0.503829836845398,1.3363970518112183,0.7198042273521423,0.46521419286727905,-0.33308205008506775
1749034201.5505672,-3.869251553212301,-1.0214543503573914,-1.7224390506744385,3.171731157893799,-2.27818471590151,4.306020736694336,0.03589056804776192,0.0067894347012043,0.0857158675789833,0.011966636404395103,0.2628377079963684,-0.3268818259239197,0.2999511659145355,0.5203399658203125,1.3525499105453491,0.7097944021224976,0.4403262436389923,-0.2839835286140442
1749034201.550626,-3.869147602711813,-1.0214352172664185,-1.722259283065796,3.171743078822754,-2.2776625792132776,4.305354118347168,0.035647500306367874,0.006813583895564079,0.08884930610656738,0.011427940800786018,0.2595723271369934,-0.32638630270957947,0.2778341770172119,0.5384743213653564,1.35480797290802,0.7302265167236328,0.48557713627815247,-0.26420092582702637
1749034201.550667,-3.8690982500659388,-1.0214262765697022,-1.7220948934555054,3.171773596400879,-2.2770894209491175,4.304723739624023,0.033214569091796875,0.007404904346913099,0.0862114205956459,0.010583028197288513,0.2585057020187378,-0.32532814145088196,0.2919970154762268,0.5153637528419495,1.3634006977081299,0.7141011953353882,0.5137971639633179,-0.2663480043411255
1749034201.5507078,-3.8690505663501185,-1.0214336675456543,-1.7219269275665283,3.1717821794697265,-2.2765701452838343,4.304025650024414,0.03457178920507431,0.007500615436583757,0.08696737140417099,0.010028948076069355,0.25879228115081787,-0.32350343465805054,0.3055662512779236,0.5008299350738525,1.3562943935394287,0.7406505346298218,0.5306957364082336,-0.3002171516418457
1749034201.5507479,-3.8689282576190394,-1.0213942688754578,-1.7217626571655273,3.1718217569538574,-2.2760193983661097,4.303396701812744,0.036110322922468185,0.006500312592834234,0.087065689265728,0.011268122121691704,0.2609037756919861,-0.3209088444709778,0.29843834042549133,0.48956921696662903,1.3592332601547241,0.7554121017456055,0.528955340385437,-0.34759119153022766
1749034201.550786,-3.8688481489764612,-1.021405116920807,-1.7215640544891357,3.1718150812336425,-2.2754772345172327,4.302790641784668,0.03555832430720329,0.006482751574367285,0.0866672694683075,0.011750596575438976,0.26570481061935425,-0.3250816762447357,0.2927657663822174,0.5179904699325562,1.3725440502166748,0.7388168573379517,0.5058518052101135,-0.3342364728450775
1749034201.5508242,-3.8688481489764612,-1.021405116920807,-1.7215640544891357,3.1718150812336425,-2.2754772345172327,4.302790641784668,0.03555832430720329,0.006482751574367285,0.0866672694683075,0.011750596575438976,0.26570481061935425,-0.3250816762447357,0.2927657663822174,0.5179904699325562,1.3725440502166748,0.7388168573379517,0.5058518052101135,-0.3342364728450775
1749034201.5508626,-3.8688035647021692,-1.0214134019664307,-1.7213994264602661,3.1718694406696777,-2.274954144154684,4.3020806312561035,0.03668865188956261,0.006809634622186422,0.0865018293261528,0.011774389073252678,0.27179041504859924,-0.32879549264907837,0.2998136281967163,0.5186412930488586,1.4059298038482666,0.7525914907455444,0.4846276640892029,-0.317062109708786
1749034201.5509,-3.8686803022967737,-1.0213658970645447,-1.7210673093795776,3.1719090181538085,-2.273853603993551,4.300793647766113,0.034151531755924225,0.00693252868950367,0.08544417470693588,0.011670817621052265,0.2682364881038666,-0.3316613733768463,0.32623493671417236,0.5053204894065857,1.4156782627105713,0.7406335473060608,0.5066226720809937,-0.319659560918808
1749034201.5509374,-3.8686803022967737,-1.0213658970645447,-1.7210673093795776,3.1719090181538085,-2.273853603993551,4.300793647766113,0.034151531755924225,0.00693252868950367,0.08544417470693588,0.011670817621052265,0.2682364881038666,-0.3316613733768463,0.32623493671417236,0.5053204894065857,1.4156782627105713,0.7406335473060608,0.5066226720809937,-0.319659560918808
1749034201.5509753,-3.868505064641134,-1.0213259023479004,-1.7207038402557373,3.1719648081013183,-2.2727721373187464,4.299457550048828,0.03662355616688728,0.0064677768386900425,0.08457978069782257,0.011285760439932346,0.27331921458244324,-0.3383283019065857,0.31010207533836365,0.5185972452163696,1.4755222797393799,0.7408299446105957,0.5458396673202515,-0.3509087860584259
1749034201.551012,-3.8684728781329554,-1.0213532608798523,-1.7205554246902466,3.1719648081013183,-2.2722280661212366,4.298745632171631,0.037127550691366196,0.006922171916812658,0.08704987913370132,0.011311760172247887,0.2825544774532318,-0.3441184461116791,0.3069987893104553,0.5011478066444397,1.4631750583648682,0.7454065680503845,0.49006691575050354,-0.2919985055923462
1749034201.5510488,-3.868380848561422,-1.0213056963733216,-1.7203757762908936,3.1720124918171386,-2.271716896687643,4.298045635223389,0.03743007034063339,0.007384160999208689,0.09029331803321838,0.012376846745610237,0.28207212686538696,-0.34632179141044617,0.2799324095249176,0.5163949728012085,1.4156785011291504,0.7422827482223511,0.4755755066871643,-0.26961749792099
