nimar13/UR3e_dataset_trayectorias/trayectorias_ejecutadas/quintic/trayectoria_126_result.csv
timestamp,q1,q2,q3,q4,q5,q6,qd1,qd2,qd3,qd4,qd5,qd6,tau1,tau2,tau3,tau4,tau5,tau6
1749034816.7625248,3.748068332672119,-2.424678941766256,1.1659510771380823,-1.394373969440796,4.3048319816589355,-5.578879419957296,4.38736351497937e-05,-0.001559674390591681,-0.0007130231242626905,-0.0008141777361743152,-8.667191286804155e-05,8.40391221572645e-05,0.13679511845111847,0.1991950273513794,-0.765020489692688,-0.7523190379142761,0.0034610405564308167,-0.06831318140029907
1749034816.7626007,3.748068332672119,-2.4246908626952113,1.1659825483905237,-1.3943513196757813,4.3048095703125,-5.578903261815206,4.283179805497639e-05,-0.00144008151255548,-0.0007226060843095183,-0.0009516560239717364,-8.56409824336879e-05,8.29328055260703e-05,0.13372394442558289,0.23287218809127808,-0.7461135387420654,-0.7454056739807129,0.0019022226333618164,-0.08513106405735016
1749034816.7626698,3.748042106628418,-2.4247151813902796,1.165966812764303,-1.3943894815495987,4.304821491241455,-5.578865353261129,4.183631972409785e-05,-0.0015208986587822437,-0.0006295829080045223,-0.000913904223125428,-8.463427366223186e-05,8.18552216514945e-05,0.1456187516450882,0.2218080461025238,-0.7755464315414429,-0.7329938411712646,0.010429762303829193,-0.0687502920627594
1749034816.7627397,3.748068332672119,-2.4246636829771937,1.1659510771380823,-1.3944013726762314,4.304847717285156,-5.578891340886251,4.0884126065066084e-05,-0.0016912943683564663,-0.0006330458563752472,-0.0008732881397008896,-8.365097164642066e-05,8.080533007159829e-05,0.12260051816701889,0.23816034197807312,-0.7604014873504639,-0.739806592464447,-0.008515790104866028,-0.06581783294677734
1749034816.7628083,3.748068332672119,-2.4246636829771937,1.1659510771380823,-1.3944013726762314,4.304847717285156,-5.578891340886251,4.0884126065066084e-05,-0.0016912943683564663,-0.0006330458563752472,-0.0008732881397008896,-8.365097164642066e-05,8.080533007159829e-05,0.12260051816701889,0.23816034197807312,-0.7604014873504639,-0.739806592464447,-0.008515790104866028,-0.06581783294677734
1749034816.7628767,3.7480456829071045,-2.4246684513487757,1.1659706274615687,-1.3943823140910645,4.304814338684082,-5.578910235558645,5.8468962379265577e-05,-0.0015668206615373492,-0.0005320882191881537,-0.0007933535962365568,-8.175132825272158e-05,7.878427277319133e-05,0.12781570851802826,0.217939555644989,-0.7633247375488281,-0.736020565032959,-0.023981444537639618,-0.09266334772109985
1749034816.762939,3.7480647563934326,-2.4246908626952113,1.1659510771380823,-1.3943822991899033,4.304828643798828,-5.5788759032832544,5.741210770793259e-05,-0.0013918259646743536,-0.00048440753016620874,-0.0007350067025981843,-8.083350985543802e-05,7.78111643739976e-05,0.1390838772058487,0.22174209356307983,-0.7566733360290527,-0.7247758507728577,-0.012185715138912201,-0.06743326783180237
1749034816.7630036,3.748076915740967,-2.4246603451170863,1.16600209871401,-1.394385890369751,4.304812908172607,-5.5788636843310755,5.622092430712655e-05,-0.0012986146612092853,-0.0005132779479026794,-0.0006672552553936839,-7.993609324330464e-05,7.686183380428702e-05,0.1338881403207779,0.22473636269569397,-0.7555935382843018,-0.7362754940986633,-0.021296463906764984,-0.05134974420070648
1749034816.7630637,3.7480289936065674,-2.4246961079039515,1.165947739277975,-1.3943894815495987,4.304852485656738,-5.578906778489248,5.5074207921279594e-05,-0.0013382574543356895,-0.000478761998238042,-0.000584525871090591,-2.172625499952119e-05,7.59353642934002e-05,0.14711304008960724,0.20041248202323914,-0.763002872467041,-0.7396876215934753,-0.01708301156759262,-0.06743749976158142
1749034816.7631264,3.7480289936065674,-2.4246961079039515,1.165947739277975,-1.3943894815495987,4.304852485656738,-5.578906778489248,5.5074207921279594e-05,-0.0013382574543356895,-0.000478761998238042,-0.000584525871090591,-2.172625499952119e-05,7.59353642934002e-05,0.14711304008960724,0.20041248202323914,-0.763002872467041,-0.7396876215934753,-0.01708301156759262,-0.06743749976158142
1749034816.763188,3.748049259185791,-2.424680372277731,1.1659587065326136,-1.3944014024785538,4.304790496826172,-5.578899745141165,7.03784535289742e-05,-0.0012712996685877442,-0.00041579853859730065,-0.0005447823787108064,-6.784370043533272e-07,7.414787978632376e-05,0.1420685201883316,0.2388186752796173,-0.7449477910995483,-0.7237057685852051,-0.010768234729766846,-0.06640896201133728
1749034816.76324,3.748068332672119,-2.424711843530172,1.1659706274615687,-1.3943822991899033,4.304816722869873,-5.5788602272616785,6.919613952049986e-05,-0.001034326502121985,-0.000390058004995808,-0.0005025699501857162,-1.1988694836873037e-07,7.328532956307754e-05,0.14218531548976898,0.2471475899219513,-0.7401286363601685,-0.71352618932724,0.01090213656425476,-0.06955187022686005
1749034816.7632878,3.748056411743164,-2.4246770344176234,1.165947739277975,-1.3943787080100556,4.304818153381348,-5.5788759032832544,6.789018516428769e-05,-0.0008679092861711979,-0.00036730727879330516,-0.00048704445362091064,-2.1185279308610916e-08,7.244262815220281e-05,0.11676307022571564,0.23612377047538757,-0.7517253160476685,-0.7347921133041382,-0.014508605003356934,-0.06743873655796051
1749034816.763328,3.748068332672119,-2.424723287621969,1.1659510771380823,-1.3944013875773926,4.304804801940918,-5.578882996235983,6.663615931756794e-05,-0.0007476215832866728,-0.0003470496740192175,-0.00048682006308808923,-3.743660936805782e-09,7.161909888964146e-05,0.1271519958972931,0.24193838238716125,-0.7581311464309692,-0.7338576912879944,-0.007429264485836029,-0.07284261286258698
1749034816.7633715,3.7480804920196533,-2.4247027836241664,1.165954891835348,-1.394385890369751,4.304797649383545,-5.578903261815206,6.542512710439041e-05,-0.0006566385272890329,-0.0003726895374711603,-0.0004580150416586548,-6.615442083024448e-10,7.081407238729298e-05,0.12894907593727112,0.22378787398338318,-0.7633250951766968,-0.7254866361618042,-0.01479995995759964,-0.07313644886016846
1749034816.7634127,3.7480876445770264,-2.4247189960875453,1.1659510771380823,-1.3944097620299836,4.304759502410889,-5.578891340886251,7.524777174694464e-05,-0.0005854084738530219,-0.00035705527989193797,-0.00042803483665920794,-1.1690179380074994e-10,7.002689380897209e-05,0.13521385192871094,0.24124041199684143,-0.7420967817306519,-0.7314298152923584,-0.008917562663555145,-0.057489439845085144
1749034816.763477,3.7480719089508057,-2.4247266254820765,1.1659587065326136,-1.3944133085063477,4.304783344268799,-5.578879419957296,7.886374078225344e-05,-0.0005281297490000725,-0.0003403465379960835,-0.0004418506287038326,-2.0657774102428306e-11,1.903291922644712e-05,0.14039289951324463,0.22275403141975403,-0.7450127601623535,-0.733572244644165,-0.021004892885684967,-0.06940969824790955
1749034816.763521,3.74808406829834,-2.4246908626952113,1.1659510771380823,-1.394397796397545,4.304812908172607,-5.578875962887899,7.755274418741465e-05,-0.0004810629179701209,-0.000325002329191193,-0.00042791885789483786,-3.65044539735182e-12,3.363316636750824e-06,0.1309220790863037,0.22550758719444275,-0.7450090646743774,-0.7208877801895142,-0.00042060762643814087,-0.07028648257255554
1749034816.7635586,3.748037338256836,-2.4246961079039515,1.1659358183490198,-1.3943942499211808,4.304806232452393,-5.578903261815206,7.623661804245785e-05,-0.00044170243199914694,-0.00031096377642825246,-0.00040596575126983225,-6.450719949521733e-13,5.943333576396981e-07,0.1457958221435547,0.23687776923179626,-0.7483676671981812,-0.7378077507019043,-0.01683155447244644,-0.06736019253730774
1749034816.7635956,3.7481188774108887,-2.424699445764059,1.165966812764303,-1.3944132936051865,4.304790496826172,-5.578903261815206,7.496916805393994e-05,-0.00040829667705111206,-0.00029807761893607676,-0.0003809159097727388,-1.1399099708857968e-13,1.050249380796231e-07,0.13237813115119934,0.2482183277606964,-0.7462798357009888,-0.7179376482963562,-0.012909837067127228,-0.06743748486042023
1749034816.7637177,3.7481188774108887,-2.424699445764059,1.165966812764303,-1.3944132936051865,4.304790496826172,-5.578903261815206,7.496916805393994e-05,-0.00040829667705111206,-0.00029807761893607676,-0.0003809159097727388,-1.1399099708857968e-13,1.050249380796231e-07,0.13237813115119934,0.2482183277606964,-0.7462798357009888,-0.7179376482963562,-0.012909837067127228,-0.06743748486042023
1749034816.7654302,3.748103618621826,-2.424730440179342,1.1659358183490198,-1.3944133085063477,4.3048095703125,-5.578903261815206,7.374074630206451e-05,-0.0003795896773226559,-0.0002862338733393699,-0.00034847098868340254,-2.0143405715135343e-14,1.855900855218806e-08,0.1454503834247589,0.22681954503059387,-0.7480522394180298,-0.7256227731704712,0.005019873380661011,-0.07189133763313293
1749034816.8062737,3.7480719089508057,-2.424680372277731,1.165966812764303,-1.3944013875773926,4.304828643798828,-5.578879419957296,7.140070374589413e-05,-0.0003327939775772393,-0.0002651413669809699,-0.00030116719426587224,-6.290098959441548e-16,5.795347535197948e-10,0.12180867791175842,0.26223689317703247,-0.751982569694519,-0.726355791091919,-0.023177631199359894,-0.06575289368629456
1749034816.80632,3.7480719089508057,-2.424680372277731,1.165966812764303,-1.3944013875773926,4.304828643798828,-5.578879419957296,7.140070374589413e-05,-0.0003327939775772393,-0.0002651413669809699,-0.00030116719426587224,-6.290098959441548e-16,5.795347535197948e-10,0.12180867791175842,0.26223689317703247,-0.751982569694519,-0.726355791091919,-0.023177631199359894,-0.06575289368629456
1749034816.8063598,3.748061180114746,-2.424711843530172,1.1659429709063929,-1.3944013875773926,4.3048248291015625,-5.578879419957296,6.920247687958181e-05,-0.00029627239564433694,-0.00024695697356946766,-0.0003158072358928621,-1.964183708771262e-17,1.80968989793584e-11,0.12799866497516632,0.25519317388534546,-0.7273985147476196,-0.7317943572998047,-0.0015468448400497437,-0.07876554131507874
1749034816.806398,3.748056411743164,-2.4247566662230433,1.1659510771380823,-1.3944097769311448,4.3048095703125,-5.5788878242122095,6.81564342812635e-05,-0.00028086185920983553,-0.00023876097111497074,-0.0003003802557941526,-3.470918919853652e-18,3.1979119873015716e-12,0.10283027589321136,0.22788044810295105,-0.7038325071334839,-0.7447929382324219,-0.01058710366487503,-0.0773068368434906
1749034816.8064358,3.7481117248535156,-2.424730440179342,1.1659706274615687,-1.3943823289922257,4.304778575897217,-5.578910235558645,6.713962648063898e-05,-0.00031101430067792535,-0.00023110167239792645,-0.0003189117123838514,-6.133477550643813e-19,5.651046037363772e-13,0.09301852434873581,0.2544988989830017,-0.7048418521881104,-0.7362773418426514,-0.008736841380596161,-0.08029933273792267
1749034816.8064785,3.74808406829834,-2.4247151813902796,1.165954891835348,-1.394397811298706,4.304797649383545,-5.578891340886251,5.305152808432467e-05,-0.0002967907930724323,-0.0002239138848381117,-0.000339064426952973,-1.0838499098668305e-19,9.98599125482183e-14,0.08222455531358719,0.25711455941200256,-0.697620153427124,-0.7485625147819519,0.01816239207983017,-0.07912957668304443
1749034816.8065166,3.7480719089508057,-2.424711843530172,1.165954891835348,-1.3944013875773926,4.304778575897217,-5.578887883816854,5.139609129400924e-05,-0.00028344098245725036,-0.00021715473849326372,-0.00034111557761207223,-1.9152764469664414e-20,1.7646294988389252e-14,0.08780699968338013,0.2609274685382843,-0.6932497024536133,-0.7546080350875854,-0.012799568474292755,-0.08329889178276062
1749034816.8065543,3.7480876445770264,-2.424708505670065,1.1659510771380823,-1.3944097322276612,4.304840564727783,-5.578891340886251,2.5772602384677157e-05,-0.0002731987042352557,-0.00018622305651661009,-0.000454706751042977,-3.384494496533634e-21,3.1182853032303472e-15,0.07915434241294861,0.2628003656864166,-0.6974904537200928,-0.7511664628982544,0.012571372091770172,-0.07299298048019409
1749034816.8065948,3.748018264770508,-2.424723287621969,1.1659858862506312,-1.3944133085063477,4.304806232452393,-5.578898374234335,2.5145314452856837e-07,-8.66284390212968e-05,-0.00017931958427652717,-0.00047814802383072674,-5.980757157086515e-22,5.510337368858185e-16,0.08192507177591324,0.28588637709617615,-0.6892573833465576,-0.7438750863075256,0.01739819347858429,-0.0710175633430481
1749034816.8066328,3.7480719089508057,-2.424699445764059,1.165966812764303,-1.3943942350200196,4.304790496826172,-5.578879419957296,2.45332931747555e-09,-4.4617227104026824e-05,-0.00017425067198928446,-0.0005104562733322382,-1.0568625769267911e-22,9.737344516103137e-17,0.06935245543718338,0.3172573447227478,-0.7004094123840332,-0.7589465379714966,0.020304210484027863,-0.0710919201374054
1749034816.8066697,3.7480528354644775,-2.424730440179342,1.1659510771380823,-1.3944061559489747,4.304835796356201,-5.5788878242122095,2.393616901907869e-11,-1.2354779755696654e-05,-0.00016955725732259452,-0.0005434894119389355,-1.867587172343674e-23,1.7206908531932125e-17,0.0838795006275177,0.3497854173183441,-0.7106752395629883,-0.7813979387283325,0.017690226435661316,-0.05076482892036438
1749034816.8067067,3.7480528354644775,-2.424730440179342,1.1659510771380823,-1.3944061559489747,4.304835796356201,-5.5788878242122095,2.393616901907869e-11,-1.2354779755696654e-05,-0.00016955725732259452,-0.0005434894119389355,-1.867587172343674e-23,1.7206908531932125e-17,0.0838795006275177,0.3497854173183441,-0.7106752395629883,-0.7813979387283325,0.017690226435661316,-0.05076482892036438
1749034816.8067472,3.7480528354644775,-2.424730440179342,1.1659510771380823,-1.3944061559489747,4.304835796356201,-5.5788878242122095,2.393616901907869e-11,-1.2354779755696654e-05,-0.00016955725732259452,-0.0005434894119389355,-1.867587172343674e-23,1.7206908531932125e-17,0.0838795006275177,0.3497854173183441,-0.7106752395629883,-0.7813979387283325,0.017690226435661316,-0.05076482892036438
1749034816.8067882,3.7480599880218506,-2.4247151813902796,1.165966812764303,-1.3944061559489747,4.304790496826172,-5.578903261815206,2.22305898045647e-17,0.0036774000618606806,-0.00017910359019879252,-0.0021335443016141653,-1.8722044842434116e-05,2.2929159968043678e-05,0.054229579865932465,0.4155631363391876,-0.7454546689987183,-0.769136905670166,0.06818673014640808,-0.023715421557426453
1749034816.8068254,3.748037338256836,-2.4246961079039515,1.165954891835348,-1.394421638255455,4.3047871589660645,-5.578879419957296,2.1689513181510596e-19,0.004546731244772673,-0.00017493155610281974,-0.0028186223935335875,-3.308381565148011e-06,4.051822998007992e-06,0.04978875070810318,0.4292660653591156,-0.7939271926879883,-0.7697702646255493,0.04476125165820122,0.010526895523071289
1749034816.806862,3.748037338256836,-2.4246961079039515,1.165954891835348,-1.394421638255455,4.3047871589660645,-5.578879419957296,2.1689513181510596e-19,0.004546731244772673,-0.00017493155610281974,-0.0028186223935335875,-3.308381565148011e-06,4.051822998007992e-06,0.04978875070810318,0.4292660653591156,-0.7939271926879883,-0.7697702646255493,0.04476125165820122,0.010526895523071289
1749034816.806898,3.748063564300537,-2.4247189960875453,1.1659510771380823,-1.3944335740855713,4.304818153381348,-5.578867260609762,-0.0008934297948144376,0.005034515168517828,-0.00016905981465242803,-0.004556130617856979,-1.0330950317438692e-07,0.004223324358463287,0.048475008457899094,0.5582363605499268,-0.8203952312469482,-0.7921853065490723,0.08846341073513031,0.03716781735420227
1749034816.806934,3.748056411743164,-2.4246636829771937,1.165966812764303,-1.3944645685008545,4.3048248291015625,-5.578848246728079,-0.0008941094274632633,0.00830122735351324,-0.0023550824262201786,-0.0054029785096645355,-1.8255873257544408e-08,0.00794457457959652,0.04050259292125702,0.5669863820075989,-0.840906023979187,-0.7726984620094299,0.11067180335521698,0.025035202503204346
1749034816.8069701,3.7480480670928955,-2.42461695293569,1.1659587065326136,-1.3944574159434815,4.304859638214111,-5.57883990207781,-0.0008599020657129586,0.012325312942266464,-0.006756654940545559,-0.006510887295007706,0.001318157883360982,0.009690636768937111,0.02646620199084282,0.5650202631950378,-0.8221131563186646,-0.783793032169342,0.12075036019086838,0.01640796661376953
1749034816.807006,3.7480804920196533,-2.4246393642821253,1.1659119764911097,-1.3944574010423203,4.3048248291015625,-5.578815762196676,-0.0008968203328549862,0.013857412151992321,-0.009001001715660095,-0.00663452735170722,0.002343418775126338,0.011055408045649529,-0.0016186945140361786,0.582671046257019,-0.8044568300247192,-0.7842782139778137,0.13433454930782318,0.045295268297195435
1749034816.807372,3.748068332672119,-2.424584528008932,1.1659191290484827,-1.3944621098092576,4.304802417755127,-5.5788074175464075,-0.0010439619654789567,0.01707415282726288,-0.009543010964989662,-0.006323912180960178,0.003062311327084899,0.013477207161486149,0.002143450081348419,0.6053465008735657,-0.8248404860496521,-0.7853537201881409,0.16130900382995605,0.04010608792304993
1749034816.8093765,3.748016834259033,-2.4245721302428187,1.1658828894244593,-1.3944898855737229,4.304802417755127,-5.578780059014456,-0.0016691181808710098,0.017737818881869316,-0.011083425022661686,-0.006837253458797932,0.004189511761069298,0.016097411513328552,-0.006346989423036575,0.5732166767120361,-0.8377220630645752,-0.7917952537536621,0.18827587366104126,0.057870954275131226
1749034816.8504765,3.748091220855713,-2.4245554409422816,1.1658433119403284,-1.3945241284421463,4.304802417755127,-5.578736964856283,-0.002193707274273038,0.01782156527042389,-0.01355869509279728,-0.007495509926229715,0.005548799876123667,0.017722899094223976,0.008145194500684738,0.5945495367050171,-0.8250505924224854,-0.7939999103546143,0.21972595155239105,0.04767066240310669
1749034816.8505523,3.7480289936065674,-2.42447628597402,1.1658161322223108,-1.3945635122111817,4.304836750030518,-5.578744057809011,-0.0030125747434794903,0.01759316585958004,-0.01580110378563404,-0.008534346707165241,0.007806630805134773,0.019085798412561417,-0.011961646378040314,0.6189320683479309,-0.8325636386871338,-0.7915399074554443,0.22152023017406464,0.04427093267440796
1749034816.8506207,3.748056411743164,-2.424437185327047,1.1657798925982874,-1.3945562851480027,4.304838180541992,-5.5787270108806055,-0.0031715177465230227,0.01822291687130928,-0.018008708953857422,-0.009422119706869125,0.010473071597516537,0.019246648997068405,0.019040368497371674,0.6436198949813843,-0.8124398589134216,-0.795708417892456,0.21346479654312134,0.038243889808654785
1749034816.8506784,3.748056411743164,-2.424437185327047,1.1657798925982874,-1.3945562851480027,4.304838180541992,-5.5787270108806055,-0.0031715177465230227,0.01822291687130928,-0.018008708953857422,-0.009422119706869125,0.010473071597516537,0.019246648997068405,0.019040368497371674,0.6436198949813843,-0.8124398589134216,-0.795708417892456,0.21346479654312134,0.038243889808654785
1749034816.8507228,3.748051643371582,-2.4243842564024867,1.1657269636737269,-1.3946124029210587,4.304873943328857,-5.578589502965109,-0.003390320111066103,0.02043728530406952,-0.018017644062638283,-0.012103831395506859,0.016879914328455925,0.017914198338985443,0.010967820882797241,0.6773874163627625,-0.8139210343360901,-0.7853344678878784,0.2168647050857544,0.07420496642589569
1749034816.850769,3.748051643371582,-2.4243842564024867,1.1657269636737269,-1.3946124029210587,4.304873943328857,-5.578589502965109,-0.003390320111066103,0.02043728530406952,-0.018017644062638283,-0.012103831395506859,0.016879914328455925,0.017914198338985443,0.010967820882797241,0.6773874163627625,-0.8139210343360901,-0.7853344678878784,0.2168647050857544,0.07420496642589569
1749034816.8508172,3.7480084896087646,-2.4243394337096156,1.16563588777651,-1.394667164688446,4.304980278015137,-5.578579489384786,-0.004261696245521307,0.022723067551851273,-0.01848183199763298,-0.013696176931262016,0.020905286073684692,0.018016992136836052,-0.005516543984413147,0.6872584223747253,-0.8153123259544373,-0.7695298194885254,0.18511153757572174,0.08031082153320312
1749034816.8508573,3.747985363006592,-2.424286504785055,1.1656034628497522,-1.3946960729411622,4.305019855499268,-5.5785399715053,-0.004651474300771952,0.024685727432370186,-0.018136262893676758,-0.01384469773620367,0.02065405249595642,0.01860828883945942,0.014506161212921143,0.6997817754745483,-0.8339574337005615,-0.7809303402900696,0.19154272973537445,0.10900121927261353
1749034816.8508945,3.747992753982544,-2.424208780328268,1.1655643622027796,-1.3947390627912064,4.30508279800415,-5.578457597886221,-0.004447075538337231,0.025796061381697655,-0.01932939700782299,-0.014210007153451443,0.020370110869407654,0.019988853484392166,-0.007937297224998474,0.6950674057006836,-0.8255925178527832,-0.7653613686561584,0.20782169699668884,0.1043701320886612
1749034816.8509312,3.748012065887451,-2.4241606197752894,1.1655004660235804,-1.3947437715581437,4.305134296417236,-5.578468207512991,-0.004225980490446091,0.027251625433564186,-0.02055484429001808,-0.01394758839160204,0.02093508653342724,0.021202120929956436,-0.02610013633966446,0.7128891348838806,-0.848276674747467,-0.7688694596290588,0.18800747394561768,0.11302731931209564
1749034816.8509681,3.7480156421661377,-2.424100538293356,1.1654680410968226,-1.394764022236206,4.305166244506836,-5.578413132821218,-0.00492473691701889,0.02809571474790573,-0.021616855636239052,-0.013190576806664467,0.021210849285125732,0.02356668934226036,-0.0360911563038826,0.7386579513549805,-0.8259831070899963,-0.7693609595298767,0.17056450247764587,0.12319210171699524
1749034816.8510048,3.748012065887451,-2.424099107781881,1.1654475370990198,-1.3948035848191758,4.305222988128662,-5.57837695280184,-0.004874319303780794,0.029145797714591026,-0.02276359125971794,-0.011897065676748753,0.020859215408563614,0.02589399926364422,-0.043564118444919586,0.7586019039154053,-0.8226920962333679,-0.780185341835022,0.18188315629959106,0.13857397437095642
1749034816.851048,3.7479724884033203,-2.424007555047506,1.1653841177569788,-1.3948116910508652,4.305227279663086,-5.57834101120104,-0.004911436699330807,0.030474836006760597,-0.02412073127925396,-0.010829162783920765,0.020363399758934975,0.028284909203648567,-0.0295945405960083,0.7783706784248352,-0.8410747051239014,-0.7639803290367126,0.17020857334136963,0.1473860740661621
1749034816.8510864,3.7480194568634033,-2.4239689312376917,1.1653474012957972,-1.394827203159668,4.305309772491455,-5.57825488248934,-0.004918992985039949,0.03180186077952385,-0.025997327640652657,-0.009278618730604649,0.0199771448969841,0.03070838190615177,-0.07531919330358505,0.8003183603286743,-0.8364582061767578,-0.7865772247314453,0.1759040504693985,0.1690475046634674
1749034816.851131,3.7479407787323,-2.42388453106069,1.1652796904193323,-1.394866482620575,4.305397033691406,-5.578267637883322,-0.005933509673923254,0.034924060106277466,-0.02795032411813736,-0.008625408634543419,0.01969333365559578,0.0334826298058033,-0.05352085083723068,0.766606330871582,-0.8231230974197388,-0.7929129600524902,0.17773644626140594,0.15709179639816284
1749034816.8511772,3.7479724884033203,-2.4238363705077113,1.1652043501483362,-1.3948819798282166,4.30535888671875,-5.57816452184786,-0.006460241042077541,0.036209456622600555,-0.029211658984422684,-0.008312285877764225,0.020065203309059143,0.03632873296737671,-0.04953858256340027,0.8123393058776855,-0.8356403112411499,-0.7944907546043396,0.1791040003299713,0.15086886286735535
1749034816.8512158,3.7479445934295654,-2.4237524471678675,1.1651447455035608,-1.3948939752629776,4.305417537689209,-5.578108255063192,-0.00643136166036129,0.03671257570385933,-0.031050734221935272,-0.008606279268860817,0.019531680271029472,0.03909771144390106,-0.0678214430809021,0.8659071326255798,-0.8101047873497009,-0.8150664567947388,0.17991912364959717,0.15544995665550232
1749034816.8512568,3.747901201248169,-2.423668523828024,1.16502553621401,-1.3949141514352341,4.305492401123047,-5.5780068079577845,-0.0070767649449408054,0.04012792930006981,-0.03273189812898636,-0.009731516242027283,0.019188500940799713,0.041049774736166,-0.057957977056503296,0.8561142683029175,-0.8183976411819458,-0.8020907044410706,0.1986580491065979,0.1937173753976822
1749034816.851366,3.7479398250579834,-2.423588892022604,1.1649969259845179,-1.3949261468699952,4.305488586425781,-5.577944938336508,-0.007634337991476059,0.042942553758621216,-0.03433280438184738,-0.010015680454671383,0.020354991778731346,0.042663659900426865,-0.07364673912525177,0.8547743558883667,-0.8084525465965271,-0.8150528073310852,0.1882477104663849,0.1737569272518158
1749034816.8514087,3.7479279041290283,-2.423521181146139,1.164901081715719,-1.394958571796753,4.305498123168945,-5.577861134205953,-0.008161427453160286,0.046962808817625046,-0.03559795767068863,-0.011915956623852253,0.020852267742156982,0.04416951909661293,-0.07725650817155838,0.8603366613388062,-0.7970495820045471,-0.8071706295013428,0.1905878186225891,0.2004515826702118
1749034816.851616,3.7478880882263184,-2.4234091244139613,1.164844814931051,-1.3949788373759766,4.3055620193481445,-5.577741209660665,-0.008173356764018536,0.0493696853518486,-0.036863721907138824,-0.013153730891644955,0.02238638512790203,0.046532630920410156,-0.08813763409852982,0.7967790365219116,-0.804589033126831,-0.8057725429534912,0.21807026863098145,0.17439186573028564
1749034816.8534267,3.7478725910186768,-2.4233409367003382,1.164741341267721,-1.3950214397958298,4.305604934692383,-5.577669207249777,-0.007751415949314833,0.04825536906719208,-0.038240011781454086,-0.013729890808463097,0.023374663665890694,0.047514621168375015,-0.08356387168169022,0.8426451086997986,-0.8016843199729919,-0.7986267805099487,0.20466464757919312,0.18933811783790588
1749034816.8942792,3.7478761672973633,-2.423213621179098,1.1646574179278772,-1.3950610768846055,4.3056440353393555,-5.577573362980978,-0.007788209710270166,0.050631340593099594,-0.03929981589317322,-0.013816135935485363,0.024057097733020782,0.049123432487249374,-0.07729386538267136,0.8524239659309387,-0.7902641296386719,-0.8112868070602417,0.22421643137931824,0.19395998120307922
1749034816.8943248,3.7478678226470947,-2.4231330356993617,1.1646011511432093,-1.3950969588807602,4.305681228637695,-5.577446047459738,-0.007647373713552952,0.0522102452814579,-0.04087245091795921,-0.014579263515770435,0.02665700949728489,0.05066949129104614,-0.07501503080129623,0.801182210445404,-0.7952824831008911,-0.7867887020111084,0.20210465788841248,0.17819473147392273
1749034816.8943696,3.7478678226470947,-2.423004766503805,1.1644895712481897,-1.395136223440506,4.305806636810303,-5.577346805726187,-0.006901083514094353,0.05242642015218735,-0.040863849222660065,-0.015601894818246365,0.027429023757576942,0.05168360471725464,-0.1099112257361412,0.8157699108123779,-0.7776769995689392,-0.7848342657089233,0.18566949665546417,0.1962428092956543
1749034816.8944094,3.74783992767334,-2.4229051075377406,1.1644251982318323,-1.3951722395471116,4.305788993835449,-5.577238861714498,-0.007193028461188078,0.05346538498997688,-0.04146679863333702,-0.015468528494238853,0.02942623943090439,0.053165510296821594,-0.10458042472600937,0.8180022239685059,-0.7922594547271729,-0.794815719127655,0.19022662937641144,0.18553848564624786
1749034816.8944476,3.7477848529815674,-2.4228159389891566,1.16433030763735,-1.3951921474984665,4.305910587310791,-5.5771793762790125,-0.007249944843351841,0.05386889725923538,-0.04195652902126312,-0.015482230111956596,0.029562514275312424,0.054244447499513626,-0.08386015146970749,0.8245512843132019,-0.7905861735343933,-0.7951290011405945,0.18055160343647003,0.16380523145198822
1749034816.894485,3.74783992767334,-2.4227081737914027,1.1642654577838343,-1.3951969903758545,4.305881977081299,-5.577026311551229,-0.006951643619686365,0.05478888377547264,-0.04161805287003517,-0.01565789431333542,0.03045504167675972,0.05487924441695213,-0.10900543630123138,0.8209052085876465,-0.7875192761421204,-0.799871027469635,0.1792266070842743,0.16582174599170685
1749034816.894522,3.74783992767334,-2.4227081737914027,1.1642654577838343,-1.3951969903758545,4.305881977081299,-5.577026311551229,-0.006951643619686365,0.05478888377547264,-0.04161805287003517,-0.01565789431333542,0.03045504167675972,0.05487924441695213,-0.10900543630123138,0.8209052085876465,-0.7875192761421204,-0.799871027469635,0.1792266070842743,0.16582174599170685
1749034816.8945594,3.7478041648864746,-2.422488351861471,1.1640823523150843,-1.3952875149301072,4.306061744689941,-5.576814059411184,-0.007723259273916483,0.055552028119564056,-0.04276290163397789,-0.016403960064053535,0.030049435794353485,0.054580409079790115,-0.11203230917453766,0.8336340188980103,-0.7850897312164307,-0.7972900867462158,0.18933522701263428,0.17416320741176605
1749034816.8945959,3.7477800846099854,-2.4223643742003382,1.1639979521380823,-1.3953045171550293,4.306087493896484,-5.576721493397848,-0.007879642769694328,0.05655159428715706,-0.042564231902360916,-0.016008887439966202,0.029151277616620064,0.05476345494389534,-0.10986538231372833,0.8219761848449707,-0.763371467590332,-0.7960290908813477,0.17579208314418793,0.14675647020339966
1749034816.8946507,3.7477800846099854,-2.422213693658346,1.163938347493307,-1.3953594130328675,4.306190013885498,-5.576570753251211,-0.007140384055674076,0.05682141333818436,-0.03920593485236168,-0.01589236594736576,0.029529279097914696,0.0550970695912838,-0.12369488179683685,0.8168906569480896,-0.8008115291595459,-0.799038290977478,0.18605461716651917,0.15679976344108582
1749034816.8946905,3.7477824687957764,-2.4221745930113734,1.1638620535479944,-1.3953522008708497,4.306191444396973,-5.5764557162867945,-0.007426686119288206,0.057418785989284515,-0.040169116109609604,-0.016178609803318977,0.028830792754888535,0.05716831982135773,-0.12194620817899704,0.8587669134140015,-0.8053581714630127,-0.8155016899108887,0.20712946355342865,0.1479482501745224
1749034816.894728,3.7477197647094727,-2.422023435632223,1.1637705008136194,-1.395407111649849,4.306304454803467,-5.5763511697398584,-0.007662702351808548,0.05890153348445892,-0.0411590076982975,-0.016414178535342216,0.029978621751070023,0.05629540979862213,-0.12788888812065125,0.8309190273284912,-0.8062021136283875,-0.7990532517433167,0.18902374804019928,0.13379459083080292
1749034816.8947697,3.7476959228515625,-2.421915670434469,1.1636980215655726,-1.3954237264445801,4.3063483238220215,-5.576270405446188,-0.008188165724277496,0.058994900435209274,-0.04209481179714203,-0.016455767676234245,0.030130278319120407,0.054576218128204346,-0.08602511137723923,0.8215498924255371,-0.7850993871688843,-0.828843355178833,0.19158142805099487,0.16042986512184143
1749034816.894808,3.7476837635040283,-2.4217921696104945,1.1636460463153284,-1.395478532915451,4.3064045906066895,-5.576116267834799,-0.007734477519989014,0.0589076392352581,-0.042066097259521484,-0.016603983938694,0.030630050227046013,0.05368654802441597,-0.11111053079366684,0.8587528467178345,-0.7978253960609436,-0.8316694498062134,0.18772642314434052,0.15589652955532074
1749034816.894845,3.7477030754089355,-2.4216648540892542,1.1635273138629358,-1.395486907368042,4.306448459625244,-5.576015237961904,-0.0069343638606369495,0.059496741741895676,-0.04007204622030258,-0.017216233536601067,0.03101440519094467,0.05406326800584793,-0.13580290973186493,0.8667644262313843,-0.8140547275543213,-0.8210427761077881,0.1913425475358963,0.17112162709236145
1749034816.8948808,3.7477030754089355,-2.4216648540892542,1.1635273138629358,-1.395486907368042,4.306448459625244,-5.576015237961904,-0.0069343638606369495,0.059496741741895676,-0.04007204622030258,-0.017216233536601067,0.03101440519094467,0.05406326800584793,-0.13580290973186493,0.8667644262313843,-0.8140547275543213,-0.8210427761077881,0.1913425475358963,0.17112162709236145
1749034816.8949392,3.7476441860198975,-2.42142452816152,1.163363281880514,-1.3955548715642472,4.306599140167236,-5.575814549122946,-0.006759100127965212,0.05971037968993187,-0.04251083359122276,-0.01927913725376129,0.03203766793012619,0.054455265402793884,-0.11504168808460236,0.8706039786338806,-0.7980329990386963,-0.8223690390586853,0.19232651591300964,0.1551094502210617
1749034816.8949778,3.7476632595062256,-2.421310087243551,1.1632793585406702,-1.39564901710067,4.306636333465576,-5.57572585741152,-0.006755714304745197,0.0636783018708229,-0.04329189285635948,-0.019424855709075928,0.032185956835746765,0.05526752397418022,-0.14110742509365082,0.8702199459075928,-0.7921215295791626,-0.8180629014968872,0.19018658995628357,0.15315505862236023
1749034816.895014,3.7476203441619873,-2.421187540093893,1.1632264296161097,-1.3956730973771592,4.306746482849121,-5.575617853795187,-0.007308423984795809,0.06180167570710182,-0.043415796011686325,-0.02007630281150341,0.0325530543923378,0.05687630549073219,-0.1478528082370758,0.8830459117889404,-0.8045622706413269,-0.8230196237564087,0.1868651956319809,0.15557315945625305
1749034816.8950505,3.7475850582122803,-2.4210578403868617,1.1631115118609827,-1.395704985862114,4.306775093078613,-5.575513307248251,-0.007570052053779364,0.06348410248756409,-0.044102612882852554,-0.021526657044887543,0.03234047070145607,0.05770834535360336,-0.1525234580039978,0.9085957407951355,-0.8163866400718689,-0.8193578720092773,0.17249485850334167,0.16690151393413544
1749034816.8953557,3.747607946395874,-2.420912881890768,1.1630271116839808,-1.3957720261863251,4.306861877441406,-5.5753552357303064,-0.008065654896199703,0.06721772253513336,-0.04466542974114418,-0.0211354810744524,0.03319733589887619,0.05580606684088707,-0.1390802562236786,0.8665685653686523,-0.8035603165626526,-0.818164050579071,0.18333446979522705,0.17205694317817688
1749034816.8973627,3.7475650310516357,-2.4208160839476527,1.1629107634173792,-1.3957851839116593,4.306937217712402,-5.575274888669149,-0.008362640626728535,0.06691965460777283,-0.045318786054849625,-0.021847549825906754,0.033300772309303284,0.05526849627494812,-0.1396186351776123,0.868844211101532,-0.8240638971328735,-0.8088196516036987,0.19229653477668762,0.18265870213508606
1749034816.93859,3.7475478649139404,-2.420687337914938,1.1628440062152308,-1.3958364439061661,4.306960105895996,-5.57513922849764,-0.00823150109499693,0.06723000854253769,-0.04624935984611511,-0.02208300121128559,0.034420788288116455,0.05638161301612854,-0.12279526144266129,0.8946053981781006,-0.8106793761253357,-0.8039001226425171,0.1788504421710968,0.19783245027065277
1749034816.938672,3.747586727142334,-2.4205709896483363,1.1627548376666468,-1.3959031862071534,4.3070855140686035,-5.575031522904531,-0.008671233430504799,0.06998100131750107,-0.04711313918232918,-0.02214798517525196,0.03439157456159592,0.05811682716012001,-0.11311868578195572,0.8763983249664307,-0.8088952898979187,-0.8067617416381836,0.1733723282814026,0.20878532528877258
1749034816.9387717,3.7475204467773438,-2.4203959904112757,1.1626279989825647,-1.3959476065686722,4.307112693786621,-5.574927333985464,-0.009498908184468746,0.07030268013477325,-0.047966133803129196,-0.022333627566695213,0.03299819305539131,0.059533312916755676,-0.1566232144832611,0.8918333053588867,-0.8084093332290649,-0.815448522567749,0.19775918126106262,0.1816982626914978
1749034816.9388468,3.747527599334717,-2.420272012750143,1.162551228200094,-1.3959484708360215,4.307188034057617,-5.574807171021597,-0.00891920831054449,0.07173581421375275,-0.048390548676252365,-0.022298451513051987,0.033395055681467056,0.060550954192876816,-0.13595923781394958,0.8965783715248108,-0.7994816303253174,-0.8179275989532471,0.20774874091148376,0.18365049362182617
1749034816.9389157,3.747465133666992,-2.4201470814146937,1.1624553839312952,-1.3960116666606446,4.307266712188721,-5.57464033762087,-0.009175123646855354,0.07314367592334747,-0.05128289386630058,-0.02291831374168396,0.033285293728113174,0.061528559774160385,-0.1552746444940567,0.8678458333015442,-0.7750850915908813,-0.8095608949661255,0.2033368945121765,0.1935109943151474
1749034816.938987,3.7474639415740967,-2.4199563465514125,1.1623366514789026,-1.3960786622813721,4.307338237762451,-5.574532751237051,-0.009287386201322079,0.07324698567390442,-0.05019449070096016,-0.02347450517117977,0.03405315428972244,0.06340499222278595,-0.13180020451545715,0.9097273349761963,-0.7798418998718262,-0.8202955722808838,0.22366736829280853,0.19217592477798462
1749034816.9390645,3.747448205947876,-2.4198156795897425,1.1622284094439905,-1.3961263310960312,4.30734395980835,-5.57442289987673,-0.009840268641710281,0.07793577760457993,-0.050480879843235016,-0.02413102239370346,0.03453207015991211,0.06275296211242676,-0.13518300652503967,0.8815938234329224,-0.8100199699401855,-0.7984768748283386,0.2138327807188034,0.19882360100746155
1749034816.9391363,3.7474398612976074,-2.419687410394186,1.1621363798724573,-1.3961859357408066,4.307404041290283,-5.574294630681173,-0.009825113229453564,0.07489005476236343,-0.053269583731889725,-0.025208184495568275,0.035454161465168,0.06340818107128143,-0.14976727962493896,0.9147017002105713,-0.797238290309906,-0.808457612991333,0.21338756382465363,0.20516017079353333
1749034816.939204,3.7474265098571777,-2.419534822503561,1.1620128790484827,-1.3962491315654297,4.307530403137207,-5.574190024529592,-0.010453838855028152,0.07644584029912949,-0.05451033264398575,-0.02542681060731411,0.03684587404131889,0.06398918479681015,-0.1362779140472412,0.9345040321350098,-0.7734594345092773,-0.8028861284255981,0.22412770986557007,0.21173229813575745
1749034816.939275,3.747403860092163,-2.4193245373167933,1.1619208494769495,-1.3962813180736084,4.307636737823486,-5.574035827313558,-0.010095597244799137,0.08066990971565247,-0.055149804800748825,-0.025922181084752083,0.03736094385385513,0.06550031900405884,-0.1492704451084137,0.8857074975967407,-0.7768579125404358,-0.7977486848831177,0.2256626933813095,0.19077488780021667
1749034816.9393444,3.7473883628845215,-2.419206758538717,1.1618168989764612,-1.3963135194829484,4.307665824890137,-5.5738606492625635,-0.01039011962711811,0.07853782922029495,-0.053959403187036514,-0.026545127853751183,0.03867931663990021,0.06638624519109726,-0.16930356621742249,0.9552665948867798,-0.8041529059410095,-0.7976808547973633,0.21851746737957,0.217546284198761
1749034816.9394135,3.7473883628845215,-2.419206758538717,1.1618168989764612,-1.3963135194829484,4.307665824890137,-5.5738606492625635,-0.01039011962711811,0.07853782922029495,-0.053959403187036514,-0.026545127853751183,0.03867931663990021,0.06638624519109726,-0.16930356621742249,0.9552665948867798,-0.8041529059410095,-0.7976808547973633,0.21851746737957,0.217546284198761
1749034816.9394584,3.747354507446289,-2.418891569177145,1.1615813414203089,-1.3964401197484513,4.30784797668457,-5.5736194292651575,-0.010917145758867264,0.08425083756446838,-0.0583869144320488,-0.02735355868935585,0.04144139960408211,0.07298636436462402,-0.15644921362400055,0.9343233108520508,-0.7672423720359802,-0.7966905832290649,0.20499230921268463,0.18250572681427002
1749034816.9394956,3.747342348098755,-2.4186836681761683,1.1614459196673792,-1.396496133213379,4.307928085327148,-5.573456172143118,-0.011497095227241516,0.08534346520900726,-0.058762162923812866,-0.027736753225326538,0.041785500943660736,0.07122395187616348,-0.1506420224905014,0.948162853717804,-0.7872644066810608,-0.7794589400291443,0.20780864357948303,0.19597841799259186
1749034816.9395323,3.747302770614624,-2.41851868251943,1.1613643805133265,-1.3965557378581543,4.3079962730407715,-5.573347095643179,-0.011605371721088886,0.08653068542480469,-0.0592777319252491,-0.027732785791158676,0.0426434725522995,0.07085797935724258,-0.19231419265270233,0.9242032766342163,-0.7916622161865234,-0.7880127429962158,0.22390657663345337,0.22795294225215912
1749034816.9395683,3.7472596168518066,-2.418335100213522,1.16124135652651,-1.3966034215739747,4.308103561401367,-5.573180381451742,-0.011673961766064167,0.08910723775625229,-0.060492780059576035,-0.02869715541601181,0.044492997229099274,0.07403299957513809,-0.16690057516098022,0.9640958905220032,-0.8093546628952026,-0.8028312921524048,0.2190162092447281,0.23497475683689117
1749034816.9396045,3.7472317218780518,-2.418201585809225,1.1611173788653772,-1.3966713559678574,4.308160305023193,-5.57304019132723,-0.012372608296573162,0.09163881838321686,-0.061343420296907425,-0.029557837173342705,0.04705095663666725,0.07630401849746704,-0.14628484845161438,0.9012884497642517,-0.7971361875534058,-0.7710983753204346,0.20854665338993073,0.22989055514335632
1749034816.9396412,3.7472307682037354,-2.417952676812643,1.161013428364889,-1.3967308861068268,4.308294773101807,-5.572872046624319,-0.011963242664933205,0.09258270263671875,-0.061984073370695114,-0.03016595169901848,0.04776008427143097,0.0811857208609581,-0.15761911869049072,0.9301613569259644,-0.8079208731651306,-0.7858865857124329,0.21285803616046906,0.2041194885969162
1749034816.9396775,3.7472150325775146,-2.4177915058531703,1.1608346144305628,-1.3967785698226471,4.308370113372803,-5.572692100201742,-0.012585433200001717,0.09415259957313538,-0.0639353021979332,-0.030391881242394447,0.04741887003183365,0.08325548470020294,-0.14083881676197052,0.9092814922332764,-0.810653030872345,-0.777447521686554,0.20790772140026093,0.21297185122966766
1749034816.9397132,3.747175455093384,-2.417615076104635,1.1607149283038538,-1.3968504679254075,4.308504581451416,-5.5725255648242396,-0.012166086584329605,0.09583418071269989,-0.06469755619764328,-0.030881687998771667,0.046722736209630966,0.08143509924411774,-0.16671045124530792,0.9448930025100708,-0.8154304027557373,-0.7768440842628479,0.2109297662973404,0.21788713335990906
1749034816.939846,3.747166872024536,-2.4173766575255335,1.1605899969684046,-1.3969258230975647,4.308576583862305,-5.572357777749197,-0.012855155393481255,0.09685122966766357,-0.0662098154425621,-0.030902300029993057,0.046916138380765915,0.08307585120201111,-0.15491646528244019,0.9328535199165344,-0.8394031524658203,-0.7792726755142212,0.21419736742973328,0.2340930998325348
1749034816.941429,3.7471272945404053,-2.4171654186644496,1.1604741255389612,-1.3970042032054444,4.308637619018555,-5.572215859089987,-0.011720745824277401,0.09785163402557373,-0.0679270327091217,-0.03167904168367386,0.04853425174951553,0.0857221707701683,-0.1733512580394745,0.9655613303184509,-0.8227319717407227,-0.7722223997116089,0.21723058819770813,0.23073133826255798
1749034816.9822671,3.7471070289611816,-2.41702999691152,1.1602986494647425,-1.3970292669585724,4.308791637420654,-5.572025243435995,-0.011252355761826038,0.10086219757795334,-0.06992071121931076,-0.03177523612976074,0.05092290788888931,0.08703256398439407,-0.17646466195583344,0.9029485583305359,-0.8017348051071167,-0.770525336265564,0.20070767402648926,0.22479620575904846
1749034816.9823124,3.7470791339874268,-2.4167949161925257,1.1601784865008753,-1.3970816892436524,4.308848857879639,-5.571805779133932,-0.012009123340249062,0.10001466423273087,-0.07023680955171585,-0.03289959207177162,0.05000888556241989,0.08810088783502579,-0.1752614974975586,0.981397271156311,-0.8165291547775269,-0.7523420453071594,0.20912928879261017,0.23800580203533173
1749034816.9823577,3.747044324874878,-2.4166184864439906,1.1600034872638147,-1.3971761626056214,4.308987140655518,-5.571665529404775,-0.012271770276129246,0.10542520135641098,-0.07477863878011703,-0.03314831852912903,0.05099625140428543,0.0899071991443634,-0.16950151324272156,0.9087629318237305,-0.8003317713737488,-0.7787304520606995,0.1956336796283722,0.22996774315834045
1749034816.9823983,3.7470779418945312,-2.4163400135436,1.159851376210348,-1.397235707645752,4.309067249298096,-5.571485523377554,-0.011632702313363552,0.10425549000501633,-0.0741802230477333,-0.03329722583293915,0.05340832099318504,0.09136343747377396,-0.18957655131816864,0.9580664038658142,-0.8018190264701843,-0.7703577280044556,0.18553872406482697,0.2391493022441864
1749034816.9824362,3.7470107078552246,-2.4161583385863246,1.1597231070147913,-1.3973120015910645,4.309221267700195,-5.571317378674642,-0.011976835317909718,0.10670909285545349,-0.07438923418521881,-0.034953437745571136,0.053548943251371384,0.09305102378129959,-0.17666755616664886,0.951461672782898,-0.8229240775108337,-0.7355488538742065,0.20557644963264465,0.23563921451568604
1749034816.9824736,3.746976137161255,-2.415938993493551,1.1595514456378382,-1.3973906946233292,4.309335708618164,-5.571125451718466,-0.011546632274985313,0.10898242890834808,-0.07868371158838272,-0.03641277551651001,0.0531000941991806,0.09482268244028091,-0.18908263742923737,0.9659606218338013,-0.8005181550979614,-0.7424719929695129,0.18291674554347992,0.23573267459869385
1749034816.9825168,3.7469916343688965,-2.4157334766783656,1.1593921820269983,-1.3974743497422715,4.309396743774414,-5.570952836667196,-0.012489342130720615,0.11204791069030762,-0.07732010632753372,-0.0368138924241066,0.053524281829595566,0.09842363744974136,-0.17776796221733093,0.9614571928977966,-0.8111129999160767,-0.7366650104522705,0.21083706617355347,0.24466747045516968
1749034816.9825597,3.746920347213745,-2.4155055485167445,1.159271542225973,-1.3975492429784317,4.3095316886901855,-5.570745174084799,-0.011846670880913734,0.11137496680021286,-0.07857143133878708,-0.036156218498945236,0.05437147617340088,0.09879345446825027,-0.19712133705615997,0.9388131499290466,-0.8262628316879272,-0.7258644104003906,0.19685986638069153,0.23899468779563904
1749034816.9825974,3.746938467025757,-2.415285726586813,1.1590998808490198,-1.3976054948619385,4.309638977050781,-5.570525590573446,-0.012041302397847176,0.11766458302736282,-0.07989532500505447,-0.03543611988425255,0.05718102678656578,0.10087624937295914,-0.16929620504379272,0.9319250583648682,-0.8240814805030823,-0.7494267821311951,0.19329224526882172,0.2527199983596802
1749034816.9826353,3.7469301223754883,-2.4150191746153773,1.1589320341693323,-1.3976771098426362,4.309767246246338,-5.570356194172994,-0.012197193689644337,0.1191960871219635,-0.08089037984609604,-0.03477184474468231,0.05791442096233368,0.10272400081157684,-0.1686757504940033,0.9011111259460449,-0.842745304107666,-0.7419732809066772,0.1940658986568451,0.25229424238204956
1749034816.9826725,3.746894121170044,-2.414795061151022,1.1587722937213343,-1.3977569204619904,4.309900760650635,-5.570141736661093,-0.012298031710088253,0.11949121206998825,-0.08289145678281784,-0.034166738390922546,0.05831987410783768,0.10413547605276108,-0.2044326364994049,0.9325047731399536,-0.8244364261627197,-0.7644848227500916,0.19061163067817688,0.25211024284362793
1749034816.9827087,3.746894121170044,-2.414795061151022,1.1587722937213343,-1.3977569204619904,4.309900760650635,-5.570141736661093,-0.012298031710088253,0.11949121206998825,-0.08289145678281784,-0.034166738390922546,0.05831987410783768,0.10413547605276108,-0.2044326364994049,0.9325047731399536,-0.8244364261627197,-0.7644848227500916,0.19061163067817688,0.25211024284362793
1749034816.9827554,3.746823310852051,-2.414314409295553,1.1584089438067835,-1.3978609454682847,4.310125350952148,-5.569718364869253,-0.012220087461173534,0.12183716148138046,-0.08571469783782959,-0.03506745398044586,0.05949956551194191,0.10837457329034805,-0.19167378544807434,0.9378882646560669,-0.8243848085403442,-0.7552239298820496,0.19015298783779144,0.2556382417678833
1749034816.9827936,3.7468183040618896,-2.414058824578756,1.1582844893084925,-1.3979634803584595,4.310235977172852,-5.569506053124563,-0.012928375974297523,0.12293210625648499,-0.08835957199335098,-0.034823715686798096,0.059493716806173325,0.11074214428663254,-0.20101609826087952,0.9686901569366455,-0.8295179605484009,-0.7680581212043762,0.193271666765213,0.24353449046611786
1749034816.9828362,3.746809959411621,-2.413786073724264,1.1580856482135218,-1.398019478922226,4.310378551483154,-5.5692747871028345,-0.012755201198160648,0.12406766414642334,-0.08938513696193695,-0.03566829115152359,0.06015011668205261,0.11413800716400146,-0.20019277930259705,0.9765022397041321,-0.7983226180076599,-0.7913710474967957,0.20152077078819275,0.2344585806131363
1749034816.9828758,3.746809959411621,-2.413786073724264,1.1580856482135218,-1.398019478922226,4.310378551483154,-5.5692747871028345,-0.012755201198160648,0.12406766414642334,-0.08938513696193695,-0.03566829115152359,0.06015011668205261,0.11413800716400146,-0.20019277930259705,0.9765022397041321,-0.7983226180076599,-0.7913710474967957,0.20152077078819275,0.2344585806131363
1749034816.9829125,3.746763229370117,-2.413510938683981,1.157912556325094,-1.3980948787978669,4.310447692871094,-5.569015208874838,-0.013578027486801147,0.12597505748271942,-0.08978600054979324,-0.035359516739845276,0.06121385097503662,0.11261806637048721,-0.19462043046951294,0.9885913133621216,-0.8361661434173584,-0.8064914345741272,0.224924236536026,0.24178458750247955
1749034816.9829497,3.7467222213745117,-2.4130455456175746,1.1575258413897913,-1.3982498955777665,4.310725688934326,-5.568582300339834,-0.01426792424172163,0.12962716817855835,-0.09270966053009033,-0.038419321179389954,0.06422437727451324,0.11914119124412537,-0.2040691375732422,0.9650284647941589,-0.8424918055534363,-0.7890973091125488,0.2045784592628479,0.23363077640533447
1749034816.9829865,3.7466237545013428,-2.4127546749510707,1.157342259083883,-1.3983177256635209,4.310892105102539,-5.56829554239382,-0.014189459383487701,0.13496534526348114,-0.09357748180627823,-0.03979763761162758,0.06615512818098068,0.1191042885184288,-0.19672003388404846,0.8854750394821167,-0.83845055103302,-0.8076146245002747,0.21283243596553802,0.24009446799755096
1749034816.983023,3.7466237545013428,-2.4125100574889125,1.1571467558490198,-1.3984083992293854,4.310988426208496,-5.5680556933032435,-0.014302460476756096,0.13561485707759857,-0.09587332606315613,-0.03933662548661232,0.06770047545433044,0.12033339589834213,-0.21014359593391418,0.9381776452064514,-0.8353214263916016,-0.8064146041870117,0.21575510501861572,0.22189944982528687
1749034816.9834008,3.746610403060913,-2.4122258625426234,1.156961743031637,-1.3985040199807663,4.3111162185668945,-5.567803565655844,-0.01618100330233574,0.13889235258102417,-0.0973627045750618,-0.03969893231987953,0.06850650161504745,0.12043475359678268,-0.19874326884746552,0.8924331068992615,-0.8474457859992981,-0.8198922276496887,0.18913328647613525,0.21792645752429962
1749034816.9853907,3.746610403060913,-2.4122258625426234,1.156961743031637,-1.3985040199807663,4.3111162185668945,-5.567803565655844,-0.01618100330233574,0.13889235258102417,-0.0973627045750618,-0.03969893231987953,0.06850650161504745,0.12043475359678268,-0.19874326884746552,0.8924331068992615,-0.8474457859992981,-0.8198922276496887,0.18913328647613525,0.21792645752429962
1749034817.0262625,3.746570348739624,-2.411685129205221,1.1565311590777796,-1.3986554008773346,4.311389446258545,-5.567311827336447,-0.013764549978077412,0.13574638962745667,-0.10065994411706924,-0.04039538651704788,0.06777716428041458,0.11981038749217987,-0.2233343869447708,0.9902955293655396,-0.8537876605987549,-0.8479022979736328,0.22411984205245972,0.23825594782829285
1749034817.0263076,3.746572971343994,-2.411405702630514,1.1563470999347132,-1.398742364054062,4.311529636383057,-5.5671149531947535,-0.01564043201506138,0.14030110836029053,-0.10210809856653214,-0.04277806356549263,0.06890181452035904,0.11905871331691742,-0.24380651116371155,0.9803944230079651,-0.8126609325408936,-0.8448593020439148,0.24539902806282043,0.2695319652557373
1749034817.026347,3.7464938163757324,-2.4111372433104457,1.1561396757708948,-1.3988298040679474,4.311648845672607,-5.566840652619497,-0.01625039242208004,0.1462755799293518,-0.10436175018548965,-0.04479283094406128,0.07058051973581314,0.12531070411205292,-0.22993627190589905,0.943756103515625,-0.818402886390686,-0.8329488635063171,0.23640042543411255,0.21967405080795288
1749034817.0263898,3.7464540004730225,-2.410840173760885,1.1559551397906702,-1.3989023727229615,4.311862468719482,-5.5665574113475245,-0.01740499772131443,0.14605823159217834,-0.10667185485363007,-0.04528667777776718,0.07137821614742279,0.12462965399026871,-0.20539699494838715,0.9378696084022522,-0.8256511688232422,-0.8434126377105713,0.22558116912841797,0.2535942494869232
1749034817.0264282,3.746398687362671,-2.41054691890859,1.155720059071676,-1.399016873245575,4.312002182006836,-5.566365663205282,-0.017184242606163025,0.14662040770053864,-0.10509028285741806,-0.046058475971221924,0.07382629066705704,0.12566624581813812,-0.21911132335662842,0.9505336284637451,-0.8236528635025024,-0.8435258269309998,0.2266487181186676,0.2651578187942505
1749034817.0264702,3.746381998062134,-2.410257478753561,1.1555236021624964,-1.3991158318570633,4.312107086181641,-5.566135648881094,-0.017324669286608696,0.1481819599866867,-0.10821268707513809,-0.04613767936825752,0.07691686600446701,0.128020241856575,-0.20033159852027893,0.9753990769386292,-0.8350061178207397,-0.8483248949050903,0.1974770426750183,0.2902238368988037
1749034817.026508,3.7463808059692383,-2.4099589786925257,1.155264679585592,-1.3991991889527817,4.312258720397949,-5.565873567258016,-0.01689527928829193,0.15190911293029785,-0.1083526536822319,-0.04674801602959633,0.07655791193246841,0.13326886296272278,-0.2505498230457306,0.9486234784126282,-0.8255811929702759,-0.8552249670028687,0.2058587670326233,0.23862935602664948
1749034817.0265455,3.746307373046875,-2.4096347294249476,1.1550567785846155,-1.3992721748403092,4.31247615814209,-5.565608088170187,-0.016148919239640236,0.15179666876792908,-0.11073244363069534,-0.04628201201558113,0.07489385455846786,0.13146601617336273,-0.21274827420711517,0.9132338166236877,-0.8289880156517029,-0.8422825932502747,0.20666348934173584,0.28642505407333374
1749034817.0265818,3.7463135719299316,-2.409334798852438,1.1548169294940394,-1.399367557173111,4.312557220458984,-5.565266851578848,-0.016410047188401222,0.1522139459848404,-0.11410113424062729,-0.048736490309238434,0.07721749693155289,0.13458476960659027,-0.23150429129600525,0.9538508057594299,-0.7980853915214539,-0.8550985455513,0.1942330300807953,0.27452924847602844
1749034817.0266187,3.7462427616119385,-2.4090072117247523,1.1546052137957972,-1.3995213967612763,4.3127546310424805,-5.565021876488821,-0.016795892268419266,0.1540653109550476,-0.11612853407859802,-0.05157287418842316,0.07738131284713745,0.1374536007642746,-0.26429465413093567,0.9674943685531616,-0.7796940803527832,-0.8473756909370422,0.20297597348690033,0.26490622758865356
1749034817.026655,3.746218204498291,-2.4087096653380335,1.1543615500079554,-1.39962890863929,4.312924861907959,-5.564750973378317,-0.01747392863035202,0.15666574239730835,-0.11747820675373077,-0.053561605513095856,0.08039619773626328,0.14019669592380524,-0.22001880407333374,0.9836385846138,-0.7681089043617249,-0.8601130843162537,0.20835039019584656,0.2680130898952484
1749034817.0266917,3.746225595474243,-2.4083944759764613,1.1541255156146448,-1.3997517091086884,4.313087463378906,-5.564427141343252,-0.017695238813757896,0.15510320663452148,-0.1163528561592102,-0.054199885576963425,0.08141796290874481,0.1424849033355713,-0.23753967881202698,0.9930371642112732,-0.7707000374794006,-0.8216344118118286,0.1944185048341751,0.24648848176002502
1749034817.0267289,3.746150016784668,-2.4080893001952113,1.153862778340475,-1.3998315346292038,4.313243865966797,-5.5641701261149805,-0.01879815384745598,0.15802064538002014,-0.11897746473550797,-0.05469090864062309,0.07869522273540497,0.14315827190876007,-0.22869467735290527,0.9567103981971741,-0.766705334186554,-0.8267217874526978,0.23546260595321655,0.25273406505584717
1749034817.026773,3.746110200881958,-2.407745977441305,1.153653923665182,-1.39994731665168,4.313430309295654,-5.563866976891653,-0.01913580112159252,0.16110928356647491,-0.11768359690904617,-0.05441520735621452,0.07774830609560013,0.14513516426086426,-0.23446880280971527,0.9749046564102173,-0.819645881652832,-0.8155949115753174,0.2615693509578705,0.24791884422302246
1749034817.0268114,3.746093511581421,-2.407445093194479,1.1533950010882776,-1.40005116284404,4.313600540161133,-5.563563589249746,-0.018942469730973244,0.16371563076972961,-0.11939367651939392,-0.056425176560878754,0.07977955043315887,0.14474231004714966,-0.2247910499572754,1.009430170059204,-0.785930335521698,-0.8233485817909241,0.24869830906391144,0.23986732959747314
1749034817.026848,3.746065855026245,-2.4071437321104945,1.1531594435321253,-1.4001739037087937,4.313726425170898,-5.563263658677236,-0.01939643919467926,0.1623803675174713,-0.12129451334476471,-0.057675838470458984,0.08286131173372269,0.14578896760940552,-0.21928392350673676,1.026943564414978,-0.7821227312088013,-0.8032069802284241,0.22512172162532806,0.2609459161758423
1749034817.0268846,3.74599027633667,-2.4067608318724574,1.1529038588153284,-1.4002967190793534,4.313920974731445,-5.56301844516863,-0.01963263936340809,0.1659691482782364,-0.12188590317964554,-0.059333980083465576,0.08309035748243332,0.14452987909317017,-0.24029001593589783,0.9952373504638672,-0.8040767312049866,-0.7904654145240784,0.24200329184532166,0.2699097692966461
1749034817.0269213,3.7459888458251953,-2.406447549859518,1.1527145544635218,-1.4004160922816773,4.314084529876709,-5.562703494225637,-0.018892891705036163,0.1688183695077896,-0.12390727549791336,-0.05980628728866577,0.08358700573444366,0.145404651761055,-0.24427573382854462,0.9808027744293213,-0.7842743396759033,-0.7954106330871582,0.23992116749286652,0.260015606880188
1749034817.0269651,3.7459492683410645,-2.406088491479391,1.1524513403521937,-1.4005592328361054,4.314263820648193,-5.562429968510763,-0.01915096677839756,0.17055678367614746,-0.12508830428123474,-0.059923019260168076,0.0851314589381218,0.14697854220867157,-0.2411108911037445,0.987345278263092,-0.7874687314033508,-0.7712280750274658,0.23636814951896667,0.2821439802646637
1749034817.027004,3.7459168434143066,-2.4057523212828578,1.1522229353534144,-1.4006974411061783,4.314476013183594,-5.562102560197012,-0.019736478105187416,0.17216195166110992,-0.1249530166387558,-0.06014041230082512,0.08584319055080414,0.15001943707466125,-0.25183820724487305,0.9977378249168396,-0.7834091186523438,-0.7861568331718445,0.24776525795459747,0.25706809759140015
1749034817.02737,3.7458302974700928,-2.405384679833883,1.1519516150103968,-1.400797800426819,4.314640998840332,-5.56178725162615,-0.02057858183979988,0.17211642861366272,-0.12469647824764252,-0.06019284576177597,0.08744077384471893,0.1497226506471634,-0.22441598773002625,1.010587453842163,-0.8090687394142151,-0.7735564708709717,0.21943902969360352,0.3073120713233948
1749034817.0293596,3.745837688446045,-2.405043741265768,1.151731316243307,-1.4009134036353608,4.314835548400879,-5.561463121567861,-0.02017231285572052,0.1741984486579895,-0.12765614688396454,-0.060635730624198914,0.08821728825569153,0.15519696474075317,-0.2661353349685669,1.0032657384872437,-0.7955464720726013,-0.748742401599884,0.21394610404968262,0.28605687618255615
1749034817.0702598,3.745812177658081,-2.4047047100462855,1.1514294783221644,-1.4010329258492966,4.315045356750488,-5.561132494603292,-0.020296113565564156,0.17663010954856873,-0.12877684831619263,-0.062050700187683105,0.0872390866279602,0.15695619583129883,-0.268537312746048,0.9985299706459045,-0.8117465376853943,-0.7541406750679016,0.21828599274158478,0.27629488706588745
1749034817.0703049,3.7457761764526367,-2.404323240319723,1.151212517415182,-1.4011831742576142,4.315159320831299,-5.560781125222341,-0.0210590697824955,0.17894038558006287,-0.12951858341693878,-0.061546098440885544,0.08930697292089462,0.15921556949615479,-0.22737476229667664,0.9539018869400024,-0.812111496925354,-0.7462596297264099,0.20359742641448975,0.2711867094039917
1749034817.0703447,3.7456512451171875,-2.4039751491942347,1.1509411970721644,-1.4012712699225922,4.3153533935546875,-5.56050026813616,-0.020149510353803635,0.1805933564901352,-0.13095363974571228,-0.05847996845841408,0.08988995105028152,0.1630047857761383,-0.27132394909858704,0.9504860639572144,-0.8070825338363647,-0.7629292011260986,0.21247151494026184,0.25778713822364807
1749034817.0703833,3.745696783065796,-2.4035750828185023,1.1506779829608362,-1.4014134866050263,4.315558910369873,-5.560226265584127,-0.020485486835241318,0.18165695667266846,-0.13343681395053864,-0.0568101666867733,0.08675119280815125,0.16270460188388824,-0.2623139023780823,0.9717491269111633,-0.7969255447387695,-0.7761594653129578,0.2371593564748764,0.24592876434326172
1749034817.0704203,3.745652437210083,-2.4031907520689906,1.1504109541522425,-1.4015205216458817,4.315703868865967,-5.559848968182699,-0.021627455949783325,0.1851276010274887,-0.13337387144565582,-0.0561983659863472,0.08840885758399963,0.16875596344470978,-0.2635020613670349,1.0090914964675903,-0.8091495037078857,-0.7974806427955627,0.2338423877954483,0.2645840048789978
1749034817.0704584,3.745588541030884,-2.4028459988036097,1.150116268788473,-1.4016128045371552,4.315863609313965,-5.559540394936697,-0.021430836990475655,0.1846851259469986,-0.13436514139175415,-0.056653257459402084,0.09112311899662018,0.16594666242599487,-0.256220281124115,1.0111658573150635,-0.8314148187637329,-0.7932635545730591,0.24215131998062134,0.2271355539560318
1749034817.0705001,3.745556116104126,-2.4024206600584925,1.1498754660235804,-1.4017057430795212,4.316030979156494,-5.559223953877584,-0.02103339321911335,0.18860258162021637,-0.13723483681678772,-0.05593859404325485,0.09469669312238693,0.16624243557453156,-0.27844542264938354,0.9801413416862488,-0.8158304691314697,-0.8005486130714417,0.23867683112621307,0.2536942958831787
1749034817.0705569,3.7454299926757812,-2.402048727075094,1.149611775075094,-1.4018785965493699,4.316261291503906,-5.5588653723346155,-0.02152041718363762,0.19033586978912354,-0.13742130994796753,-0.056330252438783646,0.09494338929653168,0.1686602681875229,-0.2639683187007904,0.9637182950973511,-0.8246446251869202,-0.8088817596435547,0.21378347277641296,0.2546997666358948
1749034817.070595,3.7454373836517334,-2.401686807672018,1.149348560963766,-1.4019785833409806,4.31643533706665,-5.558532480393545,-0.022632628679275513,0.19382521510124207,-0.14019085466861725,-0.060463786125183105,0.09361216425895691,0.16814403235912323,-0.2659883201122284,0.9133297801017761,-0.8131943941116333,-0.7967554330825806,0.23217526078224182,0.2645587921142578
1749034817.0706313,3.745389223098755,-2.401302476922506,1.1490843931781214,-1.4020707619241257,4.316657543182373,-5.5581605474101465,-0.023137111216783524,0.1937832087278366,-0.140679731965065,-0.06066037341952324,0.09588657319545746,0.1706325113773346,-0.2578354775905609,0.9584787487983704,-0.8065891265869141,-0.786515474319458,0.2485695332288742,0.27234628796577454
1749034817.0706675,3.745389223098755,-2.401302476922506,1.1490843931781214,-1.4020707619241257,4.316657543182373,-5.5581605474101465,-0.023137111216783524,0.1937832087278366,-0.140679731965065,-0.06066037341952324,0.09588657319545746,0.1706325113773346,-0.2578354775905609,0.9584787487983704,-0.8065891265869141,-0.786515474319458,0.2485695332288742,0.27234628796577454
1749034817.070704,3.7453205585479736,-2.400494237939352,1.1485303084002894,-1.402293549185135,4.317013263702393,-5.55749220052828,-0.021610287949442863,0.19514265656471252,-0.14236962795257568,-0.057445771992206573,0.09779717028141022,0.1775061935186386,-0.2840213179588318,0.970197319984436,-0.816952645778656,-0.8454844355583191,0.2467097043991089,0.2453288435935974
1749034817.0707402,3.7452845573425293,-2.4001275501646937,1.1482117811786097,-1.4023926121047516,4.317239284515381,-5.557116989289419,-0.021752139553427696,0.19501380622386932,-0.144175186753273,-0.059092022478580475,0.09923413395881653,0.1806308478116989,-0.2857990860939026,0.9710342884063721,-0.82279372215271,-0.8484634160995483,0.23596782982349396,0.21711428463459015
1749034817.0707762,3.7452845573425293,-2.4001275501646937,1.1482117811786097,-1.4023926121047516,4.317239284515381,-5.557116989289419,-0.021752139553427696,0.19501380622386932,-0.144175186753273,-0.059092022478580475,0.09923413395881653,0.1806308478116989,-0.2857990860939026,0.9710342884063721,-0.82279372215271,-0.8484634160995483,0.23596782982349396,0.21711428463459015
1749034817.0708122,3.7451882362365723,-2.3992744884886683,1.1476638952838343,-1.4026694607785721,4.317661762237549,-5.556393746529714,-0.022960934787988663,0.2014561891555786,-0.14904116094112396,-0.06128814443945885,0.10281000286340714,0.1791963130235672,-0.3312225043773651,1.0257278680801392,-0.7861537933349609,-0.8640468716621399,0.23243741691112518,0.229644775390625
1749034817.0708537,3.745171546936035,-2.3989130459227503,1.1473611036883753,-1.4027659457973023,4.317864418029785,-5.556025330220358,-0.023938680067658424,0.20830485224723816,-0.1500164419412613,-0.0637199655175209,0.10396959632635117,0.17847180366516113,-0.27073684334754944,0.9197124242782593,-0.8069084882736206,-0.8555082678794861,0.21297074854373932,0.23376046121120453
1749034817.07089,3.74509596824646,-2.3984576664366664,1.1470773855792444,-1.402897299533226,4.31804895401001,-5.5556896964656275,-0.024021752178668976,0.2081771194934845,-0.1480841338634491,-0.06548544019460678,0.10396917909383774,0.17625820636749268,-0.289119690656662,0.9478642344474792,-0.8379409909248352,-0.8607529401779175,0.2198585867881775,0.2633068561553955
1749034817.0709257,3.745090961456299,-2.398048540154928,1.1467574278460901,-1.4030511689237137,4.318286418914795,-5.555310432110922,-0.023724837228655815,0.20491185784339905,-0.14934544265270233,-0.06635179370641708,0.10432925075292587,0.17860457301139832,-0.3192867636680603,1.018033504486084,-0.8403308391571045,-0.8581578731536865,0.2235286384820938,0.266334593296051
1749034817.0709617,3.744969606399536,-2.397627969781393,1.1464665571795862,-1.403175101881363,4.318485260009766,-5.554935280476705,-0.024820921942591667,0.20744848251342773,-0.1497073769569397,-0.06868628412485123,0.10536051541566849,0.1781643033027649,-0.2681771516799927,0.9467361569404602,-0.8469776511192322,-0.8698338270187378,0.22717463970184326,0.2694154381752014
1749034817.0709972,3.7449586391448975,-2.397173067132467,1.1461666266070765,-1.4033219826272507,4.318762302398682,-5.554574791585104,-0.025217320770025253,0.20806671679019928,-0.1530771106481552,-0.07033655792474747,0.10555704683065414,0.1836778223514557,-0.27018290758132935,0.9821286201477051,-0.8460593819618225,-0.8508650064468384,0.22879475355148315,0.29384151101112366
1749034817.071376,3.7449119091033936,-2.3967720470824183,1.1458748022662562,-1.4034530383399506,4.31890344619751,-5.554230813180105,-0.02498273178935051,0.21125254034996033,-0.15594512224197388,-0.07160380482673645,0.10507587343454361,0.18513698875904083,-0.2865484654903412,0.9286015033721924,-0.8349863290786743,-0.8470360040664673,0.2297063171863556,0.2943008542060852
1749034817.0733786,3.744863986968994,-2.39629664043569,1.1455629507647913,-1.4036203038743515,4.319075584411621,-5.553870741521017,-0.02552923746407032,0.21131330728530884,-0.15397751331329346,-0.073089100420475,0.10602424293756485,0.19061590731143951,-0.27519842982292175,0.9870116710662842,-0.8397942781448364,-0.8381370306015015,0.23710930347442627,0.266681969165802
1749034817.1142666,3.7448086738586426,-2.395883699456686,1.1452277342425745,-1.403775544171669,4.319321632385254,-5.553478244935171,-0.025763818994164467,0.21392802894115448,-0.15561644732952118,-0.07545363157987595,0.11003490537405014,0.19446921348571777,-0.29070571064949036,0.9991987347602844,-0.8260676860809326,-0.8333636522293091,0.2215643674135208,0.24880242347717285
1749034817.1143117,3.744767665863037,-2.3954440555968226,1.1448972860919397,-1.403957874780037,4.319586277008057,-5.553090874348776,-0.02603130228817463,0.2177964746952057,-0.1550866663455963,-0.07893038541078568,0.1073087751865387,0.19421392679214478,-0.2773457169532776,0.9713401794433594,-0.8753027319908142,-0.8075426816940308,0.23308494687080383,0.2514744997024536
1749034817.1143527,3.74471116065979,-2.3950067959227503,1.1445978323565882,-1.4040785145810624,4.319756031036377,-5.552660707627432,-0.026775633916258812,0.2164933681488037,-0.15928389132022858,-0.08014814555644989,0.10669855773448944,0.19840028882026672,-0.26829811930656433,0.945237398147583,-0.83720463514328,-0.7828822135925293,0.21303744614124298,0.2217077761888504
1749034817.1143913,3.7446320056915283,-2.3945828876891078,1.1442602316485804,-1.4042523962310334,4.320008754730225,-5.552281979714529,-0.0270804762840271,0.21910688281059265,-0.16146992146968842,-0.08027008920907974,0.10770344734191895,0.195302352309227,-0.2927641272544861,0.9600415825843811,-0.8294804692268372,-0.7580308318138123,0.25168395042419434,0.23235705494880676
1749034817.114429,3.744595766067505,-2.3941475353636683,1.1439717451678675,-1.4043765229037781,4.32025146484375,-5.551872436200277,-0.026986390352249146,0.22213490307331085,-0.16286800801753998,-0.07990077883005142,0.11174891144037247,0.19666951894760132,-0.2938039302825928,0.9497378468513489,-0.8225967288017273,-0.7609394788742065,0.22319795191287994,0.22438614070415497
1749034817.1144671,3.744595766067505,-2.3941475353636683,1.1439717451678675,-1.4043765229037781,4.32025146484375,-5.551872436200277,-0.026986390352249146,0.22213490307331085,-0.16286800801753998,-0.07990077883005142,0.11174891144037247,0.19666951894760132,-0.2938039302825928,0.9497378468513489,-0.8225967288017273,-0.7609394788742065,0.22319795191287994,0.22438614070415497
1749034817.1145086,3.744513988494873,-2.3932401142516078,1.143304173146383,-1.4047022324851532,4.320705890655518,-5.55109948316683,-0.027577126398682594,0.22604449093341827,-0.16001591086387634,-0.07353512942790985,0.1099289134144783,0.1966381072998047,-0.28822219371795654,0.9332568645477295,-0.8754969835281372,-0.7767494916915894,0.2534012198448181,0.2633431553840637
1749034817.1145465,3.7444586753845215,-2.3928023777403773,1.1429737249957483,-1.4048575919917603,4.320900917053223,-5.550688389931814,-0.027603935450315475,0.2272309958934784,-0.16389510035514832,-0.07161661982536316,0.11192313581705093,0.20006711781024933,-0.30672895908355713,0.9650213718414307,-0.8479406237602234,-0.797936201095581,0.23023180663585663,0.25639763474464417
1749034817.1145835,3.7443830966949463,-2.3923431835570277,1.1426332632647913,-1.40498502672229,4.321187496185303,-5.550259832535879,-0.027469376102089882,0.22976580262184143,-0.16670671105384827,-0.0710240826010704,0.11437289416790009,0.20385567843914032,-0.2846343517303467,0.914740264415741,-0.8521933555603027,-0.823097825050354,0.2266324758529663,0.250787615776062
1749034817.1146202,3.744324207305908,-2.3918987713255824,1.1422908941852015,-1.40511970341716,4.3214216232299805,-5.549829546605245,-0.027507629245519638,0.22754007577896118,-0.16892091929912567,-0.07204602658748627,0.11526577919721603,0.20702391862869263,-0.3068138062953949,0.941362738609314,-0.8310974836349487,-0.8061668872833252,0.2263048142194748,0.2192893773317337
1749034817.1146579,3.74430251121521,-2.39144291500234,1.1419437567340296,-1.405247540479042,4.321601867675781,-5.549409333859579,-0.026556994765996933,0.2319234013557434,-0.17048954963684082,-0.07483335584402084,0.11583617329597473,0.20767483115196228,-0.3203538656234741,0.9391512274742126,-0.8266892433166504,-0.7944696545600891,0.22607815265655518,0.206150084733963
1749034817.1146953,3.744210958480835,-2.390989919702047,1.1415961424456995,-1.405406044130661,4.321863174438477,-5.549051884804861,-0.026949264109134674,0.23423412442207336,-0.17228330671787262,-0.07253780961036682,0.11460675299167633,0.2061970829963684,-0.31675323843955994,0.9134159684181213,-0.8181353807449341,-0.8144921660423279,0.24032944440841675,0.21153411269187927
1749034817.114733,3.744210958480835,-2.390989919702047,1.1415961424456995,-1.405406044130661,4.321863174438477,-5.549051884804861,-0.026949264109134674,0.23423412442207336,-0.17228330671787262,-0.07253780961036682,0.11460675299167633,0.2061970829963684,-0.31675323843955994,0.9134159684181213,-0.8181353807449341,-0.8144921660423279,0.24032944440841675,0.21153411269187927
1749034817.1147702,3.744142532348633,-2.390068670312399,1.1409085432635706,-1.4057043057731171,4.322329044342041,-5.548170391713278,-0.027298856526613235,0.23720814287662506,-0.1740344613790512,-0.07077819854021072,0.1173776239156723,0.20050202310085297,-0.3086819350719452,0.9442267417907715,-0.8357517123222351,-0.8592215180397034,0.22967837750911713,0.2578461468219757
1749034817.1148155,3.7440717220306396,-2.38956942180776,1.140545670186178,-1.4058320832303544,4.322541236877441,-5.5478209296809595,-0.028210239484906197,0.23568490147590637,-0.1763642579317093,-0.07344299554824829,0.11615099757909775,0.20371176302433014,-0.3117977976799011,0.9681764841079712,-0.816655158996582,-0.8588259816169739,0.25457340478897095,0.2946353852748871
1749034817.1148539,3.744072675704956,-2.3891169033446253,1.1401947180377405,-1.4059903633645554,4.322775363922119,-5.547365311776296,-0.02921493910253048,0.2376437783241272,-0.17663145065307617,-0.07447683811187744,0.11751465499401093,0.2056417614221573,-0.311148077249527,1.0086493492126465,-0.8172338008880615,-0.8638793230056763,0.262967586517334,0.2867778539657593
1749034817.114893,3.7439863681793213,-2.388618131677145,1.139838997517721,-1.4061300915530701,4.323022842407227,-5.546926263962881,-0.029181526973843575,0.24340671300888062,-0.1764506697654724,-0.07368895411491394,0.1218954399228096,0.20947328209877014,-0.3118014633655548,0.9782280325889587,-0.817212700843811,-0.8579466342926025,0.2448839247226715,0.27819445729255676
1749034817.114936,3.743929862976074,-2.388144155541891,1.139456574116842,-1.4063042116216202,4.3232927322387695,-5.546494726334707,-0.02874470315873623,0.24572697281837463,-0.17591488361358643,-0.07492049038410187,0.1191500648856163,0.21372129023075104,-0.32932984828948975,0.919643223285675,-0.8365192413330078,-0.8644580841064453,0.2375074028968811,0.2758111357688904
1749034817.1149743,3.7438695430755615,-2.387663503686422,1.1390884558307093,-1.4064402145198365,4.323550701141357,-5.546044115220205,-0.028655758127570152,0.2466064989566803,-0.17710214853286743,-0.07664483040571213,0.1205844059586525,0.2159336507320404,-0.33249664306640625,0.9294694662094116,-0.8224047422409058,-0.8815980553627014,0.24581754207611084,0.25401559472084045
1749034817.1150105,3.7438130378723145,-2.3871671162047328,1.1387293974505823,-1.4066298317960282,4.323761940002441,-5.545603636895315,-0.028820330277085304,0.244047150015831,-0.17865405976772308,-0.07772259414196014,0.12279627472162247,0.21917065978050232,-0.31080344319343567,0.9345002770423889,-0.832678496837616,-0.8701111078262329,0.24251820147037506,0.22464057803153992
1749034817.1153738,3.7437665462493896,-2.386644502679342,1.1383855978595179,-1.4067693662694474,4.323986053466797,-5.545236949120657,-0.029150519520044327,0.24509204924106598,-0.17769755423069,-0.07862670719623566,0.12332133203744888,0.21540099382400513,-0.33269748091697693,0.9584898948669434,-0.8596295118331909,-0.8745654821395874,0.26927757263183594,0.2506738305091858
1749034817.117359,3.743685722351074,-2.386163373986715,1.1380108038531702,-1.4069208961776276,4.324244022369385,-5.544766906891958,-0.02928880602121353,0.24877385795116425,-0.17939996719360352,-0.08190333843231201,0.12347935885190964,0.2184339463710785,-0.296476274728775,0.9497082233428955,-0.8493664264678955,-0.8669708371162415,0.259855717420578,0.23749814927577972
1749034817.1582701,3.7436342239379883,-2.385675092736715,1.137662712727682,-1.4070913952640076,4.324501991271973,-5.544381801282064,-0.029743099585175514,0.24872227013111115,-0.17976179718971252,-0.08454375714063644,0.12528695166110992,0.21690262854099274,-0.3231465816497803,0.9260817170143127,-0.870179295539856,-0.8430992364883423,0.25671201944351196,0.2880672216415405
1749034817.1583152,3.743582248687744,-2.385182043115133,1.1372912565814417,-1.4072823536447068,4.3247528076171875,-5.543900136147634,-0.030039886012673378,0.24978192150592804,-0.18181470036506653,-0.0857214629650116,0.1270548552274704,0.22050045430660248,-0.3321743309497833,0.9899317026138306,-0.853462815284729,-0.8525444269180298,0.26554936170578003,0.2999397814273834
1749034817.1583571,3.743482828140259,-2.38463892559194,1.1368849913226526,-1.4074300539544602,4.325077533721924,-5.543468360100881,-0.030826706439256668,0.25038790702819824,-0.1836414933204651,-0.08675648272037506,0.1285405158996582,0.2245686650276184,-0.3189806640148163,0.9790229797363281,-0.8327894806861877,-0.8294780254364014,0.257289856672287,0.2734316289424896
1749034817.1583967,3.7433996200561523,-2.3841525516905726,1.1365097204791468,-1.4076282990029831,4.325305938720703,-5.542979303990499,-0.030987290665507317,0.2515999972820282,-0.18512408435344696,-0.08854186534881592,0.13072386384010315,0.22922375798225403,-0.30988723039627075,0.9682087898254395,-0.8325639963150024,-0.8179909586906433,0.24519968032836914,0.23269228637218475
1749034817.1584349,3.743407964706421,-2.38360657314443,1.1361578146563929,-1.4077988874963303,4.325509548187256,-5.542523447667257,-0.03102193959057331,0.2562061846256256,-0.18582773208618164,-0.08869528770446777,0.1314714252948761,0.22996826469898224,-0.3125288188457489,0.9578428268432617,-0.8412162661552429,-0.8175326585769653,0.24122115969657898,0.22848957777023315
1749034817.15849,3.743333578109741,-2.3831011257567347,1.1357672850238245,-1.4079743337682267,4.325784206390381,-5.542052213345663,-0.030903464183211327,0.25992777943611145,-0.18672987818717957,-0.08857674151659012,0.1313025802373886,0.2278342992067337,-0.2939921021461487,0.945418119430542,-0.8212467432022095,-0.811341404914856,0.2364473044872284,0.22715595364570618
1749034817.158539,3.7432072162628174,-2.382608552972311,1.13539964357485,-1.4081844103387375,4.326086044311523,-5.5416117946254175,-0.030698006972670555,0.2612924873828888,-0.18851514160633087,-0.09134779870510101,0.13008782267570496,0.22886592149734497,-0.32763826847076416,0.937186598777771,-0.8435726165771484,-0.7816314101219177,0.243332177400589,0.21776658296585083
1749034817.1585782,3.743208646774292,-2.382064481774801,1.1350439230548304,-1.4083286386779328,4.326364040374756,-5.541183177624838,-0.031469687819480896,0.2628129720687866,-0.19090135395526886,-0.08784448355436325,0.13438093662261963,0.22585798799991608,-0.29560598731040955,0.9810923337936401,-0.8301360607147217,-0.7913426756858826,0.24975216388702393,0.2645154297351837
1749034817.1586158,3.743144989013672,-2.381508012811178,1.1346448103534144,-1.408480168586113,4.326591491699219,-5.540661935006277,-0.030805040150880814,0.263351708650589,-0.19119063019752502,-0.08387559652328491,0.13303278386592865,0.22714337706565857,-0.29727447032928467,0.9671725630760193,-0.8455522656440735,-0.8303670287132263,0.2398495078086853,0.2711358368396759
1749034817.1586533,3.7430849075317383,-2.381007810632223,1.1342652479754847,-1.408670113687851,4.3268866539001465,-5.54026306072344,-0.03049338422715664,0.2661890387535095,-0.19156083464622498,-0.08159726858139038,0.13122203946113586,0.22854048013687134,-0.29901984333992004,0.9118542075157166,-0.8434626460075378,-0.8502777814865112,0.25039976835250854,0.2943989038467407
1749034817.1586897,3.7430403232574463,-2.3804599247374476,1.1338470617877405,-1.4088294220021744,4.327132701873779,-5.539819423352377,-0.031207891181111336,0.26962587237358093,-0.19239963591098785,-0.08262810111045837,0.13386613130569458,0.23245443403720856,-0.30116385221481323,0.9057438373565674,-0.8544723987579346,-0.8396440148353577,0.24367518723011017,0.2886607050895691
1749034817.1587267,3.7429683208465576,-2.379918237725729,1.133479420338766,-1.4089811754277726,4.327407360076904,-5.539340619240896,-0.030449047684669495,0.27210015058517456,-0.19506269693374634,-0.08476126939058304,0.13568010926246643,0.23554271459579468,-0.3378133475780487,0.9216790795326233,-0.831795334815979,-0.8385130167007446,0.23440219461917877,0.3038692772388458
1749034817.158778,3.742873191833496,-2.3794127903380335,1.133068863545553,-1.4091638338616868,4.327682971954346,-5.538860921059744,-0.03117138333618641,0.27162590622901917,-0.19346371293067932,-0.08252030611038208,0.13430212438106537,0.238545224070549,-0.33616289496421814,0.9190922379493713,-0.8530775904655457,-0.8568398952484131,0.26886606216430664,0.28489357233047485
1749034817.1588166,3.742873191833496,-2.3794127903380335,1.133068863545553,-1.4091638338616868,4.327682971954346,-5.538860921059744,-0.03117138333618641,0.27162590622901917,-0.19346371293067932,-0.08252030611038208,0.13430212438106537,0.238545224070549,-0.33616289496421814,0.9190922379493713,-0.8530775904655457,-0.8568398952484131,0.26886606216430664,0.28489357233047485
1749034817.158853,3.742753028869629,-2.3783399067320765,1.1323092619525355,-1.409489468937256,4.328246593475342,-5.537900690232412,-0.03200545161962509,0.2731266915798187,-0.19717663526535034,-0.08260048925876617,0.13983380794525146,0.24329105019569397,-0.3162548840045929,0.9204009175300598,-0.8336715698242188,-0.892241358757019,0.24928677082061768,0.2909044623374939
1749034817.15889,3.7426846027374268,-2.3777834377684535,1.1319258848773401,-1.4096407753280182,4.328490257263184,-5.5374213496791285,-0.03203697130084038,0.2776111662387848,-0.19762271642684937,-0.08426712453365326,0.14026972651481628,0.24208974838256836,-0.3444834053516388,0.9517381191253662,-0.8375317454338074,-0.893202543258667,0.23102399706840515,0.29440611600875854
1749034817.1589272,3.7426435947418213,-2.3772746525206507,1.1315344015704554,-1.4097957474044343,4.328792572021484,-5.536883000527517,-0.03242568299174309,0.278584748506546,-0.19753122329711914,-0.08462071418762207,0.14045490324497223,0.24447627365589142,-0.3366415798664093,0.8767208456993103,-0.860496461391449,-0.894942581653595,0.2340373396873474,0.3049434423446655
1749034817.1589644,3.7425644397735596,-2.376706739465231,1.1311352888690394,-1.409978376036026,4.329043388366699,-5.536394302045004,-0.03255375847220421,0.27806222438812256,-0.1985049545764923,-0.08493636548519135,0.1427367627620697,0.24799931049346924,-0.3177778124809265,0.9624621868133545,-0.8710667490959167,-0.9433499574661255,0.22460022568702698,0.3015987277030945
1749034817.1590018,3.7425644397735596,-2.376706739465231,1.1311352888690394,-1.409978376036026,4.329043388366699,-5.536394302045004,-0.03255375847220421,0.27806222438812256,-0.1985049545764923,-0.08493636548519135,0.1427367627620697,0.24799931049346924,-0.3177778124809265,0.9624621868133545,-0.8710667490959167,-0.9433499574661255,0.22460022568702698,0.3015987277030945
1749034817.1590388,3.742497205734253,-2.3761545620360316,1.1307242552386683,-1.4101611238769074,4.329371452331543,-5.535894278679983,-0.03323616459965706,0.2798818349838257,-0.2004823237657547,-0.08776330202817917,0.14167380332946777,0.2506846487522125,-0.33270928263664246,0.9556978940963745,-0.865341305732727,-0.9177191257476807,0.24180833995342255,0.25960108637809753
1749034817.1593614,3.7423717975616455,-2.375021596948141,1.1298945585833948,-1.4105269920877,4.329890727996826,-5.5348913113223475,-0.0340120904147625,0.28213053941726685,-0.20570486783981323,-0.09379848837852478,0.14499658346176147,0.2560119926929474,-0.289648175239563,0.9540718197822571,-0.8683167099952698,-0.9225879907608032,0.23010532557964325,0.22081100940704346
1749034817.1613572,3.7423717975616455,-2.375021596948141,1.1298945585833948,-1.4105269920877,4.329890727996826,-5.5348913113223475,-0.0340120904147625,0.28213053941726685,-0.20570486783981323,-0.09379848837852478,0.14499658346176147,0.2560119926929474,-0.289648175239563,0.9540718197822571,-0.8683167099952698,-0.9225879907608032,0.23010532557964325,0.22081100940704346
1749034817.2025514,3.7423176765441895,-2.3738681278624476,1.1290681997882288,-1.410974384551384,4.3304948806762695,-5.533909861241476,-0.03422464802861214,0.28627365827560425,-0.2057577222585678,-0.09888748824596405,0.143936887383461,0.2541755735874176,-0.32030072808265686,1.0089216232299805,-0.8684515953063965,-0.8720837831497192,0.2519746422767639,0.25724610686302185
1749034817.2026467,3.7422313690185547,-2.3732692203917445,1.12864858308901,-1.4111474466374894,4.3308000564575195,-5.533390466366903,-0.034157443791627884,0.28701430559158325,-0.20869013667106628,-0.10262447595596313,0.1445363163948059,0.25478971004486084,-0.3363950550556183,1.0153247117996216,-0.864338219165802,-0.8484898209571838,0.25682348012924194,0.28284138441085815
1749034817.2027183,3.742119550704956,-2.372676988641256,1.1282251516925257,-1.4113658380559464,4.3311262130737305,-5.532847050820486,-0.034535329788923264,0.2920544445514679,-0.21158459782600403,-0.10395301133394241,0.1460171639919281,0.2576749920845032,-0.31040090322494507,0.9300779700279236,-0.8455114960670471,-0.8239121437072754,0.24598556756973267,0.2668425440788269
1749034817.2027876,3.7420666217803955,-2.372127195397848,1.1277983824359339,-1.411580355172493,4.331323623657227,-5.532342318688528,-0.034318141639232635,0.2920560836791992,-0.21359844505786896,-0.10061656683683395,0.14660273492336273,0.2586110830307007,-0.330722838640213,0.9953464269638062,-0.8394655585289001,-0.8204509019851685,0.26225340366363525,0.28364354372024536
1749034817.2028599,3.741987466812134,-2.3715230427184046,1.1273825804339808,-1.4117987614921113,4.331666946411133,-5.53180712858309,-0.03535441309213638,0.29382267594337463,-0.21485759317874908,-0.10098952054977417,0.1498292088508606,0.2604887783527374,-0.33062952756881714,1.041609764099121,-0.8456657528877258,-0.8415846228599548,0.24180494248867035,0.2961346209049225
1749034817.2029617,3.7419345378875732,-2.370922704736227,1.1269705931292933,-1.4119822990945359,4.331931114196777,-5.531316403542654,-0.036213219165802,0.2975897192955017,-0.21746693551540375,-0.1008412316441536,0.15044835209846497,0.2599885165691376,-0.3033539354801178,0.9045177102088928,-0.8345766663551331,-0.8181394338607788,0.23885679244995117,0.27191126346588135
1749034817.2030306,3.7418465614318848,-2.3702908955016078,1.1264966169940394,-1.412207992081978,4.332263946533203,-5.530737523232595,-0.03466484323143959,0.29951202869415283,-0.21891167759895325,-0.10260400921106339,0.1509016454219818,0.264415442943573,-0.33482569456100464,0.9233353137969971,-0.811680257320404,-0.7835410833358765,0.26422810554504395,0.2704612612724304
1749034817.2031,3.7418465614318848,-2.3702908955016078,1.1264966169940394,-1.412207992081978,4.332263946533203,-5.530737523232595,-0.03466484323143959,0.29951202869415283,-0.21891167759895325,-0.10260400921106339,0.1509016454219818,0.264415442943573,-0.33482569456100464,0.9233353137969971,-0.811680257320404,-0.7835410833358765,0.26422810554504395,0.2704612612724304
1749034817.2031732,3.7417025566101074,-2.369124551812643,1.1256068388568323,-1.412539468412735,4.3329057693481445,-5.529714230691091,-0.037202294915914536,0.3013751208782196,-0.2177296280860901,-0.09478092193603516,0.152364581823349,0.26650553941726685,-0.3102473020553589,0.9124553203582764,-0.8239049911499023,-0.8309011459350586,0.24133972823619843,0.2835984528064728
1749034817.2032423,3.7415919303894043,-2.3685037098326625,1.125202480946676,-1.4127651464990159,4.3331804275512695,-5.529197637234823,-0.035643570125103,0.299044668674469,-0.21996228396892548,-0.09331381320953369,0.15285702049732208,0.2680366337299347,-0.32307642698287964,1.0055899620056152,-0.8490926027297974,-0.8563235402107239,0.24559077620506287,0.2985636591911316
1749034817.2033098,3.7415919303894043,-2.3685037098326625,1.125202480946676,-1.4127651464990159,4.3331804275512695,-5.529197637234823,-0.035643570125103,0.299044668674469,-0.21996228396892548,-0.09331381320953369,0.15285702049732208,0.2680366337299347,-0.32307642698287964,1.0055899620056152,-0.8490926027297974,-0.8563235402107239,0.24559077620506287,0.2985636591911316
1749034817.203369,3.7416014671325684,-2.3679000339903773,1.1247242132769983,-1.4129366886666794,4.333487510681152,-5.528641525899069,-0.034243304282426834,0.3020261526107788,-0.2213943749666214,-0.09303569793701172,0.15685242414474487,0.26912352442741394,-0.32569098472595215,0.9368760585784912,-0.8298698663711548,-0.8454357385635376,0.2069917917251587,0.2722749412059784
1749034817.203434,3.7414631843566895,-2.36731018642568,1.1243122259723108,-1.4131035816720505,4.3338093757629395,-5.528109137211935,-0.03461567312479019,0.30636340379714966,-0.22050899267196655,-0.09265123307704926,0.15247014164924622,0.2731193006038666,-0.36791160702705383,0.9723527431488037,-0.8547631502151489,-0.886831521987915,0.22923211753368378,0.24578487873077393
1749034817.2034938,3.7413575649261475,-2.366053720513815,1.1234257856952112,-1.413484365945198,4.334419250488281,-5.527027968560354,-0.03496108576655388,0.30358147621154785,-0.22255004942417145,-0.09355097264051437,0.15591245889663696,0.27138134837150574,-0.34657347202301025,0.9036667346954346,-0.8461810350418091,-0.9195716977119446,0.235073521733284,0.264027863740921
1749034817.2035334,3.741286516189575,-2.3654524288573207,1.1229785124408167,-1.4136677545360108,4.334735870361328,-5.526466671620504,-0.03668668121099472,0.3043411076068878,-0.22402487695217133,-0.09579277038574219,0.15481078624725342,0.2716207206249237,-0.2687443792819977,0.9575496912002563,-0.8413735628128052,-0.9164673089981079,0.24501867592334747,0.2904626429080963
1749034817.2035701,3.7412540912628174,-2.3648163280882777,1.122547451649801,-1.413834736948349,4.335063934326172,-5.525918904935018,-0.0346919484436512,0.30509868264198303,-0.22430594265460968,-0.09771091490983963,0.15558519959449768,0.2727760970592499,-0.3493534326553345,1.006980299949646,-0.8524664044380188,-0.9087807536125183,0.23902949690818787,0.29527318477630615
1749034817.203607,3.7411303520202637,-2.364218851129049,1.1221078077899378,-1.414080486898758,4.335342884063721,-5.525345508252279,-0.03354862332344055,0.30985227227211,-0.2254008650779724,-0.09966947883367538,0.15739890933036804,0.27423641085624695,-0.31513524055480957,0.7578710913658142,-0.8346593379974365,-0.8940987586975098,0.21002960205078125,0.23053410649299622
1749034817.203648,3.7410738468170166,-2.363598962823385,1.1216614882098597,-1.4142679584077378,4.335655689239502,-5.524844233189718,-0.03367488086223602,0.3005077540874481,-0.2263074666261673,-0.10178551822900772,0.15530507266521454,0.2760182023048401,-0.3046804666519165,0.7650667428970337,-0.807902455329895,-0.8807999491691589,0.21729326248168945,0.22557516396045685
1749034817.2036855,3.740978956222534,-2.3629704914488734,1.1212766806231897,-1.4144828778556366,4.335962772369385,-5.524311904107229,-0.03396729752421379,0.2956940233707428,-0.22800691425800323,-0.10247699916362762,0.1559416502714157,0.2711063027381897,-0.3308306038379669,0.8708857893943787,-0.8128435611724854,-0.8634770512580872,0.20716147124767303,0.24223829805850983
1749034817.2037218,3.74094295501709,-2.36236633876943,1.120807949696676,-1.4146818232587357,4.336254119873047,-5.523783091698782,-0.03440592437982559,0.2985105514526367,-0.22643642127513885,-0.10367283225059509,0.15196038782596588,0.26949334144592285,-0.3852192759513855,1.0909833908081055,-0.806041955947876,-0.8800992369651794,0.2520408630371094,0.2861122190952301
1749034817.2038717,3.74094295501709,-2.36236633876943,1.120807949696676,-1.4146818232587357,4.336254119873047,-5.523783091698782,-0.03440592437982559,0.2985105514526367,-0.22643642127513885,-0.10367283225059509,0.15196038782596588,0.26949334144592285,-0.3852192759513855,1.0909833908081055,-0.806041955947876,-0.8800992369651794,0.2520408630371094,0.2861122190952301
1749034817.2054036,3.7408008575439453,-2.361159940759176,1.119899098073141,-1.41509601593528,4.336866855621338,-5.522673789654867,-0.03780490532517433,0.31641870737075806,-0.22425056993961334,-0.10955825448036194,0.15857256948947906,0.27514320611953735,-0.2820781469345093,0.8387929201126099,-0.8352644443511963,-0.8346239328384399,0.21797293424606323,0.2847253680229187
1749034817.2462795,3.7407827377319336,-2.360497137109274,1.119455639516012,-1.4153259557536622,4.33725118637085,-5.522113625203268,-0.03838044032454491,0.31532591581344604,-0.2247544825077057,-0.10765853524208069,0.15728554129600525,0.27703142166137695,-0.3118267357349396,0.8771985173225403,-0.8291809558868408,-0.8377610445022583,0.2311660349369049,0.2734365463256836
1749034817.246325,3.7407827377319336,-2.360497137109274,1.119455639516012,-1.4153259557536622,4.33725118637085,-5.522113625203268,-0.03838044032454491,0.31532591581344604,-0.2247544825077057,-0.10765853524208069,0.15728554129600525,0.27703142166137695,-0.3118267357349396,0.8771985173225403,-0.8291809558868408,-0.8377610445022583,0.2311660349369049,0.2734365463256836
1749034817.2463646,3.74055814743042,-2.359270235101217,1.1185572783099573,-1.4157004964402695,4.337806701660156,-5.521017913018362,-0.0384330190718174,0.3216930329799652,-0.2233508825302124,-0.09839419275522232,0.1585305631160736,0.282437264919281,-0.2840500473976135,0.8361950516700745,-0.8605139255523682,-0.8686985969543457,0.25231075286865234,0.2478637546300888
1749034817.246403,3.74055814743042,-2.359270235101217,1.1185572783099573,-1.4157004964402695,4.337806701660156,-5.521017913018362,-0.0384330190718174,0.3216930329799652,-0.2233508825302124,-0.09839419275522232,0.1585305631160736,0.282437264919281,-0.2840500473976135,0.8361950516700745,-0.8605139255523682,-0.8686985969543457,0.25231075286865234,0.2478637546300888
1749034817.246441,3.7404332160949707,-2.3579746685423792,1.1176665464984339,-1.416109786634781,4.338489532470703,-5.519854311143057,-0.036946263164281845,0.3121837377548218,-0.22937031090259552,-0.09952028840780258,0.16174928843975067,0.2825400233268738,-0.29268285632133484,0.8303393721580505,-0.8481855988502502,-0.8655484318733215,0.22871392965316772,0.2528764307498932
1749034817.2464836,3.740387439727783,-2.357396741906637,1.1172168890582483,-1.4163040232709427,4.338711738586426,-5.519311908875601,-0.03502476215362549,0.31032586097717285,-0.23058141767978668,-0.09722770005464554,0.16164904832839966,0.2822803556919098,-0.3121928870677948,0.9725814461708069,-0.8493155241012573,-0.9022276401519775,0.24406081438064575,0.2502868175506592
1749034817.246522,3.7402923107147217,-2.3567286930479945,1.116758171712057,-1.4165188533118744,4.339106559753418,-5.518704120312826,-0.03409016877412796,0.3139873445034027,-0.23136089742183685,-0.09966234862804413,0.1626947820186615,0.28175538778305054,-0.34005799889564514,0.9174975752830505,-0.8375246524810791,-0.9070621728897095,0.24525396525859833,0.2498086392879486
1749034817.2465587,3.740220308303833,-2.3560883007445277,1.1162999312030237,-1.4167216581157227,4.339420795440674,-5.518197480832235,-0.03700755909085274,0.31502291560173035,-0.2318621128797531,-0.10197779536247253,0.16208653151988983,0.283184289932251,-0.3346279263496399,0.9405940175056458,-0.8408799767494202,-0.9068524837493896,0.2529124915599823,0.26292887330055237
1749034817.2465951,3.7401602268218994,-2.355483194390768,1.1158407370196741,-1.416939915423729,4.3397393226623535,-5.517546717320577,-0.03643046319484711,0.31493377685546875,-0.23118704557418823,-0.10443776845932007,0.16171573102474213,0.279834121465683,-0.32452884316444397,0.8383640646934509,-0.8345577120780945,-0.8762993812561035,0.24825848639011383,0.22001872956752777
1749034817.2466314,3.740067481994629,-2.354854246179098,1.1153739134417933,-1.4171429139426728,4.340058326721191,-5.517056647931234,-0.03577502816915512,0.3123937249183655,-0.23079299926757812,-0.1047208160161972,0.16032157838344574,0.28027990460395813,-0.36068597435951233,0.8861911296844482,-0.8366458415985107,-0.8654643893241882,0.2676827013492584,0.2138293981552124
1749034817.2466688,3.740028142929077,-2.35424866298818,1.1149066130267542,-1.417357699280121,4.340334892272949,-5.516449634228842,-0.037798065692186356,0.3150012791156769,-0.23040254414081573,-0.10465866327285767,0.16045378148555756,0.27863043546676636,-0.324293315410614,0.9158453345298767,-0.8376771211624146,-0.8694413304328918,0.2253425568342209,0.259283185005188
1749034817.2467058,3.73993182182312,-2.3536087475218714,1.1144478956805628,-1.4175447684577485,4.34070348739624,-5.515861455594198,-0.038327984511852264,0.3139570355415344,-0.23017765581607819,-0.10527083277702332,0.157930389046669,0.2782484292984009,-0.2945307493209839,0.8902715444564819,-0.8415185213088989,-0.8753466010093689,0.2532382905483246,0.26964306831359863
1749034817.2467422,3.7398788928985596,-2.3529168568053187,1.1139805952655237,-1.417763353591301,4.340960502624512,-5.515334729348318,-0.03591680899262428,0.31219789385795593,-0.2301587015390396,-0.1047222688794136,0.16201336681842804,0.27877217531204224,-0.297667920589447,0.8750810027122498,-0.8522936701774597,-0.8830517530441284,0.2434558868408203,0.23560193181037903
1749034817.2467782,3.7398343086242676,-2.352323194543356,1.1135323683368128,-1.4179780644229432,4.341340065002441,-5.514786783848898,-0.036307193338871,0.3146119713783264,-0.23141422867774963,-0.1103038340806961,0.16031086444854736,0.27796316146850586,-0.34268033504486084,0.8680538535118103,-0.8544315099716187,-0.842975378036499,0.24885472655296326,0.2545798122882843
1749034817.246815,3.739703416824341,-2.351675649682516,1.1130889097796839,-1.4181771588376542,4.341634750366211,-5.514185909424917,-0.03847363591194153,0.31676098704338074,-0.23266646265983582,-0.11119990050792694,0.16088324785232544,0.2776908874511719,-0.3071427345275879,0.8941682577133179,-0.818558394908905,-0.8151788115501404,0.267295777797699,0.26038622856140137
1749034817.2468514,3.7396469116210938,-2.3510338268675746,1.112622086201803,-1.418435038333275,4.342005252838135,-5.5136452356921595,-0.03852204978466034,0.3180258870124817,-0.23343071341514587,-0.1090584248304367,0.16182304918766022,0.2770324647426605,-0.2963879704475403,0.874774694442749,-0.8055030107498169,-0.8312047719955444,0.24616168439388275,0.23545129597187042
1749034817.246888,3.739562749862671,-2.3503972492613734,1.1121509710894983,-1.4186338794282456,4.342336177825928,-5.513087097798483,-0.03858364373445511,0.31730595231056213,-0.2307821661233902,-0.10818032175302505,0.16263823211193085,0.27984708547592163,-0.26472151279449463,0.8556625843048096,-0.8213346600532532,-0.8116499781608582,0.25555774569511414,0.2290017008781433
1749034817.2469249,3.7394402027130127,-2.349733968774313,1.1116955916034144,-1.4188331824592133,4.342584609985352,-5.512546424065725,-0.038873471319675446,0.3177756369113922,-0.22927501797676086,-0.11020518839359283,0.16373787820339203,0.27645453810691833,-0.26988521218299866,0.8156508803367615,-0.8510544300079346,-0.806559145450592,0.23688820004463196,0.26702773571014404
1749034817.246962,3.7393908500671387,-2.3491398296751917,1.111225430165426,-1.419039563541748,4.342938423156738,-5.51195472875704,-0.03803933411836624,0.3196476399898529,-0.2280965894460678,-0.10542738437652588,0.1668967306613922,0.2775232791900635,-0.2534226179122925,0.8512881994247437,-0.8650995492935181,-0.8125473260879517,0.1905442625284195,0.2777825593948364
1749034817.2469988,3.7393908500671387,-2.3491398296751917,1.111225430165426,-1.419039563541748,4.342938423156738,-5.51195472875704,-0.03803933411836624,0.3196476399898529,-0.2280965894460678,-0.10542738437652588,0.1668967306613922,0.2775232791900635,-0.2534226179122925,0.8512881994247437,-0.8650995492935181,-0.8125473260879517,0.1905442625284195,0.2777825593948364
1749034817.2474108,3.7392501831054688,-2.3478971920409144,1.1103299299823206,-1.419433058505394,4.343598365783691,-5.510871354733602,-0.03667622432112694,0.3177860677242279,-0.22557449340820312,-0.09911702573299408,0.16000626981258392,0.27351298928260803,-0.2987212538719177,0.7871938347816467,-0.8872373104095459,-0.8624038696289062,0.22868838906288147,0.2819632291793823
1749034817.2493718,3.7392501831054688,-2.3478971920409144,1.1103299299823206,-1.419433058505394,4.343598365783691,-5.510871354733602,-0.03667622432112694,0.3177860677242279,-0.22557449340820312,-0.09911702573299408,0.16000626981258392,0.27351298928260803,-0.2987212538719177,0.7871938347816467,-0.8872373104095459,-0.8624038696289062,0.22868838906288147,0.2819632291793823
1749034817.290274,3.7390403747558594,-2.3466297588744105,1.1094353834735315,-1.4197992545417328,4.344266414642334,-5.5097713510142725,-0.036447372287511826,0.31547316908836365,-0.227580264210701,-0.09749289602041245,0.157603457570076,0.2743433713912964,-0.29225093126296997,0.8489466309547424,-0.9008542895317078,-0.9030278325080872,0.2584371566772461,0.3127826750278473
