nimar13/UR3e_dataset_trayectorias/trayectorias_ejecutadas/quintic/trayectoria_044_result.csv
timestamp,q1,q2,q3,q4,q5,q6,qd1,qd2,qd3,qd4,qd5,qd6,tau1,tau2,tau3,tau4,tau5,tau6
1749033368.3799047,5.616733551025391,-0.18851859987292485,-0.23587432503700256,-1.3441508126309891,4.965663433074951,5.470480918884277,-0.00676469411700964,-0.004602034110575914,-3.6796089375457086e-07,-1.3795143861942039e-15,-0.0019047906389459968,-0.004564790520817041,0.0553194135427475,-2.0842132568359375,-1.1705912351608276,-0.6258491277694702,0.18144884705543518,0.016820028424263
1749033368.3801053,5.616733551025391,-0.18851859987292485,-0.23587432503700256,-1.3441508126309891,4.965663433074951,5.470480918884277,-0.00676469411700964,-0.004602034110575914,-3.6796089375457086e-07,-1.3795143861942039e-15,-0.0019047906389459968,-0.004564790520817041,0.0553194135427475,-2.0842132568359375,-1.1705912351608276,-0.6258491277694702,0.18144884705543518,0.016820028424263
1749033368.4222956,5.616728782653809,-0.1885652107051392,-0.23590929806232452,-1.3441580396941681,4.965620040893555,5.4704461097717285,-0.006899806670844555,-0.004213396925479174,-2.4025213818390512e-08,-2.4377470579124835e-16,-0.001831106492318213,-0.00417261803522706,0.07609430700540543,-2.068141460418701,-1.1667962074279785,-0.6096910834312439,0.16341561079025269,0.02370186150074005
1749033368.422341,5.6166815757751465,-0.18853874624285893,-0.2359020709991455,-1.3441544038108368,4.96562385559082,5.470460414886475,-0.006340759340673685,-0.003970446065068245,-1.0242326431431081e-10,-7.612254491291733e-18,-0.0011593882227316499,-0.003724845591932535,0.08969318121671677,-2.064112901687622,-1.156221628189087,-0.6211122274398804,0.17641839385032654,0.010319426655769348
1749033368.4223812,5.6166815757751465,-0.18853874624285893,-0.2359020709991455,-1.3441544038108368,4.96562385559082,5.470460414886475,-0.006340759340673685,-0.003970446065068245,-1.0242326431431081e-10,-7.612254491291733e-18,-0.0011593882227316499,-0.003724845591932535,0.08969318121671677,-2.064112901687622,-1.156221628189087,-0.6211122274398804,0.17641839385032654,0.010319426655769348
1749033368.42242,5.616661548614502,-0.1885543626597901,-0.23589380085468292,-1.3441699308208008,4.965635776519775,5.470437049865723,-0.004746500868350267,-0.0028232887852936983,-4.3664643298649275e-13,-2.377048246778322e-19,-0.0009082169272005558,-0.002892413642257452,0.05976498872041702,-2.0903332233428955,-1.162873387336731,-0.6213210821151733,0.1801633983850479,0.011325165629386902
1749033368.4224582,5.6166768074035645,-0.18856628358874516,-0.2358865737915039,-1.344154418711998,4.965651035308838,5.4704179763793945,-0.004202038981020451,-0.002360361162573099,-2.850988894834497e-14,-4.200493590143312e-20,-0.000782070797868073,-0.0026418466586619616,0.06323481351137161,-2.0919289588928223,-1.1689715385437012,-0.6201854944229126,0.17473556101322174,0.021248504519462585
1749033368.4224975,5.6166768074035645,-0.18856628358874516,-0.2358865737915039,-1.344154418711998,4.965651035308838,5.4704179763793945,-0.004202038981020451,-0.002360361162573099,-2.850988894834497e-14,-4.200493590143312e-20,-0.000782070797868073,-0.0026418466586619616,0.06323481351137161,-2.0919289588928223,-1.1689715385437012,-0.6201854944229126,0.17473556101322174,0.021248504519462585
1749033368.422535,5.616679668426514,-0.18857713163409429,-0.23590564727783203,-1.3441392046264191,4.965651035308838,5.470440864562988,-0.003424169961363077,-0.0017102708807215095,-1.2154214726494864e-16,-1.3116713640972031e-21,-0.0006063714972697198,-0.0019303737208247185,0.02784678339958191,-2.0769269466400146,-1.1578439474105835,-0.621036171913147,0.16225336492061615,0.017354026436805725
1749033368.4225729,5.616679668426514,-0.18857713163409429,-0.23590564727783203,-1.3441392046264191,4.965651035308838,5.470440864562988,-0.003424169961363077,-0.0017102708807215095,-1.2154214726494864e-16,-1.3116713640972031e-21,-0.0006063714972697198,-0.0019303737208247185,0.02784678339958191,-2.0769269466400146,-1.1578439474105835,-0.621036171913147,0.16225336492061615,0.017354026436805725
1749033368.4226105,5.616633892059326,-0.1886015695384522,-0.2358865737915039,-1.3441699308208008,4.965651035308838,5.470425128936768,-0.002467788988724351,-0.0014043387491255999,-5.181531735335764e-19,-4.0959027661606397e-23,-0.0004948149435222149,-0.0015480497386306524,0.05167876183986664,-2.0778000354766846,-1.1639626026153564,-0.6336662173271179,0.17013411223888397,0.023089364171028137
1749033368.4226484,5.616687774658203,-0.18858178079638677,-0.2358865737915039,-1.3441544038108368,4.965620040893555,5.470440864562988,-0.0019055517623201013,-0.0011793196899816394,-3.3831696746941635e-20,-7.237890313267789e-24,-0.00045313354348763824,-0.001394670340232551,0.0521162748336792,-2.078014850616455,-1.160559892654419,-0.6383857727050781,0.18797317147254944,0.013740941882133484
1749033368.4226856,5.616621494293213,-0.1885543626597901,-0.23593337833881378,-1.3441699308208008,4.965669631958008,5.470413684844971,-0.001468696165829897,-0.001013230881653726,-2.2089682563127793e-21,-1.2790111484253564e-24,-0.0004179837997071445,-0.0012949267402291298,0.049932196736335754,-2.0686991214752197,-1.1678712368011475,-0.6293493509292603,0.17676332592964172,0.02447505295276642
1749033368.4227226,5.616668701171875,-0.18860526502642827,-0.23587076365947723,-1.3441580098918458,4.9656596183776855,5.470425128936768,-0.0011548078618943691,-0.0008881365647539496,-1.4422982481693498e-22,-2.260146890621255e-25,-0.0003878972784150392,-0.0011792973382398486,0.056103795766830444,-2.0707900524139404,-1.1578373908996582,-0.6408610343933105,0.1736551970243454,0.019449666142463684
1749033368.42276,5.616668701171875,-0.18860526502642827,-0.23587076365947723,-1.3441580098918458,4.9656596183776855,5.470425128936768,-0.0011548078618943691,-0.0008881365647539496,-1.4422982481693498e-22,-2.260146890621255e-25,-0.0003878972784150392,-0.0011792973382398486,0.056103795766830444,-2.0707900524139404,-1.1578373908996582,-0.6408610343933105,0.1736551970243454,0.019449666142463684
1749033368.4227977,5.616649627685547,-0.18857713163409429,-0.2359020859003067,-1.3441735369018097,4.965651035308838,5.470394134521484,-0.0008083725115284324,-0.0007123175309970975,-6.148743785232836e-25,-7.057670429564134e-27,-0.00033909312332980335,-0.0009324774146080017,0.0761139765381813,-2.034181833267212,-1.163546085357666,-0.6426212787628174,0.1815691441297531,-0.0016811788082122803
1749033368.4228368,5.616637706756592,-0.18858178079638677,-0.23587433993816376,-1.3441699308208008,4.9656548500061035,5.470409870147705,-0.0007031132117845118,-0.0006481637828983366,-4.0146900240758216e-26,-1.2471645355476287e-27,-0.0003190328716300428,-0.0008388833957724273,0.08255407959222794,-2.027397871017456,-1.15093195438385,-0.6409644484519958,0.19831106066703796,0.033081889152526855
1749033368.422874,5.616637706756592,-0.18858178079638677,-0.23587433993816376,-1.3441699308208008,4.9656548500061035,5.470409870147705,-0.0007031132117845118,-0.0006481637828983366,-4.0146900240758216e-26,-1.2471645355476287e-27,-0.0003190328716300428,-0.0008388833957724273,0.08255407959222794,-2.027397871017456,-1.15093195438385,-0.6409644484519958,0.19831106066703796,0.033081889152526855
1749033368.422911,5.61665678024292,-0.1885734361461182,-0.23589377105236053,-1.3441508126309891,4.965639591217041,5.470476150512695,-0.0005577238625846803,-0.0005492507480084896,-1.7115251914752192e-28,-3.8944704869409317e-29,-0.0002852829056791961,-0.0006467136554419994,0.0922204926609993,-2.0195279121398926,-1.168154239654541,-0.6558881998062134,0.18262889981269836,0.011938169598579407
1749033368.4229486,5.61668062210083,-0.1885543626597901,-0.23587076365947723,-1.3441699308208008,4.965624809265137,5.470413684844971,-0.0004221856070216745,-0.000510313140694052,-1.1175036974171264e-29,-6.881937507341062e-30,-0.0002709559630602598,-0.0006546592339873314,0.06852465867996216,-2.011512517929077,-1.180229902267456,-0.6451824903488159,0.19798988103866577,0.03846198320388794
1749033368.4229858,5.61668062210083,-0.1885543626597901,-0.23587076365947723,-1.3441699308208008,4.965624809265137,5.470413684844971,-0.0004221856070216745,-0.000510313140694052,-1.1175036974171264e-29,-6.881937507341062e-30,-0.0002709559630602598,-0.0006546592339873314,0.06852465867996216,-2.011512517929077,-1.180229902267456,-0.6451824903488159,0.19798988103866577,0.03846198320388794
1749033368.423023,5.616672515869141,-0.18854601800952153,-0.23589737713336945,-1.3441735369018097,4.965632438659668,5.470413684844971,-0.00023586118186358362,-0.0004469459527172148,-4.764093169648889e-32,-2.1489950437834554e-31,-0.0002462250995449722,-0.0005540687125176191,0.07165360450744629,-1.9598009586334229,-1.1742604970932007,-0.6436339616775513,0.1821950376033783,0.0259149968624115
1749033368.4230602,5.616672515869141,-0.18854601800952153,-0.23589737713336945,-1.3441735369018097,4.965632438659668,5.470413684844971,-0.00023586118186358362,-0.0004469459527172148,-4.764093169648889e-32,-2.1489950437834554e-31,-0.0002462250995449722,-0.0005540687125176191,0.07165360450744629,-1.9598009586334229,-1.1742604970932007,-0.6436339616775513,0.1821950376033783,0.0259149968624115
1749033368.423097,5.616637706756592,-0.18852324903521733,-0.2358865737915039,-1.3441427958062668,4.9656548500061035,5.470460414886475,-0.00019884860375896096,-0.00036876072408631444,-3.110612252929138e-33,-3.7974994463942827e-32,-0.00023548126046080142,-0.0005095562082715333,0.08858581632375717,-1.9483295679092407,-1.1791572570800781,-0.6451853513717651,0.20289628207683563,0.03449641168117523
1749033368.4236882,5.616645812988281,-0.1885698598674317,-0.23587433993816376,-1.3441544038108368,4.965663433074951,5.470401287078857,0.0021301486995071173,-1.9472621715976857e-05,-1.32610284260584e-35,-1.1858298849018925e-33,-0.00021657970501109958,-0.0004385434149298817,0.14423149824142456,-1.8646681308746338,-1.1723551750183105,-0.6291361451148987,0.22404728829860687,0.019454360008239746
1749033368.425662,5.616645812988281,-0.1885698598674317,-0.23587433993816376,-1.3441544038108368,4.965663433074951,5.470401287078857,0.0021301486995071173,-1.9472621715976857e-05,-1.32610284260584e-35,-1.1858298849018925e-33,-0.00021657970501109958,-0.0004385434149298817,0.14423149824142456,-1.8646681308746338,-1.1723551750183105,-0.6291361451148987,0.22404728829860687,0.019454360008239746
1749033368.4662817,5.61668062210083,-0.1885698598674317,-0.23587799072265625,-1.3441544038108368,4.965600490570068,5.470413684844971,0.003692102385684848,-1.8998672146608442e-07,-8.65850438095327e-37,-2.0954855913549946e-34,-0.00020822488295380026,-0.00040995804010890424,0.08258285373449326,-1.8771414756774902,-1.189985752105713,-0.6164048314094543,0.22019672393798828,0.06391271948814392
1749033368.4663286,5.616696357727051,-0.18853874624285893,-0.23587433993816376,-1.344161571269371,4.965673923492432,5.470448017120361,0.0030317006167024374,-1.8536258084012047e-09,-5.653384511487399e-38,-3.7029432364188897e-35,-0.0002004852722166106,-0.00038487647543661296,0.09255469590425491,-1.8621413707733154,-1.1974599361419678,-0.6063270568847656,0.23513613641262054,0.038820743560791016
1749033368.4663694,5.616669654846191,-0.1885543626597901,-0.23586249351501465,-1.3441615414670487,4.965616703033447,5.470432281494141,0.0019637581426650286,-1.808509765555133e-11,-3.691255573173575e-39,-6.543489318447298e-36,-0.00019330903887748718,-0.00036309874849393964,0.07626929134130478,-1.859184980392456,-1.1999282836914062,-0.6239845752716064,0.23002967238426208,0.0406070351600647
1749033368.4664083,5.616696357727051,-0.1885579389384766,-0.23587436974048615,-1.3441580098918458,4.965597152709961,5.470425128936768,2.8371419830364175e-05,-1.7215452315043063e-15,-1.5736581754367696e-41,0.0001306761259911582,-0.00018038561393041164,-0.000123813355457969,0.08339637517929077,-1.8440183401107788,-1.2073678970336914,-0.6181970834732056,0.24196967482566833,0.04562661051750183
1749033368.466446,5.616696357727051,-0.1885579389384766,-0.23587436974048615,-1.3441580098918458,4.965597152709961,5.470425128936768,2.8371419830364175e-05,-1.7215452315043063e-15,-1.5736581754367696e-41,0.0001306761259911582,-0.00018038561393041164,-0.000123813355457969,0.08339637517929077,-1.8440183401107788,-1.2073678970336914,-0.6181970834732056,0.24196967482566833,0.04562661051750183
1749033368.4664836,5.616704940795898,-0.18854232252154546,-0.23587796092033386,-1.3441500079682847,4.965646743774414,5.470413684844971,2.7007140968038357e-09,-1.6387624082108952e-19,-6.726232628759122e-44,0.00017924769781529903,-0.00016908851102925837,-0.00010348133218940347,0.043330900371074677,-1.8517141342163086,-1.226237177848816,-0.5915002822875977,0.21592892706394196,0.05888262391090393
1749033368.4665236,5.616735935211182,-0.18857713163409429,-0.23587799072265625,-1.3441580098918458,4.965628623962402,5.470409870147705,2.6349804282954636e-11,-1.5988759044764303e-21,-4.203895392974451e-45,0.0006455681868828833,-0.0001639499532757327,-9.768929157871753e-05,0.05356428772211075,-1.821840524673462,-1.2250149250030518,-0.5879614353179932,0.23364251852035522,0.056386739015579224
1749033368.4665616,5.616735935211182,-0.18857713163409429,-0.23587799072265625,-1.3441580098918458,4.965628623962402,5.470409870147705,2.6349804282954636e-11,-1.5988759044764303e-21,-4.203895392974451e-45,0.0006455681868828833,-0.0001639499532757327,-9.768929157871753e-05,0.05356428772211075,-1.821840524673462,-1.2250149250030518,-0.5879614353179932,0.23364251852035522,0.056386739015579224
1749033368.4665987,5.6166768074035645,-0.18853767335925298,-0.23589015007019043,-1.3441304874471207,4.96562385559082,5.470428943634033,2.508273985716192e-15,0.0004948903806507587,-0.0,0.0010910341516137123,-0.00015456491382792592,-8.808459824649617e-05,0.003723934292793274,-1.8605190515518188,-1.2274467945098877,-0.5787134766578674,0.20044706761837006,0.04598376154899597
1749033368.466636,5.6166768074035645,-0.18853767335925298,-0.23589015007019043,-1.3441304874471207,4.96562385559082,5.470428943634033,2.508273985716192e-15,0.0004948903806507587,-0.0,0.0010910341516137123,-0.00015456491382792592,-8.808459824649617e-05,0.003723934292793274,-1.8605190515518188,-1.2274467945098877,-0.5787134766578674,0.20044706761837006,0.04598376154899597
1749033368.4666734,5.616716384887695,-0.18856151521716313,-0.23589013516902924,-1.3441341680339356,4.965620040893555,5.470409870147705,-0.004666207358241081,0.0003245649568270892,-0.0,0.0015925595071166754,-0.00014619340072385967,-8.022561087273061e-05,-0.05670078098773956,-1.9040287733078003,-1.2254161834716797,-0.5643211603164673,0.1712103635072708,0.05924096703529358
1749033368.46671,5.616673469543457,-0.1885543626597901,-0.23589015007019043,-1.3441377741149445,4.96562385559082,5.470444679260254,-0.005959566216915846,0.00029770436231046915,-0.0,0.0019387868233025074,-0.00014233961701393127,-7.68003665143624e-05,-0.04920041561126709,-1.9095959663391113,-1.2459018230438232,-0.54188472032547,0.16661706566810608,0.06569534540176392
1749033368.4667468,5.616673469543457,-0.1885543626597901,-0.23589015007019043,-1.3441377741149445,4.96562385559082,5.470444679260254,-0.005959566216915846,0.00029770436231046915,-0.0,0.0019387868233025074,-0.00014233961701393127,-7.68003665143624e-05,-0.04920041561126709,-1.9095959663391113,-1.2459018230438232,-0.54188472032547,0.16661706566810608,0.06569534540176392
1749033368.466784,5.6166768074035645,-0.18856628358874516,-0.23587799072265625,-1.3440947991660614,4.965646743774414,5.470460414886475,-0.008784754201769829,0.0001936783955898136,-0.0,0.00295554893091321,-0.00015661017096135765,-7.075876055750996e-05,-0.10035334527492523,-1.9809415340423584,-1.2240569591522217,-0.5058947801589966,0.09886069595813751,0.055305927991867065
1749033368.4668229,5.6166253089904785,-0.1885351699641724,-0.23587435483932495,-1.3440864843181153,4.965666770935059,5.4704179763793945,-0.010892799124121666,-0.00010397622099844739,-0.0,0.004185899160802364,-0.00017180939903482795,-6.808109901612625e-05,-0.10244019329547882,-1.997443437576294,-1.2307090759277344,-0.49079498648643494,0.08890232443809509,0.05135895311832428
1749033368.4668608,5.6166253089904785,-0.1885351699641724,-0.23587435483932495,-1.3440864843181153,4.965666770935059,5.4704179763793945,-0.010892799124121666,-0.00010397622099844739,-0.0,0.004185899160802364,-0.00017180939903482795,-6.808109901612625e-05,-0.10244019329547882,-1.997443437576294,-1.2307090759277344,-0.49079498648643494,0.08890232443809509,0.05135895311832428
1749033368.4668984,5.616550922393799,-0.1885698598674317,-0.23587074875831604,-1.3440900903991242,4.965651035308838,5.470409870147705,-0.016023064032197,-0.00046291283797472715,-0.0,0.006593548227101564,-0.0027668357361108065,-6.329125608317554e-05,-0.16804350912570953,-2.0790905952453613,-1.2331442832946777,-0.4852890372276306,0.0431000292301178,0.049204640090465546
1749033368.4669359,5.616550922393799,-0.1885698598674317,-0.23587074875831604,-1.3440900903991242,4.965651035308838,5.470409870147705,-0.016023064032197,-0.00046291283797472715,-0.0,0.006593548227101564,-0.0027668357361108065,-6.329125608317554e-05,-0.16804350912570953,-2.0790905952453613,-1.2331442832946777,-0.4852890372276306,0.0431000292301178,0.049204640090465546
1749033368.4669738,5.6165571212768555,-0.1885807079127808,-0.23589016497135162,-1.344034956102707,4.965622425079346,5.470448017120361,-0.01974845677614212,-0.0015252012526616454,-0.0,0.008560283109545708,-0.007713404018431902,-5.913143104407936e-05,-0.19641052186489105,-2.0635128021240234,-1.235718011856079,-0.46184325218200684,0.0117255300283432,0.04420249164104462
1749033368.467012,5.6165571212768555,-0.1885807079127808,-0.23589016497135162,-1.344034956102707,4.965622425079346,5.470448017120361,-0.01974845677614212,-0.0015252012526616454,-0.0,0.008560283109545708,-0.007713404018431902,-5.913143104407936e-05,-0.19641052186489105,-2.0635128021240234,-1.235718011856079,-0.46184325218200684,0.0117255300283432,0.04420249164104462
1749033368.4676733,5.616517543792725,-0.188550667171814,-0.23589381575584412,-1.3440149587443848,4.965568542480469,5.470425128936768,-0.021892733871936798,-0.0012281205272302032,-0.0,0.010215640999376774,-0.009652271866798401,-5.725001392420381e-05,-0.18579769134521484,-2.0929551124572754,-1.237213134765625,-0.45317256450653076,-0.011888891458511353,0.026618309319019318
1749033368.469655,5.616488933563232,-0.1885698598674317,-0.23591788113117218,-1.3439634305289765,4.965539932250977,5.470425128936768,-0.021880334243178368,-0.000918596691917628,-0.0,0.012108762748539448,-0.015246637165546417,-5.382501331041567e-05,-0.2010030746459961,-2.108525514602661,-1.255943775177002,-0.4538050591945648,-0.02699950337409973,0.03200837969779968
1749033368.5102854,5.616488933563232,-0.1885698598674317,-0.23591788113117218,-1.3439634305289765,4.965539932250977,5.470425128936768,-0.021880334243178368,-0.000918596691917628,-0.0,0.012108762748539448,-0.015246637165546417,-5.382501331041567e-05,-0.2010030746459961,-2.108525514602661,-1.255943775177002,-0.4538050591945648,-0.02699950337409973,0.03200837969779968
1749033368.5103319,5.616402626037598,-0.18862076223406987,-0.2358865886926651,-1.3439085197499772,4.965508937835693,5.470413684844971,-0.021478945389389992,-0.0010414187563583255,-0.0,0.011955101042985916,-0.017105713486671448,-7.363702752627432e-05,-0.2346988320350647,-2.128101348876953,-1.246312141418457,-0.44091036915779114,-0.01282203197479248,0.007986113429069519
1749033368.5103724,5.616366863250732,-0.1885698598674317,-0.2358984500169754,-1.343912125830986,4.965465545654297,5.470440864562988,-0.022161321714520454,-0.001925158896483481,-0.0,0.010938758961856365,-0.019443467259407043,-7.534000178566203e-05,-0.24459737539291382,-2.1318047046661377,-1.2479335069656372,-0.4317684769630432,0.001163184642791748,0.02986082434654236
1749033368.510412,5.616373062133789,-0.18860967577014165,-0.2359020709991455,-1.343895511036255,4.965475082397461,5.470382213592529,-0.02400849387049675,-0.00211307592689991,-0.0,0.012074475176632404,-0.019569046795368195,-7.394092972390354e-05,-0.24808014929294586,-2.1464836597442627,-1.2438573837280273,-0.43051913380622864,-0.013539060950279236,0.015880107879638672
1749033368.5104504,5.616235256195068,-0.18860514581713872,-0.2359020709991455,-1.3438439828208466,4.9654154777526855,5.4704060554504395,-0.02589653991162777,-0.0028432796243578196,-0.0,0.013208858668804169,-0.018256785348057747,-9.054613474290818e-05,-0.24159327149391174,-2.1455838680267334,-1.2340967655181885,-0.41533151268959045,-0.022555187344551086,-0.005265884101390839
1749033368.5104885,5.616235256195068,-0.18860514581713872,-0.2359020709991455,-1.3438439828208466,4.9654154777526855,5.4704060554504395,-0.02589653991162777,-0.0028432796243578196,-0.0,0.013208858668804169,-0.018256785348057747,-9.054613474290818e-05,-0.24159327149391174,-2.1455838680267334,-1.2340967655181885,-0.41533151268959045,-0.022555187344551086,-0.005265884101390839
1749033368.510527,5.616183280944824,-0.1886252921870728,-0.23590566217899323,-1.3438118261149903,4.965344429016113,5.47039794921875,-0.026565557345747948,-0.002819244284182787,-0.0,0.014272371307015419,-0.0169982872903347,-0.0001395727158524096,-0.27689456939697266,-2.1710293292999268,-1.2433252334594727,-0.4210338294506073,-0.022114261984825134,0.003730006515979767
1749033368.5105646,5.616151332855225,-0.18858690679583745,-0.23590563237667084,-1.3437926781228562,4.965282440185547,5.470432758331299,-0.02725422941148281,-0.003646258031949401,-0.0,0.015007301233708858,-0.017685387283563614,-0.0012030191719532013,-0.2665117383003235,-2.1912174224853516,-1.2494285106658936,-0.39782413840293884,-0.05614010989665985,-0.006704211235046387
1749033368.5106022,5.616086483001709,-0.18860609949145513,-0.2359020709991455,-1.343752221470215,4.9652814865112305,5.470401287078857,-0.02962043508887291,-0.0040146661922335625,-0.0,0.016119418665766716,-0.020304979756474495,-0.0020975135266780853,-0.26735275983810425,-2.190558671951294,-1.2369420528411865,-0.39582398533821106,-0.0368240624666214,0.0014219731092453003
1749033368.5106406,5.616026401519775,-0.18857796609912114,-0.23589013516902924,-1.3437126141837616,4.965252876281738,5.470386028289795,-0.03237620368599892,-0.0044975741766393185,-0.0,0.01686342991888523,-0.020995236933231354,-0.0025596655905246735,-0.22600403428077698,-2.185452938079834,-1.2366721630096436,-0.37149888277053833,-0.05051325261592865,-0.009183637797832489
1749033368.510681,5.615962982177734,-0.1886407893947144,-0.23590929806232452,-1.3436696243337174,4.965188980102539,5.470405101776123,-0.03167937695980072,-0.004669813439249992,-0.0,0.0179929006844759,-0.021009083837270737,-0.00274076871573925,-0.2943727970123291,-2.2208411693573,-1.2397971153259277,-0.38313233852386475,-0.07891833782196045,-0.0002564042806625366
1749033368.5107188,5.615894794464111,-0.1886252921870728,-0.23587799072265625,-1.343640775685646,4.965149879455566,5.470389366149902,-0.034689370542764664,-0.005947919096797705,-0.0,0.019806545227766037,-0.02242721989750862,-0.0025414691772311926,-0.2743024528026581,-2.2061519622802734,-1.2364075183868408,-0.3563991189002991,-0.08214336633682251,0.0003666803240776062
1749033368.5107603,5.61577844619751,-0.18862636507067876,-0.23587797582149506,-1.3435382556966324,4.965085029602051,5.470424175262451,-0.03615811839699745,-0.006619226187467575,-0.0,0.02250368706882,-0.024766692891716957,-0.0028614276088774204,-0.27032470703125,-2.242061138153076,-1.237886905670166,-0.34840208292007446,-0.09552441537380219,-0.040030401200056076
1749033368.5107992,5.61577844619751,-0.18862636507067876,-0.23587797582149506,-1.3435382556966324,4.965085029602051,5.470424175262451,-0.03615811839699745,-0.006619226187467575,-0.0,0.02250368706882,-0.024766692891716957,-0.0028614276088774204,-0.27032470703125,-2.242061138153076,-1.237886905670166,-0.34840208292007446,-0.09552441537380219,-0.040030401200056076
1749033368.5108361,5.615646839141846,-0.18865020692858891,-0.23587433993816376,-1.3434309673360367,4.964935302734375,5.47038459777832,-0.039604805409908295,-0.008619086816906929,-0.0,0.02567305415868759,-0.02919255569577217,-0.0042319223284721375,-0.32637396454811096,-2.2175025939941406,-1.2457630634307861,-0.3451969027519226,-0.10073444247245789,-0.03467300906777382
1749033368.5108733,5.615646839141846,-0.18865020692858891,-0.23587433993816376,-1.3434309673360367,4.964935302734375,5.47038459777832,-0.039604805409908295,-0.008619086816906929,-0.0,0.02567305415868759,-0.02919255569577217,-0.0042319223284721375,-0.32637396454811096,-2.2175025939941406,-1.2457630634307861,-0.3451969027519226,-0.10073444247245789,-0.03467300906777382
1749033368.5109105,5.615555763244629,-0.18866928041491704,-0.23590564727783203,-1.3433984977057953,4.964906692504883,5.47036600112915,-0.04175157472491264,-0.00867382250726223,-0.0,0.027040375396609306,-0.03108389861881733,-0.004889177158474922,-0.30734145641326904,-2.2597873210906982,-1.2445380687713623,-0.3391643762588501,-0.09061990678310394,-0.011311464011669159
1749033368.5109482,5.615427017211914,-0.18870552003894048,-0.23589739203453064,-1.343279020195343,4.964775085449219,5.470353126525879,-0.04212493076920509,-0.010534528642892838,-0.0,0.029112637042999268,-0.034674450755119324,-0.005647157784551382,-0.34992119669914246,-2.2641944885253906,-1.242931842803955,-0.32215312123298645,-0.09244893491268158,-0.02101021260023117
1749033368.510985,5.615427017211914,-0.18870552003894048,-0.23589739203453064,-1.343279020195343,4.964775085449219,5.470353126525879,-0.04212493076920509,-0.010534528642892838,-0.0,0.029112637042999268,-0.034674450755119324,-0.005647157784551382,-0.34992119669914246,-2.2641944885253906,-1.242931842803955,-0.32215312123298645,-0.09244893491268158,-0.02101021260023117
1749033368.511022,5.615304470062256,-0.18869824827227788,-0.23587797582149506,-1.3432003122619172,4.964715003967285,5.470333099365234,-0.04357842355966568,-0.00967795867472887,-0.0,0.031125837936997414,-0.03658381104469299,-0.005700189154595137,-0.3481324315071106,-2.259127140045166,-1.2365354299545288,-0.3179068863391876,-0.11429917067289352,-0.027181845158338547
1749033368.512014,5.615113258361816,-0.18876882017169194,-0.23589015007019043,-1.343076230292656,4.9645562171936035,5.470348834991455,-0.04810568317770958,-0.011548701673746109,-0.0,0.033977214246988297,-0.03822062164545059,-0.00600174255669117,-0.3583030104637146,-2.2893452644348145,-1.2425124645233154,-0.30761879682540894,-0.11930827051401138,-0.011282913386821747
1749033368.5136747,5.615113258361816,-0.18876882017169194,-0.23589015007019043,-1.343076230292656,4.9645562171936035,5.470348834991455,-0.04810568317770958,-0.011548701673746109,-0.0,0.033977214246988297,-0.03822062164545059,-0.00600174255669117,-0.3583030104637146,-2.2893452644348145,-1.2425124645233154,-0.30761879682540894,-0.11930827051401138,-0.011282913386821747
1749033368.5542872,5.615048885345459,-0.18879695356402593,-0.23589015007019043,-1.343028576379158,4.964503765106201,5.470317840576172,-0.04968203604221344,-0.011776827275753021,-0.0,0.03475412726402283,-0.03961816057562828,-0.006078929174691439,-0.35735368728637695,-2.282989978790283,-1.2370936870574951,-0.30948111414909363,-0.10788217186927795,-0.02552429586648941
1749033368.5543346,5.614826202392578,-0.18880970895800786,-0.23587799072265625,-1.3428578090718766,4.96437931060791,5.470281600952148,-0.054928719997406006,-0.013284379616379738,-0.0,0.035743966698646545,-0.041784606873989105,-0.006339629180729389,-0.3667903244495392,-2.272334098815918,-1.2449560165405273,-0.2866818606853485,-0.15633530914783478,-0.048849623650312424
1749033368.5543754,5.614826202392578,-0.18880970895800786,-0.23587799072265625,-1.3428578090718766,4.96437931060791,5.470281600952148,-0.054928719997406006,-0.013284379616379738,-0.0,0.035743966698646545,-0.041784606873989105,-0.006339629180729389,-0.3667903244495392,-2.272334098815918,-1.2449560165405273,-0.2866818606853485,-0.15633530914783478,-0.048849623650312424
1749033368.554415,5.6147260665893555,-0.18886526048693852,-0.23589016497135162,-1.3428171140006562,4.964272499084473,5.470316410064697,-0.05781354010105133,-0.012523400597274303,-0.0,0.03688129037618637,-0.04373924806714058,-0.0064015998505055904,-0.3344637155532837,-2.28218150138855,-1.2298978567123413,-0.2626141607761383,-0.15600717067718506,-0.04657655954360962
1749033368.554453,5.6146368980407715,-0.1888936322978516,-0.23587433993816376,-1.3427264404347916,4.964115619659424,5.470254421234131,-0.05507587268948555,-0.013566559180617332,-0.0,0.03910189867019653,-0.046835001558065414,-0.006403625011444092,-0.38732603192329407,-2.2762162685394287,-1.2140114307403564,-0.25952810049057007,-0.15879985690116882,-0.05557473003864288
1749033368.554492,5.614513874053955,-0.188886360531189,-0.23589378595352173,-1.342635453944542,4.964049816131592,5.470277309417725,-0.05909925699234009,-0.01233129482716322,-0.0,0.04076811298727989,-0.04895962029695511,-0.0061416649259626865,-0.38762959837913513,-2.29301381111145,-1.2285373210906982,-0.2545483112335205,-0.1323234587907791,-0.06002772971987724
1749033368.5545301,5.614282608032227,-0.18896563470874028,-0.23587076365947723,-1.3424722415259858,4.963901519775391,5.470249176025391,-0.06171165034174919,-0.012990930117666721,-0.0,0.04343140497803688,-0.050558920949697495,-0.0058379159308969975,-0.3927057087421417,-2.2730889320373535,-1.223106026649475,-0.2521483302116394,-0.18533775210380554,-0.053372450172901154
1749033368.5545673,5.614282608032227,-0.18896563470874028,-0.23587076365947723,-1.3424722415259858,4.963901519775391,5.470249176025391,-0.06171165034174919,-0.012990930117666721,-0.0,0.04343140497803688,-0.050558920949697495,-0.0058379159308969975,-0.3927057087421417,-2.2730889320373535,-1.223106026649475,-0.2521483302116394,-0.18533775210380554,-0.053372450172901154
1749033368.5546045,5.614092826843262,-0.18899674833331304,-0.23587433993816376,-1.3423921030810853,4.963786602020264,5.4702372550964355,-0.062207579612731934,-0.0140945203602314,-0.0,0.04589628055691719,-0.052194543182849884,-0.0060632191598415375,-0.46755263209342957,-2.2666091918945312,-1.2297533750534058,-0.2361125349998474,-0.16807156801223755,-0.07003164291381836
1749033368.554642,5.6138715744018555,-0.18905694902453618,-0.23589015007019043,-1.3421781373075028,4.963586807250977,5.470206260681152,-0.0702485591173172,-0.014569674618542194,-0.0,0.049864400178194046,-0.05595257133245468,-0.007652498781681061,-0.40856483578681946,-2.2862441539764404,-1.2155215740203857,-0.24076592922210693,-0.19531050324440002,-0.06235387176275253
1749033368.55468,5.6138715744018555,-0.18905694902453618,-0.23589015007019043,-1.3421781373075028,4.963586807250977,5.470206260681152,-0.0702485591173172,-0.014569674618542194,-0.0,0.049864400178194046,-0.05595257133245468,-0.007652498781681061,-0.40856483578681946,-2.2862441539764404,-1.2155215740203857,-0.24076592922210693,-0.19531050324440002,-0.06235387176275253
1749033368.5547168,5.6137237548828125,-0.1890769761851807,-0.2358984351158142,-1.3421055984548111,4.963456153869629,5.47020149230957,-0.0712384507060051,-0.014353889971971512,-0.0,0.04906497523188591,-0.05707991123199463,-0.008205034770071507,-0.37027549743652344,-2.265876293182373,-1.2145557403564453,-0.23296529054641724,-0.19032716751098633,-0.062248263508081436
1749033368.554754,5.613570213317871,-0.18908532083544927,-0.23589842021465302,-1.3419756156257172,4.963350772857666,5.470154285430908,-0.07155749946832657,-0.013217463158071041,-0.0,0.051691725850105286,-0.057173848152160645,-0.008684046566486359,-0.3904061019420624,-2.2934043407440186,-1.2208032608032227,-0.22309955954551697,-0.20942988991737366,-0.06430111080408096
1749033368.5547912,5.613332748413086,-0.18918009222064214,-0.2359020709991455,-1.3417603236487885,4.963144302368164,5.470146179199219,-0.07599252462387085,-0.015549312345683575,-0.0,0.057232461869716644,-0.05777953565120697,-0.009306550957262516,-0.41092923283576965,-2.2633841037750244,-1.2169935703277588,-0.23471754789352417,-0.235490083694458,-0.0658065602183342
1749033368.5548275,5.613142490386963,-0.18914647520098882,-0.23591788113117218,-1.3416604411653061,4.963008880615234,5.470130443572998,-0.07630593329668045,-0.014428861439228058,-0.0,0.05904282629489899,-0.060684435069561005,-0.009726335294544697,-0.42369088530540466,-2.284600257873535,-1.2073681354522705,-0.2436877340078354,-0.20758454501628876,-0.06529702991247177
1749033368.5548644,5.613142490386963,-0.18914647520098882,-0.23591788113117218,-1.3416604411653061,4.963008880615234,5.470130443572998,-0.07630593329668045,-0.014428861439228058,-0.0,0.05904282629489899,-0.060684435069561005,-0.009726335294544697,-0.42369088530540466,-2.284600257873535,-1.2073681354522705,-0.2436877340078354,-0.20758454501628876,-0.06529702991247177
1749033368.5549004,5.612830638885498,-0.1892640155604859,-0.2359020709991455,-1.3413832497647782,4.962785243988037,5.470129489898682,-0.08027836680412292,-0.014595058746635914,-0.0,0.06151307001709938,-0.06476342678070068,-0.008854699321091175,-0.4783070683479309,-2.296905755996704,-1.1973283290863037,-0.23540063202381134,-0.22405493259429932,-0.08760640025138855
1749033368.554937,5.612830638885498,-0.1892640155604859,-0.2359020709991455,-1.3413832497647782,4.962785243988037,5.470129489898682,-0.08027836680412292,-0.014595058746635914,-0.0,0.06151307001709938,-0.06476342678070068,-0.008854699321091175,-0.4783070683479309,-2.296905755996704,-1.1973283290863037,-0.23540063202381134,-0.22405493259429932,-0.08760640025138855
1749033368.5549743,5.612565040588379,-0.18933983266864018,-0.23586711287498474,-1.3411360395005723,4.962461948394775,5.470097541809082,-0.08476302772760391,-0.01551838219165802,-0.0,0.064732126891613,-0.06636834889650345,-0.00967642106115818,-0.4506227374076843,-2.286020040512085,-1.202207088470459,-0.2659299373626709,-0.21378545463085175,-0.07775864005088806
1749033368.5550108,5.612315654754639,-0.18934066713366704,-0.2359142303466797,-1.3410476607135315,4.962327480316162,5.470069885253906,-0.08633624762296677,-0.015948645770549774,-0.0,0.06640094518661499,-0.06848268210887909,-0.0098622040823102,-0.4619014859199524,-2.2884514331817627,-1.1951518058776855,-0.24868294596672058,-0.23358705639839172,-0.0760086327791214
1749033368.5556982,5.612315654754639,-0.18934066713366704,-0.2359142303466797,-1.3410476607135315,4.962327480316162,5.470069885253906,-0.08633624762296677,-0.015948645770549774,-0.0,0.06640094518661499,-0.06848268210887909,-0.0098622040823102,-0.4619014859199524,-2.2884514331817627,-1.1951518058776855,-0.24868294596672058,-0.23358705639839172,-0.0760086327791214
1749033368.55765,5.611937046051025,-0.18943198144946294,-0.2358865737915039,-1.3407613200000306,4.962028503417969,5.470038414001465,-0.09042811393737793,-0.01524308044463396,-0.0,0.0694177895784378,-0.07591604441404343,-0.008208947256207466,-0.4526694118976593,-2.3161263465881348,-1.1754772663116455,-0.2526727318763733,-0.2108761966228485,-0.11126885563135147
1749033368.5982864,5.611937046051025,-0.18943198144946294,-0.2358865737915039,-1.3407613200000306,4.962028503417969,5.470038414001465,-0.09042811393737793,-0.01524308044463396,-0.0,0.0694177895784378,-0.07591604441404343,-0.008208947256207466,-0.4526694118976593,-2.3161263465881348,-1.1754772663116455,-0.2526727318763733,-0.2108761966228485,-0.11126885563135147
1749033368.5983334,5.611757278442383,-0.1894245904735108,-0.2358865737915039,-1.3406144243529816,4.9619317054748535,5.470048904418945,-0.09196075797080994,-0.01499225851148367,-0.0,0.07090218365192413,-0.07727648317813873,-0.009104990400373936,-0.48713788390159607,-2.3126468658447266,-1.1693772077560425,-0.25596141815185547,-0.20837469398975372,-0.11466152220964432
1749033368.5983744,5.611577987670898,-0.1894640487483521,-0.23589015007019043,-1.3404400658658524,4.9617919921875,5.470032691955566,-0.09432560205459595,-0.01556804496794939,-0.0,0.07237313687801361,-0.07462790608406067,-0.010484743863344193,-0.4627465009689331,-2.3137829303741455,-1.1790119409561157,-0.2944604158401489,-0.2310464084148407,-0.10506006330251694
1749033368.5984142,5.61142110824585,-0.18946869791064458,-0.23590564727783203,-1.3403003823808213,4.961620330810547,5.470021724700928,-0.09647919237613678,-0.0158698707818985,-0.0,0.07249880582094193,-0.07745636999607086,-0.011230473406612873,-0.5222353935241699,-2.3343026638031006,-1.1692506074905396,-0.2754882574081421,-0.22645141184329987,-0.08101483434438705
1749033368.5984523,5.61142110824585,-0.18946869791064458,-0.23590564727783203,-1.3403003823808213,4.961620330810547,5.470021724700928,-0.09647919237613678,-0.0158698707818985,-0.0,0.07249880582094193,-0.07745636999607086,-0.011230473406612873,-0.5222353935241699,-2.3343026638031006,-1.1692506074905396,-0.2754882574081421,-0.22645141184329987,-0.08101483434438705
1749033368.598491,5.611037731170654,-0.1895013612559815,-0.2359020709991455,-1.340032936339714,4.961309432983398,5.4699859619140625,-0.10099334269762039,-0.01571333222091198,-0.0,0.07018189132213593,-0.0808480903506279,-0.011216106824576855,-0.5007001161575317,-2.342087745666504,-1.1681444644927979,-0.2837560176849365,-0.2068614810705185,-0.09557436406612396
1749033368.598529,5.610771179199219,-0.18956811845812993,-0.23589380085468292,-1.3398740601590653,4.961150646209717,5.4699387550354,-0.10291467607021332,-0.015814706683158875,-0.0,0.07089245319366455,-0.08180555701255798,-0.011477597989141941,-0.5208100080490112,-2.3654913902282715,-1.167616605758667,-0.27824079990386963,-0.22942636907100677,-0.10823602974414825
1749033368.5985672,5.610587120056152,-0.1895769399455567,-0.23589840531349182,-1.3397116226008912,4.9609479904174805,5.46996545791626,-0.105830617249012,-0.016207173466682434,-0.0,0.07243255525827408,-0.08188695460557938,-0.01255203690379858,-0.4829319715499878,-2.3582983016967773,-1.1486320495605469,-0.26973456144332886,-0.24252021312713623,-0.10527260601520538
1749033368.598605,5.610179901123047,-0.18966038644824224,-0.23585526645183563,-1.3394597929767151,4.96063232421875,5.469929218292236,-0.10798722505569458,-0.017051512375473976,-0.0,0.06958749145269394,-0.08341465145349503,-0.013531418517231941,-0.5013687014579773,-2.377455234527588,-1.150665283203125,-0.22713565826416016,-0.23663994669914246,-0.10892161726951599
1749033368.5986466,5.610179901123047,-0.18966038644824224,-0.23585526645183563,-1.3394597929767151,4.96063232421875,5.469929218292236,-0.10798722505569458,-0.017051512375473976,-0.0,0.06958749145269394,-0.08341465145349503,-0.013531418517231941,-0.5013687014579773,-2.377455234527588,-1.150665283203125,-0.22713565826416016,-0.23663994669914246,-0.10892161726951599
1749033368.598685,5.609732151031494,-0.18970854700122075,-0.2358865737915039,-1.3391696077636261,4.960300922393799,5.469858646392822,-0.1004147082567215,-0.016605082899332047,2.4212518837885e-05,0.07193105667829514,-0.082846499979496,-0.013665513135492802,-0.44261956214904785,-2.393406867980957,-1.1329898834228516,-0.23362046480178833,-0.22220060229301453,-0.11057285219430923
1749033368.5987217,5.609512805938721,-0.18977125108752446,-0.23587799072265625,-1.338995174770691,4.960114002227783,5.4698381423950195,-0.10017574578523636,-0.016949506476521492,2.662587576196529e-05,0.07322346419095993,-0.08133643865585327,-0.013966330327093601,-0.492979496717453,-2.4032046794891357,-1.1233724355697632,-0.23533804714679718,-0.22938981652259827,-0.1250586360692978
1749033368.5987582,5.609512805938721,-0.18977125108752446,-0.23587799072265625,-1.338995174770691,4.960114002227783,5.4698381423950195,-0.10017574578523636,-0.016949506476521492,2.662587576196529e-05,0.07322346419095993,-0.08133643865585327,-0.013966330327093601,-0.492979496717453,-2.4032046794891357,-1.1233724355697632,-0.23533804714679718,-0.22938981652259827,-0.1250586360692978
1749033368.598795,5.609324932098389,-0.1898152393153687,-0.23589015007019043,-1.3388985407403489,4.959955215454102,5.469833850860596,-0.10309763997793198,-0.01652097888290882,3.790515256696381e-05,0.07603608816862106,-0.08215317875146866,-0.014508244581520557,-0.546448826789856,-2.4169182777404785,-1.1205227375030518,-0.22289304435253143,-0.2582034468650818,-0.12385214865207672
1749033368.5988321,5.609090328216553,-0.18982716024432378,-0.23587433993816376,-1.338724510078766,4.95978307723999,5.469809532165527,-0.11113971471786499,-0.01742742583155632,3.8956874050199986e-05,0.07631779462099075,-0.08374707400798798,-0.013808604329824448,-0.6744529604911804,-2.426461696624756,-1.1229932308197021,-0.2184438854455948,-0.2824534773826599,-0.12017085403203964
1749033368.5988698,5.608579635620117,-0.18986447275195317,-0.23584699630737305,-1.3384332221797486,4.959435939788818,5.469719886779785,-0.13046590983867645,-0.018421541899442673,5.6808894441928715e-05,0.07892752438783646,-0.09177469462156296,-0.013141805306077003,-0.5529440641403198,-2.432107448577881,-1.1363093852996826,-0.21752643585205078,-0.2590111196041107,-0.11899358779191971
1749033368.598907,5.608359336853027,-0.18991942823443608,-0.23587799072265625,-1.3382466596416016,4.959291458129883,5.469730854034424,-0.13466477394104004,-0.01930864527821541,6.198494520504028e-05,0.08264009654521942,-0.09384557604789734,-0.01282042171806097,-0.4804970622062683,-2.4523749351501465,-1.135688304901123,-0.2015252411365509,-0.26011690497398376,-0.10587775707244873
1749033368.5989435,5.608359336853027,-0.18991942823443608,-0.23587799072265625,-1.3382466596416016,4.959291458129883,5.469730854034424,-0.13466477394104004,-0.01930864527821541,6.198494520504028e-05,0.08264009654521942,-0.09384557604789734,-0.01282042171806097,-0.4804970622062683,-2.4523749351501465,-1.135688304901123,-0.2015252411365509,-0.26011690497398376,-0.10587775707244873
1749033368.5989804,5.607837200164795,-0.19000335157427983,-0.2358865737915039,-1.3378814321807404,4.958894729614258,5.469693183898926,-0.13392624258995056,-0.020736780017614365,0.0005094248917885125,0.08911792933940887,-0.09459544718265533,-0.012471847236156464,-0.4139082431793213,-2.4593007564544678,-1.1076934337615967,-0.24244530498981476,-0.27703219652175903,-0.11939691752195358
1749033368.5990174,5.607837200164795,-0.19000335157427983,-0.2358865737915039,-1.3378814321807404,4.958894729614258,5.469693183898926,-0.13392624258995056,-0.020736780017614365,0.0005094248917885125,0.08911792933940887,-0.09459544718265533,-0.012471847236156464,-0.4139082431793213,-2.4593007564544678,-1.1076934337615967,-0.24244530498981476,-0.27703219652175903,-0.11939691752195358
1749033368.5996747,5.607635974884033,-0.19000895441088872,-0.23587432503700256,-1.3376939755729218,4.958691596984863,5.469657897949219,-0.12658827006816864,-0.021601367741823196,0.0005312044522725046,0.09026245772838593,-0.09570848941802979,-0.011531558819115162,-0.509884238243103,-2.4107460975646973,-1.1020365953445435,-0.2249143272638321,-0.2993176579475403,-0.11673588305711746
1749033368.6016698,5.607029438018799,-0.19016654909167485,-0.23587432503700256,-1.337308095102646,4.958273887634277,5.469610214233398,-0.12579181790351868,-0.02154421992599964,0.0005185771733522415,0.09547078609466553,-0.10057324916124344,-0.013612411916255951,-0.6361441612243652,-2.4621596336364746,-1.0928232669830322,-0.2616269886493683,-0.26686379313468933,-0.1342935860157013
1749033368.6422849,5.607029438018799,-0.19016654909167485,-0.23587432503700256,-1.337308095102646,4.958273887634277,5.469610214233398,-0.12579181790351868,-0.02154421992599964,0.0005185771733522415,0.09547078609466553,-0.10057324916124344,-0.013612411916255951,-0.6361441612243652,-2.4621596336364746,-1.0928232669830322,-0.2616269886493683,-0.26686379313468933,-0.1342935860157013
1749033368.6423314,5.606509685516357,-0.19021590173754888,-0.23589739203453064,-1.3369418394616623,4.9579291343688965,5.469559192657471,-0.13801419734954834,-0.02318519726395607,0.0005251978291198611,0.09641318768262863,-0.10421378910541534,-0.012141133658587933,-0.534592866897583,-2.434701442718506,-1.0744134187698364,-0.2714828848838806,-0.28885579109191895,-0.11908885836601257
1749033368.6423724,5.606218338012695,-0.19025977075610356,-0.23587799072265625,-1.3367580634406586,4.957675457000732,5.469522953033447,-0.13685913383960724,-0.02479434758424759,0.0005040918476879597,0.09763279557228088,-0.11136092990636826,-0.012815196067094803,-0.5669704079627991,-2.442089319229126,-1.0794527530670166,-0.2571198046207428,-0.2649562358856201,-0.13057875633239746
1749033368.6424112,5.606218338012695,-0.19025977075610356,-0.23587799072265625,-1.3367580634406586,4.957675457000732,5.469522953033447,-0.13685913383960724,-0.02479434758424759,0.0005040918476879597,0.09763279557228088,-0.11136092990636826,-0.012815196067094803,-0.5669704079627991,-2.442089319229126,-1.0794527530670166,-0.2571198046207428,-0.2649562358856201,-0.13057875633239746
1749033368.642453,5.6059465408325195,-0.19036193311724858,-0.23587076365947723,-1.3365634095719834,4.9574713706970215,5.469533920288086,-0.13971953094005585,-0.025111133232712746,0.0005511339986696839,0.09685495495796204,-0.11016865819692612,-0.013252570293843746,-0.5913979411125183,-2.4427614212036133,-1.0792771577835083,-0.25215503573417664,-0.2532099187374115,-0.12596382200717926
1749033368.6424916,5.605647563934326,-0.1904100936702271,-0.23589012026786804,-1.33636029184375,4.9572367668151855,5.46950626373291,-0.14407473802566528,-0.024813150987029076,0.0005893839988857508,0.09653463214635849,-0.1101495623588562,-0.013890519738197327,-0.5336369276046753,-2.474114179611206,-1.0621265172958374,-0.23661378026008606,-0.28030985593795776,-0.12437300384044647
1749033368.6425304,5.605022430419922,-0.19048972547564702,-0.23587799072265625,-1.3359747391990204,4.956778526306152,5.469461441040039,-0.1468062698841095,-0.026378603652119637,0.0006348604219965637,0.0980973020195961,-0.11117652803659439,-0.013987211510539055,-0.554711103439331,-2.443568229675293,-1.0692589282989502,-0.23210307955741882,-0.26551684737205505,-0.1297808587551117
1749033368.642569,5.605022430419922,-0.19048972547564702,-0.23587799072265625,-1.3359747391990204,4.956778526306152,5.469461441040039,-0.1468062698841095,-0.026378603652119637,0.0006348604219965637,0.0980973020195961,-0.11117652803659439,-0.013987211510539055,-0.554711103439331,-2.443568229675293,-1.0692589282989502,-0.23210307955741882,-0.26551684737205505,-0.1297808587551117
1749033368.6426063,5.604750633239746,-0.19050319612536626,-0.23588156700134277,-1.3357405674508591,4.956567287445068,5.469356536865234,-0.14748670160770416,-0.026199348270893097,0.00085093779489398,0.09644307941198349,-0.11277342587709427,-0.014354485087096691,-0.5370195508003235,-2.4713635444641113,-1.0528380870819092,-0.22360582649707794,-0.2591862976551056,-0.13703468441963196
1749033368.642644,5.60444974899292,-0.19055922449145513,-0.23587799072265625,-1.3355495941689988,4.956344127655029,5.469391345977783,-0.15070217847824097,-0.02621185965836048,0.000924649357330054,0.09749669581651688,-0.11227472871541977,-0.013855651021003723,-0.5967254042625427,-2.4973948001861572,-1.0451345443725586,-0.19987843930721283,-0.27011919021606445,-0.14308425784111023
1749033368.6426816,5.60411262512207,-0.19064207494769292,-0.23587799072265625,-1.3353540760329743,4.956136703491211,5.469371318817139,-0.1550038754940033,-0.0265736635774374,0.000998767907731235,0.10359887033700943,-0.11609002947807312,-0.01351100578904152,-0.5096077919006348,-2.4756085872650146,-1.0632753372192383,-0.23721322417259216,-0.2537214159965515,-0.15287882089614868
1749033368.642719,5.603816509246826,-0.19068677843127446,-0.23586249351501465,-1.3351354908994217,4.955916404724121,5.469339370727539,-0.15531308948993683,-0.0276861023157835,0.0009451324003748596,0.10485588759183884,-0.11540186405181885,-0.014389506541192532,-0.48787006735801697,-2.486851930618286,-1.0381591320037842,-0.2395649254322052,-0.2593737542629242,-0.13802127540111542
1749033368.6427555,5.603169918060303,-0.1908208888820191,-0.23584692180156708,-1.334717721944191,4.9554619789123535,5.469247341156006,-0.16248735785484314,-0.02941558137536049,0.0012656205799430609,0.10587673634290695,-0.11593812704086304,-0.01601061411201954,-0.5661418437957764,-2.4817943572998047,-1.03848135471344,-0.21826593577861786,-0.3183510899543762,-0.13613349199295044
1749033368.642794,5.603169918060303,-0.1908208888820191,-0.23584692180156708,-1.334717721944191,4.9554619789123535,5.469247341156006,-0.16248735785484314,-0.02941558137536049,0.0012656205799430609,0.10587673634290695,-0.11593812704086304,-0.01601061411201954,-0.5661418437957764,-2.4817943572998047,-1.03848135471344,-0.21826593577861786,-0.3183510899543762,-0.13613349199295044
1749033368.6428308,5.6025238037109375,-0.19095297277484136,-0.23586606979370117,-1.334260420208313,4.955008029937744,5.4691996574401855,-0.16148672997951508,-0.030126875266432762,0.00167037732899189,0.1089104562997818,-0.12057339400053024,-0.01575717143714428,-0.4962485432624817,-2.489828109741211,-1.0359807014465332,-0.23111605644226074,-0.2977326512336731,-0.13706298172473907
1749033368.642868,5.602172374725342,-0.190989689236023,-0.2358696311712265,-1.3340336841395875,4.954757213592529,5.469156265258789,-0.15885226428508759,-0.031013958156108856,0.0018796988297253847,0.11172308027744293,-0.12263859063386917,-0.015547111630439758,-0.5538381338119507,-2.4849562644958496,-1.0317186117172241,-0.22176578640937805,-0.31586387753486633,-0.13039319217205048
1749033368.642906,5.602172374725342,-0.190989689236023,-0.2358696311712265,-1.3340336841395875,4.954757213592529,5.469156265258789,-0.15885226428508759,-0.031013958156108856,0.0018796988297253847,0.11172308027744293,-0.12263859063386917,-0.015547111630439758,-0.5538381338119507,-2.4849562644958496,-1.0317186117172241,-0.22176578640937805,-0.31586387753486633,-0.13039319217205048
1749033368.642943,5.601556777954102,-0.19110937536273198,-0.235822856426239,-1.3335832518390198,4.954226970672607,5.469119548797607,-0.16473282873630524,-0.03260788694024086,0.002118318108841777,0.11310537904500961,-0.13021330535411835,-0.015579509548842907,-0.5553663969039917,-2.45660400390625,-1.0182666778564453,-0.25353050231933594,-0.28571662306785583,-0.13884006440639496
1749033368.64298,5.601556777954102,-0.19110937536273198,-0.235822856426239,-1.3335832518390198,4.954226970672607,5.469119548797607,-0.16473282873630524,-0.03260788694024086,0.002118318108841777,0.11310537904500961,-0.13021330535411835,-0.015579509548842907,-0.5553663969039917,-2.45660400390625,-1.0182666778564453,-0.25353050231933594,-0.28571662306785583,-0.13884006440639496
1749033368.6430168,5.601221561431885,-0.19116218507800298,-0.23581092059612274,-1.3333526116660614,4.953963756561279,5.469095706939697,-0.16689103841781616,-0.03336367383599281,0.002141242614015937,0.1135048046708107,-0.13261035084724426,-0.016155222430825233,-0.5345463752746582,-2.472001552581787,-1.0271319150924683,-0.23000524938106537,-0.25822514295578003,-0.13508449494838715
1749033368.6437092,5.6008195877075195,-0.19128818929705815,-0.23580734431743622,-1.333086909060814,4.953669548034668,5.469051837921143,-0.16871167719364166,-0.03382669389247894,0.002437173156067729,0.1140117421746254,-0.13460715115070343,-0.01609804295003414,-0.5831986665725708,-2.4686100482940674,-1.0169694423675537,-0.24157771468162537,-0.2358398288488388,-0.14979124069213867
1749033368.645667,5.60053014755249,-0.19134469450030522,-0.23581090569496155,-1.3328596216491242,4.953356742858887,5.469015598297119,-0.17163458466529846,-0.034462668001651764,0.0027370573952794075,0.11878395825624466,-0.13578996062278748,-0.01607685722410679,-0.5992698669433594,-2.4506947994232178,-1.0140775442123413,-0.2566159665584564,-0.23165318369865417,-0.13048043847084045
1749033368.6862905,5.599785804748535,-0.19146056592974858,-0.23582173883914948,-1.3323858988336106,4.952832221984863,5.468940734863281,-0.17590990662574768,-0.03628837317228317,0.003174330573529005,0.11675972491502762,-0.13407652080059052,-0.01666957512497902,-0.5358114242553711,-2.4125547409057617,-1.0183086395263672,-0.23557531833648682,-0.21990522742271423,-0.12111099064350128
1749033368.6863375,5.599429607391357,-0.19150526941333013,-0.23583364486694336,-1.3321661067060013,4.9525275230407715,5.468907833099365,-0.1798173487186432,-0.03710294887423515,0.0033147733192890882,0.11869028210639954,-0.1340050995349884,-0.015813836827874184,-0.6278496384620667,-2.4364399909973145,-1.0148295164108276,-0.2355595827102661,-0.25430551171302795,-0.12303389608860016
1749033368.686378,5.599429607391357,-0.19150526941333013,-0.23583364486694336,-1.3321661067060013,4.9525275230407715,5.468907833099365,-0.1798173487186432,-0.03710294887423515,0.0033147733192890882,0.11869028210639954,-0.1340050995349884,-0.015813836827874184,-0.6278496384620667,-2.4364399909973145,-1.0148295164108276,-0.2355595827102661,-0.25430551171302795,-0.12303389608860016
1749033368.6864178,5.598686695098877,-0.19163318098101811,-0.2357904016971588,-1.331685097222664,4.95203971862793,5.468891143798828,-0.18633361160755157,-0.03777030482888222,0.003298385301604867,0.11890345066785812,-0.13679300248622894,-0.015747740864753723,-0.5239617824554443,-2.423006057739258,-1.0112284421920776,-0.2170272171497345,-0.2518717050552368,-0.14421077072620392
1749033368.6864567,5.598686695098877,-0.19163318098101811,-0.2357904016971588,-1.331685097222664,4.95203971862793,5.468891143798828,-0.18633361160755157,-0.03777030482888222,0.003298385301604867,0.11890345066785812,-0.13679300248622894,-0.015747740864753723,-0.5239617824554443,-2.423006057739258,-1.0112284421920776,-0.2170272171497345,-0.2518717050552368,-0.14421077072620392
1749033368.686496,5.598322868347168,-0.19174452245745854,-0.23578214645385742,-1.3314463955214997,4.951776504516602,5.468827724456787,-0.18731316924095154,-0.038381610065698624,0.003469190327450633,0.12093771249055862,-0.13755007088184357,-0.016461385414004326,-0.44384655356407166,-2.4299731254577637,-1.0149704217910767,-0.21318964660167694,-0.2503366768360138,-0.14925406873226166
1749033368.6865342,5.597533226013184,-0.19189591825518804,-0.2357940673828125,-1.3309290421060105,4.951280117034912,5.4687676429748535,-0.18811453878879547,-0.03924743831157684,0.003509232308715582,0.12351388484239578,-0.13803620636463165,-0.01696951873600483,-0.4505036175251007,-2.4091153144836426,-1.0037950277328491,-0.21513909101486206,-0.26824086904525757,-0.14562609791755676
1749033368.6865718,5.597533226013184,-0.19189591825518804,-0.2357940673828125,-1.3309290421060105,4.951280117034912,5.4687676429748535,-0.18811453878879547,-0.03924743831157684,0.003509232308715582,0.12351388484239578,-0.13803620636463165,-0.01696951873600483,-0.4505036175251007,-2.4091153144836426,-1.0037950277328491,-0.21513909101486206,-0.26824086904525757,-0.14562609791755676
1749033368.6866095,5.5967912673950195,-0.19205649316821294,-0.23575438559055328,-1.33042764783416,4.950655460357666,5.468746185302734,-0.18915638327598572,-0.03771897032856941,0.002962311264127493,0.12908650934696198,-0.14678514003753662,-0.01692657358944416,-0.4735557436943054,-2.447732925415039,-0.9925615787506104,-0.21411079168319702,-0.2238391637802124,-0.13750775158405304
1749033368.6866465,5.5967912673950195,-0.19205649316821294,-0.23575438559055328,-1.33042764783416,4.950655460357666,5.468746185302734,-0.18915638327598572,-0.03771897032856941,0.002962311264127493,0.12908650934696198,-0.14678514003753662,-0.01692657358944416,-0.4735557436943054,-2.447732925415039,-0.9925615787506104,-0.21411079168319702,-0.2238391637802124,-0.13750775158405304
1749033368.6866837,5.596419334411621,-0.19212015092883306,-0.23577022552490234,-1.330192358498909,4.9503865242004395,5.468652725219727,-0.19225311279296875,-0.04031189903616905,0.0029361601918935776,0.13076892495155334,-0.1460128128528595,-0.01707741990685463,-0.5572171211242676,-2.4168410301208496,-1.0082204341888428,-0.22936084866523743,-0.2550145387649536,-0.15727461874485016
1749033368.686721,5.59562873840332,-0.19231553495440679,-0.23578213155269623,-1.3296360832503815,4.949738502502441,5.468603610992432,-0.199977308511734,-0.04147524759173393,0.002577089471742511,0.13397802412509918,-0.14859487116336823,-0.017961114645004272,-0.4630049467086792,-2.3917336463928223,-0.988752007484436,-0.22134388983249664,-0.22444918751716614,-0.14838369190692902
1749033368.6867576,5.59562873840332,-0.19231553495440679,-0.23578213155269623,-1.3296360832503815,4.949738502502441,5.468603610992432,-0.199977308511734,-0.04147524759173393,0.002577089471742511,0.13397802412509918,-0.14859487116336823,-0.017961114645004272,-0.4630049467086792,-2.3917336463928223,-0.988752007484436,-0.22134388983249664,-0.22444918751716614,-0.14838369190692902
1749033368.6867952,5.5948309898376465,-0.1924165052226563,-0.23575441539287567,-1.329055593614914,4.949156284332275,5.468540191650391,-0.20301923155784607,-0.03903735429048538,0.002389249624684453,0.13960674405097961,-0.1479182094335556,-0.018083296716213226,-0.43764644861221313,-2.4349966049194336,-0.9708003997802734,-0.23607423901557922,-0.23011167347431183,-0.14698071777820587
1749033368.686832,5.5948309898376465,-0.1924165052226563,-0.23575441539287567,-1.329055593614914,4.949156284332275,5.468540191650391,-0.20301923155784607,-0.03903735429048538,0.002389249624684453,0.13960674405097961,-0.1479182094335556,-0.018083296716213226,-0.43764644861221313,-2.4349966049194336,-0.9708003997802734,-0.23607423901557922,-0.23011167347431183,-0.14698071777820587
1749033368.6868687,5.594023704528809,-0.19261081636462407,-0.23574590682983398,-1.3284947139075776,4.948628902435303,5.4684834480285645,-0.20015867054462433,-0.038693707436323166,0.0025393764954060316,0.13416118919849396,-0.14370210468769073,-0.017531272023916245,-0.4983378052711487,-2.4460086822509766,-0.969338059425354,-0.21464715898036957,-0.25766584277153015,-0.13973218202590942
1749033368.6869059,5.593605995178223,-0.19269473970446782,-0.2357494831085205,-1.3282355827144166,4.94827938079834,5.468435764312744,-0.20133598148822784,-0.04131346940994263,0.0025023187045007944,0.13737864792346954,-0.1466677039861679,-0.017699385061860085,-0.5271744728088379,-2.4042818546295166,-0.9600796699523926,-0.19859638810157776,-0.28384703397750854,-0.14719918370246887
1749033368.6869419,5.593605995178223,-0.19269473970446782,-0.2357494831085205,-1.3282355827144166,4.94827938079834,5.468435764312744,-0.20133598148822784,-0.04131346940994263,0.0025023187045007944,0.13737864792346954,-0.1466677039861679,-0.017699385061860085,-0.5271744728088379,-2.4042818546295166,-0.9600796699523926,-0.19859638810157776,-0.28384703397750854,-0.14719918370246887
1749033368.6869788,5.59283447265625,-0.19289012373004155,-0.2357339859008789,-1.327683151965477,4.947720527648926,5.468356609344482,-0.20918449759483337,-0.04004845768213272,0.002784175332635641,0.13857170939445496,-0.14916209876537323,-0.01886788196861744,-0.4805794358253479,-2.438396692276001,-0.9496090412139893,-0.20226213335990906,-0.309171587228775,-0.1455478072166443
1749033368.6870158,5.5924201011657715,-0.19294650972399907,-0.2357303947210312,-1.3274321568063279,4.94738245010376,5.468347072601318,-0.21016298234462738,-0.04018630459904671,0.0026937657967209816,0.14141914248466492,-0.15369297564029694,-0.018921520560979843,-0.48631858825683594,-2.429625988006592,-0.9518840909004211,-0.20158196985721588,-0.2965041697025299,-0.14077547192573547
1749033368.6876724,5.5924201011657715,-0.19294650972399907,-0.2357303947210312,-1.3274321568063279,4.94738245010376,5.468347072601318,-0.21016298234462738,-0.04018630459904671,0.0026937657967209816,0.14141914248466492,-0.15369297564029694,-0.018921520560979843,-0.48631858825683594,-2.429625988006592,-0.9518840909004211,-0.20158196985721588,-0.2965041697025299,-0.14077547192573547
1749033368.6896298,5.591585159301758,-0.1931128066829224,-0.23576530814170837,-1.32687462986026,4.946744918823242,5.468228816986084,-0.2087050974369049,-0.04051404446363449,0.002494348445907235,0.14640146493911743,-0.16077321767807007,-0.018456637859344482,-0.558443546295166,-2.445425033569336,-0.9391103982925415,-0.24156437814235687,-0.24378666281700134,-0.1730363965034485
1749033368.730293,5.591194152832031,-0.1931702655604859,-0.23576171696186066,-1.3265607368997117,4.946409702301025,5.468189239501953,-0.21190257370471954,-0.04037107899785042,0.0024158318992704153,0.1476956009864807,-0.1635746955871582,-0.018770338967442513,-0.555320143699646,-2.467965602874756,-0.9384825229644775,-0.21792751550674438,-0.24908214807510376,-0.14232175052165985
1749033368.730341,5.591194152832031,-0.1931702655604859,-0.23576171696186066,-1.3265607368997117,4.946409702301025,5.468189239501953,-0.21190257370471954,-0.04037107899785042,0.0024158318992704153,0.1476956009864807,-0.1635746955871582,-0.018770338967442513,-0.555320143699646,-2.467965602874756,-0.9384825229644775,-0.21792751550674438,-0.24908214807510376,-0.14232175052165985
1749033368.730382,5.590372085571289,-0.1933775705150147,-0.23574590682983398,-1.3259720665267487,4.945735931396484,5.468148708343506,-0.21758362650871277,-0.041256748139858246,0.002673117909580469,0.15153631567955017,-0.16310115158557892,-0.018699657171964645,-0.5401051044464111,-2.4482431411743164,-0.9280669689178467,-0.22743800282478333,-0.2495071440935135,-0.1491689682006836
1749033368.730426,5.590372085571289,-0.1933775705150147,-0.23574590682983398,-1.3259720665267487,4.945735931396484,5.468148708343506,-0.21758362650871277,-0.041256748139858246,0.002673117909580469,0.15153631567955017,-0.16310115158557892,-0.018699657171964645,-0.5401051044464111,-2.4482431411743164,-0.9280669689178467,-0.22743800282478333,-0.2495071440935135,-0.1491689682006836
1749033368.730466,5.589451313018799,-0.19353349626574712,-0.23571491241455078,-1.3253477823785325,4.94510555267334,5.468051910400391,-0.21797963976860046,-0.042494963854551315,0.0032750905957072973,0.15019755065441132,-0.16316038370132446,-0.019528863951563835,-0.5953522324562073,-2.4433326721191406,-0.919004499912262,-0.20085877180099487,-0.24590197205543518,-0.16364121437072754
1749033368.7305043,5.589034080505371,-0.19355900705371099,-0.23571014404296875,-1.3250715893558045,4.944806098937988,5.468024730682373,-0.2183319330215454,-0.04355825111269951,0.004040983505547047,0.152658611536026,-0.16978409886360168,-0.01905048079788685,-0.6217647194862366,-2.4347381591796875,-0.9327515959739685,-0.2193647176027298,-0.23816214501857758,-0.1572451889514923
1749033368.730543,5.589034080505371,-0.19355900705371099,-0.23571014404296875,-1.3250715893558045,4.944806098937988,5.468024730682373,-0.2183319330215454,-0.04355825111269951,0.004040983505547047,0.152658611536026,-0.16978409886360168,-0.01905048079788685,-0.6217647194862366,-2.4347381591796875,-0.9327515959739685,-0.2193647176027298,-0.23816214501857758,-0.1572451889514923
1749033368.7305844,5.588164329528809,-0.19380445898089604,-0.2356550395488739,-1.3244935286096116,4.944124698638916,5.467928886413574,-0.22437620162963867,-0.04445183277130127,0.005263766273856163,0.15333648025989532,-0.1707875281572342,-0.019649315625429153,-0.5917689800262451,-2.4271140098571777,-0.9408162236213684,-0.19421778619289398,-0.24899111688137054,-0.15736135840415955
1749033368.7306235,5.587658882141113,-0.1938573879054566,-0.23568964004516602,-1.3241607409766694,4.943704128265381,5.467893123626709,-0.22613947093486786,-0.04467366635799408,0.005584458354860544,0.1552666574716568,-0.17479625344276428,-0.019410589709877968,-0.6050659418106079,-2.421219825744629,-0.9328345060348511,-0.18694549798965454,-0.22153422236442566,-0.1563861072063446
1749033368.7306616,5.587658882141113,-0.1938573879054566,-0.23568964004516602,-1.3241607409766694,4.943704128265381,5.467893123626709,-0.22613947093486786,-0.04467366635799408,0.005584458354860544,0.1552666574716568,-0.17479625344276428,-0.019410589709877968,-0.6050659418106079,-2.421219825744629,-0.9328345060348511,-0.18694549798965454,-0.22153422236442566,-0.1563861072063446
1749033368.7306993,5.586795806884766,-0.1940179628184815,-0.23564639687538147,-1.3235639792731781,4.943065166473389,5.467805862426758,-0.23005911707878113,-0.04537762328982353,0.005509004928171635,0.16042311489582062,-0.17339813709259033,-0.020409228280186653,-0.6124483942985535,-2.4205501079559326,-0.9428618550300598,-0.19858242571353912,-0.24438133835792542,-0.15790006518363953
1749033368.7307403,5.586795806884766,-0.1940179628184815,-0.23564639687538147,-1.3235639792731781,4.943065166473389,5.467805862426758,-0.23005911707878113,-0.04537762328982353,0.005509004928171635,0.16042311489582062,-0.17339813709259033,-0.020409228280186653,-0.6124483942985535,-2.4205501079559326,-0.9428618550300598,-0.19858242571353912,-0.24438133835792542,-0.15790006518363953
1749033368.730779,5.585931777954102,-0.19417686880145268,-0.23561039566993713,-1.3229159128716965,4.942359447479248,5.467729091644287,-0.23198752105236053,-0.045252565294504166,0.00654487544670701,0.16247382760047913,-0.169851154088974,-0.019898703321814537,-0.6180212497711182,-2.4397926330566406,-0.9498404860496521,-0.21436667442321777,-0.2851372957229614,-0.16822728514671326
1749033368.7308168,5.585456848144531,-0.1942853492549439,-0.23559099435806274,-1.3225658547929307,4.941990375518799,5.46766996383667,-0.23378780484199524,-0.04562584310770035,0.0059292493388056755,0.16342061758041382,-0.1757703572511673,-0.020621849223971367,-0.603881299495697,-2.4655942916870117,-0.9481509923934937,-0.20230983197689056,-0.25367271900177,-0.15414322912693024
1749033368.7308545,5.585456848144531,-0.1942853492549439,-0.23559099435806274,-1.3225658547929307,4.941990375518799,5.46766996383667,-0.23378780484199524,-0.04562584310770035,0.0059292493388056755,0.16342061758041382,-0.1757703572511673,-0.020621849223971367,-0.603881299495697,-2.4655942916870117,-0.9481509923934937,-0.20230983197689056,-0.25367271900177,-0.15414322912693024
1749033368.730895,5.5844950675964355,-0.1944597524455567,-0.23557087779045105,-1.3218735617450257,4.941255569458008,5.467620849609375,-0.2396426945924759,-0.04816829040646553,0.005381538532674313,0.16797605156898499,-0.17957858741283417,-0.02093721181154251,-0.610691487789154,-2.4259397983551025,-0.9515202045440674,-0.22185131907463074,-0.24393749237060547,-0.14514152705669403
1749033368.730934,5.5844950675964355,-0.1944597524455567,-0.23557087779045105,-1.3218735617450257,4.941255569458008,5.467620849609375,-0.2396426945924759,-0.04816829040646553,0.005381538532674313,0.16797605156898499,-0.17957858741283417,-0.02093721181154251,-0.610691487789154,-2.4259397983551025,-0.9515202045440674,-0.22185131907463074,-0.24393749237060547,-0.14514152705669403
1749033368.7309747,5.583506107330322,-0.19467230260882573,-0.2355503886938095,-1.3211807918599625,4.9404754638671875,5.467536926269531,-0.2403133064508438,-0.04625752940773964,0.00608080392703414,0.1725703477859497,-0.18293403089046478,-0.020505227148532867,-0.6684138178825378,-2.4544878005981445,-0.9626496434211731,-0.22045722603797913,-0.2275233268737793,-0.15122558176517487
1749033368.7310357,5.583037853240967,-0.1947370332530518,-0.2355348765850067,-1.3208152961781998,4.940117359161377,5.467488765716553,-0.2441871166229248,-0.0469975620508194,0.00544075109064579,0.17178727686405182,-0.18362556397914886,-0.021450225263834,-0.6341149806976318,-2.4766745567321777,-0.9509826898574829,-0.26193952560424805,-0.22121483087539673,-0.169529527425766
1749033368.7311006,5.583037853240967,-0.1947370332530518,-0.2355348765850067,-1.3208152961781998,4.940117359161377,5.467488765716553,-0.2441871166229248,-0.0469975620508194,0.00544075109064579,0.17178727686405182,-0.18362556397914886,-0.021450225263834,-0.6341149806976318,-2.4766745567321777,-0.9509826898574829,-0.26193952560424805,-0.22121483087539673,-0.169529527425766
1749033368.7318788,5.582586765289307,-0.19487126291308599,-0.23551073670387268,-1.3205315333655854,4.9397759437561035,5.4674224853515625,-0.2454790323972702,-0.046890635043382645,0.004907780792564154,0.17272470891475677,-0.18298447132110596,-0.021278882399201393,-0.6366651058197021,-2.4369595050811768,-0.9528145790100098,-0.25983721017837524,-0.23584559559822083,-0.1734921634197235
1749033368.7336986,5.582068920135498,-0.19493599355731206,-0.23554931581020355,-1.3202123504928132,4.9394025802612305,5.467367172241211,-0.24806220829486847,-0.04640200734138489,0.00454487930983305,0.1736319363117218,-0.18256394565105438,-0.0219589751213789,-0.6466939449310303,-2.4596824645996094,-0.9554613828659058,-0.2719447612762451,-0.22572654485702515,-0.1606883555650711
1749033368.774367,5.581588268280029,-0.1950126451304932,-0.23554205894470215,-1.3198781174472352,4.939035415649414,5.467372894287109,-0.24779614806175232,-0.0459737591445446,0.004032502416521311,0.1721283495426178,-0.18149434030056,-0.022607874125242233,-0.6548475027084351,-2.478623628616333,-0.9354247450828552,-0.236052468419075,-0.25790703296661377,-0.1503264158964157
1749033368.7744172,5.581058502197266,-0.1951396030238648,-0.23551073670387268,-1.3195328277400513,4.938652992248535,5.467317581176758,-0.2506483495235443,-0.04599135369062424,0.0037081188056617975,0.17093634605407715,-0.18233661353588104,-0.022084910422563553,-0.6912985444068909,-2.4972984790802,-0.9258352518081665,-0.2334861159324646,-0.28065136075019836,-0.17525330185890198
1749033368.774463,5.580555438995361,-0.1951924127391358,-0.23554924130439758,-1.3191866439631958,4.938282489776611,5.467245578765869,-0.25325649976730347,-0.046099983155727386,0.0035751780960708857,0.17252258956432343,-0.1822524070739746,-0.023185038939118385,-0.6843536496162415,-2.480999708175659,-0.9408427476882935,-0.22453567385673523,-0.2854180932044983,-0.15870365500450134
1749033368.7745044,5.580036640167236,-0.1953147214702149,-0.2355179786682129,-1.3188321453383942,4.937946319580078,5.467197895050049,-0.25797709822654724,-0.04648003354668617,0.0034548980183899403,0.170070081949234,-0.1869402378797531,-0.02289259247481823,-0.7598212361335754,-2.5029821395874023,-0.9144638180732727,-0.199102520942688,-0.288936972618103,-0.15190064907073975
1749033368.7745447,5.578981876373291,-0.19548805177722173,-0.23552516102790833,-1.3181166511825104,4.937185287475586,5.467133045196533,-0.26580867171287537,-0.04751374572515488,0.0034105961676687002,0.1743210107088089,-0.19610504806041718,-0.02261372096836567,-0.5527985095977783,-2.507235288619995,-0.9089037179946899,-0.20225338637828827,-0.2649032473564148,-0.1704418957233429
1749033368.774583,5.578981876373291,-0.19548805177722173,-0.23552516102790833,-1.3181166511825104,4.937185287475586,5.467133045196533,-0.26580867171287537,-0.04751374572515488,0.0034105961676687002,0.1743210107088089,-0.19610504806041718,-0.02261372096836567,-0.5527985095977783,-2.507235288619995,-0.9089037179946899,-0.20225338637828827,-0.2649032473564148,-0.1704418957233429
1749033368.7746205,5.578446388244629,-0.19561870515856938,-0.2355024665594101,-1.3177657586387177,4.936744213104248,5.467081546783447,-0.2596026360988617,-0.048169806599617004,0.0036384183913469315,0.17808005213737488,-0.19802017509937286,-0.022030629217624664,-0.6551352143287659,-2.4964511394500732,-0.9082791805267334,-0.18775171041488647,-0.23921123147010803,-0.17314882576465607
1749033368.774659,5.577934265136719,-0.19569893301043706,-0.23549054563045502,-1.3173766893199463,4.936399459838867,5.467018127441406,-0.26455676555633545,-0.047773029655218124,0.004268459975719452,0.18098120391368866,-0.19853869080543518,-0.02118934690952301,-0.707802951335907,-2.5005807876586914,-0.9144211411476135,-0.20978064835071564,-0.2557147443294525,-0.1688162237405777
1749033368.7746959,5.577394962310791,-0.19581563890490727,-0.23549413681030273,-1.3170219522765656,4.9359893798828125,5.46694278717041,-0.26871612668037415,-0.05054044723510742,0.004093005321919918,0.18482263386249542,-0.19691252708435059,-0.022292284294962883,-0.635248601436615,-2.4889590740203857,-0.8976469039916992,-0.233109250664711,-0.2748791575431824,-0.16391655802726746
1749033368.7747326,5.576253890991211,-0.19601817548785405,-0.23548564314842224,-1.3163245779326935,4.9351806640625,5.466897964477539,-0.266135573387146,-0.050794146955013275,0.004708440508693457,0.18799252808094025,-0.19470244646072388,-0.023503322154283524,-0.6781410574913025,-2.494417428970337,-0.8948287963867188,-0.2566288709640503,-0.3037259578704834,-0.17022916674613953
1749033368.7747693,5.576253890991211,-0.19601817548785405,-0.23548564314842224,-1.3163245779326935,4.9351806640625,5.466897964477539,-0.266135573387146,-0.050794146955013275,0.004708440508693457,0.18799252808094025,-0.19470244646072388,-0.023503322154283524,-0.6781410574913025,-2.494417428970337,-0.8948287963867188,-0.2566288709640503,-0.3037259578704834,-0.17022916674613953
1749033368.7748058,5.5751423835754395,-0.19622178495440679,-0.23549413681030273,-1.3155773443034668,4.934374809265137,5.466833114624023,-0.2780466079711914,-0.051302067935466766,0.0039694528095424175,0.18499532341957092,-0.20050418376922607,-0.023245571181178093,-0.6362547874450684,-2.480201005935669,-0.9122258424758911,-0.21476377546787262,-0.292707622051239,-0.14652666449546814
1749033368.774842,5.5745673179626465,-0.1963295501521607,-0.23546981811523438,-1.315214381819107,4.933971881866455,5.466727256774902,-0.2817719280719757,-0.05305285006761551,0.0037637376226484776,0.1842968612909317,-0.20872092247009277,-0.0232355035841465,-0.4562627971172333,-2.453991413116455,-0.889795184135437,-0.1944999396800995,-0.2714361846446991,-0.17114686965942383
1749033368.7748787,5.5745673179626465,-0.1963295501521607,-0.23546981811523438,-1.315214381819107,4.933971881866455,5.466727256774902,-0.2817719280719757,-0.05305285006761551,0.0037637376226484776,0.1842968612909317,-0.20872092247009277,-0.0232355035841465,-0.4562627971172333,-2.453991413116455,-0.889795184135437,-0.1944999396800995,-0.2714361846446991,-0.17114686965942383
1749033368.7749195,5.573432445526123,-0.19653315961871343,-0.23545430600643158,-1.3144310873797913,4.933124542236328,5.466658592224121,-0.2771158814430237,-0.056748710572719574,0.0053084963001310825,0.1852322518825531,-0.2135666161775589,-0.02356007695198059,-0.6004656553268433,-2.392620801925659,-0.8844412565231323,-0.16567488014698029,-0.24734041094779968,-0.1726304590702057
1749033368.7749581,5.572891712188721,-0.19666119039569097,-0.23542189598083496,-1.3140369218638916,4.932697772979736,5.466624736785889,-0.280370831489563,-0.054657481610774994,0.006109716836363077,0.19206063449382782,-0.2130793184041977,-0.023547271266579628,-0.580237865447998,-2.4313805103302,-0.9072000980377197,-0.21363747119903564,-0.2479936182498932,-0.17583593726158142
1749033368.7749949,5.572891712188721,-0.19666119039569097,-0.23542189598083496,-1.3140369218638916,4.932697772979736,5.466624736785889,-0.280370831489563,-0.054657481610774994,0.006109716836363077,0.19206063449382782,-0.2130793184041977,-0.023547271266579628,-0.580237865447998,-2.4313805103302,-0.9072000980377197,-0.21363747119903564,-0.2479936182498932,-0.17583593726158142
1749033368.7750316,5.5716872215271,-0.19685645521197515,-0.2353750616312027,-1.3132766348174592,4.931845188140869,5.466510772705078,-0.28699934482574463,-0.05764227733016014,0.006997772958129644,0.19562850892543793,-0.210890993475914,-0.024227017536759377,-0.5598610639572144,-2.4010698795318604,-0.9244564175605774,-0.23326148092746735,-0.2741181552410126,-0.17088444530963898
1749033368.7750678,5.5716872215271,-0.19685645521197515,-0.2353750616312027,-1.3132766348174592,4.931845188140869,5.466510772705078,-0.28699934482574463,-0.05764227733016014,0.006997772958129644,0.19562850892543793,-0.210890993475914,-0.024227017536759377,-0.5598610639572144,-2.4010698795318604,-0.9244564175605774,-0.23326148092746735,-0.2741181552410126,-0.17088444530963898
1749033368.7751045,5.5711350440979,-0.19698794305834966,-0.2354017198085785,-1.3128792208484192,4.931429862976074,5.466454982757568,-0.2873271107673645,-0.057034026831388474,0.006419834680855274,0.1958146095275879,-0.21030180156230927,-0.025256598368287086,-0.5919301509857178,-2.415450096130371,-0.9259992837905884,-0.2594173550605774,-0.2902147173881531,-0.16362060606479645
1749033368.7757704,5.570559024810791,-0.1970408719829102,-0.23538589477539062,-1.3125006717494507,4.93096399307251,5.466425895690918,-0.28763532638549805,-0.05692219361662865,0.005796253215521574,0.20066772401332855,-0.215233713388443,-0.02642778679728508,-0.5621813535690308,-2.413426637649536,-0.9105162620544434,-0.25169143080711365,-0.2793370187282562,-0.170005202293396
1749033368.7776976,5.569975852966309,-0.19718761861834722,-0.23536564409732819,-1.3120832604220887,4.930517673492432,5.466374397277832,-0.289794385433197,-0.0547758974134922,0.005651089362800121,0.19739003479480743,-0.2148437350988388,-0.02600623294711113,-0.5612785816192627,-2.4473705291748047,-0.8999689817428589,-0.24446526169776917,-0.2823905646800995,-0.1612958163022995
1749033368.818288,5.568763256072998,-0.19740791738543706,-0.23532581329345703,-1.3112527889064332,4.929640769958496,5.466274738311768,-0.2902996242046356,-0.055581334978342056,0.006950013805180788,0.1954677253961563,-0.22449550032615662,-0.025015488266944885,-0.5536730289459229,-2.4573910236358643,-0.9149423837661743,-0.21611204743385315,-0.243167906999588,-0.17174433171749115
1749033368.8183358,5.568763256072998,-0.19740791738543706,-0.23532581329345703,-1.3112527889064332,4.929640769958496,5.466274738311768,-0.2902996242046356,-0.055581334978342056,0.006950013805180788,0.1954677253961563,-0.22449550032615662,-0.025015488266944885,-0.5536730289459229,-2.4573910236358643,-0.9149423837661743,-0.21611204743385315,-0.243167906999588,-0.17174433171749115
1749033368.818377,5.567591667175293,-0.19761593759570317,-0.23530671000480652,-1.3104920846274872,4.9287824630737305,5.46612024307251,-0.29500874876976013,-0.05529633164405823,0.005809852387756109,0.1980358511209488,-0.224777489900589,-0.02626947872340679,-0.5260245203971863,-2.4653217792510986,-0.9147472381591797,-0.2103874832391739,-0.22278457880020142,-0.18220891058444977
1749033368.8184183,5.5669732093811035,-0.19775910795245366,-0.23531746864318848,-1.31008933604274,4.928328037261963,5.466094970703125,-0.2981753349304199,-0.05474291741847992,0.006022571120411158,0.20158585906028748,-0.21953922510147095,-0.026726121082901955,-0.5008053183555603,-2.4667694568634033,-0.9057093262672424,-0.22150233387947083,-0.23569683730602264,-0.17052146792411804
1749033368.818457,5.5669732093811035,-0.19775910795245366,-0.23531746864318848,-1.31008933604274,4.928328037261963,5.466094970703125,-0.2981753349304199,-0.05474291741847992,0.006022571120411158,0.20158585906028748,-0.21953922510147095,-0.026726121082901955,-0.5008053183555603,-2.4667694568634033,-0.9057093262672424,-0.22150233387947083,-0.23569683730602264,-0.17052146792411804
1749033368.8184953,5.565759181976318,-0.1979552072337647,-0.23528257012367249,-1.3092863720706482,4.927419185638428,5.465999126434326,-0.2940587103366852,-0.054391708225011826,0.0060470495373010635,0.2027873992919922,-0.2170269638299942,-0.027379002422094345,-0.519865095615387,-2.494722604751587,-0.9262201189994812,-0.22914758324623108,-0.27960139513015747,-0.17054660618305206
1749033368.8185337,5.565759181976318,-0.1979552072337647,-0.23528257012367249,-1.3092863720706482,4.927419185638428,5.465999126434326,-0.2940587103366852,-0.054391708225011826,0.0060470495373010635,0.2027873992919922,-0.2170269638299942,-0.027379002422094345,-0.519865095615387,-2.494722604751587,-0.9262201189994812,-0.22914758324623108,-0.27960139513015747,-0.17054660618305206
1749033368.8185718,5.565217971801758,-0.19810302675280766,-0.2352706491947174,-1.3088956040195008,4.927011966705322,5.465939044952393,-0.2982398569583893,-0.05373343825340271,0.00501263840124011,0.20183321833610535,-0.22364214062690735,-0.02808862365782261,-0.5116499662399292,-2.5107369422912598,-0.9031601548194885,-0.21233370900154114,-0.264840304851532,-0.16198107600212097
1749033368.8186095,5.5639777183532715,-0.19831104696307378,-0.2352934032678604,-1.3081003588489075,4.926138877868652,5.465827941894531,-0.30453428626060486,-0.05363542586565018,0.0038943432737141848,0.20050184428691864,-0.23029255867004395,-0.02643214538693428,-0.5951287150382996,-2.5120441913604736,-0.8886798024177551,-0.15913283824920654,-0.2650233209133148,-0.1639004349708557
1749033368.8186474,5.5639777183532715,-0.19831104696307378,-0.2352934032678604,-1.3081003588489075,4.926138877868652,5.465827941894531,-0.30453428626060486,-0.05363542586565018,0.0038943432737141848,0.20050184428691864,-0.23029255867004395,-0.02643214538693428,-0.5951287150382996,-2.5120441913604736,-0.8886798024177551,-0.15913283824920654,-0.2650233209133148,-0.1639004349708557
1749033368.8186846,5.562801361083984,-0.1984991592219849,-0.23525048792362213,-1.3072695595077057,4.925245761871338,5.465708255767822,-0.30676698684692383,-0.055391259491443634,0.004787052981555462,0.20209461450576782,-0.2288341075181961,-0.027272870764136314,-0.4107450842857361,-2.5126826763153076,-0.876916229724884,-0.12323041260242462,-0.23819872736930847,-0.16021114587783813
1749033368.818722,5.562801361083984,-0.1984991592219849,-0.23525048792362213,-1.3072695595077057,4.925245761871338,5.465708255767822,-0.30676698684692383,-0.055391259491443634,0.004787052981555462,0.20209461450576782,-0.2288341075181961,-0.027272870764136314,-0.4107450842857361,-2.5126826763153076,-0.876916229724884,-0.12323041260242462,-0.23819872736930847,-0.16021114587783813
1749033368.818759,5.562210559844971,-0.19862313688311772,-0.23525042831897736,-1.3068947356990357,4.924721717834473,5.465664863586426,-0.30598241090774536,-0.057695720344781876,0.004952560178935528,0.20614001154899597,-0.22628232836723328,-0.027243340387940407,-0.4565100371837616,-2.4910738468170166,-0.8785607218742371,-0.16268868744373322,-0.27977216243743896,-0.16471076011657715
1749033368.8187966,5.561005115509033,-0.19886238992724614,-0.2352455109357834,-1.306070701485016,4.923815727233887,5.4655866622924805,-0.3087109923362732,-0.05781610310077667,0.004212656989693642,0.21194219589233398,-0.22856102883815765,-0.027845066040754318,-0.5384289622306824,-2.513500452041626,-0.8764592409133911,-0.16809725761413574,-0.2937822937965393,-0.17449158430099487
1749033368.8188338,5.561005115509033,-0.19886238992724614,-0.2352455109357834,-1.306070701485016,4.923815727233887,5.4655866622924805,-0.3087109923362732,-0.05781610310077667,0.004212656989693642,0.21194219589233398,-0.22856102883815765,-0.027845066040754318,-0.5384289622306824,-2.513500452041626,-0.8764592409133911,-0.16809725761413574,-0.2937822937965393,-0.17449158430099487
1749033368.8188717,5.560412406921387,-0.19899828851733403,-0.23524188995361328,-1.305643991833069,4.9233880043029785,5.465488433837891,-0.30745014548301697,-0.059819504618644714,0.004128204192966223,0.21532978117465973,-0.23801279067993164,-0.028533726930618286,-0.4476602375507355,-2.4676105976104736,-0.8690893054008484,-0.1731472909450531,-0.22550378739833832,-0.15960046648979187
1749033368.8189092,5.559748649597168,-0.19912155092272954,-0.2352263629436493,-1.3051955860904236,4.922936916351318,5.465444087982178,-0.30478060245513916,-0.05965195968747139,0.004768608137965202,0.2119886875152588,-0.2379470318555832,-0.02774517424404621,-0.5147609114646912,-2.4435322284698486,-0.8625857830047607,-0.17694176733493805,-0.22254493832588196,-0.17033827304840088
1749033368.8189464,5.559748649597168,-0.19912155092272954,-0.2352263629436493,-1.3051955860904236,4.922936916351318,5.465444087982178,-0.30478060245513916,-0.05965195968747139,0.004768608137965202,0.2119886875152588,-0.2379470318555832,-0.02774517424404621,-0.5147609114646912,-2.4435322284698486,-0.8625857830047607,-0.17694176733493805,-0.22254493832588196,-0.17033827304840088
1749033368.8189838,5.557987689971924,-0.19949670255694585,-0.23517821729183197,-1.3038857144168396,4.921499252319336,5.465307712554932,-0.30578044056892395,-0.06075897440314293,0.006124033592641354,0.21681737899780273,-0.23200437426567078,-0.027638623490929604,-0.4697433114051819,-2.443960428237915,-0.8814221024513245,-0.17431366443634033,-0.24687764048576355,-0.17255091667175293
1749033368.819021,5.557987689971924,-0.19949670255694585,-0.23517821729183197,-1.3038857144168396,4.921499252319336,5.465307712554932,-0.30578044056892395,-0.06075897440314293,0.006124033592641354,0.21681737899780273,-0.23200437426567078,-0.027638623490929604,-0.4697433114051819,-2.443960428237915,-0.8814221024513245,-0.17431366443634033,-0.24687764048576355,-0.17255091667175293
1749033368.8196635,5.556737899780273,-0.19973285615954595,-0.23515404760837555,-1.302982286815979,4.920629978179932,5.465165138244629,-0.3105373680591583,-0.06023996323347092,0.0059587107971310616,0.21880078315734863,-0.22540169954299927,-0.028216859325766563,-0.7039264440536499,-2.4680566787719727,-0.8921694755554199,-0.2158747762441635,-0.36349785327911377,-0.1882643699645996
1749033368.8216157,5.556098461151123,-0.1998095077327271,-0.23515403270721436,-1.302544043665268,4.920159816741943,5.465148448944092,-0.3197440207004547,-0.060228414833545685,0.006021636538207531,0.2207450419664383,-0.2340991348028183,-0.02850632183253765,-0.48708441853523254,-2.4414117336273193,-0.8722487092018127,-0.21607284247875214,-0.34927767515182495,-0.16549482941627502
1749033368.8623292,5.556098461151123,-0.1998095077327271,-0.23515403270721436,-1.302544043665268,4.920159816741943,5.465148448944092,-0.3197440207004547,-0.060228414833545685,0.006021636538207531,0.2207450419664383,-0.2340991348028183,-0.02850632183253765,-0.48708441853523254,-2.4414117336273193,-0.8722487092018127,-0.21607284247875214,-0.34927767515182495,-0.16549482941627502
1749033368.8623767,5.554841041564941,-0.20008881509814458,-0.2351219654083252,-1.3016410034945984,4.91921854019165,5.465001106262207,-0.2932511866092682,-0.05657056346535683,0.006686125881969929,0.21694637835025787,-0.2396840751171112,-0.028244858607649803,-0.6290943622589111,-2.4909324645996094,-0.8874850869178772,-0.22638075053691864,-0.29572027921676636,-0.17574574053287506
1749033368.862417,5.554841041564941,-0.20008881509814458,-0.2351219654083252,-1.3016410034945984,4.91921854019165,5.465001106262207,-0.2932511866092682,-0.05657056346535683,0.006686125881969929,0.21694637835025787,-0.2396840751171112,-0.028244858607649803,-0.6290943622589111,-2.4909324645996094,-0.8874850869178772,-0.22638075053691864,-0.29572027921676636,-0.17574574053287506
1749033368.8624556,5.553650379180908,-0.2003041070750733,-0.23511342704296112,-1.3008029025844117,4.918207168579102,5.46486234664917,-0.3139323890209198,-0.05714947730302811,0.006031882483512163,0.21245110034942627,-0.24041379988193512,-0.028120828792452812,-0.4971093535423279,-2.49074125289917,-0.8841236233711243,-0.21817147731781006,-0.25254976749420166,-0.1813247799873352
1749033368.862494,5.552999496459961,-0.20045562208209233,-0.23509426414966583,-1.3003570300391694,4.9177632331848145,5.4648637771606445,-0.31208252906799316,-0.05556787922978401,0.0054732938297092915,0.21237778663635254,-0.23809285461902618,-0.028565095737576485,-0.41477978229522705,-2.5259218215942383,-0.8762226104736328,-0.185930997133255,-0.27766451239585876,-0.16485023498535156
1749033368.8625317,5.552999496459961,-0.20045562208209233,-0.23509426414966583,-1.3003570300391694,4.9177632331848145,5.4648637771606445,-0.31208252906799316,-0.05556787922978401,0.0054732938297092915,0.21237778663635254,-0.23809285461902618,-0.028565095737576485,-0.41477978229522705,-2.5259218215942383,-0.8762226104736328,-0.185930997133255,-0.27766451239585876,-0.16485023498535156
1749033368.8625686,5.5517683029174805,-0.20066268861804204,-0.23508596420288086,-1.2995095413974305,4.9167094230651855,5.464771747589111,-0.3168724775314331,-0.05911523476243019,0.005966461729258299,0.210458904504776,-0.23970535397529602,-0.028664378449320793,-0.696183443069458,-2.511409282684326,-0.878760576248169,-0.17478981614112854,-0.2990673780441284,-0.17912280559539795
1749033368.8626056,5.55115270614624,-0.20075889051470952,-0.23505425453186035,-1.2990597945502778,4.916213512420654,5.464661598205566,-0.32575634121894836,-0.05573270469903946,0.004863789305090904,0.2101619690656662,-0.24693913757801056,-0.02804793417453766,-0.4080950915813446,-2.5355448722839355,-0.8661082983016968,-0.16331186890602112,-0.20791693031787872,-0.1667528748512268
1749033368.862643,5.55115270614624,-0.20075889051470952,-0.23505425453186035,-1.2990597945502778,4.916213512420654,5.464661598205566,-0.32575634121894836,-0.05573270469903946,0.004863789305090904,0.2101619690656662,-0.24693913757801056,-0.02804793417453766,-0.4080950915813446,-2.5355448722839355,-0.8661082983016968,-0.16331186890602112,-0.20791693031787872,-0.1667528748512268
1749033368.8626797,5.549898147583008,-0.20105762899432378,-0.23504236340522766,-1.2982309025577088,4.915311336517334,5.464584827423096,-0.3078320622444153,-0.055985964834690094,0.00500795291736722,0.2121216356754303,-0.24141567945480347,-0.028102904558181763,-0.5484580993652344,-2.5523288249969482,-0.8668713569641113,-0.17531678080558777,-0.20623965561389923,-0.16540253162384033
1749033368.8627176,5.549898147583008,-0.20105762899432378,-0.23504236340522766,-1.2982309025577088,4.915311336517334,5.464584827423096,-0.3078320622444153,-0.055985964834690094,0.00500795291736722,0.2121216356754303,-0.24141567945480347,-0.028102904558181763,-0.5484580993652344,-2.5523288249969482,-0.8668713569641113,-0.17531678080558777,-0.20623965561389923,-0.16540253162384033
1749033368.8627546,5.54861307144165,-0.2012300056270142,-0.2350616455078125,-1.2973944705775757,4.914297103881836,5.464473724365234,-0.3136540353298187,-0.05600179359316826,0.0057174814864993095,0.21644189953804016,-0.2314378023147583,-0.028082776814699173,-0.5289973020553589,-2.5413994789123535,-0.867073655128479,-0.21031348407268524,-0.2517123818397522,-0.1653243750333786
1749033368.8627906,5.5479631423950195,-0.20136220872912602,-0.23505333065986633,-1.2969646614841004,4.913908004760742,5.464405059814453,-0.3128511905670166,-0.056647952646017075,0.004688340239226818,0.21613650023937225,-0.2264900803565979,-0.028397787362337112,-0.4923962354660034,-2.5475893020629883,-0.8697153925895691,-0.20251181721687317,-0.29126888513565063,-0.1643752008676529
1749033368.8628268,5.5479631423950195,-0.20136220872912602,-0.23505333065986633,-1.2969646614841004,4.913908004760742,5.464405059814453,-0.3128511905670166,-0.056647952646017075,0.004688340239226818,0.21613650023937225,-0.2264900803565979,-0.028397787362337112,-0.4923962354660034,-2.5475893020629883,-0.8697153925895691,-0.20251181721687317,-0.29126888513565063,-0.1643752008676529
1749033368.862863,5.5473151206970215,-0.20147712648425298,-0.235010027885437,-1.29655014098201,4.913473129272461,5.464353084564209,-0.30991363525390625,-0.058082759380340576,0.00458286888897419,0.21534714102745056,-0.22858278453350067,-0.026914414018392563,-0.5610257387161255,-2.5403761863708496,-0.8582976460456848,-0.18100030720233917,-0.322818398475647,-0.1760791391134262
1749033368.8628998,5.5467071533203125,-0.20156212270770268,-0.23502588272094727,-1.296131209736206,4.9129958152771,5.4643402099609375,-0.312473863363266,-0.05872025713324547,0.005842448677867651,0.21475382149219513,-0.23139908909797668,-0.02829325944185257,-0.5851189494132996,-2.5045459270477295,-0.8599576354026794,-0.1821286678314209,-0.29969483613967896,-0.1734740436077118
1749033368.8629363,5.545425891876221,-0.20181389272723393,-0.23498262465000153,-1.2952283483794709,4.912083148956299,5.464223861694336,-0.31737133860588074,-0.06060342863202095,0.005474559031426907,0.21850329637527466,-0.24116870760917664,-0.028030136600136757,-0.47413378953933716,-2.495988607406616,-0.8625147342681885,-0.21012310683727264,-0.25505703687667847,-0.16814133524894714
1749033368.8629727,5.544782638549805,-0.20196528852496343,-0.2349935919046402,-1.2947744888118287,4.911574363708496,5.464122295379639,-0.31439727544784546,-0.06161445379257202,0.005666840355843306,0.21856436133384705,-0.24066467583179474,-0.027149710804224014,-0.5767319202423096,-2.4899208545684814,-0.8563482165336609,-0.20522715151309967,-0.28846973180770874,-0.1824035942554474
1749033368.8630114,5.544782638549805,-0.20196528852496343,-0.2349935919046402,-1.2947744888118287,4.911574363708496,5.464122295379639,-0.31439727544784546,-0.06161445379257202,0.005666840355843306,0.21856436133384705,-0.24066467583179474,-0.027149710804224014,-0.5767319202423096,-2.4899208545684814,-0.8563482165336609,-0.20522715151309967,-0.28846973180770874,-0.1824035942554474
1749033368.8630478,5.544167518615723,-0.20208485544238286,-0.2349310964345932,-1.2943324011615296,4.911102771759033,5.4640655517578125,-0.3198920786380768,-0.06192857399582863,0.00645279698073864,0.2201417237520218,-0.2386232167482376,-0.02763427048921585,-0.5725493431091309,-2.480227470397949,-0.8696613907814026,-0.19334527850151062,-0.28701817989349365,-0.16701479256153107
1749033368.8636947,5.542901515960693,-0.20230861127886968,-0.23492249846458435,-1.2934481662562867,4.9100751876831055,5.463992595672607,-0.31899651885032654,-0.059977076947689056,0.006436379626393318,0.2183028757572174,-0.24092495441436768,-0.02767154574394226,-0.41314202547073364,-2.483569383621216,-0.8829507827758789,-0.1805664747953415,-0.25905048847198486,-0.17220748960971832
1749033368.865671,5.542901515960693,-0.20230861127886968,-0.23492249846458435,-1.2934481662562867,4.9100751876831055,5.463992595672607,-0.31899651885032654,-0.059977076947689056,0.006436379626393318,0.2183028757572174,-0.24092495441436768,-0.02767154574394226,-0.41314202547073364,-2.483569383621216,-0.8829507827758789,-0.1805664747953415,-0.25905048847198486,-0.17220748960971832
1749033368.9062915,5.541521072387695,-0.2025485795787354,-0.23490571975708008,-1.2925731402686615,4.9090752601623535,5.463857173919678,-0.31078097224235535,-0.059840500354766846,0.007104375399649143,0.21723367273807526,-0.2422863095998764,-0.027863677591085434,-0.5380688905715942,-2.460099220275879,-0.8869190812110901,-0.22358545660972595,-0.229849711060524,-0.18309496343135834
1749033368.9063396,5.540966987609863,-0.20265264928851323,-0.234909325838089,-1.292146162395813,4.908559799194336,5.463793754577637,-0.31194475293159485,-0.05837074667215347,0.006623520515859127,0.21895533800125122,-0.24200978875160217,-0.027865875512361526,-0.5088105797767639,-2.53096342086792,-0.8787862658500671,-0.23490221798419952,-0.20127245783805847,-0.16939717531204224
1749033368.9063807,5.540966987609863,-0.20265264928851323,-0.234909325838089,-1.292146162395813,4.908559799194336,5.463793754577637,-0.31194475293159485,-0.05837074667215347,0.006623520515859127,0.21895533800125122,-0.24200978875160217,-0.027865875512361526,-0.5088105797767639,-2.53096342086792,-0.8787862658500671,-0.23490221798419952,-0.20127245783805847,-0.16939717531204224
1749033368.9064198,5.539685249328613,-0.2028924983790894,-0.23485058546066284,-1.2913099986365815,4.907609462738037,5.463682174682617,-0.3118029236793518,-0.058964475989341736,0.006402534898370504,0.2199486643075943,-0.23436643183231354,-0.027924848720431328,-0.5252270698547363,-2.5079243183135986,-0.8877612948417664,-0.23954905569553375,-0.21256858110427856,-0.18883520364761353
1749033368.9064612,5.539685249328613,-0.2028924983790894,-0.23485058546066284,-1.2913099986365815,4.907609462738037,5.463682174682617,-0.3118029236793518,-0.058964475989341736,0.006402534898370504,0.2199486643075943,-0.23436643183231354,-0.027924848720431328,-0.5252270698547363,-2.5079243183135986,-0.8877612948417664,-0.23954905569553375,-0.21256858110427856,-0.18883520364761353
1749033368.9065003,5.539056777954102,-0.20298095167193608,-0.23487696051597595,-1.290895627146103,4.907115936279297,5.463587760925293,-0.3128373920917511,-0.054027825593948364,0.00608533900231123,0.214748814702034,-0.23250934481620789,-0.028364086523652077,-0.5652865767478943,-2.573988437652588,-0.878880500793457,-0.2005791962146759,-0.17960107326507568,-0.172109454870224
1749033368.9065392,5.537744045257568,-0.20325203359637456,-0.23485779762268066,-1.2900664669326325,4.906229496002197,5.463509559631348,-0.3203098177909851,-0.0566229410469532,0.0043432386592030525,0.21315765380859375,-0.2290276437997818,-0.027150770649313927,-0.38865602016448975,-2.5608344078063965,-0.8614270687103271,-0.19939449429512024,-0.214005708694458,-0.1591581255197525
1749033368.9065773,5.537744045257568,-0.20325203359637456,-0.23485779762268066,-1.2900664669326325,4.906229496002197,5.463509559631348,-0.3203098177909851,-0.0566229410469532,0.0043432386592030525,0.21315765380859375,-0.2290276437997818,-0.027150770649313927,-0.38865602016448975,-2.5608344078063965,-0.8614270687103271,-0.19939449429512024,-0.214005708694458,-0.1591581255197525
1749033368.906615,5.536439895629883,-0.20347102106127934,-0.2348337173461914,-1.289199100141861,4.905294418334961,5.463410377502441,-0.31652453541755676,-0.05694512277841568,0.004996962379664183,0.21339526772499084,-0.2308965027332306,-0.02637506276369095,-0.5297423005104065,-2.5791828632354736,-0.8632814884185791,-0.18382172286510468,-0.23843292891979218,-0.2023925930261612
1749033368.906653,5.536439895629883,-0.20347102106127934,-0.2348337173461914,-1.289199100141861,4.905294418334961,5.463410377502441,-0.31652453541755676,-0.05694512277841568,0.004996962379664183,0.21339526772499084,-0.2308965027332306,-0.02637506276369095,-0.5297423005104065,-2.5791828632354736,-0.8632814884185791,-0.18382172286510468,-0.23843292891979218,-0.2023925930261612
1749033368.9066904,5.53578519821167,-0.20359142244372563,-0.23484587669372559,-1.288765237932541,4.904808044433594,5.463350296020508,-0.3214891254901886,-0.05745850130915642,0.005243455525487661,0.21483230590820312,-0.23181156814098358,-0.027306457981467247,-0.42883750796318054,-2.550980567932129,-0.8658015727996826,-0.20078536868095398,-0.2351386845111847,-0.17385134100914001
1749033368.9067283,5.534553527832031,-0.20385010660205083,-0.23481819033622742,-1.287873314028122,4.903878211975098,5.463247299194336,-0.31657400727272034,-0.058168116956949234,0.004246819764375687,0.21646033227443695,-0.22899548709392548,-0.027260340750217438,-0.3776931166648865,-2.5589003562927246,-0.8555009961128235,-0.20496203005313873,-0.25225046277046204,-0.1856430321931839
1749033368.906765,5.534553527832031,-0.20385010660205083,-0.23481819033622742,-1.287873314028122,4.903878211975098,5.463247299194336,-0.31657400727272034,-0.058168116956949234,0.004246819764375687,0.21646033227443695,-0.22899548709392548,-0.027260340750217438,-0.3776931166648865,-2.5589003562927246,-0.8555009961128235,-0.20496203005313873,-0.25225046277046204,-0.1856430321931839
1749033368.906802,5.533314228057861,-0.20403225839648442,-0.23480625450611115,-1.2870517832091828,4.902945041656494,5.463103294372559,-0.3175225257873535,-0.05988480895757675,0.004729262087494135,0.21381506323814392,-0.23366093635559082,-0.028482725843787193,-0.4914504289627075,-2.51458477973938,-0.8351583480834961,-0.18055157363414764,-0.2554260194301605,-0.17127680778503418
1749033368.906839,5.532649040222168,-0.20418651521716313,-0.23479771614074707,-1.2865908306888123,4.902447700500488,5.463101863861084,-0.32003849744796753,-0.0597844272851944,0.00479920906946063,0.21537788212299347,-0.23803956806659698,-0.028575262054800987,-0.3706406354904175,-2.5035808086395264,-0.8456579446792603,-0.1866588294506073,-0.2165101170539856,-0.18212802708148956
1749033368.9068763,5.532649040222168,-0.20418651521716313,-0.23479771614074707,-1.2865908306888123,4.902447700500488,5.463101863861084,-0.32003849744796753,-0.0597844272851944,0.00479920906946063,0.21537788212299347,-0.23803956806659698,-0.028575262054800987,-0.3706406354904175,-2.5035808086395264,-0.8456579446792603,-0.1866588294506073,-0.2165101170539856,-0.18212802708148956
1749033368.9069138,5.53140926361084,-0.20442648351702886,-0.234773650765419,-1.285742239361145,4.901549339294434,5.4629669189453125,-0.31393006443977356,-0.06231521815061569,0.0054615032859146595,0.2130572646856308,-0.24028876423835754,-0.027313804253935814,-0.45884889364242554,-2.4405322074890137,-0.8507286310195923,-0.18128713965415955,-0.16996070742607117,-0.16187182068824768
