nimar13/UR3e_dataset_trayectorias/trayectorias_ejecutadas/quintic/trayectoria_133_result.csv
timestamp,q1,q2,q3,q4,q5,q6,qd1,qd2,qd3,qd4,qd5,qd6,tau1,tau2,tau3,tau4,tau5,tau6
1749035103.6743073,0.5481191873550415,-1.4334251147559662,2.178077999745504,-2.697779794732565,0.6957488656044006,-0.8496382872210901,0.0008568741613999009,0.00014610089419875294,0.000729435938410461,8.449131564702839e-05,-3.172002107021399e-05,-1.2571272613117518e-30,0.23380690813064575,-0.5082210898399353,-0.6315568685531616,-0.33986300230026245,0.1611914336681366,-0.11461181193590164
1749035103.6743622,0.5481311082839966,-1.4334286016276856,2.1780999342547815,-2.6977883778014125,0.6957380771636963,-0.8496454397784632,0.0007234971853904426,0.00016890859114937484,0.000669010158162564,8.293399878311902e-05,-3.660812581074424e-05,-2.2214757903562875e-31,0.2153759002685547,-0.5019362568855286,-0.6318771839141846,-0.3284638822078705,0.15325170755386353,-0.1295294165611267
1749035103.6744182,0.5481584072113037,-1.433405951862671,2.178096596394674,-2.6977883778014125,0.6957571506500244,-0.8496831099139612,0.0007431601407006383,0.0001646226446609944,0.000644674408249557,8.14330778666772e-05,-4.416800948092714e-05,-3.9255810169862915e-32,0.2558765113353729,-0.5298458933830261,-0.6436576843261719,-0.34139692783355713,0.1604674607515335,-0.1287924349308014
1749035103.674461,0.5481191873550415,-1.433374897842743,2.1780880133258265,-2.6978069744505824,0.6957571506500244,-0.849652115498678,0.0007304239552468061,0.00015975999122019857,0.0006237327470444143,7.99855260993354e-05,-4.487520345719531e-05,-6.936913221096887e-33,0.23005026578903198,-0.561539351940155,-0.6395354270935059,-0.3535328507423401,0.16361242532730103,-0.13849085569381714
1749035103.6745024,0.5481191873550415,-1.433374897842743,2.1780880133258265,-2.6978069744505824,0.6957571506500244,-0.849652115498678,0.0007304239552468061,0.00015975999122019857,0.0006237327470444143,7.99855260993354e-05,-4.487520345719531e-05,-6.936913221096887e-33,0.23005026578903198,-0.561539351940155,-0.6395354270935059,-0.3535328507423401,0.16361242532730103,-0.13849085569381714
1749035103.6745415,0.5481226444244385,-1.4333630514195939,2.1780694166766565,-2.697779794732565,0.6957606673240662,-0.8496335188495081,0.0004072513256687671,0.0001508353598183021,0.0005776586476713419,7.723953603999689e-05,-4.371831164462492e-05,-2.1661621891981847e-34,0.2138255536556244,-0.5159613490104675,-0.6315881013870239,-0.33889204263687134,0.15192283689975739,-0.11835672706365585
1749035103.6745818,0.5481311082839966,-1.433416710501053,2.178084675465719,-2.6978069744505824,0.6957499384880066,-0.8496335188495081,0.0003171759599354118,0.00014673640544060618,0.0005504536093212664,7.5936084613204e-05,-4.3029518565163016e-05,-3.8278357803767263e-35,0.220750093460083,-0.5408477187156677,-0.6342692375183105,-0.33693474531173706,0.1343228667974472,-0.11311101168394089
1749035103.674636,0.5481311082839966,-1.433416710501053,2.178084675465719,-2.6978069744505824,0.6957499384880066,-0.8496335188495081,0.0003171759599354118,0.00014673640544060618,0.0005504536093212664,7.5936084613204e-05,-4.3029518565163016e-05,-3.8278357803767263e-35,0.220750093460083,-0.5408477187156677,-0.6342692375183105,-0.33693474531173706,0.1343228667974472,-0.11311101168394089
1749035103.6746938,0.5480988025665283,-1.433390126829483,2.178066078816549,-2.69779171566152,0.6956949234008789,-0.8496487776385706,0.00035136431688442826,0.00013917293108534068,0.0004727348277810961,7.345678750425577e-05,-4.1701900045154616e-05,-1.1953030162308814e-36,0.25049370527267456,-0.5627873539924622,-0.6302217245101929,-0.3446647524833679,0.1450086534023285,-0.13178154826164246
1749035103.6747365,0.5481311082839966,-1.433405951862671,2.1780694166766565,-2.69779171566152,0.6957381367683411,-0.8496759573565882,0.00031099238549359143,0.0001356760476483032,0.00046953491983003914,7.227686728583649e-05,-4.106760025024414e-05,-2.112225828359478e-37,0.2473466992378235,-0.517437219619751,-0.6239234209060669,-0.3387816548347473,0.14745156466960907,-0.13995227217674255
1749035103.6747751,0.5481430292129517,-1.4334131342223664,2.178066078816549,-2.6977883778014125,0.6957259178161621,-0.8496640364276331,0.0002788567217066884,0.00013235019287094474,0.0004663266008719802,7.113427272997797e-05,-4.822523987968452e-05,-3.732524653727019e-38,0.2007453441619873,-0.5365604758262634,-0.6393316984176636,-0.3352353572845459,0.1512988656759262,-0.12952762842178345
1749035103.6748126,0.5481345653533936,-1.4334096175483246,2.178074661885397,-2.6978069744505824,0.6957381367683411,-0.8496797720538538,0.0002527422329876572,0.0001291838998440653,0.00043148855911567807,7.002725033089519e-05,-5.213097756495699e-05,-3.5209199268138036e-05,0.23688992857933044,-0.5345356464385986,-0.6079051494598389,-0.3298313319683075,0.1577230989933014,-0.13032305240631104
1749035103.6748502,0.5481345653533936,-1.4334096175483246,2.178074661885397,-2.6978069744505824,0.6957381367683411,-0.8496797720538538,0.0002527422329876572,0.0001291838998440653,0.00043148855911567807,7.002725033089519e-05,-5.213097756495699e-05,-3.5209199268138036e-05,0.23688992857933044,-0.5345356464385986,-0.6079051494598389,-0.3298313319683075,0.1577230989933014,-0.13032305240631104
1749035103.6748924,0.5481226444244385,-1.4333937925151368,2.178077999745504,-2.6977764568724574,0.6957258582115173,-0.8496606985675257,0.00021287593699526042,0.00012328592129051685,0.0004639658145606518,6.7913431848865e-05,-5.158478597877547e-05,-9.95196242001839e-05,0.2134731411933899,-0.5526033639907837,-0.637721061706543,-0.3414658308029175,0.13957801461219788,-0.13923045992851257
1749035103.674932,0.5481653213500977,-1.4334023159793396,2.1780932585345667,-2.6978069744505824,0.6957607269287109,-0.8496454397784632,0.00019731518113985658,0.00012053334648953751,0.0004620685940608382,6.690370355499908e-05,-5.0881113565992564e-05,-0.00013171132013667375,0.20840156078338623,-0.5574280619621277,-0.6341720819473267,-0.32290560007095337,0.1372542679309845,-0.12278717011213303
1749035103.6749694,0.5481380224227905,-1.4333641690066834,2.178096596394674,-2.69779171566152,0.6957416534423828,-0.8496416250811976,0.00018387497402727604,0.00011790153075708076,0.0005162189481779933,6.59235447528772e-05,-5.01763861393556e-05,-0.00014172005467116833,0.1990308165550232,-0.5316691398620605,-0.6341572999954224,-0.33395063877105713,0.13332056999206543,-0.13703718781471252
1749035103.6750066,0.5481499433517456,-1.433405951862671,2.178096596394674,-2.6977883778014125,0.6957690715789795,-0.8496573607074183,0.00017214930267073214,0.00011538238322827965,0.000488851685076952,6.497171125374734e-05,-5.8452165831113234e-05,-0.00014997429389040917,0.21689671277999878,-0.5358977317810059,-0.6476629972457886,-0.33213257789611816,0.13506466150283813,-0.14817070960998535
1749035103.675044,0.5481499433517456,-1.433405951862671,2.178096596394674,-2.6977883778014125,0.6957690715789795,-0.8496573607074183,0.00017214930267073214,0.00011538238322827965,0.000488851685076952,6.497171125374734e-05,-5.8452165831113234e-05,-0.00014997429389040917,0.21689671277999878,-0.5358977317810059,-0.6476629972457886,-0.33213257789611816,0.13506466150283813,-0.14817070960998535
1749035103.6750813,0.5481276512145996,-1.4333749276450654,2.1780932585345667,-2.6977950535216273,0.6957991123199463,-0.8496640364276331,0.00015267721028067172,0.00011065421858802438,0.0004828325763810426,6.314814527286217e-05,-6.0097812820458785e-05,-0.00016306374163832515,0.22858834266662598,-0.5293853878974915,-0.6441085338592529,-0.33984947204589844,0.1353464126586914,-0.1489028036594391
1749035103.6751235,0.5481653213500977,-1.433402345781662,2.1780899206744593,-2.6977950535216273,0.6957488656044006,-0.8496263662921351,0.00014450540766119957,0.00010843191557796672,0.0004980594967491925,6.22742300038226e-05,-5.9390589740360156e-05,-0.0004614685312844813,0.23529183864593506,-0.529680073261261,-0.6264181137084961,-0.33948057889938354,0.11637845635414124,-0.13025110960006714
1749035103.6753883,0.5481499433517456,-1.4334023606828232,2.178086582814352,-2.6977950535216273,0.695767879486084,-0.8496726194964808,0.0001371638645650819,0.00010629752796376124,0.00047717519919387996,6.142413622001186e-05,-5.86319001740776e-05,-0.0005619081202894449,0.22038280963897705,-0.5448648929595947,-0.635530948638916,-0.3401755690574646,0.11840347945690155,-0.14135968685150146
1749035103.677405,0.5481499433517456,-1.4334023606828232,2.178086582814352,-2.6977950535216273,0.695767879486084,-0.8496726194964808,0.0001371638645650819,0.00010629752796376124,0.00047717519919387996,6.142413622001186e-05,-5.86319001740776e-05,-0.0005619081202894449,0.22038280963897705,-0.5448648929595947,-0.635530948638916,-0.3401755690574646,0.11840347945690155,-0.14135968685150146
1749035103.7222965,0.5481191873550415,-1.4334096175483246,2.1781089941607874,-2.69779171566152,0.6957643032073975,-0.8496692816363733,0.00013053188740741462,0.00010424525680718943,0.0004445847880560905,6.059696534066461e-05,-0.00013575660705100745,-0.0005538479308597744,0.2405165433883667,-0.5646461248397827,-0.6392735242843628,-0.34340816736221313,0.13928762078285217,-0.13769513368606567
1749035103.722343,0.5481430292129517,-1.4334167552045365,2.17810565630068,-2.697779794732565,0.6957366466522217,-0.8496845404254358,0.0001190126349683851,0.0001003706784103997,0.00044476837501861155,5.900773612665944e-05,-0.0001540614612167701,-0.0005847731372341514,0.22079181671142578,-0.5512839555740356,-0.6217975616455078,-0.32991254329681396,0.13008403778076172,-0.13323011994361877
1749035103.7223833,0.5481430292129517,-1.4334167552045365,2.17810565630068,-2.697779794732565,0.6957366466522217,-0.8496845404254358,0.0001190126349683851,0.0001003706784103997,0.00044476837501861155,5.900773612665944e-05,-0.0001540614612167701,-0.0005847731372341514,0.22079181671142578,-0.5512839555740356,-0.6217975616455078,-0.32991254329681396,0.13008403778076172,-0.13323011994361877
1749035103.7224226,0.5480849742889404,-1.4334096175483246,2.178096596394674,-2.6977836094298304,0.6957607269287109,-0.8496759573565882,0.00011398988135624677,9.853861411102116e-05,0.0004485691315494478,5.8243953390046954e-05,-0.0001668458426138386,-0.0005670848768204451,0.2191435694694519,-0.5436781644821167,-0.6233590841293335,-0.3306002616882324,0.14665983617305756,-0.14662769436836243
1749035103.7225144,0.5480934977531433,-1.4333865505507966,2.17810565630068,-2.6978069744505824,0.6957416534423828,-0.8496916929828089,0.0001398037711624056,9.506958303973079e-05,0.00039920801646076143,5.677427179762162e-05,-0.00016819009033497423,-0.0006835962412878871,0.22297561168670654,-0.542777419090271,-0.6263190507888794,-0.34359753131866455,0.1254330724477768,-0.13027909398078918
1749035103.7225547,0.5481618642807007,-1.4334096175483246,2.178074661885397,-2.6977764568724574,0.6956984996795654,-0.8497102896319788,0.00013490412675309926,9.342434350401163e-05,0.00043003380415029824,5.606686318060383e-05,-0.00016341792070306838,-0.0007108612335287035,0.2312270700931549,-0.5341167449951172,-0.6387783288955688,-0.32709574699401855,0.1253359317779541,-0.13778719305992126
1749035103.722593,0.5481499433517456,-1.4333749276450654,2.178096596394674,-2.6977950535216273,0.6957294344902039,-0.8496692816363733,0.00013003466301597655,9.18356454349123e-05,0.0004062799271196127,5.537689139600843e-05,-0.00018030343926511705,-0.0006958924932405353,0.223093181848526,-0.5562630295753479,-0.648863673210144,-0.3272610902786255,0.12060213088989258,-0.10942637175321579
1749035103.722631,0.5481499433517456,-1.4333749276450654,2.178096596394674,-2.6977950535216273,0.6957294344902039,-0.8496692816363733,0.00013003466301597655,9.18356454349123e-05,0.0004062799271196127,5.537689139600843e-05,-0.00018030343926511705,-0.0006958924932405353,0.223093181848526,-0.5562630295753479,-0.648863673210144,-0.3272610902786255,0.12060213088989258,-0.10942637175321579
1749035103.7226858,0.5481157302856445,-1.4333937925151368,2.1780899206744593,-2.697810789147848,0.6956949234008789,-0.8496845404254358,0.0001255012466572225,9.029998909682035e-05,0.00037835800321772695,5.470370888360776e-05,-0.00017899191880133003,-0.0006802732823416591,0.18576693534851074,-0.5744807124137878,-0.6530300378799438,-0.32964158058166504,0.11261744797229767,-0.1265324354171753
1749035103.722727,0.5481840968132019,-1.433402345781662,2.178086582814352,-2.6977764568724574,0.6957294344902039,-0.8496878782855433,4.913673819828546e-06,5.9703328588511795e-05,0.00033186376094818115,5.3405241487780586e-05,-0.00032542875851504505,-0.0005803150124847889,0.15997952222824097,-0.612031102180481,-0.695621132850647,-0.3275337219238281,0.12708798050880432,-0.10489281266927719
1749035103.7227652,0.5481395721435547,-1.4333937925151368,2.1781089941607874,-2.6977764568724574,0.6957259178161621,-0.8496654669391077,-8.604550384916365e-05,4.752900713356212e-05,0.00027424414292909205,5.277884702081792e-05,-0.000434169516665861,-0.0005372015293687582,0.14658477902412415,-0.6473650932312012,-0.7042698860168457,-0.32651984691619873,0.09795796871185303,-0.09299083799123764
1749035103.722803,0.5481380224227905,-1.4333987695029755,2.1781204382525843,-2.6977950535216273,0.6957294344902039,-0.8497069517718714,-0.001303897937759757,-9.778057574294508e-06,0.00024716462939977646,5.216700446908362e-05,-0.000530561082996428,-0.0004998766235075891,0.12349819391965866,-0.6372944712638855,-0.7162642478942871,-0.31811708211898804,0.08036607503890991,-0.10788067430257797
1749035103.7228403,0.5481038093566895,-1.4334251892617722,2.1781089941607874,-2.6977998218932093,0.6956949234008789,-0.8496573607074183,-0.002124547027051449,-4.439660915522836e-05,0.00023354528821073472,5.156917541171424e-05,-0.001577183953486383,-0.00046738062519580126,0.13849306106567383,-0.644769012928009,-0.7331281900405884,-0.31464147567749023,0.09017900377511978,-0.0891401395201683
1749035103.7228777,0.5481191873550415,-1.4334096175483246,2.178077999745504,-2.6977764568724574,0.6956866383552551,-0.8496812025653284,-0.002714460948482156,-4.8922975111054257e-05,0.00018062524031847715,5.098489418742247e-05,-0.0027284305542707443,-0.0004388523520901799,0.10529430955648422,-0.6675980091094971,-0.7133502960205078,-0.3152722120285034,0.08480142056941986,-0.09751946479082108
1749035103.7229152,0.5481311082839966,-1.4333937925151368,2.1781089941607874,-2.697810789147848,0.6957211494445801,-0.8496502081500452,-0.002374105155467987,-6.39789504930377e-05,0.00016942236106842756,5.3940791985951364e-05,-0.0029676887206733227,-0.0004136092320550233,0.10944294184446335,-0.6730926036834717,-0.7445698976516724,-0.3143414855003357,0.05026905983686447,-0.09154131263494492
1749035103.7229521,0.5481311082839966,-1.4333937925151368,2.1781089941607874,-2.697810789147848,0.6957211494445801,-0.8496502081500452,-0.002374105155467987,-6.39789504930377e-05,0.00016942236106842756,5.3940791985951364e-05,-0.0029676887206733227,-0.0004136092320550233,0.10944294184446335,-0.6730926036834717,-0.7445698976516724,-0.3143414855003357,0.05026905983686447,-0.09154131263494492
1749035103.7229893,0.5481038093566895,-1.433402345781662,2.1781089941607874,-2.6977883778014125,0.6956937313079834,-0.8496726194964808,-0.0031588617712259293,-0.0007815460558049381,-2.628003358040587e-06,1.0367203685746063e-05,-0.00492856977507472,-0.0003550295368768275,0.04625313729047775,-0.661752462387085,-0.7500689029693604,-0.3109924793243408,0.0651502013206482,-0.10564496368169785
1749035103.7230268,0.5481261014938354,-1.4334142816117783,2.17810565630068,-2.6977879009642542,0.6956732273101807,-0.8496845404254358,-0.0055702608078718185,-0.001001053024083376,-0.00015585889923386276,1.8319938135391567e-06,-0.006069837138056755,-0.00031404057517647743,0.05655393749475479,-0.6759535074234009,-0.756044864654541,-0.32708263397216797,0.056891705840826035,-0.08554752916097641
1749035103.7230635,0.5481261014938354,-1.4334142816117783,2.17810565630068,-2.6977879009642542,0.6956732273101807,-0.8496845404254358,-0.0055702608078718185,-0.001001053024083376,-0.00015585889923386276,1.8319938135391567e-06,-0.006069837138056755,-0.00031404057517647743,0.05655393749475479,-0.6759535074234009,-0.756044864654541,-0.32708263397216797,0.056891705840826035,-0.08554752916097641
1749035103.7231078,0.5480988025665283,-1.4333987695029755,2.17810565630068,-2.697798868218893,0.6956803202629089,-0.8496502081500452,-0.006511016748845577,-0.0012224651873111725,-0.00026126173906959593,5.720693252442288e-08,-0.008883620612323284,-0.0002812625898513943,0.03871350735425949,-0.6544821262359619,-0.7784851789474487,-0.31074613332748413,0.0629899874329567,-0.08549582213163376
1749035103.723147,0.5480988025665283,-1.4333987695029755,2.17810565630068,-2.697798868218893,0.6956803202629089,-0.8496502081500452,-0.006511016748845577,-0.0012224651873111725,-0.00026126173906959593,5.720693252442288e-08,-0.008883620612323284,-0.0002812625898513943,0.03871350735425949,-0.6544821262359619,-0.7784851789474487,-0.31074613332748413,0.0629899874329567,-0.08549582213163376
1749035103.7231865,0.548086404800415,-1.4334106904319306,2.1780813376056116,-2.6978188953795375,0.6956062316894531,-0.8496726194964808,-0.007950064726173878,-0.001121163833886385,-0.0011856274213641882,1.786377934465122e-09,-0.01037085335701704,-0.0002580573200248182,0.01678798347711563,-0.7025811672210693,-0.7620333433151245,-0.3141789734363556,0.04830513149499893,-0.09210654348134995
1749035103.723374,0.548096776008606,-1.4334262174418946,2.178096596394674,-2.6977764568724574,0.6955750584602356,-0.8496535460101526,-0.008005530573427677,-0.0010871960548684,-0.0011420776136219501,3.1567168323753947e-10,-0.01080754492431879,-0.0002478931855875999,0.015534870326519012,-0.6843981742858887,-0.7955389022827148,-0.3039279580116272,0.04933731630444527,-0.09740086644887924
1749035103.7253373,0.5480626225471497,-1.433405951862671,2.1781089941607874,-2.69779171566152,0.6955547332763672,-0.8496654669391077,-0.008755754679441452,-0.0009872409282252192,-0.0010751942172646523,5.578250014681707e-11,-0.011385267600417137,-0.00023850290745031089,0.003962621092796326,-0.7238569259643555,-0.797370433807373,-0.3034053444862366,0.05184665694832802,-0.07811810821294785
1749035103.7662578,0.5480198860168457,-1.4334647518447419,2.1780932585345667,-2.6977764568724574,0.695557177066803,-0.8496845404254358,-0.00974709540605545,-0.0010912847938016057,-0.001168424147181213,9.857352781250661e-12,-0.012960568070411682,-0.00022979943605605513,-0.0006718635559082031,-0.7100925445556641,-0.8131221532821655,-0.2925756871700287,0.04099605605006218,-0.0958787128329277
1749035103.7663045,0.5480421781539917,-1.4334142816117783,2.178096596394674,-2.6977764568724574,0.6955294609069824,-0.8496421019183558,-0.010845708660781384,-0.0011070307809859514,-0.0012246578698977828,6.907139322720468e-06,-0.014991585165262222,-0.00022170871670823544,-0.0452495813369751,-0.7397191524505615,-0.811474084854126,-0.2986242175102234,0.0508955642580986,-0.07349198311567307
1749035103.7663448,0.5480093955993652,-1.4334417146495362,2.1780813376056116,-2.6977950535216273,0.6954744458198547,-0.8496845404254358,-0.0120351267978549,-0.001591328764334321,-0.0018749564187601209,1.2205640587126254e-06,-0.016173772513866425,-0.00021416864183265716,-0.030624791979789734,-0.7259311676025391,-0.8211579322814941,-0.29344576597213745,0.04244542121887207,-0.06391390413045883
1749035103.766384,0.5479444861412048,-1.4333914381316681,2.1780694166766565,-2.697779794732565,0.6954744458198547,-0.8496606985675257,-0.013813165947794914,-0.0016061242204159498,-0.0019305628957226872,2.1568648378433863e-07,-0.017308475449681282,-0.00020712471450679004,-0.0598655566573143,-0.7264329195022583,-0.8300526142120361,-0.28945183753967285,0.04369809851050377,-0.0839371308684349
1749035103.7664223,0.5479444861412048,-1.4333914381316681,2.1780694166766565,-2.697779794732565,0.6954744458198547,-0.8496606985675257,-0.013813165947794914,-0.0016061242204159498,-0.0019305628957226872,2.1568648378433863e-07,-0.017308475449681282,-0.00020712471450679004,-0.0598655566573143,-0.7264329195022583,-0.8300526142120361,-0.28945183753967285,0.04369809851050377,-0.0839371308684349
1749035103.7664607,0.5479086637496948,-1.4334453356317063,2.178084675465719,-2.6977764568724574,0.6953786015510559,-0.8496726194964808,-0.01636596955358982,-0.0015729301376268268,-0.002449967199936509,0.000713350425940007,-0.020404478535056114,-0.00019434171554166824,-0.0733397901058197,-0.7446503639221191,-0.8453482389450073,-0.29339730739593506,0.04643026366829872,-0.08562678843736649
1749035103.7664983,0.5478723049163818,-1.4334417146495362,2.1780813376056116,-2.697779794732565,0.6953544616699219,-0.8496654669391077,-0.016725096851587296,-0.0015199941117316484,-0.002769379410892725,0.0009081428870558739,-0.021637486293911934,-0.00018852432549465448,-0.07419499009847641,-0.7652305364608765,-0.8503810167312622,-0.2840101420879364,0.04516679421067238,-0.08018802851438522
1749035103.7665565,0.5478372573852539,-1.4334502530149003,2.178072754536764,-2.6977764568724574,0.6952898502349854,-0.849703613911764,-0.01738998293876648,-0.0020174486562609673,-0.004043098073452711,0.0009152307757176459,-0.02216014266014099,-0.00018304515106137842,-0.07681862264871597,-0.7537747621536255,-0.8543583750724792,-0.282163143157959,0.06913743913173676,-0.0795481875538826
1749035103.7666235,0.5478007793426514,-1.43343801916156,2.1780574957477015,-2.697764059106344,0.6952154636383057,-0.8496878782855433,-0.017362970858812332,-0.0028217327781021595,-0.00454599829390645,0.0008471878245472908,-0.02056591585278511,-0.00017787583055905998,-0.09154143929481506,-0.7716536521911621,-0.846612274646759,-0.2826077938079834,0.075528085231781,-0.06905900686979294
1749035103.7666917,0.5478007793426514,-1.43343801916156,2.1780574957477015,-2.697764059106344,0.6952154636383057,-0.8496878782855433,-0.017362970858812332,-0.0028217327781021595,-0.00454599829390645,0.0008471878245472908,-0.02056591585278511,-0.00017787583055905998,-0.09154143929481506,-0.7716536521911621,-0.846612274646759,-0.2826077938079834,0.075528085231781,-0.06905900686979294
1749035103.7667623,0.5477943420410156,-1.4334849578193207,2.178042236958639,-2.6977559528746546,0.6951472759246826,-0.8496812025653284,-0.01699712686240673,-0.0037497614976018667,-0.0049337963573634624,0.0009067546925507486,-0.019717562943696976,-0.0001683663431322202,-0.10911905765533447,-0.7954039573669434,-0.8735958337783813,-0.2837480306625366,0.061381109058856964,-0.07571136206388474
1749035103.7668319,0.5477202534675598,-1.4334344428828736,2.178048912678854,-2.697752615014547,0.6950678825378418,-0.8496692816363733,-0.01718631200492382,-0.003755653742700815,-0.005845623556524515,0.001028741244226694,-0.01871255785226822,-0.0001639827823964879,-0.13436917960643768,-0.7853045463562012,-0.8614417910575867,-0.2946651577949524,0.09080249071121216,-0.05486569553613663
1749035103.7669005,0.5477273464202881,-1.4335042101195832,2.1779912153827112,-2.6977368793883265,0.6950594782829285,-0.8496726194964808,-0.018034160137176514,-0.003723365720361471,-0.006960059516131878,0.0017299266764894128,-0.018262047320604324,-0.0001598221278982237,-0.14482547342777252,-0.8195432424545288,-0.8558579087257385,-0.29236912727355957,0.08034664392471313,-0.060270220041275024
1749035103.7669687,0.5476350784301758,-1.4334621739438553,2.1780059973346155,-2.697740217248434,0.695054829120636,-0.8496845404254358,-0.01886601932346821,-0.004224870353937149,-0.00652927765622735,0.0018912317464128137,-0.01795489527285099,-0.000155867135617882,-0.1517515778541565,-0.7967444062232971,-0.87882000207901,-0.2963218092918396,0.06572584062814713,-0.08487331122159958
1749035103.767037,0.5476350784301758,-1.4334621739438553,2.1780059973346155,-2.697740217248434,0.695054829120636,-0.8496845404254358,-0.01886601932346821,-0.004224870353937149,-0.00652927765622735,0.0018912317464128137,-0.01795489527285099,-0.000155867135617882,-0.1517515778541565,-0.7967444062232971,-0.87882000207901,-0.2963218092918396,0.06572584062814713,-0.08487331122159958
1749035103.7671063,0.5476007461547852,-1.433512733583786,2.1779821554767054,-2.6977631054320277,0.6950069069862366,-0.8496573607074183,-0.019946778193116188,-0.005211942363530397,-0.006259744055569172,0.0020574526861310005,-0.01626286469399929,-0.00014851703599561006,-0.16366085410118103,-0.7989709377288818,-0.8883907794952393,-0.28562361001968384,0.0541965588927269,-0.08317603915929794
1749035103.7671776,0.547561526298523,-1.433521033530571,2.177985493336813,-2.6977559528746546,0.6949276924133301,-0.8496692816363733,-0.02089027315378189,-0.00504127936437726,-0.007385763339698315,0.001642283983528614,-0.016958201304078102,-0.00014509631728287786,-0.18036070466041565,-0.8151412010192871,-0.8948551416397095,-0.28798288106918335,0.05095469951629639,-0.09293972700834274
1749035103.7672453,0.547561526298523,-1.433521033530571,2.177985493336813,-2.6977559528746546,0.6949276924133301,-0.8496692816363733,-0.02089027315378189,-0.00504127936437726,-0.007385763339698315,0.001642283983528614,-0.016958201304078102,-0.00014509631728287786,-0.18036070466041565,-0.8151412010192871,-0.8948551416397095,-0.28798288106918335,0.05095469951629639,-0.09293972700834274
1749035103.7673116,0.5474657416343689,-1.433521033530571,2.1779616514789026,-2.6977440319456996,0.6948869824409485,-0.8496535460101526,-0.02275395579636097,-0.005496133118867874,-0.007798781618475914,0.0011382948141545057,-0.016971198841929436,-0.00013870593102183193,-0.20366308093070984,-0.8362746238708496,-0.898507833480835,-0.2640036344528198,0.05745864659547806,-0.07806184142827988
1749035103.7673755,0.5474056005477905,-1.433537797336914,2.1779192129718226,-2.6977597675719203,0.6948425769805908,-0.8496692816363733,-0.02374764159321785,-0.005954121705144644,-0.007614182773977518,0.0010628318414092064,-0.018019096925854683,-0.0001357174915028736,-0.2026437371969223,-0.8119996190071106,-0.9050973057746887,-0.2675105929374695,0.03091854602098465,-0.09003650397062302
1749035103.7675605,0.5474056005477905,-1.433537797336914,2.1779192129718226,-2.6977597675719203,0.6948425769805908,-0.8496692816363733,-0.02374764159321785,-0.005954121705144644,-0.007614182773977518,0.0010628318414092064,-0.018019096925854683,-0.0001357174915028736,-0.2026437371969223,-0.8119996190071106,-0.9050973057746887,-0.2675105929374695,0.03091854602098465,-0.09003650397062302
1749035103.7693863,0.5474159717559814,-1.4335642916015168,2.177894894276754,-2.697740217248434,0.6948065757751465,-0.8496535460101526,-0.025116674602031708,-0.0065122926607728004,-0.00905141606926918,0.0010319966822862625,-0.01917419396340847,-0.00013285498425830156,-0.2045515775680542,-0.8277748823165894,-0.9050946831703186,-0.2627772092819214,0.03750181198120117,-0.08249446004629135
1749035103.8102615,0.5473712682723999,-1.433546097283699,2.177882973347799,-2.6977440319456996,0.6947791576385498,-0.8496573607074183,-0.02729119174182415,-0.00704448577016592,-0.009534544311463833,0.0008524110307916999,-0.01954820193350315,-0.00013011098781134933,-0.23148438334465027,-0.8096303343772888,-0.8989214897155762,-0.26256227493286133,0.0373242124915123,-0.09815438836812973
1749035103.810308,0.5472105145454407,-1.4336274576238175,2.177847210560934,-2.6977249584593714,0.6947143077850342,-0.8496878782855433,-0.029184147715568542,-0.007009503431618214,-0.010297039523720741,0.0008996475953608751,-0.022313296794891357,-0.000124949321616441,-0.24286231398582458,-0.8593036532402039,-0.9261588454246521,-0.2583787441253662,0.019231941550970078,-0.08924480527639389
1749035103.810349,0.5471907258033752,-1.4336321216872712,2.1778386274920862,-2.6977440319456996,0.6946711540222168,-0.8496606985675257,-0.030579514801502228,-0.008140843361616135,-0.01103946752846241,0.0015843730652704835,-0.021774882450699806,-0.0001225191808771342,-0.25517335534095764,-0.8531527519226074,-0.9175570607185364,-0.2637505531311035,0.01851203665137291,-0.08472388237714767
1749035103.8103878,0.5471907258033752,-1.4336321216872712,2.1778386274920862,-2.6977440319456996,0.6946711540222168,-0.8496606985675257,-0.030579514801502228,-0.008140843361616135,-0.01103946752846241,0.0015843730652704835,-0.021774882450699806,-0.0001225191808771342,-0.25517335534095764,-0.8531527519226074,-0.9175570607185364,-0.2637505531311035,0.01851203665137291,-0.08472388237714767
1749035103.8104267,0.5470619797706604,-1.4336334031871338,2.177833382283346,-2.697716852227682,0.6945512294769287,-0.8496502081500452,-0.03391905874013901,-0.007715865969657898,-0.011925140395760536,0.0022477470338344574,-0.026517009362578392,-0.00011793168960139155,-0.26121073961257935,-0.8464469909667969,-0.9204241037368774,-0.24795062839984894,0.010669048875570297,-0.09218847006559372
1749035103.8104699,0.5470142364501953,-1.4336644870093842,2.177775208150045,-2.6977392635741175,0.6944652199745178,-0.8496692816363733,-0.035325001925230026,-0.007947507314383984,-0.01177750714123249,0.0023806411772966385,-0.029570862650871277,-0.00011576445831451565,-0.27965107560157776,-0.8651781678199768,-0.9223517775535583,-0.24148063361644745,-0.010949872434139252,-0.07796623557806015
1749035103.8105092,0.5470142364501953,-1.4336644870093842,2.177775208150045,-2.6977392635741175,0.6944652199745178,-0.8496692816363733,-0.035325001925230026,-0.007947507314383984,-0.01177750714123249,0.0023806411772966385,-0.029570862650871277,-0.00011576445831451565,-0.27965107560157776,-0.8651781678199768,-0.9223517775535583,-0.24148063361644745,-0.010949872434139252,-0.07796623557806015
1749035103.8105474,0.5467962622642517,-1.4336380821517487,2.1777427832232874,-2.697716852227682,0.6943250298500061,-0.8496878782855433,-0.03757719323039055,-0.009482622146606445,-0.012331764213740826,0.0022303371224552393,-0.034253161400556564,-0.00011166050535393879,-0.3164023756980896,-0.8590219616889954,-0.9346476793289185,-0.24866728484630585,-0.018197383731603622,-0.0928906723856926
1749035103.810585,0.5467962622642517,-1.4336380821517487,2.1777427832232874,-2.697716852227682,0.6943250298500061,-0.8496878782855433,-0.03757719323039055,-0.009482622146606445,-0.012331764213740826,0.0022303371224552393,-0.034253161400556564,-0.00011166050535393879,-0.3164023756980896,-0.8590219616889954,-0.9346476793289185,-0.24866728484630585,-0.018197383731603622,-0.0928906723856926
1749035103.8106217,0.5466834306716919,-1.4336859297803421,2.177704636250631,-2.697723527947897,0.6942470073699951,-0.849703613911764,-0.04276647791266441,-0.009569921530783176,-0.013123896904289722,0.0035290077794343233,-0.038830339908599854,-0.00010783763718791306,-0.3142189383506775,-0.8789257407188416,-0.9461094737052917,-0.2449234575033188,-0.012482769787311554,-0.0906737670302391
1749035103.8106637,0.5466044545173645,-1.4337137055448075,2.1776402632342737,-2.6976963482298792,0.6941452622413635,-0.8496382872210901,-0.04343285411596298,-0.010130073875188828,-0.012846502475440502,0.00431757140904665,-0.04180406406521797,-0.00010602272959658876,-0.3244282007217407,-0.8906957507133484,-0.9498273730278015,-0.2590090036392212,-0.013804197311401367,-0.08109588176012039
1749035103.8107104,0.5466044545173645,-1.4337137055448075,2.1776402632342737,-2.6976963482298792,0.6941452622413635,-0.8496382872210901,-0.04343285411596298,-0.010130073875188828,-0.012846502475440502,0.00431757140904665,-0.04180406406521797,-0.00010602272959658876,-0.3244282007217407,-0.8906957507133484,-0.9498273730278015,-0.2590090036392212,-0.013804197311401367,-0.08109588176012039
1749035103.8107488,0.5464475154876709,-1.433768705730774,2.177607838307516,-2.697684427300924,0.693960428237915,-0.8496845404254358,-0.048174791038036346,-0.01153904851526022,-0.0122383376583457,0.0031484407372772694,-0.04513855278491974,-0.00010257018584525213,-0.34037503600120544,-0.8983275294303894,-0.9508586525917053,-0.23910284042358398,-0.018862426280975342,-0.11533864587545395
1749035103.810786,0.5464475154876709,-1.433768705730774,2.177607838307516,-2.697684427300924,0.693960428237915,-0.8496845404254358,-0.048174791038036346,-0.01153904851526022,-0.0122383376583457,0.0031484407372772694,-0.04513855278491974,-0.00010257018584525213,-0.34037503600120544,-0.8983275294303894,-0.9508586525917053,-0.23910284042358398,-0.018862426280975342,-0.11533864587545395
1749035103.810824,0.5461825132369995,-1.4338284891894837,2.1775749365436,-2.6976996860899867,0.6937113404273987,-0.8496950308429163,-0.05387185886502266,-0.011419013142585754,-0.012393243610858917,0.0025488741230219603,-0.05063314735889435,-9.933542605722323e-05,-0.291182279586792,-0.9133508205413818,-0.9619784355163574,-0.22611147165298462,-0.015643492341041565,-0.09742147475481033
1749035103.8108606,0.5461055040359497,-1.4338284742883225,2.17753249803652,-2.6976381740965785,0.6936526894569397,-0.8496654669391077,-0.05302184075117111,-0.012045527808368206,-0.01292659342288971,0.0030972552485764027,-0.052477430552244186,-9.779335232451558e-05,-0.37017160654067993,-0.9189010262489319,-0.9799730777740479,-0.23636797070503235,-0.01747816801071167,-0.10352333635091782
1749035103.8108976,0.5461055040359497,-1.4338284742883225,2.17753249803652,-2.6976381740965785,0.6936526894569397,-0.8496654669391077,-0.05302184075117111,-0.012045527808368206,-0.01292659342288971,0.0030972552485764027,-0.052477430552244186,-9.779335232451558e-05,-0.37017160654067993,-0.9189010262489319,-0.9799730777740479,-0.23636797070503235,-0.01747816801071167,-0.10352333635091782
1749035103.810935,0.5458899736404419,-1.4338727754405518,2.1775181929217737,-2.6976639233031214,0.6934463977813721,-0.8496759573565882,-0.05786338821053505,-0.012609808705747128,-0.013475003652274609,0.004328293260186911,-0.05475190281867981,-9.484862675890326e-05,-0.33420559763908386,-0.916426956653595,-0.9927188158035278,-0.23115605115890503,-0.006748601794242859,-0.11306288093328476
1749035103.81099,0.5457737445831299,-1.433896855717041,2.1774638334857386,-2.6976520023741664,0.6933565139770508,-0.8496659437762659,-0.059108588844537735,-0.013311665505170822,-0.013589907437562943,0.004591944627463818,-0.0580560676753521,-9.344181307824329e-05,-0.35677310824394226,-0.9362100958824158,-0.9959460496902466,-0.2336103320121765,-0.015522301197052002,-0.11546730250120163
1749035103.8110535,0.5456694960594177,-1.4339359265616913,2.1774585882769983,-2.697636743585104,0.6932031512260437,-0.8496797720538538,-0.05975498631596565,-0.012877735309302807,-0.013307120651006699,0.004596072714775801,-0.06104990467429161,-9.207606490235776e-05,-0.37335070967674255,-0.9271831512451172,-1.007830262184143,-0.23601114749908447,-0.011238843202590942,-0.12359514087438583
1749035103.8114545,0.545525312423706,-1.4339482349208375,2.1774161497699183,-2.6976334057249964,0.6930867433547974,-0.8496416250811976,-0.06127743050456047,-0.013648735359311104,-0.013622567988932133,0.004065425600856543,-0.06365497410297394,-0.00010014184954343364,-0.3487275242805481,-0.9127876162528992,-1.0108163356781006,-0.23136085271835327,0.005744621157646179,-0.13475123047828674
1749035103.813402,0.545525312423706,-1.4339482349208375,2.1774161497699183,-2.6976334057249964,0.6930867433547974,-0.8496416250811976,-0.06127743050456047,-0.013648735359311104,-0.013622567988932133,0.004065425600856543,-0.06365497410297394,-0.00010014184954343364,-0.3487275242805481,-0.9127876162528992,-1.0108163356781006,-0.23136085271835327,0.005744621157646179,-0.13475123047828674
1749035103.8582802,0.5452784895896912,-1.4339888107827683,2.1773865858661097,-2.6976095638670863,0.6927992701530457,-0.8496659437762659,-0.06389296054840088,-0.012733028270304203,-0.014698557555675507,0.0032001372892409563,-0.06809843331575394,-0.00010069794370792806,-0.3622071146965027,-0.9329462051391602,-1.0164635181427002,-0.22510740160942078,0.021141760051250458,-0.14663347601890564
1749035103.8583274,0.5451627969741821,-1.4340318453362961,2.177335564290182,-2.6976167164244593,0.6926674246788025,-0.8496845404254358,-0.06435386836528778,-0.012387371622025967,-0.01499170996248722,0.003449105890467763,-0.06640687584877014,-8.833701576804742e-05,-0.4174024760723114,-0.9164586067199707,-1.0313661098480225,-0.22506895661354065,0.018524132668972015,-0.1235947236418724
1749035103.8583698,0.5450053811073303,-1.4340873223594208,2.1773083845721644,-2.6975847683348597,0.6925427913665771,-0.8496878782855433,-0.06631426513195038,-0.012153626419603825,-0.015936439856886864,0.003987717907875776,-0.06575673818588257,-7.034430018393323e-05,-0.3955102264881134,-0.9468492865562439,-1.0204405784606934,-0.2182021141052246,0.0123821459710598,-0.13094022870063782
1749035103.8584092,0.5448460578918457,-1.4340883058360596,2.1772754828082483,-2.6975885830321253,0.6924227476119995,-0.8496382872210901,-0.06788858026266098,-0.012017364613711834,-0.016529319807887077,0.0050423541106283665,-0.06771212071180344,-7.71553604863584e-05,-0.3941406011581421,-0.9434964060783386,-1.020784854888916,-0.23549267649650574,0.006336692720651627,-0.14007151126861572
1749035103.8584478,0.5448460578918457,-1.4340883058360596,2.1772754828082483,-2.6975885830321253,0.6924227476119995,-0.8496382872210901,-0.06788858026266098,-0.012017364613711834,-0.016529319807887077,0.0050423541106283665,-0.06771212071180344,-7.71553604863584e-05,-0.3941406011581421,-0.9434964060783386,-1.020784854888916,-0.23549267649650574,0.006336692720651627,-0.14007151126861572
1749035103.8584864,0.5446507334709167,-1.434104563002922,2.1772154013263147,-2.6975771389403285,0.6921089291572571,-0.8497160116778772,-0.07067970931529999,-0.010770010761916637,-0.01714603416621685,0.004610142670571804,-0.0691821500658989,-0.0004265347379259765,-0.3933500349521637,-0.9496329426765442,-1.0207042694091797,-0.2353915274143219,0.026446916162967682,-0.14080873131752014
1749035103.8585246,0.544461190700531,-1.4341551673463364,2.177176300679342,-2.697573801080221,0.6920225024223328,-0.8497312704669397,-0.07219459116458893,-0.012770046480000019,-0.016713323071599007,0.0036760533694177866,-0.06958913058042526,-0.0011053269263356924,-0.3914252519607544,-0.9614723324775696,-1.0397188663482666,-0.213154137134552,0.020108118653297424,-0.12501797080039978
1749035103.8585625,0.5443260669708252,-1.43413598955188,2.1771438757525843,-2.6975957355894984,0.6918597221374512,-0.8496964613543909,-0.0723491907119751,-0.012050357647240162,-0.01731422357261181,0.0029520285315811634,-0.06903954595327377,-0.002177756279706955,-0.40886417031288147,-0.9533318281173706,-1.0487343072891235,-0.21224121749401093,-0.005824416875839233,-0.12441199272871017
1749035103.8586,0.5441668033599854,-1.434210405950882,2.177107636128561,-2.6975609264769496,0.6917349696159363,-0.8496997992144983,-0.07537917792797089,-0.011599985882639885,-0.017334282398223877,0.0028029093518853188,-0.0690167248249054,-0.0026073441840708256,-0.3949316442012787,-0.9801335334777832,-1.0501301288604736,-0.19489094614982605,0.0030789971351623535,-0.1317482590675354
1749035103.858637,0.5440217852592468,-1.4342077535441895,2.1770718733416956,-2.6975561581053675,0.6915614604949951,-0.8496812025653284,-0.0742577388882637,-0.011749833822250366,-0.017771655693650246,0.0033460697159171104,-0.06901508569717407,-0.002733564702793956,-0.4310779869556427,-0.9603202939033508,-1.0432254076004028,-0.20552736520767212,-0.0027485936880111694,-0.1438792645931244
1749035103.8586743,0.5438677072525024,-1.4342391204885026,2.1770475546466272,-2.6975375614561976,0.6914605498313904,-0.8496931234942835,-0.07636609673500061,-0.011905304156243801,-0.018648458644747734,0.0047076065093278885,-0.06925368309020996,-0.0030218579340726137,-0.43199241161346436,-1.009881854057312,-1.0465251207351685,-0.20459473133087158,-0.01579703390598297,-0.13999560475349426
1749035103.858711,0.5437032580375671,-1.4342592817595978,2.1770084539996546,-2.697540899316305,0.6912664771080017,-0.8497207800494593,-0.07819416373968124,-0.011961566284298897,-0.018562043085694313,0.005447062663733959,-0.07028269022703171,-0.0026497861836105585,-0.39496049284935,-0.9868057370185852,-1.0585403442382812,-0.21767859160900116,-0.03902250528335571,-0.13975384831428528
1749035103.858748,0.5435627698898315,-1.4342751514962693,2.1769641081439417,-2.6974946461119593,0.6911540031433105,-0.8497241179095667,-0.07866356521844864,-0.01250501349568367,-0.018910199403762817,0.005398968700319529,-0.07164466381072998,-0.00213842885568738,-0.4386436641216278,-0.9984825849533081,-1.0495314598083496,-0.22231963276863098,-0.036977484822273254,-0.1415480524301529
1749035103.858785,0.5434191823005676,-1.4343228352120896,2.1769588629352015,-2.6975017986693324,0.6910566687583923,-0.8497088591205042,-0.08103311061859131,-0.012109695002436638,-0.019629010930657387,0.0051371194422245026,-0.07285343110561371,-0.0017280732281506062,-0.42442643642425537,-1.012807011604309,-1.056030035018921,-0.21148571372032166,-0.042563438415527344,-0.1515028178691864
1749035103.8588262,0.5432518720626831,-1.4343155187419434,2.176885430012838,-2.6974741421141566,0.6908819675445557,-0.8497241179095667,-0.08227331936359406,-0.01266501471400261,-0.019828878343105316,0.004624262452125549,-0.07451675832271576,-0.001458577113226056,-0.408324271440506,-1.0035791397094727,-1.0671056509017944,-0.2196453958749771,-0.06154099106788635,-0.15186941623687744
1749035103.8588643,0.5430532097816467,-1.4343238484910508,2.1768491903888147,-2.697489400903219,0.6907414793968201,-0.8497360388385218,-0.08245598524808884,-0.012829573825001717,-0.01987510547041893,0.004358299076557159,-0.07549243420362473,-0.0013653867645189166,-0.4370405077934265,-0.9935514330863953,-1.0796750783920288,-0.21569865942001343,-0.06196550279855728,-0.14621767401695251
1749035103.8589015,0.5430532097816467,-1.4343238484910508,2.1768491903888147,-2.697489400903219,0.6907414793968201,-0.8497360388385218,-0.08245598524808884,-0.012829573825001717,-0.01987510547041893,0.004358299076557159,-0.07549243420362473,-0.0013653867645189166,-0.4370405077934265,-0.9935514330863953,-1.0796750783920288,-0.21569865942001343,-0.06196550279855728,-0.14621767401695251
1749035103.858939,0.5429162383079529,-1.4343789976886292,2.1768205801593226,-2.697489400903219,0.6905905604362488,-0.8497241179095667,-0.08334209024906158,-0.013726628385484219,-0.020726585760712624,0.004464784637093544,-0.07871945947408676,-0.0021743339020758867,-0.44735193252563477,-1.0248852968215942,-1.0800193548202515,-0.20847146213054657,-0.040178872644901276,-0.16225656867027283
1749035103.8589754,0.5425277352333069,-1.4344041806510468,2.176729981099264,-2.697441717187399,0.690278947353363,-0.8497398535357874,-0.08683664351701736,-0.014142829924821854,-0.02173491194844246,0.005442294757813215,-0.08394820988178253,-0.0037961890920996666,-0.4532902240753174,-1.034056544303894,-1.083579659461975,-0.21283522248268127,-0.029710207134485245,-0.14095962047576904
1749035103.8590121,0.5424359440803528,-1.4344665569118042,2.1766698996173304,-2.6974503002562464,0.690102756023407,-0.8497222105609339,-0.08711881935596466,-0.01485365442931652,-0.02251819521188736,0.005458375439047813,-0.08391959965229034,-0.004213207401335239,-0.41399046778678894,-0.9930495619773865,-1.0752357244491577,-0.2001863270998001,-0.04939532279968262,-0.156683087348938
1749035103.8590488,0.5421528220176697,-1.4344672870687027,2.176652733479635,-2.697441717187399,0.6899039149284363,-0.8497875372516077,-0.08981483429670334,-0.015204486437141895,-0.023646559566259384,0.00479231309145689,-0.08729559183120728,-0.004198654554784298,-0.4803463816642761,-1.0102858543395996,-1.0892252922058105,-0.20482201874256134,-0.060436055064201355,-0.15641236305236816
1749035103.8590863,0.5420498251914978,-1.4345224660686036,2.1766164938556116,-2.6974336109557093,0.6897312998771667,-0.849741284047262,-0.0966067910194397,-0.015228526666760445,-0.024782340973615646,0.0037613597232848406,-0.09238295257091522,-0.004294652957469225,-0.34174853563308716,-1.0042634010314941,-1.0741336345672607,-0.19518156349658966,-0.038554638624191284,-0.14684680104255676
1749035103.8594139,0.5420498251914978,-1.4345224660686036,2.1766164938556116,-2.6974336109557093,0.6897312998771667,-0.849741284047262,-0.0966067910194397,-0.015228526666760445,-0.024782340973615646,0.0037613597232848406,-0.09238295257091522,-0.004294652957469225,-0.34174853563308716,-1.0042634010314941,-1.0741336345672607,-0.19518156349658966,-0.038554638624191284,-0.14684680104255676
1749035103.8613775,0.5416552424430847,-1.4345944833806534,2.176493469868795,-2.697430273095602,0.6893140077590942,-0.8497684637652796,-0.09490539878606796,-0.015950733795762062,-0.023866573348641396,0.0052744853310287,-0.09639662504196167,-0.0027370862662792206,-0.39813098311424255,-1.0184260606765747,-1.084149956703186,-0.19613081216812134,-0.007823266088962555,-0.14763766527175903
1749035103.9022732,0.5414333939552307,-1.4346341353705903,2.1764305273639124,-2.69742550472402,0.6891916394233704,-0.8497613112079065,-0.09541405737400055,-0.016743507236242294,-0.024236174300312996,0.006101415958255529,-0.0962321013212204,-0.0022309524938464165,-0.4110167622566223,-1.0061839818954468,-1.0728037357330322,-0.211516872048378,-0.0011606141924858093,-0.16794580221176147
1749035103.9023209,0.5414333939552307,-1.4346341353705903,2.1764305273639124,-2.69742550472402,0.6891916394233704,-0.8497613112079065,-0.09541405737400055,-0.016743507236242294,-0.024236174300312996,0.006101415958255529,-0.0962321013212204,-0.0022309524938464165,-0.4110167622566223,-1.0061839818954468,-1.0728037357330322,-0.211516872048378,-0.0011606141924858093,-0.16794580221176147
1749035103.9023616,0.5410549640655518,-1.4346663069776078,2.1763342062579554,-2.6973945103087367,0.6887412071228027,-0.8497770468341272,-0.09916902333498001,-0.017118342220783234,-0.025854606181383133,0.006255563348531723,-0.09791514277458191,-0.0026714589912444353,-0.4096410274505615,-1.0282347202301025,-1.0659372806549072,-0.19377849996089935,0.008032389916479588,-0.15062373876571655
1749035103.9024007,0.5408394932746887,-1.4346984189799805,2.1762965361224573,-2.697385450402731,0.6885027289390564,-0.8497837225543421,-0.10144650936126709,-0.017114929854869843,-0.02670235186815262,0.005319717340171337,-0.09877549856901169,-0.003612169763073325,-0.4021837115287781,-1.024266004562378,-1.0770275592803955,-0.20083113014698029,0.004951097071170807,-0.14110788702964783
1749035103.9024389,0.5406249761581421,-1.4347729694894333,2.176248852406637,-2.6973396740355433,0.6883335709571838,-0.8498356978045862,-0.10243719071149826,-0.01763421855866909,-0.027583498507738113,0.0053334166295826435,-0.09903435409069061,-0.004682682920247316,-0.4231385886669159,-1.0257371664047241,-1.0613499879837036,-0.17195628583431244,0.011308472603559494,-0.12769918143749237
1749035103.9024777,0.5404304265975952,-1.434789539580681,2.176178757344381,-2.697350164453024,0.6880833506584167,-0.8498390356646937,-0.10386262089014053,-0.018191320821642876,-0.02724912390112877,0.005935353692620993,-0.09973956644535065,-0.00518241710960865,-0.4169844686985016,-1.0241131782531738,-1.0780857801437378,-0.1976098269224167,0.0089820995926857,-0.11765530705451965
1749035103.9025185,0.5404304265975952,-1.434789539580681,2.176178757344381,-2.697350164453024,0.6880833506584167,-0.8498390356646937,-0.10386262089014053,-0.018191320821642876,-0.02724912390112877,0.005935353692620993,-0.09973956644535065,-0.00518241710960865,-0.4169844686985016,-1.0241131782531738,-1.0780857801437378,-0.1976098269224167,0.0089820995926857,-0.11765530705451965
1749035103.9025562,0.5400189757347107,-1.4348613929799576,2.176077667866842,-2.6973067722716273,0.687691330909729,-0.8498318831073206,-0.1062036082148552,-0.018117671832442284,-0.026124872267246246,0.006588572170585394,-0.09969494491815567,-0.00454897852614522,-0.4227501153945923,-1.0480848550796509,-1.1009526252746582,-0.1981925517320633,0.014028828591108322,-0.14792713522911072
1749035103.9025936,0.5397630333900452,-1.4348937732032319,2.1760414282428187,-2.6973101101317347,0.6875259280204773,-0.8498709837542933,-0.10693962126970291,-0.018703604117035866,-0.026994898915290833,0.005680449306964874,-0.09966204315423965,-0.0034207692369818687,-0.45675128698349,-1.0346646308898926,-1.0966675281524658,-0.1880190223455429,-0.01510784775018692,-0.14575132727622986
1749035103.9026308,0.5395548343658447,-1.4349330228618165,2.1759474913226526,-2.6973139248290003,0.6872922778129578,-0.8498523871051233,-0.10964347422122955,-0.018264656886458397,-0.02750237099826336,0.005228150170296431,-0.09972824156284332,-0.0026148322504013777,-0.3857133984565735,-1.0486856698989868,-1.0972862243652344,-0.18473432958126068,-0.030713222920894623,-0.13979953527450562
1749035103.9026716,0.5393738150596619,-1.4349380296519776,2.1759184042560022,-2.6973020039000453,0.6871389746665955,-0.8498747984515589,-0.11176762729883194,-0.018725067377090454,-0.027310527861118317,0.005810673348605633,-0.10097168385982513,-0.0021749103907495737,-0.4416748285293579,-1.0562149286270142,-1.128659725189209,-0.17995233833789825,-0.038769930601119995,-0.16066497564315796
1749035103.9027097,0.5391315817832947,-1.4350123268416901,2.175873581563131,-2.697271009484762,0.686895489692688,-0.8498523871051233,-0.11494904011487961,-0.01997571624815464,-0.02758536860346794,0.006620807107537985,-0.10219760239124298,-0.0019089027773588896,-0.4184340834617615,-1.0418527126312256,-1.1218290328979492,-0.14951473474502563,-0.05117417126893997,-0.14709116518497467
1749035103.9027472,0.5389232039451599,-1.4350564044765015,2.1758292357074183,-2.69726624111318,0.6866812109947205,-0.8498676458941858,-0.1160145029425621,-0.02003253996372223,-0.028942979872226715,0.007731199264526367,-0.10786698758602142,-0.0024713831953704357,-0.42808204889297485,-1.058969259262085,-1.1040780544281006,-0.17198213934898376,-0.028965085744857788,-0.1755533516407013
1749035103.9027848,0.5386893153190613,-1.4350732874921341,2.1757476965533655,-2.6972509823241175,0.6864966750144958,-0.8498490492450159,-0.11777330935001373,-0.020774895325303078,-0.028658118098974228,0.007326113525778055,-0.10864215344190598,-0.0034604137763381004,-0.44065797328948975,-1.0416704416275024,-1.1202200651168823,-0.1854753941297531,-0.043470799922943115,-0.14401556551456451
1749035103.9028223,0.5386893153190613,-1.4350732874921341,2.1757476965533655,-2.6972509823241175,0.6864966750144958,-0.8498490492450159,-0.11777330935001373,-0.020774895325303078,-0.028658118098974228,0.007326113525778055,-0.10864215344190598,-0.0034604137763381004,-0.44065797328948975,-1.0416704416275024,-1.1202200651168823,-0.1854753941297531,-0.043470799922943115,-0.14401556551456451
1749035103.902859,0.538192868232727,-1.4351414006999512,2.175654713307516,-2.6972271404662074,0.686065137386322,-0.8498833815204065,-0.12162711471319199,-0.020967498421669006,-0.028429390862584114,0.006405184045433998,-0.11498028039932251,-0.004943884909152985,-0.4325093924999237,-1.0511059761047363,-1.155305027961731,-0.17054679989814758,-0.05167359113693237,-0.14585258066654205
1749035103.9028962,0.5379743576049805,-1.4351806801608582,2.1755521933185022,-2.6972152195372523,0.6858024001121521,-0.8499005476581019,-0.12199133634567261,-0.020885782316327095,-0.03047211281955242,0.006604908499866724,-0.12183605134487152,-0.0049249860458076,-0.4801076352596283,-1.056571364402771,-1.1461154222488403,-0.19434592127799988,-0.008890774101018906,-0.11993807554244995
1749035103.9029324,0.5379743576049805,-1.4351806801608582,2.1755521933185022,-2.6972152195372523,0.6858024001121521,-0.8499005476581019,-0.12199133634567261,-0.020885782316327095,-0.03047211281955242,0.006604908499866724,-0.12183605134487152,-0.0049249860458076,-0.4801076352596283,-1.056571364402771,-1.1461154222488403,-0.19434592127799988,-0.008890774101018906,-0.11993807554244995
1749035103.902969,0.5374845266342163,-1.435299427514412,2.1754515806781214,-2.6971947155394496,0.6853424310684204,-0.8498881498919886,-0.12534888088703156,-0.0231472197920084,-0.03244096040725708,0.006789824925363064,-0.12395552545785904,-0.0031534351874142885,-0.48612087965011597,-1.0363574028015137,-1.1189911365509033,-0.1689569354057312,-0.015251107513904572,-0.15793348848819733
1749035103.9030054,0.537197470664978,-1.435378299360611,2.1753791014300745,-2.6971827946104945,0.6850982308387756,-0.8499158064471644,-0.12635360658168793,-0.023593874648213387,-0.03268881514668465,0.006784317549318075,-0.12686815857887268,-0.0024070353247225285,-0.45133134722709656,-1.046500563621521,-1.1196671724319458,-0.17549893260002136,-0.00941285490989685,-0.1583835482597351
1749035103.903373,0.5369603633880615,-1.4353877168944855,2.175300900136129,-2.697167535821432,0.6848392486572266,-0.8499005476581019,-0.130998894572258,-0.022576075047254562,-0.033229973167181015,0.007222174201160669,-0.1284727305173874,-0.0022202839609235525,-0.47534871101379395,-1.0543702840805054,-1.129006266593933,-0.16956490278244019,-0.017503634095191956,-0.1702703833580017
1749035103.9053752,0.5366700291633606,-1.4354514193585892,2.175232235585348,-2.6971780262389125,0.6846067309379578,-0.8499434630023401,-0.1338091790676117,-0.022909225896000862,-0.034143391996622086,0.007839835248887539,-0.13001008331775665,-0.0027518798597157,-0.4278377592563629,-1.063064455986023,-1.1169178485870361,-0.17384904623031616,-0.024705857038497925,-0.17031912505626678
1749035103.9462738,0.5366700291633606,-1.4354514193585892,2.175232235585348,-2.6971780262389125,0.6846067309379578,-0.8499434630023401,-0.1338091790676117,-0.022909225896000862,-0.034143391996622086,0.007839835248887539,-0.13001008331775665,-0.0027518798597157,-0.4278377592563629,-1.063064455986023,-1.1169178485870361,-0.17384904623031616,-0.024705857038497925,-0.17031912505626678
1749035103.9463227,0.5361650586128235,-1.4355195623687287,2.175088707600729,-2.6971308193602503,0.6840255260467529,-0.849924389516012,-0.1358606070280075,-0.02520674839615822,-0.03507382795214653,0.007218091282993555,-0.12945441901683807,-0.005103451199829578,-0.4640806317329407,-1.0688304901123047,-1.1298375129699707,-0.17095401883125305,-0.038892924785614014,-0.13483546674251556
1749035103.9463642,0.5358656644821167,-1.435579465036728,2.1750200430499476,-2.697141786614889,0.6837810277938843,-0.8499329725848597,-0.13759958744049072,-0.024462364614009857,-0.03685647249221802,0.007492864038795233,-0.1303332895040512,-0.005135158076882362,-0.44390013813972473,-1.0696191787719727,-1.1001471281051636,-0.166640043258667,-0.03768715262413025,-0.11435889452695847
1749035103.9464025,0.5358656644821167,-1.435579465036728,2.1750200430499476,-2.697141786614889,0.6837810277938843,-0.8499329725848597,-0.13759958744049072,-0.024462364614009857,-0.03685647249221802,0.007492864038795233,-0.1303332895040512,-0.005135158076882362,-0.44390013813972473,-1.0696191787719727,-1.1001471281051636,-0.166640043258667,-0.03768715262413025,-0.11435889452695847
1749035103.9464405,0.5353055000305176,-1.435682476764061,2.1748536268817347,-2.6970797977843226,0.6832424402236938,-0.8499606291400355,-0.14098744094371796,-0.024147257208824158,-0.035353753715753555,0.007197042461484671,-0.13190105557441711,-0.003565891645848751,-0.45987504720687866,-1.0931473970413208,-1.110507607460022,-0.1490691751241684,-0.082089863717556,-0.12948337197303772
1749035103.9464786,0.5350621938705444,-1.4356799584678193,2.1748040358172815,-2.69705929378652,0.6830176115036011,-0.8499606291400355,-0.1423652023077011,-0.02541232667863369,-0.03648855537176132,0.0075347451493144035,-0.13523459434509277,-0.002609428483992815,-0.44754523038864136,-1.0833241939544678,-1.1417514085769653,-0.1617344468832016,-0.07506337761878967,-0.17171373963356018
1749035103.946521,0.5348057150840759,-1.435755417948105,2.174732510243551,-2.6970793209471644,0.6827069520950317,-0.8499687353717249,-0.14286480844020844,-0.025746582075953484,-0.037287671118974686,0.00847124494612217,-0.14260801672935486,-0.002212557941675186,-0.46378394961357117,-1.0478781461715698,-1.1220921277999878,-0.14433613419532776,-0.036401212215423584,-0.14978033304214478
1749035103.9465597,0.5345423817634583,-1.4358069759658356,2.174656693135397,-2.6970392666258753,0.6824303865432739,-0.8499916235553187,-0.1457160860300064,-0.025966143235564232,-0.03741871193051338,0.00903063639998436,-0.1434134542942047,-0.002583722583949566,-0.47915688157081604,-1.0725127458572388,-1.1170514822006226,-0.15378227829933167,-0.046515628695487976,-0.17075613141059875
1749035103.946597,0.5345423817634583,-1.4358069759658356,2.174656693135397,-2.6970392666258753,0.6824303865432739,-0.8499916235553187,-0.1457160860300064,-0.025966143235564232,-0.03741871193051338,0.00903063639998436,-0.1434134542942047,-0.002583722583949566,-0.47915688157081604,-1.0725127458572388,-1.1170514822006226,-0.15378227829933167,-0.046515628695487976,-0.17075613141059875
1749035103.9466343,0.5338711142539978,-1.4359143537333985,2.1744702498065394,-2.6970120869078578,0.6818321943283081,-0.8500068823443812,-0.15041419863700867,-0.026386860758066177,-0.038681983947753906,0.008628156036138535,-0.14884446561336517,-0.005157453007996082,-0.4776425063610077,-1.1069122552871704,-1.1104546785354614,-0.15902534127235413,-0.04745805263519287,-0.1486326903104782
1749035103.9466712,0.5336037278175354,-1.4359587144902726,2.1744168440448206,-2.69700350383901,0.6815484166145325,-0.8500273863421839,-0.15283530950546265,-0.026903167366981506,-0.03640235215425491,0.009085584431886673,-0.15112878382205963,-0.00560035603120923,-0.4427989721298218,-1.112281322479248,-1.1439540386199951,-0.13427959382534027,-0.021073926240205765,-0.15923550724983215
1749035103.9467213,0.5336037278175354,-1.4359587144902726,2.1744168440448206,-2.69700350383901,0.6815484166145325,-0.8500273863421839,-0.15283530950546265,-0.026903167366981506,-0.03640235215425491,0.009085584431886673,-0.15112878382205963,-0.00560035603120923,-0.4427989721298218,-1.112281322479248,-1.1439540386199951,-0.13427959382534027,-0.021073926240205765,-0.15923550724983215
1749035103.9467885,0.5329787135124207,-1.4360704284957428,2.1742733160602015,-2.696952005425924,0.6809374094009399,-0.8499773184405726,-0.15714314579963684,-0.02865433506667614,-0.040516868233680725,0.009389461018145084,-0.15459907054901123,-0.004659876227378845,-0.47322940826416016,-1.080552339553833,-1.126536250114441,-0.14113573729991913,-0.019069310277700424,-0.1511673629283905
1749035103.9468539,0.5326648950576782,-1.436137245302536,2.174208466206686,-2.696909566918844,0.6806032657623291,-0.850069824849264,-0.157446026802063,-0.028842490166425705,-0.04102466255426407,0.009443772956728935,-0.15544302761554718,-0.003730408614501357,-0.4864063560962677,-1.106630802154541,-1.1139919757843018,-0.13557396829128265,-0.024876724928617477,-0.15739110112190247
1749035103.9469237,0.5323225855827332,-1.4362090092948456,2.1740973631488245,-2.6969510517516078,0.6803022623062134,-0.8500321547137659,-0.1592760682106018,-0.02908751554787159,-0.04089731723070145,0.009274041280150414,-0.15645307302474976,-0.003198138205334544,-0.49268490076065063,-1.1222485303878784,-1.1380939483642578,-0.14827878773212433,-0.012231945991516113,-0.14644059538841248
1749035103.9469917,0.5319842100143433,-1.436241404419281,2.173988167439596,-2.6969038448729457,0.6799749135971069,-0.8500250021563929,-0.16166502237319946,-0.028972318395972252,-0.039686914533376694,0.00887089129537344,-0.15635721385478973,-0.003165892092511058,-0.5027116537094116,-1.1174770593643188,-1.1338999271392822,-0.15361829102039337,-0.027402400970458984,-0.156192809343338
1749035103.9470577,0.5319842100143433,-1.436241404419281,2.173988167439596,-2.6969038448729457,0.6799749135971069,-0.8500250021563929,-0.16166502237319946,-0.028972318395972252,-0.039686914533376694,0.00887089129537344,-0.15635721385478973,-0.003165892092511058,-0.5027116537094116,-1.1174770593643188,-1.1338999271392822,-0.15361829102039337,-0.027402400970458984,-0.156192809343338
1749035103.9471269,0.5313616991043091,-1.4363646072200318,2.1738699118243616,-2.696869035760397,0.679356575012207,-0.850036923085348,-0.16393356025218964,-0.030130527913570404,-0.04111849144101143,0.009738130494952202,-0.15977443754673004,-0.005006748717278242,-0.5089114308357239,-1.1248034238815308,-1.1341947317123413,-0.14674054086208344,-0.03862921893596649,-0.11678218841552734
1749035103.9471948,0.5310365557670593,-1.436428041463234,2.1737669149981897,-2.6968451939024867,0.6790210604667664,-0.8500683943377894,-0.16776175796985626,-0.031464915722608566,-0.0418192520737648,0.009640530683100224,-0.16138556599617004,-0.005145322997123003,-0.4762493371963501,-1.0847983360290527,-1.1190601587295532,-0.1482652872800827,-0.053628109395504,-0.1495995819568634
1749035103.947244,0.5306707620620728,-1.4364613008550187,2.173682991658346,-2.696832319299215,0.6787667274475098,-0.8500874678241175,-0.170292466878891,-0.031221704557538033,-0.0415780283510685,0.00931723415851593,-0.1662178486585617,-0.004882134031504393,-0.47168925404548645,-1.1064655780792236,-1.1572085618972778,-0.12975896894931793,-0.014902794733643532,-0.10793249309062958
1749035103.9475331,0.5306707620620728,-1.4364613008550187,2.173682991658346,-2.696832319299215,0.6787667274475098,-0.8500874678241175,-0.170292466878891,-0.031221704557538033,-0.0415780283510685,0.00931723415851593,-0.1662178486585617,-0.004882134031504393,-0.47168925404548645,-1.1064655780792236,-1.1572085618972778,-0.12975896894931793,-0.014902794733643532,-0.10793249309062958
1749035103.949375,0.5299936532974243,-1.436627746825554,2.1735037008868616,-2.69679655651235,0.6780189275741577,-0.8500731627093714,-0.17423921823501587,-0.03217356279492378,-0.043430980294942856,0.009666988626122475,-0.16929879784584045,-0.003265850944444537,-0.5117125511169434,-1.0913814306259155,-1.1375951766967773,-0.15290696918964386,-0.03050592541694641,-0.1537148356437683
1749035103.990283,0.5296276807785034,-1.4366493982127686,2.173419777547018,-2.6967693767943324,0.677666425704956,-0.8500955740558069,-0.1729104071855545,-0.032316360622644424,-0.04313913732767105,0.009858282282948494,-0.17194345593452454,-0.0031530088745057583,-0.5130999088287354,-1.100728988647461,-1.1646144390106201,-0.14110206067562103,-0.011621072888374329,-0.18023359775543213
1749035103.9903297,0.5292607545852661,-1.4367128324559708,2.1733201185809534,-2.696761270562643,0.6773309707641602,-0.8500888983355921,-0.1750480681657791,-0.032813917845487595,-0.04458577558398247,0.010419270023703575,-0.172604039311409,-0.0039016243536025286,-0.47529831528663635,-1.0840644836425781,-1.1420377492904663,-0.14544443786144257,-0.009112164378166199,-0.14616800844669342
1749035103.9903698,0.5289373993873596,-1.4368001532605668,2.173224751149313,-2.6967526874937953,0.6769524216651917,-0.8501089254962366,-0.17978908121585846,-0.03316105157136917,-0.04514174908399582,0.010230036452412605,-0.17327068746089935,-0.005301390774548054,-0.4494660198688507,-1.1132034063339233,-1.1345449686050415,-0.14444191753864288,-0.014748707413673401,-0.16870328783988953
1749035103.990408,0.5289373993873596,-1.4368001532605668,2.173224751149313,-2.6967526874937953,0.6769524216651917,-0.8501089254962366,-0.17978908121585846,-0.03316105157136917,-0.04514174908399582,0.010230036452412605,-0.17327068746089935,-0.005301390774548054,-0.4494660198688507,-1.1132034063339233,-1.1345449686050415,-0.14444191753864288,-0.014748707413673401,-0.16870328783988953
1749035103.9904456,0.5281895399093628,-1.4369234454682847,2.173044506703512,-2.6966897449889125,0.6762919425964355,-0.850128475819723,-0.18461434543132782,-0.03456537425518036,-0.04753883183002472,0.011569741182029247,-0.17301154136657715,-0.006364085245877504,-0.4305253326892853,-1.0785620212554932,-1.1134084463119507,-0.14572672545909882,-0.011838763952255249,-0.1298522800207138
1749035103.9904842,0.5278353691101074,-1.4369915586761017,2.172921959553854,-2.6966568432249964,0.6759324073791504,-0.8501594702350062,-0.1859147846698761,-0.03308338299393654,-0.04750910773873329,0.011968228034675121,-0.1791369765996933,-0.005021969322115183,-0.45024174451828003,-1.100583791732788,-1.1148369312286377,-0.161134734749794,0.021509453654289246,-0.16085553169250488
1749035103.9905226,0.5274770259857178,-1.4370286923697968,2.172844711934225,-2.6966568432249964,0.6755573749542236,-0.8501370588885706,-0.18498463928699493,-0.03321338817477226,-0.04765038564801216,0.01157633401453495,-0.1780654489994049,-0.003767478046938777,-0.47013866901397705,-1.1047313213348389,-1.1130316257476807,-0.15574587881565094,-0.003050476312637329,-0.14863814413547516
1749035103.990561,0.5270988345146179,-1.4371389758637925,2.1727269331561487,-2.6966330013670863,0.6752338409423828,-0.8501642386065882,-0.18513211607933044,-0.035187434405088425,-0.04801080748438835,0.010527919977903366,-0.18011289834976196,-0.003426291747018695,-0.4923935532569885,-1.0925511121749878,-1.1197707653045654,-0.16185078024864197,-0.017998192459344864,-0.1913214921951294
1749035103.9905984,0.5270988345146179,-1.4371389758637925,2.1727269331561487,-2.6966330013670863,0.6752338409423828,-0.8501642386065882,-0.18513211607933044,-0.035187434405088425,-0.04801080748438835,0.010527919977903366,-0.18011289834976196,-0.003426291747018695,-0.4923935532569885,-1.0925511121749878,-1.1197707653045654,-0.16185078024864197,-0.017998192459344864,-0.1913214921951294
1749035103.9906356,0.5267481803894043,-1.4371901762536545,2.17264968553652,-2.6966058216490687,0.674877941608429,-0.8501523176776331,-0.1885707527399063,-0.03426438570022583,-0.047948285937309265,0.009370045736432076,-0.18000349402427673,-0.003953796345740557,-0.47342655062675476,-1.0881544351577759,-1.1170531511306763,-0.1476348340511322,-0.0267505943775177,-0.16137449443340302
1749035103.9906726,0.5259914994239807,-1.4373300534537812,2.1724804083453577,-2.696597238580221,0.6740951538085938,-0.8501642386065882,-0.194081112742424,-0.03520948067307472,-0.047970838844776154,0.009053726680576801,-0.18265338242053986,-0.0065746791660785675,-0.5063887238502502,-1.0885910987854004,-1.1208244562149048,-0.12798261642456055,-0.024286217987537384,-0.15229782462120056
1749035103.9907103,0.5259914994239807,-1.4373300534537812,2.1724804083453577,-2.696597238580221,0.6740951538085938,-0.8501642386065882,-0.194081112742424,-0.03520948067307472,-0.047970838844776154,0.009053726680576801,-0.18265338242053986,-0.0065746791660785675,-0.5063887238502502,-1.0885910987854004,-1.1208244562149048,-0.12798261642456055,-0.024286217987537384,-0.15229782462120056
1749035103.990747,0.5255969762802124,-1.4373985838941117,2.1723650137530726,-2.6965424023070277,0.6737307906150818,-0.8501928488360804,-0.19590970873832703,-0.03376877307891846,-0.04848119989037514,0.010134177282452583,-0.18459153175354004,-0.006586831528693438,-0.5065613985061646,-1.1135663986206055,-1.117043375968933,-0.13283038139343262,-0.013417406007647514,-0.14718273282051086
1749035103.9907835,0.5248134732246399,-1.4375493389419098,2.172169033681051,-2.6964875660338343,0.6729998588562012,-0.8502090612994593,-0.19964592158794403,-0.035867247730493546,-0.04861927032470703,0.01068162452429533,-0.18919070065021515,-0.004990278277546167,-0.48450911045074463,-1.1038751602172852,-1.1178616285324097,-0.13541153073310852,-0.031509533524513245,-0.14590106904506683
1749035103.9908197,0.5248134732246399,-1.4375493389419098,2.172169033681051,-2.6964875660338343,0.6729998588562012,-0.8502090612994593,-0.19964592158794403,-0.035867247730493546,-0.04861927032470703,0.01068162452429533,-0.18919070065021515,-0.004990278277546167,-0.48450911045074463,-1.1038751602172852,-1.1178616285324097,-0.13541153073310852,-0.031509533524513245,-0.14590106904506683
1749035103.990856,0.5244179368019104,-1.4376058739474793,2.172041718159811,-2.6965018711485804,0.672616183757782,-0.8502238432513636,-0.2008630484342575,-0.03548446670174599,-0.05125236138701439,0.010792568325996399,-0.19258639216423035,-0.004622442182153463,-0.44985565543174744,-1.1178197860717773,-1.0930962562561035,-0.1450844705104828,-0.025911837816238403,-0.13862159848213196
1749035103.990893,0.5239615440368652,-1.437678412800171,2.171933952962057,-2.6965090237059535,0.6721871495246887,-0.8502672354327601,-0.20256203413009644,-0.03694795444607735,-0.049675554037094116,0.010893573053181171,-0.19248609244823456,-0.004925093613564968,-0.5071474313735962,-1.084731936454773,-1.1202352046966553,-0.1403464376926422,-0.05681447684764862,-0.135298952460289
1749035103.9909291,0.5231523513793945,-1.4378333252719422,2.1717336813556116,-2.6964384518065394,0.6714070439338684,-0.8502672354327601,-0.20991207659244537,-0.03612278029322624,-0.051102809607982635,0.010787751525640488,-0.19923071563243866,-0.005884010810405016,-0.4706941246986389,-1.119568109512329,-1.1276586055755615,-0.13787896931171417,-0.032369889318943024,-0.16156163811683655
1749035103.9909663,0.5226911306381226,-1.4379011702588578,2.171643082295553,-2.6963988743224085,0.670981764793396,-0.8502872625934046,-0.20860157907009125,-0.03599913790822029,-0.05309208855032921,0.011818801052868366,-0.20210851728916168,-0.005303538870066404,-0.44622692465782166,-1.1221253871917725,-1.0975288152694702,-0.15121610462665558,-0.05328211188316345,-0.15030823647975922
1749035103.9910028,0.5223177671432495,-1.4379577201655884,2.171511475239889,-2.696402689019674,0.6705731153488159,-0.8502686659442347,-0.20846058428287506,-0.03574204817414284,-0.05340585485100746,0.011602014303207397,-0.20399633049964905,-0.004908775445073843,-0.5071321725845337,-1.1462912559509277,-1.0932697057724,-0.13032051920890808,-0.023948311805725098,-0.15953749418258667
1749035103.9913862,0.5218602418899536,-1.438010261659958,2.1713884512530726,-2.696378847161764,0.6701727509498596,-0.8502963224994105,-0.21009135246276855,-0.036654483526945114,-0.052365001291036606,0.011714162304997444,-0.20494437217712402,-0.0049090092070400715,-0.5414666533470154,-1.15532648563385,-1.1199767589569092,-0.13582029938697815,-0.039070531725883484,-0.16251666843891144
1749035103.9934154,0.5218602418899536,-1.438010261659958,2.1713884512530726,-2.696378847161764,0.6701727509498596,-0.8502963224994105,-0.21009135246276855,-0.036654483526945114,-0.052365001291036606,0.011714162304997444,-0.20494437217712402,-0.0049090092070400715,-0.5414666533470154,-1.15532648563385,-1.1199767589569092,-0.13582029938697815,-0.039070531725883484,-0.16251666843891144
1749035104.0342817,0.5210127234458923,-1.4381960940412064,2.1711910406695765,-2.6963120899596156,0.6693097352981567,-0.8503044287310999,-0.21395638585090637,-0.037516821175813675,-0.05543544143438339,0.012319900095462799,-0.20637987554073334,-0.006337165832519531,-0.48933953046798706,-1.1301761865615845,-1.0838537216186523,-0.1460786908864975,-0.0049482062458992004,-0.15414799749851227
1749035104.0343285,0.5205889344215393,-1.4382880640080948,2.1710684935199183,-2.696298738519186,0.6688666343688965,-0.8503511587726038,-0.21673370897769928,-0.03873218223452568,-0.05550351366400719,0.013070393353700638,-0.20769937336444855,-0.006931187119334936,-0.5041357278823853,-1.1356830596923828,-1.0778740644454956,-0.14994652569293976,0.006782561540603638,-0.14417365193367004
1749035104.03437,0.5201812386512756,-1.4383634191802521,2.1709569136248987,-2.6962748966612757,0.6684315204620361,-0.8503592650042933,-0.2185371071100235,-0.03857431933283806,-0.05539635568857193,0.012891875579953194,-0.20892229676246643,-0.006172963418066502,-0.4908153712749481,-1.1195212602615356,-1.0815564393997192,-0.1491968035697937,-0.01542825996875763,-0.14134156703948975
1749035104.0344095,0.5196929574012756,-1.4383891832879563,2.170871082936422,-2.6962319813170375,0.6679655313491821,-0.8503525892840784,-0.2199135422706604,-0.03875477612018585,-0.055472202599048615,0.012712324038147926,-0.21105074882507324,-0.0051995255053043365,-0.4493933916091919,-1.1063611507415771,-1.080061912536621,-0.14419060945510864,-0.015227500349283218,-0.1490912288427353
1749035104.0344477,0.5196929574012756,-1.4383891832879563,2.170871082936422,-2.6962319813170375,0.6679655313491821,-0.8503525892840784,-0.2199135422706604,-0.03875477612018585,-0.055472202599048615,0.012712324038147926,-0.21105074882507324,-0.0051995255053043365,-0.4493933916091919,-1.1063611507415771,-1.080061912536621,-0.14419060945510864,-0.015227500349283218,-0.1490912288427353
1749035104.034492,0.5187971591949463,-1.438571648006775,2.1706212202655237,-2.696211954156393,0.667138397693634,-0.8503783384906214,-0.22210615873336792,-0.0389532633125782,-0.057364627718925476,0.011078440584242344,-0.21086184680461884,-0.0056130061857402325,-0.4782157838344574,-1.1415050029754639,-1.0594496726989746,-0.16125738620758057,-0.021747097373008728,-0.15818439424037933
1749035104.0345526,0.5183785557746887,-1.4386312526515503,2.170544449483053,-2.696172376672262,0.6667603254318237,-0.8504040876971644,-0.22404234111309052,-0.03873276337981224,-0.053185462951660156,0.011668219231069088,-0.2116469144821167,-0.005753713194280863,-0.5464920997619629,-1.1318022012710571,-1.096219539642334,-0.15257379412651062,-0.023056000471115112,-0.1551036387681961
1749035104.0346107,0.5178976058959961,-1.4387539339116593,2.1704400221454065,-2.6961242161192835,0.6662825345993042,-0.8504112402545374,-0.22759771347045898,-0.039474714547395706,-0.053928714245557785,0.01241739746183157,-0.21342173218727112,-0.005485360510647297,-0.4855177104473114,-1.1641592979431152,-1.109371304512024,-0.15055090188980103,-0.017502807080745697,-0.16299735009670258
1749035104.0346518,0.5174286961555481,-1.4388143730214615,2.1703131834613245,-2.6961194477477015,0.6658749580383301,-0.850412670766012,-0.22803618013858795,-0.040267959237098694,-0.05643938109278679,0.013112572953104973,-0.21291343867778778,-0.005288121290504932,-0.45886778831481934,-1.1678845882415771,-1.1044939756393433,-0.1709684431552887,-0.04930765926837921,-0.160457044839859
1749035104.0346892,0.5169469118118286,-1.4388477218202134,2.1702120939837855,-2.6960765324034632,0.6654550433158875,-0.8504088560687464,-0.2300749272108078,-0.04131554439663887,-0.05661945417523384,0.01286634337157011,-0.22055470943450928,-0.005139583256095648,-0.45929163694381714,-1.1484194993972778,-1.0776124000549316,-0.16372168064117432,-0.03761211037635803,-0.15122850239276886
1749035104.0347269,0.5169469118118286,-1.4388477218202134,2.1702120939837855,-2.6960765324034632,0.6654550433158875,-0.8504088560687464,-0.2300749272108078,-0.04131554439663887,-0.05661945417523384,0.01286634337157011,-0.22055470943450928,-0.005139583256095648,-0.45929163694381714,-1.1484194993972778,-1.0776124000549316,-0.16372168064117432,-0.03761211037635803,-0.15122850239276886
1749035104.0347688,0.5160528421401978,-1.4390504670194169,2.1699965635882776,-2.6960560284056605,0.66454017162323,-0.8504245916949671,-0.23002703487873077,-0.04374883696436882,-0.05611875653266907,0.012252784334123135,-0.22672633826732635,-0.005546249449253082,-0.5099962949752808,-1.1478915214538574,-1.1302616596221924,-0.1491682529449463,-0.05648620054125786,-0.1451503038406372
1749035104.034807,0.5160528421401978,-1.4390504670194169,2.1699965635882776,-2.6960560284056605,0.66454017162323,-0.8504245916949671,-0.23002703487873077,-0.04374883696436882,-0.05611875653266907,0.012252784334123135,-0.22672633826732635,-0.005546249449253082,-0.5099962949752808,-1.1478915214538574,-1.1302616596221924,-0.1491682529449463,-0.05648620054125786,-0.1451503038406372
1749035104.0348442,0.5150942206382751,-1.439217747454979,2.1697571913348597,-2.69600834468984,0.6636450290679932,-0.8504636923419397,-0.23922717571258545,-0.04294018819928169,-0.05856846645474434,0.011643278412520885,-0.22825780510902405,-0.005634510423988104,-0.4683181643486023,-1.1425392627716064,-1.1095924377441406,-0.1427464783191681,-0.03752069175243378,-0.1571040153503418
1749035104.0348814,0.5150942206382751,-1.439217747454979,2.1697571913348597,-2.69600834468984,0.6636450290679932,-0.8504636923419397,-0.23922717571258545,-0.04294018819928169,-0.05856846645474434,0.011643278412520885,-0.22825780510902405,-0.005634510423988104,-0.4683181643486023,-1.1425392627716064,-1.1095924377441406,-0.1427464783191681,-0.03752069175243378,-0.1571040153503418
1749035104.034918,0.5140917301177979,-1.4394204330495377,2.169452492390768,-2.6959368191161097,0.6627302169799805,-0.8504861036883753,-0.23947425186634064,-0.04480463266372681,-0.06009439751505852,0.01405975129455328,-0.2319728136062622,-0.005192547105252743,-0.48896700143814087,-1.1279239654541016,-1.0987920761108398,-0.17023062705993652,-0.055471647530794144,-0.172190323472023
1749035104.0349553,0.5136520862579346,-1.4394653302482148,2.169344727193014,-2.695909639398092,0.662294328212738,-0.8505342642413538,-0.24010242521762848,-0.046877067536115646,-0.06026245281100273,0.01404978521168232,-0.23765940964221954,-0.006364462431520224,-0.5117530226707458,-1.1051815748214722,-1.102974534034729,-0.1845075488090515,-0.0465262234210968,-0.1743721067905426
1749035104.034992,0.5131202936172485,-1.4395767760327836,2.1692402998553675,-2.6959077320494593,0.6618010401725769,-0.8504999319659632,-0.2435181885957718,-0.04665347933769226,-0.060944586992263794,0.013308912515640259,-0.23780086636543274,-0.007287358399480581,-0.508981466293335,-1.084060549736023,-1.1003954410552979,-0.17802152037620544,-0.06742122769355774,-0.16048507392406464
1749035104.0350282,0.5131202936172485,-1.4395767760327836,2.1692402998553675,-2.6959077320494593,0.6618010401725769,-0.8504999319659632,-0.2435181885957718,-0.04665347933769226,-0.060944586992263794,0.013308912515640259,-0.23780086636543274,-0.007287358399480581,-0.508981466293335,-1.084060549736023,-1.1003954410552979,-0.17802152037620544,-0.06742122769355774,-0.16048507392406464
1749035104.0350857,0.5131202936172485,-1.4395767760327836,2.1692402998553675,-2.6959077320494593,0.6618010401725769,-0.8504999319659632,-0.2435181885957718,-0.04665347933769226,-0.060944586992263794,0.013308912515640259,-0.23780086636543274,-0.007287358399480581,-0.508981466293335,-1.084060549736023,-1.1003954410552979,-0.17802152037620544,-0.06742122769355774,-0.16048507392406464
1749035104.035392,0.5116151571273804,-1.439921961431839,2.1688721815692347,-2.6958567104735316,0.6603383421897888,-0.8505476156817835,-0.2514926791191101,-0.046766526997089386,-0.06186755374073982,0.01236154418438673,-0.24588245153427124,-0.006918887607753277,-0.4363816976547241,-1.1155855655670166,-1.1118078231811523,-0.14367377758026123,-0.05474996194243431,-0.15779730677604675
1749035104.037365,0.5110822916030884,-1.439920337205269,2.168771568928854,-2.695817609826559,0.6598398089408875,-0.8505666891681116,-0.2474270462989807,-0.045954108238220215,-0.061135221272706985,0.012321176007390022,-0.24637344479560852,-0.006943088956177235,-0.5285685062408447,-1.1007035970687866,-1.101985216140747,-0.15892064571380615,-0.06604217737913132,-0.15074750781059265
1749035104.0782826,0.5106581449508667,-1.4400628519109269,2.168612305318014,-2.695785184899801,0.659355103969574,-0.8505867163287562,-0.24830634891986847,-0.04575835168361664,-0.06331183016300201,0.013151717372238636,-0.2481594681739807,-0.006691565737128258,-0.5221422910690308,-1.1119903326034546,-1.1168911457061768,-0.15150564908981323,-0.08098477125167847,-0.17295634746551514
1749035104.0783286,0.51006680727005,-1.4401312631419678,2.16852313676943,-2.6957575283446253,0.6588788032531738,-0.8505991140948694,-0.254921555519104,-0.04616060480475426,-0.0617346428334713,0.013975724577903748,-0.2499873787164688,-0.006248518358916044,-0.5762785077095032,-1.080112099647522,-1.1384212970733643,-0.16913987696170807,-0.1101769208908081,-0.1621658056974411
1749035104.0783727,0.509588360786438,-1.440223218207695,2.168368641530172,-2.69570316890859,0.65836501121521,-0.8506076971637171,-0.25965172052383423,-0.04636872187256813,-0.06387294083833694,0.01519450731575489,-0.25410380959510803,-0.005766129121184349,-0.37516313791275024,-1.0915935039520264,-1.103378176689148,-0.1705678552389145,-0.06269729137420654,-0.1637483537197113
1749035104.0784147,0.5090810656547546,-1.4403537821820755,2.168237034474508,-2.6957136593260707,0.6578579545021057,-0.8506076971637171,-0.25562331080436707,-0.046232353895902634,-0.06337809562683105,0.014133344404399395,-0.25927382707595825,-0.006295017898082733,-0.5045638084411621,-1.1192796230316162,-1.121778130531311,-0.17321595549583435,-0.045951392501592636,-0.1565639227628708
1749035104.078453,0.5090810656547546,-1.4403537821820755,2.168237034474508,-2.6957136593260707,0.6578579545021057,-0.8506076971637171,-0.25562331080436707,-0.046232353895902634,-0.06337809562683105,0.014133344404399395,-0.25927382707595825,-0.006295017898082733,-0.5045638084411621,-1.1192796230316162,-1.121778130531311,-0.17321595549583435,-0.045951392501592636,-0.1565639227628708
1749035104.0784914,0.5080349445343018,-1.4405297052911301,2.1680167357074183,-2.6956659756102503,0.6568387150764465,-0.8506506125079554,-0.26167774200439453,-0.046086423099040985,-0.06441882252693176,0.012254418805241585,-0.2581663727760315,-0.007388448808342218,-0.5440058708190918,-1.102400541305542,-1.1306140422821045,-0.15845328569412231,-0.0748848021030426,-0.17115965485572815
1749035104.0785291,0.5075032114982605,-1.4406252962401886,2.167884651814596,-2.69564213375234,0.6562535762786865,-0.850677792225973,-0.26547810435295105,-0.04495043307542801,-0.06726900488138199,0.013253172859549522,-0.25828033685684204,-0.007358750328421593,-0.45852407813072205,-1.1223875284194946,-1.0981621742248535,-0.14948144555091858,-0.07626770436763763,-0.15181642770767212
1749035104.0785666,0.5069655179977417,-1.4407092195800324,2.16770583788027,-2.6955748997130335,0.6557486057281494,-0.8506868521319788,-0.26722773909568787,-0.04356157034635544,-0.06535391509532928,0.014943379908800125,-0.2583547830581665,-0.006992485839873552,-0.4875921905040741,-1.1591126918792725,-1.1281816959381104,-0.15717923641204834,-0.07140234112739563,-0.17652888596057892
1749035104.0786037,0.5065204501152039,-1.4407965552857895,2.1675942579852503,-2.6955701313414515,0.6552167534828186,-0.8506706396685999,-0.26708635687828064,-0.04551030322909355,-0.06591948866844177,0.015858175233006477,-0.2624216377735138,-0.00659224996343255,-0.4708911180496216,-1.1380786895751953,-1.1294403076171875,-0.17824193835258484,-0.09145526587963104,-0.16955482959747314
1749035104.0786405,0.5059227347373962,-1.440869541173317,2.1674431006061,-2.695531030694479,0.6546554565429688,-0.8506763617144983,-0.2680283784866333,-0.04540537670254707,-0.06948475539684296,0.016772571951150894,-0.2627846300601959,-0.006974667776376009,-0.517576277256012,-1.137534260749817,-1.1060019731521606,-0.16905774176120758,-0.07607530057430267,-0.1855817437171936
1749035104.0786772,0.5059227347373962,-1.440869541173317,2.1674431006061,-2.695531030694479,0.6546554565429688,-0.8506763617144983,-0.2680283784866333,-0.04540537670254707,-0.06948475539684296,0.016772571951150894,-0.2627846300601959,-0.006974667776376009,-0.517576277256012,-1.137534260749817,-1.1060019731521606,-0.16905774176120758,-0.07607530057430267,-0.1855817437171936
1749035104.078714,0.5048431158065796,-1.441080482011177,2.1671984831439417,-2.695470472375387,0.6536654233932495,-0.850677792225973,-0.2761542797088623,-0.04649828001856804,-0.068097323179245,0.015486828051507473,-0.2688860297203064,-0.006880878936499357,-0.5050936937332153,-1.176530122756958,-1.1250203847885132,-0.1790604293346405,-0.06266549229621887,-0.16629484295845032
1749035104.0787504,0.5048431158065796,-1.441080482011177,2.1671984831439417,-2.695470472375387,0.6536654233932495,-0.850677792225973,-0.2761542797088623,-0.04649828001856804,-0.068097323179245,0.015486828051507473,-0.2688860297203064,-0.006880878936499357,-0.5050936937332153,-1.176530122756958,-1.1250203847885132,-0.1790604293346405,-0.06266549229621887,-0.16629484295845032
1749035104.0787868,0.5037985444068909,-1.4412441861680527,2.1669471899615687,-2.695388456384176,0.6525253057479858,-0.8507426420794886,-0.28013020753860474,-0.04559239000082016,-0.06753115355968475,0.014081265777349472,-0.2714073657989502,-0.008449288085103035,-0.49136409163475037,-1.1798146963119507,-1.1209971904754639,-0.1631794273853302,-0.06563618779182434,-0.16540254652500153
1749035104.0788312,0.5032370090484619,-1.4413397473147889,2.166814629231588,-2.695371767083639,0.6520276665687561,-0.8507545630084437,-0.2797771990299225,-0.047982413321733475,-0.06736253201961517,0.014604002237319946,-0.27098920941352844,-0.008089696057140827,-0.5072380900382996,-1.163949966430664,-1.1574684381484985,-0.14865846931934357,-0.08744627237319946,-0.1770322024822235
1749035104.078874,0.5026343464851379,-1.4414703112891694,2.1666868368731897,-2.6953135929503382,0.6514444947242737,-0.8507683912860315,-0.28110530972480774,-0.04973365738987923,-0.06796678900718689,0.015180055052042007,-0.27309998869895935,-0.008154314011335373,-0.5517979860305786,-1.1584129333496094,-1.1475740671157837,-0.16383200883865356,-0.08461101353168488,-0.17401064932346344
1749035104.0789127,0.5020924210548401,-1.4415507179549714,2.1665518919574183,-2.6953193149962367,0.6508554220199585,-0.8508027235614222,-0.2867901623249054,-0.05155891552567482,-0.07055111974477768,0.015730461105704308,-0.2818271815776825,-0.007857331074774265,-0.5867217779159546,-1.1115778684616089,-1.1642978191375732,-0.1682644784450531,-0.06976495683193207,-0.18249323964118958
1749035104.0789504,0.5015077590942383,-1.4416617465070267,2.166396443043844,-2.6952954731383265,0.6503269076347351,-0.8508251349078577,-0.2879103720188141,-0.049061257392168045,-0.07035215944051743,0.016035832464694977,-0.2830081284046173,-0.007772286422550678,-0.5066595077514648,-1.1510605812072754,-1.1420128345489502,-0.16633471846580505,-0.046425312757492065,-0.17893476784229279
1749035104.0789878,0.5015077590942383,-1.4416617465070267,2.166396443043844,-2.6952954731383265,0.6503269076347351,-0.8508251349078577,-0.2879103720188141,-0.049061257392168045,-0.07035215944051743,0.016035832464694977,-0.2830081284046173,-0.007772286422550678,-0.5066595077514648,-1.1510605812072754,-1.1420128345489502,-0.16633471846580505,-0.046425312757492065,-0.17893476784229279
1749035104.0790246,0.5008933544158936,-1.4417663228562851,2.1662333647357386,-2.6952525577940882,0.649782657623291,-0.8508146444903772,-0.2884140908718109,-0.05180145427584648,-0.06956666707992554,0.014485569670796394,-0.28469088673591614,-0.007242491934448481,-0.5376946330070496,-1.1051623821258545,-1.1562719345092773,-0.16943326592445374,-0.028417259454727173,-0.17547012865543365
1749035104.079423,0.5003371238708496,-1.441846327190735,2.1661203543292444,-2.695256372491354,0.6491722464561462,-0.85083514848818,-0.2877623438835144,-0.053466957062482834,-0.07229537516832352,0.013117528520524502,-0.2841734290122986,-0.007659379858523607,-0.5404717326164246,-1.116111159324646,-1.155827283859253,-0.14014562964439392,-0.043525803834199905,-0.1856970191001892
1749035104.0813558,0.4991936981678009,-1.4420930010131379,2.1658175627337855,-2.695188184777731,0.648048460483551,-0.8508623282061976,-0.2959882616996765,-0.05414051562547684,-0.0730501040816307,0.014033807441592216,-0.2824373245239258,-0.008169892244040966,-0.518905520439148,-1.1126219034194946,-1.1476573944091797,-0.16091695427894592,-0.05106133222579956,-0.18130457401275635
1749035104.1222703,0.49858996272087097,-1.4421931517175217,2.1656463781939905,-2.6951261959471644,0.6474616527557373,-0.850868050252096,-0.29495298862457275,-0.05330111086368561,-0.07451263070106506,0.015912573784589767,-0.2862391471862793,-0.00817269179970026,-0.4802536368370056,-1.1158322095870972,-1.1327990293502808,-0.15726405382156372,-0.07426498085260391,-0.18765532970428467
1749035104.1223161,0.49858996272087097,-1.4421931517175217,2.1656463781939905,-2.6951261959471644,0.6474616527557373,-0.850868050252096,-0.29495298862457275,-0.05330111086368561,-0.07451263070106506,0.015912573784589767,-0.2862391471862793,-0.00817269179970026,-0.4802536368370056,-1.1158322095870972,-1.1327990293502808,-0.15726405382156372,-0.07426498085260391,-0.18765532970428467
1749035104.122356,0.49796178936958313,-1.4422926616719742,2.165502373372213,-2.695085187951559,0.6469201445579529,-0.850868050252096,-0.2942351996898651,-0.053493425250053406,-0.0766533836722374,0.017572468146681786,-0.28995487093925476,-0.008183703757822514,-0.5818689465522766,-1.1192315816879272,-1.1218072175979614,-0.16796687245368958,-0.04519256576895714,-0.17433258891105652
1749035104.1223946,0.49677181243896484,-1.4424853485873719,2.1651671568499964,-2.695022245446676,0.6457462310791016,-0.8509610334979456,-0.30278411507606506,-0.051713235676288605,-0.07695823907852173,0.017829736694693565,-0.29386240243911743,-0.007885775528848171,-0.4288775622844696,-1.141496181488037,-1.1023529767990112,-0.17805173993110657,-0.009616859257221222,-0.19664055109024048
1749035104.122433,0.49617496132850647,-1.4426472199014206,2.1650260130511683,-2.6950136623778285,0.6451900005340576,-0.8509400526629847,-0.304503858089447,-0.05193553492426872,-0.0768524557352066,0.016106197610497475,-0.2893472909927368,-0.008051888085901737,-0.4768908619880676,-1.1568886041641235,-1.109769344329834,-0.17906437814235687,-0.05837719142436981,-0.17289546132087708
1749035104.122472,0.495577335357666,-1.4427462977221985,2.164821449910299,-2.694993635217184,0.6445403695106506,-0.8509467283831995,-0.3024274706840515,-0.05232153460383415,-0.07705166190862656,0.014381080865859985,-0.2875196933746338,-0.007993442006409168,-0.5227975249290466,-1.1690728664398193,-1.1152942180633545,-0.17043592035770416,-0.0699961706995964,-0.1820068657398224
1749035104.1225092,0.49499601125717163,-1.442834959631302,2.1647031942950647,-2.694930215875143,0.6439964771270752,-0.8509758154498499,-0.30530887842178345,-0.052281152456998825,-0.0777464509010315,0.014043524861335754,-0.2937830686569214,-0.007827875204384327,-0.5371577143669128,-1.1526708602905273,-1.103651762008667,-0.15156637132167816,-0.0815613865852356,-0.17203615605831146
1749035104.122547,0.4944056570529938,-1.4429618579200287,2.1645353476153772,-2.6949249706664027,0.6434394717216492,-0.8510029951678675,-0.3084433078765869,-0.05208463594317436,-0.07831540703773499,0.014528080821037292,-0.298913836479187,-0.007298428099602461,-0.45607563853263855,-1.1611149311065674,-1.082639217376709,-0.16165423393249512,-0.04717107117176056,-0.17108406126499176
1749035104.1225846,0.49375686049461365,-1.4430083644441147,2.1643851439105433,-2.6949011288084925,0.6427622437477112,-0.8509839216815394,-0.30944356322288513,-0.052280131727457047,-0.07826797664165497,0.014096695929765701,-0.30072125792503357,-0.0071769822388887405,-0.4418497681617737,-1.1565684080123901,-1.0797533988952637,-0.14594589173793793,-0.032144695520401,-0.18979766964912415
1749035104.1226223,0.49375686049461365,-1.4430083644441147,2.1643851439105433,-2.6949011288084925,0.6427622437477112,-0.8509839216815394,-0.30944356322288513,-0.052280131727457047,-0.07826797664165497,0.014096695929765701,-0.30072125792503357,-0.0071769822388887405,-0.4418497681617737,-1.1565684080123901,-1.0797533988952637,-0.14594589173793793,-0.032144695520401,-0.18979766964912415
1749035104.1226602,0.49254193902015686,-1.4432464849999924,2.164065186177389,-2.6948377094664515,0.6415945291519165,-0.851046387349264,-0.30728134512901306,-0.05421755462884903,-0.0802580788731575,0.01260736770927906,-0.2946861982345581,-0.007986598648130894,-0.5686838626861572,-1.132243037223816,-1.0721423625946045,-0.13777638971805573,-0.04092270880937576,-0.1859191358089447
1749035104.1226969,0.491908460855484,-1.4433976274779816,2.163877789174215,-2.694798608819479,0.6410022974014282,-0.8510392347918909,-0.31015270948410034,-0.05168464034795761,-0.07744172215461731,0.0141074163839221,-0.2966650724411011,-0.008127198554575443,-0.49948322772979736,-1.1825895309448242,-1.0744702816009521,-0.118827223777771,-0.05448766052722931,-0.17352107167243958
1749035104.1227338,0.491908460855484,-1.4433976274779816,2.163877789174215,-2.694798608819479,0.6410022974014282,-0.8510392347918909,-0.31015270948410034,-0.05168464034795761,-0.07744172215461731,0.0141074163839221,-0.2966650724411011,-0.008127198554575443,-0.49948322772979736,-1.1825895309448242,-1.0744702816009521,-0.118827223777771,-0.05448766052722931,-0.17352107167243958
1749035104.122771,0.49063625931739807,-1.4436091941646119,2.163631264363424,-2.694742342034811,0.6397838592529297,-0.8510783354388636,-0.31098777055740356,-0.053173113614320755,-0.07665474712848663,0.01645484007894993,-0.30503207445144653,-0.008326171897351742,-0.4747856855392456,-1.1477184295654297,-1.1004198789596558,-0.1352718025445938,-0.03231354430317879,-0.18072955310344696
1749035104.122808,0.49063625931739807,-1.4436091941646119,2.163631264363424,-2.694742342034811,0.6397838592529297,-0.8510783354388636,-0.31098777055740356,-0.053173113614320755,-0.07665474712848663,0.01645484007894993,-0.30503207445144653,-0.008326171897351742,-0.4747856855392456,-1.1477184295654297,-1.1004198789596558,-0.1352718025445938,-0.03231354430317879,-0.18072955310344696
1749035104.1228456,0.48943689465522766,-1.4438163203052063,2.1633008162127894,-2.6946550808348597,0.638577401638031,-0.8511183897601526,-0.3133563697338104,-0.051651157438755035,-0.07826370745897293,0.01795783080160618,-0.3006228804588318,-0.00763447443023324,-0.5032529830932617,-1.174953818321228,-1.0839548110961914,-0.1416185349225998,-0.02842894196510315,-0.1783338487148285
1749035104.1228824,0.4887848496437073,-1.4439204198173066,2.1631529966937464,-2.694635053674215,0.6379812955856323,-0.8511078993426722,-0.31613925099372864,-0.052892450243234634,-0.07546386122703552,0.017595041543245316,-0.2982867360115051,-0.007595192175358534,-0.6003313660621643,-1.2094857692718506,-1.1289454698562622,-0.1596328616142273,-0.07029744982719421,-0.18313181400299072
1749035104.122919,0.4887848496437073,-1.4439204198173066,2.1631529966937464,-2.694635053674215,0.6379812955856323,-0.8511078993426722,-0.31613925099372864,-0.052892450243234634,-0.07546386122703552,0.017595041543245316,-0.2982867360115051,-0.007595192175358534,-0.6003313660621643,-1.2094857692718506,-1.1289454698562622,-0.1596328616142273,-0.07029744982719421,-0.18313181400299072
1749035104.1229565,0.48750633001327515,-1.4441669893315812,2.162800137196676,-2.694559713403219,0.6366844773292542,-0.8511865774737757,-0.3127039968967438,-0.05522219464182854,-0.07739149034023285,0.016035795211791992,-0.304999977350235,-0.007191786076873541,-0.4606000483036041,-1.14044988155365,-1.091094970703125,-0.1533440500497818,-0.042596228420734406,-0.19548135995864868
1749035104.122993,0.48684579133987427,-1.444243685608246,2.1626904646502894,-2.694535871545309,0.636067807674408,-0.8512018362628382,-0.31284117698669434,-0.05517760291695595,-0.07775509357452393,0.014571414329111576,-0.30878719687461853,-0.006640158593654633,-0.5028775930404663,-1.1573323011398315,-1.0758311748504639,-0.12658141553401947,-0.013928279280662537,-0.1911756992340088
1749035104.1233723,0.48623892664909363,-1.4443824899247666,2.1625340620623987,-2.694496294061178,0.635463297367096,-0.8511913458453577,-0.31393560767173767,-0.05624751001596451,-0.0750582218170166,0.013269469141960144,-0.30708611011505127,-0.007279513869434595,-0.4774341881275177,-1.1418126821517944,-1.1038086414337158,-0.11346933245658875,0.021274998784065247,-0.18643489480018616
1749035104.1253448,0.48556333780288696,-1.4444946211627503,2.1623876730548304,-2.6944953403868617,0.634800910949707,-0.8512175718890589,-0.31556859612464905,-0.05618290975689888,-0.07425785809755325,0.013416406698524952,-0.3043161928653717,-0.007773570716381073,-0.41273725032806396,-1.1117899417877197,-1.1411558389663696,-0.11610210686922073,0.01519700139760971,-0.18512007594108582
1749035104.166313,0.48556333780288696,-1.4444946211627503,2.1623876730548304,-2.6944953403868617,0.634800910949707,-0.8512175718890589,-0.31556859612464905,-0.05618290975689888,-0.07425785809755325,0.013416406698524952,-0.3043161928653717,-0.007773570716381073,-0.41273725032806396,-1.1117899417877197,-1.1411558389663696,-0.11610210686922073,0.01519700139760971,-0.18512007594108582
1749035104.1663604,0.48430708050727844,-1.444722132091858,2.162074867879049,-2.694411417047018,0.6335902214050293,-0.8512190024005335,-0.3122645318508148,-0.056430883705616,-0.07442831993103027,0.01808522269129753,-0.3007911145687103,-0.007962008006870747,-0.48509764671325684,-1.102728009223938,-1.1272709369659424,-0.10957895219326019,-0.022028416395187378,-0.17679572105407715
1749035104.1664014,0.4836238920688629,-1.4448096764138718,2.1619389692889612,-2.6943756542601527,0.6330409049987793,-0.8512428442584437,-0.3139674961566925,-0.055619899183511734,-0.07472505420446396,0.01937483251094818,-0.30409038066864014,-0.007632644847035408,-0.4587674140930176,-1.1310722827911377,-1.1607381105422974,-0.1697303205728531,-0.019219104200601578,-0.18718282878398895
1749035104.1664405,0.48302268981933594,-1.444917545919754,2.1617639700519007,-2.6943088970580042,0.6324379444122314,-0.8512476126300257,-0.3157389163970947,-0.054197750985622406,-0.07772369682788849,0.020240360870957375,-0.3033488392829895,-0.007957967929542065,-0.4164912700653076,-1.1532355546951294,-1.1149957180023193,-0.16232502460479736,-0.013399679213762283,-0.19152086973190308
1749035104.166479,0.48236122727394104,-1.4449987721494217,2.1616032759295862,-2.694292207757467,0.6318349838256836,-0.8512786070453089,-0.31264281272888184,-0.053867727518081665,-0.07503432780504227,0.019424930214881897,-0.29991987347602844,-0.00792855303734541,-0.41350674629211426,-1.1789729595184326,-1.1577613353729248,-0.16545931994915009,-0.023151367902755737,-0.18926957249641418
1749035104.166517,0.48177823424339294,-1.445101649766304,2.1614487806903284,-2.6942526302733363,0.6312525868415833,-0.8513253370868128,-0.3133845031261444,-0.05375077947974205,-0.07624725252389908,0.01708056405186653,-0.29966166615486145,-0.008184759877622128,-0.4432937800884247,-1.1628121137619019,-1.1549023389816284,-0.16517800092697144,-0.06889724731445312,-0.1917557716369629
1749035104.166555,0.4811106026172638,-1.4452560555985947,2.1612847487079065,-2.6942254505553187,0.6307069659233093,-0.8513181845294397,-0.3129350543022156,-0.055910687893629074,-0.0765504539012909,0.015708915889263153,-0.29828596115112305,-0.008292081765830517,-0.4496442973613739,-1.1630504131317139,-1.1559171676635742,-0.1443661004304886,-0.09525582194328308,-0.20720571279525757
1749035104.1665926,0.4805280864238739,-1.445337401037552,2.1611560026751917,-2.6941963634886683,0.6300603747367859,-0.8513458410846155,-0.31455132365226746,-0.054986126720905304,-0.07775770127773285,0.014969795942306519,-0.30228695273399353,-0.009130430407822132,-0.434011310338974,-1.1424663066864014,-1.1343399286270142,-0.14794491231441498,-0.09342393279075623,-0.20866216719150543
1749035104.1666298,0.4805280864238739,-1.445337401037552,2.1611560026751917,-2.6941963634886683,0.6300603747367859,-0.8513458410846155,-0.31455132365226746,-0.054986126720905304,-0.07775770127773285,0.014969795942306519,-0.30228695273399353,-0.009130430407822132,-0.434011310338974,-1.1424663066864014,-1.1343399286270142,-0.14794491231441498,-0.09342393279075623,-0.20866216719150543
1749035104.1666677,0.4792144298553467,-1.4455681455186387,2.160806481038229,-2.694117685357565,0.6288304924964905,-0.8513196150409144,-0.31172508001327515,-0.05479791387915611,-0.07882678508758545,0.014863458462059498,-0.31104007363319397,-0.007506389636546373,-0.4835149049758911,-1.1730728149414062,-1.1479780673980713,-0.13001632690429688,-0.04220409691333771,-0.18251225352287292
1749035104.1667051,0.47855690121650696,-1.4456797254136582,2.160653893147604,-2.6940938434996546,0.6282345652580261,-0.8513749281512659,-0.3141137957572937,-0.05817534029483795,-0.07955759018659592,0.015333940275013447,-0.30674055218696594,-0.007291656918823719,-0.45070263743400574,-1.1896291971206665,-1.126708745956421,-0.1275499314069748,-0.06590007245540619,-0.20187409222126007
1749035104.1667418,0.4779430627822876,-1.4457956415465851,2.160537068043844,-2.6940890751280726,0.6276814937591553,-0.8513901869403284,-0.3134368658065796,-0.05602378025650978,-0.08029492944478989,0.01594601757824421,-0.3038868308067322,-0.007756975479424,-0.40284621715545654,-1.1129735708236694,-1.1075422763824463,-0.1372145414352417,-0.09487130492925644,-0.21218225359916687
