nimar13/UR3e_dataset_trayectorias/trayectorias_ejecutadas/quintic/trayectoria_002_result.csv
timestamp,q1,q2,q3,q4,q5,q6,qd1,qd2,qd3,qd4,qd5,qd6,tau1,tau2,tau3,tau4,tau5,tau6
1749032080.8542788,-1.947078053151266,-1.7304088077940882,2.5765703360186976,-3.8253804645934046,-1.1404097715960901,-5.271636072789327,0.0011199458967894316,-0.0006131668342277408,0.0002277131425216794,0.0015392513014376163,0.0007387225632555783,0.001715275226160884,-0.09799489378929138,-0.7269294261932373,-0.7127306461334229,-0.5412707924842834,-0.039430081844329834,-0.04824254661798477
1749032080.8543272,-1.947136704121725,-1.73045076946401,2.5765233675586146,-3.8254152737059535,-1.140402619038717,-5.271675888692037,0.0009273448376916349,-0.0005142020527273417,0.00021976276184432209,0.0011160557623952627,0.0006311325705610216,0.0016115083126351237,-0.09307846426963806,-0.7560915350914001,-0.7197413444519043,-0.5271570682525635,-0.050497159361839294,-0.06367471069097519
1749032080.8543677,-1.9470670858966272,-1.7304398022093714,2.576554838811056,-3.8253842792906703,-1.1403253714190882,-5.271684233342306,0.0009185649687424302,-0.0005202772445045412,0.0002123593440046534,0.000840378284920007,0.0005095897358842194,0.0016815774142742157,-0.10206824541091919,-0.7557898163795471,-0.7256026268005371,-0.5446168184280396,-0.05560959875583649,-0.06709021329879761
1749032080.8544059,-1.9471090475665491,-1.7304240665831507,2.5765584150897425,-3.8253995380797328,-1.1404064337359827,-5.271641198788778,0.0008050487376749516,-0.0005595114780589938,0.000205433985684067,0.000696410657837987,0.0004794622946064919,0.0020751734264194965,-0.09999564290046692,-0.7342497110366821,-0.7221393585205078,-0.5400820374488831,-0.03932937979698181,-0.0632452443242073
1749032080.8544438,-1.9471052328692835,-1.7304088077940882,2.5765584150897425,-3.825419088403219,-1.1403992811786097,-5.271651808415548,0.0008146587060764432,-0.001101085334084928,0.00019894148863386363,0.0006003004964441061,0.0004778873990289867,0.003023279830813408,-0.1043597161769867,-0.7343903183937073,-0.7074876427650452,-0.5281757116317749,-0.03812014311552048,-0.07620424777269363
1749032080.8544815,-1.9470894972430628,-1.7303925953307093,2.5765584150897425,-3.8254462681212367,-1.1403682867633265,-5.271682922040121,0.0007327123894356191,-0.0014031033497303724,0.00019285506277810782,0.0005287897656671703,0.0004456334572751075,0.0033516022376716137,-0.112912118434906,-0.739741325378418,-0.7086436748504639,-0.5507256388664246,-0.042618826031684875,-0.06702742725610733
1749032080.854523,-1.9470933119403284,-1.7304359875121058,2.576561991368429,-3.825411459008688,-1.1403873602496546,-5.271679464970724,0.0004713746893685311,-0.001149012241512537,0.00018172423006035388,0.00042769545689225197,0.0004197182133793831,0.002369848545640707,-0.07801450788974762,-0.7245054244995117,-0.6999945640563965,-0.5381170511245728,-0.0558243989944458,-0.07483074069023132
1749032080.8545613,-1.9470933119403284,-1.7304359875121058,2.576561991368429,-3.825411459008688,-1.1403873602496546,-5.271679464970724,0.0004713746893685311,-0.001149012241512537,0.00018172423006035388,0.00042769545689225197,0.0004197182133793831,0.002369848545640707,-0.07801450788974762,-0.7245054244995117,-0.6999945640563965,-0.5381170511245728,-0.0558243989944458,-0.07483074069023132
1749032080.8546166,-1.947082821522848,-1.7304593525328578,2.5765307585345667,-3.8254033527769984,-1.1403563658343714,-5.271660153065817,0.0004265507450327277,-0.0009911538800224662,0.00017663223843555897,0.0003904437180608511,0.00041295215487480164,0.0018489708891138434,-0.10737475752830505,-0.7410056591033936,-0.7176085710525513,-0.5268134474754333,-0.06111128628253937,-0.061836034059524536
1749032080.8546805,-1.9470966498004358,-1.7304707966246546,2.576561991368429,-3.8254276714720667,-1.1403873602496546,-5.271629039441244,0.00038960741949267685,-0.0008819100330583751,0.00017181503062602133,0.0003591975837480277,0.00039099244168028235,0.0014781779609620571,-0.10779502987861633,-0.7640925645828247,-0.7033717632293701,-0.5371972322463989,-0.04841652512550354,-0.06997903436422348
1749032080.854746,-1.9470623175250452,-1.7304240665831507,2.576561991368429,-3.825423856774801,-1.1403563658343714,-5.271686617528097,0.0003585542144719511,-0.0007287281332537532,0.00016724989109206945,0.00033258728217333555,0.00036873621866106987,0.001225025043822825,-0.10214120149612427,-0.7451708316802979,-0.7124056816101074,-0.5366234183311462,-0.04008226841688156,-0.06324846297502518
1749032080.8548148,-1.9470861593829554,-1.7304560146727503,2.5765462557422083,-3.8254152737059535,-1.1403840223895472,-5.271639649068014,0.0003320871910545975,-0.0007115617045201361,0.00016292739019263536,0.00030964898178353906,0.00034842497552745044,0.0010453088907524943,-0.12024733424186707,-0.7371920347213745,-0.7075639963150024,-0.5331165790557861,-0.05077153444290161,-0.06726950407028198
1749032080.8548844,-1.9470966498004358,-1.7304674587645472,2.576561991368429,-3.8254152737059535,-1.1403716246234339,-5.271636072789327,0.00030926099861972034,-0.0006599159678444266,0.00015882003935985267,0.0002896859950851649,0.0003301730321254581,0.0009191239951178432,-0.1166522204875946,-0.7502124309539795,-0.7058275938034058,-0.5502061247825623,-0.054453060030937195,-0.05958639830350876
1749032080.854953,-1.9470933119403284,-1.7304560146727503,2.576561991368429,-3.825419088403219,-1.1403563658343714,-5.271658960972921,0.00028937048045918345,-0.0006853052182123065,0.0001549117296235636,0.00027214130386710167,0.0003137210151180625,0.0006220170180313289,-0.1241140216588974,-0.7649003863334656,-0.704747200012207,-0.5474078059196472,-0.07553675025701523,-0.06324969977140427
1749032080.8550222,-1.9471333662616175,-1.730443616906637,2.576561991368429,-3.8254276714720667,-1.1403597036944788,-5.271636072789327,0.00025639202794991434,-0.0006181646604090929,0.00014765275409445167,0.00024274538736790419,0.00028528430266305804,0.0004598434898070991,-0.10686036944389343,-0.7663828134536743,-0.6957067251205444,-0.5533980131149292,-0.07772182673215866,-0.06693268567323685
1749032080.8550897,-1.9471333662616175,-1.730443616906637,2.576561991368429,-3.8254276714720667,-1.1403597036944788,-5.271636072789327,0.00025639202794991434,-0.0006181646604090929,0.00014765275409445167,0.00024274538736790419,0.00028528430266305804,0.0004598434898070991,-0.10686036944389343,-0.7663828134536743,-0.6957067251205444,-0.5533980131149292,-0.07772182673215866,-0.06693268567323685
1749032080.8551588,-1.9470709005938929,-1.7304359875121058,2.576554838811056,-3.825426240960592,-1.140402619038717,-5.2716432253467005,0.00024257032782770693,-0.0005908955936320126,0.00014426872076001018,0.0002303098444826901,0.00027291892911307514,0.00041613506618887186,-0.13595257699489594,-0.7544317245483398,-0.7122591137886047,-0.5485177636146545,-0.06623157858848572,-0.0828249529004097
1749032080.8552275,-1.947143856679098,-1.7304521999754847,2.5765584150897425,-3.82543482402944,-1.1403477827655237,-5.271651808415548,0.00023016198247205466,-0.0005492657073773444,0.0001410410914104432,0.00021908398775849491,0.0002615750127006322,0.0003806380555033684,-0.11141854524612427,-0.7509572505950928,-0.6951262950897217,-0.5542489290237427,-0.07196716964244843,-0.07767502218484879
1749032080.8552954,-1.9470966498004358,-1.7304359875121058,2.576542679463522,-3.8254152737059535,-1.1403840223895472,-5.271655384694235,0.00021896179532632232,-0.0004980852827429771,0.0001379526947857812,0.00020890722225885838,0.00025114553864113986,0.00035084885894320905,-0.13490231335163116,-0.757392168045044,-0.6940447092056274,-0.5567899942398071,-0.0757608711719513,-0.06475602090358734
1749032080.8553634,-1.9470933119403284,-1.7304278812804164,2.5765777269946497,-3.8254152737059535,-1.1403783003436487,-5.2716326157199305,0.00018031784566119313,-0.0005352016305550933,0.00013499430497176945,0.00019963321392424405,0.00024151348043233156,0.00032541470136493444,-0.13469108939170837,-0.7606863975524902,-0.6883661150932312,-0.5568357110023499,-0.059515565633773804,-0.06449693441390991
1749032080.8559158,-1.9470894972430628,-1.730443616906637,2.5765703360186976,-3.8254391155638636,-1.1403220335589808,-5.271655384694235,0.0001597628724994138,-0.0005682408809661865,0.0001321642193943262,0.00019114548922516406,0.00023258861619979143,0.0003034297551494092,-0.13655565679073334,-0.752419650554657,-0.68590247631073,-0.5617592930793762,-0.059211425483226776,-0.08265117555856705
1749032080.85768,-1.947136704121725,-1.730443616906637,2.576573912297384,-3.8253876171507777,-1.1404145399676722,-5.271686498318807,0.00015285657718777657,-0.0005958126275800169,0.00012944867194164544,0.0001833542191889137,0.00022430722310673445,0.00028423257754184306,-0.1524558961391449,-0.7700461745262146,-0.6962559223175049,-0.5482144355773926,-0.07806133478879929,-0.07494773715734482
1749032080.8982613,-1.9470933119403284,-1.7304560146727503,2.5765932242022913,-3.825411459008688,-1.1403873602496546,-5.27166730562319,0.00014662923058494925,-0.001009020023047924,0.0001268402993446216,0.0001761725579854101,0.00021659271442331374,0.00026732319383881986,-0.13965894281864166,-0.7780335545539856,-0.6853978633880615,-0.5777636170387268,-0.07560083270072937,-0.08513938635587692
1749032080.898307,-1.9471052328692835,-1.7304359875121058,2.5765932242022913,-3.8254314861693324,-1.1403783003436487,-5.271655384694235,0.00014089028991293162,-0.0010355968261137605,0.0001243386504938826,0.0001695299579296261,0.0002093879011226818,0.0002523157454561442,-0.17279121279716492,-0.7529283165931702,-0.6953061819076538,-0.5635585784912109,-0.08972126990556717,-0.08258245140314102
1749032080.8983462,-1.9470894972430628,-1.7304636440672816,2.576573912297384,-3.8254152737059535,-1.1403220335589808,-5.2716326157199305,0.0001355838612653315,-0.0010258848778903484,0.00012193229486001655,0.00016337393026333302,0.0002026530564762652,0.00023890544252935797,-0.15217271447181702,-0.7604514360427856,-0.6928167343139648,-0.5696213841438293,-0.07496275007724762,-0.07222039252519608
1749032080.898401,-1.9471090475665491,-1.730448385278219,2.5765584150897425,-3.8253842792906703,-1.1403339544879358,-5.271620337163107,0.00013066275278106332,-0.0013599309604614973,0.00011961538257310167,0.0001576482754899189,0.00019633574993349612,0.0002268504467792809,-0.16118070483207703,-0.7541394233703613,-0.6872122287750244,-0.5680856704711914,-0.08163733780384064,-0.09011901170015335
1749032080.8984604,-1.9470966498004358,-1.7304798565306605,2.576561991368429,-3.825419088403219,-1.140353027974264,-5.271690074597494,9.556946315569803e-05,-0.0012739754747599363,0.00012983239139430225,0.00015230891585815698,0.00019039763719774783,0.0002159543801099062,-0.1361047923564911,-0.715193510055542,-0.6884102821350098,-0.5660902857780457,-0.08462375402450562,-0.08252669125795364
1749032080.8985257,-1.947136704121725,-1.730459829370016,2.5765703360186976,-3.8254152737059535,-1.1403325239764612,-5.271623913441793,9.137451706919819e-05,-0.0011028795270249248,0.00013142148964107037,0.00012324031558819115,0.0001848127576522529,0.00020605749159585685,-0.14917269349098206,-0.7117359638214111,-0.675025463104248,-0.5700668692588806,-0.09323349595069885,-0.10055971890687943
1749032080.898585,-1.9470861593829554,-1.7304913006224574,2.576542679463522,-3.825411459008688,-1.1403411070453089,-5.271620337163107,8.837423229124397e-05,-0.0009388364269398153,0.00012931795208714902,0.00011507146700751036,0.00017954478971660137,0.00019702923600561917,-0.16758635640144348,-0.7362893223762512,-0.6928159594535828,-0.5632921457290649,-0.099080890417099,-0.09135023504495621
1749032080.8986468,-1.9471243063556116,-1.7304450474181117,2.5765703360186976,-3.8254224262633265,-1.1403597036944788,-5.271644775067465,8.557323599234223e-05,-0.0008169939392246306,0.0001270542124984786,0.00011077984527219087,0.0001745660847518593,0.00018875948444474488,-0.1534443199634552,-0.7274876236915588,-0.6789416074752808,-0.5833505988121033,-0.09566228836774826,-0.08908788114786148
1749032080.8987138,-1.9471090475665491,-1.730441232720846,2.5765584150897425,-3.8254276714720667,-1.140353027974264,-5.271639649068014,8.294426515931264e-05,-0.0007231527124531567,0.0001248522021342069,9.196392056765035e-05,0.00016986035916488618,0.00018115591956302524,-0.13806751370429993,-0.7419782280921936,-0.6594828367233276,-0.5739430785179138,-0.09236471354961395,-0.08775532990694046
1749032080.898777,-1.9470861593829554,-1.730459829370016,2.5765703360186976,-3.8254276714720667,-1.1403411070453089,-5.27162748972048,8.047217124840245e-05,-0.0006486537167802453,0.0001228415931109339,8.018382504815236e-05,0.000165481586009264,0.00017414182366337627,-0.15000024437904358,-0.7422525882720947,-0.6484562158584595,-0.5763462781906128,-0.10121538490056992,-0.09807831794023514
1749032080.898838,-1.9471295515643519,-1.7304798565306605,2.5765703360186976,-3.8254276714720667,-1.1403377691852015,-5.271679464970724,7.594503404106945e-05,-0.0006149603286758065,0.00011198268475709483,7.394066778942943e-05,5.989900091663003e-05,0.0001616265217307955,-0.11668717861175537,-0.7654057741165161,-0.6194479465484619,-0.5959265232086182,-0.11304941028356552,-0.09813389927148819
1749032080.8988793,-1.9471295515643519,-1.7304798565306605,2.5765703360186976,-3.8254276714720667,-1.1403377691852015,-5.271679464970724,7.594503404106945e-05,-0.0006149603286758065,0.00011198268475709483,7.394066778942943e-05,5.989900091663003e-05,0.0001616265217307955,-0.11668717861175537,-0.7654057741165161,-0.6194479465484619,-0.5959265232086182,-0.11304941028356552,-0.09813389927148819
1749032080.898917,-1.947120491658346,-1.7304326496519984,2.576573912297384,-3.8253876171507777,-1.1403806845294397,-5.271623913441793,7.386731158476323e-05,-0.0007447663811035454,0.0019660014659166336,2.8128910344094038e-05,5.547104956349358e-05,0.00015602055646013469,-0.13022629916667938,-0.7707681655883789,-0.6267678737640381,-0.5962139964103699,-0.10912753641605377,-0.08895022422075272
1749032080.8989544,-1.947127644215719,-1.7305265865721644,2.5765703360186976,-3.8254152737059535,-1.140390698109762,-5.271636072789327,7.190030737547204e-05,-0.003912238869816065,0.003389779245480895,-3.825744352070615e-05,5.336893809726462e-05,0.00015079027798492461,-0.1338137686252594,-0.7487262487411499,-0.6618326902389526,-0.5634933710098267,-0.11074784398078918,-0.07886355370283127
1749032080.8989918,-1.9470589796649378,-1.7304760418333949,2.576589647923605,-3.8254033527769984,-1.140397850667135,-5.271636072789327,7.00352102285251e-05,-0.0033399697858840227,0.003206639550626278,-4.876372258877382e-05,5.175318801775575e-05,0.00014589977217838168,-0.10575824975967407,-0.7290167808532715,-0.6574586629867554,-0.5857839584350586,-0.10848039388656616,-0.052861422300338745
1749032080.8990293,-1.9470709005938929,-1.7304874859251917,2.576585833226339,-3.825419088403219,-1.1403959433185022,-5.271620337163107,6.826456228736788e-05,-0.0024644623044878244,0.0028240031097084284,-4.946260742144659e-05,5.029254316468723e-05,0.0001413163699908182,-0.11400039494037628,-0.763054609298706,-0.6467500925064087,-0.59320467710495,-0.10622621327638626,-0.0528254359960556
1749032080.8990667,-1.9471243063556116,-1.7304798565306605,2.5765977541552942,-3.825419088403219,-1.1403630415545862,-5.271655384694235,6.658117490587756e-05,-0.001985696377232671,0.002354624215513468,-4.8490113840671256e-05,4.892213473794982e-05,0.00013701240823138505,-0.12633338570594788,-0.7430784702301025,-0.6473347544670105,-0.5761843323707581,-0.1142047569155693,-0.049408264458179474
1749032080.899104,-1.9471243063556116,-1.7305036983885707,2.5765977541552942,-3.8254152737059535,-1.1403749624835413,-5.271636072789327,6.49788198643364e-05,-0.0017072531627491117,0.002122617093846202,-4.728027852252126e-05,4.7627443564124405e-05,0.00016393527039326727,-0.1577596366405487,-0.7656364440917969,-0.6449659466743469,-0.5972702503204346,-0.09698463976383209,-0.05152096599340439
1749032080.8991404,-1.947078053151266,-1.7305275402464808,2.576606098805563,-3.8254152737059535,-1.140390698109762,-5.271636072789327,6.345174188027158e-05,-0.0013950328575447202,0.002247164724394679,-2.944191510323435e-05,4.639949111151509e-05,0.00019595670164562762,-0.12223774194717407,-0.7570229768753052,-0.6408166289329529,-0.5545338988304138,-0.10329586267471313,-0.003968223929405212
1749032080.8991773,-1.947101895009176,-1.7304836712279261,2.5766096750842493,-3.825419088403219,-1.1403716246234339,-5.2716466824160975,6.199491326697171e-05,-0.0009353640489280224,0.002440576208755374,-2.3597236577188596e-05,4.5232671254780143e-05,0.0017066659638658166,-0.1348104029893875,-0.7476531267166138,-0.6559359431266785,-0.5618869066238403,-0.08405858278274536,-0.015521012246608734
1749032080.8996737,-1.947101895009176,-1.7304722271361292,2.576606098805563,-3.8254314861693324,-1.140353027974264,-5.271612111722128,5.927291567786597e-05,-0.0009145603980869055,0.001826647436246276,-3.908658072759863e-06,4.3068273953394964e-05,0.007100626826286316,-0.1614837348461151,-0.7370771169662476,-0.6534914970397949,-0.5370541214942932,-0.05836766958236694,-0.005225334316492081
1749032080.9016767,-1.947101895009176,-1.7304722271361292,2.576606098805563,-3.8254314861693324,-1.140353027974264,-5.271612111722128,5.927291567786597e-05,-0.0009145603980869055,0.001826647436246276,-3.908658072759863e-06,4.3068273953394964e-05,0.007100626826286316,-0.1614837348461151,-0.7370771169662476,-0.6534914970397949,-0.5370541214942932,-0.05836766958236694,-0.005225334316492081
1749032080.9422705,-1.9471090475665491,-1.7304722271361292,2.576618258153097,-3.825411459008688,-1.1403291861163538,-5.2715917269336146,5.7999739510705695e-05,-0.0008020250243134797,0.0013308096677064896,-6.9070080144229e-07,4.937676931149326e-05,0.00927517656236887,-0.1734929382801056,-0.7271972894668579,-0.6613659262657166,-0.5235493779182434,-0.04288582503795624,-0.01658134162425995
1749032080.9423168,-1.9470966498004358,-1.73051180462026,2.5766025225268763,-3.8253962002196253,-1.1403716246234339,-5.2715917269336146,-3.536427902872674e-05,-0.0008119590929709375,0.0010266999015584588,-1.2205408950194396e-07,5.922797572566196e-05,0.011822961270809174,-0.16993269324302673,-0.7188193798065186,-0.6779137253761292,-0.5011841654777527,-0.024461902678012848,0.011320685967803001
1749032080.942356,-1.9470894972430628,-1.7304836712279261,2.5766218344317835,-3.825419088403219,-1.140364948903219,-5.271567408238546,-6.440652214223519e-05,-0.0007305199396796525,0.0008347508264705539,-2.1568236974189858e-08,7.139718945836648e-05,0.013225849717855453,-0.18364062905311584,-0.7074384689331055,-0.6624965071678162,-0.4837776720523834,-0.018071457743644714,0.019381966441869736
1749032080.9423938,-1.9470980803119105,-1.7304874859251917,2.576606098805563,-3.8254033527769984,-1.140353027974264,-5.271540109311239,-8.463577250950038e-05,-0.0005830807494930923,0.0007036422612145543,0.0015922988532111049,0.00011693247506627813,0.015084177255630493,-0.19607865810394287,-0.7002212405204773,-0.6788327097892761,-0.4774385392665863,0.0012942999601364136,0.02389509603381157
1749032080.9424367,-1.9471195379840296,-1.7304889164366664,2.576590601597921,-3.825407167474264,-1.1403325239764612,-5.271515790616171,-0.00010530896543059498,-0.0005313806468620896,0.0006082034087739885,0.002790248254314065,0.0002102786529576406,0.016706043854355812,-0.19515857100486755,-0.70102858543396,-0.6844227313995361,-0.5016492009162903,0.015251442790031433,0.024022826924920082
1749032080.9424748,-1.947136704121725,-1.7304803333678187,2.576637570058004,-3.8253876171507777,-1.1403287092791956,-5.271498982106344,-0.0011540257837623358,-0.0004900103085674345,0.0005355740431696177,0.0031494793947786093,0.0020513928029686213,0.019064167514443398,-0.20386508107185364,-0.6837687492370605,-0.6891978979110718,-0.4647931158542633,0.026201143860816956,0.02158062532544136
1749032080.9425123,-1.9470980803119105,-1.7305189571776332,2.5766096750842493,-3.8253795109190882,-1.1403616110431116,-5.271431628857748,-0.00181037955917418,-0.00042403722181916237,0.0004324855108279735,0.0045105768367648125,0.004800335969775915,0.01918385550379753,-0.22253334522247314,-0.6566754579544067,-0.7031643986701965,-0.4341077208518982,0.0349908322095871,0.034762218594551086
1749032080.9425492,-1.9470980803119105,-1.7305189571776332,2.5766096750842493,-3.8253795109190882,-1.1403616110431116,-5.271431628857748,-0.00181037955917418,-0.00042403722181916237,0.0004324855108279735,0.0045105768367648125,0.004800335969775915,0.01918385550379753,-0.22253334522247314,-0.6566754579544067,-0.7031643986701965,-0.4341077208518982,0.0349908322095871,0.034762218594551086
1749032080.9425907,-1.9470980803119105,-1.730553766290182,2.5766146818744105,-3.8253637752928675,-1.1403120199786585,-5.271419350300924,-0.0017716893926262856,-0.00016151914314832538,0.00039449564064852893,0.006138521712273359,0.006746913306415081,0.019723009318113327,-0.21998462080955505,-0.6263291835784912,-0.7114489078521729,-0.4439876079559326,0.05807538330554962,0.025482553988695145
1749032080.9426281,-1.947113339100973,-1.7305156193175257,2.5766096750842493,-3.8253399334349574,-1.1403425375567835,-5.271395270024435,-0.0019125193357467651,-7.812865806045011e-05,0.0003626902762334794,0.007534247823059559,0.007756232749670744,0.01930118165910244,-0.22166261076927185,-0.6262192130088806,-0.7207383513450623,-0.41822463274002075,0.060861557722091675,0.025014590471982956
1749032080.9426646,-1.94714862505068,-1.7304722271361292,2.576583210621969,-3.825343748132223,-1.140289608632223,-5.271355811749594,-0.0019895301666110754,-2.2258363969740458e-06,0.00027767615392804146,0.007950892671942711,0.008491605520248413,0.019606441259384155,-0.2599877417087555,-0.6206380724906921,-0.7364389300346375,-0.4288368821144104,0.08864115178585052,0.07030200958251953
1749032080.9427013,-1.9471262137042444,-1.7305036983885707,2.576625649129049,-3.825284620324606,-1.1403000990497034,-5.271328155194418,-0.002740808529779315,-2.1716610731914443e-08,0.00025043377536349,0.009041333571076393,0.0098393140360713,0.02198762260377407,-0.2456406056880951,-0.5933139324188232,-0.7562572360038757,-0.41262948513031006,0.08819125592708588,0.05620928108692169
1749032080.9427419,-1.9471171537982386,-1.7305036983885707,2.5766025225268763,-3.8252836666502894,-1.1402247587787073,-5.271250788365499,-0.0035240487195551395,0.001987152500078082,0.00016642989066895097,0.011295384727418423,0.013624009676277637,0.024458276107907295,-0.2738787829875946,-0.5934079885482788,-0.7735376358032227,-0.38458573818206787,0.10551668703556061,0.10374529659748077
1749032080.942779,-1.9471171537982386,-1.7305036983885707,2.5766025225268763,-3.8252836666502894,-1.1402247587787073,-5.271250788365499,-0.0035240487195551395,0.001987152500078082,0.00016642989066895097,0.011295384727418423,0.013624009676277637,0.024458276107907295,-0.2738787829875946,-0.5934079885482788,-0.7735376358032227,-0.38458573818206787,0.10551668703556061,0.10374529659748077
1749032080.9428155,-1.947153393422262,-1.7304688892760218,2.5766096750842493,-3.825271268884176,-1.1402161757098597,-5.271254364644186,-0.0042314426973462105,0.0018425991293042898,-0.00014221757010091096,0.0121615557000041,0.0148078054189682,0.02556062862277031,-0.26626062393188477,-0.5789864659309387,-0.7975775599479675,-0.3969060182571411,0.0938531905412674,0.08812770992517471
1749032080.9428537,-1.9471452871905726,-1.730452676812643,2.576606098805563,-3.825228353539938,-1.1401856581317347,-5.271190826092855,-0.005155080463737249,0.0016575109912082553,-0.00023854567552916706,0.012521108612418175,0.015746520832180977,0.027120014652609825,-0.2632058262825012,-0.5551370978355408,-0.8061694502830505,-0.38469216227531433,0.09487007558345795,0.10041824728250504
1749032080.942894,-1.9471343199359339,-1.7304722271361292,2.576606098805563,-3.8252273998656214,-1.1401031653033655,-5.27116305032839,-0.005552020855247974,0.001529628993012011,-0.0012878787238150835,0.012708495371043682,0.016437169164419174,0.029716014862060547,-0.25650715827941895,-0.5694590210914612,-0.8120940923690796,-0.3870437443256378,0.08959119021892548,0.1289806067943573
1749032080.9429317,-1.9471734205829065,-1.7304836712279261,2.5765941778766077,-3.8251477680602015,-1.1400964895831507,-5.271046582852499,-0.006511172279715538,0.002260933630168438,-0.002095849486067891,0.012915831059217453,0.014817248098552227,0.03528672084212303,-0.29534202814102173,-0.5272848606109619,-0.8364633917808533,-0.3784100115299225,0.10425002872943878,0.12218056619167328
1749032080.9429684,-1.9471734205829065,-1.7304836712279261,2.5765941778766077,-3.8251477680602015,-1.1400964895831507,-5.271046582852499,-0.006511172279715538,0.002260933630168438,-0.002095849486067891,0.012915831059217453,0.014817248098552227,0.03528672084212303,-0.29534202814102173,-0.5272848606109619,-0.8364633917808533,-0.3784100115299225,0.10425002872943878,0.12218056619167328
1749032080.9430048,-1.9472010771380823,-1.7304946384825648,2.5765941778766077,-3.8251048527159632,-1.140075985585348,-5.270982329045431,-0.008051133714616299,0.003675981890410185,-0.002064985455945134,0.013072248548269272,0.01483622845262289,0.03784462809562683,-0.2804097533226013,-0.5221988558769226,-0.8593187928199768,-0.3708571791648865,0.09390445053577423,0.13664135336875916
1749032080.9436731,-1.9471772352801722,-1.730448385278219,2.5765941778766077,-3.8250962696471156,-1.140036408101217,-5.270941559468405,-0.007775291334837675,0.004116123076528311,-0.0021326339337974787,0.013525016605854034,0.015187046490609646,0.0397772453725338,-0.2879142463207245,-0.523987889289856,-0.8833316564559937,-0.37276312708854675,0.08922253549098969,0.15931211411952972
1749032080.9456453,-1.94720966020693,-1.730448385278219,2.5765822569476526,-3.8250957928099574,-1.1400159041034144,-5.2708380858050745,-0.00752666313201189,0.004219553899019957,-0.002506184158846736,0.013836494646966457,0.01498071476817131,0.04172661155462265,-0.2980625331401825,-0.5160494446754456,-0.8821707963943481,-0.34239131212234497,0.12827782332897186,0.15970978140830994
1749032080.9862587,-1.9472563902484339,-1.7304359875121058,2.576578680668966,-3.8250400028624476,-1.1399462858783167,-5.270734731351034,-0.007930207997560501,0.004247789736837149,-0.0035800118930637836,0.013838744722306728,0.015179280191659927,0.04439982771873474,-0.2913249135017395,-0.49740976095199585,-0.9052739143371582,-0.3310176134109497,0.13019819557666779,0.14773350954055786
1749032080.9863048,-1.9472649733172815,-1.7304521999754847,2.576578680668966,-3.825012346307272,-1.1399801413165491,-5.270653788243429,-0.009167428128421307,0.005093919113278389,-0.004726721905171871,0.014268724247813225,0.01637757010757923,0.047027841210365295,-0.3082770109176636,-0.4678381085395813,-0.9013550281524658,-0.3216729760169983,0.12260116636753082,0.1757795214653015
1749032080.9863496,-1.9472768942462366,-1.7304049930968226,2.5765822569476526,-3.8249956570067347,-1.1399081389056605,-5.270554367695944,-0.009638635441660881,0.005612791050225496,-0.005917949136346579,0.014784649945795536,0.01688741147518158,0.04901810362935066,-0.30207476019859314,-0.49206387996673584,-0.904855489730835,-0.29319971799850464,0.11882390081882477,0.16961146891117096
1749032080.986388,-1.9473126570331019,-1.7304231129088343,2.5765343348132532,-3.824916978875631,-1.1398347059832972,-5.27032190958132,-0.011085694655776024,0.00691230921074748,-0.006439405959099531,0.01888289861381054,0.018198678269982338,0.05442056432366371,-0.3029163181781769,-0.4575633406639099,-0.91727614402771,-0.30415165424346924,0.1692025512456894,0.1872044950723648
1749032080.9864256,-1.9473126570331019,-1.7304231129088343,2.5765343348132532,-3.824916978875631,-1.1398347059832972,-5.27032190958132,-0.011085694655776024,0.00691230921074748,-0.006439405959099531,0.01888289861381054,0.018198678269982338,0.05442056432366371,-0.3029163181781769,-0.4575633406639099,-0.91727614402771,-0.30415165424346924,0.1692025512456894,0.1872044950723648
1749032080.9864635,-1.9474061171161097,-1.7303759060301722,2.576549832020895,-3.8248492679991664,-1.1397798697101038,-5.2701943556415,-0.011348905973136425,0.007041695062071085,-0.006792852189391851,0.020200157538056374,0.01959085464477539,0.057303741574287415,-0.2870291471481323,-0.46565788984298706,-0.9140942692756653,-0.3180956244468689,0.16013102233409882,0.18891561031341553
1749032080.9865012,-1.9473345915423792,-1.7303921184935511,2.5765343348132532,-3.824836393395895,-1.139759365712301,-5.270046416913168,-0.011096918024122715,0.007426343392580748,-0.007647986523807049,0.020468859001994133,0.020120620727539062,0.059244949370622635,-0.273959219455719,-0.4486887454986572,-0.9172434210777283,-0.304976224899292,0.16855783760547638,0.19312874972820282
1749032080.986538,-1.9473851362811487,-1.7303368053831996,2.576510254536764,-3.824784894982809,-1.1397765318499964,-5.269941512738363,-0.01152773667126894,0.007714459206908941,-0.009047277271747589,0.020749960094690323,0.021622518077492714,0.06108720228075981,-0.28987687826156616,-0.467701256275177,-0.9299750924110413,-0.28702977299690247,0.18143898248672485,0.17496296763420105
1749032080.986575,-1.9474414030658167,-1.7303558788695277,2.576458756123678,-3.8247128925719203,-1.1396310965167444,-5.269699517880575,-0.011739199981093407,0.007867024280130863,-0.009135870262980461,0.022622469812631607,0.022473977878689766,0.0631667971611023,-0.2628786563873291,-0.4081811010837555,-0.9375842213630676,-0.2922212481498718,0.18934950232505798,0.19206537306308746
1749032080.9866123,-1.9474414030658167,-1.7303558788695277,2.576458756123678,-3.8247128925719203,-1.1396310965167444,-5.269699517880575,-0.011739199981093407,0.007867024280130863,-0.009135870262980461,0.022622469812631607,0.022473977878689766,0.0631667971611023,-0.2628786563873291,-0.4081811010837555,-0.9375842213630676,-0.2922212481498718,0.18934950232505798,0.19206537306308746
1749032080.9866495,-1.9474447409259241,-1.7303630314269007,2.5764384905444544,-3.824648996392721,-1.1396239439593714,-5.269572321568624,-0.012562928721308708,0.009316161274909973,-0.01082000881433487,0.023054296150803566,0.024664174765348434,0.06493719667196274,-0.2771948277950287,-0.40154871344566345,-0.9372946619987488,-0.2788337767124176,0.18803036212921143,0.18420588970184326
1749032080.9866862,-1.94749623933901,-1.7303201160826625,2.5764384905444544,-3.824620386163229,-1.1395781675921839,-5.269439880047933,-0.012137729674577713,0.009001635946333408,-0.01072247326374054,0.024090837687253952,0.02493450976908207,0.06844651699066162,-0.279281884431839,-0.4178612530231476,-0.9298437833786011,-0.256265252828598,0.2180701196193695,0.18497641384601593
1749032080.986724,-1.94749623933901,-1.7303201160826625,2.5764384905444544,-3.824620386163229,-1.1395781675921839,-5.269439880047933,-0.012137729674577713,0.009001635946333408,-0.01072247326374054,0.024090837687253952,0.02493450976908207,0.06844651699066162,-0.279281884431839,-0.4178612530231476,-0.9298437833786011,-0.256265252828598,0.2180701196193695,0.18497641384601593
1749032080.9867604,-1.9475181738482874,-1.7302772007384242,2.57640248933901,-3.8245088062682093,-1.1394513289081019,-5.269135061894552,-0.012289012782275677,0.00941014289855957,-0.011312207207083702,0.02626880072057247,0.028479458764195442,0.06976193934679031,-0.29456213116645813,-0.380771666765213,-0.9487830996513367,-0.2639118432998657,0.19958919286727905,0.17000332474708557
1749032080.9867969,-1.9474909941302698,-1.7302404842772425,2.5763590971576136,-3.8244453869261683,-1.1393912474261683,-5.268987242375509,-0.012675102800130844,0.01008443534374237,-0.011289848014712334,0.027164699509739876,0.03029537945985794,0.07136764377355576,-0.3011915981769562,-0.3583936393260956,-0.9636878371238708,-0.22782069444656372,0.21442338824272156,0.1911412924528122
1749032080.9868329,-1.947568718587057,-1.7302442989745082,2.5763469378100794,-3.824404378930563,-1.1393163839923304,-5.268868867550985,-0.012685991823673248,0.010165109299123287,-0.011846169829368591,0.028964759781956673,0.031145252287387848,0.07318688184022903,-0.29193758964538574,-0.373639315366745,-0.9621842503547668,-0.24870780110359192,0.20958028733730316,0.19545279443264008
1749032080.986869,-1.9476836363421839,-1.7302047214903773,2.57631498972048,-3.8242770634093226,-1.1391962210284632,-5.268510762845175,-0.013265381567180157,0.010267216712236404,-0.011091293767094612,0.030978024005889893,0.03301502764225006,0.07947824150323868,-0.29821693897247314,-0.35558420419692993,-0.9854506254196167,-0.23506872355937958,0.21358676254749298,0.16438084840774536
1749032080.9869053,-1.9476836363421839,-1.7302047214903773,2.57631498972048,-3.8242770634093226,-1.1391962210284632,-5.268510762845175,-0.013265381567180157,0.010267216712236404,-0.011091293767094612,0.030978024005889893,0.03301502764225006,0.07947824150323868,-0.29821693897247314,-0.35558420419692993,-0.9854506254196167,-0.23506872355937958,0.21358676254749298,0.16438084840774536
1749032080.9869409,-1.9476764837848108,-1.730215688745016,2.5762630144702356,-3.8242246113219203,-1.1391280333148401,-5.268369499837057,-0.012501893565058708,0.010078327730298042,-0.011977050453424454,0.031393155455589294,0.03409915789961815,0.08006381243467331,-0.28591036796569824,-0.3612580895423889,-0.9581312537193298,-0.2306714802980423,0.22333458065986633,0.17149686813354492
1749032080.9869769,-1.9477041403399866,-1.7301794491209925,2.5762861410724085,-3.824129720727438,-1.139071289693014,-5.268243018780844,-0.012656503356993198,0.011310644447803497,-0.012228604406118393,0.033243920654058456,0.03456849977374077,0.07874348014593124,-0.26919370889663696,-0.3522503972053528,-0.9807748198509216,-0.2302664965391159,0.24286970496177673,0.20642852783203125
1749032080.987694,-1.947693173085348,-1.7301293812193812,2.576250139866964,-3.824066778222555,-1.1390445868121546,-5.268086616192953,-0.012194303795695305,0.012417854741215706,-0.011831349693238735,0.034729328006505966,0.03556085750460625,0.08032961934804916,-0.288001149892807,-0.36087220907211304,-0.9773018956184387,-0.19964885711669922,0.2276623398065567,0.20457446575164795
1749032080.989638,-1.9477604071246546,-1.730112215081686,2.576218907033102,-3.824001451531881,-1.1389640013324183,-5.2678919474231165,-0.011538960970938206,0.011567899957299232,-0.011773462407290936,0.03690103814005852,0.03839625045657158,0.0829823911190033,-0.2975005507469177,-0.34131717681884766,-0.9841368198394775,-0.2402627021074295,0.24446497857570648,0.2142234444618225
1749032081.0302584,-1.9477875868426722,-1.7301002941527308,2.576203171406881,-3.823902269402975,-1.1388524214373987,-5.2677112261401575,-0.011606208048760891,0.012329891324043274,-0.012194385752081871,0.03798742964863777,0.03847148269414902,0.08558952808380127,-0.27755671739578247,-0.3384036421775818,-0.9943171143531799,-0.21218040585517883,0.24631711840629578,0.220595121383667
1749032081.0303044,-1.9477651754962366,-1.7300764522948207,2.5761709848987024,-3.8238426647581996,-1.1387999693499964,-5.267527286206381,-0.011694248765707016,0.012937961146235466,-0.012784874066710472,0.03937594220042229,0.038424037396907806,0.08701267838478088,-0.28038185834884644,-0.32536840438842773,-0.9777573347091675,-0.23481157422065735,0.23871763050556183,0.22331352531909943
1749032081.0303473,-1.9478166739093226,-1.7300368748106898,2.5761471430407923,-3.8237773380675257,-1.1387642065631312,-5.267330710087911,-0.01265794225037098,0.012011735700070858,-0.01243449468165636,0.039553046226501465,0.03825584426522255,0.08906196057796478,-0.2638847529888153,-0.3268604278564453,-0.9949603080749512,-0.21188031136989594,0.24934299290180206,0.19579288363456726
1749032081.0303864,-1.947806183491842,-1.7300130329527796,2.576134983693258,-3.8236896000304164,-1.138618294392721,-5.267173115407125,-0.011541871353983879,0.01191097404807806,-0.012938150204718113,0.03917314112186432,0.03812619298696518,0.09044665843248367,-0.3123278319835663,-0.3320649266242981,-1.0108156204223633,-0.23721304535865784,0.28011783957481384,0.21820497512817383
1749032081.0304248,-1.9478371779071253,-1.730004449883932,2.5761073271380823,-3.8236056766905726,-1.1385496298419397,-5.266973916684286,-0.011865257285535336,0.011677529662847519,-0.013031324371695518,0.039536383002996445,0.03931957110762596,0.09261999279260635,-0.2979254424571991,-0.3501550555229187,-0.994350016117096,-0.2075451910495758,0.29828664660453796,0.20972281694412231
1749032081.0304673,-1.9478958288775843,-1.7299963436522425,2.576090637837545,-3.8234874210753382,-1.1384852568255823,-5.266780797635214,-0.01218687929213047,0.011886467225849628,-0.013735469430685043,0.0416819229722023,0.04206652194261551,0.09496857970952988,-0.26500603556632996,-0.3101978302001953,-1.0068494081497192,-0.2097790539264679,0.28311145305633545,0.21005937457084656
1749032081.0305057,-1.947916332875387,-1.7299372158446253,2.5760632197009485,-3.8234416447081507,-1.138421360646383,-5.266576353703634,-0.012135054916143417,0.011266356334090233,-0.013660218566656113,0.04409030079841614,0.04379184544086456,0.09722080081701279,-0.29018059372901917,-0.32392242550849915,-1.0107409954071045,-0.22485242784023285,0.28878313302993774,0.2182505577802658
1749032081.0305433,-1.947928253804342,-1.7299324474730433,2.576054636632101,-3.82334627727651,-1.1383259932147425,-5.266399447117941,-0.012330745346844196,0.011624688282608986,-0.013892046175897121,0.045264583081007004,0.04362421855330467,0.09948834031820297,-0.28673624992370605,-0.299757182598114,-1.013179063796997,-0.23493605852127075,0.30339738726615906,0.22965207695960999
1749032081.0305798,-1.9479644934283655,-1.7299243412413539,2.5760307947741907,-3.8232342205443324,-1.1382387320147913,-5.266187612210409,-0.012192880734801292,0.011668090708553791,-0.01389258075505495,0.04593706503510475,0.04484519362449646,0.10166770964860916,-0.24457299709320068,-0.30733925104141235,-1.0255472660064697,-0.24368880689144135,0.2918674945831299,0.2174960821866989
1749032081.0306163,-1.9479811827289026,-1.729884763757223,2.5759597460376185,-3.8231312237181605,-1.1381548086749476,-5.265970889722006,-0.012020960450172424,0.012799964286386967,-0.014752895571291447,0.04662066698074341,0.047794241458177567,0.10432066768407822,-0.28412994742393494,-0.309323787689209,-1.041674256324768,-0.2383466362953186,0.2856156826019287,0.21216748654842377
1749032081.030655,-1.9480517546283167,-1.72984041790151,2.5759432951556605,-3.822970529595846,-1.1379511992083948,-5.265584413205282,-0.01261927466839552,0.012445793487131596,-0.015827098861336708,0.04833439737558365,0.04832479730248451,0.10863259434700012,-0.29422226548194885,-0.3332551419734955,-1.020155668258667,-0.253190815448761,0.2914040684700012,0.21699465811252594
1749032081.030692,-1.9480517546283167,-1.72984041790151,2.5759432951556605,-3.822970529595846,-1.1379511992083948,-5.265584413205282,-0.01261927466839552,0.012445793487131596,-0.015827098861336708,0.04833439737558365,0.04832479730248451,0.10863259434700012,-0.29422226548194885,-0.3332551419734955,-1.020155668258667,-0.253190815448761,0.2914040684700012,0.21699465811252594
1749032081.0307283,-1.9480374495135706,-1.7298160992064417,2.575914446507589,-3.822843214074606,-1.1378606001483362,-5.265312496815817,-0.011641894467175007,0.011599014513194561,-0.015487085096538067,0.0479736290872097,0.04744298383593559,0.11413455009460449,-0.3026033639907837,-0.30023670196533203,-1.0416018962860107,-0.2644721567630768,0.30558139085769653,0.1968977153301239
1749032081.0307658,-1.9480426947223108,-1.7297736606993617,2.575871292744772,-3.822766443292135,-1.1378124395953577,-5.2651148478137415,-0.011658862233161926,0.011404660530388355,-0.015926556661725044,0.048570774495601654,0.047176897525787354,0.11307612806558609,-0.2939331829547882,-0.2885436415672302,-1.038099765777588,-0.2565060257911682,0.33533403277397156,0.18695738911628723
1749032081.030803,-1.9481032530414026,-1.7297846279540003,2.5758629480945032,-3.822639604608053,-1.1376670042621058,-5.264839593564169,-0.01245406549423933,0.012051016092300415,-0.01576385833323002,0.04905981197953224,0.049252308905124664,0.11130508780479431,-0.2972719073295593,-0.278828501701355,-1.0380812883377075,-0.25542348623275757,0.31962287425994873,0.18923784792423248
1749032081.0308402,-1.9481356779681605,-1.729776998559469,2.575799290333883,-3.8225518665709437,-1.137571159993307,-5.2646382490741175,-0.011973279528319836,0.012025943025946617,-0.01625647209584713,0.04895380884408951,0.05142337083816528,0.11054354161024094,-0.2950374186038971,-0.26490360498428345,-1.0443195104599,-0.258116751909256,0.29858505725860596,0.19939516484737396
1749032081.0308769,-1.94812518755068,-1.7297564945616664,2.5757558981524866,-3.822463651696676,-1.1374686400042933,-5.264420215283529,-0.01261561457067728,0.01283287163823843,-0.016483277082443237,0.048839204013347626,0.051963914185762405,0.11388952285051346,-0.3053998351097107,-0.29311779141426086,-1.0615051984786987,-0.27086174488067627,0.29239773750305176,0.19303588569164276
1749032081.030914,-1.9481843153582972,-1.7296925983824671,2.575747553502218,-3.8223797283568324,-1.1373522917376917,-5.264179770146505,-0.012379349209368229,0.013100188225507736,-0.016873091459274292,0.04875950887799263,0.05180865153670311,0.11227259039878845,-0.2911038398742676,-0.2672068476676941,-1.0398820638656616,-0.2691524028778076,0.2939082980155945,0.19095826148986816
1749032081.030951,-1.948170010243551,-1.729680677453512,2.575707022343771,-3.8223029575743617,-1.1372597853290003,-5.263959352170126,-0.013240492902696133,0.012603605166077614,-0.017621785402297974,0.048392295837402344,0.051600489765405655,0.11094862222671509,-0.31208401918411255,-0.2799999415874481,-1.0422674417495728,-0.2760157883167267,0.31290361285209656,0.20450392365455627
1749032081.0309875,-1.9482243696795862,-1.7296482525267542,2.5756755510913294,-3.8221756420531214,-1.1371730009662073,-5.263726894055502,-0.013058374635875225,0.013028841465711594,-0.016676997765898705,0.04830849543213844,0.05122370272874832,0.11167539656162262,-0.2798621356487274,-0.2911228835582733,-1.0469956398010254,-0.27431488037109375,0.2990153729915619,0.2078797072172165
1749032081.0317345,-1.9482138792621058,-1.7296205959715785,2.5756076017962855,-3.821980138818258,-1.1369383970843714,-5.263262812291281,-0.013515663333237171,0.013121473602950573,-0.017056554555892944,0.0463252030313015,0.051891326904296875,0.11246448010206223,-0.29321107268333435,-0.2550954222679138,-1.061179280281067,-0.2493937909603119,0.30091866850852966,0.19670014083385468
1749032081.0337036,-1.9482138792621058,-1.7296205959715785,2.5756076017962855,-3.821980138818258,-1.1369383970843714,-5.263262812291281,-0.013515663333237171,0.013121473602950573,-0.017056554555892944,0.0463252030313015,0.051891326904296875,0.11246448010206223,-0.29321107268333435,-0.2550954222679138,-1.061179280281067,-0.2493937909603119,0.30091866850852966,0.19670014083385468
1749032081.0782938,-1.9483001867877405,-1.7295881710448207,2.575583521519796,-3.821888109246725,-1.13684589067568,-5.263033692036764,-0.01316999364644289,0.01275673508644104,-0.017617179080843925,0.04599739611148834,0.051483139395713806,0.1116417646408081,-0.3047132194042206,-0.24897456169128418,-1.0653176307678223,-0.2608194947242737,0.30343711376190186,0.20787261426448822
1749032081.0783398,-1.948296372090475,-1.7295767269530238,2.575524632130758,-3.821815629998678,-1.1367571989642542,-5.262832347546713,-0.013468255288898945,0.013288411311805248,-0.01776481606066227,0.04523545503616333,0.050616174936294556,0.11004719138145447,-0.2983119785785675,-0.2481551170349121,-1.0472900867462158,-0.26019665598869324,0.2971925139427185,0.22703875601291656
1749032081.07838,-1.9483793417560022,-1.7295056782164515,2.57554275194277,-3.821688314477438,-1.1366460959063929,-5.262600247059957,-0.013497496955096722,0.01302205678075552,-0.017444109544157982,0.04519719257950783,0.05079604685306549,0.11250916868448257,-0.3095843195915222,-0.23966415226459503,-1.0592643022537231,-0.2428697645664215,0.3138974606990814,0.21979281306266785
1749032081.0784192,-1.9483965078936976,-1.7295166454710902,2.5754480997668665,-3.8215276203551234,-1.1364849249469202,-5.262154285107748,-0.013632730580866337,0.013686763122677803,-0.017253372818231583,0.04580042138695717,0.05057822912931442,0.110865019261837,-0.319319486618042,-0.24147740006446838,-1.0738521814346313,-0.24319812655448914,0.3167167603969574,0.23820734024047852
1749032081.0784566,-1.9483965078936976,-1.7295166454710902,2.5754480997668665,-3.8215276203551234,-1.1364849249469202,-5.262154285107748,-0.013632730580866337,0.013686763122677803,-0.017253372818231583,0.04580042138695717,0.05057822912931442,0.110865019261837,-0.319319486618042,-0.24147740006446838,-1.0738521814346313,-0.24319812655448914,0.3167167603969574,0.23820734024047852
1749032081.0784945,-1.9484284559832972,-1.7294732532896937,2.5754156748401087,-3.8214127025999964,-1.1363690535174769,-5.261950556431906,-0.014324696734547615,0.013741609640419483,-0.017408881336450577,0.044847968965768814,0.050519783049821854,0.11113070696592331,-0.2939766049385071,-0.262818843126297,-1.0740879774093628,-0.24375875294208527,0.32006850838661194,0.2332424521446228
1749032081.078532,-1.9484408537494105,-1.729440828362936,2.5753758589373987,-3.8213449917235316,-1.136247460042135,-5.261709753667013,-0.014188827946782112,0.014175599440932274,-0.018145982176065445,0.04324623942375183,0.05081753060221672,0.11512251198291779,-0.2803817689418793,-0.2554282248020172,-1.0598894357681274,-0.2336900234222412,0.3016255795955658,0.23953552544116974
1749032081.0785694,-1.9484804312335413,-1.7294169865050257,2.57534367242922,-3.8212648830809535,-1.1361549536334437,-5.261449400578634,-0.014431759715080261,0.013351439498364925,-0.01803593337535858,0.04314737021923065,0.049847785383462906,0.11575079709291458,-0.28378620743751526,-0.21817907691001892,-1.061916708946228,-0.21667464077472687,0.33389195799827576,0.21039389073848724
1749032081.0786066,-1.948561970387594,-1.7294208012022914,2.5752883593188685,-3.821177145043844,-1.1360400358783167,-5.261264268551962,-0.014187906868755817,0.014006756246089935,-0.017803607508540154,0.04429033398628235,0.050272904336452484,0.11388661712408066,-0.3060968220233917,-0.25327157974243164,-1.0777045488357544,-0.21931874752044678,0.3143637478351593,0.23225072026252747
1749032081.078643,-1.9485366980182093,-1.7293654880919398,2.575268093739645,-3.821108480493063,-1.1359723250018519,-5.260995809231893,-0.014438311569392681,0.013740035705268383,-0.017744822427630424,0.04574137553572655,0.0503120981156826,0.11619044840335846,-0.3134317398071289,-0.22069738805294037,-1.089848279953003,-0.2113809883594513,0.323097288608551,0.21224576234817505
1749032081.0786798,-1.9485724608050745,-1.7293297253050746,2.5752514044391077,-3.8210092983641566,-1.135855499898092,-5.26077908674349,-0.014782244339585304,0.014581101015210152,-0.017838401719927788,0.04586787149310112,0.05144484341144562,0.11622286587953568,-0.29323962330818176,-0.22662365436553955,-1.0712276697158813,-0.21973645687103271,0.3293597400188446,0.25546079874038696
1749032081.0787165,-1.9486120382892054,-1.7292701206602992,2.5751288572894495,-3.820836206475729,-1.1357138792621058,-5.26028556028475,-0.015763668343424797,0.014743546023964882,-0.01845778152346611,0.048000726848840714,0.05241461843252182,0.11797287315130234,-0.3263366222381592,-0.2261686623096466,-1.065085768699646,-0.19966623187065125,0.31116998195648193,0.22736117243766785
1749032081.078753,-1.9486120382892054,-1.7292701206602992,2.5751288572894495,-3.820836206475729,-1.1357138792621058,-5.26028556028475,-0.015763668343424797,0.014743546023964882,-0.01845778152346611,0.048000726848840714,0.05241461843252182,0.11797287315130234,-0.3263366222381592,-0.2261686623096466,-1.065085768699646,-0.19966623187065125,0.31116998195648193,0.22736117243766785
1749032081.0787892,-1.9486635367022913,-1.7292610607542933,2.575108591710226,-3.820728441277975,-1.1355369726764124,-5.26004130045046,-0.01664814166724682,0.014176108874380589,-0.01832890696823597,0.04964277520775795,0.05325981602072716,0.1178133562207222,-0.32429906725883484,-0.20364785194396973,-1.0666691064834595,-0.21398451924324036,0.3092877268791199,0.24037009477615356
1749032081.0788255,-1.9486802260028284,-1.7292248211302699,2.575076405202047,-3.8206359348692835,-1.1354482809649866,-5.259792153035299,-0.016840379685163498,0.01471482403576374,-0.018835386261343956,0.04963821545243263,0.053396280854940414,0.11850222200155258,-0.3164862096309662,-0.2071719765663147,-1.0751293897628784,-0.20318885147571564,0.3110962510108948,0.24646230041980743
1749032081.0788615,-1.948669735585348,-1.729213377038473,2.575040403996603,-3.820505281487936,-1.1352976004229944,-5.2596134583102625,-0.016396481543779373,0.014743710868060589,-0.018717318773269653,0.0485018752515316,0.05364313721656799,0.11896268278360367,-0.2992703318595886,-0.20820951461791992,-1.0749223232269287,-0.18783549964427948,0.28699588775634766,0.23448467254638672
1749032081.078898,-1.9487560431109827,-1.7291580639281214,2.5750234762774866,-3.820428510705465,-1.1352723280536097,-5.259330813084738,-0.016755297780036926,0.01550301443785429,-0.01883728615939617,0.04779430106282234,0.05313107371330261,0.12019032984972,-0.31419920921325684,-0.22206330299377441,-1.0735044479370117,-0.18515288829803467,0.3128312826156616,0.24790595471858978
1749032081.0789354,-1.9488194624530237,-1.7291413746275843,2.574984137211935,-3.820341249505514,-1.135129753743307,-5.259109322224752,-0.01635175570845604,0.015614010393619537,-0.018874920904636383,0.04912834241986275,0.052798252552747726,0.12122070789337158,-0.30777305364608765,-0.21005567908287048,-1.0673199892044067,-0.18046793341636658,0.2898494005203247,0.23264247179031372
1749032081.0789714,-1.9487627188311976,-1.7291246853270472,2.574963633214132,-3.8202296696104945,-1.135033909474508,-5.258899633084432,-0.016908200457692146,0.015624776482582092,-0.01847265474498272,0.05168669670820236,0.05277375504374504,0.12245772778987885,-0.32674986124038696,-0.2113400101661682,-1.0885010957717896,-0.1695321798324585,0.3214879035949707,0.2551659345626831
1749032081.0790076,-1.9488485495196741,-1.729058404962057,2.574880663548605,-3.8201285801329554,-1.1348989645587366,-5.258577529584066,-0.01769701950252056,0.016299337148666382,-0.018810078501701355,0.05356954038143158,0.052681129425764084,0.12463799118995667,-0.330452024936676,-0.21153341233730316,-1.0933842658996582,-0.17387020587921143,0.3089727759361267,0.25445684790611267
1749032081.079044,-1.948888127003805,-1.7290803394713343,2.574864212666647,-3.8200136623778285,-1.1348379294024866,-5.258359495793478,-0.0182717964053154,0.016182979568839073,-0.018864581361413002,0.05529260262846947,0.05199483036994934,0.12618879973888397,-0.3009784519672394,-0.2207707017660141,-1.0915759801864624,-0.20213839411735535,0.33172643184661865,0.25595754384994507
1749032081.07908,-1.9489243666278284,-1.729014059106344,2.5747931639300745,-3.8198939762511195,-1.1347454229937952,-5.258047644292013,-0.01800401508808136,0.016585947945713997,-0.019038598984479904,0.05645402520895004,0.05195506289601326,0.1308564990758896,-0.295477956533432,-0.18006320297718048,-1.0824224948883057,-0.21101678907871246,0.33302369713783264,0.22517690062522888
1749032081.079653,-1.9489567915545862,-1.7289968929686488,2.574792210255758,-3.8197928867735804,-1.1346529165851038,-5.25781757036318,-0.017513344064354897,0.016414763405919075,-0.019277140498161316,0.05749194324016571,0.055039387196302414,0.1291719526052475,-0.3062143623828888,-0.21669629216194153,-1.0970091819763184,-0.21731996536254883,0.32435235381126404,0.2245241403579712
1749032081.0816765,-1.9489768187152308,-1.728933950463766,2.5747562090503138,-3.8196574650206507,-1.13452655473818,-5.2575841585742396,-0.01787463203072548,0.016494976356625557,-0.02004287764430046,0.058235421776771545,0.05627747252583504,0.12942783534526825,-0.31218570470809937,-0.19207537174224854,-1.0987575054168701,-0.2260257452726364,0.32917430996894836,0.22184066474437714
1749032081.1222892,-1.9490249792682093,-1.7289210758604945,2.5746963659869593,-3.8195463619627894,-1.1343796888934534,-5.257308904324667,-0.017901498824357986,0.01618351601064205,-0.020631851628422737,0.05883818492293358,0.055079225450754166,0.13511107861995697,-0.32092034816741943,-0.21230676770210266,-1.0949171781539917,-0.23705846071243286,0.32138633728027344,0.24913209676742554
1749032081.1223347,-1.9490564505206507,-1.7288581333556117,2.574660364781515,-3.8193875751891078,-1.1342714468585413,-5.257044021283285,-0.01799415610730648,0.01673773303627968,-0.020333539694547653,0.059258729219436646,0.05479256436228752,0.13330283761024475,-0.29561930894851685,-0.207029789686203,-1.0938352346420288,-0.21913191676139832,0.3516548275947571,0.23470428586006165
1749032081.122376,-1.9491007963763636,-1.7288533649840296,2.5746362845050257,-3.8193098507323207,-1.1341708342181605,-5.256767217312948,-0.018449803814291954,0.016812339425086975,-0.020194070413708687,0.060418639332056046,0.05558256059885025,0.13605815172195435,-0.3127950429916382,-0.1940898895263672,-1.1055816411972046,-0.25360924005508423,0.3405216634273529,0.23842968046665192
1749032081.1224146,-1.949167553578512,-1.7288295231261195,2.5746002832995813,-3.819174428979391,-1.1340249220477503,-5.2564900557147425,-0.01811814308166504,0.017011815682053566,-0.020113391801714897,0.06144115701317787,0.05642205476760864,0.13744792342185974,-0.2939389944076538,-0.20234552025794983,-1.1033598184585571,-0.24737237393856049,0.3484078645706177,0.2600344121456146
1749032081.122453,-1.9491952101336878,-1.728774210015768,2.5745485464679163,-3.8190390072264613,-1.1339052359210413,-5.256185714398519,-0.018421320244669914,0.017695151269435883,-0.020584555342793465,0.061721622943878174,0.057866472750902176,0.13955210149288177,-0.2907121181488037,-0.19152188301086426,-1.106115698814392,-0.25216639041900635,0.34074902534484863,0.24585913121700287
1749032081.1224916,-1.9491875807391565,-1.7287179432311,2.5744805971728724,-3.8188024959959925,-1.1337149778949183,-5.255647484456198,-0.018173664808273315,0.018072307109832764,-0.02242092788219452,0.06118020787835121,0.060653675347566605,0.14485210180282593,-0.32146167755126953,-0.1899143010377884,-1.0766468048095703,-0.28278109431266785,0.32747429609298706,0.1931142807006836
1749032081.1225288,-1.9491875807391565,-1.7287179432311,2.5744805971728724,-3.8188024959959925,-1.1337149778949183,-5.255647484456198,-0.018173664808273315,0.018072307109832764,-0.02242092788219452,0.06118020787835121,0.060653675347566605,0.14485210180282593,-0.32146167755126953,-0.1899143010377884,-1.0766468048095703,-0.28278109431266785,0.32747429609298706,0.1931142807006836
1749032081.1225657,-1.9493115584002894,-1.7286626301207484,2.574432436619894,-3.818686147729391,-1.133569065724508,-5.255355302487509,-0.01878250390291214,0.01846512034535408,-0.022269239649176598,0.06087120994925499,0.06036592647433281,0.1415603905916214,-0.3153684735298157,-0.186378613114357,-1.0903031826019287,-0.27241480350494385,0.34477174282073975,0.2539574205875397
1749032081.1226025,-1.9493163267718714,-1.728649755517477,2.57441217104067,-3.818559309045309,-1.1335189978228968,-5.255098883305685,-0.019073938950896263,0.017776858061552048,-0.021259019151329994,0.0610954724252224,0.060153376311063766,0.1402110457420349,-0.3082382082939148,-0.18344466388225555,-1.1156375408172607,-0.2801549434661865,0.3354361951351166,0.25703999400138855
1749032081.12264,-1.9493873755084437,-1.728633543054098,2.574360434209005,-3.8184343777098597,-1.1333640257464808,-5.254802529011862,-0.01831124536693096,0.018073197454214096,-0.021417947486042976,0.06036987900733948,0.061021361500024796,0.1455906182527542,-0.32032525539398193,-0.19682614505290985,-1.0982953310012817,-0.2657797932624817,0.34273242950439453,0.25763922929763794
1749032081.1226776,-1.9493382612811487,-1.7285267315306605,2.5743089357959192,-3.818315168420309,-1.1331928412066858,-5.254520837460653,-0.01874152198433876,0.01790544204413891,-0.023960189893841743,0.05870139226317406,0.06326451897621155,0.14295049011707306,-0.3105032444000244,-0.20832525193691254,-1.0978206396102905,-0.26462027430534363,0.3665125370025635,0.25989386439323425
1749032081.1227188,-1.9494522253619593,-1.728506704370016,2.5742765108691614,-3.818206926385397,-1.1330888907061976,-5.254247490559713,-0.018997956067323685,0.017978329211473465,-0.024161769077181816,0.059147465974092484,0.065572589635849,0.14546743035316467,-0.33887988328933716,-0.20713135600090027,-1.0903300046920776,-0.260242760181427,0.33302509784698486,0.2671634554862976
1749032081.122757,-1.9494794050799769,-1.7284819088377894,2.5742250124560755,-3.8180905781187953,-1.1328914801227015,-5.253927413617269,-0.0193689726293087,0.018566610291600227,-0.023489441722631454,0.059042222797870636,0.06643854081630707,0.1472276896238327,-0.3226243257522583,-0.21257451176643372,-1.104047417640686,-0.25361955165863037,0.3435194492340088,0.2704259753227234
1749032081.1227937,-1.949536148701803,-1.7284661732115687,2.5741458574878138,-3.8179356060423792,-1.132840935383932,-5.253602449093954,-0.019634898751974106,0.018397770822048187,-0.02342652715742588,0.05941034108400345,0.06656504422426224,0.15029852092266083,-0.3068985939025879,-0.2025500386953354,-1.0907235145568848,-0.25735777616500854,0.3248671889305115,0.24376533925533295
1749032081.1228302,-1.9495599905597132,-1.728433748284811,2.574113432561056,-3.8178111515440882,-1.132721249257223,-5.253304783497946,-0.019498389214277267,0.018319956958293915,-0.023470453917980194,0.061201661825180054,0.06661227345466614,0.1513301581144333,-0.31275564432144165,-0.198027104139328,-1.0980356931686401,-0.26464608311653137,0.32304060459136963,0.24635756015777588
1749032081.1228673,-1.9496596495257776,-1.7283617458739222,2.574005428944723,-3.817576070825094,-1.1323955694781702,-5.252680842076437,-0.02007889561355114,0.018464311957359314,-0.02512465789914131,0.061603251844644547,0.06646827608346939,0.15442566573619843,-0.30131518840789795,-0.1704144924879074,-1.0871999263763428,-0.2782425582408905,0.31469160318374634,0.24582228064537048
1749032081.1229038,-1.9496596495257776,-1.7283617458739222,2.574005428944723,-3.817576070825094,-1.1323955694781702,-5.252680842076437,-0.02007889561355114,0.018464311957359314,-0.02512465789914131,0.061603251844644547,0.06646827608346939,0.15442566573619843,-0.30131518840789795,-0.1704144924879074,-1.0871999263763428,-0.2782425582408905,0.31469160318374634,0.24582228064537048
1749032081.1229398,-1.9496763388263147,-1.7282997570433558,2.573988978062765,-3.81744446376943,-1.1322901884662073,-5.252429668103353,-0.020711058750748634,0.0186434555798769,-0.024955138564109802,0.058485426008701324,0.06590995192527771,0.1531001627445221,-0.3006501793861389,-0.1989230513572693,-1.0711606740951538,-0.25504904985427856,0.3269546627998352,0.23038360476493835
1749032081.1229758,-1.9497159163104456,-1.7283016643919886,2.573925320302145,-3.8173400364317835,-1.132158104573385,-5.25208563009371,-0.02006472274661064,0.01942574605345726,-0.02466362714767456,0.0579318143427372,0.06684788316488266,0.1536034345626831,-0.3381024897098541,-0.19850249588489532,-1.1027013063430786,-0.2269311249256134,0.31968361139297485,0.24905018508434296
1749032081.123012,-1.9497297445880335,-1.7282539806761683,2.5738773981677454,-3.817211767236227,-1.1320036093341272,-5.2517985741244715,-0.02044857293367386,0.01847335882484913,-0.024743443354964256,0.06024084985256195,0.0686689019203186,0.1530991792678833,-0.3047434985637665,-0.19755500555038452,-1.0959893465042114,-0.2163180559873581,0.3107765316963196,0.2602371275424957
1749032081.1236646,-1.9498117605792444,-1.7282029591002406,2.573817555104391,-3.8171121082701625,-1.131899658833639,-5.251482073460714,-0.02147754840552807,0.018528584390878677,-0.025003692135214806,0.06119643151760101,0.06982498615980148,0.15283040702342987,-0.30153241753578186,-0.1559305489063263,-1.076427936553955,-0.24143318831920624,0.2976438105106354,0.2740919589996338
1749032081.1257534,-1.9498360792743128,-1.7281857929625453,2.573772970830099,-3.81698002437734,-1.1317322889911097,-5.251178566609518,-0.02150098606944084,0.0190889909863472,-0.025145677849650383,0.06239907070994377,0.06658913940191269,0.15704573690891266,-0.3162280023097992,-0.1654401570558548,-1.074013113975525,-0.24360540509223938,0.30562835931777954,0.2846126854419708
1749032081.1662776,-1.9498842398272913,-1.7281152210631312,2.5737021605121058,-3.8168446026244105,-1.1315725485431116,-5.250853721295492,-0.021276241168379784,0.01863827556371689,-0.02543642185628414,0.06401655822992325,0.06514114141464233,0.1551801860332489,-0.3099234402179718,-0.16778208315372467,-1.075510025024414,-0.24494776129722595,0.32396751642227173,0.292671799659729
1749032081.1663234,-1.94995624223818,-1.7280241451659144,2.5736172834979456,-3.81658472637319,-1.131380860005514,-5.250200215970175,-0.022315923124551773,0.019579805433750153,-0.02610732614994049,0.06382964551448822,0.06808607280254364,0.16279029846191406,-0.314315527677536,-0.16246753931045532,-1.07197904586792,-0.23869191110134125,0.3316948413848877,0.2723483145236969
1749032081.1663647,-1.94995624223818,-1.7280241451659144,2.5736172834979456,-3.81658472637319,-1.131380860005514,-5.250200215970175,-0.022315923124551773,0.019579805433750153,-0.02610732614994049,0.06382964551448822,0.06808607280254364,0.16279029846191406,-0.314315527677536,-0.16246753931045532,-1.07197904586792,-0.23869191110134125,0.3316948413848877,0.2723483145236969
1749032081.1664028,-1.9500435034381312,-1.7280298672118128,2.573550049458639,-3.816448827783102,-1.1311972776996058,-5.249901358281271,-0.023356372490525246,0.019251424819231033,-0.026265550404787064,0.0656498447060585,0.07050001621246338,0.16250157356262207,-0.3009600043296814,-0.1619338095188141,-1.0759756565093994,-0.23351742327213287,0.30968421697616577,0.2842617928981781
1749032081.1664436,-1.9500415960894983,-1.727978368798727,2.5735212008105677,-3.8163048229613246,-1.1310542265521448,-5.249600354825155,-0.022520527243614197,0.019794858992099762,-0.026128793135285378,0.06840478628873825,0.07136216759681702,0.16569341719150543,-0.2821756601333618,-0.17029638588428497,-1.0578421354293823,-0.24832046031951904,0.300381600856781,0.25602924823760986
1749032081.166482,-1.9500997702227991,-1.7279540501036585,2.5734577814685267,-3.8162042103209437,-1.130894962941305,-5.2492409388171595,-0.021955063566565514,0.019680170342326164,-0.025712013244628906,0.06977365911006927,0.0713161900639534,0.16880133748054504,-0.3143588900566101,-0.14914873242378235,-1.0737559795379639,-0.25887981057167053,0.2987655997276306,0.253089964389801
1749032081.1665196,-1.9502113501178187,-1.7278701267638148,2.5733497778521937,-3.815885206262106,-1.1306622664081019,-5.248542253171102,-0.022773966193199158,0.019789401441812515,-0.025538425892591476,0.07049001753330231,0.07067050784826279,0.17174549400806427,-0.301427960395813,-0.15582288801670074,-1.074731469154358,-0.26709845662117004,0.3295637369155884,0.2307438999414444
1749032081.1665566,-1.9502113501178187,-1.7278701267638148,2.5733497778521937,-3.815885206262106,-1.1306622664081019,-5.248542253171102,-0.022773966193199158,0.019789401441812515,-0.025538425892591476,0.07049001753330231,0.07067050784826279,0.17174549400806427,-0.301427960395813,-0.15582288801670074,-1.074731469154358,-0.26709845662117004,0.3295637369155884,0.2307438999414444
1749032081.1665933,-1.9502041975604456,-1.72778381923818,2.5733330885516565,-3.8157297573485316,-1.1305635611163538,-5.2482211033450525,-0.022939009591937065,0.02049827016890049,-0.025403348729014397,0.07195264846086502,0.07192692160606384,0.17030176520347595,-0.3301466107368469,-0.1478714644908905,-1.075284719467163,-0.2551307678222656,0.31155234575271606,0.2628665864467621
1749032081.1666293,-1.950312916432516,-1.7277194462218226,2.5731900374041956,-3.8153983555235804,-1.1302126089679163,-5.247500244771139,-0.02301969937980175,0.021042965352535248,-0.02612297609448433,0.0736195519566536,0.07461836189031601,0.1729705035686493,-0.3282022476196289,-0.14683176577091217,-1.0660254955291748,-0.29087498784065247,0.3169430196285248,0.2596663236618042
1749032081.1666665,-1.950312916432516,-1.7277194462218226,2.5731900374041956,-3.8153983555235804,-1.1302126089679163,-5.247500244771139,-0.02301969937980175,0.021042965352535248,-0.02612297609448433,0.0736195519566536,0.07461836189031601,0.1729705035686493,-0.3282022476196289,-0.14683176577091217,-1.0660254955291748,-0.29087498784065247,0.3169430196285248,0.2596663236618042
1749032081.1667035,-1.9503830114947718,-1.727725168267721,2.5731385389911097,-3.8152858219542445,-1.1301267782794397,-5.247123304997579,-0.023581570014357567,0.021630480885505676,-0.025809066370129585,0.07330446690320969,0.07490351796150208,0.17508868873119354,-0.307522177696228,-0.16536884009838104,-1.0821433067321777,-0.2788374722003937,0.3211955726146698,0.2677745223045349
1749032081.1667404,-1.9504082838641565,-1.7276283703246058,2.573113505040304,-3.815129896203512,-1.1299598852740687,-5.24677807489504,-0.02423028275370598,0.020877810195088387,-0.025835316628217697,0.07374006509780884,0.0750565454363823,0.17796418070793152,-0.32316821813583374,-0.14354972541332245,-1.0920318365097046,-0.2865486145019531,0.32627207040786743,0.25579676032066345
1749032081.1667776,-1.9504912535296839,-1.7276302776732386,2.573062006627218,-3.8150021038451136,-1.1297815481769007,-5.24642521539797,-0.025122448801994324,0.020174408331513405,-0.02592187374830246,0.07260982692241669,0.07675214856863022,0.18049050867557526,-0.3168082535266876,-0.12368887662887573,-1.1054887771606445,-0.2808862328529358,0.33699315786361694,0.26497265696525574
1749032081.1668146,-1.9505561033831995,-1.7275110683836878,2.5729382673846644,-3.814674516717428,-1.1294820944415491,-5.24572199979891,-0.023677533492445946,0.022415921092033386,-0.025880277156829834,0.07522600144147873,0.07812017947435379,0.1861153095960617,-0.3512797951698303,-0.16564887762069702,-1.1023503541946411,-0.29981571435928345,0.3324163556098938,0.22323757410049438
1749032081.1668508,-1.9505561033831995,-1.7275110683836878,2.5729382673846644,-3.814674516717428,-1.1294820944415491,-5.24572199979891,-0.023677533492445946,0.022415921092033386,-0.025880277156829834,0.07522600144147873,0.07812017947435379,0.1861153095960617,-0.3512797951698303,-0.16564887762069702,-1.1023503541946411,-0.29981571435928345,0.3324163556098938,0.22323757410049438
1749032081.166888,-1.9506261984454554,-1.7275024853148402,2.5728867689715784,-3.8145462475218714,-1.129303280507223,-5.245309058819906,-0.023477749899029732,0.022614892572164536,-0.026784198358654976,0.0746808722615242,0.07924894988536835,0.18575337529182434,-0.3568412661552429,-0.1381109654903412,-1.1106098890304565,-0.2974447011947632,0.32864758372306824,0.24420173466205597
1749032081.1669245,-1.9506176153766077,-1.727426668206686,2.5728653112994593,-3.814390798608297,-1.1291516462909144,-5.244922224675314,-0.024508478119969368,0.02208223007619381,-0.027483580633997917,0.07167716324329376,0.07993016391992569,0.1845255345106125,-0.3308633267879486,-0.13671395182609558,-1.0930616855621338,-0.27963173389434814,0.3212575614452362,0.23902148008346558
1749032081.1669612,-1.9506776968585413,-1.7273403606810511,2.5728138128863733,-3.8142429790892542,-1.1290329138385218,-5.244621936474935,-0.025236304849386215,0.022283025085926056,-0.027508286759257317,0.07123921811580658,0.08040541410446167,0.1812783032655716,-0.33314862847328186,-0.1692359894514084,-1.087385892868042,-0.2546635866165161,0.3182588815689087,0.23997683823108673
1749032081.1669974,-1.9507768789874476,-1.7273107967772425,2.572674576436178,-3.813927789727682,-1.128714386616842,-5.243849102650778,-0.02502705715596676,0.02375643327832222,-0.027211327105760574,0.07393647730350494,0.0830308347940445,0.1823822408914566,-0.3241899907588959,-0.17503255605697632,-1.1218510866165161,-0.2379378080368042,0.3329735994338989,0.310629665851593
1749032081.1676483,-1.9507768789874476,-1.7273107967772425,2.572674576436178,-3.813927789727682,-1.128714386616842,-5.243849102650778,-0.02502705715596676,0.02375643327832222,-0.027211327105760574,0.07393647730350494,0.0830308347940445,0.1823822408914566,-0.3241899907588959,-0.17503255605697632,-1.1218510866165161,-0.2379378080368042,0.3329735994338989,0.310629665851593
1749032081.169782,-1.950843636189596,-1.7273131809630335,2.5726075808154505,-3.8137713871397914,-1.1285699049579065,-5.243488017712728,-0.02568739466369152,0.0238190945237875,-0.02887614443898201,0.07713674753904343,0.08408258110284805,0.18858309090137482,-0.3233683705329895,-0.16224001348018646,-1.098876714706421,-0.2560094892978668,0.3220980167388916,0.3050418794155121
1749032081.2143002,-1.9508655706988733,-1.7271834812560023,2.5725632349597376,-3.813627859155172,-1.1283682028399866,-5.243099514638082,-0.025893786922097206,0.022478509694337845,-0.029180720448493958,0.07591626793146133,0.08388831466436386,0.19000312685966492,-0.31766200065612793,-0.1416592299938202,-1.091173529624939,-0.2641022801399231,0.31511491537094116,0.30169934034347534
1749032081.2143466,-1.9509709517108362,-1.7271667919554652,2.5725260416613978,-3.813475271264547,-1.128169361745016,-5.242717687283651,-0.02630854770541191,0.02241756021976471,-0.029355157166719437,0.07377451658248901,0.08411689102649689,0.19699782133102417,-0.3239692449569702,-0.13682356476783752,-1.1000497341156006,-0.2363119125366211,0.3293149769306183,0.29907530546188354
1749032081.2143893,-1.9510443846331995,-1.727090974847311,2.5723593870746058,-3.8131596050658167,-1.127829376851217,-5.24194580713381,-0.026464009657502174,0.024502407759428024,-0.02992170676589012,0.07807714492082596,0.08749774098396301,0.20246386528015137,-0.3432806730270386,-0.1565718948841095,-1.084849238395691,-0.24410906434059143,0.3219785988330841,0.24217969179153442
1749032081.2144291,-1.9510443846331995,-1.727090974847311,2.5723593870746058,-3.8131596050658167,-1.127829376851217,-5.24194580713381,-0.026464009657502174,0.024502407759428024,-0.02992170676589012,0.07807714492082596,0.08749774098396301,0.20246386528015137,-0.3432806730270386,-0.1565718948841095,-1.084849238395691,-0.24410906434059143,0.3219785988330841,0.24217969179153442
1749032081.214469,-1.95111591020693,-1.727039476434225,2.5723305384265345,-3.813007970849508,-1.1276653448687952,-5.241518680249349,-0.02686232328414917,0.024139754474163055,-0.030155064538121223,0.07945232838392258,0.08539064228534698,0.2050730437040329,-0.3414480686187744,-0.13908648490905762,-1.0927402973175049,-0.22198206186294556,0.3125886917114258,0.2219557762145996
1749032081.214507,-1.9511712233172815,-1.7269917927184046,2.5722864309894007,-3.8128520450987757,-1.1275022665606897,-5.241097752247946,-0.02693909779191017,0.024776620790362358,-0.030753932893276215,0.08026047796010971,0.08391059190034866,0.20316651463508606,-0.33622559905052185,-0.13670486211776733,-1.0740984678268433,-0.24642473459243774,0.3414131700992584,0.240701362490654
1749032081.2145452,-1.9512541929828089,-1.7269665203490199,2.5722108522998255,-3.8126803837218226,-1.12738544145693,-5.240688387547628,-0.028273247182369232,0.025031661614775658,-0.03201013803482056,0.08077985048294067,0.08354493230581284,0.20518410205841064,-0.32970309257507324,-0.13862203061580658,-1.0774028301239014,-0.22645874321460724,0.34432756900787354,0.23559312522411346
1749032081.2145832,-1.951275650654928,-1.726880212823385,2.5721073786364954,-3.8125091991820277,-1.1272175947772425,-5.240316931401388,-0.028346573933959007,0.025207269936800003,-0.03251512721180916,0.08245748281478882,0.08440396934747696,0.20539997518062592,-0.2974075973033905,-0.14315830171108246,-1.0637959241867065,-0.2526276111602783,0.33760806918144226,0.25980323553085327
1749032081.2146206,-1.9513586203204554,-1.7268239460387171,2.5720511118518274,-3.812348028222555,-1.127003018056051,-5.239893619214193,-0.028430141508579254,0.024825816974043846,-0.03164490684866905,0.08390621095895767,0.0889521986246109,0.20786644518375397,-0.3178878724575043,-0.1362002193927765,-1.0633635520935059,-0.23336584866046906,0.3241501748561859,0.2732387185096741
1749032081.2146583,-1.951371971760885,-1.7267409763731898,2.5719950834857386,-3.8121491871275843,-1.1267765204059046,-5.2394565979587,-0.028645923361182213,0.024960441514849663,-0.03127584233880043,0.08595879375934601,0.08884695917367935,0.2115633189678192,-0.3245429992675781,-0.1514357179403305,-1.0622737407684326,-0.24776481091976166,0.31885337829589844,0.24067121744155884
1749032081.2146957,-1.9515588919269007,-1.7266880474486292,2.5718629995929163,-3.8118330440916957,-1.126519505177633,-5.238605443631307,-0.028692467138171196,0.02565048076212406,-0.03178076818585396,0.08822134882211685,0.0885784700512886,0.215748131275177,-0.30802857875823975,-0.12926903367042542,-1.060189962387085,-0.2563413381576538,0.3596639037132263,0.2039373517036438
1749032081.214733,-1.9515588919269007,-1.7266880474486292,2.5718629995929163,-3.8118330440916957,-1.126519505177633,-5.238605443631307,-0.028692467138171196,0.02565048076212406,-0.03178076818585396,0.08822134882211685,0.0885784700512886,0.215748131275177,-0.30802857875823975,-0.12926903367042542,-1.060189962387085,-0.2563413381576538,0.3596639037132263,0.2039373517036438
1749032081.2147696,-1.9516070524798792,-1.7266231975951136,2.5717838446246546,-3.81164087871694,-1.1263397375689905,-5.238148037587301,-0.028681669384241104,0.025322435423731804,-0.03141431510448456,0.08814737945795059,0.08919575810432434,0.21457479894161224,-0.3079395592212677,-0.14136382937431335,-1.071488380432129,-0.2777096629142761,0.3354048728942871,0.2029382884502411
1749032081.214807,-1.9516404310809534,-1.7265526256956996,2.571731154118673,-3.81145777324819,-1.1261065641986292,-5.2377617994891565,-0.02840615250170231,0.025474682450294495,-0.031234052032232285,0.08796431869268417,0.09107685089111328,0.21172653138637543,-0.32082903385162354,-0.14097681641578674,-1.0654553174972534,-0.24594655632972717,0.33863365650177,0.22302821278572083
1749032081.2148442,-1.951723877583639,-1.7265392742552699,2.5716713110553187,-3.811266084710592,-1.125930134450094,-5.237321321164266,-0.028446270152926445,0.026504579931497574,-0.030483774840831757,0.08807659149169922,0.09218095988035202,0.20892119407653809,-0.29745471477508545,-0.13554367423057556,-1.0628504753112793,-0.2654350996017456,0.3314781188964844,0.2253386229276657
1749032081.2148812,-1.9517844359027308,-1.7264124355711878,2.5715790430652063,-3.810906549493307,-1.1256206671344202,-5.2364904324160975,-0.027927549555897713,0.026802418753504753,-0.030226796865463257,0.08720997720956802,0.09186296910047531,0.20975877344608307,-0.32346275448799133,-0.16274328529834747,-1.0711098909378052,-0.27501124143600464,0.34034767746925354,0.27377626299858093
1749032081.2149255,-1.9517844359027308,-1.7264124355711878,2.5715790430652063,-3.810906549493307,-1.1256206671344202,-5.2364904324160975,-0.027927549555897713,0.026802418753504753,-0.030226796865463257,0.08720997720956802,0.09186296910047531,0.20975877344608307,-0.32346275448799133,-0.16274328529834747,-1.0711098909378052,-0.27501124143600464,0.34034767746925354,0.27377626299858093
1749032081.2149923,-1.9518917242633265,-1.7263246975340785,2.571491305028097,-3.8107387028136195,-1.1254032293902796,-5.236053649579183,-0.028407592326402664,0.02558567002415657,-0.030628319829702377,0.08605370670557022,0.09337248653173447,0.21207797527313232,-0.3308308720588684,-0.17637792229652405,-1.0810413360595703,-0.257972776889801,0.35634645819664,0.27238136529922485
1749032081.21506,-1.9519203344928187,-1.7262765369811,2.571462694798605,-3.810542722741598,-1.125204865132467,-5.235593144093649,-0.028695371001958847,0.025203922763466835,-0.03076275810599327,0.08976646512746811,0.0937451496720314,0.21570782363414764,-0.30463355779647827,-0.15126028656959534,-1.0810959339141846,-0.2571462392807007,0.34011831879615784,0.26498305797576904
1749032081.2151272,-1.9519336859332483,-1.7262374363341273,2.571390692387716,-3.8103748760619105,-1.125009838734762,-5.235149089490072,-0.028513697907328606,0.026397114619612694,-0.030498245730996132,0.08641514182090759,0.09660119563341141,0.219838947057724,-0.3009921908378601,-0.1636860966682434,-1.0850435495376587,-0.24125315248966217,0.3224855363368988,0.2495741844177246
1749032081.2151964,-1.9521196524249476,-1.7261401615538539,2.5712478796588343,-3.8100272617735804,-1.1246240774737757,-5.234283987675802,-0.029247723519802094,0.02631431818008423,-0.02970239520072937,0.08520133793354034,0.09333056956529617,0.21936175227165222,-0.3373910188674927,-0.16457125544548035,-1.0971307754516602,-0.20585834980010986,0.32103484869003296,0.23670290410518646
1749032081.2152627,-1.9521196524249476,-1.7261401615538539,2.5712478796588343,-3.8100272617735804,-1.1246240774737757,-5.234283987675802,-0.029247723519802094,0.02631431818008423,-0.02970239520072937,0.08520133793354034,0.09333056956529617,0.21936175227165222,-0.3373910188674927,-0.16457125544548035,-1.0971307754516602,-0.20585834980010986,0.32103484869003296,0.23670290410518646
1749032081.216171,-1.952165428792135,-1.7260519466795863,2.5711362997638147,-3.8096677265562953,-1.1242573896991175,-5.233397428189413,-0.029649455100297928,0.02697092294692993,-0.031199917197227478,0.09008579701185226,0.09708140045404434,0.21776650846004486,-0.32117027044296265,-0.16874533891677856,-1.1121366024017334,-0.22735130786895752,0.30601978302001953,0.24945959448814392
1749032081.217702,-1.952165428792135,-1.7260519466795863,2.5711362997638147,-3.8096677265562953,-1.1242573896991175,-5.233397428189413,-0.029649455100297928,0.02697092294692993,-0.031199917197227478,0.09008579701185226,0.09708140045404434,0.21776650846004486,-0.32117027044296265,-0.16874533891677856,-1.1121366024017334,-0.22735130786895752,0.30601978302001953,0.24945959448814392
1749032081.2582946,-1.952294651662008,-1.7259661159911097,2.5710330645190638,-3.809507032433981,-1.1240695158587855,-5.232929054890768,-0.031600531190633774,0.026175091043114662,-0.031167056411504745,0.09045254439115524,0.09767690300941467,0.21885092556476593,-0.2782004475593567,-0.1602466106414795,-1.0977513790130615,-0.2360871136188507,0.2779156565666199,0.25806742906570435
1749032081.2583454,-1.9523075262652796,-1.7259589634337367,2.5710235277758997,-3.80932678798818,-1.1238296667682093,-5.232491079960958,-0.030585845932364464,0.02543291635811329,-0.031781960278749466,0.08941617608070374,0.09475158154964447,0.22337432205677032,-0.3076026439666748,-0.15843237936496735,-1.1065781116485596,-0.214236781001091,0.2953544855117798,0.2675618827342987
1749032081.258386,-1.9523676077472132,-1.725842615167135,2.570932451878683,-3.8091279468932093,-1.123678986226217,-5.23204213777651,-0.029543902724981308,0.024963680654764175,-0.03218498453497887,0.09351249784231186,0.09506382048130035,0.22782966494560242,-0.34139278531074524,-0.15957212448120117,-1.106830358505249,-0.2222907394170761,0.3092900514602661,0.23054614663124084
1749032081.2584248,-1.9524315039264124,-1.725797792474264,2.570876185094015,-3.8089400730528773,-1.1234996954547327,-5.23155647913088,-0.030195998027920723,0.025610214099287987,-0.03238628804683685,0.09663588553667068,0.09587880969047546,0.22912555932998657,-0.34334105253219604,-0.1475011557340622,-1.0987030267715454,-0.24622240662574768,0.318814754486084,0.22865155339241028
1749032081.258463,-1.9524877707110804,-1.725793024102682,2.570819679890768,-3.808709760705465,-1.1232650915728968,-5.231145803128378,-0.032047007232904434,0.025791721418499947,-0.03280021250247955,0.09942599385976791,0.09524047374725342,0.22850646078586578,-0.3187672793865204,-0.14348405599594116,-1.0983527898788452,-0.27038490772247314,0.329204797744751,0.2303697168827057
1749032081.2585015,-1.9525907675372522,-1.725720544854635,2.570775572453634,-3.8085371456541957,-1.1231196562396448,-5.230691973363058,-0.03190629929304123,0.025924913585186005,-0.03380846604704857,0.09949988126754761,0.09613756835460663,0.23166237771511078,-0.3112354278564453,-0.15748341381549835,-1.1075618267059326,-0.27228304743766785,0.32818543910980225,0.22553133964538574
1749032081.2585397,-1.9526665846454065,-1.7256766758360804,2.5706408659564417,-3.8083397350706996,-1.1228788534747522,-5.230211798344747,-0.0328686498105526,0.025810081511735916,-0.034624435007572174,0.10020875185728073,0.09714047610759735,0.2264707237482071,-0.2960387170314789,-0.12414947897195816,-1.0995087623596191,-0.2871672511100769,0.3287656009197235,0.2749040722846985
1749032081.258577,-1.9526684919940394,-1.7255784473814906,2.5706003347979944,-3.8081170521178187,-1.122709099446432,-5.229738299046652,-0.033895205706357956,0.025736713781952858,-0.03446022421121597,0.09982140362262726,0.0977821946144104,0.22996996343135834,-0.2949271500110626,-0.1167583018541336,-1.1036211252212524,-0.2740805745124817,0.32795315980911255,0.24977746605873108
1749032081.2586143,-1.952782932912008,-1.7255565128722132,2.5705164114581507,-3.8079010448851527,-1.1225054899798792,-5.229300324116842,-0.03341245278716087,0.026531299576163292,-0.03548846393823624,0.0998321920633316,0.09845583140850067,0.22978848218917847,-0.28030186891555786,-0.13508428633213043,-1.0860897302627563,-0.2802618741989136,0.32657337188720703,0.27717000246047974
1749032081.2586522,-1.952834431325094,-1.7255169353880824,2.570456568394796,-3.807709356347555,-1.1222761313067835,-5.228784267102377,-0.029716944321990013,0.026343315839767456,-0.03688674420118332,0.10152141004800797,0.09906227886676788,0.23291084170341492,-0.33598920702934265,-0.10967422276735306,-1.0833725929260254,-0.27737072110176086,0.33158156275749207,0.3003786504268646
1749032081.2586896,-1.9528606573687952,-1.7254301510252894,2.570369068776266,-3.8074985943236292,-1.1220586935626429,-5.228329960499899,-0.03334389999508858,0.026381945237517357,-0.035608500242233276,0.09762372076511383,0.0995805561542511,0.23651167750358582,-0.29972177743911743,-0.1089220866560936,-1.076169490814209,-0.26571977138519287,0.3466508388519287,0.281787246465683
1749032081.2587268,-1.9529784361468714,-1.725393911401266,2.5703006426440638,-3.807317396203512,-1.1218979994403284,-5.227836672459738,-0.03371119126677513,0.027281317859888077,-0.03417225927114487,0.09652505069971085,0.09892009198665619,0.2382955402135849,-0.31102848052978516,-0.14494630694389343,-1.1179614067077637,-0.2524561285972595,0.35984984040260315,0.2850117087364197
1749032081.258764,-1.9530051390277308,-1.7253462276854457,2.570221487675802,-3.8071099720396937,-1.1217454115497034,-5.227401916180746,-0.033248692750930786,0.02737174555659294,-0.03553478419780731,0.09482251852750778,0.09981614351272583,0.2415991723537445,-0.2987438440322876,-0.12151315063238144,-1.0976544618606567,-0.2319858968257904,0.35495585203170776,0.2661636769771576
1749032081.258802,-1.9531343618976038,-1.725286146203512,2.5701494852649134,-3.806936880151266,-1.1214740912066858,-5.226901594792501,-0.03302169591188431,0.02758386731147766,-0.03541053086519241,0.09723486006259918,0.10191354900598526,0.24182461202144623,-0.30706843733787537,-0.10973261296749115,-1.100878357887268,-0.22537365555763245,0.3276636600494385,0.2954319715499878
1749032081.2588394,-1.953116242085592,-1.7251984081664027,2.5700884501086634,-3.8067342243590296,-1.121298615132467,-5.226411167775289,-0.03369903564453125,0.02817026525735855,-0.03659284859895706,0.09826623648405075,0.10160329937934875,0.24264991283416748,-0.3285173177719116,-0.10950852185487747,-1.111090064048767,-0.2344736009836197,0.35345783829689026,0.2832202613353729
1749032081.258876,-1.9532917181598108,-1.7251182995238246,2.5699453989612024,-3.806366106072897,-1.1208561102496546,-5.225378934537069,-0.03412848711013794,0.02929752692580223,-0.03492579981684685,0.0964275598526001,0.10430056601762772,0.251659095287323,-0.30095338821411133,-0.11425827443599701,-1.106443166732788,-0.19274425506591797,0.3431561589241028,0.30261486768722534
1749032081.2589135,-1.9532917181598108,-1.7251182995238246,2.5699453989612024,-3.806366106072897,-1.1208561102496546,-5.225378934537069,-0.03412848711013794,0.02929752692580223,-0.03492579981684685,0.0964275598526001,0.10430056601762772,0.251659095287323,-0.30095338821411133,-0.11425827443599701,-1.106443166732788,-0.19274425506591797,0.3431561589241028,0.30261486768722534
1749032081.2589502,-1.9533589521991175,-1.725042005578512,2.5698929468738,-3.8061939678587855,-1.12062913576235,-5.224927250538961,-0.03331974893808365,0.029358703643083572,-0.0335547998547554,0.09972357749938965,0.10318528860807419,0.25440290570259094,-0.3256652355194092,-0.12111963331699371,-1.1251856088638306,-0.199436753988266,0.35186320543289185,0.28343796730041504
1749032081.258987,-1.9534080664264124,-1.7249704800047816,2.5698090235339563,-3.805966993371481,-1.1204302946673792,-5.224371377621786,-0.033409494906663895,0.029487621039152145,-0.03542295843362808,0.1009998694062233,0.1027911901473999,0.2562215328216553,-0.3192203640937805,-0.1264224648475647,-1.131462574005127,-0.19677406549453735,0.3523785173892975,0.2545068860054016
1749032081.2590234,-1.953456226979391,-1.7249652347960414,2.5697296301471155,-3.8057786426939906,-1.1202147642718714,-5.223869506512777,-0.03409209102392197,0.029440192505717278,-0.03707857057452202,0.10295673459768295,0.10801519453525543,0.26034897565841675,-0.3376694321632385,-0.10742548108100891,-1.1110919713974,-0.18676574528217316,0.35978829860687256,0.24463921785354614
1749032081.2596576,-1.953641716633932,-1.7248145542540492,2.569620672856466,-3.805359025994772,-1.119758431111471,-5.222837154065267,-0.03447248041629791,0.03025735169649124,-0.036648742854595184,0.10827989131212234,0.10871964693069458,0.25673842430114746,-0.34108784794807434,-0.12009064108133316,-1.123022437095642,-0.19557033479213715,0.34761205315589905,0.27244850993156433
1749032081.26175,-1.953641716633932,-1.7248145542540492,2.569620672856466,-3.805359025994772,-1.119758431111471,-5.222837154065267,-0.03447248041629791,0.03025735169649124,-0.036648742854595184,0.10827989131212234,0.10871964693069458,0.25673842430114746,-0.34108784794807434,-0.12009064108133316,-1.123022437095642,-0.19557033479213715,0.34761205315589905,0.27244850993156433
1749032081.3022892,-1.9536755720721644,-1.724727293054098,2.5695367495166224,-3.805143495599264,-1.1195510069476526,-5.222284022961752,-0.03503865376114845,0.030300838872790337,-0.03733453527092934,0.11181869357824326,0.10918180644512177,0.2584133744239807,-0.3186892867088318,-0.10255832970142365,-1.1284970045089722,-0.21677923202514648,0.3340457081794739,0.31064173579216003
1749032081.3023355,-1.9537161032306116,-1.7247058353819789,2.569449249898092,-3.80490841488027,-1.1192963759051722,-5.221786562596456,-0.035356875509023666,0.03101823851466179,-0.03826016187667847,0.1125779002904892,0.11128895729780197,0.25979626178741455,-0.3423191010951996,-0.1490936577320099,-1.1175020933151245,-0.22115568816661835,0.3355962038040161,0.3016798198223114
1749032081.3023822,-1.9538424650775355,-1.7246819935240687,2.569346014653341,-3.804700037042135,-1.119103733693258,-5.221252981816427,-0.036584749817848206,0.030090950429439545,-0.038588255643844604,0.11475972086191177,0.11189191043376923,0.26293662190437317,-0.3323216140270233,-0.10269664227962494,-1.105210304260254,-0.23033824563026428,0.32163119316101074,0.3001168370246887
1749032081.302423,-1.953879181538717,-1.72462858776235,2.5692620913134974,-3.804455896417135,-1.1188214460956019,-5.220736328755514,-0.03651455044746399,0.0313640721142292,-0.03958248347043991,0.11419330537319183,0.11132589727640152,0.2649015784263611,-0.33910366892814636,-0.1043984666466713,-1.1063027381896973,-0.23611369729042053,0.32598763704299927,0.2865459620952606
1749032081.3024616,-1.9539549986468714,-1.724556108514303,2.5692251364337366,-3.804244180718893,-1.1186493078814905,-5.220223728810446,-0.03707074001431465,0.03226562589406967,-0.03988869860768318,0.11444016546010971,0.1107955053448677,0.2660943865776062,-0.32869571447372437,-0.1185162365436554,-1.1122350692749023,-0.22430741786956787,0.3506200313568115,0.2956988215446472
1749032081.3025002,-1.954031769429342,-1.7244965038695277,2.569113556538717,-3.804000516931051,-1.1184375921832483,-5.2196343580829065,-0.03711541369557381,0.032152675092220306,-0.040046706795692444,0.11351585388183594,0.11187145859003067,0.271085262298584,-0.33397457003593445,-0.08791244029998779,-1.1017584800720215,-0.21191835403442383,0.35052722692489624,0.2929275631904602
1749032081.3025382,-1.9541142622577112,-1.7244140110411585,2.569037977849142,-3.8038045368590296,-1.1181781927691858,-5.219127599393026,-0.038457240909338,0.0328097864985466,-0.04030401259660721,0.11230794340372086,0.1117510050535202,0.2712860107421875,-0.3256305456161499,-0.09221072494983673,-1.11430025100708,-0.2076970636844635,0.3502592146396637,0.30322688817977905
1749032081.3025756,-1.9542143980609339,-1.7242924175658167,2.568981711064474,-3.803556581536764,-1.1179826895343226,-5.218547169362203,-0.03913404047489166,0.033154889941215515,-0.0402495451271534,0.11555156856775284,0.1141343042254448,0.27530306577682495,-0.3150150775909424,-0.10566765069961548,-1.1173251867294312,-0.18085438013076782,0.3558681011199951,0.315387099981308
1749032081.3026135,-1.9543054739581507,-1.7242700062193812,2.568913284932272,-3.803356786767477,-1.1177380720721644,-5.218010727559225,-0.03893309831619263,0.03333284333348274,-0.04023636132478714,0.11500847339630127,0.11492708325386047,0.27760112285614014,-0.3362833857536316,-0.12211483716964722,-1.1097896099090576,-0.2054363340139389,0.34981098771095276,0.2887568175792694
1749032081.3026512,-1.9543350378619593,-1.7241860828795375,2.5688102881061,-3.8031050167479457,-1.1175192038165491,-5.217429582272665,-0.037496477365493774,0.03382605314254761,-0.03986614570021629,0.11293107271194458,0.11294406652450562,0.27863970398902893,-0.34812867641448975,-0.12011803686618805,-1.1050070524215698,-0.1762700080871582,0.3835194706916809,0.28969088196754456
1749032081.3026888,-1.9543951193438929,-1.7241112194456996,2.5687575976001185,-3.802885194818014,-1.1172798315631312,-5.216887299214498,-0.03846898302435875,0.033510494977235794,-0.04191702604293823,0.11352163553237915,0.11416329443454742,0.2818601727485657,-0.33362439274787903,-0.11197105050086975,-1.1119675636291504,-0.14879710972309113,0.3572995066642761,0.2676342725753784
1749032081.302725,-1.9545553366290491,-1.7239510021605433,2.568601910267965,-3.8024217091002406,-1.1168130079852503,-5.215750281010763,-0.03895040974020958,0.03402110934257507,-0.03983458876609802,0.11962949484586716,0.11859666556119919,0.2817559838294983,-0.3079758286476135,-0.14053408801555634,-1.1391397714614868,-0.20962761342525482,0.36296868324279785,0.2920921742916107
1749032081.3027618,-1.9545553366290491,-1.7239510021605433,2.568601910267965,-3.8024217091002406,-1.1168130079852503,-5.215750281010763,-0.03895040974020958,0.03402110934257507,-0.03983458876609802,0.11962949484586716,0.11859666556119919,0.2817559838294983,-0.3079758286476135,-0.14053408801555634,-1.1391397714614868,-0.20962761342525482,0.36296868324279785,0.2920921742916107
1749032081.3027985,-1.9547112623797815,-1.723830362359518,2.5684219042407435,-3.801958223382467,-1.1162832419024866,-5.214642111455099,-0.03786790370941162,0.033550381660461426,-0.041701532900333405,0.12283007055521011,0.12005475163459778,0.2862480878829956,-0.340841680765152,-0.13228806853294373,-1.118338942527771,-0.20400777459144592,0.36199668049812317,0.2996479868888855
1749032081.3028355,-1.9547112623797815,-1.723830362359518,2.5684219042407435,-3.801958223382467,-1.1162832419024866,-5.214642111455099,-0.03786790370941162,0.033550381660461426,-0.041701532900333405,0.12283007055521011,0.12005475163459778,0.2862480878829956,-0.340841680765152,-0.13228806853294373,-1.118338942527771,-0.20400777459144592,0.36199668049812317,0.2996479868888855
1749032081.3028731,-1.9548066298114222,-1.7237664661803187,2.5683537165271204,-3.8016864262022914,-1.1160629431353968,-5.214027945195333,-0.03808844834566116,0.034356098622083664,-0.04385180026292801,0.1235743910074234,0.12281355261802673,0.2863174378871918,-0.3624422252178192,-0.1447916030883789,-1.103064775466919,-0.23337264358997345,0.3412765860557556,0.2969115674495697
1749032081.3029099,-1.9549663702594202,-1.7236315212645472,2.56816274324526,-3.8011986217894496,-1.115551773701803,-5.21288770834078,-0.0399896614253521,0.03266129642724991,-0.04101455956697464,0.12315873801708221,0.12457303702831268,0.2947883605957031,-0.2955838441848755,-0.10609740018844604,-1.1369978189468384,-0.23104101419448853,0.3424755930900574,0.2989579737186432
1749032081.3029504,-1.9549663702594202,-1.7236315212645472,2.56816274324526,-3.8011986217894496,-1.115551773701803,-5.21288770834078,-0.0399896614253521,0.03266129642724991,-0.04101455956697464,0.12315873801708221,0.12457303702831268,0.2947883605957031,-0.2955838441848755,-0.10609740018844604,-1.1369978189468384,-0.23104101419448853,0.3424755930900574,0.2989579737186432
1749032081.3029878,-1.9551261107074183,-1.7234803638853968,2.5679710547076624,-3.8007194004454554,-1.1150487104998987,-5.211715523396627,-0.039101000875234604,0.03474986553192139,-0.04356123507022858,0.12364351004362106,0.12420763820409775,0.2964225113391876,-0.34829947352409363,-0.12276817858219147,-1.1210129261016846,-0.23776017129421234,0.33156684041023254,0.278674453496933
1749032081.303025,-1.9551261107074183,-1.7234803638853968,2.5679710547076624,-3.8007194004454554,-1.1150487104998987,-5.211715523396627,-0.039101000875234604,0.03474986553192139,-0.04356123507022858,0.12364351004362106,0.12420763820409775,0.2964225113391876,-0.34829947352409363,-0.12276817858219147,-1.1210129261016846,-0.23776017129421234,0.33156684041023254,0.278674453496933
1749032081.3036945,-1.9552257696734827,-1.723443170587057,2.5678871313678187,-3.8004685841002406,-1.1147192160235804,-5.2110671440707605,-0.039747342467308044,0.03335893899202347,-0.04333527758717537,0.12169311940670013,0.12427371740341187,0.29692232608795166,-0.3221234381198883,-0.11846860498189926,-1.1273881196975708,-0.20538201928138733,0.3284471035003662,0.2600859999656677
1749032081.3056452,-1.9553592840777796,-1.7232920132079066,2.567746702824728,-3.7999731502928675,-1.1142743269549769,-5.209947888051168,-0.039460718631744385,0.0346650630235672,-0.04316948354244232,0.12226435542106628,0.12458097189664841,0.302284836769104,-0.3336147964000702,-0.10379881411790848,-1.1148916482925415,-0.2013815939426422,0.3300115168094635,0.27278831601142883
1749032081.3462887,-1.9554150740252894,-1.7232190571227015,2.567662779484884,-3.7997266254820765,-1.1140578428851526,-5.209311668072836,-0.03978964313864708,0.03444835543632507,-0.04339785501360893,0.11958690732717514,0.12692759931087494,0.30073004961013794,-0.329836905002594,-0.10807321965694427,-1.121341586112976,-0.17998892068862915,0.31768494844436646,0.2849060595035553
1749032081.346336,-1.9554150740252894,-1.7232190571227015,2.567662779484884,-3.7997266254820765,-1.1140578428851526,-5.209311668072836,-0.03978964313864708,0.03444835543632507,-0.04339785501360893,0.11958690732717514,0.12692759931087494,0.30073004961013794,-0.329836905002594,-0.10807321965694427,-1.121341586112976,-0.17998892068862915,0.31768494844436646,0.2849060595035553
1749032081.3463767,-1.9555986563311976,-1.7230874500670375,2.5674710909472864,-3.7992660007872523,-1.1135042349444788,-5.208111945782797,-0.04042452573776245,0.03728434443473816,-0.04487636312842369,0.12245561927556992,0.12492620199918747,0.3039385974407196,-0.3318997323513031,-0.14150254428386688,-1.1237634420394897,-0.18697401881217957,0.3348117768764496,0.2715851664543152
1749032081.3464153,-1.9555986563311976,-1.7230874500670375,2.5674710909472864,-3.7992660007872523,-1.1135042349444788,-5.208111945782797,-0.04042452573776245,0.03728434443473816,-0.04487636312842369,0.12245561927556992,0.12492620199918747,0.3039385974407196,-0.3318997323513031,-0.14150254428386688,-1.1237634420394897,-0.18697401881217957,0.3348117768764496,0.2715851664543152
1749032081.3464537,-1.9557464758502405,-1.7229324779906214,2.5672996679889124,-3.7987548313536585,-1.1129587332354944,-5.20688504377474,-0.04005488008260727,0.03505251184105873,-0.045741647481918335,0.12650494277477264,0.1257561445236206,0.3089253008365631,-0.339057981967926,-0.12973682582378387,-1.1119307279586792,-0.17249396443367004,0.31194648146629333,0.23807865381240845
1749032081.3464918,-1.9557464758502405,-1.7229324779906214,2.5672996679889124,-3.7987548313536585,-1.1129587332354944,-5.20688504377474,-0.04005488008260727,0.03505251184105873,-0.045741647481918335,0.12650494277477264,0.1257561445236206,0.3089253008365631,-0.339057981967926,-0.12973682582378387,-1.1119307279586792,-0.17249396443367004,0.31194648146629333,0.23807865381240845
1749032081.34653,-1.95585805574526,-1.7228638134398402,2.5671878496753138,-3.798506876031393,-1.1127427260028284,-5.206233565007345,-0.04042532294988632,0.03509650006890297,-0.04556874930858612,0.12850737571716309,0.12690457701683044,0.30938011407852173,-0.3198137879371643,-0.07788198441267014,-1.1382278203964233,-0.1980373114347458,0.3324550986289978,0.2531329393386841
1749032081.3465676,-1.955902401600973,-1.7228037319579066,2.5670958201037806,-3.7982779941954554,-1.1124823729144495,-5.2056079546557825,-0.041013047099113464,0.03694800287485123,-0.04572204500436783,0.12932048738002777,0.12759801745414734,0.30834758281707764,-0.3461931347846985,-0.10161269456148148,-1.1193443536758423,-0.19905242323875427,0.3406502604484558,0.27038347721099854
1749032081.3466053,-1.955975357686178,-1.7227355442442835,2.566984240208761,-3.797960420648092,-1.1121915022479456,-5.205017749463217,-0.0412711426615715,0.036584675312042236,-0.04715638980269432,0.1305113285779953,0.12786464393138885,0.3087614178657532,-0.3301723301410675,-0.11591462045907974,-1.0913554430007935,-0.18940669298171997,0.34198012948036194,0.2798398733139038
1749032081.3466432,-1.956019703541891,-1.7226950130858363,2.566922966633932,-3.797727724114889,-1.1119521299945276,-5.2043965498553675,-0.0411219447851181,0.03648420423269272,-0.047727350145578384,0.1314847618341446,0.12738314270973206,0.30920901894569397,-0.3357098400592804,-0.12163865566253662,-1.0760611295700073,-0.18980297446250916,0.35508936643600464,0.26976117491722107
1749032081.3466809,-1.9561660925494593,-1.7225882015623988,2.566839043294088,-3.797460218469137,-1.111704174672262,-5.203783337269918,-0.04062658175826073,0.03836172819137573,-0.04836796596646309,0.13082246482372284,0.12645404040813446,0.30977872014045715,-0.3454257845878601,-0.11835351586341858,-1.076238751411438,-0.1909848153591156,0.35465919971466064,0.2644154131412506
1749032081.3467185,-1.9561846891986292,-1.7225243053831996,2.5667241255389612,-3.7972003422179164,-1.1114409605609339,-5.203145805989401,-0.04233060032129288,0.03644710034132004,-0.04753468930721283,0.1310567408800125,0.12637808918952942,0.3097761273384094,-0.3700559139251709,-0.09650816023349762,-1.0802713632583618,-0.19132451713085175,0.3511563539505005,0.2783471941947937
1749032081.346756,-1.9564130941974085,-1.7223807773985804,2.566540543233053,-3.796711584130758,-1.1109026114093226,-5.201889816914694,-0.04248003289103508,0.03794225677847862,-0.048026226460933685,0.13001208007335663,0.13043835759162903,0.3139413595199585,-0.3350328207015991,-0.09832680225372314,-1.0884276628494263,-0.15987452864646912,0.37215113639831543,0.24498111009597778
1749032081.3467932,-1.9564130941974085,-1.7223807773985804,2.566540543233053,-3.796711584130758,-1.1109026114093226,-5.201889816914694,-0.04248003289103508,0.03794225677847862,-0.048026226460933685,0.13001208007335663,0.13043835759162903,0.3139413595199585,-0.3350328207015991,-0.09832680225372314,-1.0884276628494263,-0.15987452864646912,0.37215113639831543,0.24498111009597778
1749032081.3468306,-1.9564364592181605,-1.7222925625243128,2.56640869775881,-3.796452661553854,-1.1106742064105433,-5.201191608105795,-0.04190840944647789,0.03958255425095558,-0.047552935779094696,0.1324092000722885,0.1344602108001709,0.31244656443595886,-0.35104113817214966,-0.14905788004398346,-1.0813037157058716,-0.1959734708070755,0.333157479763031,0.2564374506473541
