nimar13/UR3e_dataset_trayectorias/trayectorias_ejecutadas/quintic/trayectoria_260_result.csv
timestamp,q1,q2,q3,q4,q5,q6,qd1,qd2,qd3,qd4,qd5,qd6,tau1,tau2,tau3,tau4,tau5,tau6
1749038401.8291347,-1.794171158467428,-0.6133188170245667,-1.0034840106964111,0.1018785673328857,0.03176550194621086,5.090996265411377,0.00039155641570687294,-0.00031643235706724226,0.000589995994232595,0.00015411734057124704,-0.00018092012032866478,-0.0022951862774789333,-0.13749396800994873,-1.0808392763137817,-0.19405846297740936,-0.2511589527130127,0.2703797519207001,0.0194532610476017
1749038401.8294158,-1.7941606680499476,-0.6133416456035157,-1.0034648180007935,0.10183946668591304,0.03176550194621086,5.090980052947998,0.0003602032666094601,-0.0002989113563671708,0.0005393773317337036,0.00015043685561977327,-0.00017586842295713723,-0.0019480620976537466,-0.16163572669029236,-1.0587331056594849,-0.19047534465789795,-0.27468958497047424,0.25590208172798157,0.004693066701292992
1749038401.8702793,-1.79417592683901,-0.6133727592280884,-1.0034840106964111,0.10186295091595454,0.03176187723875046,5.090980052947998,0.00033350169542245567,-0.0002832352474797517,0.0004968363209627569,0.0001469264825573191,-0.00017109121836256236,-0.0014960815897211432,-0.13513845205307007,-1.0675853490829468,-0.19621527194976807,-0.25855621695518494,0.2594381868839264,0.008109099231660366
1749038401.8703263,-1.794164005910055,-0.613357202415802,-1.0034840106964111,0.10189752160992427,0.031761884689331055,5.090961933135986,0.00031047288211993873,-0.0002691182307898998,0.0004604937566909939,0.00014357853797264397,-0.000166566765983589,-0.0012910212390124798,-0.13908347487449646,-1.0469361543655396,-0.18868808448314667,-0.2593449652194977,0.2623996436595917,-0.00020163878798484802
1749038401.8703668,-1.794164005910055,-0.6133343738368531,-1.0035001039505005,0.10187844812359614,0.03180379420518875,5.090972423553467,0.000290445052087307,-0.00025633862242102623,0.00042907902388833463,0.00014037896471563727,-0.00016227539163082838,-0.0010767860803753138,-0.13406142592430115,-1.0570613145828247,-0.1908358782529831,-0.25187280774116516,0.27506181597709656,0.003969784360378981
1749038401.8704057,-1.79417592683901,-0.6133654874614258,-1.0034685134887695,0.10184685766186519,0.031742557883262634,5.090961933135986,0.0002728327817749232,-0.0002447235456202179,0.0004017263709101826,0.00013731788203585893,-0.00015819963300600648,-0.0009026576881296933,-0.15749768912792206,-1.051211953163147,-0.16751283407211304,-0.2607446610927582,0.2532692849636078,0.01143023744225502
1749038401.8704443,-1.7942212263690394,-0.613357202415802,-1.0034840106964111,0.10187117635693355,0.03175833076238632,5.090976715087891,0.00021101810852997005,-0.00023411306028719991,0.0003776350640691817,0.0001343889452982694,-0.0001543237449368462,-0.0008628942305222154,-0.14192737638950348,-1.0487666130065918,-0.19801300764083862,-0.2469140887260437,0.2564769685268402,0.015153024345636368
1749038401.8704824,-1.7942021528827112,-0.613322452907898,-1.003503680229187,0.10185925542797847,0.031734269112348557,5.0909528732299805,0.00019470995175652206,-0.00022438298037741333,0.00035625085001811385,0.0001315818662988022,-0.00015063320461194962,-0.0007816759753040969,-0.14077287912368774,-1.0546711683273315,-0.1911926418542862,-0.2660030722618103,0.25071775913238525,0.006505291908979416
1749038401.8705199,-1.79417592683901,-0.6133416456035157,-1.0034875869750977,0.10185567914929194,0.03176905959844589,5.0909528732299805,0.00018467304471414536,-0.00021543265029322356,0.00037271465407684445,0.00012888868513982743,-0.00014711497351527214,-0.0006992028211243451,-0.12487894296646118,-1.048505187034607,-0.19514068961143494,-0.2589796483516693,0.24191567301750183,0.0272211991250515
1749038401.8705583,-1.7941449324237269,-0.6133416456035157,-1.003472089767456,0.10185567914929194,0.03173065185546875,5.090921878814697,0.0001756534184096381,-0.0002071675262413919,0.0003649538557510823,0.00012630526907742023,-0.0001437574828742072,-0.0006298229563981295,-0.16785594820976257,-1.0432288646697998,-0.18689271807670593,-0.25538453459739685,0.2600163519382477,0.02648008242249489
1749038401.870596,-1.7942140738116663,-0.6133297246745606,-1.0034756660461426,0.10185925542797847,0.03174497187137604,5.090949535369873,0.00012985008652321994,-0.00019951163267251104,0.00034803638118319213,0.00012382265413179994,-0.0001405499060638249,-0.0005725187947973609,-0.14570844173431396,-1.0559693574905396,-0.1926279366016388,-0.25207769870758057,0.2651161253452301,0.01879209838807583
1749038401.870639,-1.7941916624652308,-0.6133099359324952,-1.0034685134887695,0.10186295091595454,0.031734269112348557,5.090949535369873,0.00012007229088339955,-0.00019240399706177413,0.00033203011844307184,0.00012143486674176529,-0.0001374823768856004,-0.0005247120861895382,-0.15308761596679688,-1.0565383434295654,-0.21452048420906067,-0.2776337265968323,0.24463210999965668,0.03051045909523964
1749038401.870682,-1.7941950003253382,-0.613357202415802,-1.0034840106964111,0.10185210287060542,0.031769052147865295,5.090945720672607,0.00011491800978546962,-0.00018578408344183117,0.00031739240512251854,0.00011913880734937266,-0.00013454574218485504,-0.0004842764465138316,-0.14784803986549377,-1.0224648714065552,-0.206628680229187,-0.25487279891967773,0.2466915100812912,0.0061301253736019135
1749038401.87072,-1.7941950003253382,-0.613345281486847,-1.003472089767456,0.10185567914929194,0.0317378044128418,5.090944290161133,-6.710951129207388e-05,-0.00017960382683668286,0.0003039768198505044,0.00011692744010360911,-0.00013173211482353508,-0.0004496389301493764,-0.15470413863658905,-1.0136585235595703,-0.20159944891929626,-0.267377644777298,0.24536816775798798,0.014922870323061943
1749038401.8707573,-1.7942035833941858,-0.6133416456035157,-1.003472089767456,0.10183946668591304,0.03174971044063568,5.090956211090088,-8.285368676297367e-05,-0.00015403081488329917,0.0002916715166065842,0.0001242381113115698,-0.00012903370952699333,-0.00041963355033658445,-0.17421802878379822,-1.0153961181640625,-0.19944357872009277,-0.25491246581077576,0.24430356919765472,0.027366213500499725
1749038401.870794,-1.7941988150226038,-0.6133526724627991,-1.0034756660461426,0.10185925542797847,0.03173428401350975,5.090945720672607,-0.00011866632848978043,-0.00014042496331967413,0.00028031429974362254,0.00012761863763444126,-0.00012644358503166586,-0.00039338882197625935,-0.18479961156845093,-1.0291088819503784,-0.20949460566043854,-0.25526517629623413,0.23517514765262604,0.022905398160219193
1749038401.8708317,-1.794183079396383,-0.613345281486847,-1.003472089767456,0.10187844812359614,0.03172232210636139,5.0909528732299805,-0.00014822355296928436,-0.00013609134475700557,0.0002697983291000128,0.00012636551400646567,-0.0001341454335488379,-0.0003702388203237206,-0.16898009181022644,-1.0182585716247559,-0.2249213457107544,-0.26855435967445374,0.24076946079730988,-0.006087694317102432
1749038401.870869,-1.7942341009723108,-0.6133334797671814,-1.0034756660461426,0.10186760007824702,0.03174133226275444,5.090940952301025,-0.00014586314500775188,-0.0001320963492617011,0.00026006094412878156,0.00012435652024578303,-0.0001376012369291857,-0.00034966401290148497,-0.1464780569076538,-1.0399593114852905,-0.19980639219284058,-0.26742106676101685,0.25095781683921814,-0.0021401438862085342
1749038401.870906,-1.7942069212542933,-0.613345281486847,-1.0034875869750977,0.10185925542797847,0.031746093183755875,5.090983867645264,-0.00017415116599295288,-0.00012832919310312718,0.0002509942278265953,0.00012227582919877023,-0.00013606465654447675,-0.0003312587214168161,-0.17705553770065308,-0.998224675655365,-0.19908630847930908,-0.25739553570747375,0.22834990918636322,0.04250721633434296
1749038401.870944,-1.7941902319537562,-0.613345281486847,-1.0034875869750977,0.10187475263562007,0.03173425793647766,5.090909957885742,-0.00016869037062861025,-0.00012477008567657322,0.0002425304555799812,0.00012023927411064506,-0.000133725450723432,-0.0003146959934383631,-0.1852218210697174,-0.9918836355209351,-0.2152298092842102,-0.24519476294517517,0.23648451268672943,0.020069608464837074
1749038401.870982,-1.7941902319537562,-0.613345281486847,-1.0034875869750977,0.10187475263562007,0.03173425793647766,5.090909957885742,-0.00016869037062861025,-0.00012477008567657322,0.0002425304555799812,0.00012023927411064506,-0.000133725450723432,-0.0003146959934383631,-0.1852218210697174,-0.9918836355209351,-0.2152298092842102,-0.24519476294517517,0.23648451268672943,0.020069608464837074
1749038401.8710191,-1.79417592683901,-0.613322452907898,-1.0034875869750977,0.10187475263562007,0.031753260642290115,5.090945720672607,-0.000518130837008357,-0.000118215502880048,0.00022722747235093266,0.00011635372356977314,-0.00012897286796942353,-0.00028609149740077555,-0.16805151104927063,-1.0053006410598755,-0.2181081920862198,-0.27763399481773376,0.21814286708831787,0.018209710717201233
1749038401.8714004,-1.7941988150226038,-0.6133380097201844,-1.0034756660461426,0.10187117635693355,0.03171877935528755,5.090965270996094,-0.0004749956715386361,-0.00011518877727212384,0.00022027490194886923,0.00011450332385720685,-0.0001267041079699993,-0.00027365554706193507,-0.17257219552993774,-1.0063287019729614,-0.2145204097032547,-0.26735919713974,0.2179025262594223,0.024836566299200058
1749038401.8733628,-1.7941988150226038,-0.6133380097201844,-1.0034637451171875,0.10185210287060542,0.03172712028026581,5.090965270996094,-0.0005147459451109171,-0.00011231450480408967,0.0002137355913873762,0.00011271018593106419,-0.00012451292423065752,-0.00026225674082525074,-0.1835717260837555,-0.9803224205970764,-0.21021410822868347,-0.2659488022327423,0.2312222570180893,0.037068188190460205
1749038401.9145045,-1.7942231337176722,-0.6133608382991333,-1.003472089767456,0.10186760007824702,0.0317690372467041,5.090956211090088,-0.0005239078891463578,-8.835658081807196e-05,0.00020757313177455217,0.00011097344395238906,-0.00012239614443387836,-0.0002517697575967759,-0.20028409361839294,-0.9555579423904419,-0.2012384533882141,-0.25369247794151306,0.21000836789608002,0.023204609751701355
1749038401.9145799,-1.7941950003253382,-0.6133260887912293,-1.0034685134887695,0.10187117635693355,0.031780973076820374,5.090965270996094,-0.0005801566294394433,-6.632955773966387e-05,0.00020175077952444553,0.00010928902338491753,-0.00012035013060085475,-0.00024209004186559469,-0.23242229223251343,-0.9094723463058472,-0.19011801481246948,-0.24095460772514343,0.19848160445690155,0.021190572530031204
1749038401.914651,-1.794217888508932,-0.6133416456035157,-1.0035072565078735,0.10187117635693355,0.031741365790367126,5.090930461883545,-0.0012250477448105812,9.79437681962736e-05,0.0001403557398589328,9.699936344986781e-05,-0.00011837138299597427,-0.00023312731354963034,-0.2554713785648346,-0.8661481142044067,-0.16177091002464294,-0.21882715821266174,0.18524359166622162,0.04377571865916252
1749038401.9147189,-1.7942379156695765,-0.6133297246745606,-1.0034911632537842,0.10185925542797847,0.031756866723299026,5.0909528732299805,-0.005034199915826321,0.003842628328129649,0.00014764002116862684,7.936037582112476e-05,-0.00011645670747384429,-0.0002248047385364771,-0.22570860385894775,-0.8938234448432922,-0.16823576390743256,-0.23316553235054016,0.17931760847568512,0.03303312137722969
1749038401.9147868,-1.7942031065570276,-0.6133260887912293,-1.0034840106964111,0.10187475263562007,0.03171519190073013,5.0909528732299805,-0.004551991820335388,0.0036986658815294504,0.00018292701861355454,8.745412196731195e-05,-0.00011460296082077548,-0.0002170560328522697,-0.2192150056362152,-0.9054120182991028,-0.16264230012893677,-0.22950038313865662,0.18221259117126465,0.03087867796421051
1749038401.9148555,-1.7941959539996546,-0.6133297246745606,-1.003480315208435,0.10187117635693355,0.031765516847372055,5.0909528732299805,-0.0030605795327574015,0.002705009188503027,0.0010586183052510023,9.831713396124542e-05,-0.00011280730541329831,-0.0002098243567161262,-0.23675042390823364,-0.869248628616333,-0.15906856954097748,-0.25858259201049805,0.18391932547092438,0.026180800050497055
1749038401.9149232,-1.7942193190204065,-0.6133297246745606,-1.0034840106964111,0.10188667356457515,0.031749725341796875,5.090968608856201,-0.002698442665860057,0.0019662578124552965,0.001298051094636321,0.00010030278644990176,-8.161045116139576e-05,-0.0002030589384958148,-0.2476893961429596,-0.8653162121772766,-0.17838957905769348,-0.24813681840896606,0.19125328958034515,0.028629884123802185
1749038401.9149914,-1.7942231337176722,-0.6133334797671814,-1.003472089767456,0.10187475263562007,0.03173062205314636,5.090944290161133,-0.0022013639099895954,0.0015433684457093477,0.001128305564634502,9.934872650774196e-05,-7.126760465325788e-05,-0.0001967164280358702,-0.26283857226371765,-0.8525617122650146,-0.1694973111152649,-0.25688549876213074,0.19273442029953003,0.037869106978178024
1749038401.915059,-1.7942269484149378,-0.6132943791202088,-1.0034685134887695,0.10187117635693355,0.031765494495630264,5.090961933135986,-0.0021347019355744123,0.0012705603148788214,0.0009600639459677041,9.791481716092676e-05,-6.858081178506836e-05,-0.00019075829186476767,-0.26213183999061584,-0.8712034225463867,-0.1709102988243103,-0.2574016749858856,0.21016721427440643,0.026330433785915375
1749038401.9151268,-1.7942121664630335,-0.613345281486847,-1.003472089767456,0.10187117635693355,0.031727105379104614,5.090968608856201,-0.002787681296467781,0.0010797659633681178,0.0008897932711988688,9.643611701903865e-05,-6.727258005412295e-05,-0.00018515058036427945,-0.28457459807395935,-0.8571630120277405,-0.1500905454158783,-0.27929070591926575,0.21617759764194489,0.050478436052799225
1749038401.9151924,-1.7942307631122034,-0.6133297246745606,-1.003472089767456,0.10187117635693355,0.0317532904446125,5.090933799743652,-0.0036179861053824425,0.0007535980548709631,0.0008365458925254643,9.498564759269357e-05,-6.623235822189599e-05,-0.00017986299644690007,-0.29066136479377747,-0.8379392623901367,-0.14689114689826965,-0.27802276611328125,0.23131126165390015,0.03288580849766731
1749038401.915261,-1.7942307631122034,-0.6133297246745606,-1.003472089767456,0.10187117635693355,0.0317532904446125,5.090933799743652,-0.0036179861053824425,0.0007535980548709631,0.0008365458925254643,9.498564759269357e-05,-6.623235822189599e-05,-0.00017986299644690007,-0.29066136479377747,-0.8379392623901367,-0.14689114689826965,-0.27802276611328125,0.23131126165390015,0.03288580849766731
1749038401.9153278,-1.7942236105548304,-0.6133054059794922,-1.003460168838501,0.10187117635693355,0.031796764582395554,5.090968608856201,-0.004405855666846037,0.0006779373507015407,0.0007315559778362513,9.357491217087954e-05,-6.070395465940237e-05,-0.00017486939032096416,-0.29081976413726807,-0.8424679040908813,-0.15082630515098572,-0.31153741478919983,0.24931971728801727,0.026850610971450806
1749038401.915394,-1.7942588965045374,-0.6133371752551575,-1.003453016281128,0.10188667356457515,0.03171877935528755,5.090921878814697,-0.005258386023342609,0.002035132609307766,0.0015069965738803148,0.00013155690976418555,-5.100239650346339e-05,-9.98859031824395e-05,-0.29920950531959534,-0.8638874888420105,-0.14179998636245728,-0.3557186722755432,0.30360981822013855,0.022671498358249664
1749038401.915459,-1.794286076222555,-0.6133135718158265,-1.003453016281128,0.1018940645405273,0.03170297294855118,5.090945720672607,-0.00557521590963006,0.0030151132959872484,0.003042289288714528,6.642886000918224e-05,-4.286558396415785e-05,-5.821989179821685e-05,-0.31429070234298706,-0.8664357662200928,-0.13274934887886047,-0.37144985795021057,0.34473612904548645,0.03802748769521713
1749038401.9155257,-1.7942822615252894,-0.6133017700961609,-1.003460168838501,0.10186295091595454,0.0318157896399498,5.090968608856201,-0.007199439220130444,0.0024535541888326406,0.0038704057224094868,1.1738677130779251e-05,3.88484877476003e-05,-4.9776030209613964e-05,-0.30979281663894653,-0.8760414123535156,-0.15734931826591492,-0.40853533148765564,0.3573196828365326,0.04920991510152817
1749038401.9155922,-1.7942946592914026,-0.6132779282382508,-1.0034518241882324,0.10183136045422359,0.03172232210636139,5.090968608856201,-0.00798678956925869,0.0017023577820509672,0.0033543056342750788,-0.000722874014172703,0.00023599425912834704,-4.7258952690754086e-05,-0.30610206723213196,-0.8430611491203308,-0.14477381110191345,-0.44646698236465454,0.3970484137535095,0.03915208950638771
1749038401.9156585,-1.794302765523092,-0.6132898491672059,-1.003448247909546,0.10183958589520259,0.03177386149764061,5.091002941131592,-0.00804577860981226,0.0016399214509874582,0.002782857045531273,-0.003988033160567284,0.0017934376373887062,-4.584114140016027e-05,-0.3041432797908783,-0.8361915349960327,-0.12898266315460205,-0.46056103706359863,0.44026362895965576,0.06598058342933655
1749038401.9157248,-1.7943108717547815,-0.6132971209338685,-1.003448247909546,0.10184685766186519,0.031796786934137344,5.090980052947998,-0.007891103625297546,0.0015253787860274315,0.003072588937357068,-0.005877667106688023,0.005212424788624048,-4.4665524910669774e-05,-0.3009582459926605,-0.8284159898757935,-0.1141263023018837,-0.4712558388710022,0.4601626396179199,0.05584706738591194
1749038401.9157915,-1.7943857351886194,-0.6132779282382508,-1.003448247909546,0.10181943952526851,0.031777359545230865,5.090968608856201,-0.009439067915081978,0.0013383444165810943,0.0038036066107451916,-0.007342807948589325,0.00729741808027029,-4.357730722404085e-05,-0.2973725497722626,-0.8479232788085938,-0.11373406648635864,-0.5079684257507324,0.48202434182167053,0.07163909822702408
1749038401.9159431,-1.7943318525897425,-0.6132660073092957,-1.0034208297729492,0.1017952400394897,0.03176660090684891,5.0909528732299805,-0.010483100078999996,0.0014214061666280031,0.0048021674156188965,-0.009831195697188377,0.008358181454241276,-4.254594023223035e-05,-0.31121158599853516,-0.8274722695350647,-0.12077412009239197,-0.5126193761825562,0.476962149143219,0.046231359243392944
1749038401.9173975,-1.7943828741656702,-0.6132971209338685,-1.0034089088439941,0.1017870145985107,0.03180296719074249,5.090980052947998,-0.010326581075787544,0.002031630137935281,0.005721349734812975,-0.011602786369621754,0.008985180407762527,-4.156314753345214e-05,-0.29261642694473267,-0.8443759679794312,-0.12045519053936005,-0.5135864615440369,0.49128514528274536,0.041015300899744034
1749038401.9585013,-1.7943952719317835,-0.6132815641215821,-1.0033963918685913,0.10176662980999751,0.03184099122881889,5.090968608856201,-0.010479399934411049,0.002021308057010174,0.00567234680056572,-0.011967301368713379,0.009485434740781784,-4.062489097123034e-05,-0.29314088821411133,-0.8537217378616333,-0.10481314361095428,-0.5212969183921814,0.5049229264259338,0.059279680252075195
1749038401.9585795,-1.794452969227926,-0.6132779282382508,-1.0033963918685913,0.10173527776684566,0.03189611807465553,5.090961933135986,-0.01083800382912159,0.0019996471237391233,0.00591773446649313,-0.013833905570209026,0.01020488329231739,-3.9728118281345814e-05,-0.31755295395851135,-0.8520576357841492,-0.11189403384923935,-0.5232205390930176,0.5184096693992615,0.06352650374174118
1749038401.958651,-1.794443432484762,-0.6132779282382508,-1.0034161806106567,0.10170261442150874,0.03190802410244942,5.090968608856201,-0.01087514404207468,0.0015294809127226472,0.006718778517097235,-0.015131368301808834,0.010949845425784588,-2.7694128220900893e-05,-0.30970701575279236,-0.8444539904594421,-0.10324898362159729,-0.5393009185791016,0.5412738919258118,0.06394582986831665
1749038401.9587202,-1.7944706122027796,-0.6132815641215821,-1.003403663635254,0.1016511160084228,0.031900834292173386,5.090949535369873,-0.011794047430157661,0.001191728631965816,0.007655847817659378,-0.016611456871032715,0.012505562976002693,-2.0483661501202732e-05,-0.29580122232437134,-0.848114550113678,-0.10341255366802216,-0.5456169247627258,0.5492527484893799,0.06745390594005585
1749038401.958788,-1.7945225874530237,-0.6132577222636719,-1.0033835172653198,0.10163919507946773,0.031936805695295334,5.090945720672607,-0.012377683073282242,0.0009759661625139415,0.007873374037444592,-0.017593706026673317,0.01571521908044815,-1.888822953333147e-05,-0.326417475938797,-0.8393000960350037,-0.1092919111251831,-0.546491265296936,0.5457555651664734,0.08162688463926315
1749038401.9588556,-1.7944911162005823,-0.6132815641215821,-1.0033483505249023,0.10159925996746821,0.03200795128941536,5.090980052947998,-0.013420205563306808,0.0008264032076112926,0.007480283733457327,-0.0191008560359478,0.01858103834092617,-1.8298025679541752e-05,-0.29895535111427307,-0.8306142687797546,-0.10277288407087326,-0.574532151222229,0.5685375332832336,0.06074579060077667
1749038401.9589233,-1.7945306936847132,-0.6133126181415101,-1.0033209323883057,0.10158638536419673,0.03202099725604057,5.0909528732299805,-0.013822472654283047,0.000834694248624146,0.008051338605582714,-0.020162470638751984,0.020317908376455307,-1.789764610293787e-05,-0.30351412296295166,-0.8248749375343323,-0.09462092816829681,-0.5781834721565247,0.5654782652854919,0.08504147082567215
1749038401.9589913,-1.7945821920977991,-0.6132612985423584,-1.0032856464385986,0.10151867448773189,0.03206062316894531,5.090949535369873,-0.014796026051044464,0.0008398796780966222,0.009071910753846169,-0.02047523483633995,0.022338546812534332,-1.1429864571255166e-05,-0.3064497709274292,-0.8305017352104187,-0.09187190979719162,-0.6102237701416016,0.5778740048408508,0.10154713690280914
1749038401.9590585,-1.7946026960956019,-0.613269643192627,-1.0033161640167236,0.10147873937573237,0.03204633295536041,5.0909528732299805,-0.01492195762693882,0.0006339610554277897,0.00945236999541521,-0.022393180057406425,0.02392418123781681,-2.0197769572405377e-06,-0.31056007742881775,-0.8488684296607971,-0.10262391716241837,-0.6393362283706665,0.5995604991912842,0.10899663716554642
1749038401.9591246,-1.7946613470660608,-0.6132852000049134,-1.0033037662506104,0.10143093645062251,0.03211717680096626,5.090930461883545,-0.015875693410634995,0.0006028817151673138,0.01009437907487154,-0.02475154586136341,0.025636203587055206,-3.569157911442744e-07,-0.2993488609790802,-0.8148815631866455,-0.08687801659107208,-0.6246603727340698,0.6177313923835754,0.10511241108179092
1749038401.959191,-1.79460317293276,-0.6132504504970093,-1.0032763481140137,0.10137085496868892,0.03216146305203438,5.090973377227783,-0.01631060242652893,0.0006326088914647698,0.010266813449561596,-0.02729400247335434,0.028263071551918983,-6.30707717164114e-08,-0.29394859075546265,-0.8105853199958801,-0.07742048054933548,-0.6669989228248596,0.6354120969772339,0.09644969552755356
1749038401.9592564,-1.7946942488299769,-0.6132504504970093,-1.0032644271850586,0.1013226944157104,0.032252587378025055,5.090961933135986,-0.016685739159584045,0.0006573580903932452,0.010571911931037903,-0.03010929748415947,0.03070838376879692,-1.1145266931578135e-08,-0.2770603895187378,-0.8315264582633972,-0.08884666860103607,-0.6604459285736084,0.6465030312538147,0.09807382524013519
1749038401.9593227,-1.7947619597064417,-0.6133043330958863,-1.0032405853271484,0.10126261293377681,0.032307885587215424,5.090992450714111,-0.01588248647749424,0.0010175415081903338,0.01057768240571022,-0.033579666167497635,0.03476205840706825,0.0014617416309192777,-0.28560006618499756,-0.8505131602287292,-0.06181156635284424,-0.7027084231376648,0.6728374361991882,0.08694178611040115
1749038401.9593885,-1.794753376637594,-0.6132577222636719,-1.0032286643981934,0.10118310033764644,0.032384634017944336,5.090961933135986,-0.015751255676150322,0.0010338504798710346,0.012382124550640583,-0.03732295334339142,0.03888801112771034,0.0018054904649034142,-0.28799229860305786,-0.8395264744758606,-0.0782167986035347,-0.7082092761993408,0.666312575340271,0.10239282250404358
1749038401.959455,-1.7947590986834925,-0.6132504504970093,-1.003204345703125,0.10108713685955806,0.032440029084682465,5.090965270996094,-0.015042203478515148,0.0008722578641027212,0.011991103179752827,-0.04112301394343376,0.041779883205890656,0.0018822529818862677,-0.2895051836967468,-0.8368604779243469,-0.057731449604034424,-0.7027992010116577,0.6687954664230347,0.10835489630699158
1749038401.9595215,-1.7948411146747034,-0.6132349532893677,-1.0031769275665283,0.1010029751011352,0.03253580257296562,5.0909423828125,-0.014659392647445202,0.0008745958330109715,0.012398247607052326,-0.04422035813331604,0.04490356519818306,0.0018730084411799908,-0.3134620785713196,-0.8368368744850159,-0.052201155573129654,-0.7250992059707642,0.6921711564064026,0.12004195898771286
1749038401.9595873,-1.794814411793844,-0.6132421654513855,-1.0031447410583496,0.10092215120281978,0.032663166522979736,5.090965270996094,-0.014983206987380981,0.0008432451286353171,0.01243087463080883,-0.04564771428704262,0.048190899193286896,0.0019322456791996956,-0.31642812490463257,-0.8365008234977722,-0.05408912152051926,-0.725735604763031,0.6739384531974792,0.135641410946846
1749038401.9596534,-1.794858757649557,-0.6132923525622864,-1.0031203031539917,0.10079495489086909,0.032708682119846344,5.090992450714111,-0.014967185445129871,0.000783845956902951,0.013524805195629597,-0.04898703843355179,0.050144512206315994,0.0023230579681694508,-0.3241786062717438,-0.8461248874664307,-0.06877255439758301,-0.7172045707702637,0.706526517868042,0.1386260837316513
1749038401.959716,-1.7949021498309534,-0.6132349532893677,-1.0030810832977295,0.10067920267071528,0.03285865858197212,5.090989112854004,-0.015397784300148487,0.0007848009117878973,0.014177436009049416,-0.051789652556180954,0.05330522358417511,0.0036711078137159348,-0.32121747732162476,-0.8551328778266907,-0.06646059453487396,-0.7376135587692261,0.7038251161575317,0.12291913479566574
1749038401.9597826,-1.7949259916888636,-0.6132887762835999,-1.0030566453933716,0.10055546342816157,0.0329560786485672,5.090993404388428,-0.01531652919948101,0.0008264379575848579,0.013474085368216038,-0.054092489182949066,0.05733191594481468,0.004085378255695105,-0.2977086901664734,-0.8528069853782654,-0.06937464326620102,-0.7317562103271484,0.6790072321891785,0.11477721482515335
1749038401.9600375,-1.7950118223773401,-0.6132266086390992,-1.003051996231079,0.10048942148175044,0.033067844808101654,5.0910162925720215,-0.01570398546755314,0.0008428843575529754,0.014741562306880951,-0.05638762563467026,0.05884915590286255,0.003953113220632076,-0.32391801476478577,-0.8365252614021301,-0.09329517185688019,-0.7188054323196411,0.6934055685997009,0.14303140342235565
1749038401.961382,-1.7950065771686,-0.6132732790759583,-1.0030086040496826,0.1003379064747314,0.03315998241305351,5.090993404388428,-0.01498060766607523,0.0013432399136945605,0.013180423527956009,-0.05881156399846077,0.05823412910103798,0.0038555022329092026,-0.2958598732948303,-0.8584478497505188,-0.059103406965732574,-0.7328747510910034,0.7039958834648132,0.12354795634746552
1749038402.0022883,-1.7950337568866175,-0.6132177275470276,-1.003000259399414,0.10021392881359859,0.03327301889657974,5.091009616851807,-0.015969168394804,0.0012803440913558006,0.013073284178972244,-0.06166640296578407,0.05774613097310066,0.0037466383073478937,-0.3004399538040161,-0.8667812943458557,-0.05247906595468521,-0.732277512550354,0.7228068709373474,0.13067200779914856
1749038402.0023344,-1.7950456778155726,-0.6132338804057618,-1.002988338470459,0.10008875905957026,0.033384621143341064,5.091040134429932,-0.015031594783067703,0.0012159028556197882,0.012534030713140965,-0.0640309751033783,0.059758447110652924,0.0035179860424250364,-0.31481897830963135,-0.8487354516983032,-0.06163928657770157,-0.7158946990966797,0.7272915840148926,0.11495056748390198
1749038402.0023775,-1.7950852552997034,-0.6132568281940003,-1.0029680728912354,0.09992520391430659,0.03353578969836235,5.091074466705322,-0.015693843364715576,0.001312726060859859,0.012893821112811565,-0.06630019098520279,0.061310410499572754,0.003377513960003853,-0.31335729360580444,-0.8280826210975647,-0.05785420164465904,-0.6986933946609497,0.7287567257881165,0.14446194469928741
1749038402.0024168,-1.7950852552997034,-0.6132568281940003,-1.0029680728912354,0.09992520391430659,0.03353578969836235,5.091074466705322,-0.015693843364715576,0.001312726060859859,0.012893821112811565,-0.06630019098520279,0.061310410499572754,0.003377513960003853,-0.31335729360580444,-0.8280826210975647,-0.05785420164465904,-0.6986933946609497,0.7287567257881165,0.14446194469928741
1749038402.0024555,-1.7951887289630335,-0.6132338804057618,-1.002931833267212,0.09969214975323482,0.03379136323928833,5.091052055358887,-0.016207225620746613,0.0012565036304295063,0.013034485280513763,-0.06864476948976517,0.06483528763055801,0.004259444307535887,-0.3139653205871582,-0.8590890765190125,-0.03419458493590355,-0.6957363486289978,0.7626819014549255,0.16219589114189148
1749038402.002494,-1.7951825300799769,-0.613253192310669,-1.0029270648956299,0.09952513753857417,0.03393177315592766,5.091048717498779,-0.015713509172201157,0.0014199006836861372,0.013242138549685478,-0.07099249213933945,0.0660347044467926,0.004795752931386232,-0.3109375536441803,-0.8504862785339355,-0.0415181890130043,-0.6727163791656494,0.7444079518318176,0.1350434571504593
1749038402.002532,-1.7952483336078089,-0.613225058918335,-1.0028722286224365,0.09937207281079097,0.034013424068689346,5.091060638427734,-0.016288936138153076,0.001485619810409844,0.013685592450201511,-0.07291928678750992,0.06427166610956192,0.005521524231880903,-0.2763277292251587,-0.8592602610588074,-0.04507067799568176,-0.6496458053588867,0.7622498869895935,0.13289503753185272
1749038402.0025709,-1.7952254454242151,-0.6132140916636963,-1.0028443336486816,0.09923140584912105,0.03417545557022095,5.0910468101501465,-0.015914278104901314,0.0016358090797439218,0.01353730633854866,-0.07327266037464142,0.06364637613296509,0.005449500400573015,-0.2985725402832031,-0.8546629548072815,-0.04137856513261795,-0.6405506134033203,0.7838764190673828,0.14859752357006073
1749038402.002609,-1.795281712208883,-0.6132059258273621,-1.0028204917907715,0.09908728181805415,0.03428848087787628,5.0910844802856445,-0.01667357236146927,0.0015312940813601017,0.013576203025877476,-0.07352560758590698,0.0657145157456398,0.004903108347207308,-0.26567089557647705,-0.8655782341957092,-0.035997483879327774,-0.6346293091773987,0.7954545021057129,0.12769171595573425
1749038402.002646,-1.7952974478351038,-0.613225058918335,-1.0027775764465332,0.09891168653454585,0.03442412242293358,5.091081142425537,-0.016420917585492134,0.001424323534592986,0.013540346175432205,-0.07250532507896423,0.0699654370546341,0.004340490326285362,-0.30026641488075256,-0.8382355570793152,-0.05119577795267105,-0.6306391954421997,0.7937785387039185,0.13598163425922394
1749038402.0026827,-1.7953384558307093,-0.6132286948016663,-1.002737045288086,0.09878294050183101,0.0345488116145134,5.0911545753479,-0.015890035778284073,0.0013771348167210817,0.013516426086425781,-0.07083743810653687,0.07260069251060486,0.004487060010433197,-0.3212439715862274,-0.8270375728607178,-0.04607726261019707,-0.5971941947937012,0.7705979943275452,0.1396702229976654
1749038402.0027196,-1.7954004446612757,-0.6132095617106934,-1.002720594406128,0.09862320005383296,0.03474334627389908,5.0910964012146,-0.016637494787573814,0.0011486823204904795,0.014100277796387672,-0.07182241976261139,0.07515963912010193,0.005067520774900913,-0.29739272594451904,-0.8330491185188293,-0.03569445013999939,-0.6034513711929321,0.7471988201141357,0.12173190712928772
1749038402.002757,-1.7954471747027796,-0.6132021707347413,-1.0027086734771729,0.0985063749500732,0.03483322262763977,5.091135501861572,-0.01657266914844513,0.0009474863763898611,0.014180077239871025,-0.07102998346090317,0.07757540792226791,0.005453220568597317,-0.3241313099861145,-0.8220874071121216,-0.037421178072690964,-0.6081796884536743,0.739429771900177,0.1493530422449112
1749038402.002794,-1.795448128377096,-0.6132214826396485,-1.0027039051055908,0.09837405263867183,0.03502392768859863,5.091139316558838,-0.017706450074911118,0.0008963632863014936,0.014154089614748955,-0.06726566702127457,0.07741423696279526,0.00588248111307621,-0.2934248745441437,-0.8259020447731018,-0.021697163581848145,-0.6075729727745056,0.7249794006347656,0.12162987887859344
1749038402.0028303,-1.79543382326235,-0.613225058918335,-1.0026795864105225,0.09826116144146724,0.03520308807492256,5.091152667999268,-0.01800685003399849,0.0008175803814083338,0.01448974758386612,-0.06442928314208984,0.07702270150184631,0.005518449004739523,-0.31233665347099304,-0.8383828401565552,-0.03138349950313568,-0.6537782549858093,0.7385964393615723,0.14398840069770813
1749038402.0028667,-1.7954772154437464,-0.6132059258273621,-1.002612829208374,0.0981324154087524,0.03533995524048805,5.0911407470703125,-0.017918389290571213,0.0008238678565248847,0.015026967972517014,-0.066398024559021,0.0772475004196167,0.0049268510192632675,-0.3115532398223877,-0.8452286124229431,-0.03921809047460556,-0.6530929803848267,0.7084708213806152,0.1365598887205124
1749038402.0029032,-1.7955525557147425,-0.6132095617106934,-1.0026164054870605,0.09798066198315425,0.03546923026442528,5.091121673583984,-0.019250571727752686,0.0006565453368239105,0.015232093632221222,-0.06661920994520187,0.07925460487604141,0.004829895216971636,-0.31154805421829224,-0.8218601942062378,-0.017599601298570633,-0.6475300192832947,0.7002376317977905,0.14478427171707153
1749038402.0029397,-1.7955883185016077,-0.6132059258273621,-1.0025837421417236,0.0978364187427978,0.03563622757792473,5.091171741485596,-0.018242185935378075,0.0007547942805103958,0.015415777452290058,-0.06700225919485092,0.07862970978021622,0.0047135124914348125,-0.29897892475128174,-0.8034631609916687,-0.023563958704471588,-0.6660909652709961,0.7076916098594666,0.14704634249210358
1749038402.0029762,-1.7956245581256312,-0.6131556195071717,-1.002556324005127,0.09772388517346187,0.035839080810546875,5.091188907623291,-0.018385659903287888,0.0008086457964964211,0.01562747359275818,-0.06906458735466003,0.07430077344179153,0.005040004849433899,-0.31458836793899536,-0.8101344108581543,-0.02814307250082493,-0.6535950899124146,0.730305552482605,0.15302462875843048
1749038402.0030134,-1.795617405568258,-0.6131976407817383,-1.0025324821472168,0.09758059560742183,0.03598572686314583,5.091152667999268,-0.01948217675089836,0.0017200920265167952,0.015632841736078262,-0.06807737052440643,0.07403220981359482,0.0051519908010959625,-0.32830220460891724,-0.8115160465240479,-0.02325286902487278,-0.6731330156326294,0.7286906242370605,0.13524013757705688
1749038402.0033586,-1.7956927458392542,-0.6131784480861207,-1.0024806261062622,0.09744004785504146,0.036107297986745834,5.0911993980407715,-0.019947057589888573,0.0019898524042218924,0.016577381640672684,-0.067031130194664,0.07224929332733154,0.004871915094554424,-0.33187147974967957,-0.8496319651603699,-0.02791030891239643,-0.6754303574562073,0.7597828507423401,0.14785268902778625
1749038402.005316,-1.7957328001605433,-0.6131784480861207,-1.0024759769439697,0.09729520856823726,0.03625103831291199,5.091219425201416,-0.019909169524908066,0.002060094615444541,0.01616695523262024,-0.0686926618218422,0.07289303094148636,0.004694895353168249,-0.3099786937236786,-0.8340362310409546,-0.010387053713202477,-0.7027571797370911,0.7417564392089844,0.1681635081768036
1749038402.0463238,-1.7957294623004358,-0.6132048529437562,-1.002408742904663,0.09714011728253169,0.03638997673988342,5.091253757476807,-0.020830191671848297,0.001790668466128409,0.01661231741309166,-0.07032249122858047,0.07452590763568878,0.005197632592171431,-0.31568145751953125,-0.8279948234558105,-0.018871057778596878,-0.7008168697357178,0.7481679916381836,0.13704602420330048
1749038402.0463703,-1.7958233992206019,-0.6131976407817383,-1.0023843050003052,0.09700314580883784,0.03650481998920441,5.091228008270264,-0.02119373343884945,0.0016696637030690908,0.016543671488761902,-0.07190077751874924,0.07379808276891708,0.00536250788718462,-0.324729859828949,-0.8100968599319458,-0.008965160697698593,-0.7158161997795105,0.7611774802207947,0.13826054334640503
1749038402.0464108,-1.7958796660052698,-0.6131737989238282,-1.002357006072998,0.09685532628979487,0.03671048954129219,5.091224670410156,-0.021868377923965454,0.0016466695815324783,0.017297912389039993,-0.07374172657728195,0.07148522138595581,0.005867125932127237,-0.31507986783981323,-0.8344874382019043,-0.020601194351911545,-0.7246606349945068,0.7895352244377136,0.14959609508514404
1749038402.0464497,-1.7959464232074183,-0.6131583017161866,-1.0023367404937744,0.09671120225872798,0.036830704659223557,5.091243267059326,-0.021673865616321564,0.0018619087059050798,0.017237180843949318,-0.07570645958185196,0.0726240947842598,0.005663619842380285,-0.2896820902824402,-0.829558253288269,0.0017665475606918335,-0.707181453704834,0.8037170767784119,0.14508521556854248
1749038402.046489,-1.795934025441305,-0.6131701630404969,-1.002296805381775,0.09657375394787593,0.036942049860954285,5.091232776641846,-0.02181467041373253,0.0019352848175913095,0.01723879761993885,-0.07824814319610596,0.07542245090007782,0.00540821673348546,-0.30373305082321167,-0.8138354420661926,-0.020578213036060333,-0.7137961387634277,0.7973655462265015,0.15007735788822174
1749038402.0465274,-1.7960146109210413,-0.6132121247104187,-1.0022492408752441,0.09640578805889888,0.03712053969502449,5.0912981033325195,-0.022423362359404564,0.0025596716441214085,0.018563665449619293,-0.0812055766582489,0.07582502067089081,0.0050502256490290165,-0.30965346097946167,-0.8320354223251343,-0.019695647060871124,-0.7121379971504211,0.790806233882904,0.15207086503505707
1749038402.0465653,-1.7960122267352503,-0.6131391090205689,-1.0022200345993042,0.0962022978016357,0.03726447373628616,5.091263771057129,-0.022529462352395058,0.0028059782925993204,0.018983427435159683,-0.08395988494157791,0.07808996737003326,0.005323884077370167,-0.30651894211769104,-0.8211028575897217,-0.0024795159697532654,-0.6977460980415344,0.8164260983467102,0.14645476639270782
1749038402.0466025,-1.7960880438434046,-0.6131426852992554,-1.0021963119506836,0.0960652071186523,0.03743952140212059,5.091306686401367,-0.022372549399733543,0.002976545598357916,0.018801912665367126,-0.08722496777772903,0.08032745122909546,0.0053102015517652035,-0.2971283197402954,-0.838915228843689,-0.019356269389390945,-0.702109158039093,0.8138866424560547,0.16067716479301453
1749038402.0466394,-1.7961238066302698,-0.6131582421115418,-1.002144455909729,0.09586922704663081,0.03760385140776634,5.091311454772949,-0.022766949608922005,0.0027480542194098234,0.019007965922355652,-0.08995434641838074,0.08321814239025116,0.005955930799245834,-0.3139331340789795,-0.8419915437698364,-0.0024697743356227875,-0.6721643209457397,0.8019474148750305,0.1402059942483902
1749038402.0466766,-1.7961681524859827,-0.613181011085846,-1.0021082162857056,0.0956696706959228,0.03779440373182297,5.09132719039917,-0.0232581477612257,0.002720498014241457,0.01925094984471798,-0.09068728983402252,0.08533880859613419,0.005844296887516975,-0.30503377318382263,-0.8468655347824097,-0.012952957302331924,-0.6495886445045471,0.815165102481842,0.14763635396957397
1749038402.0467136,-1.7962234655963343,-0.6131654542735596,-1.002091646194458,0.09551207601513667,0.037964172661304474,5.0913238525390625,-0.022750040516257286,0.002283420180901885,0.019430002197623253,-0.09093867987394333,0.08749338984489441,0.005606180522590876,-0.3225538730621338,-0.8325403928756714,-0.014035940170288086,-0.6663777232170105,0.8040517568588257,0.16444823145866394
1749038402.04675,-1.7962597052203577,-0.613149957065918,-1.0020242929458618,0.09530882417645259,0.03816680982708931,5.091335296630859,-0.02324526570737362,0.0021317177452147007,0.01978994347155094,-0.09457334876060486,0.08902977406978607,0.0053488146513700485,-0.33094891905784607,-0.8279058933258057,-0.02690286561846733,-0.6258891820907593,0.8016061782836914,0.15480521321296692
1749038402.0467865,-1.7963221708880823,-0.6131729048541565,-1.0019850730895996,0.09513573228802485,0.03829696401953697,5.091347694396973,-0.02356409840285778,0.0022485346999019384,0.01982303149998188,-0.09129424393177032,0.09209904074668884,0.005067869089543819,-0.3127793073654175,-0.8207995891571045,-0.01286960020661354,-0.6574383974075317,0.8064574003219604,0.15958620607852936
1749038402.0468225,-1.7963674704181116,-0.613149957065918,-1.001971960067749,0.09493939458813472,0.038517870008945465,5.09137487411499,-0.024586088955402374,0.0027640846092253923,0.020276017487049103,-0.08791470527648926,0.09378831088542938,0.005524046719074249,-0.30048778653144836,-0.8222693800926208,-0.00427430123090744,-0.6575239896774292,0.7747547626495361,0.14137054979801178
1749038402.046859,-1.7964375654803675,-0.6131447714618226,-1.0019129514694214,0.09475915014233394,0.0386994443833828,5.091397285461426,-0.02424532175064087,0.0029729953967034817,0.020379122346639633,-0.08813784271478653,0.09494481235742569,0.006279018707573414,-0.3334411084651947,-0.8325445652008057,-0.019127003848552704,-0.6585598587989807,0.7950854897499084,0.1406603902578354
1749038402.046895,-1.7964428106891077,-0.6131256383708497,-1.0018619298934937,0.09459452211346431,0.03890591859817505,5.091383457183838,-0.02423766814172268,0.0031544016674160957,0.020162733271718025,-0.09010271728038788,0.09597977250814438,0.006071954499930143,-0.34212565422058105,-0.8556078672409058,0.005587905645370483,-0.6779388189315796,0.7692738771438599,0.12434384971857071
1749038402.0469317,-1.7964428106891077,-0.6131256383708497,-1.0018619298934937,0.09459452211346431,0.03890591859817505,5.091383457183838,-0.02423766814172268,0.0031544016674160957,0.020162733271718025,-0.09010271728038788,0.09597977250814438,0.006071954499930143,-0.34212565422058105,-0.8556078672409058,0.005587905645370483,-0.6779388189315796,0.7692738771438599,0.12434384971857071
1749038402.0469692,-1.796553913746969,-0.6131375592998047,-1.0017691850662231,0.09424571573223872,0.03936053067445755,5.091414451599121,-0.026170048862695694,0.00242248410359025,0.021217990666627884,-0.08601651340723038,0.09303570538759232,0.0055050053633749485,-0.364841103553772,-0.8336585164070129,-0.0009397789835929871,-0.7030817270278931,0.7696838974952698,0.1472739279270172
1749038402.0470057,-1.7965601126300257,-0.6131137174418946,-1.0017637014389038,0.09406523286785884,0.03950601816177368,5.0914225578308105,-0.02649407647550106,0.0023727822117507458,0.02160855010151863,-0.08699125051498413,0.09216304868459702,0.005609121639281511,-0.3195801377296448,-0.8305555582046509,-0.011364191770553589,-0.7173758149147034,0.7655205726623535,0.16196303069591522
1749038402.0470417,-1.7966740767108362,-0.6131054323962708,-1.0017280578613281,0.09388498842205806,0.03969622030854225,5.0914225578308105,-0.025810977444052696,0.0026195193640887737,0.02032187394797802,-0.08979077637195587,0.09129534661769867,0.005880629178136587,-0.3246685266494751,-0.8268014788627625,0.013441085815429688,-0.7034902572631836,0.7669857144355774,0.16117137670516968
1749038402.0474114,-1.796687428151266,-0.6130981606296082,-1.0016762018203735,0.09369711458172603,0.0398954302072525,5.091439723968506,-0.026494460180401802,0.0024987589567899704,0.019890539348125458,-0.0923052430152893,0.09169182181358337,0.006020262837409973,-0.36784282326698303,-0.8343299627304077,0.01951748877763748,-0.7397927641868591,0.7935100793838501,0.1528508961200714
1749038402.0493808,-1.7967351118670862,-0.6131054323962708,-1.0016405582427979,0.09352068483319087,0.040083833038806915,5.091439723968506,-0.029141440987586975,0.0025336837861686945,0.020459111779928207,-0.09323505312204361,0.09343937784433365,0.006041693966835737,-0.3044460415840149,-0.8266428112983704,0.010984927415847778,-0.7323673367500305,0.7587732672691345,0.14577677845954895
1749038402.090305,-1.7968104521380823,-0.6130935114673157,-1.0016083717346191,0.09332828103985591,0.04025716334581375,5.091470241546631,-0.02872823178768158,0.0021222212817519903,0.021125009283423424,-0.09631802886724472,0.09278833866119385,0.005996534135192633,-0.3022964894771576,-0.8322522044181824,0.011839773505926132,-0.7154257893562317,0.7771997451782227,0.14629773795604706
1749038402.0903516,-1.7968700567828577,-0.6130898755839844,-1.0015678405761719,0.09313945352520747,0.0404217466711998,5.091454982757568,-0.027402151376008987,0.0016569901490584016,0.02173270285129547,-0.09840912371873856,0.0896584540605545,0.005660887807607651,-0.3264521360397339,-0.8115232586860657,0.03234995901584625,-0.7156081199645996,0.8147026896476746,0.15236371755599976
1749038402.0903926,-1.7969444433795374,-0.6130671066096802,-1.0015358924865723,0.09292392312969966,0.0406276173889637,5.091501235961914,-0.027584141120314598,0.001235609408468008,0.021659813821315765,-0.09926828742027283,0.09054972976446152,0.005924151744693518,-0.3396369516849518,-0.7994283437728882,0.014702271670103073,-0.7027778625488281,0.8278589248657227,0.14325770735740662
1749038402.090432,-1.7969268004046839,-0.6130935114673157,-1.001468539237976,0.09272698938336177,0.04080547019839287,5.091494083404541,-0.02905823476612568,0.0009388208854943514,0.02186533436179161,-0.1023700013756752,0.09291455149650574,0.006358637474477291,-0.3453217148780823,-0.7898316979408264,0.020516544580459595,-0.7052873373031616,0.8411939740180969,0.1518544852733612
1749038402.09047,-1.7970417181598108,-0.6130862993052979,-1.001436471939087,0.092518611545227,0.04100450128316879,5.0914835929870605,-0.03059007227420807,0.000914687174372375,0.022058958187699318,-0.10550663620233536,0.09669226408004761,0.006566049065440893,-0.32090258598327637,-0.8005499243736267,0.03984697908163071,-0.694951057434082,0.819041907787323,0.15449202060699463
1749038402.0905075,-1.7970979849444788,-0.6130790275386353,-1.0013846158981323,0.09231082975353999,0.041184697300195694,5.091522216796875,-0.030322890728712082,0.001011060201562941,0.02206284925341606,-0.10691939294338226,0.09675231575965881,0.0063841212540864944,-0.3078637421131134,-0.7927354574203491,0.04230876266956329,-0.7119680643081665,0.8433411121368408,0.13313591480255127
1749038402.0905452,-1.797169033681051,-0.6130981606296082,-1.0013442039489746,0.09209422647442622,0.041385453194379807,5.0915117263793945,-0.03082605078816414,0.0011919026728719473,0.0225942675024271,-0.10898859798908234,0.09914108365774155,0.006565451622009277,-0.33882561326026917,-0.7762488722801208,0.033606160432100296,-0.6826342344284058,0.8428273797035217,0.14887017011642456
1749038402.0905826,-1.7972334066974085,-0.613074318771698,-1.001304268836975,0.091869516963623,0.04159267246723175,5.09155797958374,-0.031455475836992264,0.0013764866162091494,0.023637128993868828,-0.11335376650094986,0.10432951152324677,0.006868611089885235,-0.31752437353134155,-0.8035628795623779,0.049319688230752945,-0.6592640280723572,0.8199243545532227,0.14888274669647217
1749038402.0906193,-1.7973364035235804,-0.6130588215640564,-1.0012407302856445,0.09166483461346431,0.0417851023375988,5.09154748916626,-0.03189995884895325,0.0027441121637821198,0.024623455479741096,-0.11232791841030121,0.1087050661444664,0.006859139539301395,-0.3265373110771179,-0.8369562029838562,0.033296313136816025,-0.6723734140396118,0.8137058019638062,0.17204275727272034
1749038402.0906565,-1.7973459402667444,-0.613062397842743,-1.001199722290039,0.09143261491741939,0.042074862867593765,5.091574668884277,-0.03167724609375,0.002986455801874399,0.024434344843029976,-0.10986607521772385,0.11289134621620178,0.006757725495845079,-0.3579918146133423,-0.8310907483100891,0.03599689155817032,-0.6786852478981018,0.8055765628814697,0.153485506772995
1749038402.0906935,-1.7973821798907679,-0.6130815905383606,-1.0011359453201294,0.09123937665905757,0.04228414595127106,5.09158992767334,-0.03232862427830696,0.002586500719189644,0.02463088370859623,-0.10881619155406952,0.11475670337677002,0.006480497308075428,-0.3376978933811188,-0.8090110421180725,0.038107894361019135,-0.6949813365936279,0.7740175724029541,0.15837156772613525
1749038402.0907304,-1.797476593648092,-0.6130504769137879,-1.0010849237442017,0.0909840303608398,0.042547807097435,5.091617584228516,-0.032922159880399704,0.002357247518375516,0.025289790704846382,-0.11065427958965302,0.11885219067335129,0.0064852372743189335,-0.3146792948246002,-0.8357775807380676,0.03820981830358505,-0.7115904092788696,0.7572189569473267,0.14930397272109985
1749038402.0907674,-1.797513786946432,-0.6130815905383606,-1.001052737236023,0.0907870966145019,0.04280735179781914,5.0915985107421875,-0.03285018354654312,0.0019763207528740168,0.025860091671347618,-0.11009647697210312,0.11672945320606232,0.006439376622438431,-0.33181601762771606,-0.8378583788871765,0.042652711272239685,-0.6988891363143921,0.7319682240486145,0.16367411613464355
1749038402.0908036,-1.7976239363299769,-0.6130417150310059,-1.0009961128234863,0.09057406961407466,0.04306284338235855,5.091625690460205,-0.03299331292510033,0.0016293289372697473,0.02605644054710865,-0.10760731250047684,0.11452880501747131,0.006553418468683958,-0.34159690141677856,-0.8394055366516113,0.023428842425346375,-0.7276602983474731,0.7504086494445801,0.16990545392036438
1749038402.0908406,-1.7976458708392542,-0.6130453509143372,-1.0009318590164185,0.09035389005627437,0.04328036680817604,5.091644763946533,-0.03334799408912659,0.0014995972160249949,0.026755880564451218,-0.10979831963777542,0.11426594853401184,0.006499805022031069,-0.32005682587623596,-0.814229428768158,0.04285961389541626,-0.7576800584793091,0.7603018879890442,0.16426688432693481
1749038402.0908782,-1.7977593580829065,-0.6130224031260987,-1.0008723735809326,0.09010998784985347,0.04356176033616066,5.0916428565979,-0.03369554132223129,0.0015208821278065443,0.02718883380293846,-0.11324281990528107,0.11796984076499939,0.006928852293640375,-0.3527457118034363,-0.8404203057289124,0.007669270038604736,-0.7547476887702942,0.7419607043266296,0.15455560386180878
1749038402.0909142,-1.7978208700763147,-0.6130297941020508,-1.000812292098999,0.08985845624890132,0.043693412095308304,5.091658592224121,-0.03453735634684563,0.001794903539121151,0.027662744745612144,-0.11556262522935867,0.11372783035039902,0.007141923066228628,-0.3379846215248108,-0.8327498435974121,0.01493304967880249,-0.7623962163925171,0.7517399787902832,0.13710738718509674
1749038402.090951,-1.7978957335101526,-0.6130106610110779,-1.0007485151290894,0.08968476831402583,0.043964967131614685,5.091679096221924,-0.03470189496874809,0.0021436349488794804,0.0281810499727726,-0.11967555433511734,0.11335743963718414,0.007249521557241678,-0.3449832499027252,-0.8285576701164246,0.028011023998260498,-0.752656102180481,0.784303605556488,0.16606387495994568
1749038402.090993,-1.7979992071734827,-0.6130334299853821,-1.0007200241088867,0.08940903722729487,0.04419969767332077,5.091709613800049,-0.03464672714471817,0.0020882091484963894,0.02794170379638672,-0.12389080971479416,0.11376632004976273,0.007230047602206469,-0.36445242166519165,-0.8568993210792542,0.011873126029968262,-0.743291974067688,0.7798093557357788,0.1452290117740631
1749038402.0910492,-1.7980435530291956,-0.6130261582187195,-1.0006520748138428,0.08914451181378169,0.04439288377761841,5.091694355010986,-0.03477805107831955,0.0016752233495935798,0.028032468631863594,-0.12731917202472687,0.1140168085694313,0.00737535348162055,-0.3533203601837158,-0.833295464515686,0.025787122547626495,-0.7420144081115723,0.8185237050056458,0.1644061803817749
1749038402.091369,-1.798096005116598,-0.6130334299853821,-1.000592827796936,0.08891968309368892,0.04461279883980751,5.091721534729004,-0.036448005586862564,0.001296183210797608,0.027985025197267532,-0.13144676387310028,0.11502860486507416,0.007549065165221691,-0.3198292851448059,-0.8220798373222351,0.025701530277729034,-0.7058534026145935,0.8403252363204956,0.16622231900691986
1749038402.0933883,-1.798157040272848,-0.6130261582187195,-1.0005446672439575,0.08863942205395503,0.044856444001197815,5.091764450073242,-0.03669365495443344,0.0009941468015313148,0.028367072343826294,-0.13280245661735535,0.1171410083770752,0.007465865463018417,-0.3171127736568451,-0.8209553956985474,0.055065564811229706,-0.7075398564338684,0.8556524515151978,0.1691463440656662
1749038402.1342776,-1.7983177343951624,-0.6130334299853821,-1.0004998445510864,0.08835916101422114,0.04511573910713196,5.091800212860107,-0.036844056099653244,0.0009708012221381068,0.028880124911665916,-0.13734124600887299,0.12004882842302322,0.007032616529613733,-0.3460901379585266,-0.8091974854469299,0.03725046664476395,-0.685415506362915,0.864926815032959,0.17256107926368713
1749038402.1343255,-1.7983391920672815,-0.6130334299853821,-1.0004284381866455,0.08812896787609859,0.04535238817334175,5.091753959655762,-0.03723815828561783,0.0010525695979595184,0.0290396548807621,-0.13352710008621216,0.12498336285352707,0.0072478787042200565,-0.3253057897090912,-0.8131791353225708,0.03350096940994263,-0.7002749443054199,0.8667292594909668,0.16723790764808655
1749038402.134368,-1.7983611265765589,-0.6129868191531678,-1.000380277633667,0.08786813795056148,0.04563753306865692,5.0918049812316895,-0.03786337003111839,0.001034991117194295,0.029331248253583908,-0.13333682715892792,0.12886157631874084,0.00748481648042798,-0.34283703565597534,-0.8220642805099487,0.04290798678994179,-0.7235230207443237,0.8610577583312988,0.1648140549659729
1749038402.1344078,-1.7985056082354944,-0.613021509056427,-1.0003076791763306,0.08754972993817134,0.0459209606051445,5.091824054718018,-0.03865206986665726,0.001195796299725771,0.03044705279171467,-0.13606487214565277,0.13400371372699738,0.007615149486809969,-0.336185485124588,-0.8342187404632568,0.03990527242422104,-0.710133969783783,0.8500040173530579,0.1578739583492279
1749038402.1344466,-1.7985737959491175,-0.613021509056427,-1.0002411603927612,0.08731679498638911,0.04620767757296562,5.0918288230896,-0.03908010944724083,0.0020478391088545322,0.031243644654750824,-0.13046427071094513,0.13799625635147095,0.007281334605067968,-0.3588188588619232,-0.8292577266693115,0.005083367228507996,-0.7557762861251831,0.8393195867538452,0.16958799958229065
1749038402.1344848,-1.7986615339862269,-0.6130059522441407,-1.0001881122589111,0.08703605710949702,0.04647330939769745,5.09182071685791,-0.03976098448038101,0.0018439586274325848,0.030372893437743187,-0.1316283792257309,0.1407490223646164,0.00819801539182663,-0.3363316059112549,-0.8140889406204224,0.0411401093006134,-0.8002490401268005,0.8232211470603943,0.1790546476840973
1749038402.1345253,-1.798699204121725,-0.6130178731730958,-1.0001243352890015,0.08675233900036616,0.04675789922475815,5.091853141784668,-0.03978153318166733,0.0016488279215991497,0.03090393915772438,-0.1328892707824707,0.14013151824474335,0.009090890176594257,-0.34986573457717896,-0.8359165191650391,0.04357025772333145,-0.8079626560211182,0.8152444362640381,0.16234850883483887
1749038402.1345634,-1.7987940947162073,-0.613021509056427,-1.0000803470611572,0.0865146356770019,0.047027118504047394,5.091865062713623,-0.04003513604402542,0.001326180063188076,0.03224936127662659,-0.13713853061199188,0.14540183544158936,0.00960214901715517,-0.37324362993240356,-0.8144051432609558,0.04815895855426788,-0.8195132613182068,0.8058711290359497,0.15027683973312378
1749038402.1346009,-1.7988546530352991,-0.6129904550364991,-0.9999959468841553,0.08620278417553706,0.047350455075502396,5.091900825500488,-0.04150136560201645,0.0012239941861480474,0.033008038997650146,-0.14119599759578705,0.14209622144699097,0.009994656778872013,-0.3450640141963959,-0.8154003620147705,0.03755505010485649,-0.8025249242782593,0.8148642778396606,0.14916348457336426
1749038402.1346383,-1.7989380995379847,-0.6129748386195679,-0.9999240040779114,0.08591823160137935,0.04764235392212868,5.091912746429443,-0.04136832803487778,0.001275573275052011,0.03341298550367355,-0.14734166860580444,0.14024870097637177,0.009708105586469173,-0.348882794380188,-0.8302439451217651,0.03321973606944084,-0.8058346509933472,0.8294748663902283,0.14131495356559753
1749038402.1346755,-1.7990224997149866,-0.6130131644061585,-0.9998798370361328,0.08561734735455317,0.047930680215358734,5.091933250427246,-0.04226124659180641,0.0012175659649074078,0.0334625244140625,-0.1505611091852188,0.1447191834449768,0.009506710804998875,-0.3671150803565979,-0.8247101306915283,0.03160130977630615,-0.7697476744651794,0.8290369510650635,0.16694873571395874
1749038402.1347134,-1.7990906874286097,-0.6130131644061585,-0.9997756481170654,0.08526615678753657,0.04818772152066231,5.091964244842529,-0.04170387610793114,0.00131823995616287,0.033341214060783386,-0.15447691082954407,0.14387649297714233,0.008806695230305195,-0.3826673924922943,-0.8156137466430664,0.04077622666954994,-0.7847700715065002,0.8566024303436279,0.1567479968070984
1749038402.134751,-1.7991865316974085,-0.6129976671985169,-0.9997079968452454,0.0849798160740356,0.048502322286367416,5.091957092285156,-0.04465577006340027,0.001284452504478395,0.03375306352972984,-0.15541936457157135,0.14761242270469666,0.009565473534166813,-0.3341662883758545,-0.824688196182251,0.04788452014327049,-0.7318803071975708,0.868614912033081,0.18438620865345
1749038402.134788,-1.7992857138263147,-0.6129784745028992,-0.9996443390846252,0.08466379224743648,0.04880712926387787,5.092000484466553,-0.045062292367219925,0.001630047569051385,0.03361465036869049,-0.15976634621620178,0.15258504450321198,0.009642403572797775,-0.32183146476745605,-0.8282632231712341,0.023899538442492485,-0.7357996106147766,0.8676000833511353,0.1568310260772705
1749038402.1348262,-1.7992857138263147,-0.6129784745028992,-0.9996443390846252,0.08466379224743648,0.04880712926387787,5.092000484466553,-0.045062292367219925,0.001630047569051385,0.03361465036869049,-0.15976634621620178,0.15258504450321198,0.009642403572797775,-0.32183146476745605,-0.8282632231712341,0.023899538442492485,-0.7357996106147766,0.8676000833511353,0.1568310260772705
1749038402.1348646,-1.7995088736163538,-0.6129821103862305,-0.9995282292366028,0.08403460561718745,0.04942747578024864,5.092020511627197,-0.04516945406794548,0.0015521406894549727,0.03452753648161888,-0.15403999388217926,0.15817387402057648,0.009600666351616383,-0.32792362570762634,-0.8181235194206238,0.0481015145778656,-0.8100682497024536,0.8303688168525696,0.15705043077468872
1749038402.134902,-1.7995699087726038,-0.6129821103862305,-0.9994248151779175,0.08373789369549556,0.049732718616724014,5.092013835906982,-0.045594342052936554,0.0013989049475640059,0.03400469943881035,-0.15208740532398224,0.16528494656085968,0.009799427352845669,-0.3248416483402252,-0.8343004584312439,0.048150498420000076,-0.795933723449707,0.7956319451332092,0.15874211490154266
1749038402.13494,-1.7996228376971644,-0.6129458707622071,-0.9993718266487122,0.08342163145031734,0.05012047290802002,5.092033863067627,-0.04784442111849785,0.0014243064215406775,0.03538667410612106,-0.1497965157032013,0.16257570683956146,0.009545280598104,-0.31654757261276245,-0.8109174966812134,0.03873959556221962,-0.8429578542709351,0.8142978549003601,0.15107765793800354
1749038402.1349776,-1.7998102347003382,-0.6129665535739441,-0.9992651343345642,0.0830966669270019,0.050439972430467606,5.092095851898193,-0.04656190797686577,0.001269840868189931,0.036968182772397995,-0.15305154025554657,0.16260012984275818,0.009414923377335072,-0.30073148012161255,-0.8344600200653076,0.0019123915117233992,-0.8394647836685181,0.7944146990776062,0.1610991656780243
1749038402.1350148,-1.799845043812887,-0.6129821103862305,-0.9992002844810486,0.08279232561077876,0.05073336511850357,5.092057704925537,-0.0446629524230957,0.0013824889902025461,0.03650728240609169,-0.15606003999710083,0.16369813680648804,0.009645195677876472,-0.328393816947937,-0.8323637247085571,0.022730685770511627,-0.8588774800300598,0.7745641469955444,0.17787665128707886
1749038402.1353405,-1.7999747435199183,-0.6129458707622071,-0.9991122484207153,0.08247487127270503,0.05106942355632782,5.092097282409668,-0.045981209725141525,0.002114883391186595,0.035210516303777695,-0.16120480000972748,0.16201633214950562,0.009281832724809647,-0.32998549938201904,-0.8241254687309265,0.028318453580141068,-0.8392184376716614,0.7821489572525024,0.16489000618457794
1749038402.1373158,-1.800046745930807,-0.6129738253406067,-0.9990438222885132,0.08212260782208247,0.0514335110783577,5.092139720916748,-0.04663386568427086,0.0018785661086440086,0.036071646958589554,-0.16591504216194153,0.16224883496761322,0.009669234976172447,-0.32231849431991577,-0.8451780080795288,0.032875560224056244,-0.8253155946731567,0.8066476583480835,0.15488186478614807
1749038402.1823072,-1.800117317830221,-0.6129582685283204,-0.9990034103393555,0.08177380144085689,0.051659587770700455,5.092131614685059,-0.04611756652593613,0.0016516003524884582,0.0366659052670002,-0.17100682854652405,0.16137012839317322,0.0102179991081357,-0.3118009567260742,-0.8278166055679321,0.01621055230498314,-0.7802883386611938,0.8083223104476929,0.17346307635307312
1749038402.1823547,-1.8002622763263147,-0.6129421156695862,-0.9989123940467834,0.08141784250225825,0.052006714046001434,5.092163562774658,-0.04700906574726105,0.0013582272222265601,0.037192314863204956,-0.1729898899793625,0.16308996081352234,0.009485715068876743,-0.3176877498626709,-0.8283990025520325,0.03423268720507622,-0.7616816163063049,0.8239392042160034,0.17329013347625732
1749038402.1824167,-1.800312344227926,-0.6129811567119141,-0.9988552331924438,0.08107988416638179,0.052339594811201096,5.092184543609619,-0.0460146926343441,0.0011426089331507683,0.037680819630622864,-0.16993308067321777,0.16551299393177032,0.009652192704379559,-0.34027668833732605,-0.8267529010772705,-0.0015757838264107704,-0.7663670182228088,0.8189746737480164,0.17041480541229248
1749038402.1824589,-1.8004453817950647,-0.6129620236209412,-0.998756468296051,0.08075909196820064,0.05266856774687767,5.092199802398682,-0.04856657609343529,0.000985985156148672,0.03611638396978378,-0.1720411628484726,0.1658538281917572,0.009699760936200619,-0.33206385374069214,-0.8275690674781799,0.018917547538876534,-0.7582390308380127,0.8077338337898254,0.1691552996635437
1749038402.1825078,-1.8005483786212366,-0.6129655998996277,-0.9987003803253174,0.08039967596020503,0.053038518875837326,5.092199802398682,-0.04812747612595558,0.0007208206807263196,0.034942567348480225,-0.16512738168239594,0.1677798628807068,0.009257154539227486,-0.31738126277923584,-0.8234432935714722,0.04189426824450493,-0.7904376983642578,0.8019454479217529,0.16847294569015503
1749038402.1825552,-1.8006165663348597,-0.6129266184619446,-0.9986283779144287,0.08008210241284175,0.05336756259202957,5.092251300811768,-0.046637482941150665,0.0006917365244589746,0.036211684346199036,-0.16150638461112976,0.16824543476104736,0.00930341612547636,-0.3444949984550476,-0.8400383591651917,0.04679109528660774,-0.8211648464202881,0.7966511845588684,0.16770312190055847
1749038402.1825945,-1.8007109800921839,-0.6129930776408692,-0.9985371232032776,0.07973436891522212,0.053679924458265305,5.09225606918335,-0.04772154241800308,0.000716137292329222,0.03680857643485069,-0.1607532650232315,0.16867873072624207,0.009972095489501953,-0.33509111404418945,-0.8139116168022156,0.012617584317922592,-0.8407560586929321,0.8188868761062622,0.17331968247890472
1749038402.1826322,-1.8007949034320276,-0.6129385393908997,-0.9984533190727234,0.07942966997113032,0.05398508906364441,5.09229040145874,-0.047880448400974274,0.0007357659051194787,0.03665276616811752,-0.16136984527111053,0.16991476714611053,0.009906837716698647,-0.32397374510765076,-0.8218860030174255,0.03146437183022499,-0.8542649745941162,0.8017425537109375,0.17260360717773438
1749038402.1826704,-1.8008783499347132,-0.6129620236209412,-0.9984117746353149,0.07909254610028071,0.054364629089832306,5.092310905456543,-0.05110115557909012,0.0009034627000801265,0.03689633682370186,-0.16573281586170197,0.16740213334560394,0.01011031586676836,-0.305461049079895,-0.8049824833869934,0.04669134318828583,-0.8523966073989868,0.8154816031455994,0.17262102663516998
1749038402.182708,-1.8010237852679651,-0.6129775208285828,-0.998324453830719,0.07872848092999263,0.05465077981352806,5.09230375289917,-0.04862036183476448,0.00098917365539819,0.03745105862617493,-0.16927824914455414,0.17224185168743134,0.010596518404781818,-0.3236834406852722,-0.7997130751609802,0.03699839115142822,-0.836455225944519,0.8363157510757446,0.17087098956108093
1749038402.1827455,-1.8010395208941858,-0.6129666131785889,-0.9982559680938721,0.07835189878430171,0.055021993815898895,5.092315673828125,-0.04847825691103935,0.0009760442771948874,0.0371667817234993,-0.17420923709869385,0.17021527886390686,0.010189802385866642,-0.35560673475265503,-0.8317359685897827,0.028742216527462006,-0.8379629850387573,0.8420822620391846,0.17373645305633545
1749038402.1827826,-1.8011968771563929,-0.6129421156695862,-0.9981958866119385,0.07801906644787593,0.05536169558763504,5.092351913452148,-0.049698807299137115,0.000968603533692658,0.03727658465504646,-0.1749596893787384,0.17142169177532196,0.009704231284558773,-0.35020211338996887,-0.8231595158576965,0.06282586604356766,-0.7992016077041626,0.8700971007347107,0.17636026442050934
1749038402.182821,-1.8013113180743616,-0.6129656595042725,-0.99809330701828,0.07766525327648921,0.05571359768509865,5.0923638343811035,-0.05011821165680885,0.001040254021063447,0.03907134756445885,-0.18064425885677338,0.1750977635383606,0.009944557212293148,-0.34575650095939636,-0.811278223991394,0.038411594927310944,-0.7891327142715454,0.8546589612960815,0.1770337074995041
1749038402.182858,-1.8014004866229456,-0.6129384797862549,-0.9980397820472717,0.0772971349903564,0.0560462512075901,5.092372417449951,-0.049928151071071625,0.0010292481165379286,0.03888165205717087,-0.17732208967208862,0.17680393159389496,0.009848816320300102,-0.34437069296836853,-0.8056444525718689,0.02135384827852249,-0.7833098769187927,0.8430737853050232,0.18523846566677094
1749038402.1828954,-1.801492993031637,-0.6129582685283204,-0.9979485869407654,0.07696764051403804,0.05640315264463425,5.092430591583252,-0.050618402659893036,0.00100854248739779,0.036710552871227264,-0.17557987570762634,0.18094223737716675,0.009968850761651993,-0.3429996967315674,-0.8047753572463989,0.05594857782125473,-0.8267315030097961,0.8323684930801392,0.16749238967895508
1749038402.1829321,-1.8016379515277308,-0.6129266184619446,-0.997887372970581,0.0765806871601562,0.056794825941324234,5.092426776885986,-0.05070367082953453,0.0009845159947872162,0.037877172231674194,-0.17675796151161194,0.18533147871494293,0.010077141225337982,-0.35971754789352417,-0.810674250125885,0.08250671625137329,-0.8103944063186646,0.8117169141769409,0.1726473867893219
1749038402.182969,-1.801657501851217,-0.6129656595042725,-0.9977741837501526,0.07626668989147944,0.0571824349462986,5.092459201812744,-0.05140204355120659,0.0009425074676983058,0.03983556106686592,-0.1765754222869873,0.18392252922058105,0.010293607600033283,-0.3383883833885193,-0.8100948929786682,0.04673180729150772,-0.8266780972480774,0.8233738541603088,0.17511986196041107
1749038402.183006,-1.801807705556051,-0.6129183930209656,-0.997704267501831,0.07589857160534663,0.05753230303525925,5.092462539672852,-0.051926158368587494,0.0009596149902790785,0.040506526827812195,-0.17964540421962738,0.18623994290828705,0.009816060774028301,-0.3432849049568176,-0.808637797832489,0.046736940741539,-0.8343629837036133,0.7977529764175415,0.17983940243721008
1749038402.183047,-1.8018782774554651,-0.6129265588572999,-0.9976131916046143,0.07553689062084956,0.057958438992500305,5.092517852783203,-0.05256657674908638,0.0010458513861522079,0.04205075651407242,-0.18359044194221497,0.18526414036750793,0.010250103659927845,-0.3345763683319092,-0.8086527585983276,0.031627945601940155,-0.837365448474884,0.8093142509460449,0.18310892581939697
1749038402.1830852,-1.8020113150226038,-0.6129458707622071,-0.9975411295890808,0.07514087736096187,0.058304790407419205,5.092538356781006,-0.053067948669195175,0.0014912704937160015,0.040947891771793365,-0.18688957393169403,0.1860920786857605,0.01111508347094059,-0.3640212416648865,-0.8072193264961243,0.03223321586847305,-0.831749439239502,0.8148684501647949,0.16387689113616943
1749038402.1831224,-1.8021381537066858,-0.6129375857165833,-0.9974605441093445,0.0747561889835815,0.05863409489393234,5.09255838394165,-0.053221046924591064,0.001598643371835351,0.040026817470788956,-0.19742229580879211,0.18786898255348206,0.01187665481120348,-0.35402703285217285,-0.8074725270271301,0.04720839112997055,-0.7426443696022034,0.8200846314430237,0.139759823679924
1749038402.1831594,-1.802169148121969,-0.612933949833252,-0.9973336458206177,0.07435588418926997,0.058994654566049576,5.092566967010498,-0.054007407277822495,0.0017207931960001588,0.04192395880818367,-0.1974339485168457,0.1883029341697693,0.011668017134070396,-0.3474423885345459,-0.825210452079773,0.033677101135253906,-0.7457690238952637,0.810512900352478,0.1570247858762741
1749038402.1833441,-1.8022926489459437,-0.6129148167422791,-0.9973108768463135,0.07392768442120357,0.05936726927757263,5.09257173538208,-0.054517511278390884,0.001700639259070158,0.04242340847849846,-0.2010028213262558,0.19128575921058655,0.011059055104851723,-0.35720527172088623,-0.8306125998497009,0.02422475814819336,-0.725421667098999,0.8179730772972107,0.14592084288597107
1749038402.1853154,-1.8022926489459437,-0.6129148167422791,-0.9973108768463135,0.07392768442120357,0.05936726927757263,5.09257173538208,-0.054517511278390884,0.001700639259070158,0.04242340847849846,-0.2010028213262558,0.19128575921058655,0.011059055104851723,-0.35720527172088623,-0.8306125998497009,0.02422475814819336,-0.725421667098999,0.8179730772972107,0.14592084288597107
1749038402.2262874,-1.8025692144977015,-0.612902895813324,-0.9971209168434143,0.07318059980358882,0.06014189124107361,5.092626571655273,-0.05656569078564644,0.0013259869301691651,0.04211517423391342,-0.19367845356464386,0.19197073578834534,0.010305065661668777,-0.3323242962360382,-0.8126358389854431,0.049028895795345306,-0.7416861057281494,0.8359856009483337,0.18259194493293762
1749038402.2263339,-1.8026397863971155,-0.6129567188075562,-0.9970245957374573,0.07277683793988032,0.060504838824272156,5.092665672302246,-0.05587701126933098,0.001191023737192154,0.04220946505665779,-0.19068753719329834,0.19561520218849182,0.010885084979236126,-0.3815808892250061,-0.8138017058372498,0.06656797230243683,-0.764437735080719,0.8203526139259338,0.15661656856536865
1749038402.2263746,-1.8027270475970667,-0.6129292410663147,-0.9969288110733032,0.07241134225811763,0.06091555953025818,5.092681407928467,-0.05653685703873634,0.0012599581386893988,0.043176230043172836,-0.18883861601352692,0.1918693333864212,0.011057601310312748,-0.3456874489784241,-0.7976605296134949,0.04994979873299599,-0.8076251745223999,0.8472461700439453,0.17491203546524048
1749038402.2264183,-1.8028643766986292,-0.612902895813324,-0.9968482255935669,0.07203011095013423,0.0613311231136322,5.092674255371094,-0.05733056738972664,0.0017023526597768068,0.042979251593351364,-0.18887265026569366,0.19249507784843445,0.011205696500837803,-0.3954845070838928,-0.8122981190681458,0.05744568631052971,-0.8614645004272461,0.8980343341827393,0.16085758805274963
1749038402.2264578,-1.803009335194723,-0.6129065316966553,-0.9967874884605408,0.0716450649448852,0.06170012801885605,5.092722415924072,-0.05785145238041878,0.0018058379646390676,0.04450423642992973,-0.1958986073732376,0.19607402384281158,0.011036615818738937,-0.3525838255882263,-0.8044236898422241,0.04493037611246109,-0.8170586228370667,0.876494288444519,0.17392587661743164
1749038402.2264967,-1.8031328360186976,-0.6129328173450013,-0.9966493248939514,0.07122938215222163,0.062137432396411896,5.092734336853027,-0.05692918226122856,0.0020519988611340523,0.04420499876141548,-0.2038169503211975,0.19999364018440247,0.01152366679161787,-0.3763464093208313,-0.8075359463691711,0.03573886677622795,-0.7840360999107361,0.8454417586326599,0.16997814178466797
1749038402.2265437,-1.8032239119159144,-0.61292918146167,-0.9965502023696899,0.07083229600872798,0.06250128149986267,5.0927581787109375,-0.05634571611881256,0.001743272878229618,0.04429933428764343,-0.2083004117012024,0.20610782504081726,0.012479309923946857,-0.34785473346710205,-0.822137176990509,0.037085793912410736,-0.75083988904953,0.8274545073509216,0.16141778230667114
1749038402.2266047,-1.803319279347555,-0.6129101079753418,-0.996491014957428,0.07040803014721675,0.06291453540325165,5.092831611633301,-0.057649556547403336,0.0014969308394938707,0.04454819858074188,-0.21113424003124237,0.21049122512340546,0.011969320476055145,-0.39268893003463745,-0.7972349524497986,0.0421132892370224,-0.7179182767868042,0.8130046129226685,0.17467808723449707
1749038402.2266452,-1.8034494558917444,-0.6128945511630555,-0.9963767528533936,0.06999389707531734,0.06336864829063416,5.092805862426758,-0.06001756712794304,0.0012830168707296252,0.04569222778081894,-0.20919206738471985,0.2130632847547531,0.011949322186410427,-0.360465943813324,-0.8040346503257751,0.025943748652935028,-0.7439138889312744,0.8084280490875244,0.16783246397972107
1749038402.2266834,-1.803577725087301,-0.6128790539554139,-0.9962927103042603,0.06954209386791987,0.06374580413103104,5.092842102050781,-0.05830161273479462,0.0010693538933992386,0.04575159028172493,-0.20806202292442322,0.21685492992401123,0.010997573845088482,-0.3940592408180237,-0.8023175001144409,0.040769703686237335,-0.7272595167160034,0.7793498635292053,0.1814827024936676
1749038402.226722,-1.8037179152118128,-0.6128754776767273,-0.996224045753479,0.06912951051678462,0.0641699805855751,5.092900276184082,-0.06045288220047951,0.0011886425781995058,0.046293824911117554,-0.20579536259174347,0.21248748898506165,0.010738449171185493,-0.3853797912597656,-0.8043946623802185,0.024348612874746323,-0.7886444330215454,0.8199701309204102,0.19293737411499023
1749038402.2267632,-1.803830925618307,-0.6129137438586731,-0.9961124658584595,0.06871561586346431,0.06461584568023682,5.092877388000488,-0.06455535441637039,0.00204276735894382,0.04686671867966652,-0.2067321389913559,0.21447046101093292,0.011989674530923367,-0.343110591173172,-0.8032800555229187,0.03307758644223213,-0.7748719453811646,0.7959047555923462,0.1762058138847351
1749038402.2268014,-1.8039730230914515,-0.6129053992084046,-0.9960167407989502,0.06825999795880122,0.06497270613908768,5.092905044555664,-0.06139542907476425,0.002731516258791089,0.04715035855770111,-0.20891153812408447,0.21265177428722382,0.012157347053289413,-0.3370673656463623,-0.8116400837898254,0.014284372329711914,-0.7971726655960083,0.8342273831367493,0.18331117928028107
1749038402.226839,-1.804030720387594,-0.6129053396037598,-0.9958771467208862,0.06787793218579097,0.06545168906450272,5.092928886413574,-0.06074192374944687,0.002577884355559945,0.04720056802034378,-0.2166157364845276,0.2141042798757553,0.012536199763417244,-0.37368208169937134,-0.8200424313545227,0.03824280947446823,-0.774705171585083,0.8468502163887024,0.1626209169626236
1749038402.2268767,-1.8042128721820276,-0.6129018229297181,-0.9957940578460693,0.06739811479534907,0.06588055938482285,5.092949390411377,-0.06207127124071121,0.0024886212777346373,0.0473172590136528,-0.21657030284404755,0.21641023457050323,0.012325679883360863,-0.3760671019554138,-0.8005883097648621,0.037098802626132965,-0.770555853843689,0.8512856364250183,0.1675006002187729
1749038402.2269177,-1.8043292204486292,-0.6128781002810975,-0.9957253932952881,0.06699637948956294,0.0663047507405281,5.093016147613525,-0.062339041382074356,0.0021621123887598515,0.04764319956302643,-0.22276872396469116,0.21824605762958527,0.012335334904491901,-0.3545263707637787,-0.814281165599823,0.025723252445459366,-0.7239968180656433,0.8503819108009338,0.19552277028560638
1749038402.2269564,-1.8044379393206995,-0.6128426355174561,-0.9956117868423462,0.06656353055920405,0.06673338264226913,5.092978000640869,-0.06293691694736481,0.0020361400675028563,0.04844206944108009,-0.22066712379455566,0.220768541097641,0.012806919403374195,-0.347832053899765,-0.8106197118759155,0.03194877505302429,-0.7356092929840088,0.8493474721908569,0.15975968539714813
1749038402.2269933,-1.8045771757708948,-0.6128619474223633,-0.9955465793609619,0.06611864149060054,0.06720928847789764,5.0930399894714355,-0.06287987530231476,0.0020630471408367157,0.04831646382808685,-0.21760542690753937,0.22524015605449677,0.013152187690138817,-0.36635297536849976,-0.8048921227455139,0.03083307296037674,-0.7555863857269287,0.8424482345581055,0.17577002942562103
1749038402.2270305,-1.8047168890582483,-0.6128972333720704,-0.995428204536438,0.06566648065533442,0.06761889159679413,5.093072414398193,-0.06632936000823975,0.002286054426804185,0.048281002789735794,-0.21713347733020782,0.22527079284191132,0.013251550495624542,-0.3202696442604065,-0.8128889799118042,0.02459137886762619,-0.785443902015686,0.8276833295822144,0.16376136243343353
1749038402.2270715,-1.804868523274557,-0.6128390592387696,-0.9953356981277466,0.06523744642224116,0.06812936812639236,5.0930657386779785,-0.06301239877939224,0.0027539872098714113,0.04944923147559166,-0.21783915162086487,0.22936171293258667,0.01273696031421423,-0.3797297775745392,-0.809726893901825,0.024451646953821182,-0.800302267074585,0.8238192200660706,0.1735163927078247
1749038402.2273788,-1.8049877325641077,-0.6128536623767395,-0.9952545762062073,0.06480412065472407,0.06857763975858688,5.093073844909668,-0.06472992897033691,0.002938290126621723,0.04856457933783531,-0.22306732833385468,0.22658653557300568,0.013573527336120605,-0.3536595404148102,-0.8201408386230469,0.03987573832273483,-0.8123850226402283,0.8395854234695435,0.17735549807548523
1749038402.2293582,-1.8051436583148401,-0.6128416818431397,-0.9951163530349731,0.06434015809979243,0.06903865188360214,5.093128681182861,-0.06793521344661713,0.002566459821537137,0.05059642717242241,-0.2280540019273758,0.22866998612880707,0.01402995828539133,-0.31816813349723816,-0.8412717580795288,0.029925867915153503,-0.7967314124107361,0.8397854566574097,0.17603415250778198
1749038402.270279,-1.8052671591388147,-0.6128261846354981,-0.9950053691864014,0.06389097749676509,0.06946789473295212,5.09318733215332,-0.06487695127725601,0.002072746166959405,0.05147858336567879,-0.23223692178726196,0.23177741467952728,0.0140812573954463,-0.33433493971824646,-0.8117961883544922,0.00590713694691658,-0.7637293338775635,0.8415757417678833,0.1735134720802307
1749038402.2703273,-1.8053954283343714,-0.6128226083568116,-0.9949090480804443,0.06342260419812007,0.06992416083812714,5.09319543838501,-0.0658729076385498,0.0017926860600709915,0.04907708242535591,-0.2370886653661728,0.2316906601190567,0.013989781029522419,-0.3687896132469177,-0.8236525654792786,0.02761905826628208,-0.7470190525054932,0.825145959854126,0.16088774800300598
1749038402.2703683,-1.8054803053485315,-0.6128381055644532,-0.9948035478591919,0.0629231172749023,0.0703926533460617,5.093197345733643,-0.0662742406129837,0.001673516700975597,0.050402041524648666,-0.2338656485080719,0.23264537751674652,0.014593931846320629,-0.3213542103767395,-0.8089145421981812,0.037547238171100616,-0.7518035769462585,0.8350725173950195,0.16625705361366272
1749038402.2704082,-1.8056634108172815,-0.6128451389125367,-0.9947351813316345,0.06247012197460933,0.07083729654550552,5.093255519866943,-0.06627419590950012,0.0017813658341765404,0.05140809714794159,-0.2332995980978012,0.23288357257843018,0.014780696481466293,-0.3513519763946533,-0.7927828431129456,0.01402771845459938,-0.7389580607414246,0.8368227481842041,0.1606067717075348
1749038402.2704494,-1.8058536688434046,-0.612848774795868,-0.9945988655090332,0.06202368318524165,0.07134487479925156,5.093268871307373,-0.06598464399576187,0.002734941430389881,0.05283878743648529,-0.23137684166431427,0.23162394762039185,0.014645788818597794,-0.3416697084903717,-0.818712055683136,0.0013453662395477295,-0.7788068056106567,0.8560702204704285,0.1646333932876587
1749038402.2705016,-1.8059118429767054,-0.6127836865237732,-0.9944911003112793,0.061563535327575636,0.07180982083082199,5.093307971954346,-0.06637293845415115,0.0031488495878875256,0.050279613584280014,-0.23118308186531067,0.22935433685779572,0.013970475643873215,-0.34465697407722473,-0.8397476673126221,0.018672652542591095,-0.8001657724380493,0.8736791610717773,0.15935972332954407
1749038402.270544,-1.8061016241656702,-0.6128183764270325,-0.9944071769714355,0.06106047212567134,0.07227978110313416,5.093354225158691,-0.06687124818563461,0.0033636726438999176,0.0501873604953289,-0.23838457465171814,0.23061272501945496,0.013865997083485126,-0.31290608644485474,-0.8446553945541382,0.03762242943048477,-0.7904585599899292,0.8803685307502747,0.16857942938804626
1749038402.2705834,-1.806202236806051,-0.6128064554980774,-0.9943181872367859,0.060599132175109816,0.07285770773887634,5.093343734741211,-0.06788848340511322,0.002995123853906989,0.05164210498332977,-0.24077068269252777,0.2337205410003662,0.013653016649186611,-0.3506629168987274,-0.8439209461212158,0.026569388806819916,-0.775370180606842,0.8718063831329346,0.17028799653053284
1749038402.270622,-1.8063262144671839,-0.612810031776764,-0.9941912889480591,0.06010381757702632,0.07329946011304855,5.093414306640625,-0.06813778728246689,0.0030050640925765038,0.05217393860220909,-0.2487996220588684,0.2372625172138214,0.013813578523695469,-0.3288344442844391,-0.8440730571746826,0.012723736464977264,-0.7198567390441895,0.839611828327179,0.14316266775131226
1749038402.2706606,-1.806450668965475,-0.6127908986857911,-0.9940547943115234,0.05962340414013667,0.07374418526887894,5.093384265899658,-0.06848861277103424,0.00296649313531816,0.05194724351167679,-0.2486182153224945,0.2390541285276413,0.014013982377946377,-0.33410465717315674,-0.8277977705001831,-0.0020525306463241577,-0.7022245526313782,0.8188870549201965,0.16474634408950806
1749038402.2706988,-1.8066208998309534,-0.6127944749644776,-0.994006335735321,0.05911497652020259,0.07428345084190369,5.093458652496338,-0.06904108077287674,0.0025518578477203846,0.05258752033114433,-0.24621498584747314,0.24240757524967194,0.015005331486463547,-0.2926502823829651,-0.8158137798309326,0.0005919933319091797,-0.7032455801963806,0.8354277014732361,0.14361602067947388
1749038402.2707362,-1.8067296187030237,-0.6127628845027466,-0.9938597083091736,0.058626099223754835,0.07468586415052414,5.093466758728027,-0.06842687726020813,0.0023810213897377253,0.05177692323923111,-0.24325059354305267,0.23679237067699432,0.015063343569636345,-0.334771990776062,-0.8177852630615234,0.03888916224241257,-0.7442182302474976,0.8319656252861023,0.15540707111358643
1749038402.2707734,-1.8068893591510218,-0.6127628248981019,-0.9937668442726135,0.05814878522839351,0.07521979510784149,5.093506336212158,-0.06856906414031982,0.0020793844014406204,0.05315687134861946,-0.24224509298801422,0.23797763884067535,0.01446290872991085,-0.3779175877571106,-0.8262315988540649,0.005126647651195526,-0.7562479972839355,0.8598366975784302,0.15846151113510132
1749038402.270811,-1.8070486227618616,-0.6127827328494568,-0.993640124797821,0.05766145765270991,0.07565721869468689,5.093514919281006,-0.06902611255645752,0.0019211822655051947,0.051343031227588654,-0.24410806596279144,0.2361159771680832,0.014797612093389034,-0.3656163215637207,-0.8170717358589172,0.03645537793636322,-0.7802813053131104,0.8856910467147827,0.16302141547203064
1749038402.270848,-1.8071687857257288,-0.6127126973918458,-0.9935632944107056,0.057196541423461866,0.07615453749895096,5.093566417694092,-0.06942979991436005,0.001767111592926085,0.05135391280055046,-0.2479216754436493,0.24076779186725616,0.015836147591471672,-0.34923964738845825,-0.8064252734184265,0.06407289206981659,-0.7516942024230957,0.8923094272613525,0.1751507669687271
1749038402.2708864,-1.8073247114764612,-0.612778977756836,-0.993455171585083,0.056731148357055616,0.07663402706384659,5.093602180480957,-0.07029785215854645,0.001780215767212212,0.052548132836818695,-0.25399187207221985,0.24315352737903595,0.015850629657506943,-0.3219859004020691,-0.8112691044807434,0.0290474072098732,-0.7591351270675659,0.8810098171234131,0.14983044564723969
1749038402.2709236,-1.807460133229391,-0.6127827328494568,-0.9933630228042603,0.05620507776226802,0.07711399346590042,5.093606948852539,-0.0694333165884018,0.0016319968272000551,0.05460510775446892,-0.24798443913459778,0.2443738430738449,0.015552022494375706,-0.3364875614643097,-0.811359167098999,0.028889089822769165,-0.7555104494094849,0.8687571883201599,0.1746358871459961
1749038402.2709603,-1.8076394240008753,-0.6127737921527405,-0.9932708144187927,0.05569295465435786,0.07762264460325241,5.0936737060546875,-0.0730506032705307,0.0017027793219313025,0.05275575816631317,-0.24626491963863373,0.24903418123722076,0.015203461050987244,-0.3393160402774811,-0.8148353695869446,0.03944571316242218,-0.7869378924369812,0.8496835231781006,0.1740773618221283
1749038402.2709978,-1.8077786604510706,-0.6127546590617676,-0.9931309223175049,0.05522362768139644,0.07815491408109665,5.093651294708252,-0.06970678269863129,0.0017276238650083542,0.0528889037668705,-0.23944416642189026,0.24759255349636078,0.015481684356927872,-0.35296550393104553,-0.8068649768829346,0.06869900971651077,-0.8500747680664062,0.8794739842414856,0.15127263963222504
1749038402.271035,-1.8078997770892542,-0.6127236050418396,-0.993023157119751,0.05472402154888911,0.07865545153617859,5.093705654144287,-0.07111553847789764,0.001841325662098825,0.054047707468271255,-0.2416679859161377,0.2505730390548706,0.015139182098209858,-0.3703272342681885,-0.800263524055481,0.06385146826505661,-0.8734554052352905,0.8628238439559937,0.15900687873363495
1749038402.2713354,-1.808023754750387,-0.6127546590617676,-0.9929584860801697,0.05423514425244136,0.07918094843626022,5.093714714050293,-0.07335026562213898,0.0018499919679015875,0.054901253432035446,-0.249034121632576,0.2505919635295868,0.015092862769961357,-0.3233538866043091,-0.8100653290748596,0.053698211908340454,-0.885276734828949,0.8754820227622986,0.15702323615550995
1749038402.2732863,-1.8081896940814417,-0.612727240925171,-0.9928383231163025,0.053663893336914015,0.07968515902757645,5.093774318695068,-0.06953442096710205,0.0021682814694941044,0.055066533386707306,-0.25534120202064514,0.253843754529953,0.015181107446551323,-0.3579670190811157,-0.8166999220848083,0.04080500081181526,-0.8308518528938293,0.8847319483757019,0.16231600940227509
1749038402.3144934,-1.808310333882467,-0.612739161854126,-0.9926833510398865,0.05317012845959468,0.08020535111427307,5.093801498413086,-0.07079039514064789,0.002073872834444046,0.05564282834529877,-0.2671538293361664,0.2580176889896393,0.016265245154500008,-0.37441661953926086,-0.8188100457191467,0.06203119084239006,-0.7829603552818298,0.8501796722412109,0.14979799091815948
1749038402.3145611,-1.8084657827960413,-0.6127737921527405,-0.9925630688667297,0.05265001832928462,0.08066356182098389,5.093837261199951,-0.07113955169916153,0.0019114376045763493,0.05648142099380493,-0.26626160740852356,0.2599954605102539,0.015690144151449203,-0.39123231172561646,-0.7937845587730408,0.043488509953022,-0.7647669315338135,0.856195867061615,0.15792883932590485
1749038402.3146183,-1.8086097876178187,-0.6127153199962159,-0.9924673438072205,0.05211298047985835,0.0811799094080925,5.093842506408691,-0.07165367901325226,0.0016961912624537945,0.0574343167245388,-0.2637288570404053,0.26109784841537476,0.01491467747837305,-0.394424706697464,-0.8130602240562439,0.03995058685541153,-0.773523211479187,0.8480464816093445,0.15575504302978516
1749038402.3146758,-1.8086097876178187,-0.6127153199962159,-0.9924673438072205,0.05211298047985835,0.0811799094080925,5.093842506408691,-0.07165367901325226,0.0016961912624537945,0.0574343167245388,-0.2637288570404053,0.26109784841537476,0.01491467747837305,-0.394424706697464,-0.8130602240562439,0.03995058685541153,-0.773523211479187,0.8480464816093445,0.15575504302978516
1749038402.314732,-1.8086097876178187,-0.6127153199962159,-0.9924673438072205,0.05211298047985835,0.0811799094080925,5.093842506408691,-0.07165367901325226,0.0016961912624537945,0.0574343167245388,-0.2637288570404053,0.26109784841537476,0.01491467747837305,-0.394424706697464,-0.8130602240562439,0.03995058685541153,-0.773523211479187,0.8480464816093445,0.15575504302978516
1749038402.314788,-1.8090570608722132,-0.6127391022494812,-0.9921622276306152,0.050551338786743116,0.08276917785406113,5.09393310546875,-0.07509450614452362,0.0014662757748737931,0.05723567679524422,-0.2624828517436981,0.25899627804756165,0.01581159606575966,-0.37291625142097473,-0.8066933751106262,0.056113120168447495,-0.8498417735099792,0.8900951147079468,0.17872293293476105
1749038402.314843,-1.8092039267169397,-0.612777368431427,-0.9920389652252197,0.049991055125854444,0.08336375653743744,5.093965530395508,-0.07466251403093338,0.0017563579604029655,0.05809088051319122,-0.2649756669998169,0.26213234663009644,0.015702316537499428,-0.38652801513671875,-0.8091779947280884,0.05282697454094887,-0.8326429724693298,0.869684100151062,0.1669643223285675
1749038402.3148968,-1.8093178907977503,-0.6127033990672608,-0.9919224977493286,0.04946498453106685,0.08379869908094406,5.093989372253418,-0.07740945369005203,0.0017948229797184467,0.058886777609586716,-0.2671337127685547,0.2675202190876007,0.016389500349760056,-0.3609005808830261,-0.8045440316200256,0.04637967422604561,-0.8279668688774109,0.8662905693054199,0.17037144303321838
1749038402.314951,-1.8095276991473597,-0.6127535265735169,-0.9917867183685303,0.048901839847228956,0.08437427878379822,5.094025135040283,-0.07570774108171463,0.0020541539415717125,0.05930081009864807,-0.2695702314376831,0.27426400780677795,0.016571922227740288,-0.4079037606716156,-0.7883383631706238,0.054450757801532745,-0.8239107131958008,0.8438040614128113,0.15876424312591553
1749038402.3150043,-1.8096640745746058,-0.6127653878978272,-0.9916661977767944,0.04839710771527095,0.08493170142173767,5.0940680503845215,-0.0760124921798706,0.0017689603846520185,0.05986577644944191,-0.2659752368927002,0.27374136447906494,0.016056889668107033,-0.3460150361061096,-0.804711639881134,0.03718416765332222,-0.7967279553413391,0.7906205058097839,0.17843197286128998
1749038402.3150592,-1.8097923437701624,-0.6127033990672608,-0.9915434122085571,0.04786138116802974,0.08546750247478485,5.094085216522217,-0.07526937872171402,0.0015581422485411167,0.059375591576099396,-0.26333847641944885,0.2717800736427307,0.01655302383005619,-0.3461726903915405,-0.8060411810874939,0.023851387202739716,-0.8241886496543884,0.7628993391990662,0.15129150450229645
1749038402.3151126,-1.8099363485919397,-0.6127188962749024,-0.9914230704307556,0.04733960210766597,0.08599592745304108,5.09415864944458,-0.07414482533931732,0.0012950042728334665,0.057271987199783325,-0.2610207796096802,0.26755350828170776,0.01658591255545616,-0.35309135913848877,-0.8023692965507507,0.0233706533908844,-0.8401238322257996,0.7797812819480896,0.15533781051635742
1749038402.3151686,-1.8101075331317347,-0.6126573246768494,-0.9913339614868164,0.04677991449322505,0.0865207090973854,5.09417200088501,-0.07365770637989044,0.0011254105484113097,0.05652588978409767,-0.26761969923973083,0.26376545429229736,0.01604345440864563,-0.4029458165168762,-0.7876377701759338,0.057647623121738434,-0.8225963115692139,0.8307496309280396,0.16103388369083405
1749038402.3152194,-1.8102582136737269,-0.6126842659762879,-0.9912023544311523,0.04622034608807368,0.08705291152000427,5.0941996574401855,-0.07652080059051514,0.0009055176051333547,0.05779007077217102,-0.2750453054904938,0.2656877636909485,0.014924809336662292,-0.4640743136405945,-0.7828964591026306,0.08456984162330627,-0.872265100479126,0.9133889079093933,0.1859893798828125
1749038402.3152776,-1.8104260603534144,-0.6127106112292786,-0.9910852909088135,0.045658989543579054,0.08760172128677368,5.094257831573486,-0.08053003251552582,0.0010613175109028816,0.06013265997171402,-0.27797651290893555,0.2727811336517334,0.016843486577272415,-0.4234007000923157,-0.7654867768287659,0.07289107143878937,-0.8208094835281372,0.8933740854263306,0.15684229135513306
1749038402.3153324,-1.8105433622943323,-0.6127298635295411,-0.9909465312957764,0.04509095727886958,0.08815395087003708,5.094267845153809,-0.0823320597410202,0.0023019572254270315,0.0641874149441719,-0.27913492918014526,0.27720755338668823,0.01784857176244259,-0.3852553367614746,-0.8028217554092407,0.04727204889059067,-0.7927796840667725,0.8717649579048157,0.15709930658340454
1749038402.3153937,-1.8107464949237269,-0.6126914185336609,-0.9908305406570435,0.04453794538464351,0.08873849362134933,5.094314098358154,-0.08302804827690125,0.0035677875857800245,0.06279239058494568,-0.27922070026397705,0.28012943267822266,0.016817539930343628,-0.3952152132987976,-0.8150352835655212,0.03311034291982651,-0.8297386765480042,0.8381001949310303,0.15947017073631287
1749038402.3154488,-1.8108633200274866,-0.6126950544169922,-0.9907097816467285,0.04396943628277583,0.08932208269834518,5.094346523284912,-0.08251210302114487,0.003468044800683856,0.06233401224017143,-0.27928414940834045,0.2829071581363678,0.01687563955783844,-0.40164661407470703,-0.8051746487617493,0.06711189448833466,-0.8677803874015808,0.8560073375701904,0.17820122838020325
1749038402.3155107,-1.8110397497760218,-0.612682656650879,-0.990586519241333,0.043415828342102,0.08983136713504791,5.09437894821167,-0.08259030431509018,0.0029171800706535578,0.0641104131937027,-0.2838154435157776,0.2817208170890808,0.01746498979628086,-0.3873172700405121,-0.7988863587379456,0.056201137602329254,-0.8409170508384705,0.8619154095649719,0.16431911289691925
1749038402.315566,-1.8112695852862757,-0.6127023857882996,-0.9904664754867554,0.04283539831127925,0.09036137908697128,5.094425678253174,-0.08120223134756088,0.0025584024842828512,0.06375408172607422,-0.2930464446544647,0.2858494818210602,0.016877228394150734,-0.3789624571800232,-0.7914119362831116,0.03450626879930496,-0.8000407814979553,0.8571243286132812,0.17150142788887024
1749038402.3157113,-1.8114245573626917,-0.6126707357219239,-0.9903223514556885,0.04224316656079097,0.09100418537855148,5.094450950622559,-0.08069680631160736,0.0025903971400111914,0.06175847724080086,-0.2951321005821228,0.29242393374443054,0.016512667760252953,-0.4255128502845764,-0.7859596610069275,0.08193372189998627,-0.8050358295440674,0.8738446235656738,0.16548213362693787
1749038402.3173425,-1.8115533033954065,-0.612651602630951,-0.9902057647705078,0.04163901388134761,0.09158775955438614,5.094440460205078,-0.0801684632897377,0.0027291628066450357,0.06339309364557266,-0.291887491941452,0.29292455315589905,0.01702374964952469,-0.42751261591911316,-0.7978972792625427,0.05179634690284729,-0.7852181196212769,0.8561431765556335,0.14984893798828125
1749038402.3582873,-1.8117836157428187,-0.6126396817019959,-0.990070104598999,0.04105369626965327,0.09219703078269958,5.094537734985352,-0.08526483178138733,0.0028052753768861294,0.06532489508390427,-0.2880377173423767,0.2959141135215759,0.017275184392929077,-0.36302176117897034,-0.7960182428359985,0.05344657599925995,-0.8353908658027649,0.8119977712631226,0.15690317749977112
1749038402.3583353,-1.811932388936178,-0.6126361054233094,-0.9899225831031799,0.04048912107434077,0.09278538823127747,5.094558238983154,-0.0833410918712616,0.002866944996640086,0.06633768230676651,-0.2891651690006256,0.2921171188354492,0.016425319015979767,-0.37763485312461853,-0.799329400062561,0.035184867680072784,-0.877239465713501,0.8798284530639648,0.15337711572647095
1749038402.3583763,-1.8120735327350062,-0.6126504701427002,-0.9897940158843994,0.039940043086669874,0.09341388195753098,5.094597816467285,-0.08677375316619873,0.002905073342844844,0.06596606969833374,-0.29787203669548035,0.29061973094940186,0.017080219462513924,-0.38139182329177856,-0.7977513670921326,0.03688087314367294,-0.8581504225730896,0.8949218988418579,0.13357354700565338
1749038402.3584268,-1.812286678944723,-0.6126194161227723,-0.9896780252456665,0.03930429994549556,0.0939798504114151,5.094611167907715,-0.08388179540634155,0.003144762944430113,0.06568358838558197,-0.30486685037612915,0.2952120900154114,0.01684492826461792,-0.38782912492752075,-0.83419269323349,0.045242924243211746,-0.843506932258606,0.8756313323974609,0.14695274829864502
1749038402.358469,-1.8123658339129847,-0.6126158398440857,-0.9895452857017517,0.03866056978192134,0.09453365951776505,5.0946455001831055,-0.08579875528812408,0.0035765108186751604,0.06920280307531357,-0.30897364020347595,0.30439847707748413,0.016646351665258408,-0.39143770933151245,-0.8116827011108398,0.007203347980976105,-0.7730293273925781,0.8504136800765991,0.1480528563261032
1749038402.3585103,-1.8126347700702112,-0.612619475727417,-0.9893708825111389,0.03805498659100337,0.09518104791641235,5.094662189483643,-0.08778568357229233,0.003936528693884611,0.06547818332910538,-0.30779603123664856,0.3087126910686493,0.016413424164056778,-0.4085448086261749,-0.8371885418891907,0.045877568423748016,-0.7853903770446777,0.8184357285499573,0.16796916723251343
1749038402.3585486,-1.812805477772848,-0.6126039189151307,-0.9892346262931824,0.03744952260937495,0.09583458304405212,5.0947065353393555,-0.08729676902294159,0.003815140575170517,0.06722862273454666,-0.30713239312171936,0.30782759189605713,0.017135005444288254,-0.379628449678421,-0.8176031708717346,0.044994860887527466,-0.784436821937561,0.7943114042282104,0.15086902678012848
1749038402.3585858,-1.812962834035055,-0.6125992101481934,-0.9891258478164673,0.03681401788677974,0.09641394019126892,5.094714641571045,-0.08798263967037201,0.003393972758203745,0.07104379683732986,-0.30927762389183044,0.30841827392578125,0.016926653683185577,-0.383197546005249,-0.8031336665153503,0.0251803919672966,-0.821357250213623,0.8341118097305298,0.13895493745803833
1749038402.358625,-1.8131197134601038,-0.6125884217074891,-0.9889821410179138,0.0362052160450439,0.09701339900493622,5.094809532165527,-0.08947283029556274,0.0032852613367140293,0.06796415150165558,-0.3148227632045746,0.30697357654571533,0.017043495550751686,-0.3752601742744446,-0.818615198135376,0.022136596962809563,-0.7925406694412231,0.8481095433235168,0.15816013514995575
1749038402.358666,-1.813336197529928,-0.6125956338695069,-0.9888660907745361,0.03553704797711177,0.0975993201136589,5.0948486328125,-0.0880933552980423,0.0031519944313913584,0.06848794221878052,-0.314155250787735,0.3093400299549103,0.01776234433054924,-0.3577076196670532,-0.8168322443962097,0.039969876408576965,-0.7957484722137451,0.8486320972442627,0.14229652285575867
1749038402.3587039,-1.8135016600238245,-0.6126302641681214,-0.9887216687202454,0.0349157291599731,0.09820973128080368,5.094865322113037,-0.08709830790758133,0.0034964634105563164,0.06873784214258194,-0.3156452775001526,0.314905047416687,0.017342234030365944,-0.41486290097236633,-0.8019628524780273,0.03357668220996857,-0.758844792842865,0.8364176154136658,0.1558174043893814
1749038402.3587406,-1.8137128988849085,-0.6125992101481934,-0.9886212348937988,0.034303351039550734,0.09890765696763992,5.094916820526123,-0.09187814593315125,0.0037352435756474733,0.06879433244466782,-0.31222182512283325,0.31726473569869995,0.016699405387043953,-0.36024951934814453,-0.8041896820068359,0.03829822689294815,-0.7976399660110474,0.8337215781211853,0.16570958495140076
1749038402.3587775,-1.8138654867755335,-0.6125639241984864,-0.9884459972381592,0.033662839526794386,0.09953572601079941,5.094906330108643,-0.08983442187309265,0.003830895759165287,0.06937981396913528,-0.31069114804267883,0.31572994589805603,0.018344124779105186,-0.414386510848999,-0.8178483247756958,0.03828681632876396,-0.8453568816184998,0.8499327898025513,0.18263879418373108
1749038402.3588147,-1.8138654867755335,-0.6125639241984864,-0.9884459972381592,0.033662839526794386,0.09953572601079941,5.094906330108643,-0.08983442187309265,0.003830895759165287,0.06937981396913528,-0.31069114804267883,0.31572994589805603,0.018344124779105186,-0.414386510848999,-0.8178483247756958,0.03828681632876396,-0.8453568816184998,0.8499327898025513,0.18263879418373108
