nimar13/UR3e_dataset_trayectorias/data/trayectorias_completas_UR3e_TRAPEZOIDAL/trayectoria_286.csv
Punto,shoulder_pan_joint,shoulder_lift_joint,elbow_joint,wrist_1_joint,wrist_2_joint,wrist_3_joint,Posicion_X,Posicion_Y,Posicion_Z,Roll,Pitch,Yaw
0,4.669112591567453,3.9417968012248723,0.917318629846021,-3.2861596536584186,5.768221518016201,-1.357708881321467,0.22122323588252468,0.2132177231358269,0.5927788166610576,0.2164126459809094,-0.5126347546045914,-0.05068625168352195
1,4.668524670186062,3.941767438895745,0.9173830528488248,-3.285565174175103,5.767642914829679,-1.3578089800606579,0.2213211137413089,0.21305791065343282,0.5928728309489627,0.21703714600599103,-0.5132117128657633,-0.051632594848104854
2,4.666760906041888,3.941679351908363,0.9175763218572366,-3.2837817357251566,5.765907105270113,-1.3581092762782303,0.22161388947676677,0.21257768068489002,0.5931546710299866,0.21891348413728695,-0.5149412180031887,-0.054477390269991904
3,4.6638212991349315,3.9415325402627266,0.917898436871256,-3.280809338308579,5.763014089337504,-1.3586097699741844,0.22209897972811043,0.21177466596125566,0.5936237230493833,0.22205023430689982,-0.5178191063540597,-0.05923797783400665
4,4.659705849465193,3.9413270039588353,0.9183493978908832,-3.2766479819253704,5.7589638670318495,-1.35931046114852,0.22277204628951391,0.21064495557256283,0.594278945601565,0.22646188552050317,-0.5218382552135397,-0.06594339786542987
5,4.654414557032672,3.94106274299669,0.9189292049161183,-3.2712976665755304,5.753756438353152,-1.3602113498012374,0.22362694787185314,0.20918314754409847,0.5951188424045847,0.23216914009316877,-0.526988304930462,-0.07463460243576342
6,4.647947421837367,3.9407397573762895,0.9196378579469611,-3.26475839225906,5.747391803301411,-1.361312435932336,0.22465567392913932,0.2073824239622136,0.5961414243424215,0.23919932987612375,-0.533255263752699,-0.08536475184270576
7,4.640304443879281,3.9403580470976345,0.9204753569834118,-3.257030158975958,5.739869961876625,-1.3626137195418166,0.2258482619625909,0.20523465012408942,0.5973441611870213,0.24758694813936793,-0.5406209891552402,-0.09819959590776814
8,4.631485623158412,3.939917612160725,0.9214417020254702,-3.248112966726225,5.7311909140787956,-1.3641152006296788,0.2271927001928445,0.20273049954125763,0.5987239234208513,0.2573742924872986,-0.5490625373657059,-0.1132179380409636
9,4.621490959674761,3.939418452565561,0.9225368930731362,-3.2380068155098614,5.721354659907922,-1.3658168791959224,0.22867481802057196,0.19985960692877,0.6002769147038789,0.26861221041011796,-0.5585513706668378,-0.13051217685548966
10,4.610320453428327,3.9388605683121423,0.9237609301264103,-3.2267117053268666,5.710361199364004,-1.3677187552405479,0.23027816728556683,0.19661075154488442,0.6019985956690408,0.2813609331533936,-0.5690524098523029,-0.15018891481283117
11,4.59797410441911,3.938243959400469,0.925113813185292,-3.214227636177241,5.698210532447043,-1.369820828763555,0.2319838979894627,0.1929720733919112,0.6038835998898044,0.29569097462837274,-0.5805229170575432,-0.1723696150396971
12,4.58445191264711,3.937568625830541,0.9265955422497815,-3.2005546080609837,5.6849026591570375,-1.3721230997649434,0.2337706328697271,0.18893132482700534,0.6059256430442496,0.31168405889048045,-0.592911192303006,-0.19719127487740887
13,4.569753878112329,3.9368345676023586,0.9282061173198788,-3.1856926209780956,5.6704375794939885,-1.3746255682447137,0.23561434600039052,0.18447616003955686,0.6081174265035829,0.3294340207151312,-0.6061550658532386,-0.2248070663227023
14,4.553880000814765,3.9360417847159215,0.9299455383955839,-3.1696416749285765,5.6548152934578955,-1.3773282342028654,0.23748825144119134,0.17959446460452216,0.6104505367999219,0.34904759701156807,-0.6201801685274548,-0.2553868672979886
15,4.536830280754418,3.93519027717123,0.9318138054768969,-3.1524017699124265,5.638035801048758,-1.380231097639399,0.23936270884858762,0.17427472689206638,0.612915342678398,0.37064498984428723,-0.6348979643484325,-0.28911757124562937
16,4.5186047179312885,3.9342800449682835,0.9338109185638175,-3.1339729059296455,5.620099102266577,-1.383334158554314,0.2412051538795948,0.1685064524756755,0.6155008917112175,0.3943600320362669,-0.650203535810906,-0.3262030132250224
17,4.499203312345377,3.9333110881070827,0.9359368776563459,-3.1143550829802336,5.601005197111353,-1.3866374169476106,0.2429800621348915,0.16228062180596023,0.6181948087440791,0.4203397212511451,-0.665973123635764,-0.3668632860413025
18,4.478626063996683,3.932283406587627,0.9381916827544822,-3.09354830106419,5.5807540855830835,-1.390140872819289,0.24464895626439043,0.15559019027953325,0.6209831987549173,0.44874280675227907,-0.6820614429739504,-0.41133313861067083
19,4.456872972885206,3.931197000409917,0.9405753338582262,-3.071552560181516,5.559345767681771,-1.3938445261693488,0.24617046664994272,0.14843062840870372,0.623850557026407,0.47973701623928533,-0.6982988303062067,-0.4598590523008757
20,4.433944039010946,3.930051869573952,0.9430878309675781,-3.0483678603322106,5.5367802434074145,-1.3977483769977903,0.24750045672911092,0.14080049807075645,0.626779689860574,0.5134944056135767,-0.7144883241473834,-0.5126944867369306
21,4.409839262373905,3.928848014079733,0.9457291740825376,-3.0239942015162744,5.513057512760014,-1.4018524253046134,0.24859222446330018,0.13270205877581223,0.6297516493877099,0.550184219889326,-0.730402852653797,-0.5700926922192852
22,4.3845586429740795,3.927585433927259,0.948499363203105,-2.998431583733707,5.488177575739569,-1.4061566710898181,0.24939679160485279,0.12414189554154273,0.6327456863324459,0.5899626026700823,-0.7457827956650901,-0.6322964354192482
23,4.358102180811473,3.9262641291165306,0.9513983983292802,-2.9716800069845086,5.4621404323460805,-1.4106611143534047,0.24986329219316972,0.11513155731776095,0.635739224884663,0.6329585409390337,-0.7603343070114025,-0.6995240347165468
24,4.330469875886084,3.9248840996475476,0.9544262794610632,-2.943739471268679,5.434946082579549,-1.4153657550953727,0.24993947101387343,0.10568819199919427,0.6387078640673945,0.6792556625849209,-0.7737289162929587,-0.7719513326936808
25,4.301661728197911,3.9234453455203098,0.9575830065984539,-2.9146099765862186,5.406594526439972,-1.4202705933157223,0.24957230148655046,0.0958351609581388,0.6416254101810418,0.7288700139259123,-0.7856050549935438,-0.8496897437717107
26,4.271677737746956,3.9219478667348175,0.9608685797414525,-2.8842915229371275,5.377085763927352,-1.4253756290144535,0.2487087305036305,0.08560261280415761,0.6444639450140666,0.7817248176131348,-0.795572227269848,-0.9327613889318561
27,4.2405179045332195,3.9203916632910705,0.9642829988900588,-2.8527841103214047,5.346419795041688,-1.4306808621915663,0.2472965550273826,0.07502799284978315,0.647193934523735,0.837624455671218,-0.8032185076126438,-1.0210735749545856
28,4.2081822285567,3.918776735189069,0.9678262640442729,-2.8200877387390513,5.3145966197829795,-1.4361862928470606,0.24528543167659406,0.06415646167652476,0.6497843825835424,0.8962313789014774,-0.8081218212462239,-1.1143963335229015
29,4.174670709817398,3.917103082428813,0.9714983752040947,-2.7862024081900665,5.281616238151227,-1.4418919209809367,0.2426280160312416,0.05304119343687358,0.6522030341425169,0.9570509040182148,-0.8098649913064399,-1.212347997527657
30,4.139983348315313,3.9153707050103024,0.9752993323695244,-2.751128118674451,5.247478650146431,-1.4477977465931944,0.23928122291330828,0.04174352231316214,0.6544166317204896,1.0194292763144555,-0.8080538263667255,-1.314394210646645
31,4.104120144050445,3.913579602933537,0.9792291355405618,-2.714864870192204,5.212183855768591,-1.4539037696838337,0.23520759246619174,0.030332904134638034,0.6563912285476652,1.0825692636683628,-0.8023366919115767,-1.4198646571083557
32,4.067081097022796,3.9117297761985172,0.983287784717207,-2.6774126627433263,5.175731855017707,-1.4602099902528547,0.2303767395076976,0.018886659810456483,0.658092560822113,1.1455645938527481,-0.79242330249701,-1.52798884808116
33,4.0288662072323635,3.9098212248052424,0.98747527989946,-2.6387714963278177,5.13812264789378,-1.466716408300257,0.22476685549178574,0.007489468270241103,0.6594864804831118,1.2074502385137973,-0.7781001879031078,-1.6379479964731978
34,3.9894754746791485,3.9078539487537136,0.9917916210873209,-2.5989413709456777,5.099356234396807,-1.4734230238260413,0.21836622367940337,-0.0037674206736617345,0.6605394485628796,1.2672612549151336,-0.7592406425620373,-1.748935724114436
35,3.9489088993631514,3.90582794804393,0.9962368082807895,-2.557922286596907,5.059432614526791,-1.4803298368302071,0.21117469907603764,-0.014787278413258692,0.6612190875706105,1.3240903470998906,-0.7358079483529201,-1.8602178006810721
36,3.907166481284371,3.9037432226758915,1.0008108414798658,-2.515714243281505,5.0183517882837325,-1.4874368473127544,0.20320509572891557,-0.02546931246964376,0.6614947894742768,1.3771346403405231,-0.7078519816252978,-1.9711814508528658
37,3.864248220442809,3.9015997726495986,1.00551372068455,-2.4723172409994723,4.976113755667629,-1.4947440552736835,0.19448441558011065,-0.035710412671982515,0.6613383736796651,1.4257252230973436,-0.6755005422780954,-2.081367830991349
38,3.8201541168384634,3.8993975979650513,1.010345445894842,-2.427731279750808,4.932718516678481,-1.5022514607129942,0.18505484583700257,-0.045407224910307215,0.6607247869760783,1.4693374514648951,-0.6389475071386679,-2.1904857204050927
39,3.774884170471336,3.897136698622249,1.0153060171107418,-2.381956359535513,4.88816607131629,-1.5099590636306863,0.17497444643854407,-0.05445853404216869,0.6596328347507932,1.5075841102026695,-0.5984400706972993,-2.2984085713681712
40,3.7284383813414257,3.894817074621192,1.0203954343322492,-2.3349924803535873,4.842456419581054,-1.51786686402676,0.16431744643365226,-0.06276792028986505,0.6580459299121568,1.5401960833261317,-0.5542669961266904,-2.4051596152443775
41,3.6808167494487334,3.892438725961881,1.0256136975593646,-2.28683964220503,4.795589561472775,-1.5259748619012157,0.15317406876667686,-0.07024663404907378,0.6559528429642133,1.5669959220260203,-0.5067491969059933,-2.510890441261907
42,3.632019274793258,3.890001652644315,1.0309608067920877,-2.237497845089842,4.747565496991451,-1.5342830572540527,0.1416498079143694,-0.07681661299951281,0.6533484336235577,1.5878690476870188,-0.4562333425798264,-2.6158577823159006
43,3.5820459573750005,3.8875058546684946,1.0364367620304185,-2.1869670890080233,4.698384226137085,-1.5427914500852713,0.12986409482482925,-0.08241354357723783,0.6502343413624033,1.6027360036121838,-0.40308868476385984,-2.7204018589626617
44,3.53089679719396,3.8849513320344196,1.0420415632743572,-2.1352473739595723,4.648045748909674,-1.5515000403948718,0.11794829934508685,-0.08698984732264188,0.6466196094229864,1.6115277827390933,-0.34770698502703323,-2.824928144904971
45,3.4785717942501373,3.8823380847420896,1.0477752105239035,-2.0823386999444913,4.596550065309218,-1.5604088281828536,0.10604304227082528,-0.09051745271978635,0.6425212143216136,1.614165171283784,-0.2905052762003148,-2.9298931628313225
46,3.4250709485435324,3.8796661127915053,1.0536377037790579,-2.028241066962779,4.54389717533572,-1.5695178134492171,0.09429481750629631,-0.0929901965098194,0.6379644708108881,1.6105423902863378,-0.2319311495196406,-3.035793996089708
47,3.3703942600741446,3.8769354161826666,1.0596290430398199,-1.9729544750144359,4.490087078989177,-1.5788269961939623,0.08285195940170242,-0.09442568692510456,0.6329832808791798,1.6005150786218592,-0.1724702699525411,3.1400247517945084
48,3.3145417288419745,3.874145994915573,1.0657492283061896,-1.9164789240994615,4.435119776269589,-1.588336376417089,0.07186003048039488,-0.09486645682024926,0.6276201948352197,1.5838927778003362,-0.11265582222932365,3.030636155102994
49,3.2575133548470214,3.871297848990225,1.0719982595781672,-1.8588144142178564,4.378995267176959,-1.5980459541185974,0.06145674925787745,-0.09438023926931596,0.6219262530595896,1.560436482047137,-0.05307952474529409,2.9186498296785475
50,3.199374462687218,3.868394240887636,1.07836897874433,-1.800026998645543,4.32177784095423,-1.6079446072163552,0.051776954834598134,-0.09306110434821913,0.615967334247788,1.5299004809787586,0.005531910749557473,2.8036106751811567
51,3.1409742721356855,3.865477582860991,1.0847683303561833,-1.7409753699695347,4.264303257759716,-1.6178877486426422,0.04304263811758529,-0.09105911247080384,0.6098986204889276,1.4925822940562865,0.061651334012262714,2.686659041225672
52,3.082574081584153,3.8625609248343458,1.0911676819680367,-1.6819237412935264,4.2068286745652,-1.6278308900689291,0.035319447220317345,-0.08854079932904109,0.6038187300350134,1.4486803814114984,0.11439289696288431,2.5678825835693293
53,3.024173891032621,3.8596442668077007,1.09756703357989,-1.6228721126175185,4.149354091370684,-1.637774031495216,0.02859979842204521,-0.08566440440299299,0.597796405870328,1.3982912756999748,0.16312460432368617,2.4469615862853953
54,2.9657737004810882,3.8567276087810556,1.1039663851917434,-1.5638204839415102,4.091879508176169,-1.647717172921503,0.022850184453844673,-0.08257972889562168,0.5918960331588405,1.3415681223527918,0.2072053098984191,2.3237083038487385
55,2.9073735099295557,3.8538109507544105,1.1103657368035966,-1.5047688552655019,4.034404924981654,-1.65766031434779,0.018013505325774885,-0.07942422187021062,0.5861767478550737,1.278758834373005,0.2459970899931117,2.1980954671801944
56,2.8489733193780227,3.850894292727765,1.11676508841545,-1.4457172265894935,3.976930341787138,-1.6676034557740769,0.014011997488028262,-0.07631956994823184,0.5806916342385314,1.210241927071986,0.2788848331177039,2.0702842739289413
57,2.7905731288264906,3.84797763470112,1.1231644400273033,-1.3866655979134852,3.919455758592623,-1.6775465972003638,0.01075065973994655,-0.07336888062582514,0.5754870227272253,1.1365537642954617,0.30530262816014797,1.9406454037396819
58,2.732172938274958,3.8450609766744748,1.1295637916391565,-1.3276139692374769,3.8619811753981077,-1.6874897386266507,0.008121060873773943,-0.07065452959315943,0.5706018978316622,1.0583996596820058,0.3247650747888748,1.8097653189809522
59,2.6737727477234254,3.8421443186478297,1.13596314325101,-1.2685623405614685,3.8045065922035923,-1.6974328800529377,0.006005404338835554,-0.06823672081280784,0.5660674244755409,0.9766419850281649,0.3368999465405663,1.678430843862693
60,2.615372557171893,3.8392276606211846,1.1423624948628635,-1.2095107118854607,3.747032009009077,-1.7073760214792246,0.004280719510342866,-0.0661527852249085,0.5619065991571325,0.8922619705235518,0.34147727497319647,1.5475885778647254
61,2.5569723666203608,3.8363110025945395,1.1487618464747167,-1.1504590832094523,3.6895574258145616,-1.7173191629055116,0.002823047591451502,-0.06441722052825377,0.5581340305811878,0.8062979047049618,0.3384295952811905,1.4182817540323505
62,2.4985721760688278,3.8333943445678944,1.15516119808657,-1.0914074545334436,3.6320828426200458,-1.7272623043317985,0.0015114927819172546,-0.0630224512802149,0.5547558524820766,0.7197690521071628,0.3278592724376995,1.2915737929755393
63,2.440171985517295,3.8304776865412493,1.1615605496984234,-1.0323558258574357,3.574608259425531,-1.7372054457580854,0.00023201599432392563,-0.06194026629628954,0.551769769412209,0.6335989870840235,0.31003137648044754,1.168472211196293
64,2.3817717949657626,3.8275610285146042,1.1679599013102768,-0.9733041971814274,3.5171336762310155,-1.7471485871843724,-0.0011191411555938145,-0.06112386970976917,0.5491652343139448,0.5485520684268628,0.28535368033603115,1.049866591807712
65,2.3233716044142305,3.8246443704879587,1.17435925292213,-0.914252568505419,3.4596590930365,-1.7570917286106593,-0.0026325004787876288,-0.06051046371509097,0.5469237547563552,0.46519243297660495,0.25434789840278643,0.9364899970605761
66,2.264971413862698,3.8217277124613136,1.1807586045339833,-0.8552009398294111,3.4021845098419847,-1.7670348700369463,-0.0043829410157813845,-0.06002426553014921,0.545019322828436,0.3838682691546384,0.21761745329033472,0.8289065946006123
67,2.206571223311165,3.8188110544346685,1.1871579561458367,-0.7961493111534024,3.344709926647469,-1.7769780114632334,-0.006427904825400217,-0.059579848944396926,0.5434189618650247,0.30471806573486276,0.17581671657121545,0.7275222012484642
68,2.1481710327596324,3.8158943964080234,1.1935573077576902,-0.737097682477394,3.2872353434529535,-1.7869211528895204,-0.00880625607019904,-0.0590856923334571,0.5420833814669613,0.22769194833395554,0.12962529129947734,0.63261084319199
69,2.0897708422081003,3.8129777383813783,1.1999566593695434,-0.6780460538013857,3.2297607602584386,-1.7968642943158073,-0.011537812635546218,-0.05844781045982855,0.540967730687804,0.15258048197755567,0.07972919362405866,0.5443496440423563
70,2.0313706516565677,3.8100610803547332,1.2063560109813967,-0.6189944251253774,3.1722861770639232,-1.806807435742094,-0.014623547094018217,-0.05757334685841331,0.5400224378186038,0.07904463126929516,0.02680931357147384,0.4628555622809132
71,1.9729704611050352,3.807144422328088,1.2127553625932501,-0.55994279644937,3.1148115938694074,-1.816750577168381,-0.018046431778098376,-0.056374007109950004,0.5391941239307279,0.006642781408856501,-0.028463443144269417,0.38821953014289723
72,1.9145702705535026,3.804227764301443,1.2191547142051034,-0.5008911677733616,3.0573370106748925,-1.826693718594668,-0.021772881764398257,-0.054769220690265887,0.538426576252876,-0.06514705396222095,-0.08542740678430669,0.3205354676247513
73,1.85617008000197,3.801311106274798,1.2255540658169568,-0.4418395390973524,2.9998624274803767,-1.836636860020955,-0.025754730375274985,-0.05268893007941286,0.5376617665779366,-0.13690990692616326,-0.14342497807362928,0.2599229709930366
74,1.7977698894504375,3.798394448248153,1.23195341742881,-0.3827879104213441,2.9423878442858618,-1.846580001447242,-0.02993165498220339,-0.05007592003753506,0.5368408992309293,-0.2092801470026489,-0.20179416542974013,0.20654307525769444
75,1.7393696988989058,3.7954777902215078,1.2383527690406635,-0.32373628174533664,2.884913261091347,-1.8565231428735287,-0.03423395698322111,-0.04688761691635888,0.5359054726906001,-0.2829291195407235,-0.25985784871240997,0.16060642707314213
76,1.6809695083473724,3.7925611321948622,1.244752120652517,-0.2646846530693274,2.82743867789683,-1.866466284299816,-0.03858558926117591,-0.04309730700232128,0.5347983387506335,-0.358550990365581,-0.31691179456459695,0.1223726119248612
77,1.6225693177958398,3.789644474168217,1.2511514722643702,-0.2056330243933191,2.769964094702315,-1.876409425726103,-0.04290731753680667,-0.038694743537389054,0.5334647431349279,-0.4368428031784105,-0.37221264397015275,0.09213842720149786
78,1.5641691272443072,3.786727816141572,1.2575508238762234,-0.14658139571731077,2.7124895115078003,-1.88635256715239,-0.047119899016544675,-0.03368613354729241,0.5318533317445877,-0.5184739744374962,-0.424967555767601,0.07021184233707933
79,1.5057689366927747,3.783811158114927,1.2639501754880769,-0.08752976704130333,2.6550149283132845,-1.896295708578677,-0.05114716267785608,-0.028093517210123764,0.5299171072084161,-0.6040401008878955,-0.47432795079088064,0.05686772477084878
80,1.4473687461412421,3.780894500088282,1.27034952709993,-0.028478138365295003,2.5975403451187695,-1.9062388500049636,-0.05491888038405606,-0.02195357350543156,0.5276143211266563,-0.6939968510744282,-0.5193907847007438,0.05228201438020938
81,1.3889685555897096,3.777977842061637,1.2767488787117833,0.030573490310713325,2.5400657619242537,-1.9161819914312506,-0.058373326597404546,-0.015315905600950922,0.5249092883291814,-0.788573155770196,-0.5592116870641938,0.05644422767216299
82,1.330568365038177,3.7750611840349917,1.2831482303236368,0.08962511898672165,2.482591178729739,-1.9261251328575375,-0.061459436463973685,-0.008240877210877903,0.5217731106008681,-0.8876702941756947,-0.5928344903240791,0.06905536277589815
83,1.2721681744866453,3.7721445260083466,1.2895475819354902,0.14867674766272998,2.425116595535223,-1.9360682742838244,-0.06413848706470816,-0.0007970864110300796,0.5181842986421272,-0.9907649923069705,-0.6193401274388411,0.08942965187626228
84,1.2137679839351128,3.7692278679817015,1.2959469335473435,0.2077283763387383,2.367642012340708,-1.9460114157101114,-0.06638524415454428,0.0069414243788392185,0.5141292825126631,-1.096847154571027,-0.6379136308042298,0.116431008190172
85,1.1553677933835802,3.766311209955056,1.3023462851591967,0.26678000501474575,2.310167429146193,-1.9559545571363983,-0.0681885361541934,0.014898114737993079,0.5096028024299614,-1.20442840367818,-0.6479210762259581,0.14848049563539556
86,1.0969676028320476,3.763394551928411,1.3087456367710502,0.3258316336907541,2.2526928459516773,-1.9658976985626853,-0.06955123786376524,0.022996936323723745,0.5046081735375201,-1.3116463061603454,-0.6489810304744295,0.18365980146701033
87,1.038567412280515,3.760477893901766,1.3151449883829034,0.3848832623667624,2.1952182627571624,-1.9758408399889722,-0.07048966763932993,0.031165252897003635,0.4991574200961265,-1.416458047505181,-0.641011721161394,0.21990454546846594
88,0.9801672217289816,3.7575612358751207,1.3215443399947568,0.4439348910427716,2.1377436795626457,-1.9857839814152594,-0.07103242289993357,0.0393365792246214,0.4932712764580724,-1.5168790020202958,-0.6242395628517571,0.25524291826235496
89,0.9217670311774491,3.7546445778484756,1.32794369160661,0.50298651971878,2.0802690963681307,-1.9957271228415463,-0.07121869910533359,0.047453034335502686,0.486979054131559,-1.6111998909306342,-0.5991663067146107,0.2880133746084931
90,0.8633668406259165,3.7517279198218305,1.3343430432184635,0.5620381483947883,2.022794513173616,-2.0056702642678332,-0.07109615608348054,0.05546741476850389,0.48031837620249146,-1.6981266258945564,-0.5665051687866384,0.31700549954951596
91,0.8049666500743848,3.7488112617951854,1.340742394830317,0.6210897770707966,1.9653199299791,-2.01561340569412,-0.07071841216105973,0.06334480688435642,0.47333478232512,-1.776821897674392,-0.527103940081938,0.3415031160785022
92,0.7465664595228523,3.7458946037685403,1.3471417464421702,0.680141405746804,1.907845346784585,-2.025556547120407,-0.07014226040021179,0.07106367358155301,0.466081209393423,-1.8468637807577999,-0.4818725290034806,0.36124489858000575
93,0.6881662689713197,3.7429779457418952,1.3535410980540235,0.7391930344228124,1.8503707635900692,-2.035499688546694,-0.06942471189857044,0.07861636931681006,0.4586173548342521,-1.9081557735266954,-0.4317261259521781,0.37633688138014887
94,0.6297660784197872,3.7400612877152497,1.359940449665877,0.7982446630988207,1.7928961803955543,-2.045442829972981,-0.0686199782008163,0.08600905757081168,0.45100893119461377,-1.960822483439877,-0.3775477748454084,0.38715100377632283
95,0.5713658878682546,3.737144629688605,1.3663398012777301,0.857296291774829,1.7354215972010385,-2.055385971399268,-0.06777650814713769,0.09326102614808945,0.44332682230396436,-2.0051141827176533,-0.3201687779893174,0.394232788968259
96,0.512965697316722,3.7342279716619595,1.3727391528895834,0.9163479204508373,1.6779470140065236,-2.065329112825555,-0.06693419382096363,0.10040341724992585,0.4356461527547304,-2.0413310602825345,-0.2603628565461217,0.39822876149671577
97,0.4545655067651895,3.7313113136353144,1.3791385045014368,0.9753995491268457,1.6204724308120086,-2.075272254251842,-0.06612185565771786,0.10747741039285669,0.4280452837392305,-2.0697691129172178,-0.19884963457345345,0.39983518410162294
98,0.3961653162136578,3.7283946556086693,1.3855378561132903,1.0344511778028531,1.5629978476174928,-2.0852153956781287,-0.06535510836992721,0.11453191625549655,0.42060474938992837,-2.090685051376694,-0.13630374958846017,0.39976492013902004
99,0.33776512566212435,3.7254779975820242,1.3919372077251437,1.0935028064788623,1.505523264422977,-2.0951585371044157,-0.06463469738875033,0.12162085775002607,0.4134061486763756,-2.104276204432819,-0.07336691898580382,0.3987275386314518
100,0.27962623350232096,3.7225743894794356,1.3983079268913063,1.1522902220511746,1.4483058382002474,-2.1050571902021735,-0.0639484362035514,0.1287677250824967,0.40656092979037317,-2.1106590630991575,-0.010940324484331947,0.39742319761095174
101,0.22259785950736877,3.719726243554087,1.4045569581632842,1.20995473193278,1.3921813291076184,-2.1147667679036815,-0.06327510712307904,0.1359170995054764,0.4002344108172032,-2.1100503431467903,0.04948499489106092,0.3965219121451666
102,0.16674532827519606,3.716936822286994,1.4106771434296534,1.266430282847753,1.3372140263880299,-2.1242761481268086,-0.06257244242163156,0.14309776744028269,0.3944811354263641,-2.102861402157626,0.1073274060558999,0.3965825686077823
103,0.11206863980580994,3.7142061256781553,1.4166684826904157,1.3217168747960963,1.28340393004149,-2.1335853308715533,-0.06178988872127168,0.15033465561102052,0.38933672306449,-2.0894676254150037,0.16213055845560229,0.3980587877809529
104,0.05856779409920598,3.7115341537275706,1.42253097594557,1.375814507777811,1.2307510400679886,-2.1426943161379173,-0.06087277462159282,0.1576401763916607,0.3848260107910328,-2.0702211748872266,0.2134860707621778,0.4012995139345832
105,0.006242791155381511,3.708920906435241,1.4282646231951164,1.4287231817928916,1.1792553564675359,-2.151603103925899,-0.05976551489130898,0.16501429073688964,0.3809635222370583,-2.0454745734633932,0.2610306040824972,0.40654605348562245
106,-0.044906369025657256,3.706366383801166,1.4338694244390555,1.4804428968413417,1.1289168792401236,-2.1603116942354994,-0.0584145007226827,0.17244520672178537,0.3777541098575819,-2.0156027356003032,0.3044464737458099,0.41392786334897075
107,-0.09487968644391653,3.703870585825346,1.4393453796773858,1.5309736529231595,1.0797356083857554,-2.168820087066718,-0.0567705798882015,0.1799105866771097,0.3751937312697578,-1.9810219495238184,0.34346522525852363,0.4234586634964347
108,-0.1436771610993901,3.70143351250778,1.4446924889101092,1.5803154500383476,1.031711543904434,-2.177128282419555,-0.05479106724603465,0.18737913096533718,0.3732703226470133,-1.9422040113787207,0.3778734096092125,0.43503494622195626
109,-0.1912987929920824,3.699055163848468,1.449910752137224,1.6284682881869053,0.9848446857961521,-2.185236280294011,-0.05244125911002215,0.19481240946088157,0.37196473507381855,-1.8996836074009766,0.4075195497272153,0.4484391210152903
110,-0.23774458212199345,3.6967355398474115,1.455000169358732,1.6754321673688297,0.9391350340609197,-2.193144080690084,-0.04969545338992555,0.20216682101282554,0.37125170322822965,-1.8540573490266785,0.4323210584644873,0.4633492225605186
111,-0.28301452848912145,3.6944746405046094,1.4599607405746318,1.7212070875841254,0.8945825886987251,-2.2008516836077767,-0.046537500495329454,0.20939557483091512,0.3711008195452551,-1.805973707152891,0.4522697414204877,0.47935623687242424
112,-0.3271086320934655,3.692272465820062,1.4647924657849232,1.7657930488327898,0.851187349709579,-2.2083590890470877,-0.042960927598282676,0.21645060421533532,0.37147749094637317,-1.7561144060078693,0.4674345873567939,0.49598874521939723
113,-0.3700268929350301,3.690129015793769,1.4694953449896078,1.8091900511148253,0.8089493170934734,-2.2156662970080165,-0.038968691132269764,0.22328434090789237,0.37234385915053114,-1.7051693460573032,0.477960866322882,0.5127430347193115
114,-0.4117693110138081,3.688044290425731,1.4740693781886844,1.851398094430226,0.7678684908504172,-2.222773307490564,-0.034572619795964266,0.2298512963693173,0.37365966938911455,-1.6538083939227766,0.484065096362827,0.5291155176376311
115,-0.4523358863298039,3.686018289715947,1.4785145653821525,1.892417178778996,0.7279448709803997,-2.22968012049473,-0.029792613433485222,0.23610941352777456,0.3753830759380544,-1.6026539800404667,0.48602609553707515,0.5446336653560849
116,-0.49172661888302205,3.6840510136644182,1.4828309065700138,1.9322473041611365,0.689178457483429,-2.236386736020514,-0.024655662683816033,0.24202116828906028,0.3774713761855844,-1.5522581622365983,0.4841729473900252,0.5588819174267966
117,-0.5299415086734527,3.682142462271144,1.4870184017522663,1.9708884705766447,0.6515692503594996,-2.2428931540679162,-0.01919475097394826,0.24755441387352947,0.3798816679276825,-1.503086741377832,0.47887112471257354,0.571520074857824
118,-0.5669805557011038,3.6802926355361234,1.491077050928912,2.0083406780255224,0.6151172496086179,-2.2491993746369374,-0.013447695004206669,0.2526829725781284,0.38257142719782244,-1.4555115168169295,0.4705081552633036,0.5822931661379386
119,-0.6028437599659711,3.6785015334593583,1.4950068540999488,2.0446039265077687,0.5798224552307758,-2.2553053977275765,-0.007455973021449321,0.2573869887574173,0.38549900618278937,-1.409810301009063,0.45948008204450935,0.5910332273469675
120,-0.6375311214680544,3.6767691560408475,1.4988078112653789,2.079678216023387,0.5456848672259795,-2.261211223339834,-0.0012635825020849856,0.2616530637174473,0.38862405265489725,-1.3661732337003807,0.4461796514837315,0.5976545041396982
121,-0.671042640207359,3.675095503280591,1.5024799224252012,2.1135635465723706,0.5127044855942291,-2.2669168514737104,0.005084039112303403,0.26547419796804667,0.3919078538767715,-1.324713401762342,0.4309867675608661,0.6021441076494102
122,-0.7033783161838763,3.67348057517859,1.5060231875794146,2.1462599181547244,0.4808813103355192,-2.272422282129205,0.011541004850163666,0.26884956910273494,0.3953136091296894,-1.2854797388588768,0.41426137798175083,0.6045501802064351
123,-0.7345381493976131,3.671924371734843,1.5094376067280213,2.177767330770447,0.4502153414498551,-2.2777275153063177,0.018061861470503794,0.2717841747361995,0.3988066359079636,-1.2484704902166308,0.3963386718755402,0.6049693093315779
124,-0.7645221398485695,3.6704268929493504,1.5127231798710201,2.208085784419538,0.4207065789372333,-2.2828325510050487,0.02460235396747193,0.2742883697131507,0.40235451544137885,-1.2136459972174987,0.37752628829861534,0.6035344540659431
125,-0.7933302875367403,3.668988138822113,1.5158799070084101,2.2372152791019975,0.3923550227976609,-2.2877373892253985,0.03112006568509374,0.276377325497181,0.4059271835884999,-1.1809400369045295,0.3581031520344296,0.600404163552622
126,-0.8209625924621324,3.66760810935313,1.5189077881401936,2.2651558148178257,0.3651606730311254,-2.2924420299673667,0.03757493345851968,0.27807043752903393,0.4094969733196984,-1.1502693551726493,0.3383195434620752,0.5957534613211785
127,-0.8474190546247389,3.666286804542401,1.5218068232663682,2.2919073915670243,0.33912352963763936,-2.2969464732309532,0.04392964132900383,0.27939070366201507,0.4130386150131426,-1.1215413258447489,0.318398045230802,0.5897664733468244
128,-0.8726996740245596,3.665024224389928,1.524577012386936,2.3174700093495897,0.3142435926171938,-2.3012507190161573,0.05014989961465499,0.2803640937599071,0.4165292006515044,-1.0946598535784917,0.2985350668303075,0.5826306909617913
129,-0.8968044506616053,3.663820368895708,1.5272183555018959,2.341843668165531,0.2905208619697941,-2.3053547673229806,0.05620461851474709,0.2810189273678133,0.4199481177612172,-1.069529737108471,0.27890271235930936,0.5745326604681203
130,-0.9197333845358617,3.6626752380597436,1.5297308526112472,2.365028368014835,0.26795533769543667,-2.309258618151422,0.062065987062869366,0.2813852731926015,0.423276958606691,-1.0460597460423562,0.25965081690648567,0.5656548543869196
131,-0.9414864756473396,3.6615888318820335,1.5321145037149917,2.38702410889751,0.24654701979412508,-2.3129622715014824,0.06770946921825713,0.28149438107725494,0.4264994097628965,-1.0241646622149874,0.24090902810705908,0.5561734816561489
132,-0.9620637239960352,3.660561150362578,1.5343693088131274,2.4078308908135515,0.22629590826585577,-2.31646572737316,0.07311372929688474,0.28137815431159297,0.42960112676217543,-1.0037665130928979,0.22278885015038916,0.5462570180239051
133,-0.9814651295819452,3.659592193501377,1.536495267905656,2.4274487137629635,0.20720200311062875,-2.3197689857664563,0.07826049889686226,0.2810686675517588,0.4325695980629307,-0.9847951920020289,0.20538559826356081,0.5360652711881978
134,-0.9996906924050748,3.658681961298431,1.538492380992577,2.445877577745744,0.18926530432844935,-2.3228720466813724,0.08313439706449148,0.2805977333599897,0.4353940021340781,-0.9671886254979146,0.18878023388079954,0.5257488303415339
135,-1.0167404124654222,3.657830453753739,1.5403606480738894,2.463117482761895,0.172485811919314,-2.3257749101179055,0.08772271476926218,0.27999651844178547,0.43806506100203474,-0.9508926161137208,0.1730410660137191,0.5154487824992258
136,-1.0326142897629857,3.657037670867302,1.5421000691495947,2.4791684288114126,0.15686352588321917,-2.3284775760760565,0.0920151738897166,0.2792952090511228,0.44057489317637155,-0.9358604608806869,0.1582253143847659,0.5052966063767415
137,-1.0473123242977689,3.6563036126391197,1.5437106442196915,2.4940304158943025,0.1423984462201684,-2.330980044555828,0.09600366992835212,0.2785227237449479,0.4429168684634157,-0.9220524229392103,0.14438053607617107,0.4954141780512131
138,-1.060834516069768,3.6556282790691914,1.5451923732841815,2.507703444010561,0.12909057293016524,-2.3332823155572164,0.09968200663245208,0.27770647067607884,0.4450854667995493,-0.90943511503142,0.13154592091027686,0.48591384136636
139,-1.0731808650789816,3.6550116701575184,1.5465452563430635,2.5201875131601845,0.11693990601320259,-2.3353843890802226,0.10304562964765221,0.27687214589321746,0.44707614289119313,-0.8979808391273721,0.11975346238670022,0.47689851055184274
140,-1.08435137132542,3.6544537859040997,1.5477692933963372,2.53148262334318,0.10594644546928578,-2.337286265124848,0.10609136531045686,0.2760435686388916,0.4488851981386274,-0.887666915216682,0.10902901140664414,0.4684617834892541
141,-1.0943460348090692,3.653954626308935,1.5488644844440036,2.5415887745595427,0.09611019129841303,-2.3389879436910928,0.10881716972348326,0.27524254937032755,0.4505096610466284,-0.878475023742345,0.09939321968375242,0.4606880521294579
142,-1.1031648555299363,3.653514191372026,1.5498308294860614,2.5505059668092755,0.08743114350058434,-2.3404894247789545,0.11122189237307517,0.2744887861441157,0.4519471770860603,-0.8703905796864836,0.09086237900379336,0.4536526023497558
143,-1.1108078334880247,3.653132481093371,1.5506683285225125,2.558234200092377,0.07990930207579794,-2.3417907083884346,0.11330505775546945,0.2737997850741814,0.4531959087658746,-0.8634021514602664,0.08344916157531902,0.4474216995493812
144,-1.1172749686833274,3.6528094954729706,1.5513769815533556,2.564773474408847,0.07354466702405738,-2.342891794519533,0.11506666778135423,0.2731908007671334,0.45425444650258434,-0.8575009341184947,0.07716326575686085,0.44205265894219475
145,-1.1225662611158516,3.6525452345108254,1.5519567885785903,2.570123789758691,0.06833723834535732,-2.3437926831722518,0.11650702713005748,0.27267479293554414,0.4551217307316917,-0.8526802837166664,0.07201197054260444,0.437593901159183
146,-1.12668171078559,3.652339698206934,1.5524077495982176,2.5742851461419,0.06428701603970488,-2.3444933743465866,0.11762659322031932,0.27226239576701994,0.4557969855899649,-0.8489353176266158,0.068000601387888,0.43408499469037926
147,-1.1296213176925445,3.652192886561297,1.5527298646122374,2.577257543558476,0.061394000107094726,-2.34499386804254,0.11842585204775646,0.2719618970669102,0.4562796644056966,-0.8462625841538504,0.06513290927950594,0.4315566870848861
148,-1.1313850818367204,3.652104799573916,1.5529231336206486,2.579040982008422,0.05965819054753041,-2.345294164260114,0.11890522079985164,0.27177922468011656,0.4565694071627052,-0.8446598037240157,0.06341136440658093,0.4300309268485058
149,-1.1319730032181106,3.6520754372447883,1.5529875566234528,2.579635461491737,0.0590795873610066,-2.3453942629993043,0.11906497788603874,0.2717179382200467,0.4566660100493691,-0.8441256831250652,0.06283736535429932,0.4295208777492154
