nimar13/UR3e_dataset_trayectorias/data/trayectorias_completas_UR3e_TRAPEZOIDAL/trayectoria_310.csv
Punto,shoulder_pan_joint,shoulder_lift_joint,elbow_joint,wrist_1_joint,wrist_2_joint,wrist_3_joint,Posicion_X,Posicion_Y,Posicion_Z,Roll,Pitch,Yaw
0,-0.7103712159465925,4.83997556438243,-0.7031723143362665,-0.9316802322280555,-6.133550734827405,5.354581035313119,0.07477143181733757,0.22845366606233594,0.6690610138471701,2.275453042973092,-0.01029576381850599,1.0050536438691893
1,-0.7105072028526024,4.840101779425948,-0.7032470404676651,-0.9312932302071442,-6.1335544045315,5.353741213811358,0.07486141324569796,0.22839264654497726,0.6690666693208205,2.275046928968892,-0.010360564986159795,1.0049101187262541
2,-0.7109151635706323,4.840480424556506,-0.7034712188618607,-0.9301322241444101,-6.133565413643784,5.351221749306076,0.07513127259829659,0.22820946112948612,0.6690835086993783,2.27382859305315,-0.010554939459193325,1.0044793747035228
3,-0.7115950981006821,4.841111499774101,-0.7038448495188534,-0.9281972140398532,-6.1335837621642595,5.347022641797271,0.07558075446435705,0.22790372969348105,0.6691111508175026,2.2717980537302678,-0.010878799418820518,1.0037609061788306
4,-0.7125470064427519,4.841995005078735,-0.7043679324386433,-0.9254881998934738,-6.133609450092924,5.341143891284945,0.0762094311173816,0.2274748202627593,0.6691489602752513,2.2689553425527915,-0.011331996071539084,1.0027538709845751
5,-0.7137708885968416,4.843130940470406,-0.7050404676212301,-0.9220051817052715,-6.1336424774297775,5.333585497769098,0.07701669946132604,0.2269218513683411,0.6691960472614,2.265300505186014,-0.011914316010011252,1.001457091225513
6,-0.7152667445629511,4.844519305949116,-0.7058624550666142,-0.9177481594752465,-6.133682844174822,5.324347461249729,0.0780017767733452,0.2262436953710223,0.6692512673258405,2.260833602891859,-0.012625476126692372,0.9998690544512697
7,-0.7170345743410808,4.846160101514863,-0.7068338947747952,-0.9127171332033988,-6.133730550328056,5.313429781726837,0.07916369526151422,0.22543898277789723,0.6693132211208526,2.255554714425174,-0.013465117088880181,0.9979879152110839
8,-0.7190743779312302,4.84805332716765,-0.7079547867457734,-0.9069121028897283,-6.13378559588948,5.300832459200425,0.08050129546164644,0.22450610758194064,0.6693802541366783,2.2494639383331343,-0.014432795386639954,0.9958114970261449
9,-0.7213861553333996,4.850198982907473,-0.7092251309795486,-0.9003330685342351,-6.133847980859094,5.28655549367049,0.08201321850334878,0.22344323366214108,0.6694504564625308,2.2425613956457187,-0.015527973968145571,0.993337294822607
10,-0.7239699065475889,4.852597068734336,-0.7106449274761211,-0.8929800301369193,-6.133917705236898,5.2705988851370345,0.08369789728188835,0.2222483022877069,0.6695216626098479,2.234847232942089,-0.016750011480363987,0.9905624778761131
11,-0.7268256315737982,4.855247584648236,-0.7122141762354905,-0.8848529876977806,-6.133994769022891,5.252962633600056,0.08555354657932114,0.22091904077553207,0.6695914514403005,2.226321625774051,-0.01809815013675596,0.9874838933262551
12,-0.7299533304120274,4.858150530649174,-0.7139328772576571,-0.8759519412168193,-6.134079172217074,5.233646739059557,0.08757815218573328,0.21945297235527014,0.6696571462467494,2.2169847824236864,-0.019571502237865076,0.9840980703269969
13,-0.7333530030622765,4.861305906737151,-0.7158010305426207,-0.8662768906940352,-6.134170914819447,5.212651201515535,0.0897694590794083,0.21784742730098042,0.6697158150410364,2.2068369479675116,-0.021169035375312693,0.9804012249065432
14,-0.7370246495245455,4.864713712912165,-0.7178186360903814,-0.8558278361294285,-6.13426999683001,5.189976020967992,0.09212495873330406,0.21609955539227654,0.6697642711081355,2.195878408614195,-0.02288955635493702,0.9763892656175464
15,-0.7409682697988345,4.8683739491742175,-0.7199856939009392,-0.844604777522999,-6.134376418248763,5.165621197416928,0.09464187562446688,0.2142063397711203,0.6697990738918153,2.184109496276898,-0.024731693880615323,0.97205780006581
16,-0.7451838638851433,4.872286615523309,-0.7223022039742941,-0.8326077148747467,-6.134490179075706,5.139586730862341,0.09731715303289085,0.21216461226279287,0.6698165302825018,2.171530593334624,-0.02669388004675111,0.9674021424128125
17,-0.7496714317834722,4.8764517119594375,-0.7247681663104462,-0.8198366481846717,-6.134611279310838,5.111872621304233,0.1001474382269599,0.20997107023098638,0.6698126963834836,2.1581421375296217,-0.028774330694585543,0.9624173219544038
18,-0.7544309734938209,4.880869238482605,-0.7273835809093953,-0.806291577452774,-6.134739718954161,5.082478868742603,0.10312906714389988,0.20762229503731214,0.669783379836939,2.1439446269398506,-0.03097102469541694,0.9570980928849108
19,-0.7594624890161896,4.88553919509281,-0.7301484477711414,-0.7919725026790536,-6.134875498005672,5.051405473177452,0.10625804868568199,0.20511477217468166,0.6697241427964127,2.1289386249568074,-0.033281682232570255,0.9514389453625357
20,-0.7647659783505782,4.890461581790053,-0.7330627668956847,-0.7768794238635105,-6.135018616465374,5.018652434608779,0.109530048763499,0.20244491314184385,0.6696303056373446,2.1131247651896987,-0.035703742163584226,0.9454341179984307
21,-0.7703414414969868,4.895636398574335,-0.7361265382830251,-0.7610123410061447,-6.135169074333267,4.984219753036584,0.11294037423724973,0.1996090791227345,0.6694969515019339,2.096503756207055,-0.038234338554677665,0.9390776118980193
22,-0.7761888784554153,4.901063645445654,-0.7393397619331625,-0.744371254106956,-6.135326871609348,4.948107428460867,0.11648395691036649,0.1966036065290667,0.6693189317790218,2.07907638601652,-0.040870276491106,0.932363206388977
23,-0.7823082892258636,4.906743322404012,-0.7427024378460971,-0.7269561631659447,-6.13549200829362,4.910315460881629,0.1201553377547301,0.1934248344576025,0.6690908726236552,2.0608435261729228,-0.04360800727963879,0.9252844765757744
24,-0.788699673808332,4.912675429449408,-0.7462145660218287,-0.7087670681831106,-6.135664484386082,4.870843850298869,0.12394865155519816,0.19006913410469467,0.6688071826245622,2.041806135393768,-0.04644360317312903,0.9178348128656313
25,-0.7953630322028202,4.9188599665818415,-0.7498761464603575,-0.6898039691584539,-6.135844299886733,4.829692596712587,0.12785761217838143,0.18653294016975736,0.6684620617307788,2.021965262550519,-0.04937273176196751,0.9100074426150253
26,-0.8022983644093284,4.925296933801313,-0.7536871791616833,-0.6700668660919744,-6.1360314547955745,4.786861700122784,0.131875498685497,0.18281278426623052,0.6680495115510602,2.001322048893386,-0.052390630193325384,0.9017954540494757
27,-0.8095056704278565,4.931986331107823,-0.7576476641258062,-0.6495557589836722,-6.136225949112605,4.742351160529459,0.13599514252429679,0.17890533034318812,0.6675633471414079,1.979877729357238,-0.055492079396328345,0.8931918226118344
28,-0.8169849502584046,4.938928158501372,-0.7617576013527262,-0.6282706478335472,-6.136427782837826,4.696160977932612,0.1402089160499819,0.17480741210283257,0.666997210396914,1.957633632787084,-0.05867137850985246,0.8841894398956863
29,-0.8247362039009725,4.946122415981958,-0.7660169908424432,-0.6062115326415995,-6.136636955971237,4.648291152332243,0.14450872263942832,0.17051607237865932,0.6663445851640731,1.9345911809135723,-0.06192231972941214,0.8747811453203156
30,-0.8327594313555604,4.953569103549583,-0.7704258325949574,-0.5833784134078293,-6.136853468512838,4.5987416837283535,0.14888598867670352,0.1660286044159015,0.6655988141886395,1.910751885902689,-0.06523816381062011,0.8649597607017111
31,-0.8410546326221683,4.961268221204246,-0.7749841266102687,-0.559771290132236,-6.137077320462628,4.547512572120941,0.15333165770044727,0.16134259496992848,0.6647531180118522,1.886117346299733,-0.06861161648891011,0.8547181278699282
32,-0.849621807700796,4.969219768945946,-0.7796918728883772,-0.5353901628148202,-6.137308511820608,4.494603817510008,0.15783618701487792,0.1564559691094688,0.6638006159243475,1.860689241186356,-0.07203480609854962,0.8440491494763187
33,-0.8584609565914436,4.977423746774685,-0.7845490714292825,-0.5102350314555817,-6.137547042586778,4.440015419895553,0.16238954707560022,0.1513670365798751,0.662734349082106,1.834469322371415,-0.07549926269831488,0.8329458331241547
34,-0.8675720792941113,4.985880154690462,-0.7895557222329852,-0.48430589605452035,-6.137792912761138,4.383747379277575,0.16698122396864062,0.14607453954709654,0.6615473058823292,1.8074594044424659,-0.0789958990363472,0.8214013389425098
35,-0.8769551758087988,4.994588992693277,-0.7947118252994848,-0.4576027566116364,-6.138046122343688,4.325799695656077,0.17160022530576702,0.1405777015056429,0.6602324496889065,1.7796613525155112,-0.0825149937125304,0.8094090307052362
36,-0.8866102461355063,5.00355026078313,-0.8000173806287815,-0.43012561312692965,-6.138306671334428,4.2661723690310565,0.17623508986071718,0.1348762770937147,0.6587827489871723,1.751077067536865,-0.08604617692281903,0.7969625305738817
37,-0.8965372902742337,5.012763958960021,-0.8054723882208753,-0.4018744656004002,-6.138574559733358,4.2048653994025145,0.18087390126894917,0.12897060251594722,0.657191210035615,1.7217084690134996,-0.08957841919598658,0.7840557775146493
38,-0.9067363082249811,5.022230087223951,-0.8110768480757663,-0.3728493140320479,-6.138849787540477,4.14187878677045,0.18550430610745638,0.12286164622912965,0.6554509120681637,1.6915574750777618,-0.09310002355878717,0.7706830894043804
39,-0.9172072999877483,5.031948645574918,-0.8168307601934542,-0.3430501584218729,-6.139132354755786,4.077212531134864,0.19011353666048608,0.11655105949903632,0.6535550450842987,1.660625979829571,-0.09659862158992723,0.7568392287982554
40,-0.9279502655625356,5.041919634012924,-0.8227341245739394,-0.31247699876987534,-6.139422261379285,4.010866632495757,0.19468843866115612,0.11004122638755492,0.6514969502455619,1.628915827944841,-0.10006117384589247,0.7425194722817918
41,-0.9389652049493425,5.052143052537968,-0.8287869412172215,-0.28112983507605505,-6.139719507410974,3.9428410908531286,0.1992155042774016,0.10333531267903712,0.6492701628758742,1.5964287865934244,-0.1034739751616875,0.7277196832712243
42,-0.9502521181481696,5.062618901150049,-0.8349892101233009,-0.24900866734041194,-6.140024092850853,3.8731359062069783,0.20368091058288304,0.09643731320371651,0.6468684580392711,1.56316651477378,-0.10682266534611104,0.7124363880589214
43,-0.9618110051590165,5.073347179849169,-0.8413409312921771,-0.21611349556294623,-6.140336017698921,3.801751078557306,0.20807056371889834,0.08935209696486197,0.6442858986422693,1.5291305302449483,-0.11009224580315609,0.6966668548239378
44,-0.9736418659818835,5.084327888635328,-0.8478421047238507,-0.18244431974365738,-6.14065528195518,3.728686607904111,0.21237014891146555,0.08208544942568596,0.641516885978869,1.4943221743191337,-0.1132671026174008,0.6804091752419893
45,-0.9857447006167703,5.095561027508524,-0.8544927304183212,-0.14800113988254615,-6.140981885619628,3.6539424942473957,0.21656518645814668,0.07464411126281675,0.6385562126042579,1.458742574869881,-0.11633103664056543,0.6636623482344234
46,-0.9981195090636772,5.107046596468758,-0.8612928083755889,-0.11278395597961233,-6.141315828692266,3.5775187375871584,0.22064109374140864,0.06703581284629063,0.6353991173884859,1.4223926080103584,-0.11926730110740284,0.6464263652927476
47,-1.0107662913226039,5.118784595516031,-0.8682423385956536,-0.07679276803485557,-6.141657111173094,3.4994153379233994,0.22458325325908365,0.05926930366258493,0.6320413425638469,1.3852728590024237,-0.12205864729042366,0.6287022967051709
48,-1.0236850473935504,5.130775024650341,-0.8753413210785155,-0.040027576048276226,-6.1420057330621125,3.4196322952561187,0.22837708658753159,0.051354375858375066,0.6284791925393914,1.3473835830677239,-0.12468737867320429,0.6104923778960138
49,-1.036875777276517,5.14301788387169,-0.8825897558241743,-0.00248838001987417,-6.14236169435932,3.338169609585316,0.23200813410928706,0.043301881049730824,0.6247095942130383,1.3087246668845545,-0.1271354140799165,0.591800094970041
50,-1.05032337131528,5.155499149286353,-0.8899793399291416,0.035781819825805306,-6.142724587319819,3.2551205944111876,0.235458405859903,0.035132891463261234,0.620734697238811,1.2693398299429688,-0.1293819786395884,0.5726518313183657
51,-1.0638314039789365,5.168036510275913,-0.8974021356480638,0.07422402056966715,-6.143089111259914,3.1716983252362763,0.23866997580935886,0.026978354321848055,0.616614116337267,1.229802786886167,-0.13138215520455135,0.5533355164394113
52,-1.077339436642593,5.180573871265473,-0.904824931366986,0.11266622131352921,-6.14345363520001,3.088276056061365,0.2416286723459733,0.01888515393070723,0.6123719117558464,1.1902878814213234,-0.13312252014054513,0.5339488013278995
53,-1.0908474693062495,5.193111232255033,-0.9122477270859082,0.15110842205739106,-6.143818159140106,3.0048537868864544,0.24433687181103025,0.010863093740351205,0.6080147385354103,1.150792237473558,-0.13460085135963423,0.5145036030724747
54,-1.104355501969906,5.205648593244593,-0.9196705228048303,0.1895506228012529,-6.144182683080202,2.921431517711543,0.2467974059592875,0.0029216861388170895,0.6035494026384242,1.11131285328584,-0.13581546554169335,0.49501193377489605
55,-1.1178635346335624,5.218185954234152,-0.9270933185237525,0.2279928235451152,-6.144547207020298,2.8380092485366317,0.24901354723283792,-0.004929870826645134,0.5989828481700636,1.0718466264701212,-0.13676522116135592,0.4754858703843054
56,-1.1313715672972189,5.230723315223712,-0.9345161142426748,0.2664350242889775,-6.144911730960394,2.7545869793617204,0.25098899277623415,-0.012682715736917139,0.5943221443438742,1.0323903797736511,-0.13744951998723623,0.4559375239833471
57,-1.1448795999608752,5.243260676213272,-0.9419389099615969,0.3048772250328393,-6.14527625490049,2.671164710186809,0.25272784724899156,-0.02032834502828529,0.5895744722170876,0.9929408873191379,-0.13786830702741387,0.43637900872196195
58,-1.1583876326245317,5.255798037202832,-0.9493617056805191,0.34331942577670116,-6.145640778840586,2.5877424410118977,0.25423460449541835,-0.02785863309399166,0.5847471112211337,0.9534949010717311,-0.13802206890772986,0.4168224106015056
59,-1.1718956652881882,5.2683353981923915,-0.9567845013994414,0.381761626520563,-6.146005302780681,2.504320171836987,0.25551412813537056,-0.03526585119803524,0.5798474255132816,0.9140491772834689,-0.13791183068224008,0.39727975631531826
60,-1.1854036979518447,5.2808727591819515,-0.9642072971183635,0.4202038272644253,-6.146369826720777,2.420897902662076,0.2565716311429593,-0.042542685143053253,0.5748828501756904,0.8746005026669176,-0.137539151088085,0.37776298235196665
61,-1.1989117306155013,5.293410120171512,-0.9716300928372856,0.45864602800828713,-6.146734350660873,2.3374756334871645,0.25741265448343853,-0.04968225163813643,0.5698608772884237,0.8351457200542326,-0.13690611626974528,0.35828390456406123
62,-1.2124197632791578,5.305947481161072,-0.979052888556208,0.4970882287521494,-6.147098874600969,2.254053364312253,0.25804304488148266,-0.056678113316652456,0.5647890419032395,0.7956817533056627,-0.13601533200995009,0.33885418839894843
63,-1.225927795942814,5.318484842150632,-0.9864756842751301,0.5355304294960113,-6.147463398541065,2.1706310951373418,0.2584689317967834,-0.06352429235851721,0.5596749079451437,0.7562056312424728,-0.13486991451622088,0.31948531997781854
64,-1.2394358286064704,5.331022203140192,-0.9938984799940522,0.5739726302398731,-6.147827922481161,2.0872088259624313,0.2586967036853748,-0.07021528267587013,0.5545260540688302,0.7167145103931188,-0.13347347982287297,0.30018857819722045
65,-1.252943861270127,5.343559564129751,-1.0013212757129746,0.6124148309837354,-6.148192446421257,2.00378655678752,0.25873298362731295,-0.07674606062577172,0.5493500594972236,0.6772056963579615,-0.1318301318781924,0.2809750080117319
66,-1.2664518939337834,5.356096925119311,-1.0087440714318967,0.6508570317275972,-6.148556970361353,1.9203642876126086,0.25858460440327896,-0.08311209421830651,0.5441544898693577,0.637676663616528,-0.12994444939518165,0.26185539503924105
67,-1.27995992659744,5.368634286108871,-1.0161668671508188,0.6892992324714595,-6.148921494301448,1.8369420184376972,0.25825858310434685,-0.08930935079334061,0.5389468831248097,0.5981250736218583,-0.12782147155171847,0.2428402416111147
68,-1.2934679592610965,5.381171647098431,-1.0235896628697412,0.7277414332153214,-6.149286018241544,1.7535197492627859,0.2577620953605579,-0.09533430314415693,0.5337347354518359,0.5585487910484898,-0.12546668263201347,0.2239397443690607
69,-1.306975991924753,5.39370900808799,-1.0310124585886633,0.7661836339591832,-6.14965054218164,1.6700974800878745,0.25710244927504133,-0.10118393407120434,0.5285254873262211,0.518945898083628,-0.12288599570587526,0.2051637734891248
70,-1.3204840245884093,5.40624636907755,-1.0384352543075854,0.8046258347030455,-6.150015066121736,1.586675210912964,0.2562870591512522,-0.10685573935428504,0.5233265096676796,0.4793147066745368,-0.12008573544544458,0.18652185359146342
71,-1.3339920572520656,5.41878373006711,-1.0458580500265078,0.8430680354469073,-6.150379590061832,1.5032529417380527,0.2553234191014219,-0.11234772913662071,0.5181450901404219,0.4396537686688934,-0.11707262018076403,0.1680231463727602
72,-1.3475000899157221,5.43132109105667,-1.0532808457454297,0.8815102361907692,-6.150744114001928,1.4198306725631413,0.2542190766245584,-0.11765842771937951,0.5129884196242005,0.39996188380824677,-0.11385374329583056,0.14967643497684133
73,-1.3610081225793786,5.44385845204623,-1.060703641464352,0.9199524369346315,-6.151108637942024,1.33640840338823,0.2529816062422806,-0.12278687177037918,0.5078635788818389,0.3602381055574057,-0.11043655406569701,0.13149011009854264
74,-1.3745161552430352,5.4563958130357895,-1.0681264371832744,0.9583946376784933,-6.15147316188212,1.2529861342133186,0.25161858328042314,-0.1277326069558147,0.5027775254488461,0.3204817447743982,-0.10682883803283966,0.11347215779662413
75,-1.3880241879066915,5.4689331740253495,-1.0755492329021963,0.9968368384223552,-6.1518376858222155,1.1695638650384081,0.2501375578837133,-0.1324956830089532,0.49773708077029727,0.28069237124613744,-0.1030386970175202,0.09563014897373011
76,-1.4015322205703482,5.4814705350149096,-1.0829720286211186,1.0352790391662179,-6.1522022097623115,1.086141595863496,0.24854602934989517,-0.1370766472547827,0.49274891760968154,0.24086981313388398,-0.09907452885230116,0.07797123046539539
77,-1.4150402532340047,5.49400789600447,-1.090394824340041,1.0737212399100797,-6.1525667337024075,1.0027193266885854,0.2468514208684653,-0.1414765366145954,0.4878195477538796,0.2010141543900359,-0.09494500692547791,0.06050211766604298
78,-1.428548285897661,5.506545256994029,-1.0978176200589629,1.1121634406539416,-6.1529312576425035,0.9192970575136741,0.24506105474769235,-0.14569686811938098,0.4829553100378707,0.1611257302231876,-0.09065905961198174,0.04322908860797596
79,-1.4420563185613176,5.519082617983589,-1.1052404157778852,1.1506056413978034,-6.1532957815825995,0.8358747883387627,0.24318212821182378,-0.14973962796571924,0.4781623587121475,0.12120512070219182,-0.08622584966357962,0.026157979399660056
80,-1.455564351224974,5.531619978973149,-1.1126632114968074,1.1890478421416657,-6.1536603055226955,0.7524525191638523,0.24122168984834197,-0.15360725915254847,0.473446652175138,0.08125314260163055,-0.08165475362295563,0.009294180922095824
81,-1.4690723838886304,5.544157339962709,-1.1200860072157295,1.2274900428855275,-6.1540248294627915,0.6690302499889409,0.2391866167828321,-0.157302647741771,0.468813942092253,0.04127083960108311,-0.07695534131884695,-0.007357363323152364
82,-1.482580416552287,5.556694700952269,-1.1275088029346518,1.2659322436293894,-6.1543893534028875,0.5856079808140295,0.2370835926564635,-0.1608291077900633,0.4642697629224017,0.0012594709586496958,-0.07213735549172558,-0.023792158323715083
83,-1.4960884492159432,5.569232061941829,-1.134931598653574,1.3043744443732512,-6.154753877342983,0.5021857116391191,0.23491908647827836,-0.16419036500353806,0.4598194218720496,-0.03877950121447967,-0.06721069159199179,-0.040006157734353835
84,-1.5095964818795997,5.581769422931388,-1.142354394372496,1.3428166451171135,-6.155118401283079,0.4187634424642077,0.2326993324214433,-0.16739053917100002,0.4554679892960517,-0.07884442594678616,-0.06218537778515364,-0.055995763232361606
85,-1.5231045145432562,5.594306783920948,-1.1497771900914184,1.3812588458609754,-6.155482925223175,0.33534117328929636,0.2304303106293395,-0.17043412543545397,0.4512202895636368,-0.11893347853158526,-0.05707155519128723,-0.07175782315680876
86,-1.5366125472069125,5.606844144910508,-1.1571999858103403,1.4197010466048372,-6.155847449163271,0.2519189041143859,0.22811772909388686,-0.17332597446723025,0.4470808924070226,-0.15904467664769723,-0.05187945837928109,-0.08728963053336251
87,-1.550120579870569,5.619381505900067,-1.1646227815292627,1.458143247348699,-6.156211973103367,0.16849663493947453,0.22576700666479746,-0.1760712716056114,0.443054104769191,-0.19917589733780244,-0.046619396129979965,-0.10258892058030565
88,-1.5636286125342258,5.631918866889627,-1.172045577248185,1.4965854480925618,-6.156576497043463,0.08507436576456229,0.22338325724456876,-0.1786755150391227,0.4391439631664081,-0.2393248947067894,-0.04130173247658102,-0.11765386778390524
89,-1.577136645197882,5.644456227879187,-1.1794683729671072,1.5350276488364236,-6.156941020983559,0.001652096589650931,0.2209712752199649,-0.1811444930977008,0.43535422658006945,-0.27948931820338074,-0.03593686802544554,-0.13248308262271716
90,-1.5906446778615386,5.6569935888687475,-1.1868911686860293,1.573469849580286,-6.157305544923655,-0.08177017258526043,0.21853552217649055,-0.1834842607327758,0.43168836989141757,-0.31966673134984763,-0.03053522155595246,-0.14707560801090316
91,-1.6041527105251951,5.6695309498583075,-1.1943139644049516,1.6119120503241477,-6.15767006886375,-0.1651924417601709,0.21608011493799106,-0.18570111526385977,0.42814957787165614,-0.3598546307868502,-0.025107211894266086,-0.1614309155204204
92,-1.6176607431888514,5.682068310847868,-1.2017367601238735,1.6503542510680096,-6.158034592803846,-0.24861471093508225,0.21360881496897488,-0.18780157147253423,0.4247407397388779,-0.40005046550292706,-0.019663240052784327,-0.17554890143115637
93,-1.631168775852508,5.694605671837427,-1.2091595558427959,1.6887964518118714,-6.158399116743942,-0.3320369801099936,0.2111250191726191,-0.1897923361267733,0.4214644442921594,-0.44025165612107087,-0.014213671624776497,-0.18942988264702004
94,-1.6446768085161645,5.707143032826987,-1.216582351561718,1.7272386525557337,-6.158763640684038,-0.4154592492849041,0.20863175211266125,-0.19168028202029788,0.4183229756320389,-0.48045561411786675,-0.008768819422134607,-0.20307459250469967
95,-1.6581848411798208,5.719680393816547,-1.2240051472806401,1.7656808532995956,-6.159128164624134,-0.49888151845981543,0.2061316596825349,-0.19347242161314,0.4153183094754753,-0.5206597608539781,-0.0033389263434285767,-0.21648417649058221
96,-1.6716928738434773,5.732217754806106,-1.2314279429995625,1.8041230540434574,-6.15949268856423,-0.5823037876347259,0.2036270042401894,-0.19517588036080213,0.41245211007222554,-0.5608615462980455,0.0020658515406343707,-0.22966018787027598
97,-1.6852009065071336,5.744755115795666,-1.2388507387184846,1.8425652547873193,-6.159857212504326,-0.6657260568096381,0.2011196612220549,-0.19679786982030628,0.4097257277284267,-0.6010584673296105,0.00743546169653778,-0.2426045832244539
98,-1.6987089391707901,5.757292476785226,-1.2462735344374067,1.8810074555311815,-6.160221736444422,-0.7491483259845486,0.19861111724458808,-0.19834566062204986,0.4071401969419943,-0.641248085510172,0.012759971642915091,-0.25531971787454594
99,-1.7122169718344469,5.769829837774786,-1.253696330156329,1.9194496562750438,-6.160586260384517,-0.8325705951594609,0.1961024696967926,-0.19982655539672112,0.40469623515325964,-0.681428044215189,0.01802958528000087,-0.26780834117223395
100,-1.72566456587321,5.782311103189448,-1.261085914261296,1.9577198561207236,-6.160949153345015,-0.9156196103335894,0.1936056475148727,-0.20124162433767379,0.40240422543616766,-0.7214163920114218,0.02321152796055926,-0.2800192059428191
101,-1.7388552957561767,5.794553962410797,-1.2683343490069552,1.9952590521491254,-6.161305114642222,-0.9970822960043932,0.19115741171084355,-0.20257922829939284,0.4002927716850577,-0.7606273986069247,0.02822332126881319,-0.2917851057327649
102,-1.7517740518271234,5.806544391545106,-1.275433331489817,2.0320242441357053,-6.161653736531241,-1.0768653386716718,0.18876047008028998,-0.20384736883348462,0.39835594493586257,-0.7990151311901776,0.03305507436311088,-0.3031086789495903
103,-1.7644208340860494,5.81828239059238,-1.2823828617098818,2.068015432080461,-6.161995019012069,-1.154968738335434,0.186414422845955,-0.2050547369803379,0.3965851010963402,-0.8365789189292991,0.037703867730653075,-0.31400601172969417
104,-1.7767956425329565,5.829767959552615,-1.2891829396671495,2.1032326159833943,-6.1623289620847075,-1.231392494995669,0.18411863733797346,-0.20620912741601996,0.3949715892876927,-0.8733183883651163,0.04216781609948947,-0.3244927485848022
105,-1.7888984771678436,5.84100109842581,-1.2958335653616202,2.1376757958445065,-6.162655565749156,-1.3061366086523858,0.18187231005886115,-0.20731747854396007,0.3935068006032164,-0.9092334355396974,0.04644599222852191,-0.33458405367474886
106,-1.8007293379907097,5.851981807211969,-1.3023347387932938,2.1713449716637943,-6.162974830005414,-1.3792010793055773,0.17967452211735913,-0.20838591579360793,0.39218221189987257,-0.9443241976785802,0.05053835183465381,-0.3442945783223431
107,-1.8122882250015568,5.862710085911088,-1.30868645996217,2.20424014344126,-6.163286754853483,-1.4505859069552507,0.1775242882276409,-0.2094197972952657,0.39098942479391136,-0.9785910249451686,0.054445660015667204,-0.3536384343707945
108,-1.8235751382003842,5.873185934523171,-1.3148887288682491,2.2363613111769034,-6.163591340293362,-1.5202910916014005,0.17542059952303807,-0.21042376117696643,0.38992020005335987,-1.0120344527095697,0.05816941948112979,-0.36262917299939107
109,-1.8345900775871917,5.883409353048214,-1.3209415455115316,2.267708474870725,-6.16388858632505,-1.5883166332440322,0.1733624604758342,-0.21140177380537536,0.38896648759770397,-1.0446551747018482,0.06171180086061125,-0.3712797686258861
110,-1.845333043161978,5.893380341486219,-1.3268449098920168,2.298281634522721,-6.164178492948549,-1.6546625318831367,0.17134892024764428,-0.2123571783673799,0.3881204523287608,-1.0764540173510746,0.06507557531834611,-0.37960260753499486
111,-1.855804034924746,5.903098899837187,-1.3325988220097045,2.3280807901328977,-6.164461060163859,-1.7193287875187249,0.1693790988192643,-0.21329274326138914,0.38737449602691837,-1.1074319155483083,0.06826404966597063,-0.3876094808817904
112,-1.8660030528754936,5.912565028101117,-1.3382032818645957,2.357105941701249,-6.164736287970978,-1.7823154001507877,0.16745220826550894,-0.21421070983683554,0.3867212755538721,-1.1375898900130856,0.07128100412980257,-0.3953115817271417
113,-1.8759300970142203,5.921778726278008,-1.3436582894566893,2.38535708922778,-6.165004176369908,-1.8436223697793306,0.16556756955029012,-0.21511283908636838,0.3861537176070974,-1.16692902639044,0.07413063289628177,-0.40271950577018795
114,-1.8855851673409278,5.930739994367861,-1.348963844785986,2.412834232712485,-6.165264725360647,-1.9032496964043482,0.16372462522085443,-0.21600045695739306,0.38566503027280513,-1.1954504561581427,0.07681748752848576,-0.4098432554503912
115,-1.8949682638556156,5.939448832370676,-1.3541199478524857,2.4395373721553684,-6.165517934943197,-1.9611973800258475,0.16192294837849655,-0.2168744980076327,0.38524871162339047,-1.2231553393824508,0.07934642331800273,-0.41669224709948216
116,-1.9040793865582837,5.947905240286453,-1.3591265986561885,2.465466507556431,-6.165763805117558,-2.017465420643825,0.16016224829694087,-0.21773554718311072,0.3848985556026362,-1.2500448493246068,0.08172254860990323,-0.42327532083182806
117,-1.9129185354489306,5.956109218115192,-1.363983797197094,2.490621638915669,-6.166002335883727,-2.072053818258281,0.15844237304966918,-0.2185838795462463,0.3846086554374693,-1.2761201588697915,0.08395117711407463,-0.4296007528705411
118,-1.9214857105275587,5.9640607658568925,-1.3686915434752014,2.515002766233085,-6.166233527241708,-2.124962572869217,0.1567633094944314,-0.2194194978266138,0.38437340480915355,-1.3013824287246274,0.08603778319371827,-0.4356762700162907
119,-1.9297809117941667,5.971759883511556,-1.3732498374905129,2.5386098895086775,-6.166457379191497,-2.1761916844766276,0.15512518094761335,-0.2202421677073738,0.3841874970096198,-1.3258327973087243,0.08798796010142615,-0.4415090659762248
120,-1.937804139248754,5.97920657107918,-1.377658679243027,2.561443008742449,-6.166673891733098,-2.2257411530805182,0.15352824286363762,-0.22105145079654442,0.38404592230049717,-1.349472372249409,0.08980738111483288,-0.44710581928172866
121,-1.945555392891322,5.986400828559766,-1.3819180687327444,2.5835021239343963,-6.16688306486651,-2.2736109786808854,0.15197287681562685,-0.22184673526427057,0.3839439636834027,-1.372302223376513,0.09150176350755124,-0.4524727125359471
122,-1.9530346727218704,5.993342655953315,-1.3860280059596644,2.6047872350845216,-6.16708489859173,-2.3198011612777343,0.1504595830536537,-0.22262726415524609,0.38387719128047565,-1.3943233771055656,0.09307683527664132,-0.4576154527448374
123,-1.9602419787403984,6.000032053259825,-1.3899884909237878,2.6252983421928233,-6.167279392908761,-2.364311700871056,0.14898897189639,-0.22339216140967422,0.38384145551408055,-1.4155368120922522,0.0945383045354742,-0.46253929249914005
124,-1.9671773109469064,6.0064690204792965,-1.3937995236251128,2.645035445259304,-6.167466547817603,-2.4071425974608616,0.14756175419128334,-0.2241404556468005,0.3838328792642554,-1.4359434560384898,0.09589183147029708,-0.4672490517886777
125,-1.9738406693413948,6.01265355761173,-1.3974611040636415,2.6639985442839595,-6.167646363318253,-2.4482938510471417,0.14617873105775858,-0.22487110178239,0.38384784917196957,-1.4555441835301737,0.09714300275004581,-0.47174914024480846
126,-1.9802320539238636,6.0185856646571265,-1.4009732322393733,2.682187639266794,-6.167818839410716,-2.487765461629902,0.14484078310769202,-0.2255830005657797,0.383883006245704,-1.474339814788581,0.09829730827196373,-0.47604357962145943
127,-1.9863514646943115,6.024265341615483,-1.404335908152308,2.699602730207806,-6.167983976094987,-2.5255574292091403,0.143548859317711,-0.22627501613357748,0.3839352359183452,-1.492331115220796,0.09936012012025384,-0.4801360263398825
128,-1.9921989016527397,6.029692588486803,-1.4075491318024453,2.7162438171069923,-6.168141773371069,-2.5616697537848534,0.14230396570895637,-0.22694599168592733,0.3840016576910631,-1.5095187956593183,0.10033667361112254,-0.48402979393671297
129,-1.9977743647991488,6.034867405271085,-1.4106129031897858,2.7321108999643595,-6.1682922312389605,-2.5961024353570554,0.1411071539719134,-0.22759476339779092,0.3840796144907067,-1.5259035131868321,0.10123205029526773,-0.48772787526929295
130,-2.0030778541335374,6.039789791968327,-1.4135272223143291,2.7472039787799014,-6.168435349698663,-2.628855473925725,0.13995951015691327,-0.22822017268213987,0.38416666185742915,-1.5414858724484974,0.10205116278775382,-0.49123296434605074
131,-2.0081093696559056,6.044459748578534,-1.4162920891760755,2.761523053553624,-6.168571128750175,-2.6599288694908765,0.13886214353499327,-0.22882107692450684,0.38426055706977963,-1.556266427361321,0.10279874129542367,-0.4945474776631613
132,-2.0128689113662546,6.048877275101701,-1.4189075037750245,2.7750681242855197,-6.168699568393498,-2.6893226220525026,0.13781617571907218,-0.2293963588092737,0.38435924830541085,-1.5702456831371394,0.10347932171322928,-0.4976735749414789
133,-2.0173564792645835,6.0530423715378285,-1.4213734661111765,2.787839190975596,-6.16882066862863,-2.717036731610616,0.13682273012182167,-0.22994493435755606,0.3844608639268808,-1.583424098543308,0.10409723516313624,-0.5006131791698211
134,-2.0215720733508924,6.0569550378869215,-1.4236899761845312,2.7998362536238472,-6.168934429455573,-2.743071198165204,0.13588292181428058,-0.23046575979475706,0.3845637019738139,-1.5958020883323356,0.1046565988523452,-0.5033679958720884
135,-2.0255156936251812,6.060615274148973,-1.4258570339950891,2.8110593122302783,-6.169040850874325,-2.7674260217162665,0.134997847838118,-0.2309578373630058,0.38466621993493955,-1.607380025778897,0.1051613081315091,-0.5059395315261964
136,-2.0291873400874505,6.064023080323986,-1.4278746395428499,2.821508366794884,-6.169139932884888,-2.7901012022638074,0.13416857801447918,-0.2314202201899367,0.3847670248662132,-1.618158245269289,0.1056150296381547,-0.5083291110725648
137,-2.032587012737699,6.067178456411965,-1.4297427928278135,2.8311834173176686,-6.169231675487262,-2.8110967398078266,0.13339614628356983,-0.2318520163206813,0.3848648639144536,-1.6281370448949593,0.10602119541567562,-0.5105378944587826
138,-2.035714711575929,6.070081402412903,-1.4314614938499801,2.8400844637986298,-6.169316078681445,-2.830412634348333,0.13268154260143203,-0.23225239201477632,0.38495861529954434,-1.637316689007777,0.10638299790390142,-0.5125668921751138
139,-2.038570436602138,6.072731918326801,-1.4330307426093496,2.8482115062377673,-6.169393142467438,-2.8480488858853086,0.13202570541374603,-0.2326205744039555,0.3850472798023848,-1.645697410700057,0.10670338570328369,-0.5144169797427002
140,-2.0411541878163275,6.0751300041536656,-1.4344505391059221,2.855564544635085,-6.169462866845241,-2.8640054944187625,0.1314295147208823,-0.2329558536006268,0.3851299728003199,-1.6532794141778215,0.10698506002116344,-0.5160889111227551
141,-2.043465965218496,6.077275659893489,-1.4357208833396973,2.862143578990578,-6.169525251814855,-2.878282459948693,0.13089378574374952,-0.23325758434035146,0.3852059168867608,-1.6600628770000017,0.10723047171520887,-0.5175833310206256
142,-2.045505768808646,6.079168885546274,-1.4368417753106755,2.8679486093042454,-6.16958029737628,-2.890879782475114,0.1304192631961865,-0.23352518723488488,0.3852744351070749,-1.6660479521606817,0.10744181885608889,-0.5189007860635108
143,-2.047273598586776,6.080809681112022,-1.4378132150188567,2.872979635576095,-6.169628003529513,-2.901797461998001,0.1300066161666591,-0.2337581497053582,0.38533494483859954,-1.6712347699950456,0.10762104473844485,-0.5200417348348028
144,-2.0487694545528856,6.082198046590732,-1.4386352024642408,2.8772366578061206,-6.169668370274557,-2.9110354985173714,0.12965643360975904,-0.23395602665808293,0.3853869523387172,-1.6756234398932395,0.10776983627650508,-0.5210065567516039
145,-2.049993336706975,6.083333981982403,-1.439307737646828,2.8807196759943245,-6.169701397611412,-2.9185938920332184,0.1293692204463907,-0.23411844095823459,0.38543004798134606,-1.6792140518086482,0.107889622728016,-0.5217955597749238
146,-2.050945245049045,6.084217487287038,-1.4398308205666175,2.883428690140704,-6.169727085540076,-2.9244726425455454,0.1291453942705183,-0.23424508374938183,0.3854639021989134,-1.6820066775502776,0.10798157469750756,-0.5224089869445363
147,-2.051625179579095,6.084848562504632,-1.44020445122361,2.885363700245261,-6.169745434060551,-2.9286717500543453,0.12898528265981804,-0.23433571465947733,0.3854882621438191,-1.6840013718506344,0.10804660337745055,-0.5228470217324971
148,-2.0520331402971244,6.08522720763519,-1.440428629617806,2.886524706307993,-6.169756443172835,-2.9311912145596324,0.1288891210874732,-0.23439016192658274,0.38550294908054394,-1.6851981732026424,0.10808535999331505,-0.523109792210917
149,-2.0521691272031344,6.085353422678709,-1.4405033557492044,2.8869117083289044,-6.169760112876931,-2.9320310360613924,0.12885705143262224,-0.23440832247018276,0.38550785651692354,-1.6855971044606919,0.10809823542607976,-0.5231973740309485
