nimar13/UR3e_dataset_trayectorias/data/trayectorias_completas_UR3e_TRAPEZOIDAL/trayectoria_293.csv
Punto,shoulder_pan_joint,shoulder_lift_joint,elbow_joint,wrist_1_joint,wrist_2_joint,wrist_3_joint,Posicion_X,Posicion_Y,Posicion_Z,Roll,Pitch,Yaw
0,5.988976434175038,4.648051798462071,2.118422871112698,-1.036289821039511,-4.0549208212300405,5.913246414651578,0.2894745111101092,-0.009617251453678874,0.27132623418775775,-0.013682272973245585,-0.43405811293166563,-1.0267156068593772
1,5.988413224364248,4.647868251395738,2.1183638025994744,-1.0364827498891458,-4.054554072255862,5.913175960698646,0.2894392317677534,-0.009799083788210686,0.27140490062114625,-0.01327225254819251,-0.43425342834810277,-1.0277918790217404
2,5.986723594931876,4.647317610196739,2.118186597059804,-1.03706153643805,-4.053453825333329,5.91296459883985,0.28933255825398874,-0.01034426511975404,0.2716408019918995,-0.012040603922072398,-0.43483748503633823,-1.0310213687460117
3,5.983907545877923,4.6463998748650726,2.117891254493687,-1.0380261806862234,-4.051620080462439,5.912612329075191,0.2891519885382117,-0.011251841681464305,0.2720336436310034,-0.009982579486026101,-0.43580460359957407,-1.0364060829860333
4,5.979965077202389,4.645115045400741,2.117477774901123,-1.0393766826336666,-4.049052837643194,5.912119151404669,0.2888933674161825,-0.0125202014386369,0.272582931500308,-0.007090315158273426,-0.43714528284746734,-1.0439493236172852
5,5.974896188905274,4.643463121803741,2.1169461582821123,-1.041113042280379,-4.045752096875592,5.911485065828282,0.2885509090646716,-0.014147040731575494,0.2732879678526902,-0.003352904867802671,-0.4388461471525992,-1.053655621040393
6,5.968700880986577,4.641444104074076,2.1162964046366546,-1.0432352596263608,-4.041717858159635,5.910710072346032,0.2881172291803997,-0.01612931813594837,0.2741478452463298,0.0012434920050718495,-0.4408898740853168,-1.065530637582818
7,5.9613791534463,4.639057992211745,2.11552851396475,-1.0457433346716123,-4.036950121495322,5.909794170957919,0.28758338725026433,-0.018463196111767194,0.2751614390038997,0.00671550708442078,-0.4432551037462767,-1.0795810370766559
8,5.952931006284441,4.636304786216747,2.114642486266399,-1.048637267416133,-4.031448886882654,5.908737361663942,0.2869389396338579,-0.021143971190229774,0.2763273982344746,0.013082379341124453,-0.4459163317409449,-1.095814315998214
9,5.9433564395010015,4.633184486089083,2.113638321541601,-1.051917057859923,-4.025214154321629,5.907539644464101,0.2861720042561542,-0.024165993636100867,0.2776441355636761,0.020365726499910322,-0.44884378835432853,-1.1142385906172916
10,5.93265545309598,4.629697091828752,2.112516019790356,-1.0555827060029828,-4.018245923812248,5.906201019358396,0.2852693378037904,-0.027522577723377677,0.2791098157461291,0.028589265963911016,-0.4520033072056831,-1.1348623337586141
11,5.920828047069378,4.625842603435755,2.111275581012664,-1.059634211845312,-4.0105441953545125,5.904721486346828,0.2842164263881655,-0.0312059039743945,0.28072234336370483,0.03777847912648615,-0.45535618750794327,-1.1576940540791956
12,5.907874221421195,4.621621020910092,2.1099170052085254,-1.0640715753869103,-4.00210896894842,5.903101045429396,0.2829975906780195,-0.03520691493728484,0.28247934984332207,0.047960212573160056,-0.45885905503728047,-1.1827419102878913
13,5.89379397615143,4.617032344251761,2.10844029237794,-1.0688947966277782,-3.992940244593972,5.9013396966061,0.2815961065085321,-0.039515206312941656,0.28437818005917476,0.05916220962348925,-0.462463728039915,-1.2100132525741374
14,5.878587311260085,4.612076573460765,2.1068454425209078,-1.0741038755679155,-3.9830380222911685,5.899437439876941,0.2799943419384165,-0.04411891548851021,0.28641587881605396,0.07141256604604608,-0.46611709556210645,-1.2395140837937615
15,5.862254226747158,4.606753708537102,2.1051324556374285,-1.0796988122073223,-3.9724023020400088,5.897394275241918,0.27817391164622673,-0.04900460978708446,0.288589177542698,0.08473910474646357,-0.46976101706651713,-1.271248433826341
16,5.84479472261265,4.601063749480773,2.1033013317275024,-1.0856796065459986,-3.9610330838404932,5.8952102027010325,0.27611584942744555,-0.05415717699855992,0.2908944815566067,0.09916866594586284,-0.47333225365710485,-1.3052176421367998
17,5.826208798856561,4.595006696291778,2.1013520707911297,-1.0920462585839443,-3.948930367692622,5.892885222254282,0.2738007993705471,-0.05955972100914708,0.2933278582940528,0.11472631201320414,-0.47676244271341545,-1.3414195461197809
18,5.80649645547889,4.588582548970116,2.0992846728283103,-1.0987987683211593,-3.936094153596395,5.890419333901669,0.2712092260493389,-0.06519346559010264,0.29588502693068125,0.13143444986238148,-0.47997812914249827,-1.3798475764487124
19,5.785657692479639,4.581791307515788,2.097099137839044,-1.105937135757644,-3.9225244415518117,5.887812537643191,0.26832164376740153,-0.07103766963164565,0.2985613498484972,0.1493118788139027,-0.4829008676669393,-1.4204897655302529
20,5.7636925098588065,4.574632971928794,2.0947954658233305,-1.1134613608933979,-3.9082212315588727,5.88506483347885,0.2651188645264417,-0.07706955730624515,0.3013518264334971,0.16837277812481052,-0.48544741141904296,-1.463327681348724
21,5.740600907616392,4.567107542209133,2.09237365678117,-1.1213714437284212,-3.8931845236175784,5.8821762214086455,0.2615822639632371,-0.0832642668055527,0.30425108971388637,0.18862565596902686,-0.48753000240823213,-1.50833530643052
22,5.716382885752397,4.559215018356805,2.089833710712563,-1.129667384262714,-3.877414317727928,5.879146701432577,0.25769406401079453,-0.08959482140507656,0.30725340637075366,0.21007229029799815,-0.4890567789501323,-1.5554778901558026
23,5.691038444266821,4.550955400371811,2.0871756276175093,-1.1383491824962764,-3.860910613889921,5.875976273550645,0.2534376304916137,-0.09603212665703917,0.31035268067022376,0.23270670130554277,-0.48993231366222223,-1.6047108117668254
24,5.6645675831596645,4.542328688254151,2.084399407496009,-1.1474168384291081,-3.843673412103559,5.87266493776285,0.24879778325041232,-0.10254499748073988,0.3135424628772033,0.2565142044800414,-0.4900582929315818,-1.6559785004832723
25,5.6369703024309255,4.533334882003825,2.081505050348061,-1.1568703520612091,-3.825702712368841,5.869212694069191,0.2437611157890043,-0.10910021879681547,0.31681596271457985,0.2814706014988837,-0.48933434469081877,-1.7092134671775454
26,5.608246602080606,4.5239739816208315,2.078492556173667,-1.1667097233925798,-3.8069985146857674,5.865619542469668,0.2383163206891634,-0.11566264312277724,0.3201660684266724,0.30754157231207946,-0.4876590158458108,-1.7643355078896925
27,5.5783964821087055,4.5142459871051726,2.0753619249728255,-1.1769349524232198,-3.7875608190543377,5.861885482964281,0.2324545164157983,-0.12219532819858417,0.323585371990296,0.33468233433577044,-0.4849308938801802,-1.821251141729612
28,5.547419942515224,4.504150898456847,2.0721131567455378,-1.1875460391531292,-3.767389625474552,5.8580105155530315,0.2261695704018166,-0.12865971723070538,0.3270662009893556,0.36283763241443434,-0.48104985930461996,-1.8798533431009918
29,5.515316983300161,4.493688715675855,2.068746251491803,-1.198542983582308,-3.7464849339464106,5.853994640235918,0.21945841265081076,-0.13501586372137153,0.33060065762770596,0.39194211504666426,-0.47591844722706844,-1.9400216196175206
30,5.4820876044635165,4.482859438762197,2.065261209211621,-1.2099257857107564,-3.7248467444699136,5.849837857012941,0.21232133348106513,-0.1412227020800505,0.33418066529837065,0.4219211377598263,-0.46944328810235675,-2.001622472021037
31,5.447731806005291,4.4716630677158715,2.0616580299049927,-1.2216944455384742,-3.7024750570450604,5.845540165884099,0.20476225850483804,-0.147238364294476,0.3377980230533319,0.45269201369888057,-0.4615365905452119,-2.064510251088721
32,5.412249587925484,4.46009960253688,2.0579367135719173,-1.2338489630654614,-3.6793698716718515,5.841101566849394,0.19678899352392246,-0.15302054187217168,0.3414444682252989,0.4841657056537572,-0.4521176238909191,-2.128528400125098
33,5.3756409502240965,4.4481690432252226,2.054097260212395,-1.246389338291718,-3.655531188350287,5.836522059908826,0.18841343176195227,-0.15852689106031703,0.3451117473394944,0.5162489250528493,-0.44111415582937163,-2.19351104234834
34,5.337905892901128,4.435871389780899,2.050139669826426,-1.2593155712172441,-3.6309590070803663,5.831801645062394,0.1796517157828003,-0.16371547802971861,0.3487916953181481,0.5488465748554507,-0.4284638015720647,-2.2592848432739143
35,5.299044415956578,4.423206642203908,2.04606394241401,-1.2726276618420393,-3.6056533278620897,5.826940322310099,0.17052434659946017,-0.16854525929403275,0.35247632282178,0.5818644481436919,-0.41411524593862054,-2.325671052461163
36,5.259056519390446,4.410174800494251,2.041870077975147,-1.2863256101661045,-3.5796141506954577,5.82193809165194,0.1610562328937435,-0.17297659116426176,0.35615791138858915,0.6152120757622449,-0.39802930833074307,-2.3924876099835135
37,5.2179422032027345,4.396775864651928,2.037558076509838,-1.3004094161894386,-3.5528414755804696,5.816794953087917,0.15127667397446018,-0.17697176055704242,0.3598291158258158,0.6488056070692853,-0.3801798322013687,-2.45955119326931
38,5.1757014673934405,4.383009834676939,2.0331279380180813,-1.3148790799120427,-3.5253353025171252,5.811510906618031,0.14121927112427915,-0.18049552803968463,0.3634830730747303,0.6825706090084314,-0.360554394341419,-2.5266790809084188
39,5.132334311962566,4.368876710569283,2.028579662499878,-1.3297346013339157,-3.4970956315054256,5.80608595224228,0.1309217633374324,-0.1835156726714592,0.36711351651449625,0.716444680057552,-0.33915484386698147,-2.5936907215569858
40,5.087840736910111,4.35437649232896,2.023913249955228,-1.3449759804550583,-3.46812246254537,5.800520089960666,0.12042578513353551,-0.18600352706421605,0.3707148943908165,0.7503797954501223,-0.3159976949107016,-2.660408916723495
41,5.042220742236074,4.3395091799559715,2.019128700384131,-1.3606032172754705,-3.438415795636959,5.794813319773189,0.10977654613303618,-0.1879344902178389,0.37428249075499553,0.7843443255190491,-0.2911144095523566,-2.7266605534364645
42,4.995474327940455,4.324274773450316,2.0142260137865873,-1.376616311795152,-3.4079756307801916,5.788965641679848,0.0990224343644327,-0.18928850517345933,0.377812546980917,0.8183246965283042,-0.264551617602083,-2.792276853497519
43,4.947601494023257,4.308673272811995,2.009205190162597,-1.393015264014103,-3.3768019679750685,5.782977055680643,0.088214547788142,-0.19005048845629136,0.38130238159535723,0.8523266892662633,-0.2363713269813321,-2.8570931372115447
44,4.898602240484475,4.292704678041007,2.0040662295121594,-1.4098000739323233,-3.344894807221589,5.776847561775575,0.07740616118860374,-0.19021069873288798,0.3847505058163121,0.8863763916787947,-0.20665118250399286,-2.9209481287888974
45,4.848476567324114,4.276368989137352,1.998809131835275,-1.4269707415498132,-3.3122541485197545,5.770577159964643,0.06665213830158542,-0.18976503315700025,0.38815673185089605,0.9205208352979969,-0.17548483200324497,-2.9836828566879796
46,4.797224474542171,4.2596662061010315,1.993433897131944,-1.4445272668665723,-3.278879991869564,5.7641658502478474,0.05600830167871088,-0.18871524157993427,0.3915222706667025,0.9548283493155516,-0.14298245728770242,-3.0451392248793807
47,4.744845962138648,4.242596328932045,1.987940525402166,-1.462469649882601,-3.2447723372710175,5.757613632625188,0.045530775192819596,-0.18706905118707595,0.3948498156273138,0.9893886596469309,-0.1092715236291901,-3.1051583514461774
48,4.691341030113542,4.225159357630392,1.9823290166459413,-1.4807978905978991,-3.209931184724115,5.750920507096665,0.03527531608127656,-0.18484019719169045,0.3981436080844463,1.0243127424225649,-0.07449779545975757,3.1196065159441027
49,4.636709678466856,4.2073552921960715,1.9765993708632696,-1.4995119890124666,-3.174356534228857,5.7440864736622785,0.025296654819376714,-0.18204835892948468,0.4014094807579167,1.0597324113230353,-0.03882665736530844,3.0629505247669493
50,4.581014486066454,4.189204526747567,1.9707581512222871,-1.5185905085874554,-3.1380891356712626,5.737119360539021,0.01565838062528825,-0.17872299160637073,0.4046512766597116,1.0957590793451828,-0.0024855112573925467,3.008290281736496
51,4.525068978194589,4.170972184825136,1.9648906789087608,-1.5377547743178372,-3.10165873756959,5.730120934547793,0.006537785263469993,-0.17495416238934638,0.40783248960929985,1.1320340031070781,0.03379200635885016,2.956523346344303
52,4.469123470322726,4.152739842902705,1.9590232065952347,-1.5569190400482191,-3.0652283394679163,5.723122508556566,-0.002008005618506569,-0.17081364028946072,0.4109524028103378,1.1685638839547001,0.069637812165861,2.907895885567429
53,4.413177962450861,4.134507500980275,1.9531557342817085,-1.576083305778601,-3.028797941366243,5.716124082565338,-0.009971115105021633,-0.1663575841963096,0.414024842531689,1.2055111619901624,0.10484603776840849,2.862404847797119
54,4.357232454578997,4.116275159057844,1.9472882619681822,-1.5952475715089829,-2.99236754326457,5.709125656574111,-0.01734787968858889,-0.16164016585979515,0.41706328782898555,1.2430292959961147,0.13920859438778282,2.8200487254307047
55,4.301286946707133,4.098042817135414,1.941420789654656,-1.6144118372393648,-2.955937145162897,5.702127230582883,-0.02413836630977324,-0.15671338068220259,0.4200807423368029,1.2812596398072866,0.1725145255957659,2.780824819166816
56,4.245341438835268,4.079810475212983,1.9355533173411297,-1.6335761029697469,-2.9195067470612233,5.695128804591656,-0.030345903048934485,-0.15162693906895455,0.4230896095700605,1.3203278359120125,0.20454970196597505,2.7447257286970705
57,4.189395930963404,4.061578133290553,1.9296858450276035,-1.6527403687001285,-2.88307634895955,5.6881303786004285,-0.03597663531565705,-0.1464282325234225,0.42610157259070003,1.3603396754435066,0.2350969530967505,2.7117351039058137
58,4.13345042309154,4.043345791368122,1.9238183727140772,-1.6719046344305104,-2.846645950857877,5.681131952609201,-0.041039118190499456,-0.14116236703377577,0.42912747886727465,1.4013764411910297,0.26393673545799184,2.6818227397524126
59,4.077504915219675,4.025113449445691,1.9179509004005508,-1.6910689001608923,-2.8102155527562034,5.6741335266179735,-0.04554395416452616,-0.13587225486574236,0.43217723112124296,1.4434898399440161,0.29084843048161624,2.654939172526834
60,4.021559407347812,4.00688110752326,1.9120834280870247,-1.7102331658912742,-2.7737851546545302,5.667135100626746,-0.049503483926966116,-0.13059875467253831,0.4352596849148351,1.4866967417251131,0.3156123518531508,2.6310100341911387
61,3.965613899475948,3.98864876560083,1.9062159557734986,-1.729397431621656,-2.737354756552857,5.660136674635519,-0.05293153610581977,-0.12538084888553577,0.438382553691489,1.530974069650854,0.33801250967194607,2.609930538038514
62,3.909668391604083,3.970416423678399,1.9003484834599722,-1.7485616973520381,-2.7009243584511835,5.653138248644291,-0.05584324000875589,-0.12025584667464605,0.44155232193138927,1.5762543103417954,0.3578401287235223,2.5915605875710654
63,3.853722883732219,3.9521840817559686,1.8944810111464458,-1.76772596308242,-2.6644939603495104,5.646139822653064,-0.058254903482770654,-0.11525960037844954,0.44477416703187006,1.622422216692754,0.3748978478914695,2.5757210966405797
64,3.797777375860355,3.933951739833538,1.8886135388329197,-1.786890228812802,-2.628063562247837,5.639141396661836,-0.060183956052663606,-0.11042672320751662,0.4480518904656877,1.6693133205897899,0.3890044414621022,2.5621921503560157
65,3.7418318679884903,3.9157193979111073,1.8827460665193936,-1.8060544945431838,-2.591633164146164,5.632142970670609,-0.06164895555279896,-0.10579079622093206,0.4513878587098199,1.716714829542475,0.39999981020026987,2.550713589468765
66,3.6858863601166263,3.8974870559886767,1.8768785942058672,-1.8252187602735657,-2.5552027660444905,5.625144544679381,-0.06266965457587145,-0.10138455306049683,0.4547829543738674,1.7643693238737805,0.4077499058377466,2.5409884413505224
67,3.629940852244762,3.8792547140662457,1.8710111218923409,-1.8443830260039475,-2.5187723679428173,5.618146118688154,-0.06326712126732786,-0.09724003168840244,0.45823653789074226,1.811981397323175,0.4121511960062088,2.532689345335243
68,3.5739953443728973,3.8610223721438155,1.8651436495788147,-1.8635472917343294,-2.4823419698411437,5.611147692696926,-0.06346390733359318,-0.09338868339563769,0.4617464200635453,1.8592270223710714,0.4131342660498321,2.5254677576544418
69,3.5180498365010333,3.8427900302213844,1.8592761772652884,-1.8827115574647113,-2.4459115717394706,5.604149266705699,-0.06328425464244553,-0.0898614306079404,0.46530884569179876,1.9057650335187994,0.4106662015022202,2.5189653325699375
70,3.4621043286291693,3.8245576882989543,1.8534087049517622,-1.9018758231950932,-2.4094811736377975,5.597150840714471,-0.06275433050747733,-0.08668866648687135,0.4689184884279577,1.9512497891140266,0.4047515004523134,2.5128265434655903
71,3.406158820757305,3.806325346376523,1.8475412326382359,-1.921040088925475,-2.3730507755361243,5.590152414723244,-0.06190248069414805,-0.08390019097426057,0.472568456941871,1.995343874549209,0.3954314145533081,2.506711409982759
72,3.3502133128854403,3.788093004454093,1.8416737603247098,-1.940204354655857,-2.336620377434451,5.5831539887320165,-0.06075948838644128,-0.08152507972386419,0.4762503123969961,2.0377296972210464,0.38278178522637185,2.500307185161979
73,3.2942678050135763,3.769860662531662,1.8358062880111834,-1.959368620386239,-2.3001899793327776,5.576155562740789,-0.05935882682931744,-0.07959148426644155,0.47995409716825993,2.078118999744441,0.36690959676576324,2.4933380331688326
74,3.2383222971417123,3.7516283206092313,1.8299388156976573,-1.978532886116621,-2.2637595812311044,5.569157136749562,-0.05773689312633463,-0.07812636372326018,0.48366837465787904,2.116259637383614,0.34794858328531536,2.485572048323262
75,3.1823767892698482,3.7333959786868007,1.824071343384131,-1.9976971518470026,-2.2273291831294313,5.562158710758335,-0.05593321073136736,-0.0771551503762253,0.487380279992751,2.1519393513336404,0.32605428538759,2.476825352630588
76,3.1264312813979833,3.7151636367643697,1.8182038710706045,-2.0168614175773847,-2.1908987850277577,5.555160284767107,-0.053990588529861244,-0.07670135337780973,0.491075581315628,2.184986638326845,0.30139895276857215,2.4669633787739067
77,3.0704857735261193,3.6969312948419395,1.8123363987570784,-2.0360256833077663,-2.154468386926084,5.548161858775879,-0.05195522505392322,-0.07678610679810657,0.4947387513126431,2.2152691043612927,0.27416664080001973,2.455899733853446
78,3.0145402656542544,3.6786989529195084,1.8064689264435523,-2.0551899490381484,-2.118037988824411,5.541163432784653,-0.0498767473063171,-0.07742767001806744,0.49835304855237794,2.2426898632793977,0.2445487700198513,2.4435932131367815
79,2.9585947577823903,3.6604666109970783,1.800601454130026,-2.0743542147685305,-2.081607590722738,5.534165006793425,-0.047808174864859346,-0.07864089014744635,0.5019006081468558,2.267182598809578,0.21274032654180486,2.430043592004386
80,2.9026492499105263,3.642234269074647,1.7947339818164998,-2.093518480498912,-2.0451771926210647,5.527166580802198,-0.045805801379008804,-0.08043663763588817,0.5053625411831905,2.2887058739812,0.17893679470954643,2.4152867905110846
81,2.8467037420386623,3.624001927152217,1.7888665095029734,-2.112682746229294,-2.0087467945193915,5.52016815481097,-0.04392898722784322,-0.08282122752194526,0.508719042316344,2.3072371775430818,0.1433318414008761,2.399389911417538
82,2.7907582341667982,3.605769585229786,1.7829990371894473,-2.131847011959676,-1.972316396417718,5.513169728819743,-0.042239858951626574,-0.08579583979760184,0.5119495048590796,2.322767075852859,0.10611571900623258,2.3824465316771213
83,2.734812726294934,3.587537243307356,1.777131564875921,-2.151011277690058,-1.9358859983160448,5.506171302828515,-0.04080291306241674,-0.08935595312967215,0.5150326426549499,2.3352937164074197,0.06747432143235056,2.364572504652908
84,2.6788672184230693,3.5693049013849247,1.7712640925623948,-2.1701755434204397,-1.8994556002143717,5.499172876837288,-0.039684523943803104,-0.09349080665390616,0.5179466179744723,2.344817822269751,0.027588811785137245,2.3459024218771316
85,2.6229217105512053,3.5510725594624946,1.7653966202488685,-2.1893398091508214,-1.8630252021126985,5.49217445084606,-0.03895235772455143,-0.09818290472799059,0.5206691746337258,2.351338233171286,-0.013364262373455307,2.326586796386554
86,2.5669762026793412,3.5328402175400635,1.7595291479353423,-2.208504074881203,-1.8265948040110254,5.485176024854833,-0.03867469621238048,-0.10340757938694212,0.5231777754987647,2.354847990894789,-0.0552124443079711,2.306789965538526
87,2.511030694807477,3.5146078756176333,1.753661675621816,-2.227668340611585,-1.7901644059093522,5.4781775988636054,-0.03891967715809972,-0.10913262478579508,0.5254497435087224,2.3553309318819844,-0.09778650097027117,2.286688666666686
88,2.4550851869356123,3.4963755336952023,1.7477942033082896,-2.2468326063419672,-1.7537340078076782,5.471179172872378,-0.03975445924243648,-0.11531801714329501,0.5274624053254096,2.3527587355586883,-0.14091926721588396,2.2664712088682313
89,2.3991396790637474,3.4781431917727716,1.7419267309947635,-2.2659968720723493,-1.717303609706005,5.4641807468811505,-0.0412443221943829,-0.12191573262599682,0.5291932366978584,2.347088379311507,-0.1844442418476667,2.246337142816778
90,2.3431941711918833,3.459910849850341,1.7360592586812373,-2.2851611378027314,-1.680873211604332,5.457182320889923,-0.04345171431854135,-0.12886967425020346,0.5306200086166684,2.3382599679599627,-0.22819396417628848,2.2264973119552427
91,2.2872486633200193,3.4416785079279104,1.730191786367711,-2.304325403533113,-1.6444428135026583,5.450183894898696,-0.04643526138991846,-0.1361157172508442,0.5317209333252875,2.3261949358605643,-0.27199819076414394,2.207174147181809
92,2.2313031554481553,3.42344616600548,1.7243243140541846,-2.3234896692634948,-1.6080124154009852,5.443185468907468,-0.0502487523311331,-0.14358188049834852,0.5324748092536137,2.310794663832163,-0.3156818869281867,2.1886020378857194
93,2.1753576475762912,3.405213824083049,1.7184568417406585,-2.3426539349938764,-1.571582017299312,5.436187042916241,-0.054940118286199366,-0.15118862946844447,0.5328611639434588,2.291939612608799,-0.3590630477916201,2.171027569804736
94,2.119412139704427,3.3869814821606186,1.7125893694271324,-2.3618182007242585,-1.5351516191976389,5.429188616925013,-0.06055042261850399,-0.15884931402163938,0.5328603940455283,2.269489152100666,-0.40195037102037073,2.1547093598821485
95,2.0634666318325623,3.368749140238188,1.706721897113606,-2.3809824664546406,-1.4987212210959657,5.422190190933786,-0.06711287996502716,-0.16647074186867739,0.5324539014835482,2.2432823639363657,-0.4441408203469443,2.1399171362573597
96,2.0075211239606983,3.3505167983157573,1.7008544248000796,-2.4001467321850223,-1.4622908229942926,5.415191764942558,-0.07465192275649454,-0.17395388612835405,0.5316242249029148,2.213140214339287,-0.48541714883937515,2.1269296063116636
97,1.9515756160888342,3.3322844563933267,1.6949869524865535,-2.419310997915404,-1.425860424892619,5.408193338951331,-0.08318233355220507,-0.18119472286973032,0.5303551655486213,2.1788696312115987,-0.5255454975522503,2.1160305312183634
98,1.8956301082169702,3.314052114470896,1.6891194801730274,-2.438475263645786,-1.3894300267909458,5.401194912960103,-0.09270846113314693,-0.1880851920185657,0.5286319067500831,2.1402701591910387,-0.5642732527327227,2.107502295898095
99,1.8396846003451053,3.295819772548465,1.683252007859501,-2.457639529376168,-1.3529996286892723,5.394196486968876,-0.10322353754852281,-0.19451427254471754,0.5264411262285854,2.097143977725512,-0.6013274358587746,2.101616160492911
100,1.7839894079447038,3.27766900709996,1.6774107882185185,-2.476718048951157,-1.3167322301316764,5.387229373845619,-0.11465560190741056,-0.200344410890682,0.5237841297576372,2.049534831329933,-0.6362618678233068,2.0986250211877544
101,1.7293580562980155,3.2598649416656404,1.6716811424358466,-2.495432147365725,-1.2811575796364187,5.380395340411232,-0.12677472893923758,-0.20540238740170502,0.5207068755576038,1.9981635815022059,-0.6683352335345298,2.098665389396713
102,1.675853124272912,3.2424279703639867,1.6660696336796221,-2.5137603880810224,-1.2463164270895173,5.373702214882709,-0.13947465415175958,-0.20962021044154905,0.5172334454600758,1.943288381859926,-0.697342325169752,2.101683992844102
103,1.6234746118693897,3.225358093195,1.660576261949844,-2.531702771097051,-1.2122087724909698,5.367149997260049,-0.15265705893559867,-0.21295027468467737,0.513387055046181,1.885191445511814,-0.7231424743166361,2.1075339163574127
104,1.572222519087445,3.208655310158679,1.655201027246513,-2.5492592964138105,-1.1788346158407803,5.360738687543254,-0.16622116606179482,-0.2153584768533459,0.5091924535447848,1.8242365358813941,-0.7456255099942254,2.1159746909362296
105,1.5220968459270843,3.192319621255025,1.6499439295696288,-2.5664299640313,-1.1461939571389443,5.354468285732322,-0.1800655461844719,-0.21682395822213651,0.5046756166578726,1.7608693839585743,-0.7647182436475922,2.126673406381177
106,1.4730975923883056,3.1763510264840367,1.6448049689191915,-2.5832147739495204,-1.114286796385466,5.3483387918272545,-0.19408979307183,-0.2173386131298187,0.49986345207197974,1.6956103863700924,-0.7803903166055646,2.1392133645499967
107,1.4252247584711046,3.160749525845716,1.639784145295201,-2.5996137261684713,-1.0831131335803441,5.342350205828049,-0.2081960412499433,-0.21690639754543567,0.4947835205276758,1.6290390942410333,-0.7926585716524569,2.153110782296085
108,1.3784783441754875,3.14551511934006,1.6348814586976572,-2.615626820688153,-1.0526729687235754,5.336502527734709,-0.22229030702275734,-0.21554247332928575,0.4894637747086042,1.5617713884674043,-0.8015891824496167,2.167838666008827
109,1.3328583495014472,3.1306478069670716,1.6300969091265602,-2.6312540575085652,-1.0229663018151642,5.3307957575472305,-0.23628364074513608,-0.2132722240912003,0.48393231764366884,1.4944316850961756,-0.807297017692948,2.1828555298926404
110,1.2883647744489943,3.1161475887267494,1.62543049658191,-2.6464954366297078,-0.9939931328551079,5.325229895265617,-0.25009308458403584,-0.21013017767029005,0.47821718179549055,1.427623590392409,-0.8099420970470206,2.197635552489457
111,1.2449976190181191,3.1020144646190935,1.6208822210637068,-2.6613509580515813,-0.9657534618434083,5.319804940889867,-0.2636424356700128,-0.2061588684457923,0.4723461295385103,1.3619027655981117,-0.809723427496016,2.211696423836454
112,1.2027568832088233,3.088248434644103,1.6164520825719504,-2.6758206217741844,-0.9382472887800652,5.31452089441998,-0.2768628194306257,-0.20140767014320116,0.4663464753124971,1.2977552453957426,-0.8068708829235066,2.2246216500756746
113,1.1616425670211123,3.0748494988017807,1.612140081106641,-2.689904427797519,-0.9114746136650762,5.309377755855958,-0.28969308196651866,-0.19593162672067707,0.4602449293720944,1.2355832632848371,-0.8016360158777006,2.236075271718995
114,1.1216546704549835,3.0618176570921234,1.6079462166677785,-2.703602376121584,-0.8854354364984447,5.304375525197798,-0.3020800135747076,-0.1897903054914638,0.454067462739408,1.1756991657791431,-0.7942827293774184,2.245808421816975
115,1.0827931935104314,3.0491529095151337,1.6038704892553621,-2.71691446674638,-0.8601297572801672,5.299514202445503,-0.3139784179675673,-0.1830466930228922,0.44783919270269634,1.1183266709806616,-0.7850786084335724,2.253658475535953
116,1.0450581361874631,3.036855256070809,1.5999128988693931,-2.7298406996719056,-0.8355575760102472,5.294793787599071,-0.3253510434296906,-0.1757661506942595,0.44158428798743476,1.0636078376915221,-0.7742874775881682,2.2595424311020857
117,1.0084494984860761,3.0249246967591517,1.596073445509871,-2.7423810748981623,-0.8117188926886829,5.290214280658502,-0.3361683931652017,-0.16801544321368875,0.4353258925532509,1.0116137482443186,-0.7621634859515344,2.2634465242540367
118,0.9729672804062677,3.01336123158016,1.592352129176796,-2.7545355924251496,-0.7886137073154735,5.285775681623798,-0.3464084324940005,-0.15986184998405217,0.4290860668379975,0.9623569905820291,-0.7489467848264655,2.265413995329365
119,0.938611481948044,3.002164860533836,1.5887489498701672,-2.766304252252867,-0.7662420198906208,5.281477990494957,-0.3560562104421538,-0.15137236604331078,0.4228857451747899,0.9158043859505698,-0.7348606886788623,2.265532566729479
120,0.905382103111398,2.991335583620177,1.5852639075899853,-2.7776870543813152,-0.7446038304141229,5.27732120727198,-0.36510341272665275,-0.1426129964376243,0.41674470804531205,0.8718888772368968,-0.7201101060898838,2.2639227193944285
121,0.873279143896335,2.9808734008391844,1.5818970023362504,-2.7886839988104946,-0.7236991388859817,5.273305331954866,-0.3735478622441086,-0.13364814534960728,0.4106815677992096,0.8305199435104202,-0.7048809842277184,2.2607274060416347
122,0.842302604302855,2.970778312190859,1.5786482341089627,-2.799295085540404,-0.7035279453061971,5.269430364543615,-0.3813929820186381,-0.12454009911588305,0.40471376646107093,0.7915922700836048,-0.6893405113235971,2.2561034748904993
123,0.8124524843309509,2.961050317675199,1.5755176029081213,-2.8095203145710435,-0.6840902496747665,5.2656963050382295,-0.38864723422169173,-0.11534860043061629,0.39885758425968854,0.7549926591999951,-0.6736378490317153,2.2502148215948017
124,0.7837287839806333,2.951689417292207,1.572505108733727,-2.8193596859024144,-0.6653860519916934,5.262103153438706,-0.3953235474139929,-0.10613050953629083,0.3931281575454494,0.7206053226591196,-0.6579052060834452,2.243227130750156
125,0.7561315032518969,2.9426956110418803,1.5696107515857798,-2.8288131995345154,-0.6474153522569761,5.258650909745047,-0.4014387426365062,-0.09693954703216826,0.38753950480749455,0.6883157760099197,-0.6422591064841641,2.23530398991136
126,0.7296606421447365,2.9340688989242203,1.5668345314642789,-2.8378808554673465,-0.6301781504706128,5.255339573957251,-0.40701296744401333,-0.08782611206067839,0.382104559559788,0.6580135784973221,-0.6268017439177982,2.226604134424319
127,0.7043162006591608,2.9258092809392258,1.5641764483692249,-2.8465626537009094,-0.613674446632607,5.25216914607532,-0.41206914547337814,-0.07883716903351665,0.3768352089315041,0.6295941545543207,-0.6116223463639779,2.217279589715138
128,0.6800981787951699,2.9179167570868993,1.561636502300618,-2.854858594235202,-0.597904240742956,5.249139626099252,-0.4166324477022153,-0.07001619570128106,0.3717423368698736,0.6029599068732273,-0.5967985005290017,2.207474503397761
129,0.6570065765527531,2.9103913273672375,1.559214693258458,-2.862768677070226,-0.5828675328016617,5.246251014029047,-0.4207297902079897,-0.0614031852204406,0.36683587094047165,0.578020798422008,-0.5823974049887876,2.1973244921960142
130,0.6350413939319228,2.9032329917802437,1.5569110212427444,-2.870292902205979,-0.568564322808724,5.243503309864706,-0.4243893620009666,-0.05303469489663265,0.3621248317890612,0.5546945475315005,-0.568477034887387,2.1869563618823284
131,0.6142026309326667,2.896441750325915,1.5547254862534778,-2.8774312696424644,-0.5549946107641395,5.240896513606229,-0.4276401853890252,-0.04494393445234013,0.35761738440878604,0.5329065497603018,-0.5550872107097944,2.1764880888147853
132,0.5944902875549989,2.890017603004254,1.5526580882906584,-2.884183779379679,-0.5421583966679133,5.238430625253615,-0.430511710344712,-0.0371608869504182,0.3533208904354277,0.5125896141230473,-0.5422705700685798,2.166028977725863
133,0.5759043637989123,2.883960549815258,1.5507088273542857,-2.8905504314176245,-0.5300556805200412,5.236105644806865,-0.43303344348736883,-0.02971245587504986,0.34924196077031777,0.4936835797772967,-0.5300634454754342,2.155679931843356
134,0.5584448596644034,2.8782705907589294,1.5488777034443597,-2.8965312257563007,-0.5186864623205256,5.233921572265979,-0.435234611563941,-0.022622632304526668,0.34538650790454034,0.4761348621242979,-0.5184966534030274,2.1455337884861847
135,0.5421117751514739,2.872947725835266,1.5471647165608806,-2.902126162395708,-0.5080507420693667,5.231878407630956,-0.4371438587068856,-0.01591267658364596,0.34175979738838463,0.45989596392970167,-0.507596201108809,2.1356756865328808
136,0.526905110260131,2.8679919550442707,1.545569866703848,-2.9073352413358453,-0.4981485197665627,5.229976150901797,-0.4387889762596603,-0.00960130939925942,0.33836649795617874,0.4449249768716496,-0.4973839180829718,2.1261834422502264
137,0.512824864990364,2.8634032783859404,1.5440931538732625,-2.9121584625767127,-0.48897979541211534,5.228214802078501,-0.4401966635814607,-0.0037049076647471743,0.33521072987818834,0.4311850912580042,-0.4878780188793391,2.1171279175121995
138,0.4998710393421817,2.859181695860277,1.542734578069124,-2.9165958261183116,-0.48054456900602105,5.2265943611610695,-0.4413923179639517,0.0017622988847350654,0.3322961111680084,0.4186441259777282,-0.4790936036886031,2.108573369981961
139,0.48804363331558065,2.8553272074672797,1.5414941392914323,-2.9206473319606405,-0.47284284054828607,5.225114828149501,-0.4423998516040322,0.00678803400488524,0.329625801325655,0.4072740866074517,-0.4710431024532998,2.100577778830342
140,0.4773426469105573,2.8518398132069493,1.5403718375401874,-2.9243129801037,-0.46587461003890596,5.223776203043796,-0.4432415334682825,0.01136178732579015,0.32720254234340773,0.3970507566152746,-0.463736667693027,2.093193142395284
141,0.46776808012712046,2.848719513079285,1.539367672815389,-2.927592770547491,-0.4596398774778807,5.222578485843956,-0.4439378538470108,0.015474635543558112,0.3250286967434298,0.3879533244996177,-0.45718252056464626,2.0864657461405716
142,0.4593199329652595,2.8459663070842875,1.538481645117038,-2.930486703292011,-0.454138642865213,5.221521676549978,-0.4445074094194503,0.019119074764482727,0.3231062824534928,0.379964048247548,-0.4513872540602986,2.0804364005769544
143,0.4519982054249816,2.8435801952219553,1.5377137544451336,-2.932994778337262,-0.44937090620089837,5.220605775161864,-0.44496680672792355,0.022288865988277458,0.3214370043599608,0.3730679575235922,-0.44635609666620635,2.0751406496382123
144,0.44580289750628666,2.8415611774922906,1.537064000799676,-2.935116995683245,-0.44533666748494216,5.219830781679614,-0.4453305820796555,0.024978895394536915,0.32002228240591746,0.36725259337841415,-0.4420931392765557,2.070608950489382
145,0.4407340092091694,2.839909253895291,1.5365323841806653,-2.9368533553299567,-0.4420359267173408,5.219196696103229,-0.44561113605307656,0.027185050808364836,0.3188632761271536,0.36250778490071706,-0.4386015276817881,2.0668668259830425
146,0.4367915405336351,2.838624424430959,1.5361189045881012,-2.9382038572774007,-0.43946868389809435,5.218703518432705,-0.4458186809743446,0.028904115465480506,0.3179609055402352,0.35882546205482785,-0.4358836225278444,2.063934991043738
147,0.43397549147968384,2.837706689099294,1.5358235620219838,-2.9391685015255735,-0.4376349390272045,5.218351248668046,-0.445961199943647,0.030133679971094063,0.3173158683152641,0.35619950389801974,-0.4339411282674117,2.0618294542034734
148,0.43228586204731023,2.837156047900293,1.5356463564823137,-2.9397472880744786,-0.43653469210467044,5.218139886809251,-0.4460444162244644,0.030872073146852294,0.31692865318179514,0.354625621417554,-0.4327751922901969,2.0605615953712224
149,0.4317226522365214,2.8369725008339604,1.5355872879690904,-2.9399402169241124,-0.4361679431304939,5.2180694328563195,-0.446071772057903,0.031118312282282547,0.31679954953008027,0.35410127433942873,-0.4323864751195841,2.0601382207235215
