nimar13/UR3e_dataset_trayectorias/data/trayectorias_completas_UR3e_TRAPEZOIDAL/trayectoria_102.csv
Punto,shoulder_pan_joint,shoulder_lift_joint,elbow_joint,wrist_1_joint,wrist_2_joint,wrist_3_joint,Posicion_X,Posicion_Y,Posicion_Z,Roll,Pitch,Yaw
0,3.3109885849729626,5.601496508330141,-1.955535844543888,0.6511245451792433,1.290102002474777,0.6352153705377734,-0.018552947445981127,-0.16114925235029703,0.5345989179376689,-1.9540991071008558,-1.0752690263246376,-0.4468042218443238
1,3.3109866940525845,5.601305864407896,-1.9553588216081337,0.6507618416649894,1.2903631411257517,0.6349650318078919,-0.018481358092649607,-0.16111355654917126,0.534654352118218,-1.9552162563137003,-1.0750980673660802,-0.4459395942874528
2,3.3109810212914508,5.600733932641165,-1.9548277528008704,0.6496737311222277,1.2911465570786764,0.634214015618247,-0.01826650244484306,-0.16100644608515394,0.5348204776471803,-1.9585637781971899,-1.07458291157259,-0.44334904903417705
3,3.310971566689561,5.599780713029945,-1.9539426381220986,0.6478602135509581,1.2924522503335507,0.632962321968839,-0.017908118596442174,-0.16082785202202385,0.5350967632600195,-1.9641298504570688,-1.07371674588852,-0.4390426431045344
4,3.310958330246915,5.5984462055742386,-1.9527034775718182,0.6453212889511807,1.294280220890375,0.6312099508596676,-0.01740577289561343,-0.1605776602851663,0.5354823227679977,-1.971894623140341,-1.0724882945397851,-0.43303728343840747
5,3.3109413119635134,5.596730410274043,-1.9511102711500288,0.6420569573228955,1.2966304687491488,0.6289569022907331,-0.01675886423449588,-0.16025571289049434,0.5359759139612061,-1.981830013247692,-1.070881939097401,-0.4253569308821693
6,3.3109205118393557,5.59463332712936,-1.9491630188567308,0.6380672186661024,1.2995029939098726,0.6262031762620354,-0.01596663005878359,-0.15986180966547245,0.536575937122416,-1.993899444490454,-1.06887788854028,-0.41603285833655945
7,3.310895929874442,5.59215495614019,-1.946861720691924,0.6333520729808014,1.3028977963725459,0.6229487727735744,-0.015028154100575486,-0.1593957104626486,0.5372804332013265,-2.00805755868735,-1.0664524008396241,-0.40510393643620735
8,3.3108675660687723,5.589295297306531,-1.9442063766556086,0.6279115202669927,1.3068148761371692,0.6191936918253502,-0.013942375837927465,-0.15885713786605427,0.5380870817129443,-2.0242499315400018,-1.063578057401242,-0.39261691384833186
9,3.3108354204223467,5.586054350628385,-1.9411969867477843,0.6217455605246761,1.311254233203742,0.6149379334173628,-0.012708101683931715,-0.1582457803906361,0.538993198437921,-2.042412830502122,-1.060224091095816,-0.37862665426251857
10,3.3107994929351654,5.582432116105751,-1.9378335509684512,0.6148541937538518,1.3162158675722648,0.6101814975496122,-0.011324017906670031,-0.1575612961745499,0.5399957330167174,-2.062473055652709,-1.05635676754389,-0.3631962889075884
11,3.310759783607228,5.578428593738629,-1.9341160693176096,0.6072374199545194,1.3216997792427372,0.6049243842220983,-0.00978870527899167,-0.15680331716361348,0.5410912665433834,-2.084347905346052,-1.051939817804957,-0.34639724252773196
12,3.3107162924385345,5.574043783527019,-1.9300445417952592,0.5988952391266794,1.3277059682151593,0.5991665934348211,-0.008100655453492487,-0.15597145378647828,0.5422760092785297,-2.1079453064216622,-1.0469349186999513,-0.3283090926972324
13,3.3106690194290853,5.569277685470921,-1.9256189684014,0.5898276512703314,1.3342344344895314,0.5929081251877808,-0.0062582890532808695,-0.15506530011810313,0.5435457986146,-2.1331641435267024,-1.0413022147788058,-0.30901922753975714
14,3.31061796457888,5.564130299570336,-1.920839349136032,0.5800346563854757,1.341285178065853,0.5861489794809772,-0.0042599754628905775,-0.15408443952787299,0.5448960974397933,-2.159894813483473,-1.035000873588265,-0.2886222754926953
15,3.310563127887919,5.558601625825263,-1.9157056839991555,0.5695162544721122,1.3488581989441244,0.5788891563144105,-0.0021040542959696283,-0.15302845080718033,0.5463219930598116,-2.1880200188172405,-1.0279896636042343,-0.267219292526826
16,3.3105045093562016,5.552691664235702,-1.9102179729907702,0.5582724455302408,1.3569534971243458,0.5711286556880805,0.00021114149302731665,-0.15189691476945177,0.5478181968488719,-2.2174158001451674,-1.0202275422003648,-0.24491670659638806
17,3.310442108983729,5.546400414801654,-1.904376216110876,0.5463032295598615,1.3655710726065167,0.5628674776019872,0.002687260897076096,-0.1506894213134465,0.5493790448130242,-2.2479527911327772,-1.0116742395665068,-0.2218250350365732
18,3.3103759267704995,5.539727877523117,-1.8981804133594733,0.5336086065609744,1.3747109253906373,0.5541056220561308,0.005325908601714478,-0.14940557693814002,0.5509984992595436,-2.2794976635175956,-1.002290823775426,-0.19805740677678582
19,3.3103059627165146,5.532674052400093,-1.8916305647365617,0.5201885765335795,1.384373055476708,0.544843089050511,0.008128617259020553,-0.14804501269465084,0.5526701517758308,-2.3119147148519223,-0.9920402323727022,-0.1737279360266962
20,3.310232216821774,5.525238939432581,-1.8847266702421415,0.5060431394776768,1.3945574628647281,0.5350798785851281,0.011096818379393967,-0.14660739255742888,0.5543872277296671,-2.3450675396961507,-0.9808877569954595,-0.14895000594963448
21,3.3101546890862767,5.517422538620581,-1.8774687298762123,0.49117229539326623,1.405264147554698,0.524815990659982,0.014231811949178504,-0.14509242219332116,0.5561425925095339,-2.378820717328781,-0.9688014695712458,-0.1238345284355413
22,3.310073379510024,5.5092248499640935,-1.8698567436387745,0.47557604428034783,1.416493109546618,0.5140514252750726,0.01753473490331485,-0.14349985810314275,0.5579287597287865,-2.413041446502584,-0.955752581467216,-0.09848824854968942
23,3.3099882880930154,5.500645873463118,-1.861890711529828,0.45925438613892156,1.4282443488404875,0.5027861824304001,0.021006528605464033,-0.1418295171060271,0.5597379016204633,-2.4476010606380614,-0.9417157303234548,-0.07301215929338585
24,3.3098994148352507,5.4916856091176545,-1.853570633549373,0.4422073209689875,1.4405178654363067,0.49102026212596417,0.024647905513298485,-0.14008128613211518,0.5615618618500713,-2.4823763647253,-0.9266691929286793,-0.04750008434838634
25,3.30980675973673,5.482344056927704,-1.8448965096974088,0.4244348487705456,1.4533136593340759,0.47875366436176514,0.02845931523387542,-0.13825513228407835,0.5633921709715047,-2.5172507471402596,-0.9105950260793744,-0.022037474450796186
26,3.3097103227974536,5.472621216893265,-1.8358683399739362,0.4059369695435959,1.4666317305337946,0.4659863891378029,0.032440910203045834,-0.13635111312259457,0.5652200647459364,-2.552115034188654,-0.8934791406250674,0.003299551664886499
27,3.309610104017421,5.462517089014338,-1.8264861243789547,0.3867136832881383,1.480472079035463,0.4527184364540774,0.03659251125349307,-0.13436938712524407,0.5670365055347046,-2.5868680708915446,-0.8753113166192183,0.02844490661678743
28,3.3095061033966324,5.452031673290924,-1.8167498629124645,0.36676499000417295,1.4948347048390813,0.43894980631058866,0.04091357336807637,-0.13231022426238231,0.5688322069645021,-2.621417026783023,-0.8560851695214992,0.053342974254857574
29,3.309398320935088,5.4411649697230215,-1.8066595555744658,0.3460908896916997,1.5097196079446493,0.4246804987073367,0.045403151948300614,-0.13017401662747757,0.5705976620461709,-2.6556774390036666,-0.8357980786740418,0.07794880393234511
30,3.3092867566327877,5.429916978310631,-1.7962152023649582,0.3246913823507187,1.5251267883521673,0.4099105136443215,0.05005986996162022,-0.12796128905320414,0.5723231749067021,-2.68957301582073,-0.8144510898234456,0.10222808400314881
31,3.3091714104897316,5.418287699053754,-1.7854168032839417,0.3025664679812297,1.5410562460616348,0.3946398511215431,0.0548818863654766,-0.12567270963833832,0.5739988962672562,-2.7230352313934723,-0.7920488033690692,0.12615692719060428
32,3.309052282505919,5.406277131952388,-1.7742643583314166,0.279716146583233,1.557507981073052,0.37886851113900144,0.05986686623992549,-0.12330910010433453,0.5756148627677797,-2.75600274704632,-0.7685992594174558,0.1497215050404403
33,3.308929372681351,5.393885277006535,-1.762757867507383,0.2561404181567285,1.5744819933864191,0.3625964936966966,0.06501195309385076,-0.12087144589442678,0.5771610402007488,-2.7884206957667597,-0.7441138297646263,0.17291757024077145
34,3.3088026810160267,5.381112134216194,-1.7508973308118403,0.231839282701716,1.591978283001736,0.3458237987946285,0.07031374384141623,-0.11836090592235188,0.5786273706724051,-2.8202398655952257,-0.7186071257650213,0.19574990464299782
35,3.3086722075099466,5.367957703581364,-1.738682748244789,0.20681274021819585,1.6099968499190025,0.3285504264327972,0.07576826697477407,-0.11577882187244405,0.5800038236593377,-2.8514158146309017,-0.6920969298160974,0.21823172794818727
36,3.308537952163111,5.354421985102047,-1.726114119806229,0.18106079070616782,1.628537694138219,0.31077637661120266,0.08137096448531286,-0.1131267269480526,0.5812804508711606,-2.881907946178524,-0.6646041570041311,0.24038409785596818
37,3.308399914975519,5.340504978778243,-1.7131914454961603,0.15458343416563186,1.647600815659385,0.29250164932984485,0.08711667810791149,-0.11040635396114525,0.5824474447663026,-2.911678567700913,-0.6361528524042179,0.26223532757900136
38,3.308258095947171,5.32620668460995,-1.6999147253145828,0.12738067059658809,1.667186214482501,0.27372624458872385,0.09299964047976816,-0.10761964265273742,0.5834952004975013,-2.940691952224338,-0.6067702286609306,0.28382044147972
39,3.308112495078067,5.311527102597171,-1.6862839592614964,0.09945249999903649,1.6872938906075667,0.2544501623878396,0.09901347181626709,-0.10476874613163012,0.5844143809866025,-2.9689134160638306,-0.5764867478248662,0.3051806845410908
40,3.307963112368207,5.296466232739903,-1.6722991473369015,0.07079892237297714,1.7079238440345819,0.23467340272719217,0.10515118270986926,-0.10185603631801494,0.5851959847449847,-2.99630842247854,-0.5453362509913847,0.3263630966699078
41,3.3078099478175917,5.281024075038147,-1.6579602895407979,0.041419937718410016,1.729076074763547,0.21439596560678154,0.11140518365291081,-0.09888410827902613,0.5858314159667131,-3.022841717322736,-0.5133561390709908,0.34742015856572717
42,3.3076530014262198,5.265200629491903,-1.6432673858731854,0.011315546035334911,1.750750582794462,0.19361785102660767,0.11776730187019349,-0.09585578334547816,0.5863125563269911,-3.0484765000415956,-0.4805876079920603,0.36840951208914363
43,3.307492273194092,5.248995896101172,-1.6282204363340644,-0.019514252676247845,1.7729473681273265,0.17233905898667057,0.12422880602102374,-0.0927741109030219,0.5866318378194051,-3.0731736315383857,-0.44707594176130067,0.38939375466793996
44,3.307327763121209,5.232409874865952,-1.6128194409234344,-0.05106945841633881,1.795666430762141,0.15055958948697007,0.13078043929157213,-0.08964236875699513,0.5867823158628064,-3.096890879551945,-0.41287086704057324,0.41044030416326377
45,3.3071594712075694,5.215442565786245,-1.5970643996412957,-0.08335007118493731,1.8189077706989052,0.12827944252750645,0.137412461345797,-0.08646406197850691,0.5867577418037154,-3.119582202268666,-0.378026973185254,0.4316213276041322
46,3.306987397453174,5.19809396886205,-1.5809553124876485,-0.11635609098204369,1.842671387937619,0.10549861810827976,0.14411469953541653,-0.08324292014996601,0.5865526338343147,-3.1411970720061047,-0.34260420195974023,0.45301372406884194
47,3.306811541858022,5.180364084093368,-1.5644921794624924,-0.15008751780765783,1.8669572824782827,0.08221711622928973,0.15087660968533886,-0.07998289294151441,0.5861623452411895,3.121505464147223,-0.3066684113124868,0.4746991484900428
48,3.306631904422115,5.162252911480198,-1.5476750005658277,-0.18454435166177985,1.891765454320896,0.05843493689053647,0.15768734666955744,-0.07668814396575856,0.5855831287979893,3.1022161361230283,-0.2702920175416263,0.4967640589949921
49,3.306448485145452,5.14376045102254,-1.530503775797654,-0.21972659254440963,1.917095903465459,0.03415208009202009,0.16453584487281758,-0.0733630428769471,0.5848121960184032,3.084187810359016,-0.23355471976281622,0.5192997652383771
50,3.306261494130297,5.12490788537842,-1.5129981743730556,-0.2555939400650751,1.9429196145063083,0.009396361248171559,0.17140325886198057,-0.07001589152124683,0.5838489492378486,3.0675124721971123,-0.19658554940083053,0.5423764272053073
51,3.3060736627060847,5.105970589102193,-1.4954138960881218,-0.29162248914763067,1.968859387169813,-0.015470619253401985,0.17818112872986033,-0.06669916587264335,0.5827109900780711,3.0524716537838392,-0.1600067341770081,0.5657524308688161
52,3.305885831281873,5.087033292825966,-1.477829617803188,-0.32765103823018626,1.9947991598333175,-0.04033759975497553,0.18483486344918218,-0.06342997187836424,0.5814122763393585,3.0391284359919455,-0.12405248797018778,0.5894109404680686
53,3.305697999857661,5.068095996549738,-1.4602453395182544,-0.36367958731274186,2.020738932496822,-0.06520458025654907,0.19136166913330954,-0.060210145342868754,0.5799628638568926,3.0274731128738757,-0.08879118605199338,0.61343256435122
54,3.3055101684334494,5.0491587002735105,-1.4426610612333208,-0.39970813639529745,2.0466787051603266,-0.09007156075812262,0.19775941518697762,-0.0570413947957939,0.5783727946329239,3.0175008072834717,-0.054292945198029886,0.6378921463648153
55,3.3053223370092373,5.030221403997284,-1.4250767829483868,-0.43573668547785305,2.072618477823831,-0.11493854125969616,0.20402662652902032,-0.05392530256013885,0.5766520532676042,3.0092102720918965,-0.020629834871708917,0.6628587688118504
56,3.305134505585025,5.011284107721057,-1.4074925046634532,-0.4717652345604091,2.098558250487336,-0.13980552176126992,0.2101624730908462,-0.05086332626288774,0.5748105241611058,3.002602662019446,0.012123983174478332,0.6883955580792768
57,3.3049466741608136,4.992346811444829,-1.3899082263785194,-0.5077937836429649,2.1244980231508404,-0.16467250226284347,0.21616675665014742,-0.047856800774828956,0.5728579496606386,2.9976802557437496,0.043892194789067286,0.7145592967247414
58,3.3047588427366015,4.973409515168601,-1.3723239480935856,-0.5438223327255203,2.150437795814345,-0.189539482764417,0.22203989507007124,-0.044906940564671594,0.5708038893215194,2.9944451131202787,0.07459636277335853,0.7413998473162782
59,3.30457101131239,4.954472218892374,-1.354739669808652,-0.5798508818080761,2.1763775684778492,-0.21440646326599055,0.2277829040245455,-0.04201484245099466,0.5686576804463707,2.9928976589237872,0.104156057305749,0.7689593967576043
60,3.3043831798881778,4.935534922616148,-1.3371553915237182,-0.6158794308906315,2.202317341141354,-0.2392734437675641,0.2333973763005354,-0.039181488734069604,0.5664284000607316,2.9930351928049324,0.132489100087023,0.7972715354556832
61,3.304195348463966,4.91659762633992,-1.3195711132387846,-0.6519079799731873,2.228257113804858,-0.26414042426913764,0.2388854587777363,-0.03640775068817171,0.5641248284769633,2.994850335376118,0.15951193505526762,0.8263601936534142
62,3.304007517039754,4.897660330063692,-1.3019868349538506,-0.6879365290557431,2.254196886468363,-0.2890074047707114,0.2442498271954954,-0.03369439239368191,0.5617554145913346,2.998329432537562,0.1851401376087909,0.8562384675427902
63,3.303819685615542,4.878723033787465,-1.284402556668917,-0.7239650781382989,2.280136659131868,-0.31387438527228495,0.249493658825588,-0.031042074887028412,0.5593282430515586,3.0034509540944287,0.2092890719647922,0.8869073801058163
64,3.3036318541913303,4.859785737511238,-1.2668182783839832,-0.7599936272208543,2.306076431795372,-0.3387413657738585,0.2546206031778005,-0.028451360605390226,0.5568510034239426,3.010183937782014,0.2318747023029221,0.9183546353396829
65,3.3034440227671182,4.840848441235011,-1.2492340000990496,-0.7960221763034101,2.332016204458877,-0.36360834627543204,0.25963475087306986,-0.025922718102040488,0.5543309614806334,3.018486544922451,0.2528145575059871,0.9505534384839293
66,3.3032561913429066,4.821911144958784,-1.2316497218141158,-0.8320507253859659,2.3579559771223813,-0.3884753267770056,0.26454060082617875,-0.023456527007271237,0.5517749327183382,3.028304807488443,0.2720288415706247,0.9834614674525683
67,3.3030683599186945,4.802973848682556,-1.214065443529182,-0.8680792744685217,2.3838957497858857,-0.41334230727857935,0.269343025886643,-0.02105308320902288,0.5491892582103054,3.0395716562924013,0.28944167229633094,1.017020089800801
68,3.302880528494483,4.784036552406329,-1.1964811652442482,-0.9041078235510771,2.4098355224493906,-0.4382092877801529,0.2740472370924537,-0.018712604226619328,0.5465797828834011,3.0522063240135964,0.30498242013825305,1.0511539228611246
69,3.302692697070271,4.765099256130101,-1.1788968869593146,-0.9401363726336329,2.435775295112895,-0.46307626828172643,0.2786587466967422,-0.016435234750417995,0.5439518363017642,3.066114212520069,0.3185871079228579,1.0857708298466362
70,3.302504865646059,4.7461619598538745,-1.1613126086743808,-0.9761649217161887,2.4617150677763995,-0.4879432487833,0.28318333013213454,-0.014221052319687275,0.5413102160278904,3.081187299631492,0.3301998215867234,1.1207624299197994
71,3.302317034221847,4.727224663577647,-1.1437283303894472,-1.012193470798744,2.4876548404399044,-0.5128102292848735,0.28762698708163276,-0.01207007311067201,0.5386591736210501,3.0973051353293166,0.3397740735502288,1.1560051746751374
72,3.302129202797635,4.70828736730142,-1.1261440521045134,-1.0482220198813,2.5135946131034084,-0.5376772097864471,0.29199590182818136,-0.009982257806543767,0.536002403321803,3.114336442195145,0.3472740551897774,1.1913620079181253
73,3.3019413713734234,4.689350071025192,-1.1085597738195796,-1.0842505689638557,2.5395343857669133,-0.5625441902880208,0.29629640305773236,-0.007957517520815253,0.5333430334600227,3.1321412921025273,0.3526757143705247,1.2266845825867467
74,3.3017535399492113,4.670412774748965,-1.0909754955346458,-1.1202791180464116,2.565474158430418,-0.5874111707895944,0.30053492329252307,-0.005995719745779851,0.5306836206123668,-3.132611521968188,0.35596759896677005,1.2618159624611898
75,3.3015657085249996,4.651475478472738,-1.0733912172497122,-1.156307667128967,2.591413931093922,-0.6122781512911677,0.30471795813247426,-0.004096694297648411,0.5280261465235526,-3.113700193485183,0.35715141789217186,1.2965936925128871
76,3.3013778771007876,4.632538182196511,-1.0558069389647782,-1.1923362162115232,2.617353703757427,-0.6371451317927417,0.3088520254830649,-0.002260239230284837,0.5253720177941794,-3.0944584498708854,0.35624228675666414,1.330853086302471
77,3.301190045676576,4.613600885920283,-1.0382226606798446,-1.2283647652940786,2.643293476420932,-0.6620121122943152,0.3129436249477642,-0.00048612668977813037,0.5227220683262314,-3.0750309710702193,0.3532686444523522,1.3644305569402249
78,3.301002214252364,4.594663589644056,-1.0206383823949108,-1.2643933143766344,2.6692332490844364,-0.6868790927958888,0.31699919756208494,0.0012258913174451117,0.5200765645058157,-3.055555466543231,0.34827184774046366,1.397166813128226
79,3.3008143828281518,4.575726293367828,-1.0030541041099772,-1.3004218634591898,2.695173021747941,-0.7117460732974623,0.321025086044586,0.00287607726970086,0.5174352130912298,-3.0361597346056093,0.3413054709834327,1.4289097544907166
80,3.30062655140394,4.556788997091601,-0.9854698258250434,-1.3364504125417456,2.7211127944114453,-0.7366130537990359,0.3250274957376812,0.004464702614367322,0.5147971717631286,-3.0169591499745843,0.33243435536979155,1.4595169287975134
81,3.300438719979728,4.537851700815374,-0.9678855475401098,-1.3724789616243014,2.7470525670749497,-0.7614800343006094,0.3290124564079581,0.005992042416706169,0.5121610622824118,-2.9980546785051767,0.3217334646184305,1.4888574535138135
82,3.3002508885555164,4.518914404539147,-0.950301269255176,-1.4085075107068568,2.772992339738454,-0.7863470148021829,0.3329857850718227,0.0074583701975601165,0.5095249861905689,-2.9795314727119946,0.30928661125076645,1.5168133497034744
83,3.3000630571313043,4.49997710826292,-0.9327169909702422,-1.4445360597894126,2.7989321124019586,-0.8112139953037565,0.33695305000775533,0.008863952983304436,0.5068865429765731,-2.9614580565030812,0.2951851189257185,1.54328028176332
84,3.2998752257070927,4.481039811986692,-0.9151327126853086,-1.480564608871968,2.8248718850654635,-0.83608097580533,0.3409195361112424,0.010209046590356267,0.5042428506241343,-2.9438860677151624,0.27952648262175267,1.568167736674897
85,3.2996873942828806,4.462102515710464,-0.8975484344003748,-1.5165931579545238,2.850811657728968,-0.8609479563069036,0.34489021174259904,0.011493891165360103,0.501590568443173,-2.9268504961078046,0.26241308073842357,1.591398707867147
86,3.299499562858669,4.4431652194342375,-0.8799641561154412,-1.5526217070370796,2.8767514303924724,-0.8858149368084771,0.3488696972114392,0.012718707000921491,0.4989259220798417,-2.910370334191286,0.2439509828690772,1.6129089696613406
87,3.299311731434457,4.424227923158011,-0.8623798778305074,-1.588650256119635,2.902691203055977,-0.9106819173100507,0.3528622350344872,0.013883690645410233,0.4962447305903359,-2.8944495486558703,0.22424888548060848,1.6326460386096628
88,3.299123900010245,4.405290626881783,-0.8447955995455734,-1.6246788052021912,2.9286309757194817,-0.9355488978116246,0.35687166209580323,0.014989011323952996,0.4935424354551204,-2.879078279946626,0.20341719626033744,1.6505679191529492
89,3.298936068586033,4.386353330605555,-0.8272113212606398,-1.660707354284747,2.9545707483829866,-0.9604158783131982,0.3609013838303625,0.016034807686250208,0.4908141314021065,-2.8642341846028008,0.181567277389381,1.6666417250168248
90,3.298748237161821,4.367416034329328,-0.809627042975706,-1.6967359033673024,2.980510521046491,-0.9852828588147717,0.3649543505432742,0.017021184895309984,0.48805459889975633,-2.84988384698595,0.15881084906925505,1.6808422570272887
91,3.2985604057376094,4.348478738053101,-0.7920427646907724,-1.7327644524498582,3.0064502937099955,-1.0101498393163453,0.36903303596782816,0.017948212069607485,0.4852583381741306,-2.8359842017082375,0.13525954753531552,1.6931506048229552
92,3.2983725743133974,4.329541441776874,-0.7744584864058386,-1.7687930015324136,3.0323900663735,-1.0350168198179188,0.37313941815602647,0.018815920089515974,0.482419604597525,-2.822483923567527,0.11102462654706384,1.7035528261585242
93,3.2981847428891857,4.310604145500646,-0.7568742081209048,-1.8048215506149694,3.0583298390370044,-1.0598838003194924,0.3772749627853544,0.019624299777193478,0.47953244529061195,-2.8093247567127397,0.08621678777602536,1.7120387445229588
94,3.2979969114649736,4.291666849224419,-0.7392899298359712,-1.8408500996975252,3.084269611700509,-1.084750780821066,0.38144060895527954,0.020373300457372772,0.4765907367749258,-2.796442768204342,0.060946123331757564,1.7186008945221227
95,3.2978090800407616,4.272729552948192,-0.7217056515510374,-1.8768786487800806,3.1102093843640137,-1.1096177613226395,0.3856367575364209,0.02106282890477006,0.47358822350812607,-2.7837695226241146,0.03532215254380987,1.7232336353426019
96,3.29762124861655,4.253792256671964,-0.7041213732661038,-1.9129071978626364,3.136149157027518,-1.134484741824213,0.3898632621245018,0.021692748682055226,0.4705185571307803,-2.7712331837655086,0.009453934720730068,1.7259324457147922
97,3.297433417192338,4.2348549603957375,-0.68653709498117,-1.9489357469451918,3.1620889296910226,-1.1593517223257865,0.39411942264018135,0.022262879870557115,0.46737533625039285,-2.7587595567478735,-0.01654976036338886,1.7266934089712889
98,3.297245585768126,4.21591766411951,-0.6689528166962364,-1.9849642960277476,3.188028702354527,-1.18421870282736,0.3984039816046519,0.02277299919409241,0.4641521465861376,-2.746273089298103,-0.042580242299851474,1.7255128937259587
99,3.297057754343914,4.196980367843282,-0.6513685384113024,-2.020992845110304,3.213968475018032,-1.209085683328934,0.40271512310955926,0.023222840534528298,0.4608426012962187,-2.7336978546111745,-0.0685286680529361,1.722387433951985
100,3.296870763328759,4.178127802199164,-0.6338629369867035,-2.0568601926309693,3.239792186058881,-1.2338414021727817,0.40703102715377526,0.02361048963607029,0.45745581941848734,-2.7210160148670943,-0.09417114997818418,1.7173408551728242
101,3.2966873440520956,4.159635341741505,-0.6166917122185298,-2.0920424335135985,3.265122635203444,-1.2581242589712986,0.411285021294385,0.02393206671598166,0.454038579654386,-2.708348235032709,-0.11903503588928527,1.7105123079792364
102,3.2965077066161883,4.141524169128335,-0.599874533321866,-2.126499267367721,3.2899308070460576,-1.2819064383100525,0.41546789207231877,0.024190347271533102,0.4505949863580907,-2.6956584982502245,-0.14300923508697774,1.7020199129651719
103,3.296331851021037,4.1237942843596525,-0.5834114002967099,-2.1602306941933347,3.3142167015867203,-1.3051879401890423,0.4195752351199235,0.024388514920394067,0.44712610030014494,-2.6829074042386805,-0.1660228176869072,1.6919764039353369
104,3.2961597772666416,4.106445687435457,-0.5673023131430626,-2.193236713990442,3.3379803188254344,-1.3279687646082694,0.42360269892684327,0.024529697782513193,0.44363365212297506,-2.670066140805739,-0.18801553934468218,1.680494051303104
105,3.295991485353002,4.089478378355751,-0.5515472718609238,-2.22551732675904,3.3612216587621986,-1.3502489115677325,0.4275460555059479,0.0246169733786241,0.4401199976814339,-2.6571161634020215,-0.20893737420573893,1.667684947500494
106,3.295826975280119,4.072892357120531,-0.5361462764502938,-2.257072532499132,3.383940721397013,-1.372028381067433,0.4314012617435262,0.02465337266099408,0.43658806913169984,-2.644048738663305,-0.22874810165783077,1.6536612064440197
107,3.295666247047991,4.0566876237298,-0.5210993269111728,-2.287902331210713,3.406137506729878,-1.3933071731073698,0.43516451166274084,0.024641883200848765,0.43304132296869213,-2.630864361142515,-0.2474169302128933,1.6385350546914164
108,3.295509300656619,4.040864178183557,-0.5064064232435603,-2.318006722893789,3.4278120147607933,-1.4140852876875432,0.43883227992941404,0.024585451570131926,0.4294836861012246,-2.617572051995859,-0.264922141884927,1.6224188008007312
109,3.2953561361060038,4.0254220204818,-0.49206756544745645,-2.347385707548356,3.448964245489759,-1.4343627248079551,0.4424013570106957,0.02448698496572227,0.42591950094166814,-2.604188549785034,-0.28125074128247673,1.6054246778325014
110,3.295206753396144,4.010361150624533,-0.47808275352286156,-2.3760392851744143,3.469594198916774,-1.4541394844686009,0.4458688764614553,0.02434935213217989,0.42235347037479515,-2.590737406261477,-0.29639809520137744,1.5876645618805194
111,3.29506115252704,3.9956815686117526,-0.4644519874697748,-2.4039674557719675,3.489701875041839,-1.473415566669487,0.4492323348617142,0.024175383644770235,0.41879060336060714,-2.577248003447693,-0.31036755068347466,1.5692495768192203
112,3.2949193334986924,3.981383274443459,-0.45117526728819746,-2.431170219341011,3.509287273864955,-1.4921909714106074,0.4524896049625981,0.02396787161815568,0.415236161819657,-2.5637545119538543,-0.3231700221791225,1.5502896018716301
113,3.2947812963111,3.9674662681196553,-0.4382525929781287,-2.4576475758815475,3.5283503953861217,-1.510465698691966,0.45563894261965754,0.02372956890801943,0.4116956093477992,-2.5502948137248707,-0.3348235414698262,1.530892703847798
114,3.294647040964264,3.953930549640338,-0.4256839645395689,-2.4833995253935743,3.546891239605338,-1.5282397485135593,0.4586789881024678,0.023463187873230006,0.40817456221141996,-2.5369094148327807,-0.34535276720367303,1.5111645197102834
115,3.294516567458184,3.9407761190055095,-0.41346938197251726,-2.508426067877095,3.5649098065226044,-1.5455131208753912,0.46160876236960946,0.023171398765166582,0.40467874298463286,-2.523640375152565,-0.3547884540864552,1.4912076172860729
116,3.29438987579286,3.928002976215168,-0.4016088452769755,-2.532727203332107,3.582406096137922,-1.562285815777459,0.46442765888994364,0.022856827808783845,0.40121393710710834,-2.510530281568962,-0.36316688477045583,1.47112086236519
117,3.2942669659682915,3.9156111212693143,-0.3901023544529414,-2.556302931758613,3.5993801084512893,-1.5785578332197647,0.4671354315757467,0.022522055037035964,0.39778595256555005,-2.4976212897013594,-0.37052927011979314,1.4509988191383074
118,3.2941478379844793,3.9036005541679493,-0.3789499095004163,-2.5791532531566084,3.6158318434627046,-1.594329173202305,0.46973217937214223,0.02216961193663427,0.3944005828332902,-2.4849542561040554,-0.37692112566477565,1.4309312080979109
119,3.294032491841423,3.8919712749110706,-0.3681515104194002,-2.6012781675260985,3.6317613011721726,-1.6095998357250845,0.47221832802141417,0.02180197895893823,0.39106357314121387,-2.4725679787396557,-0.3823916335892069,1.411002441449593
120,3.293920927539123,3.880723283498681,-0.3577071572098922,-2.622677674867079,3.6471684815796905,-1.6243698207880986,0.47459460949135235,0.021421582945225077,0.387780590098995,-2.460498558573583,-0.3869930004753794,1.3912912511291826
121,3.293813145077578,3.869856579930779,-0.34761684987189323,-2.6433517751795517,3.662053384685259,-1.6386391283913517,0.4768620395246946,0.021030794510782116,0.384557194638257,-2.448778889792199,-0.39077982126478145,1.3718704191196622
122,3.2937091444567903,3.859371164207364,-0.33788058840540325,-2.6633004684635173,3.6764160104888775,-1.6524077585348396,0.4790218937328548,0.020631925427353207,0.3813988182085243,-2.4374382808062833,-0.39380845952901666,1.3528066143296917
123,3.2936089256767573,3.849267036328438,-0.3284983728104214,-2.682523754718975,3.690256358990547,-1.6656757112185647,0.48107568262224826,0.02022722603852228,0.3783107421222268,-2.426502203227106,-0.3961364532742194,1.334160335209054
124,3.293512488737481,3.839544196293999,-0.31947020308694896,-2.701021633945925,3.7035744301902636,-1.678442986442528,0.483025125906292,0.01981888273777,0.3752980799163048,-2.4159921616844624,-0.39782195423853906,1.3159859528363091
125,3.2934198336389606,3.8302026441040478,-0.3107960792349851,-2.718794106144366,3.716370224088033,-1.6907095842067257,0.4848721264211552,0.019409015534172274,0.3723657625746281,-2.405925673893271,-0.3989232071137371,1.2983318456254869
126,3.2933309603811955,3.821242379758585,-0.3024760012545298,-2.735841171314301,3.728643740683852,-1.7024755045111624,0.48661874392904836,0.018999675726224782,0.3695185264370505,-2.3963163478683893,-0.3994980734557738,1.28124061416813
127,3.2932458689641866,3.8126634032576083,-0.29450996914558303,-2.7521628294557274,3.7403949799777223,-1.7137407473558346,0.48826716905967565,0.018592843699972585,0.3667609036070676,-2.387174041646589,-0.3996036033621222,1.2647493630671762
128,3.293164559387934,3.804465714601122,-0.2868979829081453,-2.767759080568646,3.751623941969642,-1.7245053127407441,0.48981969760875027,0.018190426863643635,0.36409721466024086,-2.378505090235009,-0.399295656382556,1.2488900358673323
129,3.2930870316524374,3.7966493137891217,-0.27964004254221697,-2.7826299246530564,3.7623306266596126,-1.7347692006658901,0.491278705382491,0.017794257727309627,0.3615315634493507,-2.3703125846468853,-0.3986285716704815,1.2336897892236007
130,3.2930132857576964,3.7892142008216094,-0.2727361480477968,-2.7967753617089572,3.7725150340476326,-1.7445324111312734,0.49264662374890283,0.01740609213275404,0.35906783379927987,-2.3625966886558647,-0.39765488612356104,1.2191713931237222
131,3.292943321703711,3.7821603756985853,-0.26618629942488514,-2.810195391736354,3.782177164133704,-1.7537949441368923,0.4939259160306245,0.01702760763572364,0.35670968788439184,-2.355354980134375,-0.3964250982331107,1.2053536451261562
132,3.2928771394904826,3.7754878384200494,-0.2599904966734825,-2.82289001473524,3.791317016917824,-1.7625567996827494,0.4951190548502271,0.01666040204009068,0.3544605660834059,-2.348582805379057,-0.394987474569223,1.1922517880320418
133,3.2928147391180094,3.7691965889860004,-0.254148739793588,-2.8348592307056197,3.7999345923999934,-1.770817977768842,0.49622850051715717,0.016305992081139486,0.35232368811100245,-2.3422736365218686,-0.3933878952644908,1.1798779220316566
134,3.292756120586292,3.7632866273964396,-0.24866102878520246,-2.846103039647491,3.808029890580216,-1.7785784783951737,0.4972566805260181,0.015965812253240785,0.35030205523137486,-2.3364194238585325,-0.3916697345042867,1.168241404031635
135,3.292701283895331,3.7577579536513657,-0.24352736364832595,-2.856621441560855,3.8156029114584875,-1.7858383015617392,0.498205970218612,0.015641213775516617,0.34839845336632375,-2.3310109366010594,-0.3898737718588059,1.1573492284826865
136,3.2926502290451256,3.7526105677507813,-0.23874774438295798,-2.8664144364457096,3.8226536550348094,-1.7925974472685438,0.4990786746469793,0.015333463687797037,0.34661545691904583,-2.3260380871107507,-0.3880381302713728,1.1472063855202035
137,3.292602956035676,3.7478444696946838,-0.23432217098909902,-2.875482024302059,3.8291821213091817,-1.798855915515583,0.49987701166161513,0.015043744068151087,0.3449554331441863,-2.321490235047573,-0.3861982366175981,1.137816193556918
138,3.2925594648669834,3.7434596594830736,-0.23025064346674817,-2.8838242051298986,3.8351883102816045,-1.8046137063028613,0.5006030962379291,0.014773151362531815,0.3434205469049062,-2.3173564690587267,-0.3843868009416767,1.1291806046036936
139,3.2925197555390455,3.739456137115952,-0.22653316181590677,-2.8914409789292312,3.840672221952074,-1.8098708196303734,0.5012589260448207,0.014522695816613761,0.342012765668319,-2.3136258646152834,-0.3826338107323168,1.1213004815336158
140,3.292483828051864,3.7358339025933174,-0.22316972603657348,-2.898332345700055,3.845633856320598,-1.8146272554981255,0.501846368251788,0.014293300999691012,0.3407338646016999,-2.31028771739746,-0.3809665368992271,1.1141758472505727
141,3.2924516824054386,3.732592955915172,-0.2201603361287492,-2.9044983054423703,3.8500732133871702,-1.8188830139061123,0.5023671475652111,0.014085803410490087,0.33958543164307387,-2.307331752238373,-0.37940954843224134,1.1078061062888196
142,3.292423318599769,3.7297332970815136,-0.2175049920924339,-2.9099388581561803,3.853990293151794,-1.8226380948543373,0.5028228354801865,0.013900952154983024,0.338568872431147,-2.304748308082575,-0.37798473305485697,1.1021902397727839
143,3.2923987366348553,3.727254926092343,-0.21520369392762762,-2.9146540038414805,3.857385095614468,-1.8258924983427969,0.5032148407314084,0.01373940868668334,0.3376854149909241,-2.3025284997192896,-0.37671132151053593,1.097326974927038
144,3.2923779365106975,3.7251578429476586,-0.21325644163432944,-2.9186437424982747,3.860257620775192,-1.8286462243714956,0.5035444009249933,0.013601746600468537,0.3369361140826904,-2.3006643572329017,-0.37560591343622723,1.0932149304656533
145,3.292360918227296,3.723442047647464,-0.21166323521253982,-2.9219080741265593,3.862607868633966,-1.8308992729404299,0.503812575332639,0.01348845147169343,0.3363218551333149,-2.299148944195325,-0.37468250307811113,1.0898527392287707
146,3.29234768178465,3.7221075401917574,-0.2104240746622592,-2.9244469987263377,3.864435839190789,-1.8326516440496006,0.5040202388300258,0.01339992073320461,0.3358433576799764,-2.297976455625213,-0.37395250338690056,1.0872391493905655
147,3.29233822718276,3.7211543205805366,-0.2095389599834876,-2.9262605162976065,3.8657415324456634,-1.8339033376990095,0.5041680769626962,0.013336463583816346,0.3355011782674628,-2.2971422966745374,-0.3734247672938099,1.0853731054537372
148,3.2923325544216264,3.7205823888138054,-0.20900789117622454,-2.9273486268403692,3.866524948398588,-1.834654353888653,0.504256582124741,0.013298300922853796,0.33529571275109726,-2.296643142888239,-0.37310560521390257,1.0842538100856898
149,3.2923306635012484,3.720391744891562,-0.20883086824047004,-2.9277113303546223,3.8667860870495634,-1.8349046926185357,0.5042860508382693,0.013285565306500532,0.33522719796812156,-2.2964769827301343,-0.3729987980533812,1.0838807676531446
