nimar13/UR3e_dataset_trayectorias/data/trayectorias_completas_UR3e_TRAPEZOIDAL/trayectoria_249.csv
Punto,shoulder_pan_joint,shoulder_lift_joint,elbow_joint,wrist_1_joint,wrist_2_joint,wrist_3_joint,Posicion_X,Posicion_Y,Posicion_Z,Roll,Pitch,Yaw
0,-1.8828458195203197,-0.7557696433290366,2.1210575245765164,1.4342988661994562,-0.9038320813136904,5.4403803303623395,0.0994532313398621,-0.30460730317874696,0.22482100314694325,2.0821440284989543,-0.2651881007482233,-1.1810215513741298
1,-1.882740622691216,-0.7559486713355741,2.1207088753439494,1.4338358693486755,-0.9033793425386579,5.439787726952852,0.09953076921722018,-0.3045611387027689,0.22490554647930866,2.080769638136831,-0.2658487374241591,-1.1802841865328044
2,-1.882425032203905,-0.7564857553551865,2.1196629276462478,1.432446878796333,-0.9020211262135603,5.438009916724389,0.09976336049445939,-0.3044222446730811,0.22515855609927,2.076641015740813,-0.2678261473215176,-1.178068566239263
3,-1.8818990480583866,-0.7573808953878738,2.117919681483412,1.430131894542429,-0.8997574323383979,5.43504689967695,0.10015093359441643,-0.30418942851569586,0.2255781673370759,2.0697418004164425,-0.27110676876772555,-1.1743641067127895
4,-1.8811626702546607,-0.7586340914336359,2.115479136855442,1.4268909165869634,-0.8965882609131703,5.4308986758105355,0.10069335421454748,-0.30386073346909664,0.22616126080892132,2.0600447031491336,-0.27566779439566375,-1.1691531495726357
5,-1.8802158987927275,-0.7602453434924731,2.112341293762338,1.422723944929936,-0.8925136119378777,5.425565245125146,0.10139040294045712,-0.30343348519043006,0.2269034456951215,2.047511483982106,-0.28147686327345584,-1.1624109438024997
6,-1.879058733672587,-0.7622146515643852,2.108506152204099,1.4176309795713473,-0.8875334854125201,5.419046607620781,0.10224174416162374,-0.3029043576145699,0.22779903769528245,2.0320929377134123,-0.2884916281810271,-1.1541056413514785
7,-1.877691174894239,-0.7645420156493721,2.103973712180726,1.4116120205111968,-0.8816478813370975,5.41134276329744,0.10324688656438889,-0.30226945863738497,0.2288410330413127,2.0137289074472724,-0.29665919705537974,-1.1441983288255848
8,-1.876113222457684,-0.767227435747434,2.0987439736922187,1.4046670677494846,-0.8748567997116099,5.402453712155124,0.10440513558157197,-0.3015244363012296,0.23002108036391833,1.992348353275854,-0.30591544847630425,-1.1326431264451933
9,-1.8743248763629212,-0.7702709118585708,2.092816936738577,1.396796121286211,-0.8671602405360573,5.392379454193832,0.10571553830084268,-0.300664606223622,0.23132945263579727,1.9678695131046762,-0.31618422292159526,-1.1193873958931375
10,-1.8723261366099513,-0.7736724439827825,2.086192601319801,1.3879991811213757,-0.8585582038104397,5.381119989413565,0.10717682147842046,-0.29968510101828105,0.23275502185525807,1.9402002044886872,-0.32737639479108654,-1.1043721111762497
11,-1.870117003198774,-0.7774320321200692,2.078870967435891,1.3782762472549788,-0.8490506895347569,5.368675317814322,0.10878732347332881,-0.29858104239942707,0.23428523958588374,1.909238330493453,-0.33938883539535436,-1.0875324613536417
12,-1.8676974761293892,-0.7815496762704307,2.0708520350868467,1.3676273196870201,-0.8386376977090093,5.355045439396104,0.11054492111201158,-0.29734773652324537,0.2359061269275456,1.8748726689356447,-0.3521032848584216,-1.0687987708602351
13,-1.865067555401797,-0.7860253764338672,2.0621358042726676,1.3560523984175,-0.8273192283331966,5.34023035415891,0.11244695271435412,-0.29598089289181534,0.23760227795560754,1.8369840423013892,-0.36538516193387155,-1.0480978416058997
14,-1.8622272410159977,-0.7908591326103785,2.0527222749933545,1.3435514834464182,-0.8150952814073189,5.324230062102742,0.11449013875943645,-0.2944768668115393,0.23935688111979164,1.7954469838162097,-0.3790823558849742,-1.0253548397090781
15,-1.8591765329719907,-0.7960509447999649,2.042611447248907,1.3301245747737749,-0.8019658569313761,5.307044563227596,0.1166705019406198,-0.29283292494701557,0.24115176353008555,1.7501320309848098,-0.39302406460000056,-1.000495866094738
16,-1.8559154312697765,-0.8016008130026261,2.0318033210393254,1.3157716723995698,-0.7879309549053684,5.288673857533476,0.11898328865088095,-0.29104753292973756,0.2429674634589549,1.700908787207555,-0.40701976854350236,-0.9734513600525584
17,-1.852443935909355,-0.8075087372183622,2.0202978963646094,1.3004927763238032,-0.7729905753292956,5.269117945020381,0.12142289424465212,-0.2891206632573067,0.24478333673794864,1.6476498884549295,-0.4208584609754526,-0.944160481881056
18,-1.848762046890726,-0.8137747174471732,2.008095173224759,1.284287886546475,-0.7571447182031579,5.24837682568831,0.12398279473332484,-0.28705412084314963,0.24657770299949436,1.5902359866841613,-0.4343082900744808,-0.9125765962021286
19,-1.8448697642138898,-0.8203987536890592,1.9951951516197743,1.2671570030675852,-0.740393383526955,5.226450499537263,0.1266554878769072,-0.2848518825418049,0.248328037884146,1.5285618038392887,-0.44711680550119215,-0.8786739205590965
20,-1.840767087878846,-0.8273808459440202,1.9815978315496554,1.249100125887134,-0.7227365713006872,5.203338966567241,0.12943244691995479,-0.28252044577723595,0.25001121736841697,1.4625432082501428,-0.4590120354980501,-0.8424553028755281
21,-1.836454017885595,-0.8347209942120559,1.9673032130144021,1.2301172550051207,-0.7041742815243545,5.179042226778243,0.13230409046862202,-0.2800691800429105,0.2516038202333592,1.3921251096844975,-0.46970464286611535,-0.8039609368837562
22,-1.8319305542341366,-0.8424191984931667,1.9523112960140145,1.2102083904215462,-0.6847065141979566,5.153560280170271,0.13525977219703447,-0.2775106735305096,0.25308249435031255,1.317289758349454,-0.4788914080849299,-0.7632776148259107
23,-1.8271966969244708,-0.8504754587873523,1.9366220805484928,1.1893735321364098,-0.6643332693214938,5.1268931267433215,0.13828779418155335,-0.27486106549513956,0.2544243918659079,1.2380647795501902,-0.4862602524104616,-0.7205478642692081
24,-1.8222524459565976,-0.8588897750946128,1.9202355666178366,1.167612680149712,-0.643054546894966,5.099040766497398,0.14137544766431262,-0.27214035320444774,0.2556076774796218,1.1545300142918835,-0.491496930576109,-0.6759780554113353
25,-1.8170978013305172,-0.8676621474149484,1.9031517542220462,1.1449258344614524,-0.620870346918373,5.070003199432498,0.14450908491360995,-0.26937266048422226,0.2566121127794718,1.0668220276009557,-0.49429338456156424,-0.6298443572935313
26,-1.8117327630462292,-0.8767925757483588,1.8853706433611213,1.1213129950716314,-0.5977806693917151,5.039780425548623,0.14767422554743886,-0.26658645301407213,0.257419717991446,0.9751350724125137,-0.49435756090923066,-0.5824953471909454
27,-1.806157331103734,-0.8862810600948441,1.8668922340350622,1.0967741619802487,-0.5737855143149923,5.008372444845773,0.15085570018608507,-0.2638146837086135,0.25801551046602583,0.8797174411601366,-0.49142427520709503,-0.5343502201938445
28,-1.8003715055030314,-0.8961276004544043,1.8477165262438688,1.0713093351873044,-0.5488848816882043,4.975779257323946,0.15403783356928985,-0.2610948498232207,0.25838831673680124,0.7808625523928082,-0.4852664981098022,-0.48589195747680936
29,-1.7943752862441213,-0.9063321968270395,1.8278435199875411,1.0449185146927984,-0.5230787715113514,4.942000862983146,0.1572046682844823,-0.2584689419468843,0.25853165201725054,0.678894790083814,-0.475706290122952,-0.4376554749980808
30,-1.7881686733270041,-0.9168948492127494,1.8072732152660793,1.0176017004967308,-0.49636718378443345,4.907037261823368,0.16034022898111489,-0.25598326390349085,0.25844465754096396,0.5741509317977974,-0.46262457876678337,-0.3902115805934031
31,-1.7817516667516793,-0.9278155576115344,1.786005612079483,0.9893588925991017,-0.4687501185074504,4.870888453844616,0.1634288253755773,-0.2536881019093213,0.2581330822040261,0.46695878290258436,-0.4459690828284908,-0.3441483284066283
32,-1.7751242665181473,-0.9390943220233944,1.7640407104277522,0.9601900909999108,-0.4402275756804024,4.833554439046888,0.16645539047518726,-0.25163722127675253,0.25761029056411183,0.35761516841121815,-0.4257599387269825,-0.30005186254268257
33,-1.7682864726264078,-0.9507311424483291,1.7413785103108874,0.9300952956991585,-0.41079955530328943,4.7950352174301845,0.1694058482757065,-0.24988716967294355,0.2568982744441826,0.24636556884341482,-0.402092927069765,-0.2584889287038597
34,-1.761238285076461,-0.9627260188863389,1.718019011728888,0.8990745066968444,-0.3804660573761113,4.755330788994505,0.17226750273926072,-0.2484963676073136,0.2560286402664539,0.13338739051359347,-0.37514055784708894,-0.2199928653630015
35,-1.7539797038683067,-0.9750789513374236,1.6939622146817546,0.8671277239929689,-0.3492270818988684,4.714441153739851,0.17502943718395866,-0.24752396960535075,0.25504353892817627,0.01877823976416572,-0.3451515701167206,-0.18505416176805456
36,-1.7465107290019453,-0.9877899398015831,1.669208119169487,0.8342549475875317,-0.31708262887156036,4.672366311666221,0.17768291038283673,-0.247028483596198,0.2539964996892649,-0.09745017613454242,-0.3124495762652692,-0.15411577696853287
37,-1.7388313604773762,-1.0008589842788176,1.6437567251920848,0.8004561774805328,-0.2840326982941872,4.6291062627736155,0.1802217327755327,-0.24706614155017176,0.25295312438170725,-0.21537255765155314,-0.2774316060015676,-0.12757255402730805
38,-1.7309415982946,-1.014286084769127,1.6176080327495481,0.7657314136719723,-0.25007729016674907,4.584661007062034,0.18264260336879723,-0.24768902147557129,0.2519915935270013,-0.3351453823645672,-0.2405671879971038,-0.1057733825794269
39,-1.7228414424536163,-1.0280712412725115,1.5907620418418773,0.7300806561618501,-0.21521640448924595,4.539030544531478,0.18494538530035193,-0.24894292960658843,0.2512029319619547,-0.45699769522714756,-0.20239837385470538,-0.08902431975100066
40,-1.7145308929544252,-1.0422144537889706,1.5632187524690724,0.6935039049501666,-0.17945004126167785,4.492214875181946,0.187133295854296,-0.2508650620136672,0.25069097867018447,-0.5812177137086934,-0.1635407888564542,-0.0775906588927269
41,-1.706009949797027,-1.0567157223185046,1.5349781646311331,0.6560011600369213,-0.14277820048404477,4.444213999013439,0.189212985163448,-0.2534814768978652,0.25057200408015745,-0.7081352993560065,-0.1246854066041771,-0.07169589060694921
42,-1.697278612981421,-1.0715750468611138,1.5060402783280595,0.6175724214221144,-0.10520088215634671,4.395027916025956,0.1911944771563857,-0.25680442235287093,0.2509739185332555,-0.8380999728772994,-0.08660029935306478,-0.07151560310085187
43,-1.688336882507608,-1.0867924274167977,1.4764050935598516,0.578217689105746,-0.06671808627858355,4.344656626219498,0.1930909467618582,-0.2608295791430637,0.25203501837537623,-0.971453922530852,-0.05013112126500623,-0.0771646524088209
44,-1.6791847583755874,-1.1023678639855568,1.4460726103265091,0.5379369630878156,-0.027329812850755086,4.293100129594063,0.19491830923220854,-0.26553329367707107,0.25390222160868947,-1.1084995890804714,-0.01619856829727048,-0.08867651478121963
45,-1.6698222405853596,-1.1183013565673905,1.4150428286280325,0.49673024336832383,0.01296393812713803,4.240358426149654,0.19669460094113428,-0.2708698923362183,0.25672875365605013,-1.2494621407375115,0.014209391257241652,-0.10597480170323521
46,-1.6602493291369242,-1.1345929051622994,1.3833157484644216,0.45459752994727065,0.05416316665509613,4.1864315158862695,0.1984391363704412,-0.2767691839782206,0.2606712558848794,-1.394448675893446,0.0400529421447022,-0.12883865820116297
47,-1.6504660240302818,-1.151242509770283,1.3508913698356766,0.4115388228246557,0.09626787273311943,4.1313193988039085,0.20017143339419727,-0.28313427195724145,0.2658863053682405,-1.543408324399495,0.06026566670526577,-0.15686619977389393
48,-1.6404723252654316,-1.1682501703913415,1.3177696927417972,0.3675541220004792,0.1392780563612075,4.075022074902574,0.20190990848799795,-0.2898398094133541,0.27252635406211123,-1.6961001667952122,0.07379073454654382,-0.18944289436637635
49,-1.6302682328423743,-1.185615887025475,1.2839507171827835,0.3226434274747412,0.18319371753936076,4.017539544182262,0.20367035512175316,-0.29673084078821116,0.28073511911841786,-1.852078065097588,0.07962717761847893,-0.22572388503000018
50,-1.6198654352976767,-1.2033197676719571,1.2494731819622538,0.2768581833419721,0.22796455195924237,3.9589376514662513,0.20546221779074425,-0.30361479635271843,0.2906304892811753,-2.0105241734630295,0.07689073183107689,-0.2645949398874979
51,-1.6094158836067107,-1.2211032163213447,1.21484069152725,0.23086716283107878,0.2729366036124712,3.9000723794571353,0.2072645303330379,-0.310186618578787,0.3021387311161109,-2.1683706348905862,0.06511933309202066,-0.30422085727711046
52,-1.5989663319157448,-1.2388866649707322,1.1802082010922461,0.18487614232018545,0.31790865526570045,3.841207107448019,0.20906660673435193,-0.3162103350676597,0.31520913842833137,-2.324174407379008,0.04432922749481815,-0.3431091850455697
53,-1.5885167802247788,-1.2566701136201197,1.1455757106572424,0.13888512180929213,0.36288070691892926,3.782341835438903,0.21085754209584823,-0.32148229940911255,0.3298051452525175,-2.4773008260926948,0.014751091470463691,-0.38003293140155897
54,-1.578067228533813,-1.2744535622695072,1.1109432202222387,0.09289410129839881,0.4078527585721585,3.7234765634297875,0.21261817895348545,-0.3258035079602053,0.34586364636047023,-2.6272761710168258,-0.023206513395037487,-0.41390678572670514
55,-1.567617676842847,-1.2922370109188948,1.076310729787235,0.04690308078750549,0.45282481022538734,3.6646112914206714,0.21432135061920254,-0.32898324978632365,0.3632957565860896,-2.7738314044985173,-0.06899490404143081,-0.4438087138002498
56,-1.557168125151881,-1.3100204595682825,1.0416782393522308,0.0009120602766117258,0.49779686187861705,3.605746019411555,0.2159323422943349,-0.3308426135700777,0.3819880220268489,-2.9169230285611327,-0.1219654420798812,-0.46897377049099653
57,-1.546718573460915,-1.32780390821767,1.007045748917227,-0.045078960234281595,0.5427689135318459,3.546880747402439,0.21740955841865892,-0.3312177838558608,0.40180406006941427,-3.056736821118338,-0.18140619707504876,-0.48876349526920027
58,-1.536269021769949,-1.3455873568670575,0.9724132584822232,-0.09106998074517492,0.5877409651850751,3.488015475393323,0.21870537963287823,-0.3299630633984536,0.4225865971945499,3.089501769146539,-0.24657086242652507,-0.5026165002616614
59,-1.525819470078983,-1.363370805516445,0.9377807680472197,-0.13706100125606824,0.6327130168383039,3.4291502033842067,0.21976718807715465,-0.32695356407964593,0.44415986614673053,2.954788722961246,-0.3166974864324404,-0.5099851403047182
60,-1.5153699183880174,-1.3811542541658328,0.9031482776122157,-0.18305202176696156,0.6776850684915332,3.370284931375091,0.22053853563710896,-0.32208751572334526,0.46633231745031467,2.8214440128256273,-0.39101585936610606,-0.5102603066883037
61,-1.5049203666970512,-1.3989377028152203,0.8685157871772122,-0.22904304227785488,0.722657120144762,3.311419659365975,0.2209604262815874,-0.3152881500278723,0.48889959454446225,2.688340147252611,-0.4687427921927115,-0.5026823398578277
62,-1.4944708150060853,-1.4167211514646079,0.8338832967422078,-0.27503406278874865,0.7676291717979917,3.2525543873568585,0.22097268089714298,-0.30650512557319964,0.5116477171029462,2.5540261942058176,-0.5490638883650771,-0.48623136718048227
63,-1.4840212633151193,-1.4345046001139956,0.7992508063072044,-0.32102508329964197,0.8126012234512205,3.1936891153477425,0.22051535107824516,-0.29571546926197273,0.5343564134920235,2.4166230635083292,-0.6310986133740826,-0.4594853086996573
64,-1.4735717116241536,-1.4522880487633831,0.7646183158722004,-0.3670161038105353,0.8575732751044498,3.1348238433386264,0.21953014722542358,-0.2829240194137096,0.556802540867044,2.2736599992143067,-0.7138422185375463,-0.4204291811880703
65,-1.4631221599331874,-1.4700714974127707,0.7299858254371969,-0.4130071243214286,0.9025453267576786,3.0759585713295103,0.21796184606075483,-0.26816336583982675,0.5787635301604943,2.121837454376307,-0.7960729277805574,-0.3661991282619753
66,-1.4526726082422217,-1.4878549460621582,0.695353335002193,-0.45899814483232193,0.9475173784109079,3.0170932993203943,0.2157596432947005,-0.25149329236676643,0.6000207931906656,1.95672047761596,-0.876205749498733,-0.2927634089754299
67,-1.4422230565512555,-1.505638394711546,0.660720844567189,-0.5049891653432157,0.9924894300641371,2.9582280273112778,0.21287841865211923,-0.2329997372293769,0.6203630303163371,1.772449596082598,-0.9520686826078906,-0.19462558993414755
68,-1.4317735048602898,-1.5234218433609334,0.6260883541321851,-0.550980185854109,1.0374614817173664,2.899362755302162,0.20927988274908546,-0.2127932963157301,0.639589379449826,1.561817700814855,-1.020589911617804,-0.06489699174815049
69,-1.4213239531693236,-1.541205292010321,0.5914558636971812,-0.5969712063650023,1.0824335333705952,2.8404974832930456,0.2049335783467,-0.19100730320623113,0.6575123507655828,1.317675761222518,-1.0774721570589991,0.10329993396390205
70,-1.4108744014783579,-1.5589887406597085,0.5568233732621777,-0.6429622268758957,1.1274055850238245,2.78163221128393,0.19981771221546837,-0.16779552812672632,0.6739604960288392,1.0373214517639162,-1.1172018962568435,0.3124440921370238
71,-1.4004248497873917,-1.576772189309096,0.5221908828271737,-0.688953247386789,1.1723776366770533,2.7227669392748144,0.19391979812962853,-0.14332954515796853,0.6887807670221151,0.7298189698523814,-1.1341306124533865,0.5532964755648221
72,-1.389975298096426,-1.5945556379584835,0.48755839239217025,-0.7349442678976823,1.2173496883302826,2.663901667265698,0.18723709626625992,-0.11779582316469255,0.7018405239511486,0.4188521165245077,-1.1249315640735558,0.8020475614439213
73,-1.3795257464054598,-1.6123390866078713,0.45292590195716587,-0.7809352884085761,1.2623217399835118,2.6050363952565814,0.17977683938882955,-0.091392600803963,0.7130291618338412,0.13175738702501832,-1.090608226894172,1.0312850032763057
74,-1.369076194714494,-1.6301225352572588,0.4182934115221624,-0.8269263089194694,1.307293791636741,2.5461711232474658,0.1715562415201985,-0.06432660954934181,0.7222593305699773,-0.1157330334987551,-1.0356747298049687,1.2252520259999282
75,-1.358626643023528,-1.647905983906646,0.3836609210871589,-0.8729173294303623,1.3522658432899695,2.48730585123835,0.16260229022180953,-0.03680971085901735,0.7294677324987163,-0.32208806215777636,-0.965577061630471,1.3824464799547982
76,-1.348177091332562,-1.665689432556034,0.3490284306521545,-0.9189083499412565,1.3972378949431996,2.4284405792292327,0.15295132895765462,-0.009055514387614793,0.7346154896103866,-0.493136397378802,-0.8849341916677139,1.5087829020729309
77,-1.337727539641596,-1.6834728812054216,0.31439594021715056,-0.9648993704521498,1.4422099465964284,2.369575307220117,0.1426484411988403,0.018723956510601242,0.7376880810198053,-0.6361180491070841,-0.7971228843322687,1.6116488061621554
78,-1.3272779879506302,-1.7012563298548091,0.27976344978214707,-1.0108903909630431,1.4871819982496577,2.3107100352110006,0.13174665278708889,0.04632148778711989,0.7386948596601498,-0.757212211497386,-0.7044910621462304,1.6974389759874324
79,-1.316828436259664,-1.7190397785041966,0.24513095934714313,-1.0568814114739364,1.5321540499028865,2.251844763201885,0.12030597350127152,0.07353772539823272,0.7376681652518459,-0.8610583919675682,-0.608675194793491,1.771084992616986
80,-1.3063788845686983,-1.7368232271535842,0.21049846891213964,-1.1028724319848298,1.5771261015561158,2.1929794911927694,0.10839230264900654,0.10018399751796964,0.7346620582784885,-0.9509553091566215,-0.5108527844635443,1.8362648627480294
81,-1.2959293328777322,-1.7546066758029717,0.1758659784771357,-1.148863452495723,1.6220981532093446,2.134114219183653,0.0960762267382825,0.12608485785619294,0.7297507068091796,-1.0291776872349374,-0.4119145937216857,1.8957332512365968
82,-1.2854797811867664,-1.7723901244523592,0.14123348804213176,-1.1948544730066164,1.6670702048625738,2.0752489471745372,0.08343173979098392,0.15108030644170717,0.7230264644038454,-1.097245003475271,-0.31257779586400264,1.9516067266432782
83,-1.2750302294958005,-1.790173573101747,0.10660099760712827,-1.2408454935175097,1.7120422565158027,2.0163836751654207,0.07053491857844044,0.1750276518371655,0.7145976829002694,-1.1561159185251006,-0.2134614622939004,2.005577974947366
84,-1.2645806778048345,-1.8079570217511345,0.07196850717212433,-1.286836514028403,1.757014308169032,1.957518403156305,0.05746258594587351,0.19780298702139062,0.7045863085014499,-1.2063199540670244,-0.1151395243346782,2.0590704394597035
85,-1.2541311261138686,-1.825740470400522,0.03733601673712039,-1.3328275345392964,1.8019863598222607,1.8986531311471895,0.04429099542602832,0.21930225991595823,0.6931253131720075,-1.2480435649596107,-0.018180966915318685,2.1133497043133715
86,-1.2436815744229026,-1.8435239190499095,0.0027035263021168987,-1.3788185550501897,1.84695841147549,1.839787859138073,0.031094569522087268,0.2394419285482529,0.6803560158467878,-1.2811854947590404,0.07681658546958346,2.1696042514565117
87,-1.2332320227319367,-1.861307367699297,-0.03192896413288704,-1.4248095755610835,1.8919304631287188,1.7809225871289573,0.017944722387413785,0.2581591999301486,0.6664253493101866,-1.3053936987508186,0.1691960572307773,2.22900297134909
88,-1.2227824710409707,-1.8790908163486848,-0.06656145456789142,-1.4708005960719777,1.936902514781949,1.72205731511984,0.004908795187216708,0.27541186068783774,0.6514831288016093,-1.320095272511536,0.2582107623759571,2.292731355225528
89,-1.2123329193500045,-1.8968742649980723,-0.10119394500289491,-1.516791616582871,1.9818745664351778,1.6631920431107243,-0.007950870742720878,0.29117771610685234,0.6356793774449175,-1.3245323352528686,0.34299448781300573,2.3620023534406247
90,-1.2018833676590388,-1.91465771364746,-0.13582643543789885,-1.5627826370937643,2.0268466180884066,1.6043267711016078,-0.02057770164148237,0.30545366236901916,0.6191617615159288,-1.3178207286646892,0.4225337609632448,2.438031000028018
91,-1.1914338159680729,-1.9324411622968476,-0.17045892587290234,-1.6087736576046576,2.0718186697416363,1.5454614990924922,-0.032921483039076826,0.31825442418049904,0.602073185402938,-1.2990537310893697,0.4956478976135277,2.521954603987661
92,-1.180984264277107,-1.9502246109462351,-0.20509141630790628,-1.654764678115551,2.116790721394865,1.4865962270833757,-0.04493876331186093,0.32961099656508963,0.5845495919540061,-1.2674761091934557,0.5609877981934108,2.6146758970552746
93,-1.170534712586141,-1.9680080595956226,-0.23972390674291022,-1.7007556986264443,2.161762773048094,1.42773095507426,-0.056593062062243,0.33956883518814174,0.566718008834742,-1.2227459628953967,0.6170708136463293,2.7166135454955462
94,-1.160085160895175,-1.9857915082450102,-0.2743563971779137,-1.7467467191373376,2.2067348247013228,1.3688656830651444,-0.06785488160611988,0.3481858440711646,0.5486948756533759,-1.1652687891854363,0.6623727355197095,2.82737690319296
95,-1.149635609204209,-2.003574956894398,-0.30898888761291765,-1.792737739648231,2.2517068763545525,1.310000411056028,-0.07870152519578932,0.35553021286873654,0.5305846800738908,-1.096520460117568,0.6954912705439229,2.9454492445975435
96,-1.139186057513243,-2.0213584055437854,-0.34362137804792114,-1.8387287601591242,2.2966789280077813,1.2511351390469123,-0.0891167308578141,0.36167815794888314,0.5124789240740101,-1.0191960319347129,0.7153694288759902,3.0680432555215416
97,-1.1287365058222771,-2.039141854193173,-0.3782538684829251,-1.8847197806700176,2.34165097966101,1.1922698670377958,-0.09909013474804959,0.3667116223156952,0.49445543406444825,-0.9370074892527275,0.7215246104785545,-3.091879080906577
98,-1.1182869541313112,-2.0569253028425605,-0.412886358917929,-1.9307108011809109,2.386623031314239,1.1334045950286802,-0.10861658258850282,0.37071598893803714,0.4765780209277633,-0.8540895387434873,0.7141969757349163,-2.972269002882089
99,-1.1078374024403452,-2.074708751491948,-0.4475188493529334,-1.976701821691805,2.4315950829674695,1.0745393230195628,-0.11769531193019646,0.37377786032925475,0.4588964883219387,-0.7742132229793235,0.6943474172251347,-2.8603148193680097
100,-1.0974346048956476,-2.0924126321384304,-0.48199638457346206,-2.0224870658245733,2.4763659173873505,1.0159374303035547,-0.12629138605652457,0.3759748720231117,0.44152449816577766,-0.700461766559649,0.6636644474264688,-2.75948518033897
101,-1.08723051247259,-2.109778348772564,-0.5158153601324758,-2.067397760350312,2.520281578565503,0.9584548995832431,-0.13429971193694695,0.37738394490495775,0.42472988163683506,-0.6351520103868808,0.6247558490468446,-2.6726229388309886
102,-1.0772368137077402,-2.1267860093936224,-0.5489370372263562,-2.1113824611744887,2.5632917621935922,0.9021575756819074,-0.14174229469743926,0.3781186765824862,0.4085275636758393,-0.5782727868256149,0.5799698494003972,-2.599761432922699
103,-1.067453508601098,-2.143435614001606,-0.5813614158551008,-2.1544411682971027,2.605396468271614,0.8470454585995437,-0.14865013623504714,0.378280974390592,0.3929029633395443,-0.5289851379939788,0.5313554360358219,-2.540066125504428
104,-1.0578805971526624,-2.159727162596515,-0.6130884960187113,-2.196573881718156,2.646595696799574,0.7931185483361594,-0.1550525542957463,0.37795870244952723,0.37783461175412636,-0.4861055310414305,0.480645099201782,-2.492341350076434
105,-1.0485180793624347,-2.1756606551783486,-0.6441182777171877,-2.237780601437648,2.6868894477774665,0.7403768448917507,-0.16097667872885754,0.3772266122928303,0.3632967298253028,-0.4483738813403844,0.4292662446165905,-2.455288408037212
106,-1.0393659552304138,-2.1912360917471077,-0.6744507609505295,-2.2780613274555783,2.7262777212052933,0.6888203482663169,-0.1664471855445053,0.3761475184275712,0.34926140161385755,-0.4146062278822212,0.3783781067173535,-2.4276482212186052
107,-1.030424224756601,-2.2064534723027913,-0.7040859457187385,-2.317416059771946,2.764760517083057,0.6384490584598597,-0.17148623095417423,0.37477362343000736,0.3357003445433444,-0.3837676402566147,0.32891459861299427,-2.4082644591579836
108,-1.0216928879409952,-2.2213127968454005,-0.7330238320218116,-2.3558447983867525,2.8023378354107553,0.5892629754723764,-0.1761135459565475,0.37314791126682917,0.32258629284952534,-0.3549977244594093,0.2816235333323194,-2.396100037560806
109,-1.0131719447835965,-2.2358140653749348,-0.7612644198597511,-2.393347543299999,2.839009676188388,0.5412620993038679,-0.1803466525800829,0.3713055420286625,0.3098940221868341,-0.32761099209493455,0.2370987564015231,-2.3902299522421937
110,-1.0048613952844059,-2.2499572778913937,-0.7888077092325556,-2.4299242945116815,2.8747760394159565,0.49444642995433785,-0.18420116513886134,0.3692751954367087,0.29760105136506176,-0.30108525979551615,0.19580485075602522,-2.3898244338217736
111,-0.9967612394434218,-2.263742434394777,-0.8156537001402269,-2.465575052021804,2.9096369250934613,0.44881596742377994,-0.18769114334190004,0.3670803237830332,0.2856880621803437,-0.27504502679539805,0.15809542731476767,-2.394130216489766
112,-0.9888714772606455,-2.2771695348850884,-0.8418023925827649,-2.500299815830365,2.9435923332208986,0.4043707117121986,-0.19082946839656376,0.36474028700287087,0.274139080662802,-0.24924309499789282,0.12422646060380943,-2.40245392793804
113,-0.9811921087360767,-2.290238579362323,-0.8672537865601662,-2.5340985859373637,2.9766422637982712,0.3611106628195939,-0.19362821799171973,0.3622713531117562,0.2629414632444507,-0.22354175591610084,0.09436615518536223,-2.4141494130186882
114,-0.973723133869715,-2.302949567826482,-0.8920078820724333,-2.5669713623428,3.00878671682558,0.3190358207459649,-0.1960990209215855,0.359687556153186,0.2520857298065773,-0.1978940008398578,0.0686026732225079,-2.4286095360075453
115,-0.966464552661561,-2.315302500277567,-0.9160646791195663,-2.5989181450466754,3.040025692302822,0.27814618549131076,-0.19825337686371072,0.3570014110757791,0.24156528272318906,-0.17232495000919812,0.04695081997949054,-2.445262246208484
116,-0.9594163651116141,-2.3272973767155767,-0.9394241777015662,-2.629938934048992,3.0703591902299996,0.23844175705563142,-0.20010293126141815,0.3542244906520151,0.2313760472655704,-0.14691373984910647,0.02935851537935673,-2.4635702170766036
117,-0.9525785712198744,-2.3389341971405115,-0.9620863778184319,-2.6600337293497445,3.099787210607114,0.1999225354389278,-0.20165969924613023,0.35136787377953166,0.22151606441542943,-0.12177625641804556,0.01571359832509431,-2.4830330842605726
118,-0.9459511709863426,-2.350212961552371,-0.9840512794701617,-2.6892025309489345,3.128309753434161,0.16258852064120077,-0.20293623598276597,0.3484424774242495,0.21198506254168833,-0.09704923170006743,0.00585123640187723,-2.503191182123061
119,-0.939534164411018,-2.361133669951156,-1.0053188826567583,-2.717445338846564,3.1559268187111433,0.1264397126624477,-0.2039457536897946,0.34545928624760336,0.20278402976747853,-0.07287625691782666,-0.000438030877863466,-2.5236297006854658
120,-0.9333275514939003,-2.371696322336866,-1.0258891873782199,-2.7447621530426316,3.1826384064380644,0.09147611150266854,-0.20470218786831285,0.3424294947916423,0.1939148043769844,-0.04939619173597376,-0.0033997803389924797,-2.5439823375679103
121,-0.9273313322349905,-2.3819009187095013,-1.0457621936345474,-2.771152973537138,3.2084445166149163,0.05769771716186689,-0.2052202169935369,0.3393645771576432,0.18537969642656743,-0.026734277376997195,-0.0033070165830586563,-2.5639337666362794
122,-0.9215455066342877,-2.3917474590690615,-1.0649379014257416,-2.7966178003300817,3.2333451492417034,0.02510452964004095,-0.20551524111984365,0.3362762985784721,0.17718114992852582,-0.004996037718003361,-0.00045165353404949933,-2.583220536803632
123,-0.9159700746917925,-2.401235943415546,-1.083416310751801,-2.821156633421462,3.2573403043184275,-0.00630345106281105,-0.2056033255835758,0.3331766823094499,0.16932145162914042,0.015736174268619348,0.004863496162681159,-2.601630298245454
124,-0.9106050364075049,-2.4103663717489563,-1.1011974216127252,-2.844769472811284,3.280429981845085,-0.03652622494668556,-0.20550111632106707,0.3300779439859247,0.1618024895344705,0.035404314052818055,0.012331943757792603,-2.618999486675354
125,-0.9054503917814243,-2.4191387440692913,-1.1182812340085153,-2.867456318499542,3.302614181821676,-0.06556379201158435,-0.2052257333210121,0.3269924041369503,0.15462556195152025,0.05397391743175716,0.021649764519263856,-2.635209754922674
126,-0.9005061408135513,-2.427553060376552,-1.1346677479391705,-2.8892171704862397,3.3238929042482033,-0.09341615225750743,-0.20479464846822393,0.3239323880019391,0.14779123589303048,0.0714320062345386,0.03252075459985843,-2.650183520080605
127,-0.895772283503885,-2.4356093206707397,-1.1503569634046942,-2.9100520287713767,3.3442661491246666,-0.12008330568445658,-0.20422555357440417,0.3209101202496768,0.14129925221098055,0.08778411368770449,0.04466049015107511,-2.66387900465074
128,-0.8912488198524269,-2.44330752495185,-1.1653488804050811,-2.9299608933549504,3.363733916451066,-0.14556525229242823,-0.20353622378977237,0.3179376207071533,0.13514847373653616,0.10305085692780622,0.05779934322259891,-2.6762851107323558
129,-0.8869357498591759,-2.450647673219886,-1.1796434989403348,-2.9489437642369642,3.382296206227399,-0.16986199208142594,-0.20274438089936025,0.3150266058132496,0.12933687196624416,0.11726440123056003,0.07168455685225712,-2.687416398673627
130,-0.8828330735241325,-2.4576297654748465,-1.1932408190104526,-2.9670006414174184,3.3999530184536653,-0.19297352505144794,-0.20186756027408292,0.3121883992492562,0.12386154739656895,0.13046507059502593,0.08608150896457523,-2.697308364188677
131,-0.8789407908472953,-2.464253801716733,-1.2061408406154372,-2.984131524896309,3.4167043531298686,-0.21489985120249422,-0.200922984506193,0.30943385408200913,0.11871877842169416,0.14269827495906995,0.1007743045381482,-2.7060131340748863
132,-0.8752589018286667,-2.4705197819455433,-1.2183435637552886,-3.0003364146736367,3.4325502102560046,-0.2356409705345648,-0.1999274460406986,0.3067732877940232,0.113904093725225,0.1540118527964521,0.11556583244446271,-2.7135956381942807
133,-0.8717874064682454,-2.4764277061612794,-1.2298489884300041,-3.0156153107494035,3.4474905898320802,-0.25519688304765964,-0.19889720044106204,0.30421643076831134,0.10941236327015187,0.16445387198388955,0.13027741191267925,-2.720130267587335
134,-0.8685263047660308,-2.48197757436394,-1.2406571146395864,-3.029968213123606,3.461525491858085,-0.27356758874178055,-0.19784787131479964,0.3017723881377794,0.10523790328276834,0.17407089136823828,0.14474813760579877,-2.725697995535698
135,-0.8654755967220242,-2.4871693865535263,-1.2507679423840328,-3.04339512179625,3.474654916334032,-0.29075308761692575,-0.19679436738286496,0.29944961439008433,0.10137459099917964,0.18290665838651188,0.15883401475263198,-2.7303839182805705
136,-0.8626352823362249,-2.492003142730037,-1.260181471663345,-3.055896036767331,3.486878863259907,-0.30675337967309346,-0.1957508117114043,0.2972558997257966,0.09781598536679517,0.19100120164741283,0.17240695868019665,-2.734275162314171
137,-0.860005361608633,-2.496478842893474,-1.2688977024775259,-3.0674709580368518,3.498197332635719,-0.32156846491028723,-0.19473048273744265,0.29519836688626455,0.09455545034179604,0.1983902687906326,0.18535371764208758,-2.7374591029550053
138,-0.8575858345392482,-2.5005964870438353,-1.2769166348265708,-3.07811988560481,3.5086103244614684,-0.33519834332850706,-0.1937457664099208,0.2932834769826427,0.09158627787591143,0.20510505676371152,0.1975747646305849,-2.7400218418295403
139,-0.8553767011280704,-2.504356075181122,-1.2842382687104799,-3.0878428194712058,3.5181178387371492,-0.34764301492774763,-0.1928081185306695,0.29151704275435364,0.08890180812523432,0.2111721819625247,0.2089831930531399,-2.7420468968980027
140,-0.8533779613751005,-2.507757607305334,-1.2908626041292557,-3.0966397596360427,3.5267198754627707,-0.3589024797080196,-0.19192803621121074,0.28990424764961886,0.08649554482776059,0.2166138400524508,0.21950364263104105,-2.743614066238601
141,-0.8515896152803379,-2.51080108341647,-1.2967896410828965,-3.1045107060993153,3.534416434638322,-0.3689767376693087,-0.19111503725440127,0.2884496691395686,0.08436126417580217,0.22144810875833482,0.2290712753699438,-2.7447984348324015
142,-0.8500116628437828,-2.5134865035145335,-1.302019379571405,-3.1114556588610274,3.5412075162638086,-0.3778657888116257,-0.19037764621812187,0.2871573047392083,0.08249311584865213,0.22568935087676262,0.23763081662014265,-2.7456695013159313
143,-0.8486441040654351,-2.5158138675995207,-1.3065518195947776,-3.1174746179211787,3.5470931203392304,-0.38556963313496695,-0.18972338591451085,0.28603059930295865,0.08088571516677572,0.2293486788832315,0.24513567273753084,-2.7462904086115243
144,-0.8474869389452948,-2.5177831756714326,-1.3103869611530161,-3.1225675832797677,3.5520732468645875,-0.3920882706393307,-0.18915877313574195,0.2850724722810191,0.07953422558038528,0.2324344466163323,0.25154713434597076,-2.7467172682357965
145,-0.8465401674833606,-2.51939442773027,-1.3135248042461205,-3.126734554936794,3.5561478958398833,-0.3974217013247223,-0.18868931746965062,0.2842853437583418,0.07843443091365833,0.23495273756940047,0.2568336723993809,-2.746998572802647
146,-0.8458037896796355,-2.520647623776031,-1.3159653488740908,-3.129975532892262,3.5593170672651073,-0.40156992519113643,-0.18831952216953615,0.2836711582448775,0.07758279695334987,0.2369078233151847,0.2609703329094838,-2.747174694765032
147,-0.8452778055341166,-2.5215427638087182,-1.317708595036927,-3.1322905171461652,3.5615807611402737,-0.40453294223857483,-0.18805288616685692,0.28323140533969726,0.07697652210087064,0.23830256956325513,0.2639382351559153,-2.7472774718406
148,-0.8449622150468055,-2.522079847828331,-1.318754542734629,-3.133679507698508,3.56293897746537,-0.4063107524670375,-0.18789190645836892,0.28296713654942,0.07661357690452214,0.23913877133958394,0.2657241772921799,-2.7473298809533584
149,-0.8448570182177022,-2.522258875834868,-1.3191031919671952,-3.1341425045492883,3.5633917162404014,-0.4069033558765245,-0.18783808025638396,0.2828789777010441,0.07649273235862303,0.23941740280825424,0.2663203524120459,-2.7473458030465645
