nimar13/UR3e_dataset_trayectorias/data/trayectorias_completas_UR3e_TRAPEZOIDAL/trayectoria_295.csv
Punto,shoulder_pan_joint,shoulder_lift_joint,elbow_joint,wrist_1_joint,wrist_2_joint,wrist_3_joint,Posicion_X,Posicion_Y,Posicion_Z,Roll,Pitch,Yaw
0,-4.560978596037007,3.9957988785896843,0.9444275275378358,0.09687496839309517,-0.12799787121504913,3.2227202270818616,-0.2143109638453663,-0.06646592956087861,0.5146260703418929,1.979416922152449,0.12378881857063236,-2.953558928835672
1,-4.560215677473064,3.9957842386174405,0.9445184099760765,0.09663597135620995,-0.12841072839741483,3.2226378211096085,-0.2142565001010957,-0.06662146166459089,0.5145968173797494,1.979187839531849,0.1241869232936254,-2.9526818755538975
2,-4.5579269217812355,3.9957403187007086,0.9447910572907987,0.09591898024555427,-0.1296492999445119,3.222390603192849,-0.2140923499712148,-0.06708771817583904,0.5145090452866047,1.9785008266166235,0.1253814652139925,-2.950051415707714
3,-4.554112328961521,3.995667118839489,0.9452454694820025,0.09472399506112814,-0.13171358585634038,3.221978573331583,-0.21381624067717397,-0.0678636728137641,0.5143627149787874,1.9773565846127406,0.1273731256274692,-2.945669648262628
4,-4.548771899013921,3.9955646390337813,0.9458816465496876,0.09305101580293156,-0.13460358613290024,3.221401731525811,-0.21342439739250316,-0.06894759224063729,0.5141577631058102,1.9757562700795595,0.13016303351324168,-2.939540068100178
5,-4.541905631938436,3.995432879283586,0.9466995884938544,0.09090004247096452,-0.1383193007741915,3.2206600777755328,-0.21291156328244046,-0.07033700199613657,0.5138941047363486,1.9737014767367203,0.13375275581338214,-2.931667561085854
6,-4.533513527735065,3.9952718395889026,0.9476992953145026,0.08827107506522704,-0.14286072978021414,3.2197536120807477,-0.2122710282195945,-0.07202863928929543,0.5135716371235085,1.9711942099567075,0.13814428392287093,-2.9220583974849217
7,-4.5235955864038075,3.9950815199497316,0.9488807670116323,0.0851641135857191,-0.14822787315096816,3.2186823344414566,-0.21149466682229479,-0.07401839314711843,0.5131902445539214,1.968236853899851,0.14334001648625927,-2.910720224051479
8,-4.512151807944665,3.994861920366073,0.9502440035852434,0.0815791580324407,-0.15442073088645358,3.2174462448576593,-0.2105729866272837,-0.07630123258247011,0.5127498042859603,1.9648321312270438,0.14934273862053143,-2.8976620552158137
9,-4.499182192357637,3.994613040837926,0.951789005035336,0.07751620840539186,-0.16143930298667042,3.216045343329356,-0.20949518735791783,-0.07887112362243416,0.5122501935827621,1.9609830552966117,0.15615559770429968,-2.8828942639002464
10,-4.484686739642723,3.9943348813652912,0.9535157713619101,0.07297526470457256,-0.16928358945161862,3.2144796298565455,-0.20824923237885087,-0.08172093623433867,0.5116912978456095,1.9566928747133394,0.16378207589041271,-2.8664285726057894
11,-4.468665449799923,3.9940274419481687,0.9554243025649658,0.06795632692998281,-0.1779535902812982,3.2127491044392293,-0.20682193353370426,-0.0848423424019157,0.5110730198525498,1.9519650100469295,0.17222595951179323,-2.8482780455329655
12,-4.451118322829238,3.9936907225865586,0.9575145986445028,0.062459395081622626,-0.18744930547570918,3.2108537670774067,-0.20519905063849192,-0.08822570683972052,0.5103952901057773,1.946802982471109,0.18149130555811888,-2.8284570826324313
13,-4.432045358730668,3.9933247232804603,0.9597866596005215,0.05648446915949197,-0.19777073503485154,3.208793617771078,-0.20336540694510472,-0.0918599720902907,0.5096580782891763,1.941210333989425,0.19158240540316487,-2.8069814166273686
14,-4.4114465575042106,3.992929444029874,0.9622404854330215,0.050031549163590865,-0.20891787895872532,3.2065686565202425,-0.20130502189018817,-0.09573254002485139,0.5088614058344773,1.9351905388049613,0.20250374595855838,-2.7838681142136
15,-4.389321919149869,3.9925048848348,0.9648760761420031,0.043100635093919315,-0.22089073724733044,3.204178883324901,-0.1990012623990859,-0.09982915206277321,0.5080053595905734,1.9287469052533095,0.21425996841853726,-2.7591355828296584
16,-4.36567144366764,3.9920510456952383,0.9676934317274662,0.0356917269504773,-0.233689309900667,3.201624298185053,-0.19643701391579593,-0.10413377073428294,0.507090106585611,1.921882467544506,0.22685582474126237,-2.7328035846031336
17,-4.340495131057527,3.9915679266111885,0.9706925521894108,0.02780482473326483,-0.24731359691873495,3.1989049011006987,-0.19359487217164967,-0.1086284655303439,0.5061159098654231,1.9145998663419799,0.2402961319843194,-2.7048932593293276
18,-4.313792981319528,3.991055527582651,0.9738734375278368,0.019439928442281942,-0.26176359830153423,3.196020692071838,-0.19045735648129314,-0.1132933063068669,0.505083145384622,1.9069012169347288,0.2545857245741466,-2.6754271586326683
19,-4.285564994453643,3.9905138486096257,0.9772360877427443,0.010597038077528556,-0.277039314049065,3.192971671098471,-0.18700714505858831,-0.11810626782926009,0.5039923199181419,1.8987879634200477,0.2697294045398008,-2.6444292938130833
20,-4.2558111704598725,3.9899428896921125,0.9807805028341333,0.00127615363900474,-0.29314074416132707,3.189757838180598,-0.1832273324719075,-0.1230431493477494,0.5028440899511194,1.8902607168920986,0.2857318896790403,-2.611925200304199
21,-4.224531509338216,3.9893426508301113,0.9845066828020038,-0.00852272487328952,-0.3100678886383205,3.1863791933182184,-0.17910170890372867,-0.12807751337183645,0.5016392814936854,1.8813190751057423,0.3025977595468836,-2.5779420221884117
22,-4.191726011088674,3.9887131320236224,0.9884146276463558,-0.018799597459354264,-0.3278207474800454,3.1828357365113327,-0.174615060340641,-0.1331806480496369,0.5003789107544385,1.8719614204289126,0.3203313990606415,-2.542508620852251
23,-4.157394675711246,3.9880543332726455,0.9925043373671893,-0.02955446411918941,-0.3463993206865017,3.1791274677599404,-0.16975348819596142,-0.13832155773867996,0.4990642055920219,1.8621846920760314,0.3389369393971338,-2.50565571265851
24,-4.121537503205933,3.987366254577181,0.9967758119645043,-0.040787324852795015,-0.3658036082576893,3.175254387064042,-0.16450474615976288,-0.14346698646117528,0.497696627648324,1.851984127584778,0.3584181957121431,-2.4674160415051576
25,-4.084154493572734,3.986648895937228,1.0012290514383007,-0.052498179660171146,-0.38603361019360843,3.171216494423637,-0.15885859128484317,-0.14858147894941154,0.49627789504931485,1.841352967199946,0.3787786010322997,-2.4278245933945692
26,-4.045245646811649,3.985902257352788,1.0058640557885787,-0.06468702854131764,-0.40708932649425883,3.167013789838726,-0.15280714546026117,-0.15362748388517994,0.49481000554046367,1.830282113183021,0.4000211354461264,-2.38691886172964
27,-4.004810962922679,3.9851263388238594,1.010680825015338,-0.07735387149623463,-0.4289707571596406,3.1626462733093086,-0.14634526250895913,-0.15856550369966677,0.4932952599030162,1.8187597339701795,0.42214824944130414,-2.3447391740914223
28,-3.962850441905823,3.9843211403504433,1.015679359118579,-0.09049870852492206,-0.45167790218975384,3.1581139448353848,-0.1394708951898644,-0.16335429490577202,0.4917362854752693,1.8067708004144676,0.44516177988195615,-2.3013290938777256
29,-3.9193640837610815,3.9834866619325395,1.0208596580983014,-0.10412153962737994,-0.4752107615845984,3.153416804416955,-0.13218545541011292,-0.16795112236284362,0.49013605957938305,1.7942965378797706,0.46906285666925995,-2.2567359135854415
30,-3.874351888488454,3.9826229035701477,1.0262217219545053,-0.11822236480360826,-0.4995693353441744,3.1485548520540183,-0.1244941599876984,-0.1723120701057282,0.4884979326293464,1.7813137734458224,0.493851797548023,-2.2110112609619703
31,-3.827813856087941,3.9817298652632678,1.0317655506871906,-0.13280118405360708,-0.5247536234684819,3.1435280877465757,-0.11640635338283509,-0.17639241039030504,0.48682565066964295,1.7677941515778186,0.5195279877653483,-2.1642118450917773
32,-3.7797499865595423,3.9808075470119,1.0374911442963575,-0.14785799737737632,-0.5507636259575206,3.1383365114946264,-0.10793579797737152,-0.18014703140523083,0.485123377067081,1.753703183816873,0.5460897402909414,-2.116400377218876
33,-3.7301602799032576,3.979855948816045,1.0433985027820059,-0.16339280477491597,-0.5775993428112907,3.132980123298171,-0.0991009217712154,-0.1835309226694214,0.4833957130504444,1.7389990876666144,0.5735341309810651,-2.0676467114285515
34,-3.6790447361190877,3.9788750706757017,1.0494876261441357,-0.1794056062462262,-0.6052607740297924,3.1274589231572096,-0.08992501283345214,-0.18649971547946975,0.4816477167643427,1.723631355911411,0.6018568012795926,-2.018029264198681
35,-3.626403355207032,3.9778649125908703,1.055758514382747,-0.19589640179130674,-0.6337479196130252,3.1217729110717416,-0.08043634954845397,-0.18901027390280115,0.4798849204752378,1.7075389787149737,0.6310517186122228,-1.967636790672161
36,-3.5722361371670908,3.9768254745615517,1.0622111674978398,-0.21286519141015775,-0.6630607795609895,3.1159220870417674,-0.07066825569135526,-0.19102132975409566,0.47811334553949725,1.6906482150220903,0.6611108812693303,-1.9165706212907594
37,-3.5165430819992634,3.9757567565877445,1.068845585489414,-0.2303119751027793,-0.6931993538736854,3.1099064510672867,-0.060659069711355054,-0.19249415278037507,0.4763395147159156,1.672869774135053,0.6920239498835815,-1.8649474980543805
38,-3.4593241897035503,3.9746587586694497,1.07566176835747,-0.2482367528691713,-0.7241636425511125,3.1037260031483,-0.050452018352559934,-0.19339324496444055,0.474570461378971,1.6540952186426583,0.7237777809837891,-1.8129031993465163
39,-3.4005794602799524,3.9735314808066673,1.0826597161020073,-0.2666395247093337,-0.755953645593271,3.0973807432848064,-0.04009498595324129,-0.1936870455026948,0.47281373516474456,1.634192329928778,0.7563558286271453,-1.7605972122121034
40,-3.3403088937284684,3.9723749229993968,1.089839428723026,-0.28552029062326656,-0.7885693630001609,3.090870671476807,-0.029640172480501333,-0.19334863070348082,0.4710774035595252,1.6129990780535828,0.7897373663663539,-1.708218810414837
41,-3.2785124900490983,3.9711890852476386,1.0972009062205264,-0.3048790506109698,-0.8220107947717821,3.084195787724301,-0.019143635611630898,-0.19235639088366563,0.4693700489224111,1.590315695105906,0.8238964615988408,-1.6559950393152685
42,-3.215190249241843,3.9699739675513923,1.104744148594508,-0.3247158046724436,-0.8562779409081347,3.077356092027289,-0.008664714983046811,-0.19069466442721308,0.4677007604184337,1.5658941445370336,0.858800604204235,-1.6042013152323715
43,-3.1503421713067024,3.9687295699106584,1.1124691558449713,-0.34503055280768774,-0.8913708014092188,3.0703515843857705,0.0017346599109430087,-0.18835430763637295,0.46607912032873355,1.5394239776673198,0.8944088457566858,-1.553175648317187
44,-3.0839682562436748,3.9674558923254364,1.120375927971916,-0.3658232950167026,-0.9272893762750344,3.0631822647997455,0.011990772803310857,-0.18533317799066448,0.4645151841999737,1.5105131269345198,0.9306692355152825,-1.5033379396510154
45,-3.0160685040527624,3.9661529347957267,1.1284644649753421,-0.38709403129948766,-0.9640336655055812,3.0558481332692145,0.022039025009630734,-0.18163650807421422,0.4630194542974447,1.478661538086703,0.9675152301390806,-1.4552164507228016
46,-2.9466429147339643,3.964820697321529,1.1367347668552499,-0.40884276165604316,-1.0016036691008594,3.048349189794177,0.03181492662204478,-0.17727714788174645,0.4616028458361792,1.4432246025744382,1.004860581396381,-1.4094844844798704
47,-2.8756914882872806,3.9634591799028436,1.145186833611639,-0.4310694860863692,-1.039999387060869,3.040685434374633,0.041255155153287995,-0.17227565460472208,0.4602766454828445,1.4033620180704953,1.0425919300958384,-1.3670116505797667
48,-2.803214224712711,3.9620683825396705,1.1538206652445098,-0.4537742045904656,-1.0792208193856099,3.032856867010583,0.05029865721629221,-0.16666021145354157,0.45905246164928754,1.3579659305669274,1.0805578902414572,-1.3289358620727751
49,-2.7292111240102566,3.9606483052320094,1.162636261753862,-0.47695691716833244,-1.1192679660750822,3.0248634877020266,0.058887763940767765,-0.16046636068618408,0.45794216613736954,1.3055602123472878,1.1185526946196562,-1.296764210037251
50,-2.653766954909242,3.959200574643443,1.171623525091002,-0.5005910685936494,-1.1600949541090233,3.016714452668103,0.06696060663867112,-0.15374429847837903,0.45695884606929676,1.2442357775775597,1.1562496999756315,-1.272533567575755
51,-2.57798371089092,3.957746337400546,1.180651180622916,-0.5243314409242485,-1.2011054342240155,3.0085287927576223,0.07436935237683086,-0.14664910861062092,0.45612512927602333,1.1724899799606952,1.192733851841599,-1.259012540945512
52,-2.5022004668725986,3.9562921001576488,1.1896788361548298,-0.5480718132548477,-1.2421159143390077,3.000343132847142,0.08107777101838123,-0.13927958685284209,0.4554483149394422,1.087868794540077,1.227381676266373,-1.2590350093973377
53,-2.426417222854277,3.954837862914752,1.1987064916867438,-0.5718121855854468,-1.2831263944540003,2.9921574729366616,0.08709419735654295,-0.1317016733361771,0.45493045295600787,0.9870692108516673,1.2595741114663548,-1.2758992002682503
54,-2.3506339788359547,3.953383625671855,1.2077341472186576,-0.5955525579160457,-1.3241368745689925,2.983971813026181,0.09243297548963866,-0.12397715518313009,0.45457309751603264,0.8664078404401621,1.2884705006218047,-1.3132850843200798
55,-2.2748507348176332,3.951929388428958,1.2167618027505716,-0.6192929302466448,-1.3651473546839847,2.975786153115701,0.09711369384594917,-0.11616314518611306,0.4543773018309541,0.7225691990532452,1.3129675780259338,-1.3745060652659131
56,-2.199067490799311,3.950475151186061,1.2257894582824855,-0.6430333025772441,-1.4061578347989774,2.9676004932052202,0.10116037982531643,-0.10831167672029071,0.4543436144589645,0.5542604636829299,1.331724363653826,-1.4608541995270694
57,-2.1232842467809894,3.949020913943164,1.2348171138143993,-0.6667736749078432,-1.4471683149139696,2.9594148332947396,0.10460067037960497,-0.10046941710389101,0.45447207724087907,0.36468018518209705,1.3433399941918152,-1.5691314652470858
58,-2.047501002762668,3.947566676700267,1.2438447693463133,-0.6905140472384423,-1.4881787950289618,2.951229173384259,0.10746497479018276,-0.09267749942179478,0.45476222485287143,0.1632459370730175,1.3467329291017633,-1.689922099712473
59,-1.9717177587443464,3.94611243945737,1.2528724248782273,-0.7142544195690415,-1.5291892751439544,2.9430435134737785,0.1097856455486573,-0.08497147068116484,0.4552130859774672,-0.03609479334331808,1.3415764402675472,-1.8092816988472502
60,-1.895934514726024,3.9446582022144727,1.261900080410141,-0.7379947918996406,-1.5701997552589466,2.9348578535632983,0.1115961726188579,-0.07738135210805622,0.45582318608890754,-0.22013278375172746,1.3284594669585355,-1.9140053907378025
61,-1.8201512707077026,3.943203964971576,1.2709277359420548,-0.7617351642302395,-1.6112102353739388,2.9266721936528177,0.11293041546976733,-0.06993180545624901,0.4565905518437648,-0.38103069959751856,1.3086213936277398,-1.9962614571086248
62,-1.7443680266893802,3.941749727728679,1.279955391473969,-0.7854755365608388,-1.6522207154889315,2.918486533742337,0.11382188614139153,-0.06264239741612851,0.4575127170624525,-0.5169557561032955,1.2835006841443064,-2.0542239977633
63,-1.6685847826710587,3.9402954904857816,1.2889830470058827,-0.8092159088914379,-1.6932311956039237,2.910300873831857,0.11430309526295054,-0.05552795261119973,0.4585867302821245,-0.6299189461412749,1.2544040838391772,-2.0899121643797725
64,-1.5928015386527372,3.938841253242885,1.2980107025377965,-0.832956281222037,-1.7342416757189159,2.9021152139213764,0.11440497141318298,-0.04859898427797473,0.4598091638563307,-0.7234382878172677,1.2223781302852335,-2.1068534172795212
65,-1.5170182946344157,3.9373870159999877,1.3070383580697105,-0.8566966535526361,-1.7752521558339085,2.893929554010896,0.1141563625268055,-0.041862190562631865,0.46117612457178,-0.8011376275420536,1.1882102443458726,-2.1086823406912543
66,-1.4412350506160934,3.935932778757091,1.3160660136016245,-0.8804370258832352,-1.8162626359489007,2.885743894100415,0.11358362624232755,-0.03532100345170302,0.46268326574763485,-0.8661698065270693,1.1524778984317907,-2.0985638241652493
67,-1.365451806597771,3.934478541514194,1.3250936691335382,-0.9041773982138346,-1.8572731160638933,2.8775582341899346,0.1127103141892488,-0.028976176696149075,0.46432580077792546,-0.9210853699032708,1.1156027221976659,-2.0790617890224308
68,-1.2896685625794495,3.9330243042712967,1.3341213246654522,-0.9279177705444335,-1.8982835961788855,2.8693725742794545,0.11155695326295162,-0.02282639869580485,0.4660985180730126,-0.9678821439640624,1.0778949009679633,-2.052188784981003
69,-1.213885318561128,3.9315700670284,1.3431489801973662,-0.9516581428750326,-1.9392940762938777,2.861186914368974,0.11014092496947642,-0.016868916186697874,0.4679957973514539,-1.0081057653246057,1.039585923154286,-2.0195065403408385
70,-1.1381020745428065,3.930115829785503,1.35217663572928,-0.9753985152056317,-1.98030455640887,2.8530012544584933,0.10847644197575265,-0.011100154714757931,0.4700116272292652,-1.042949576172292,1.0008517044903216,-1.9822258794220435
71,-1.0623188305244842,3.9286615925426056,1.3612042912611937,-0.9991388875362308,-2.0213150365238626,2.844815594548013,0.10657461910869936,-0.0055163222787892666,0.4721396240493385,-1.0733380171634206,0.9618286704148368,-1.9412901382542194
72,-0.9865355865061627,3.927207355299709,1.370231946793108,-1.02287925986683,-2.0623255166388548,2.8366299346375325,0.10444363424239186,-0.00011398317158712971,0.47437305188977463,-1.0999915858757412,0.9226249302501645,-1.897440145771628
73,-0.9107523424878403,3.9257531180568117,1.3792596023250216,-1.0466196321974293,-2.1033359967538474,2.828444274727052,0.10208897282755808,0.0051094100751396514,0.4767048436860293,-1.1234759315352416,0.8833280921490811,-1.8512633404644308
74,-0.8349690984695188,3.9242988808139145,1.3882872578569354,-1.0703600045280284,-2.1443464768688396,2.8202586148165714,0.0995137482807933,0.010155037648697565,0.4791276233981995,-1.144238518894019,0.8440107867483672,-1.8032304544607989
75,-0.7591858544511982,3.922844643571018,1.3973149133888494,-1.0941003768586273,-2.1853569569838314,2.812072954906091,0.09671908908765814,0.015022296047569543,0.481633729151349,-1.1626359403762194,0.8047346212148977,-1.7537228430986167
76,-0.683402610432875,3.9213904063281206,1.4063425689207634,-1.1178407491892266,-2.2263674370988245,2.8038872949956106,0.09370458230641039,0.01970845260267916,0.48421523727364985,-1.178954316633508,0.7655530490282633,-1.7030528988888656
77,-0.6076193664145535,3.9199361690852235,1.4153702244526771,-1.1415811215198257,-2.2673779172138167,2.79570163508513,0.09046876220573905,0.024208377653767592,0.48686398715418305,-1.1934246202753618,0.7265134829039899,-1.6514793831882653
78,-0.531836122396232,3.9184819318423267,1.4243978799845913,-1.1653214938504248,-2.308388397328809,2.7875159751746494,0.08700963204463348,0.028514359436516066,0.4895716068396124,-1.2062342700309734,0.6876588733298218,-1.5992190211521682
79,-0.45605287837790964,3.9170276945994296,1.433425535516505,-1.189061866181024,-2.3493988774438015,2.7793303152641693,0.08332520651520295,0.032616004996373904,0.4923295392865334,-1.2175359751879553,0.6490289053157783,-1.546455337857553
80,-0.38026963435958816,3.9155734573565324,1.4424531910484188,-1.212802238511623,-2.3904093575587937,2.7711446553536887,0.07941406212516881,0.03650022866906859,0.4951290691842054,-1.2274545415724682,0.6106609191162219,-1.4933454446025975
81,-0.3044863903412667,3.9141192201136357,1.4514808465803328,-1.2365426108422222,-2.431419837673786,2.762958995443208,0.07527588279670523,0.0401513278886881,0.4979613502605101,-1.236092156674158,0.5725906289825282,-1.4400252903915547
82,-0.2287031463229452,3.9126649828707385,1.4605085021122468,-1.260282983172821,-2.472430317788778,2.754773335532728,0.07091198819870652,0.043551144334744794,0.5008174329824515,-1.2435325325499014,0.5348526923160988,-1.3866137542745989
83,-0.15291990230462282,3.9112107456278418,1.4695361576441606,-1.2840233555034202,-2.5134407979037703,2.7465876756222474,0.06632583280243903,0.04667930674150776,0.5036882925612265,-1.2498441853961761,0.49748116657155944,-1.3332158540677523
84,-0.07713665828630134,3.9097565083849446,1.4785638131760743,-1.3077637278340193,-2.554451278018763,2.738402015711767,0.06152346434388811,0.04951355009631056,0.5065648571709365,-1.2550830588640434,0.4605098807220324,-1.2799252747358534
85,-0.0013534142679798578,3.9083022711420474,1.4875914687079883,-1.3315041001646186,-2.595461758133755,2.7302163558012866,0.05651393127401992,0.052030104476517076,0.5094380362893279,-1.2592946462302808,0.4239727406001325,-1.2268263673171125
86,0.07442982975034163,3.9068480338991507,1.4966191242399023,-1.3552444724952175,-2.6364722382487473,2.722030695890806,0.05130962986127263,0.05420414544290537,0.5122987490685804,-1.2625157287204238,0.3879039820099002,-1.173995731000724
87,0.150213073768664,3.9053937966562535,1.505646779771816,-1.3789848448258164,-2.6774827183637395,2.7138450359803254,0.04592658285640005,0.056010296742844856,0.5151379526440832,-1.2647758195724939,0.3523383815216664,-1.1215034628251626
88,0.22599631778698637,3.9039395594133564,1.5146744353037302,-1.4027252171564162,-2.7184931984787326,2.705659376069845,0.04038464301316089,0.05742317509893926,0.5179466702893606,-1.2660983829834376,0.31731143187639504,-1.0694141386181715
89,0.30177956180530785,3.9024853221704596,1.523702090835644,-1.426465589487015,-2.759503678593725,2.6974737161593643,0.034707616252020734,0.05841796608319633,0.5207160193258445,-1.266501881868738,0.28285948663977284,-1.0177875732575143
90,0.3775628058236302,3.9010310849275625,1.5327297463675578,-1.4502059618176144,-2.800514158708717,2.689288056248884,0.02892330082908174,0.05897101951482148,0.523437238697,-1.2660006969395998,0.24901987695366778,-0.9666793966865337
91,0.4533460498419517,3.8995768476846653,1.5417574018994717,-1.4739463341482133,-2.8415246388237096,2.6811023963384035,0.023063440498897397,0.05906045247886767,0.5261017161174399,-1.2646059509134526,0.21583100179286055,-0.9161414733749217
92,0.5291292938602732,3.8981226104417686,1.5507850574313857,-1.4976867064788126,-2.882535118938702,2.672916736427923,0.0171635913071488,0.05866674794654683,0.5287010147090647,-1.2623262649548215,0.18333239195235984,-0.8662221863694863
93,0.6049125378785947,3.8966683731988714,1.5598127129632995,-1.5214270788094115,-2.923545599053694,2.664731076517443,0.011262903286895809,0.05777333708519746,0.5312268990379682,-1.2591684691242129,0.1515647470025282,-0.8169666022370151
94,0.680695781896917,3.895214135955974,1.5688403684952135,-1.5451674511400104,-2.9645560791686862,2.656545416606962,0.0054038199304183,0.0563671536718162,0.533671360467825,-1.2551382842607586,0.12056994361772425,-0.7684165297161051
95,0.7564790259152385,3.8937598987130775,1.5778680240271274,-1.5689078234706098,-3.0055665592836784,2.6483597566964816,-0.0003683001612098044,0.05443914955986681,0.5360266417477212,-1.2502409890074018,0.09039101299080565,-0.7206104825288198
96,0.83226226993356,3.8923056614701803,1.5868956795590412,-1.5926481958012086,-3.046577039398671,2.640174096786001,-0.006005633613767238,0.051984760882260506,0.5382852607549246,-1.2444820823455993,0.06107208448831896,-0.6735835553939686
97,0.9080455139518815,3.890851424227283,1.595923335090955,-1.616388568131808,-3.0875875195136633,2.6319884368755204,-0.011458407448979288,0.04900431558795813,0.540440033315859,-1.2378679488362447,0.0326582922908972,-0.6273672217212766
98,0.983828757970203,3.8893971869843864,1.604950990622869,-1.6401289404624069,-3.1285979996286555,2.6238027769650403,-0.016675470763139674,0.04550337398653542,0.5424840950315796,-1.2304065306083634,0.005195641523212669,-0.5819890616707349
99,1.0596120019885262,3.8879429497414892,1.613978646154783,-1.6638693127930062,-3.1696084797436486,2.6156171170545597,-0.021604913581221144,0.04149299519250699,0.5444109220373232,-1.2221080068847008,-0.021269169659650925,-0.5374724301690167
100,1.1350561710895395,3.886495219152923,1.6229659094919233,-1.6875034642183233,-3.2104354677775886,2.607468082020636,-0.026175019635486744,0.03701113773846615,0.5462065651363941,-1.213028107006792,-0.04657763772452674,-0.49402933418638867
101,1.209059271791995,3.885075141845262,1.6317815060012755,-1.7106861767961905,-3.250482614467062,2.5994747027120795,-0.030281816446932022,0.032161914304466147,0.5478435815876007,-1.2033441257125599,-0.07035138895083509,-0.45227674371556253
102,1.2815365353665635,3.8836843444820883,1.6404153376341462,-1.7333908953002868,-3.289704046791802,2.5916461353480296,-0.03389768981760126,0.02700327681309577,0.5493226260979658,-1.1931322642949096,-0.09258316496106443,-0.4122188381263483
103,1.3524879618132495,3.882322827063403,1.648867404390535,-1.7556176197306126,-3.328099764751812,2.583982379928486,-0.03700708128366216,0.02158939073753283,0.5506472232597784,-1.1824596748048297,-0.11329908753878533,-0.37380582543637175
104,1.4219135511320466,3.8809905895892056,1.6571377062704427,-1.777366350087168,-3.3656697683470904,2.5764834364534486,-0.039601029548366674,0.01597447394217611,0.5518215890829371,-1.1713939297867149,-0.13252958019892624,-0.3369839974262364
105,1.4898133033229595,3.8796876320594955,1.665226243273869,-1.7986370863699528,-3.4024140575776363,2.5691493049229175,-0.041676914758155076,0.01021194213487725,0.5528505431210134,-1.1600026479443968,-0.15030926444924575,-0.30169650308922075
106,1.5561872183859844,3.878413954474274,1.6731330154008137,-1.819429828578968,-3.438332632443452,2.561979985336892,-0.04323809309105329,0.004353641035687602,0.5537394242522246,-1.148353043021983,-0.1666768011919029,-0.2678841387159427
107,1.621035296321125,3.8771695568335396,1.680858022651277,-1.839744576714212,-3.4734254929445365,2.5549754776953737,-0.04429344346085863,-0.0015508242944708046,0.554494010537885,-1.1365114185831027,-0.1816746775145694,-0.2354861430516467
108,1.6843575371283794,3.8759544391372933,1.688401265025259,-1.8595813307756854,-3.5076926390808882,2.5481357819983614,-0.04485684778005196,-0.007454656956486022,0.5551204434855534,-1.1245426317925178,-0.19534894119712512,-0.2044409833918777
109,1.7461539408077549,3.874768601385535,1.6957627425227588,-1.8789400907633893,-3.541134070852511,2.5414608982458557,-0.04494662518729621,-0.013314330446096244,0.5556251569566201,-1.1125095489945374,-0.20774888722450405,-0.17468711709539889
110,1.8064245073592353,3.873612043578265,1.7029424551437775,-1.8978208566773214,-3.5737497882594003,2.534950826437856,-0.04458493909586749,-0.019089946848245717,0.5560148108786429,-1.1004725147446393,-0.21892670234386769,-0.1461637127846983
111,1.865169236782835,3.872484765715482,1.709940402888315,-1.9162236285174847,-3.6055397913015597,2.5286055665743628,-0.04379719400912536,-0.02474549496419276,0.5562962298513362,-1.0884888539824842,-0.22893707514254505,-0.11881131639558123
112,1.9223881290785485,3.871386767797188,1.716756585756371,-1.9341484062838767,-3.6365040799789865,2.522425118655376,-0.042611436913511644,-0.030249014502538085,0.5564763466715732,-1.0766124243241495,-0.23783678018087012,-0.09257244908085183
113,1.9780811842463741,3.8703180498233802,1.7233910037479454,-1.9515951899764978,-3.6666426542916826,2.5164094826808956,-0.04105777581548378,-0.03557267407570969,0.5565621507469265,-1.0648932321587594,-0.2456842453482666,-0.06739212656207916
114,2.0322484022863136,3.8692786117940616,1.729843656863038,-1.9685639795953485,-3.695955514239647,2.510558658650921,-0.039167825733710596,-0.0406927718502319,0.5565606413187668,-1.053377122570073,-0.2525391118095174,-0.04321829261382921
115,2.0848897831983724,3.8682684537092307,1.736114545101649,-1.985054775140429,-3.724442659822879,2.504872646565453,-0.0369741902700331,-0.04558966835814709,0.5564787853744708,-1.0421055492991171,-0.25846179568961997,-0.02000216269644846
116,2.136005326982543,3.8672875755688874,1.7422036684637792,-2.001067576611739,-3.7521040910413817,2.499351446424491,-0.03450998482213434,-0.05024766124905492,0.5563234800933855,-1.03111542724966,-0.2635130600552557,0.002301522923770888
117,2.185595033638828,3.8663359773730317,1.7481110269494275,-2.016602384009279,-3.77893980789515,2.4939950582280357,-0.03180840561082932,-0.05465481171027221,0.5561015196424539,-1.0204390666174454,-0.2677536048544547,0.023734334134216137
118,2.2336589031672247,3.865413659121664,1.7538366205585945,-2.031659197333048,-3.8049498103841897,2.488803481976087,-0.028902347003866735,-0.05880273196816544,0.5558195661143435,-1.0101041847579377,-0.2712436813525154,0.044334068890581356
119,2.280196935567737,3.8645206208147846,1.75938044929128,-2.0462380165830485,-3.8301340985084975,2.4837767176686443,-0.025824068141822587,-0.06268634276526708,0.555484124383027,-1.0001339895045704,-0.2740427363352268,0.0641347467910687
120,2.3252091308403635,3.863656862452393,1.7647425131474836,-2.0603388417592763,-3.854492672268072,2.478914765305708,-0.02260490861527029,-0.0663036090390442,0.5551015206386156,-0.9905473258644507,-0.2762090900219551,0.0831666694265709
121,2.3686954889851055,3.8628223840344886,1.7699228121272064,-2.073961672861734,-3.8780255316629173,2.4742176248872783,-0.019275051902517538,-0.06965526125708513,0.5546778843543027,-0.9813588768547575,-0.27779965031419424,0.10145653762786239
122,2.410656010001965,3.8620171855610725,1.7749213462304467,-2.0871065098904213,-3.900732676693031,2.4696852964133535,-0.015863334443989498,-0.07274450903171313,0.5542191334330892,-0.9725794086618598,-0.27886966476124764,0.11902761529356343
123,2.4510906938909347,3.861241267032144,1.7797381154572063,-2.099773352845339,-3.922614107358414,2.4653177798839363,-0.01239709758809928,-0.07557675277991786,0.5537309622801226,-0.9642160502361555,-0.2794725104999658,0.1358999295373007
124,2.4899995406520183,3.8604946284477037,1.7843731198074844,-2.1119622017264854,-3.9436698236590626,2.461115075299025,-0.008902079176323362,-0.07815929834094176,0.5532188325474604,-0.9562725977890271,-0.279659521451329,0.1520904973520479
125,2.527382550285216,3.859777269807751,1.7888263592812808,-2.1236730565338613,-3.963899825594982,2.4570771826586206,-0.005402341222437615,-0.08050107863696122,0.5526879663015594,-0.948749835335435,-0.27947985125008745,0.16761356975765349
126,2.563239722790529,3.8590891911122864,1.793097833878596,-2.1349059172674667,-3.98330411316617,2.453204101962722,-0.0019202299618540225,-0.08261238567956192,0.5521433413693582,-0.9416458633288306,-0.27898036974901375,0.18248088537853843
127,2.597571058167958,3.85843039236131,1.7971875435994296,-2.145660783927302,-4.0018826863726265,2.44949583321133,0.0015236355187309876,-0.08450461549889092,0.5515896886260939,-0.9349564284738145,-0.2782055904710481,0.19670192650311458
128,2.6303765564175006,3.8578008735548206,1.8010954884437809,-2.155937656513366,-4.019635545214351,2.4459523764044446,0.004910349833383329,-0.08619002791185809,0.5510314909967061,-0.9286752488986314,-0.27719762606763465,0.21028417182864123
129,2.661656217539157,3.85720063469282,1.8048216684116516,-2.1657365350256605,-4.036562689691346,2.4425737315420646,0.008222686689900498,-0.08768152245548061,0.5504729839524762,-0.9227943299606954,-0.2759961686619461,0.223233341232267
130,2.691410041532926,3.8566296757753067,1.8083660835030406,-2.175057419464184,-4.052664119803605,2.4393598986241916,0.011445046622101992,-0.08899243129325951,0.5499181572952062,-0.9173042669960058,-0.2746384918908826,0.23555362898414292
131,2.719638028398812,3.856087996802281,1.8117287337179484,-2.183900309828937,-4.067939835551138,2.4363108776508247,0.014563390356120365,-0.09013632945588479,0.5493707580324819,-0.9121945322740005,-0.2731594714884887,0.24724792279884186
132,2.7463401781368084,3.8555755977737434,1.8149096190563743,-2.19226520611992,-4.082389836933937,2.433426668621964,0.017565160872092332,-0.09112686240022301,0.5488342941592184,-0.9074537442622841,-0.27159162135488635,0.2583180069870551
133,2.771516490746924,3.855092478689694,1.8179087395183189,-2.2001521083371323,-4.096014123952005,2.43070727153761,0.020439196971204984,-0.09197759055878214,0.548312039172543,-0.9030699180307133,-0.269965142210264,0.26876474871100475
134,2.795166966229152,3.854638639550132,1.8207260951037818,-2.2075610164805752,-4.108812696605341,2.4281526863977616,0.02317564089805102,-0.09270185030098381,0.5478070371589754,-0.8990306962297676,-0.2683079801257077,0.2785882669633256
135,2.817291604583497,3.854214080355058,1.8233616858127633,-2.2144919305502464,-4.1207855548939465,2.42576291320242,0.025765842307585517,-0.093312630532379,0.5473221083047061,-0.8953235605683446,-0.2666458924379132,0.2877880843854387
136,2.837890405809949,3.853818801104472,1.8258155116452635,-2.2209448505461467,-4.13193269881782,2.423537951951585,0.028202260610918267,-0.09382246401286241,0.5468598546914059,-0.8919360240995943,-0.26500251878099484,0.29636326242632527
137,2.8569633699085237,3.853452801798374,1.8280875726012822,-2.2269197764682778,-4.14225412837696,2.4214778026452564,0.030478367489615937,-0.0942433323743394,0.5464226662513737,-0.8888558049112558,-0.2633994551969385,0.30431252062853775
138,2.8745104968792052,3.853116082436763,1.8301778686808194,-2.232416708316638,-4.1517498435713724,2.4195824652834332,0.03258855113766928,-0.09458658375667384,0.5460127267668349,-0.886070982021387,-0.26185632950954857,0.31163434102714177
139,2.890531786722006,3.8528086430196407,1.832086399883875,-2.237435646091229,-4.160419844401052,2.417851939866117,0.03452802357638902,-0.09486286195281078,0.5456320198088354,-0.8835701344137544,-0.26039087636014785,0.3183270587732249
140,2.905027239436924,3.8525304835470062,1.8338131662104489,-2.2419765897920483,-4.168264130866001,2.4162862263933067,0.0362927321916022,-0.09508204595485732,0.5452823345213312,-0.8813424642214902,-0.25901901050368414,0.3243889401573983
141,2.9179968550239472,3.852281604018859,1.8353581676605415,-2.2460395394190966,-4.175282702966218,2.4148853248650033,0.037879276465587954,-0.09525319881804,0.5449652711658332,-0.8793779050937772,-0.25775489714902977,0.32981824922389524
142,2.929440633483086,3.8520620044352007,1.8367214042341526,-2.249624494972375,-4.1814755607017045,2.413649235281206,0.03928483071809163,-0.09538452480485037,0.5446822463511876,-0.8776672167681778,-0.25661101829668287,0.3346133041406111
143,2.939358574814346,3.8518716847960293,1.8379028759312825,-2.252731456451883,-4.186842704072456,2.412577957641915,0.040507073531168496,-0.09548333383371806,0.5444344978819171,-0.8762020668289553,-0.2555982341804097,0.3387725244347702
144,2.9477506790177213,3.8517106451013463,1.8389025827519307,-2.2553604238576206,-4.191384133078479,2.4116714919471303,0.041544124410587864,-0.09555601233206354,0.5442230891668716,-0.8749751005667203,-0.25472583905752433,0.3422944701249097
145,2.9546169460932035,3.8515788853511506,1.8397205246960977,-2.257511397189587,-4.195099847719771,2.4109298381968514,0.04239448813085834,-0.09560799967991174,0.5440489131378966,-0.8739799997724796,-0.2540016107162364,0.34517787368350916
146,2.9599573760408013,3.8514764055454433,1.8403567017637825,-2.2591843764477844,-4.1979898479963325,2.4103529963910795,0.0430570071200921,-0.09564376952509472,0.5439126956357698,-0.8732115312044997,-0.2534318531794932,0.34742166565561194
147,2.96377196886052,3.851403205684224,1.840811113954986,-2.26037936163221,-4.200054133908159,2.4099409665298133,0.04353082216325939,-0.09566681535250697,0.543814998227855,-0.8726655853629316,-0.2530214321841909,0.3490249946413493
148,2.9660607245523423,3.851359285767492,1.8410837612697089,-2.2610963527428662,-4.201292705455256,2.409693748613054,0.04381534163603827,-0.09567963979634146,0.5437562204288275,-0.8723392060975043,-0.2527738031045037,0.3499872422268695
149,2.966823643116289,3.8513446457952476,1.8411746437079493,-2.261335349779751,-4.201705562637622,2.409611342640801,0.043910219424478425,-0.0956837472943917,0.5437366013024505,-0.8722306114600654,-0.25269103106995594,0.35030803332122223
