nimar13/UR3e_dataset_trayectorias/data/trayectorias_completas_UR3e_TRAPEZOIDAL/trayectoria_171.csv
Punto,shoulder_pan_joint,shoulder_lift_joint,elbow_joint,wrist_1_joint,wrist_2_joint,wrist_3_joint,Posicion_X,Posicion_Y,Posicion_Z,Roll,Pitch,Yaw
0,3.8361829608778706,5.6307913419966065,0.05186519959575531,-1.5159608181159996,3.611860886356613,-0.5675488181492705,-0.32555051443630423,-0.3347959939598883,0.43869380190241614,1.5993362600443923,0.39383032753518327,2.5187295091238164
1,3.836156678603419,5.630768495900598,0.051637161703200166,-1.5163317525815092,3.6120935370685063,-0.5672863531364787,-0.32553078939083807,-0.33477648056193227,0.4387848605192823,1.6003043323946988,0.3938661903791044,2.5190968978741153
2,3.836077831780065,5.63069995761257,0.05095304802553474,-1.5174445559780383,3.612791489204186,-0.5664989580981031,-0.3254714602454964,-0.3347178586578458,0.4390580561727431,1.6032085760030361,0.39397180049158237,2.520199953198205
3,3.835946420407807,5.630585727132524,0.04981285856275903,-1.5192992283055868,3.613954742763652,-0.565186633034144,-0.32537206438691463,-0.33461988276391275,0.43951344779496865,1.6080490535463934,0.39414121299304405,2.5220413200670495
4,3.8357624444866465,5.630425804460461,0.04821659331487303,-1.5218957695641546,3.615583297746905,-0.563349377944601,-0.32523182883710705,-0.3344821425642691,0.4401511320066721,1.6148258125547716,0.3943644879894961,2.524625332351156
5,3.8355259040165834,5.630220189596378,0.046164252281876754,-1.5252341797537419,3.617677154153944,-0.5609871928294745,-0.32504966731800217,-0.33430406114843714,0.4409712406773304,1.623538799047034,0.39462764402537004,2.5279579003315673
6,3.8352367989976166,5.629968882540278,0.04365583546377019,-1.5293144588743484,3.6202363119847694,-0.5581000776887642,-0.3248241761385856,-0.3340848925484262,0.4419739374284589,1.6341877347470828,0.3949125951297546,2.5320463515398535
7,3.8348951294297473,5.6296718832921595,0.04069134286055334,-1.5341366069259743,3.6232607712393814,-0.5546880325224703,-0.3245536289027603,-0.33382371858107557,0.44315941299849637,1.6467719561482093,0.3951970737189859,2.536899223393253
8,3.834500895312975,5.6293291918520225,0.03727077447222621,-1.5397006239086197,3.62675053191778,-0.5507510573305928,-0.324235970037459,-0.33351944500452796,0.4445278793639854,1.6612902134094123,0.3954545423334524,2.5425260058631447
9,3.8340540966472996,5.628940808219867,0.03339413029878879,-1.5460065098222844,3.6307055940199646,-0.5462891521131316,-0.32386880714339933,-0.3331707970021559,0.4460795624875635,1.6777404269555871,0.39565409794483714,2.548936832358208
10,3.833554733432721,5.628506732395693,0.02906141034024109,-1.5530542646669685,3.6351259575459363,-0.5413023168700866,-0.3234494021755769,-0.3327763140131706,0.4478146935387082,1.6961193997653234,0.39576037337241904,2.5561421171689838
11,3.83300280566924,5.628026964379502,0.024272614596583104,-1.560843888442672,3.640011622495694,-0.5357905516014579,-0.322974661467504,-0.3323343439368071,0.4497334984083313,1.7164224837232518,0.3957334411873032,2.564152138264715
12,3.8323983133568555,5.627501504171292,0.019027743067814844,-1.569375381149395,3.6453625888692383,-0.5297538563072457,-0.3224411246226805,-0.33184303674667176,0.4518361853132478,1.7386431991494817,0.39552872634750597,2.5729765650162646
13,3.831741256495568,5.626930351771064,0.01332679575393629,-1.5786487427871372,3.651178856666569,-0.5231922309874497,-0.3218449523092749,-0.33130033756385435,0.45412293026147726,1.7627728077583371,0.3950969346699624,2.5826239316006947
14,3.8310316350853775,5.626313507178817,0.007169772654947448,-1.5886639733558987,3.6574604258876864,-0.5161056756420701,-0.32118191300986393,-0.33070397925196005,0.4565938601244737,1.788799840898365,0.3943840050713403,2.5931010584782115
15,3.8302694491262845,5.6256509703945525,0.0005566737708483371,-1.5994210728556797,3.6642072965325903,-0.5084941902711068,-0.3204473687977813,-0.33005147461463424,0.45924903303812653,1.8167095870284344,0.3933310942475939,2.604412426461578
16,3.829454698618288,5.62494274141827,-0.006512500898361077,-1.6109200412864801,3.67141946860128,-0.5003577748745597,-0.3196362602355796,-0.3293401082966058,0.46208841583111393,1.8464835450089367,0.3918746030476026,2.61655951053796
17,3.8285873835613886,5.624188820249968,-0.014037751352680775,-1.6231608786482998,3.679096942093757,-0.49169642945242903,-0.3187430905197403,-0.3285669285130297,0.4651118581575458,1.87809885291415,0.3899462541499064,2.6295400837326106
18,3.8276675039555865,5.623389206889649,-0.022019077592110733,-1.636143584941139,3.68723971701002,-0.48251015400471464,-0.31776190902948637,-0.3277287387590983,0.46831906299140513,1.911527705630756,0.3874732306822461,2.6433475048492876
19,3.826695059800881,5.622543901337311,-0.030456479616651003,-1.6498681601649974,3.6958477933500697,-0.4727989485314166,-0.3166862944767434,-0.3268220896826863,0.47170955312398244,1.9467367783610041,0.38437838503274846,2.657970007743818
20,3.8256700510972728,5.621652903592955,-0.039349957426301554,-1.6643346043198752,3.704921171113906,-0.4625628130325349,-0.3155093378993662,-0.32584327133725977,0.4752826332931474,1.983686677080964,0.3805805261908334,2.6733900136656774
21,3.8245924778447615,5.62071621365658,-0.04869951102106236,-1.6795429174057726,3.714459850301528,-0.4518017475080695,-0.3142236257908916,-0.32478830607038395,0.47903734756609523,2.0223314407142334,0.3759947924378923,2.689583491834099
22,3.8234623400433474,5.619733831528188,-0.058505140400933506,-1.6954930994226893,3.724463830912937,-0.4405157519580204,-0.3128212237176666,-0.32365294234489383,0.4829724315963113,2.0626181228882947,0.3705331140203462,2.7065193964155188
23,3.82227963769303,5.618705757207777,-0.06876684556591488,-1.7121851503706251,3.7349331129481325,-0.42870482638238766,-0.31129366083821536,-0.3224326498348675,0.48708625938236644,2.104486483202074,0.3641047675597354,2.7241592099915244
24,3.8210443707938095,5.617631990695348,-0.07948462651600655,-1.7296190702495806,3.7458676964071143,-0.41636897078117124,-0.3096319158102827,-0.3211226161867172,0.49137678417225655,2.1478688184807773,0.3566170204225314,2.742456623977836
25,3.8197565393456867,5.6165125319909,-0.09065848325120854,-1.7477948590595553,3.7572675812898826,-0.4035081851543711,-0.3078264046478834,-0.31971774588646673,0.4958414731840918,2.192689963088479,0.34797585919479984,2.761357384830006
26,3.81841614334866,5.615347381094435,-0.10228841577152076,-1.7667125168005495,3.7691327675964374,-0.39012246950198737,-0.3058669711736242,-0.31821266172702223,0.5004772358537617,2.238867483669136,0.33808679197234265,2.7807993309021954
27,3.817023182802731,5.614136538005951,-0.11437442407694329,-1.786372043472563,3.781463255326779,-0.37621182382401985,-0.30374288079992795,-0.316601709423107,0.5052803453746967,2.286312087527107,0.3268557096539049,2.800712638336591
28,3.815577657707899,5.612880002725449,-0.12691650816747613,-1.806773439075596,3.7942590444809063,-0.3617762481204687,-0.30144281846584603,-0.3148789659754988,0.5102463533660161,2.334928255321026,0.31418978714855017,2.8210202854228443
29,3.8140795680641637,5.611577775252929,-0.1399146680431192,-1.8279167036096484,3.807520135058821,-0.34681574239133395,-0.298954891652656,-0.3130382524390199,0.5153699975952237,2.3846150982106264,0.2999984017538717,2.841638733843938
30,3.8125289138715255,5.61022985558839,-0.15336890370387257,-1.84980183707472,3.8212465270605214,-0.33133030663661545,-0.2962666395000304,-0.3110731517988186,0.5206451027922289,2.435267427757184,0.28419404330609305,2.862478812788097
31,3.8109256951299844,5.608836243731833,-0.1672792151497363,-1.872428839470811,3.8354382204860085,-0.3153199408563132,-0.29336504914334716,-0.3089770327051269,0.5260644747248339,2.4867770147022212,0.26669318937692643,2.8834467789948266
32,3.8092699118395403,5.607396939683258,-0.18164560238071023,-1.8957977107979214,3.850095215335282,-0.29878464505042734,-0.29023658048935613,-0.3067430798557265,0.5316197878637966,2.5390340013879693,0.2474171190310327,2.904445513530041
33,3.807561564000193,5.605911943442664,-0.19646806539679443,-1.9199084510560511,3.8652175116083423,-0.28172441921895786,-0.2868672007392525,-0.3043643318455366,0.5373014671497797,2.591928423236897,0.22629264056112552,2.9253758055984633
34,3.805800651611943,5.604381255010053,-0.21174660419798902,-1.9447610602452006,3.8808051093051885,-0.2641392633619046,-0.2832424300519049,-0.3018337273213358,0.5430985645863533,2.6453517884639806,0.20325271212240176,2.9461376660168828
35,3.80398717467479,5.6028048743854235,-0.22748121878429378,-1.970355538365369,3.8968580084258218,-0.24602917747926772,-0.27934739981180534,-0.2991441602837826,0.5489986316236297,2.6991986628730844,0.1782369390664406,2.9666316088101983
36,3.802121133188734,5.601182801568775,-0.24367190915570885,-1.996691885416557,3.913376208970241,-0.2273941615710472,-0.27516692502188644,-0.29628854536542476,0.5549875885665193,2.753368208620727,0.15119193765736,2.9867598390506584
37,3.8002025271537745,5.599515036560109,-0.26031867531223424,-2.0237701013987643,3.930359710938447,-0.20823421563724293,-0.27068559237585493,-0.2932598938788804,0.561049592539793,2.807765632211379,0.12207156127295007,3.0064272883449883
38,3.7982313565699126,5.597801579359424,-0.27742151725386993,-2.051590186311991,3.9478085143304393,-0.18854933967785492,-0.2658878655726125,-0.29005140137030155,0.5671669058680777,2.862303507302681,0.09083699164689041,3.025542445603165
39,3.7962076214371474,5.596042429966721,-0.29498043498061594,-2.0801521401562373,3.9657226191462183,-0.16833953369288335,-0.2607582094108633,-0.2866565473259179,0.5733197670805644,2.916902951427328,0.05745670371902368,3.0440179388002857
40,3.7941313217554793,5.594237588382,-0.31299542849247214,-2.1094559629315026,3.9841020253857833,-0.14760479768232804,-0.2552812341385893,-0.28306920756019266,0.5794862671245234,2.9714946516259264,0.021906317839190528,3.061770831974008
41,3.7920024575249083,5.59238705460526,-0.3314664977894386,-2.139501654637787,4.002946733049135,-0.12634513164618916,-0.2494418614230994,-0.27928377965933565,0.5856422337642593,3.02601975144667,-0.01583164284399099,3.0787226091150224
42,3.7898210287454344,5.5904908286365025,-0.35039364287151537,-2.1702892152750914,4.022256742136273,-0.10456053558446654,-0.24322551314567145,-0.27529532166015935,0.5917611275470288,3.0804306303060485,-0.0557680690923559,3.094798821257364
43,3.787587035417057,5.588548910475726,-0.3697768637387024,-2.201818644843415,4.042032052647198,-0.08225100949716024,-0.23661832400328603,-0.2710997039085,0.5978139531273032,3.1346916258296185,-0.09790763393428784,3.1099283732513623
44,3.7853004775397774,5.586561300122932,-0.38961616039099994,-2.234089943342758,4.06227266458191,-0.0594165533842701,-0.22960737861152347,-0.2666937737611094,0.603769190146295,-3.094405535933248,-0.14224918943930814,3.1240424205505364
45,3.7829613551135943,5.58452799757812,-0.40991153282840753,-2.2671031107731205,4.082978577940406,-0.03605716724579644,-0.22218097344052745,-0.2620755324682205,0.6095927482538976,-3.0404996622356233,-0.18878616853909952,3.137072831622047
46,3.7805696681385084,5.582449002841289,-0.43066298105092543,-2.300858147134502,4.104149792722691,-0.012172851081739156,-0.21432890347380756,-0.25724432320000273,0.6152479512219999,-2.986770846118128,-0.23750696857045345,-3.1342351619716813
47,3.778125416614519,5.58032431591244,-0.45187050505855364,-2.3353550524269036,4.125786308928761,0.012236395107901865,-0.206042772952228,-0.2522010287590673,0.6206955554166065,-2.9331977334546293,-0.28839529288422056,-3.1235843982883766
48,3.7756286005416273,5.578153936791573,-0.4735341048512921,-2.3705938266503237,4.147888126558618,0.03717057132312651,-0.1973163289486813,-0.2469482770547147,0.6258938081541893,-2.8797406754593484,-0.34143042540571716,-3.11424108863407
49,3.773079219919832,5.5759378654786875,-0.49565378042914077,-2.4065744698047635,4.170455245612262,0.06262967756393478,-0.1881458158102814,-0.2414906519059841,0.6307985516464121,-2.826338588194922,-0.3965874094000595,-3.10629813294914
50,3.770480195001851,5.573678640428896,-0.5182041942484827,-2.4432557669496107,4.1934618160105925,0.08858455105112784,-0.1785412780481125,-0.23584129722719893,0.6353585126033267,-2.772963765153331,-0.45377233346112716,-3.0998727626601106
51,3.7678694890730027,5.571409261558656,-0.5408559582422936,-2.4801019238569064,4.21657178672532,0.11465607565511715,-0.16865139117740532,-0.2300936162701969,0.6394706462437592,-2.7202541624050105,-0.5120946909422607,-3.0951518923999823
52,3.765258783144154,5.5691398826884155,-0.5635077222361042,-2.516948080764202,4.239681757440048,0.14072760025910647,-0.15853804814513833,-0.22428776697801114,0.6430936706786489,-2.6682503621219733,-0.5712141855441975,-3.0922310446090333
53,3.7626480772153057,5.566870503818175,-0.5861594862299151,-2.553794237671498,4.262791728154776,0.16679912486309578,-0.14822212929105785,-0.21843950867110193,0.6462092462469841,-2.6167224869416326,-0.6310492155400333,-3.0912106475893877
54,3.760037371286457,5.564601124947935,-0.6088112502237257,-2.5906403945787937,4.285901698869503,0.1928706494670851,-0.13772603218674456,-0.21256533283409615,0.6488006205699525,-2.5654004443071443,-0.6915207212310106,-3.0922407891597232
55,3.7574266653576087,5.562331746077695,-0.6314630142175366,-2.6274865514860894,4.309011669584231,0.2189421740710744,-0.1270735924453832,-0.2066823814034923,0.6508527798784434,-2.5139564073149763,-0.7525506204841084,-3.0955386678302848
56,3.7548159594287602,5.560062367207454,-0.6541147782113474,-2.6643327083933857,4.332121640298959,0.24501369867506395,-0.11628999231177456,-0.20080835858209545,0.6523525920520309,-2.461978600112507,-0.8140597339664186,-3.101414622849488
57,3.752205253499912,5.557792988337214,-0.6767665422051583,-2.7011788653006814,4.355231611013686,0.27108522327905327,-0.10540165744799358,-0.19496143677312922,0.6532889401753424,-2.4089310306204603,-0.8759648614485206,-3.1103121405495058
58,3.7495945475710637,5.555523609466974,-0.6994183061989689,-2.738025022207977,4.378341581728414,0.2971567478830426,-0.094436142425271,-0.1891601572761872,0.6536528454734227,-2.354089668550557,-0.9381744010422246,-3.1228713700674393
59,3.746983841642215,5.553254230596734,-0.7220700701927798,-2.774871179115273,4.401451552443142,0.3232282724870319,-0.0834220055252093,-0.1834233264315946,0.6534375785522974,-2.2964375278957876,-1.0005813740633238,-3.140033712964516
60,3.7443731357133667,5.5509848517264935,-0.7447218341865904,-2.8117173360225687,4.424561523157869,0.3492997970910212,-0.07238867354250958,-0.17776990793893763,0.6526387579440308,-2.2344847523317073,-1.0630516200126623,3.119963900980671
61,3.7417624297845182,5.548715472856253,-0.7673735981804013,-2.8485634929298644,4.447671493872597,0.37537132169501053,-0.06136629736638172,-0.17221891210924864,0.651254435036641,-2.1659446923217205,-1.1254025013386602,3.0885241841483855
62,3.7391517238556697,5.546446093986013,-0.7900253621742122,-2.8854096498371606,4.470781464587324,0.40144284629899984,-0.05038559919799489,-0.1667892828382881,0.6492851645577304,-2.0871172510680305,-1.1873617125212306,3.0451849825580033
63,3.7365410179268213,5.544176715115773,-0.8126771261680228,-2.9222558067444564,4.493891435302052,0.42751437090298916,-0.03947771233608109,-0.1614997831103768,0.6467340598760564,-1.9916398576311056,-1.2484810513554272,2.983629295904632
64,3.7339303119979728,5.541907336245533,-0.8353288901618336,-2.959101963651752,4.51700140601678,0.4535858955069785,-0.028674014531513553,-0.15636887985809378,0.6436068324867782,-1.8677962729062845,-1.307938893730447,2.892179634199195
65,3.7313196060691243,5.539637957375293,-0.8579806541556443,-2.995948120559048,4.540111376731507,0.4796574201109678,-0.018005955973787346,-0.15141462901277333,0.6399118151531309,-1.6925250572709791,-1.364042455264673,2.7478066928174947
66,3.728708900140276,5.537368578505053,-0.8806324181494551,-3.0327942774663437,4.563221347446235,0.5057289447149571,-0.0075048830272746595,-0.14665456158401463,0.6356599682890074,-1.4198215500562892,-1.412895017897472,2.5045315003417294
67,3.7260981942114273,5.5350991996348125,-0.903284182143266,-3.0696404343736394,4.586331318160963,0.5318004693189466,0.0027981411175132904,-0.14210557160334844,0.6308648692826063,-0.9820759731381852,-1.4454175137918082,2.094763649186782
68,3.7234874882825792,5.532829820764572,-0.9259359461370769,-3.106486591280935,4.60944128887569,0.557871993922936,0.012872517673121232,-0.1377838067578009,0.6255426845801099,-0.4180868554361428,-1.4476699072284702,1.557314803882756
69,3.7208767823537308,5.530560441894332,-0.9485877101308875,-3.143332748188231,4.632551259590418,0.5839435185269253,0.02268829412935584,-0.13370456252343213,0.6197121244694506,0.042470671752990984,-1.4181892971070065,1.1218670352082645
70,3.7182660764248823,5.528291063024092,-0.9712394741246984,-3.1801789050955267,4.655661230305146,0.6100150431309146,0.032216345514850274,-0.12988218058711787,0.6133943806267254,0.3299073782904932,-1.3704838261734826,0.8581103087621538
71,3.715655370496034,5.526021684153852,-0.993891238118509,-3.2170250620028225,4.678771201019873,0.6360865677349039,0.0414285537750827,-0.12632995231706695,0.6066130466108867,0.509592049939264,-1.3145323174253014,0.7006703138321435
72,3.7130446645671853,5.523752305283612,-1.0165430021123198,-3.253871218910118,4.701881171734601,0.6621580923388932,0.050297983991824884,-0.12306002800901349,0.5993940216150361,0.6315082575227208,-1.2547053859176347,0.59955158736485
73,3.710433958638337,5.521482926413372,-1.0391947661061307,-3.2907173758174144,4.724991142449328,0.6882296169428828,0.05879905617411374,-0.12008333259597014,0.5917653979041446,0.7209644118845309,-1.1928792278196962,0.5294272994154834
74,3.7078232527094883,5.519213547543131,-1.0618465300999416,-3.32756353272471,4.748101113164056,0.7143011415468721,0.06690771136524788,-0.11740948846515406,0.5837573324883893,0.7907068634288557,-1.1299479327875122,0.4775259387761823
75,3.70521254678064,5.516944168672891,-1.084498294093752,-3.3644096896320055,4.771211083878784,0.740372666150861,0.0746015708339916,-0.11504674597654341,0.575401903697712,0.8475688005008631,-1.066389370768687,0.436982141707597
76,3.7026018408517913,5.514674789802651,-1.1071500580875633,-3.401255846539302,4.794321054593512,0.7664441907548507,0.08186008715101728,-0.11300192222386242,0.566732953435743,0.8954634804021412,-1.0024871809993192,0.40384312689229024
77,3.699991134922943,5.512405410932411,-1.129801822081374,-3.438102003446598,4.817431025308239,0.7925157153588402,0.08866468599348568,-0.1112803485210266,0.5577859159991779,0.9367631950192956,-0.9384264583331098,0.37568933133762633
78,3.6973804289940944,5.510136032062171,-1.1524535860751848,-3.4749481603538936,4.840540996022967,0.8185872399628293,0.09499889757132683,-0.10988582703564409,0.5485976344511077,0.9729740515969836,-0.8743389360147285,0.3509591633132453
79,3.694769723065246,5.507866653191931,-1.1751053500689954,-3.5117943172611894,4.863650966737694,0.8446587645668189,0.10084847662794089,-0.10882059692653369,0.5392061656330677,1.0050873688295692,-0.8103261029620252,0.3285970688658053
80,3.6921590171363974,5.5055972743216905,-1.1977571140628063,-3.548640474168485,4.886760937452422,0.870730289170808,0.10620151003533446,-0.10808531027485395,0.5296505749898388,1.033773232393992,-0.7464718966608239,0.3078593648951814
81,3.689548311207549,5.50332789545145,-1.220408878056617,-3.585486631075781,4.90987090816715,0.8968018137747975,0.11104851107873354,-0.10767901802886833,0.51997072246272,1.0594924288769791,-0.6828501361967821,0.28820161776061204
82,3.686937605278701,5.50105851658121,-1.2430606420504278,-3.6223327879830767,4.932980878881877,0.9228733383787866,0.11538249960798139,-0.10759916611109849,0.5102070407804291,1.0825639312590452,-0.619529154073361,0.2692103936008251
83,3.6843268993498524,5.49878913771097,-1.2657124060442384,-3.6591789448903724,4.956090849596605,0.9489448629827757,0.11919906732199514,-0.10784160176419194,0.5004003075414246,1.1032070509940286,-0.5565748714097535,0.2505602669622279
84,3.681716193421004,5.49651975884073,-1.2883641700380493,-3.696025101797668,4.979200820311332,0.9750163875867652,0.12249642754766349,-0.108400590138777,0.4905914125367638,1.1215685625545573,-0.49405298149449417,0.23198578698373917
85,3.6791054874921554,5.49425037997049,-1.31101593403186,-3.732871258704964,5.00231079102606,1.0010879121907543,0.1252754489751416,-0.10926884105346187,0.48082112180819003,1.1377405964936613,-0.43203061457880215,0.21326261534489865
86,3.676494781563307,5.49198100110025,-1.3336676980256708,-3.7697174156122597,5.025420761740788,1.0271594367947439,0.1275396729168886,-0.11043754578446928,0.47112983997159624,1.1517726872495562,-0.37057770240779064,0.1941944673921459
87,3.6738840756344584,5.4897116222300095,-1.3563194620194814,-3.8065635725195555,5.048530732455515,1.053230961398733,0.12929531376726985,-0.11189642367076207,0.4615573723610258,1.1636800252363475,-0.30976817572816573,0.174603834947761
88,3.67127336970561,5.487442243359769,-1.3789712260132925,-3.8434097294268517,5.071640703170243,1.079302486002723,0.1305512424523439,-0.11363377825039614,0.4521426885627442,1.173449197640212,-0.24968107877968182,0.15432524883901058
89,3.6686626637767614,5.485172864489529,-1.401622990007103,-3.8802558863341474,5.094750673884971,1.105374010606712,0.1313189527748105,-0.11563656257579388,0.4429236889124617,1.1810422536590717,-0.19040165476650056,0.13320030749931988
90,3.666051957847913,5.482903485619289,-1.4242747540009142,-3.917102043241443,5.117860644599698,1.1314455352107016,0.13161251067618415,-0.11789045329013274,0.43393697552144284,1.18639966320461,-0.13202243650041884,0.11107399102000252
91,3.6634412519190644,5.480634106749049,-1.4469265179947248,-3.953948200148739,5.140970615314426,1.1575170598146907,0.13144848655626573,-0.12037993298459321,0.42521762937900737,1.1894425802081743,-0.07464436163821028,0.08779197251990407
92,3.660830545990216,5.478364727878809,-1.4695782819885355,-3.9907943570560347,5.164080586029154,1.1835885844186802,0.1308458709080673,-0.1230883802972472,0.4167989950498522,1.1900747317778164,-0.01837791894136561,0.0631987731599561
93,3.658219840061368,5.476095349008569,-1.492230045982346,-4.0276405139633304,5.187190556743881,1.2096601090226693,0.12982597364366213,-0.12599816715934528,0.4087124744449073,1.188184209049309,0.03665568155230889,0.03713670839086202
94,3.6556091341325194,5.4738259701383285,-1.5148818099761572,-4.064486670870626,5.210300527458609,1.2357316336266588,0.12841230760214856,-0.1290907625440506,0.4009873310942557,1.183645420500741,0.09032333752179617,0.009445655653388216
95,3.652998428203671,5.4715565912680875,-1.5375335739699678,-4.101332827777922,5.2334104981733365,1.261803158230648,0.1266304568441722,-0.1323468420266596,0.3936505062903297,1.1763214742391683,0.14247892565936685,-0.020036254290810816
96,3.6503877222748224,5.469287212397847,-1.5601853379637785,-4.138178984685218,5.2565204688880645,1.287874682834637,0.12450793044745356,-0.13574640242436142,0.38672644839951414,1.1660672743074225,0.19296228404606644,-0.051470856086696805
97,3.647777016345974,5.467017833527607,-1.5828371019575895,-4.1750251415925135,5.279630439602792,1.3139462074386266,0.12207400262369213,-0.13926888074791618,0.3802369565608765,1.152733638406633,0.24159840669809798,-0.08501685806602191
98,3.6451663104171255,5.464748454657367,-1.6054888659514002,-4.211871298499809,5.3027404103175195,1.3400177320426157,0.11935954007827464,-0.1428932766675301,0.3742010399025285,1.1361727583441223,0.2881969906638096,-0.12082518312341403
99,3.642555604488277,5.462479075787127,-1.6281406299452112,-4.248717455407105,5.325850381032248,1.3660892566466056,0.11639681762968518,-0.14659827767087635,0.36863479330965043,1.1162453124613192,0.332552521031282,-0.15903248115109161
100,3.639956579570296,5.460219850737335,-1.6506910437645526,-4.285398752551953,5.348856951430578,1.3920441301337982,0.11323396772062,-0.15034544472413405,0.3635729445850438,1.0929421666430894,0.374263512373186,-0.19956467893849916
101,3.637407198948501,5.45800377942445,-1.6728107193424018,-4.3213793957063915,5.371424070484221,1.417503236374607,0.1099575870625507,-0.15405741848956794,0.35908210990998746,1.0666361638474193,0.4125851254541938,-0.24181905581140156
102,3.6349103828756086,5.455833400303583,-1.6944743191351401,-4.3566181699298125,5.393525888114079,1.4424374125898312,0.10661361129067325,-0.15770839388864943,0.3551453920548492,1.0375146558188153,0.4474100191820511,-0.2856309176491988
103,3.6324661313516198,5.453708713374734,-1.7156818431427685,-4.391115075222214,5.415162404320149,1.4668466587794717,0.1032408580515426,-0.16127934996491952,0.3517371245169638,1.0057872999011863,0.4786989844606856,-0.3308302745676101
104,3.630074444376534,5.4516297186379035,-1.7364332913652865,-4.424870111583597,5.436333619102433,1.4907309749435291,0.09987441081142173,-0.16475380137417917,0.3488293981370904,0.9717110398628723,0.5064367360740168,-0.3771977240287127
105,3.627735321950351,5.449596416093091,-1.756728663802694,-4.457883279013957,5.457039532460932,1.5140903610820042,0.0965456159365127,-0.16811770692245714,0.34639259556170043,0.9355877684865486,0.5306355937730132,-0.4244674218071302
106,3.625448764073071,5.4476088057402965,-1.7765679604549915,-4.490154577513301,5.477280144395641,1.536924817194894,0.09328212719404097,-0.17135935814281872,0.3443958883286448,0.8977586002945009,0.5513384035043039,-0.47233333528822435
107,3.623214770744694,5.44566688757952,-1.7959511813221782,-4.521684007081625,5.497055454906566,1.5592343432822,0.09010799147405825,-0.17446925199582794,0.3428076937768433,0.8585948533974012,0.5686203460782627,-0.5204587003053631
108,3.62103334196522,5.443770661610762,-1.8148783264042545,-4.55247156771893,5.516365463993706,1.5810189393439225,0.08704376963630292,-0.17743995149436081,0.341596089991925,0.8184862917140684,0.5825893537207956,-0.5684881454052091
109,3.6189044777346484,5.441920127834023,-1.8333493957012217,-4.582517259425213,5.535210171657057,1.6022786053800617,0.08410668658926755,-0.1802659377391288,0.340729187905092,0.7778276004254681,0.5933849821663119,-0.6160615220557256
110,3.6168281780529807,5.440115286249302,-1.8513643892130776,-4.611821082200478,5.553589577896621,1.623013341390616,0.08131080499136581,-0.182943456517855,0.3401754604590884,0.7370043568309036,0.6011757489896555,-0.6628281871984423
111,3.6148044429202155,5.438356136856599,-1.8689233069398234,-4.6403830360447245,5.5715036827124,1.6432231473755885,0.07866721730954923,-0.18547036227831387,0.3399040294431926,0.6963798398628731,0.6061551183268017,-0.7084604013547171
112,3.6128332723363537,5.436642679655915,-1.8860261488814594,-4.668203120957952,5.588952486104394,1.6629080233349764,0.07618425136282797,-0.1878459619417807,0.33988491118105124,0.6562838721030794,0.6085364553375232,-0.7526646533371114
113,3.6109146663013942,5.434974914647248,-1.9026729150379849,-4.69528133694016,5.6059359880725985,1.6820679692687803,0.07386768490246647,-0.19007086068582918,0.34008922273529896,0.6170045480577769,0.6085473644092667,-0.795190061534603
114,3.6090486248153386,5.4333528418306,-1.9188636054094,-4.721617683991348,5.622454188617017,1.7007029851770006,0.07172096522410976,-0.1921468114996265,0.34048935067713004,0.5787832584493475,0.6064238505719775,-0.8358334448894602
115,3.6072351478781854,5.43177646120597,-1.9345982199957046,-4.747212162111515,5.6385070877376515,1.7188130710596372,0.06974543025847695,-0.1940765700053925,0.34105908476426383,0.541812974822101,0.6024047072002084,-0.8744411015377542
116,3.605474235489935,5.430245772773358,-1.9498767587968997,-4.7720647713006645,5.654094685434499,1.7363982269166907,0.06794052803673992,-0.19586375574998768,0.34177371908482407,0.5062393975455226,0.5967264508860894,-0.9109076938916876
117,3.603765887650588,5.428760776532765,-1.964699221812984,-4.796175511558796,5.669216981707557,1.75345845274816,0.06630403186616123,-0.19751272090306243,0.3426101233657057,0.47216434166814286,0.5896190186625627,-0.945172867320096
118,3.6021101043601433,5.427321472484189,-1.9790656090439578,-4.819544382885907,5.683873976556831,1.7699937485540471,0.06483224897427306,-0.1990284270544393,0.3435467872204669,0.439650646339311,0.5813023351912261,-0.9772163181923592
119,3.6005068856186027,5.425927860627632,-1.9929759204898216,-4.842171385281995,5.69806566998232,1.7860041143343492,0.06352022078059688,-0.2004163305842029,0.34456384013200264,0.40872792083352927,0.571983764299345,-1.007051999704988
120,3.5989562314259644,5.424579940963094,-2.006430156150575,-4.864056518747067,5.711792061984017,1.8014895500890673,0.062361913329573415,-0.2016822768845159,0.34564304993746187,0.3793985442979826,0.5618563892175333,-1.0347220498713299
121,3.5974581417822296,5.423277713490573,-2.0194283160262185,-4.885199783281121,5.725053152561933,1.8164500558182022,0.06135039676418971,-0.20283240354208643,0.3467678025148622,0.3516434768317678,0.5510980211680535,-1.060290885669444
122,3.596012616687397,5.422021178210072,-2.031970400116751,-4.9056011788841545,5.737848941716061,1.830885631521753,0.06047801303487262,-0.20387305244370144,0.3479230652700506,0.32542758408191325,0.5398708139758723,-1.0838397629062484
123,3.594619656141468,5.420810335121588,-2.044056408422173,-4.925260705556168,5.750179429446403,1.844796277199721,0.059736531321686506,-0.20481069064316518,0.3490953368959196,0.3007043053855738,0.5283213580461474,-1.1054619736715972
124,3.593279260144442,5.419645184225122,-2.055686340942485,-4.944178363297163,5.762044615752959,1.8581819928521046,0.05911729089948081,-0.20565183972495832,0.3502725857293314,0.27741959657406057,0.5165811346951064,-1.1252587523342978
125,3.591991428696318,5.4185257255206745,-2.066860197677687,-4.962354152107134,5.7734445006357245,1.8710427784789045,0.058611331395905894,-0.2064030133163986,0.35144417887074336,0.2555151508971566,0.5047672263415366,-1.1433358888447824
126,3.590756161797098,5.417451959008246,-2.0775779786277786,-4.979788071986091,5.784379084094708,1.8833786340801204,0.05820951058206653,-0.207070662334351,0.3526008040620091,0.23493094801773112,0.492983195506566,-1.159801001751524
127,3.5895734594467807,5.416423884687835,-2.087839683792761,-4.996480122934028,5.794848366129904,1.895189559655753,0.05790260999645966,-0.2076611275028805,0.3537343861436717,0.21560720679628004,0.4813200632095815,-1.1747613976709768
128,3.5884433216453666,5.4154415025594425,-2.0976453131726314,-5.012430304950945,5.80485234674131,1.9064755552058017,0.05768142883638287,-0.20818059864290925,0.3548379997380474,0.19748582819832255,0.46985733354806636,-1.1883224333994786
129,3.5873657483928554,5.414504812623068,-2.106994866767393,-5.02763861803684,5.814391025928934,1.9172366207302671,0.057536866659184234,-0.2086350802122117,0.3559057796316489,0.18051141510761828,0.4586640251940161,-1.2005862964218375
130,3.5863407396892475,5.413613814878712,-2.115888344577043,-5.042105062191718,5.823464403692771,1.9274727562291503,0.05745999552055392,-0.20903036256231602,0.35693283016273214,0.16463195010789106,0.4477996819764666,-1.2116511252585613
131,3.5853682955345416,5.412768509326375,-2.124325746601584,-5.055829637415578,5.8320724800328225,1.9371839617024484,0.05744212224072895,-0.20937199837649165,0.357915134759045,0.14979920333842534,0.43731534373992,-1.2216103999680117
132,3.5844484159287395,5.411968895966054,-2.1323070728410136,-5.068812343708418,5.840215254949082,1.9463702371501626,0.05747484153412113,-0.20966528375851382,0.35884946661889505,0.13596893233321067,0.42725446554550395,-1.2305525431842754
133,3.58358110087184,5.411214974797753,-2.139832323295333,-5.081053181070235,5.84789272844156,1.9550315825722926,0.05755008076560629,-0.20991524345398185,0.35973330138669635,0.12310092557949347,0.41765377836011763,-1.238560682070065
134,3.5827663503638436,5.41050674582147,-2.146901497964542,-5.092552149501038,5.85510490051025,1.9631679979688403,0.05766013710964491,-0.2101266197033444,0.36056473254305643,0.11115893210039392,0.4085440880103965,-1.2457125307818835
135,3.5820041644047502,5.409844209037206,-2.153514596848641,-5.103309249000817,5.8618517711551545,1.970779483339804,0.05779770788842584,-0.21030386424739356,0.3613423901098134,0.10011051102937918,0.39995101168304037,-1.2520803611381406
136,3.58129454299456,5.409227364444959,-2.1596716199476296,-5.113324479569578,5.86813334037627,1.9778660386851827,0.05795591485424483,-0.21045113303081842,0.36206536316246885,0.08992682801668295,0.3918956529060318,-1.2577310360439329
137,3.5806374861332726,5.408656212044731,-2.1653725672615085,-5.122597841207321,5.873949608173602,1.9844276640049783,0.058128323161013504,-0.21057228317659926,0.3627331265462217,0.08058241936438379,0.3843952169699252,-1.262726085893712
138,3.580032993820889,5.408130751836521,-2.170617438790277,-5.131129333914046,5.879300574547147,1.9904643592991915,0.058308955741702355,-0.21067087183285496,0.3633454721071443,0.07205493992587526,0.3774635693223839,-1.2671218127563857
139,3.579481066057407,5.4076509838203295,-2.175406234533935,-5.1389189576897465,5.884186239496902,1.995976124567819,0.05849230377405149,-0.21075015652359802,0.36390244467657906,0.06432490689385877,0.37111173972761613,-1.270969410789881
140,3.5789817028428286,5.407216907996156,-2.179738954492483,-5.145966712534432,5.8886066030228745,2.000962959810864,0.05867333387727276,-0.21081309666517592,0.3644042829841323,0.05737544849644932,0.36534837502740336,-1.2743150941845682
141,3.578534904177153,5.406828524364001,-2.18361559866592,-5.152272598448097,5.8925616651250605,2.005424865028325,0.05884749263878646,-0.21086235594058697,0.36485136562206355,0.05119206418918659,0.3601801432459567,-1.277200226139821
142,3.578140670060381,5.406485832923864,-2.187036167054247,-5.157836615430743,5.89605142580346,2.009361840220204,0.05901070902324995,-0.21090030525402176,0.36524416214084476,0.04576240105039904,0.35561209159963586,-1.2796614440627516
143,3.577799000492511,5.406188833675745,-2.190000659657464,-5.162658763482367,5.89907588505807,2.0127738853864985,0.05915939516696747,-0.21092902601765315,0.3655831893213235,0.04107604965447825,0.3516479607419944,-1.2817307774522315
144,3.577509895473545,5.405937526619644,-2.192509076475571,-5.166739042602974,5.901635042888897,2.015661000527208,0.059290446009943584,-0.21095031355171587,0.365868972642628,0.03712436162346933,0.3482904573186677,-1.2834357558860108
145,3.577273355003481,5.405731911755562,-2.1945614175085675,-5.170077452792559,5.9037288992959365,2.0180231856423347,0.05940123816582,-0.2109656804071853,0.3661020129457779,0.03390029026949068,0.34554148664190404,-1.2847995052385517
146,3.577089379082321,5.405571989083498,-2.1961576827564526,-5.17267399405113,5.90535745427919,2.019860440731878,0.05948962837717199,-0.21097635944783266,0.366282758280186,0.03139825517816544,0.3434023470302378,-1.2858408307818863
147,3.576957967710064,5.405457758603452,-2.1972978722192282,-5.174528666378679,5.906520707838653,2.0211727657958365,0.0595539518503993,-0.2109833065551248,0.3664115809128825,0.029614031198220505,0.34187388710076355,-1.2865742862086318
148,3.576879120886709,5.405389220315425,-2.1979819858968943,-5.175641469775206,5.907218659974334,2.0219601608342126,0.059593020711017373,-0.21098720284537362,0.3664887594776715,0.02854466205316994,0.3409566270514674,-1.2870102279022029
149,3.5768528386122576,5.405366374219416,-2.198210023789449,-5.176012404240716,5.907451310686228,2.0222226258470037,0.05960612276658898,-0.2109884563138551,0.36651446624253,0.02818839864551263,0.3406508447299865,-1.2871548539929094
