nimar13/UR3e_dataset_trayectorias/data/trayectorias_completas_UR3e_TRAPEZOIDAL/trayectoria_457.csv
Punto,shoulder_pan_joint,shoulder_lift_joint,elbow_joint,wrist_1_joint,wrist_2_joint,wrist_3_joint,Posicion_X,Posicion_Y,Posicion_Z,Roll,Pitch,Yaw
0,-3.662675971990701,5.128193152918314,-2.4081204766100033,-1.3805696632090472,4.5859623134803105,-1.0332477609845228,0.11452433297422104,-0.20275590962707818,0.367535144563824,-1.5424043624757644,-1.3068836774499384,0.004861749251021676
1,-3.662504227382175,5.128016892524088,-2.407613661258689,-1.379971244471133,4.585115455505308,-1.0330260302685665,0.11459857718647004,-0.20266957019143086,0.36770359198431657,-1.5467087880434311,-1.3072721425772045,0.009599476086312656
2,-3.661988993556597,5.1274881113414095,-2.4060932152047467,-1.3781759882573903,4.582574881580301,-1.032360838120698,0.11482058063815834,-0.20241016844555582,0.3682081810457001,-1.5597046513598063,-1.3084045082207856,0.023890512375217825
3,-3.6611302705139668,5.126606809370278,-2.4035591384481756,-1.375183894567819,4.578340591705291,-1.031252184540917,0.1151881648304511,-0.20197656734593727,0.36904664617508226,-1.5816312864172488,-1.3101802439725594,0.047960003695419216
4,-3.6599280582542844,5.125372986610695,-2.4000114309889766,-1.3709949634024192,4.572412585880275,-1.0297000695292235,0.11569772931192432,-0.20136691600836482,0.3702151918794657,-1.6128569714285286,-1.3124271983067197,0.08215259341661703
5,-3.65838235677755,5.123786643062659,-2.395450092827149,-1.365609194761191,4.564790864105255,-1.0277044930856176,0.11634429791072326,-0.20057871578598604,0.3717084647372554,-1.6538243771574632,-1.3148955085236247,0.1268778860485485
6,-3.656493166083764,5.1218477787261705,-2.3898751239626934,-1.3590265886441344,4.555475426380231,-1.0252654552100995,0.11712158474658595,-0.19960891233920766,0.37351951679055434,-1.7049582056422057,-1.3172510479470616,0.18251809948351005
7,-3.6542604861729258,5.119556393601229,-2.383286524395609,-1.351247145051249,4.544466272705202,-1.022382955902669,0.11802208122164723,-0.1984540131875693,0.3756397629562036,-1.7665240120852237,-1.3190711288354344,0.2492868914114696
8,-3.651684317045035,5.116912487687836,-2.3756842941258967,-1.3422708639825354,4.531763403080169,-1.019056995163326,0.11903716540373814,-0.19711022998935676,0.3780589358366589,-1.8384359451754693,-1.319846696912915,0.3270370855461348
9,-3.6487646587000926,5.113916060985991,-2.367068433153556,-1.3320977454379932,4.517366817505131,-1.0152875729920705,0.12015723533175778,-0.19557364447998363,0.38076504207846096,-1.9200344559475928,-1.3189964389127717,0.4150383360122012
10,-3.6455015111380984,5.1105671134956925,-2.357438941478587,-1.3207277894176226,4.50127651598009,-1.0110746893889027,0.12137186776463026,-0.1938403966038364,0.3837443251882283,-2.00989315214473,-1.3158976787274785,0.5117838929776952
11,-3.6418948743590516,5.106865645216942,-2.346795819100989,-1.3081609959214235,4.483492498505043,-1.0064183443538224,0.12267000373720584,-0.19190689288804144,0.38698124046057014,-2.1057498876576792,-1.3099349438591776,0.6149215430868473
12,-3.637944748362953,5.102811656149739,-2.3351390660207634,-1.2943973649493958,4.464014765079992,-1.0013185378868297,0.12404016195135978,-0.1897700325261002,0.3904584483796833,-2.204652815190021,-1.30055937922049,0.7213994346756551
13,-3.6336511331498023,5.098405146294084,-2.322468682237909,-1.2794368965015397,4.442843315704937,-0.9957752699879248,0.12547068049153642,-0.1874274479649804,0.39415683350034336,-2.303335885763396,-1.287344169141897,0.8278412510431559
14,-3.6290140287195998,5.093646115649976,-2.3087846677524264,-1.263279590577855,4.419978150379877,-0.9897885406571073,0.12694998658529566,-0.18487775602743972,0.39805555636047346,-2.3987169332336142,-1.2700190924574342,0.9310438474047528
15,-3.6240334350723447,5.088534564217416,-2.294087022564316,-1.2459254471783419,4.395419269104813,-0.9833583498943775,0.12846689310782364,-0.18212081476550424,0.4021321463843431,-2.4883358490054848,-1.2484747948125212,1.0284148319434965
16,-3.618709352208038,5.083070491996403,-2.278375746673577,-1.2273744663030004,4.369166671879745,-0.9764846976997352,0.13001091923634467,-0.17915798035282735,0.4063626439522189,-2.5705886201351795,-1.2227400474539096,1.1182058371491679
17,-3.613041780126679,5.077253898986938,-2.261650840080209,-1.2076266479518303,4.341220358704671,-0.9691675840731806,0.1315726310845455,-0.17599235741406946,0.41072179978029266,-2.6447298685393186,-1.1929444693168445,1.1995140900038495
18,-3.607030718828268,5.07108478518902,-2.243912302784213,-1.1866819921248317,4.311580329579594,-0.9614070090147135,0.13314399628732917,-0.17262903529971665,0.4151833394078947,-2.710716093612703,-1.1592802239892024,1.2721244521905988
19,-3.600676168312805,5.064563150602651,-2.225160134785589,-1.1645404988220045,4.280246584504512,-0.9532029725243341,0.13471874437510098,-0.16907530199695248,0.41972029985519926,-2.768990111600131,-1.121971339495645,1.336292391019039
20,-3.5939781285802903,5.057688995227828,-2.2053943360843364,-1.1412021680433488,4.247219123479426,-0.9445554746020423,0.13629272240467,-0.1653408266844433,0.42430544431776757,-2.8202805553916304,-1.0812534580969704,1.3925417114143583
21,-3.586936599630723,5.050462319064554,-2.184614906680456,-1.116666999788865,4.212497946504335,-0.935464515247838,0.1378642327531005,-0.16143780146481584,0.4289117590274778,-2.8654497047133063,-1.037363010501581,1.4415102864920875
22,-3.579551581464104,5.042883122112826,-2.1628218465739466,-1.0909349940585522,4.17608305357924,-0.9259300944617214,0.13943433731024923,-0.15738103262607112,0.4335130340590744,-2.9053935554531827,-0.9905333660835227,1.483847666530691
23,-3.5718230740804326,5.034951404372647,-2.140015155764809,-1.0640061508524112,4.137974444704141,-0.9159522122436923,0.14100710963469337,-0.15318797198184142,0.43808452683291627,-2.9409843725674913,-0.9409955447629563,1.520154789763578
24,-3.563751077479709,5.026667165844015,-2.1161948342530432,-1.0358804701704418,4.098172119879036,-0.9055308685937509,0.142589814110147,-0.14887867951312217,0.4426037033079293,-2.9730429302933254,-0.8889816820432133,1.5509529926373204
25,-3.555335591661934,5.01803040652693,-2.091360882038649,-1.0065579520126435,4.056676079103928,-0.894666063511897,0.14419298893620394,-0.14447570977172192,0.44705104734801776,-3.0023294400920904,-0.8347300977660133,1.5766713398809569
26,-3.5465766166271067,5.009041126421393,-2.0655132991216263,-0.9760385963790171,4.0134863223788155,-0.8833577969981308,0.14583040812764816,-0.14000391639036266,0.45141092348620027,-3.029545219678969,-0.7784913366674102,1.5976443906622264
27,-3.537474152375227,4.999699325527404,-2.0386520855019756,-0.9443224032695621,3.9686028497036983,-0.8716060690524521,0.1475188968371551,-0.13549017164120017,0.4556724723519772,-3.055339896106743,-0.7205348978631992,1.6141153253421918
28,-3.528028198906296,4.990005003844962,-2.0107772411796967,-0.9114093726842786,3.922025661078577,-0.859410879674861,0.1492779745467789,-0.13096300133156558,0.45983051147054943,-3.0803209244984107,-0.661156582853837,1.6262414523814626
29,-3.5182387562203123,4.979958161374068,-1.981888766154789,-0.8772995046231666,3.873754756503451,-0.8467722288653575,0.15112930230938806,-0.1264521394224794,0.4638864071533114,-3.105063475230462,-0.6006865061098612,1.6341005469170296
30,-3.5081058243172767,4.969558798114721,-1.951986660427253,-0.8419927990862262,3.8237901359783204,-0.8336901166239417,0.15309591359035715,-0.12198801155085323,0.46784887601804964,-3.1301194597875277,-0.539497855717727,1.6376974263130937
31,-3.497629403197189,4.958806914066922,-1.921070923997089,-0.8054892560734571,3.7721317995031853,-0.8201645429506134,0.15520121368575657,-0.11760116201561216,0.47173466762858046,3.127160519923657,-0.4780164753103707,1.6369708265311087
32,-3.4868094928600493,4.947702509230671,-1.8891415568642964,-0.7677888755848596,3.718779747078046,-0.8061955078453727,0.15746774047090872,-0.11332164456135027,0.4755690732412743,3.0998813207277554,-0.4167312589301071,1.6318011471647051
33,-3.4756460933058575,4.936245583605967,-1.8561985590288756,-0.7288916576204337,3.6637339787029024,-0.7917830113082197,0.15991568959890992,-0.1091784031851877,0.4793862001966179,3.0707141329178054,-0.35620519023430586,1.6220200747726679
34,-3.4641392045346135,4.92443613719281,-1.8222419304908264,-0.6887976021801792,3.606994494377754,-0.7769270533391541,0.16256122036439904,-0.10519867483582523,0.483228947693463,3.0391592406005428,-0.2970865876017091,1.6074235156971237
35,-3.452288826546318,4.912274169991202,-1.7872716712501489,-0.6475067092640964,3.5485612941026012,-0.7616276339381762,0.16541457427919098,-0.10140745080775673,0.4871486182066548,3.0047419069394046,-0.24011970189012088,1.5877896512577718
36,-3.44009495934097,4.89975968200114,-1.7512877813068433,-0.6050189788721849,3.4884343778774447,-0.745884753105286,0.1684780567971887,-0.09782703731023246,0.49120410038952855,2.96703139929497,-0.18615322526445455,1.5629041636657295
37,-3.42755760291857,4.8868926732226265,-1.714290260660909,-0.5613344110044449,3.4266137457022827,-0.7296984108404834,0.17174395317090307,-0.09447675749036726,0.495460564704994,2.925670195215128,-0.13614451379417591,1.5325945429697605
38,-3.4146767572791177,4.873673143655661,-1.6762791093123464,-0.5164530056608764,3.363099397577117,-0.7130686071437682,0.17519247144039526,-0.09137283644861112,0.4999876230035772,2.880414249259366,-0.0911564931844003,1.4967745071261198
39,-3.4014524224226137,4.860101093300242,-1.6372543272611555,-0.4703747628414794,3.297891333501947,-0.6959953420151407,0.17878982805211846,-0.08852850683432936,0.5048569184971398,2.831183159292775,-0.05234354616509214,1.4554974968077627
40,-3.3878845983490575,4.846176522156371,-1.5972159145073364,-0.4230996825462541,3.230989553476772,-0.6784786154546008,0.18248661324139465,-0.08595436483168184,0.5101391336103653,2.7781155198424745,-0.020922616383564435,1.4090146241044517
41,-3.373973285058449,4.831899430224048,-1.556163871050889,-0.3746277647752003,3.162394057501593,-0.6605184274621485,0.18621659239657623,-0.08365899424301762,0.515900430359464,2.721619951233883,0.001873078617873131,1.3578276217045826
42,-3.359718482550789,4.817269817503272,-1.514098196891813,-0.3249590095283179,3.0921048455764097,-0.6421147780377838,0.18989611412653956,-0.08164985965202283,0.5221983712331243,2.6624076592680073,0.01485740665550344,1.3027226673840913
43,-3.345120190826077,4.802287683994044,-1.4710188920301088,-0.27409341680560706,3.0201219177012217,-0.6232676671815067,0.19342430335941405,-0.07993444829884873,0.5290774076554581,2.6014906660000396,0.01696675125686888,1.2447691985798532
44,-3.3301784098843124,4.786953029696363,-1.4269259564657761,-0.22203098660706733,2.9464452738760287,-0.6039770948933172,0.19668421599545538,-0.07852161471154528,0.5365640671154555,2.5401341847596153,0.007337193407506913,1.185272103657934
45,-3.314893139725496,4.77126585461023,-1.3818193901988154,-0.1687717189326996,2.871074914100832,-0.5842430611732152,0.1995451178471612,-0.0774230531825604,0.5446620174841768,2.4797630985587413,-0.014630542423633644,1.1256770750151124
46,-3.2992643803496278,4.755226158735645,-1.3356991932292261,-0.11431561378250343,2.7940108383756312,-0.5640655660212011,0.20186602238182116,-0.07665479228856402,0.5533472357808046,2.42183784967144,-0.04923190795902416,1.0674441226894864
47,-3.283292131756707,4.738833942072607,-1.2885653655570088,-0.05866267115647861,2.7152530467004254,-0.5434446094372742,0.20350057706393376,-0.0762385748736715,0.562563555861228,2.367727034543864,-0.09645316915224628,1.0119160125611988
48,-3.2669763939467344,4.722089204621116,-1.240417907182163,-0.001812891054625343,2.6348015390752155,-0.5223801914214352,0.20430332546706997,-0.07620295892292052,0.5722189116567847,2.3186059223892186,-0.15599925252042657,0.9602099376702934
49,-3.25031716691971,4.704991946381174,-1.191256818104689,0.05623372652305636,2.552656315500001,-0.5008723119736838,0.20413729136429765,-0.07658395279489615,0.58218262551425,2.2754010114852123,-0.2273460866119248,0.9131509429986564
50,-3.233333533409914,4.687561751841026,-1.1411384111413994,0.11541069060568798,2.4689114713053373,-0.4789456078402372,0.20288476804478267,-0.07742377832378769,0.5922728838547409,2.2388231085218675,-0.3097069479620729,0.8712934552691856
51,-3.2162735689629955,4.670053219347889,-1.0907947529108588,0.17485361857183612,2.3847902457884516,-0.4569203567219211,0.20049975849226132,-0.07874779510327798,0.6021404879713198,2.2096778339695358,-0.40088177188660096,0.8353051287987314
52,-3.1992136045160766,4.6525446868547515,-1.0404510946803183,0.23429654653798426,2.300669020271565,-0.4348951056036052,0.19699715808455934,-0.0805763609016279,0.6115272296841678,2.188020475743749,-0.49926246431954935,0.8049803197776499
53,-3.182153640069158,4.6350361543616145,-0.9901074364497777,0.29373947450413285,2.2165477947546792,-0.41286985448528934,0.19242859514417582,-0.08293093152119453,0.6202167859941348,2.1737064872072005,-0.6037087902415907,0.779718425592438
54,-3.1650936756222396,4.6175276218684775,-0.9397637782192372,0.353182402470281,2.1324265692377926,-0.39084460336697324,0.1868858354243028,-0.08582822392679043,0.62799650506525,2.166694602086192,-0.7132024435426667,0.7587324322708976
55,-3.1480337111753207,4.6000190893753405,-0.8894201199886966,0.41262533043642957,2.048305343720906,-0.36881935224865736,0.18049956944249504,-0.08927708735262432,0.6346648323333798,2.1672058869763924,-0.8268377331036856,0.7409782048425902
56,-3.130973746728402,4.582510556882203,-0.8390764617581556,0.47206825840257816,1.9641841182040194,-0.34679410113034126,0.17343673014033661,-0.09327551484575469,0.6400384937698568,2.176002086724976,-0.9438031298378964,0.7249323750226532
57,-3.1139137822814833,4.565002024389066,-0.7887328035276155,0.5315111863687263,1.8800628926871337,-0.3247688500120254,0.1658964126840615,-0.09780795464982177,0.6439592040718025,2.195016727439359,-1.063352161042209,0.7079942125534027
58,-3.096853817834565,4.547493491895928,-0.738389145297075,0.5909541143348749,1.795941667170247,-0.3027435988937093,0.15810451866390163,-0.10284306996885978,0.6462996815433799,2.229154448526563,-1.1847480151628793,0.6847037765086643
59,-3.079793853387646,4.529984959402791,-0.6880454870665345,0.650397042301023,1.7118204416533604,-0.2807183477753934,0.15030729332655393,-0.10833207833616607,0.6469687722843412,2.2930765859212325,-1.3070991050445453,0.6399642936214835
60,-3.0627338889407274,4.512476426909654,-0.6377018288359939,0.7098399702671716,1.6276992161364747,-0.2586930966570775,0.14276396512484144,-0.11420777873082125,0.6459155133725114,2.452303611508438,-1.4284275510396909,0.5079423792867606
61,-3.0456739244938085,4.494967894416517,-0.5873581706054534,0.7692828982333197,1.5435779906195881,-0.2366678455387614,0.13573873033221096,-0.12038434665107403,0.6431319971800009,-2.7917734736200486,-1.5263427106895384,-0.4961285079594763
62,-3.02861396004689,4.477459361923379,-0.5370145123749124,0.8287258261994688,1.4594567651027015,-0.2146425944204453,0.12949235054242375,-0.12675794568351556,0.6386549357957307,-1.3147739868887147,-1.4486867631429363,-1.9303266198296334
63,-3.011553995599971,4.459950829430242,-0.48667085414437183,0.8881687541656169,1.375335539585815,-0.19261734330212943,0.12427364664941506,-0.1332081699677872,0.6325658645993862,-1.1047028538140853,-1.3282232520946826,-2.0897789648840868
64,-2.9944940311530526,4.442442296937104,-0.4363271959138313,0.947611682131765,1.2912143140689292,-0.17059209218381355,0.12031117880191786,-0.13960029672083676,0.624989966102755,-1.0125601009969587,-1.2060396885981393,-2.123310650829383
65,-2.9774340667061336,4.424933764443967,-0.38598353768329074,1.0070546100979136,1.2070930885520426,-0.14856684106549745,0.11780539762609767,-0.14578829307542474,0.616093537939271,-0.946707886965488,-1.0846955236930265,-2.1222630719566578
66,-2.960374102259215,4.40742523195083,-0.3356398794527502,1.0664975380640618,1.1229718630351568,-0.12654158994718157,0.11692153784023718,-0.15161848832233044,0.6060801710146908,-0.8884805141279983,-0.9651572648128879,-2.104884547582196
67,-2.9433141378122967,4.389916699457693,-0.28529622122220966,1.1259404660302108,1.0388506375182693,-0.10451633882886546,0.11778350173567942,-0.15693379258118736,0.5951857440231131,-0.8315089159043552,-0.8481767595798289,-2.0770088872645873
68,-2.9262541733653777,4.372408166964555,-0.2349525629916691,1.1853833939963594,0.9547294120013836,-0.08249108771054936,0.1204689476915715,-0.16157831720314778,0.5836723775343389,-0.7728727884281228,-0.734500967018942,-2.040911401705483
69,-2.909194208918459,4.354899634471418,-0.18460890476112857,1.2448263219625075,0.870608186484497,-0.06046583659223348,0.1250057590580391,-0.16540223190790793,0.5718215235201048,-0.7109084057525177,-0.6249359587782146,-1.9975183592018118
70,-2.8921342444715403,4.337391101978281,-0.13426524653058802,1.3042692499286557,0.7864869609676113,-0.0384405854739176,0.1313700227798537,-0.16826667964941203,0.5599263934913189,-0.6444960546677024,-0.5203781471677591,-1.947151638943881
71,-2.875074280024622,4.319882569485143,-0.08392158830004748,1.3637121778948038,0.7023657354507247,-0.016415334355601496,0.13948559665275514,-0.17004856311819613,0.5482839495144823,-0.5727973528272075,-0.42183332579747856,-1.8898456938672499
72,-2.8580143155777034,4.302374036992006,-0.033577930069506934,1.423155105860952,0.618244509933839,0.005609916762714384,0.1492252908775257,-0.1706450169852901,0.5371866966035865,-0.4951664032694399,-0.33042631093482727,-1.825521262778402
73,-2.840954351130784,4.284865504498869,0.016765728161034055,1.482598033827101,0.5341232844169514,0.027635167881030487,0.16041363546695325,-0.16997738755078787,0.5269145218965764,-0.41114553413813815,-0.24739827073102374,-1.7541123759483708
74,-2.8238943866838655,4.267356972005732,0.0671093863915746,1.5420409617932491,0.4500020589000657,0.04966041899934637,0.17283115195966237,-0.16799455616932246,0.5177268254021636,-0.3205109499048252,-0.17408606312112396,-1.675683118235257
75,-2.806834422236947,4.249848439512594,0.1174530446221147,1.6014838897593973,0.36588083338318,0.07168567011766225,0.18621999765391786,-0.16467546419254392,0.5098551789555837,-0.223347758484088,-0.11187694279932821,-1.5905440226397747
76,-2.789774457790028,4.232339907019457,0.1677967028526557,1.6609268177255463,0.2817596078662925,0.09371092123597857,0.2002908049389057,-0.16003072443870564,0.5034967345960281,-0.12013185609107532,-0.06213375655762469,-1.4993597880854068
77,-2.772714493343109,4.2148313745263195,0.21814036108319623,1.7203697456916953,0.1976383823494059,0.11573617235429445,0.21473049884747242,-0.15410323637808285,0.4988085813444558,-0.011788085538779037,-0.026091562622249962,-1.4032249233618108
78,-2.7556545288961907,4.1973228420331825,0.2684840193137368,1.7798126736578435,0.11351715683252017,0.13776142347261033,0.22921084403531233,-0.14696775811682378,0.49590322099959466,0.10031079796532434,-0.004736627814341287,-1.303675789750392
79,-2.738594564449272,4.1798143095400455,0.3188276775442773,1.8392556016239916,0.02939593131563356,0.15978667459092644,0.24339744908799926,-0.13872942652239967,0.49484529995327964,0.2144314749374278,0.0013099026984733713,-1.20261430970957
80,-2.7215346000023537,4.1623057770469085,0.3691713357748174,1.8986985295901397,-0.05472529420125216,0.18181192570924232,0.25695894214047915,-0.12952125600854392,0.4956496961876199,0.3286545959704924,-0.008125096501394442,-1.1021441491234072
81,-2.7044746355554348,4.144797244553771,0.4195149940053584,1.9581414575562879,-0.13884651971813877,0.2038371768275582,0.2695760276996003,-0.11950068508503013,0.4982810197204903,0.4411018986487851,-0.03274138810156844,-1.0043554291300112
82,-2.687414671108516,4.127288712060634,0.4698586522358985,2.017584385522437,-0.2229677452350245,0.2258624279458743,0.2809501403749871,-0.10884527628525853,0.5026545420717762,0.5501571200125066,-0.07180539875569913,-0.9111183339220995
83,-2.6703547066615974,4.109780179567496,0.5202023104664395,2.077027313488585,-0.3070889707519111,0.24788767906419018,0.2908114266820784,-0.0977477080859656,0.5086385271457023,0.6546258110191501,-0.12424296573168239,-0.8239425829583319
84,-2.653294742214679,4.092271647074359,0.5705459686969796,2.136470241454733,-0.3912101962687977,0.26991293018250606,0.2989258105784478,-0.08641022562362247,0.516057893594477,0.753808578427444,-0.18875822412574117,-0.7439313302021183
85,-2.6362347777677604,4.074763114581222,0.6208896269275206,2.1959131694208813,-0.47533142178568344,0.29193818130082216,0.3051009310092501,-0.07503873925885918,0.5246990985490871,0.8474979202479309,-0.26395038726953124,-0.6718242949679114
86,-2.6191748133208415,4.057254582088085,0.6712332851580607,2.2553560973870295,-0.55945264730257,0.31396343241913804,0.30919077926677985,-0.06383677542847256,0.5343160958117261,0.9359323004105465,-0.34840834673011717,-0.6081049400525592
87,-2.6021148488739225,4.039746049594948,0.7215769433886017,2.3147990253531785,-0.6435738728194558,0.3359886835374539,0.3110989089729185,-0.05299949209299691,0.5446371893331646,1.0197479139962806,-0.44077425152010385,-0.5531463677742475
88,-2.585054884427004,4.02223751710181,0.7719206016191427,2.3742419533193275,-0.7276950983363433,0.35801393465577025,0.3107801403482694,-0.04270797105637069,0.5553725760398635,1.0999667070080918,-0.5397758311415134,-0.5073857697820615
89,-2.567994919980085,4.004728984608672,0.8222642598496828,2.4336848812854757,-0.8118163238532299,0.38003918577408635,0.30824073139051356,-0.03312399142065315,0.5662223516513162,1.1780615371687566,-0.6442308522167153,-0.47154289586126275
90,-2.5509349555331666,3.987220452115535,0.8726079180802238,2.493127809251624,-0.8959375493701156,0.40206443689240223,0.3035370398390858,-0.02438547266404463,0.5768847396635983,1.2561615256823724,-0.7530255192802183,-0.44693864167587494
91,-2.5338749910862477,3.969711919622398,0.9229515763107639,2.552570737217773,-0.9800587748870022,0.42408968801071834,0.2967727495508388,-0.0166027528128719,0.5870642975804478,1.3375315364674918,-0.8650609031180205,-0.4360513447849023
92,-2.516815026639329,3.952203387129261,0.9732952345413048,2.612013665183921,-1.0641800004038888,0.446114939129034,0.28809478141922734,-0.009855837715875998,0.5964798559304036,1.4276600085840665,-0.9791411328931431,-0.44365287445089513
93,-2.4997550621924107,3.9346948546361236,1.023638892771845,2.671456593150069,-1.1483012259207745,0.4681401902473501,0.2776880506370502,-0.0041927225718850665,0.6048719545658281,1.5368854511912602,-1.0937175125254541,-0.47946309975712204
94,-2.482695097745492,3.917186322142986,1.073982551002386,2.7308995211162173,-1.2324224514376612,0.4901654413656662,0.2657692675181087,0.00037115212633464676,0.6120095569133254,1.687437591050221,-1.2061931953041543,-0.5652057246108012
95,-2.4656351332985733,3.899677789649849,1.124326209232926,2.7903424490823654,-1.3165436769545469,0.5121906924839819,0.252580007082947,0.0038522897571169595,0.6176958457281221,1.9340973174325267,-1.3106213723467468,-0.7552749108179617
96,-2.4485751688516544,3.8821692571567117,1.174669867463467,2.8497853770485144,-1.4006649024714335,0.534215943602298,0.2383792922836675,0.006297394209820416,0.6217729327831573,2.4093108263158554,-1.3892113905436396,-1.1818517787178435
97,-2.431515204404736,3.8646607246635742,1.2250135256940071,2.9092283050146626,-1.48478612798832,0.5562411947206141,0.22343594650736057,0.007780558755848056,0.6241253488972753,-3.1297273579896356,-1.399397203014925,-1.8851731884687326
98,-2.4144552399578174,3.8471521921704372,1.2753571839245472,2.9686712329808107,-1.568907353505205,0.5782664458389297,0.2080209725990884,0.008399492245396755,0.6246822187193366,-2.585531444522617,-1.3320235350555034,-2.396333459296332
99,-2.397395275510898,3.8296436596772994,1.325700842155089,3.0281141609469597,-1.6530285790220933,0.6002916969572463,0.19240020815999548,0.008270924473262472,0.6234180655549567,-2.316694947512492,-1.230943716524961,-2.6400259437003895
100,-2.380411642001102,3.8122134651371518,1.3758192491183783,3.08729112502959,-1.7367734232167535,0.6222184010906924,0.17689670310871847,0.0075298706338750385,0.6203698870478797,-2.1748351564038786,-1.119682554939943,-2.764915703762771
101,-2.363752414974077,3.795116206897209,1.4249803381958532,3.145337742607274,-1.8189186467919676,0.643726280538444,0.16196027145388395,0.006340877662049235,0.6157041523896332,-2.0924101522409484,-1.0074489337192727,-2.838840794639895
102,-2.3474366771641053,3.7783714694457187,1.4731277965707,3.202187522709126,-1.8993701544171806,0.6647906985542833,0.14778413631672332,0.004859869844897084,0.6096170664453519,-2.0417073911671157,-0.8973438558207455,-2.889461593490346
103,-2.3314644285711843,3.7619792527826803,1.5202616242429157,3.257840465335149,-1.9781279460923855,0.6854116551382097,0.13449818243978826,0.003223102969593849,0.6023181308428507,-2.0106430703367133,-0.7908398629114288,-2.928842578452318
104,-2.315835669195316,3.7459395569080947,1.5663818212125058,3.3122965704853478,-2.055192021817586,0.7055891502902241,0.1221901028125619,0.0015449725311383086,0.5940232630339334,-1.9932821210524914,-0.6888519852266373,-2.962931672092477
105,-2.3005503990364997,3.7302523818219617,1.6114883874794668,3.3655558381597137,-2.1305623815927817,0.725323184010326,0.1109100240007592,-8.320593887829568e-05,0.584946731545535,-1.9864033209456364,-0.5920527051773904,-2.9949684681624533
106,-2.2856086180947353,3.714917727524282,1.6555813230437986,3.4176182683582557,-2.2042390254179747,0.7446137562985156,0.10067570209997012,-0.0015931320336892989,0.5752944630366635,-1.988107247188044,-0.5009932083229175,-3.0268465352070635
107,-2.2710103263700234,3.699935594015054,1.698660627905502,3.4684838610809647,-2.2762219532931613,0.7634608671547922,0.09147794468023343,-0.0029384030066332235,0.5652587616081333,-1.9971802013640205,-0.41615358352050125,-3.059716503870333
108,-2.256755523862363,3.685305981294278,1.7407263020645791,3.5181526163278454,-2.3465111652183435,0.7818645165791569,0.0832859758846212,-0.004092587000800233,0.5550144090801119,-2.0127714089233257,-0.33796215414165953,-3.094273345816431
109,-2.242844210571754,3.671028889361954,1.7817783455210279,3.566624534098903,-2.4151066611935263,0.7998247045716096,0.07605252503939719,-0.005046725977426551,0.5447160590123681,-2.034213378782056,-0.26679901895811664,-3.130899860733182
110,-2.229276386498199,3.6571043182180833,1.8218167582748466,3.613899614394125,-2.4820084412186993,0.817341431132149,0.0697184797888325,-0.005806490832100233,0.5344967966898991,-2.0609143028111903,-0.20299032281779023,3.1134445062200897
111,-2.216052051641694,3.6435322678626645,1.860841540326037,3.659977857213523,-2.5472165052938696,0.8344146962607768,0.06421700004696249,-0.006389186000553767,0.5244677109658384,-2.0922912629079327,-0.14679677138607639,3.072441783433449
112,-2.203171206002242,3.6303127382956983,1.8988526916746,3.7048592625570933,-2.610730853419037,0.8510444999574922,0.05947703713259978,-0.006820770272682231,0.5147183100599793,-2.127730430166593,-0.09839900754858015,3.029500837459846
113,-2.190633849579842,3.6174457295171845,1.9358502123205348,3.7485438304248317,-2.6725514855942,0.8672308422222947,0.055426242366564814,-0.007133027425988077,0.505317610170441,-2.166568218185221,-0.0578823885776982,2.984992583515648
114,-2.178439982374494,3.604931241527124,1.9718341022638404,3.7910315608167444,-2.7326784018193564,0.8829737230551848,0.051993280918578556,-0.007360987036741953,0.49631573096657783,-2.2080903574971846,-0.025223813887225117,2.9394082002249475
115,-2.166589604386199,3.5927692743255153,2.006804361504515,3.832322453732826,-2.7911116020945084,0.8982731424561625,0.04910959010076229,-0.007540664280898266,0.48774584362036405,-2.2515462113704894,-0.00028316312810076606,2.8933257629482814
116,-2.1550827156149546,3.5809598279123587,2.040760990042565,3.87241650917308,-2.847851086419656,0.9131291004252282,0.04671063731041841,-0.007707159032233731,0.47962633306556907,-2.2961746268338077,0.017198614515001834,2.847371092513939
117,-2.1439193160607632,3.5695029022876548,2.0737039878779866,3.9113137271375074,-2.9028968547947986,0.9275415969623815,0.04473674237018509,-0.007893129960635448,0.4719630549245678,-2.3412362747527076,0.027593701926004247,2.8021758948923883
118,-2.133099405723623,3.558398497451403,2.105633355010779,3.9490141076261036,-2.956248907219937,0.9415106320676219,0.04313353316979327,-0.008127639072403846,0.4647515875416682,-2.3860466853485174,0.031374121373275096,2.758337742995155
119,-2.1226229846035354,3.5476466134036038,2.136549091440944,3.985517650638876,-3.0079072436950725,0.9550362057409503,0.04185210338283735,-0.008435346317440199,0.4579793996125358,-2.4300045685444585,0.029092403394007527,2.7163865076660225
120,-2.1124900527005,3.537247250144257,2.16645119716848,4.0208243561758135,-3.057871864220205,0.9681183179823662,0.04084893767449701,-0.008836022349464293,0.45162787307601765,-2.472611520773047,0.02135855059178259,2.6767606046481855
121,-2.1027006100145162,3.5272004076733627,2.195339672193385,4.054934224236925,-3.1061427687953316,0.9807569687918698,0.040085664199674034,-0.009344339905916753,0.44567413856677174,-2.513481380930642,0.00881594389083741,2.6397944362082058
122,-2.0932546565455845,3.517506085990922,2.2232145165156645,4.08784725482221,-3.1527199574204516,0.9929521581694605,0.0395286871588929,-0.009969900088779945,0.4400926963725267,-2.552339629405167,-0.007881408409694072,2.6057163876211584
123,-2.0841521922937054,3.508164285096932,2.2500757301353183,4.1195634479316645,-3.197603430095569,1.00470388611514,0.039148744434940125,-0.010717448522754924,0.4348568092527132,-2.589014775632921,-0.028088516270067743,2.5746552626059067
124,-2.0753932172588776,3.4991750049913954,2.275923313052341,4.15008280356529,-3.2407931868206834,1.0160121526289063,0.03892042743725987,-0.0115872373684582,0.42993966457123384,-2.6234244192624465,-0.05118497338504638,2.5466523540163255
125,-2.0669777314411033,3.490538245674311,2.300757265266731,4.17940532172309,-3.2822892275957916,1.0268769577107602,0.038821692657720244,-0.012575491916618109,0.4253153120177806,-2.655558675834604,-0.07658619441249151,2.5216763770287938
126,-2.0589057348403794,3.4822540071456785,2.3245775867784975,4.207531002405057,-3.322091552420895,1.0372983013607016,0.03883338739080386,-0.013674944467835138,0.42095938987573855,-2.6854631845683548,-0.1037506167124603,2.499638992428588
127,-2.0511772274567077,3.4743222894054986,2.3473842775876363,4.234459845611202,-3.360200161295994,1.047276183578731,0.03893880578651,-0.014875402953943464,0.41684965754156916,-2.713223244561568,-0.13218347926747873,2.480409339610235
128,-2.0437922092900895,3.466743092453772,2.369177337694145,4.260191851341512,-3.396615054221087,1.056810604364847,0.03912328598891526,-0.01616432689310386,0.4129663550511141,-2.738949969041274,-0.1614379181088438,2.4638266721853306
129,-2.0367506803405218,3.4595164162904966,2.3899567670980275,4.284727019595996,-3.4313362311961786,1.0659015637190516,0.03937385460008953,-0.017527388475648553,0.40929241198155036,-2.762768820987387,-0.19111410688152605,2.4497107292423004
130,-2.0300526406080075,3.4526422609156753,2.40972256579928,4.308065350374651,-3.464363692221262,1.0745490616413433,0.039678921076886225,-0.018949001606389564,0.4058135285345034,-2.784810532318917,-0.22085708103799218,2.437869848310221
131,-2.0236980900925436,3.446120626329305,2.4284747337979056,4.3302068436774785,-3.4956974372963465,1.082753098131723,0.04002802185773566,-0.02041280640261959,0.40251815111632594,-2.8052041981247027,-0.2503537606360184,2.4281070470645307
132,-2.017687028794133,3.4399515125313873,2.4462132710938977,4.351151499504478,-3.525337466421421,1.0905136731901899,0.04041161194394978,-0.02190210084491878,0.39939736354658745,-2.8240722412060353,-0.27932956029919087,2.420224405753553
133,-2.0120194567127743,3.4341349195219224,2.462938177687265,4.370899317855647,-3.5532837795964927,1.0978307868167443,0.04082090022734476,-0.02340021492990118,0.3964447133510951,-2.8415269218503223,-0.30754486230871814,2.4140261096256395
134,-2.006695373848467,3.4286708473009093,2.478649453578006,4.3894502987309885,-3.579536376821565,1.1047044390113858,0.0412477239602882,-0.02489082575107307,0.3936559906090726,-2.8576680909749186,-0.33479153690744395,2.4093204921664233
135,-2.0017147802012127,3.423559295868349,2.493347098766119,4.406804442130504,-3.6040952580966295,1.1111346297741154,0.04168445730422238,-0.026358214439252143,0.39102897467414294,-2.872581928230407,-0.36088962357357574,2.4059213784823665
136,-1.9970776757710098,3.4188002652242413,2.507031113251598,4.4229617480541865,-3.6269604234216875,1.1171213591049325,0.042123948773139575,-0.027787467854848563,0.38856316189614076,-2.8863404552637553,-0.38568423603500324,2.4036489781307675
137,-1.992784060557859,3.414393755368586,2.5197014970344522,4.4379222165020416,-3.6481318727967427,1.1226646270038376,0.04255948252344269,-0.029164629384910483,0.38625948532943855,-2.8990016594145906,-0.4090427187319462,2.4023305262121077
138,-1.9888339345617605,3.4103397663013832,2.53135825011468,4.451685847474073,-3.667609606221795,1.1277644334708308,0.04298475875623682,-0.030476804212737504,0.38412003539369793,-2.9106101003451115,-0.43085205976829183,2.4018008244941886
139,-1.9852272977827141,3.4066382980226333,2.542001372492276,4.464252640970271,-3.6853936236968465,1.1324207785059102,0.04339388892902623,-0.0317122250570407,0.3821477886037749,-2.9211978999811135,-0.45101655198412366,2.4019027921081375
140,-1.9819641502207186,3.4032893505323347,2.5516308641672474,4.475622596990641,-3.7014839252218863,1.1366336621090785,0.04378140196940406,-0.032860284681993174,0.3803463498384438,-2.930786034846115,-0.46945568705610385,2.402488098053911
141,-1.979044491875777,3.4002929238304893,2.5602467251395886,4.485795715535181,-3.715880510796925,1.1404030842803339,0.044142258202845924,-0.03391154151804827,0.37871971218916517,-2.9393858605490464,-0.4861022654597154,2.4034179150245047
142,-1.9764683227478863,3.3976490179170957,2.567848955409298,4.494771996603893,-3.7285833804219557,1.1437290450196764,0.04447186821929977,-0.03485770456084519,0.37727203722507074,-2.947000802517105,-0.5009007061413671,2.404563805559829
143,-1.9742356428370487,3.395357632792155,2.5744375549763827,4.502551440196784,-3.7395925340969853,1.1466115443271079,0.04476611438696951,-0.03569160338060664,0.37600745752438336,-2.953628146991791,-0.5138055426433287,2.405808727160766
144,-1.9723464521432619,3.3934187684556663,2.580012523840839,4.509134046313839,-3.748907971822007,1.1490505822026256,0.04502137316184983,-0.03640714861949591,0.3749299025441594,-2.9592608638559956,-0.5247800962642406,2.407048122908807
145,-1.9708007506665268,3.39183242490763,2.5845738620026673,4.514519814955067,-3.7565296935970274,1.1510461586462322,0.04523453673002612,-0.03699928781465994,0.3740429483133866,-2.9638893899948346,-0.5337953208938608,2.4081910487466605
146,-1.9695985384068453,3.390598602148047,2.5881215694618653,4.518708746120469,-3.762457699422047,1.1525982736579259,0.04540303285327806,-0.03746396078839323,0.37334969101950854,-2.967503300368106,-0.5408288178702138,2.4091612783741447
147,-1.968739815364215,3.3897173001769163,2.590655646218435,4.521700839810039,-3.7666919892970547,1.1537069272377067,0.04552484206802594,-0.037798058215954514,0.37285264429362047,-2.9700927952038474,-0.5458640221622233,2.4098983221215593
148,-1.9682245815386374,3.3891885189942377,2.5921760922723784,4.523496096023781,-3.7692325632220616,1.1543721193855756,0.04559851161714726,-0.037999386331798085,0.37255365986214145,-2.971649936667267,-0.5488895631214548,2.410358297366532
149,-1.9680528369301111,3.3890122586000113,2.5926829076236935,4.524094514761693,-3.770079421197064,1.1545938501015316,0.045623165680091754,-0.03806664007709819,0.3724538711993243,-2.9721695774356607,-0.5498988038676278,2.4105145948852527
