nimar13/UR3e_dataset_trayectorias/data/trayectorias_completas_UR3e_TRAPEZOIDAL/trayectoria_430.csv
Punto,shoulder_pan_joint,shoulder_lift_joint,elbow_joint,wrist_1_joint,wrist_2_joint,wrist_3_joint,Posicion_X,Posicion_Y,Posicion_Z,Roll,Pitch,Yaw
0,-1.9868954845271194,-0.5881500878733323,0.08774200512525487,5.698725895940916,-4.74130476948865,-0.9229303499567942,-0.08338092641523064,-0.51922981128443,0.4403052380751448,-0.9904059898215012,-1.0852163902972647,-1.915923102136821
1,-1.9867094177448308,-0.5880681617823006,0.08762118378862686,5.698090231944013,-4.740461319041377,-0.9229657893345696,-0.08334677703632527,-0.5191957577889901,0.4403781259667884,-0.9889498715832438,-1.0859454592521849,-1.9174465492042922
2,-1.9861512173979645,-0.5878223835092051,0.08725871977874283,5.696183239953303,-4.737930967699557,-0.9230721074678957,-0.08324421895349964,-0.5190931380306779,0.44059632921422615,-0.9845495986517357,-1.0881255841967246,-1.9220451622263182
3,-1.985220883486521,-0.5874127530540462,0.08665461309560278,5.6930049199687875,-4.7337137154631925,-0.9232493043567724,-0.08307292498740186,-0.518920581706707,0.44095846043154013,-0.9771085486867641,-1.0917351349364106,-1.9298046383109921
4,-1.9839184160105001,-0.5868392704168236,0.08580886373920672,5.688555271990466,-4.72780956233228,-0.9234973800011999,-0.08283235866375488,-0.5186758301413005,0.4414621871371325,-0.966462810149803,-1.096736757252875,-1.940870726239414
5,-1.9822438149699015,-0.5861019355975374,0.08472147170955463,5.6828342960183384,-4.720218508306822,-0.923816334401178,-0.08252178731194086,-0.5183557744381571,0.4421042021046488,-0.9523769521132227,-1.1030753379614135,-1.9554535236112902
6,-1.9801970803647257,-0.5852007485961876,0.08339243700664652,5.675841992052404,-4.710940553386818,-0.9242061675567069,-0.08214030011470497,-0.5179565096953899,0.4428801830814373,-0.9345383357954007,-1.1106749964538567,-1.9738332550638769
7,-1.9777782121949725,-0.5841357094127743,0.0818217596304824,5.667578360092664,-4.699975697572268,-0.9246668794677866,-0.08168683079395433,-0.5174734060445814,0.443784743124682,-0.9125503887336608,-1.1194349425026244,-1.9963671066610604
8,-1.9749872104606419,-0.5829068180472974,0.08000943958106224,5.6580434001391176,-4.6873239408631715,-0.9251984701344169,-0.08116018449026269,-0.5169011974350374,0.44481137319381764,-0.8859257061358549,-1.1292240007896341,-2.0234962467698256
9,-1.971824075161734,-0.5815140744997568,0.07795547685838608,5.647237112191765,-4.672985283259528,-0.9258009395565979,-0.08055906823963284,-0.5162340891979363,0.44595237904693064,-0.854080632481185,-1.139873584787035,-2.055751374055635
10,-1.9682888062982484,-0.5799574787701527,0.07565987146245388,5.635159496250606,-4.6569597247613395,-0.9264742877343296,-0.07988212426610947,-0.5154658854804226,0.4471988149201164,-0.8163342976149984,-1.151168937386776,-2.0937538108937606
11,-1.9643814038701854,-0.578237030858485,0.07312262339326568,5.62181055231564,-4.6392472653686045,-0.9272185146676121,-0.07912796508984053,-0.5145901376232017,0.4485404169215751,-0.7719171505493123,-1.1628386017617176,-2.138207090362175
12,-1.9601018678775453,-0.5763527307647536,0.07034373265082146,5.607190280386869,-4.619847905081323,-0.9280336203564452,-0.07829520919550675,-0.5136003144520815,0.4499655395437464,-0.7199969763627027,-1.1745424433951128,-2.1898710416302567
13,-1.9554501983203274,-0.5743045784889587,0.06732319923512121,5.591298680464291,-4.598761643899495,-0.928919604800829,-0.07738251571601097,-0.5124899952483859,0.45146109918118554,-0.6597339070205532,-1.1858592611599206,-2.249506851952157
14,-1.9504263951985323,-0.5720925740311003,0.06406102314616495,5.574135752547908,-4.575988481823122,-0.9298764680007635,-0.07638861626354325,-0.5112530858386525,0.4530125290302047,-0.5903786514118533,-1.1962762687357356,-2.3177788678041265
15,-1.9450304585121596,-0.5697167173911781,0.060557204383952665,5.555701496637718,-4.551528418852201,-0.9309042099562488,-0.07531234169012366,-0.5098840577835065,0.45460375022570987,-0.5114265255617527,-1.2051845562322963,-2.3951005408181016
16,-1.9392623882612097,-0.5671770085691924,0.05681174294848436,5.535995912733722,-4.525381454986735,-0.9320028306672847,-0.07415264119138323,-0.5083782100323719,0.45621716452435057,-0.4228275312343322,-1.2118866999683344,-2.4814242556350687
17,-1.9331221844456823,-0.5644734475651432,0.052824638839760026,5.5150190008359194,-4.497547590226723,-0.9331723301338715,-0.07290859079350463,-0.5067319516289924,0.4578336742495888,-0.3252229429643671,-1.2156237446398712,-2.5760045636266917
18,-1.9266098470655773,-0.5616060343790302,0.04859589205777969,5.492770760944311,-4.4680268245721635,-0.9344127083560089,-0.0715793879012501,-0.5049431030890608,0.45943273554750774,-0.22013351980671797,-1.2156265549917158,-2.677209688720904
19,-1.919725376120895,-0.5585747690108538,0.04412550260254332,5.469251193058896,-4.4368191580230585,-0.935723965333697,-0.0701643282571194,-0.5030112129155467,0.46099245123095467,-0.10998822212996079,-1.2111888647254916,-2.7824924059125267
20,-1.9124687716116353,-0.5553796514606137,0.039413470474050936,5.444460297179675,-4.4039245905794075,-0.9371061010669357,-0.0686627613954958,-0.5009378843646015,0.4624897095780485,0.002097677697593216,-1.2017473590636394,-2.8886113827027664
21,-1.9048400335377982,-0.55202068172831,0.03445979567230254,5.418398073306648,-4.36934312224121,-0.9385591155557252,-0.06707402050421252,-0.4987271060273138,0.4639003753585367,0.11278221560582806,-1.1869447960922381,-2.9920900853774293
22,-1.8968391618993836,-0.5484978598139427,0.029264478197298105,5.391064521439815,-4.333074753008466,-0.9400830088000655,-0.06539732256778548,-0.4963855780614306,0.4651995390433605,0.21904458547170796,-1.166654664072118,-3.089763723188922
23,-1.8884661566963918,-0.544811185717512,0.02382751804903767,5.362459641579175,-4.2951194828811765,-0.9416777807999563,-0.06363163480506158,-0.49392302401534266,0.4663618295613119,0.318614559212752,-1.1409616073438629,3.1039777635687
24,-1.8797210179288224,-0.5409606594390175,0.018148915227521212,5.3325834337247295,-4.255477311859341,-0.9433434315553979,-0.06177550377680552,-0.4913524761712912,0.4673617950523463,0.410152996147858,-1.1101103508178232,3.0242693404919168
25,-1.8706037455966755,-0.5369462809784594,0.01222866973274872,5.301435897876477,-4.214148239942959,-0.9450799610663903,-0.05982684417609739,-0.48869052024977705,0.4681743547806064,0.4931914372535747,-1.0744445841624484,2.9549447868892296
26,-1.8611143396999514,-0.5327680503358379,0.006066781564720222,5.26901703403442,-4.17113226713203,-0.9468873693329334,-0.057782685277298504,-0.48595748323575627,0.4687753236647372,0.5679305699198429,-1.034353581552034,2.895998982025499
27,-1.8512528002386497,-0.5284259675111527,-0.00033674927656428266,5.235326842198555,-4.126429393426555,-0.9487656563550271,-0.05563887435664623,-0.48317754610411445,0.46914200871748324,0.6350054392307114,-0.9902348755268,2.8470103405443825
28,-1.8410191272127707,-0.5239200325044038,-0.006981922791104836,5.200365322368884,-4.080039618826534,-0.9507148221326716,-0.053389738152427375,-0.4803787614551934,0.4692538740290909,0.6952848421639098,-0.9424732612830914,2.8073441577034113
29,-1.8304133206223143,-0.5192502453155914,-0.013868738978901382,5.164132474545408,-4.031962943331967,-0.9527348666658667,-0.051027705638218464,-0.4775929546629641,0.46909326776156696,0.7497285308705002,-0.8914324607531613,2.7762985839272796
30,-1.8194353804672803,-0.5144166059447154,-0.020997197839953963,5.126628298728124,-3.982199366942854,-0.9548257899546125,-0.04854289805655823,-0.4748554862550083,0.46864620094389225,0.7992990526648198,-0.8374550915974518,2.7531964331871976
31,-1.808085306747669,-0.5094191143917758,-0.028367299374262578,5.087852794917035,-3.9307488896591942,-0.9569875919989091,-0.045922695298876146,-0.47220485307314947,0.4679031636964426,0.8449148915848723,-0.7808674467796685,2.7374361781066643
32,-1.7963630994634803,-0.5042577706567726,-0.0359790435818272,5.04780596311214,-3.8776115114809886,-0.9592202727987564,-0.04315129128875126,-0.4696821065132335,0.4668599599205176,0.8874309554570504,-0.7219867868485913,2.7285160781114675
33,-1.7842687586147141,-0.49893257473970587,-0.043832430462647815,5.006487803313439,-3.8227872324082366,-0.9615238323541544,-0.0402092549627784,-0.4673300680316694,0.4655185365561758,0.9276354410267641,-0.6611298475611854,2.726042349921235
34,-1.7718022842013705,-0.49344352664057545,-0.05192746001672452,4.963898315520931,-3.766276052440938,-0.9638982706651031,-0.0370731176375657,-0.4651923253579098,0.4638877783700445,0.9662555624405642,-0.5986219501877208,2.7297287561375247
35,-1.7589636762234497,-0.48779062635938153,-0.06026413224405716,4.920037499734617,-3.7080779715790944,-0.9663435877316024,-0.03371501184539694,-0.46331199768113884,0.4619842340623485,1.0039673786554695,-0.5348065158630101,2.73939210740087
36,-1.7457529346809513,-0.48197387389612395,-0.06884244714464585,4.874905355954496,-3.6481929898227037,-0.9688597835536527,-0.03010239090383857,-0.4617302646776959,0.459832734507436,1.0414068011683528,-0.4700550069447213,2.7549461251436775
37,-1.7321700595738754,-0.47599326925080276,-0.07766240471849059,4.82850188418057,-3.5866211071717666,-0.9714468581312534,-0.02619786228816712,-0.46048466276297656,0.45746685944531107,1.0791799430136422,-0.40477740903145326,2.7763947259772963
38,-1.718215050902222,-0.469848812423418,-0.08672400496559135,4.780827084412837,-3.5233623236262837,-0.974104811464405,-0.02195917097484413,-0.45960716247400935,0.4549292052562114,1.117871479178239,-0.33943336028188714,2.803824831419324
39,-1.7038879086659913,-0.4635405034139697,-0.0960272478859481,4.731880956651298,-3.4584166391862543,-0.9768336435531072,-0.017339370940734934,-0.45912205341456,0.45227140395786775,1.1580497871647506,-0.2745439360550368,2.8373980796770226
40,-1.6891886328651833,-0.45706834222245774,-0.10557213347956088,4.6816635008959535,-3.391784053851679,-0.9796333543973601,-0.012287223512921712,-0.4590436776069187,0.44955384268888793,1.2002674387844723,-0.21070388935916565,2.877340182789195
41,-1.6741172234997979,-0.45043232884888224,-0.11535866174642964,4.630174717146803,-3.3234645676225574,-0.9825039439971638,-0.006747859814311578,-0.45937406813509923,0.44684503413404547,1.2450552165329531,-0.14859379498315534,2.9239260674319043
42,-1.658673680569835,-0.44363246329324313,-0.12538683268655446,4.577414605403845,-3.25345818049889,-0.9854454123525181,-0.0006637406791527127,-0.4601005672067432,0.444220592071849,1.2929073561202384,-0.08899100119259919,2.977458389182421
43,-1.6428580040752947,-0.4366687455555404,-0.13565664629993526,4.523383165667082,-3.1817648924806754,-0.9884577594634232,0.006024059320310238,-0.461193515588901,0.44176177293333313,1.3442553930806125,-0.03277752167363867,3.0382366833759367
44,-1.6266701940161767,-0.4295411756357741,-0.1461681025865722,4.468080397936511,-3.108384703567915,-0.991540985329879,0.01337422707098667,-0.4626041229621053,0.43955355436303295,1.3994282086399292,0.01905797983241825,3.1065146724358255
45,-1.6101102503924816,-0.42224975353394417,-0.15692120154646508,4.4115063022121355,-3.0333176137606084,-0.9946950899518855,0.021443242171936938,-0.46426264504990084,0.4376822355999592,1.4585972306069297,0.06542800101204371,-3.100740630530887
46,-1.593178173204209,-0.4147944792500507,-0.16791594317961395,4.353660878493953,-2.9565636230587558,-0.9979200733294427,0.03028307821530362,-0.46607700717092104,0.4362325622591716,1.5217089579107805,0.10516842221780029,-3.0171739311295678
47,-1.575873962451359,-0.4071753527840936,-0.17915232748601884,4.294544126781965,-2.8781227314623568,-1.0012159354625505,0.039938608760580224,-0.46793202369612835,0.43528439983772804,1.58841244586809,0.1370794880103905,-2.9262225575488516
48,-1.5581976181339314,-0.399392374136073,-0.19063035446567977,4.23415604707617,-2.797994938971412,-1.0045826763512091,0.05044477655527171,-0.4696893672010728,0.43490900582091857,1.6579963946471983,0.1599877914160314,-2.8284321454255408
49,-1.5401491402519267,-0.3914455433059887,-0.20235002411859665,4.17249663937657,-2.716180245585921,-1.0080202959954183,0.06182361095432286,-0.4711884382327895,0.4351649791887955,1.7293562809030172,0.1728269658077753,-2.72466576688251
50,-1.5217492028922655,-0.3833439631928443,-0.21429791185181102,4.10963653301615,-2.6327723680222466,-1.0115248566865367,0.07406710180345699,-0.4722474129949364,0.4360925821561668,1.8009327210105261,0.17473252735854405,-2.6161964415753007
51,-1.5032665691849203,-0.3752059714836859,-0.22629949795686,4.046493909323776,-2.548989623593118,-1.015045168212222,0.08696877386253055,-0.472669898259635,0.43768225211924927,1.8699855001444228,0.1653748360526972,-2.505972910657846
52,-1.4847839354775751,-0.36706797977452743,-0.23830108406190897,3.9833512856314015,-2.465206879163989,-1.018565479737907,0.10040938441322476,-0.47229113046599264,0.43988969195747796,1.9345504724058857,0.1451344463497772,-2.3958287290024782
53,-1.46630130177023,-0.35892998806536897,-0.25030267016695795,3.920208661939027,-2.3814241347348606,-1.0220857912635921,0.11430968935597315,-0.47096384166499455,0.44265218918215427,1.9931498630983076,0.11471239294653393,-2.286852638191129
54,-1.4478186680628848,-0.3507919963562105,-0.26230425627200693,3.857066038246652,-2.2976413903057322,-1.0256061027892773,0.12857835009575314,-0.4685562278520964,0.44588726765880954,2.0445459417686926,0.07503803164022753,-2.179778630355497
55,-1.4293360343555397,-0.3426540046470521,-0.2743058423770558,3.7939234145542775,-2.213858645876604,-1.0291264143149623,0.14311381100167037,-0.46495551754123665,0.4494944747175427,2.087761395978885,0.02720169203208687,-2.074947700252298
56,-1.4108534006481943,-0.33451601293789357,-0.2863074284821049,3.7307807908619024,-2.1300759014474746,-1.0326467258406475,0.15780650467792268,-0.4600710977280676,0.4533576073757991,2.122048102048176,-0.02760760510062543,-1.9723161332151133
57,-1.3923707669408492,-0.3263780212287351,-0.29830901458715386,3.6676381671695277,-2.0462931570183462,-1.0361670373663328,0.17254132492936713,-0.45383711686228057,0.4573473274090779,2.1468217223381005,-0.08814936611116936,-1.871492723135827
58,-1.373888133233504,-0.31824002951957664,-0.31031060069220284,3.604495543477153,-1.9625104125892179,-1.0396873488920177,0.18720029881689582,-0.4462144978814741,0.46132410603924096,2.161581069179589,-0.15315913651605934,-1.771786439229028
59,-1.3554054995261589,-0.3101020378104182,-0.3223121867972518,3.5413529197847784,-1.8787276681600886,-1.043207660417703,0.20166538270007017,-0.43719230954972665,0.46514143138802,2.1658273887202015,-0.2213558954386557,-1.672251324103759
60,-1.3369228658188137,-0.30196404610125976,-0.3343137729023007,3.4782102960924037,-1.7949449237309603,-1.046727971943388,0.21582130285747592,-0.42678846088311306,0.4686492057385805,2.1589940584756384,-0.2914313247345201,-1.5717230922277596
61,-1.3184402321114685,-0.2938260543921013,-0.34631535900734967,3.4150676724000295,-1.711162179301832,-1.0502482834690732,0.229558359295473,-0.4150497008860173,0.4716972551998094,2.140394890971425,-0.3620239547520144,-1.4688499276387113
62,-1.2999575984041232,-0.2856880626829428,-0.35831694511239875,3.351925048707654,-1.6273794348727026,-1.0537685949947584,0.24277511177172922,-0.4020509236964373,0.4741388716779056,2.1092009964356273,-0.43168181154927543,-1.3621282612418903
63,-1.281474964696778,-0.27755007097378437,-0.37031853121744773,3.2887824250152793,-1.5435966904435743,-1.0572889065204434,0.2553808698691734,-0.38789379706496624,0.4758343061895566,2.0644625486834225,-0.4988186748636738,-1.249963803996753
64,-1.2629923309894329,-0.26941207926462585,-0.3823201173224967,3.225639801322905,-1.459813946014446,-1.0608092180461286,0.26729791408632986,-0.37270474939251813,0.47665413352083646,2.005201871941874,-0.5616727826711769,-1.130789021371271
65,-1.2445096972820877,-0.26127408755546744,-0.3943217034275456,3.16249717763053,-1.3760312015853176,-1.0643295295718138,0.2784633822205588,-0.3566323668635515,0.47648241102457156,1.93061309873475,-0.6182839891721474,-1.0032767079858715
66,-1.2260270635747426,-0.2531360958463089,-0.40632328953259456,3.0993545539381557,-1.2922484571561883,-1.0678498410974988,0.28883076460610757,-0.3398442671000947,0.4752195588935694,1.840397472753352,-0.6665156803838659,-0.8666823236374978
67,-1.2075444298673972,-0.2449981041371504,-0.41832487563764365,3.0362119302457806,-1.20846571272706,-1.071370152623184,0.2983709627650012,-0.3225235288331909,0.47278489544523494,1.7352168496081173,-0.7041561105109884,-0.7213003502457335
68,-1.189061796160052,-0.236860112427992,-0.4303264617426926,2.9730693065534055,-1.1246829682979307,-1.074890464148869,0.30707287842046604,-0.30486476799922907,0.4691187686646099,1.6171399833521343,-0.7291267711604278,-0.5689112035340141
69,-1.1705791624527069,-0.22872212071883358,-0.4423280478477416,2.9099266828610313,-1.0409002238688023,-1.0784107756745542,0.3149435132525237,-0.2870699591360729,0.4641842343032532,1.4898234627623836,-0.7397852965380438,-0.4129619207795082
70,-1.1520965287453617,-0.22058412900967506,-0.45432963395279047,2.846784059168656,-0.957117479439674,-1.0819310872002394,0.32200757385456275,-0.26934410676293696,0.4579682410157579,1.3581559182137988,-0.7352392645848116,-0.2582101785511699
71,-1.1336138950380164,-0.21244613730051665,-0.46633122005783945,2.783641435476282,-0.8733347350105456,-1.0854513987259244,0.32830659066865214,-0.25189087443715397,0.45048229410343543,1.2273474557583863,-0.7155351020647678,-0.10981423987801829
72,-1.1151312613306712,-0.20430814559135824,-0.4783328061628884,2.720498811783907,-0.7895519905814172,-1.0889717102516097,0.33389757381788554,-0.23490827932614788,0.4417625811745679,1.1018426082113586,-0.6816226873071911,0.027752427497568948
73,-1.096648627623326,-0.19617015388219972,-0.4903343922679375,2.6573561880915317,-0.705769246152288,-1.0924920217772947,0.3388512423016422,-0.21858455742862837,0.43186955515664843,0.9845788261145375,-0.6351159337246615,0.15143951126839011
74,-1.078165993915981,-0.1880321621730412,-0.5023359783729865,2.5942135643991575,-0.6219865017231596,-1.0960123333029799,0.34324987557534814,-0.20309429911778168,0.42088698233338256,0.8768371903806778,-0.5779707785328518,0.25976427084644493
75,-1.0596833602086357,-0.17989417046388279,-0.5143375644780354,2.5310709407067833,-0.5382037572940312,-1.099532644828665,0.34718484772849256,-0.18859494662869752,0.40892047515050683,0.7785478819039796,-0.5122059462359783,0.3524993139473122
76,-1.0412007265012904,-0.17175617875472426,-0.5263391505830844,2.4679283170144073,-0.4544210128649011,-1.1030529563543503,0.3507539139699357,-0.17522373471015626,0.3960955411660985,0.68875852767628,-0.4397265981445829,0.4301955609590313
77,-1.0227180927939452,-0.16361818704556574,-0.5383407366881334,2.404785693322033,-0.37063826843577274,-1.1065732678800353,0.3540583266425314,-0.1630951432081445,0.38255519044925324,0.6060505966415409,-0.36224772384273574,0.4937553537743416
78,-1.0042354590866,-0.15548019533640733,-0.5503423227931824,2.341643069629658,-0.2868555240066444,-1.1100935794057205,0.3571998632910089,-0.15229891620047212,0.36845715370804727,0.528824331638988,-0.2812862033180401,0.5441356818301516
79,-0.9857528253792547,-0.14734220362724892,-0.5623439088982314,2.2785004459372837,-0.20307277957751602,-1.1136138909314055,0.360277852232404,-0.14289868685837542,0.35397077222733686,0.4554595119962139,-0.19819016626677582,0.5821752737412129
80,-0.9672701916719095,-0.1392042119180904,-0.5743454950032802,2.2153578222449086,-0.11929003514838765,-1.1171342024570907,0.3633862815301018,-0.13493123090476383,0.33927362811962025,0.38438934177776424,-0.11418418038711993,0.6085103028505775
81,-0.9487875579645644,-0.131066220208932,-0.5863470811083292,2.1522151985525344,-0.03550729071925929,-1.120654513982776,0.3666110752251286,-0.12840635482321208,0.32454798926955863,0.3141245243589701,-0.030418463633170034,0.6235453323322877
82,-0.9303049242572192,-0.12292822849977358,-0.5983486672133782,2.0890725748601593,0.048275453709869964,-1.124174825508461,0.37002761617873153,-0.12330740830836161,0.3099771475515078,0.24325562271315512,0.05198344955396676,0.6274576459210611
83,-0.9118222905498741,-0.11479023679061506,-0.6103502533184272,2.025929951167785,0.13205819813899833,-1.1276951370341461,0.37369858804676526,-0.11959239429346233,0.29574173132427056,0.17045384781771325,0.13188122100948016,0.620224766241963
84,-0.8933396568425289,-0.10665224508145665,-0.6223518394234762,1.96278732747541,0.2158409425681267,-1.1312154485598311,0.3776721999257,-0.11719563468303984,0.28201607380321403,0.09448591308338827,0.208080546240768,0.6016741940633921
85,-0.8748570231351838,-0.09851425337229813,-0.634353425528525,1.8996447037830357,0.29962368699725506,-1.1347357600855164,0.38198084633186574,-0.11602993606690254,0.2689647176632989,0.014256759669454128,0.27930576314053235,0.5715609049766126
86,-0.8563743894278386,-0.09037626166313972,-0.6463550116335741,1.8365020800906606,0.3834064314263834,-1.1382560716112016,0.38664024270585867,-0.11598918756342173,0.2567391331656412,-0.07110763076512304,0.3441882868843482,0.5296811815614374
87,-0.8378917557204935,-0.08223826995398131,-0.658356597738623,1.7733594563982864,0.4671891758555118,-1.1417763831368866,0.3916490629263452,-0.11695131285154174,0.245474722294286,-0.16213041781185789,0.4012800846402231,0.47602845490588697
88,-0.8194091220131479,-0.07410027824482268,-0.6703581838436721,1.7102168327059104,0.5509719202846419,-1.1452966946625718,0.3969890907628651,-0.11878149065870633,0.23528817494779844,-0.2588142887186803,0.4491033834588852,0.4109838455805388
89,-0.8009264883058027,-0.06596228653566427,-0.6823597699487212,1.6470742090135362,0.6347546647137703,-1.1488170061882568,0.40262588221312956,-0.12133555266558184,0.22627523529804922,-0.3604655461790106,0.48624540986936154,0.3355082915300942
90,-0.7824438545984576,-0.05782429482650575,-0.69436135605377,1.583931585321161,0.7185374091428987,-1.152337317713942,0.4085099206886963,-0.12446346508624209,0.21850892718592976,-0.465578134635327,0.5114964163673258,0.25127056402323467
91,-0.7639612208911124,-0.04968630311734734,-0.7063629421588191,1.5207889616287869,0.8023201535720279,-1.1558576292396272,0.414578232467789,-0.1280128001280204,0.2120382770801605,-0.5718609575511491,0.5240098673838416,0.16062836013742893
92,-0.7454785871837672,-0.04154831140818893,-0.718364528263868,1.4576463379364117,0.8861028980011563,-1.1593779407653124,0.42075641614910675,-0.13183210609700238,0.20688756191520394,-0.6764620986523457,0.523442998901864,0.06640934535279021
93,-0.7269959534764221,-0.03341031969903041,-0.7303661143689169,1.3945037142440375,0.9698856424302846,-1.1628982522909974,0.42696102741665887,-0.13577408998779203,0.20305609730166485,-0.7763592856617477,0.5100296703310899,-0.028476766255620848
94,-0.7085133197690769,-0.025272327989872,-0.7423677004739659,1.3313610905516624,1.053668386859413,-1.1664185638166824,0.4331022496297616,-0.13969853380410951,0.2005185694352983,-0.8687936560332994,0.4845571212478258,-0.12147176393836503
95,-0.6900306860617318,-0.01713433628071348,-0.7543692865790148,1.2682184668592882,1.1374511312885414,-1.1699388753423676,0.4390867719059861,-0.14347487535950937,0.19922590179456956,-0.9515970028320903,0.4482562179868026,-0.2106979004027814
96,-0.6715480523543866,-0.00899634457155507,-0.7663708726840639,1.205075843166913,1.2212338757176697,-1.1734591868680528,0.444820789735451,-0.1469843956071101,0.1991066356888615,-1.0233250053305942,0.4026465862028778,-0.29509427524240195
97,-0.6530654186470415,-0.0008583528623966608,-0.7783724587891128,1.1419332194745389,1.305016620146799,-1.176979498393738,0.45021303895736614,-0.15012196729711855,0.2000687921723295,-1.0832068486135173,0.34938494407236553,-0.37437035784550987
98,-0.6345827849396963,0.00727963884676186,-0.7903740448941619,1.0787905957821637,1.3887993645759265,-1.180499809919423,0.4551777722806284,-0.15279733357619027,0.2020021720336596,-1.130985078980464,0.2901494535330941,-0.4488494479701433
99,-0.6161001512323507,0.01541763055592038,-0.8023756309992109,1.0156479720897886,1.4725821090050575,-1.1840201214451083,0.4596375885033677,-0.1549358996113527,0.20478104075420467,-1.1667262653725101,0.2265707934083166,-0.5192810050564487
100,-0.5977002138726895,0.023519210669064483,-0.8143235187324254,0.9527878657293698,1.5559899865687328,-1.1875246821362264,0.4635099869969092,-0.15647352593881617,0.20825017974904175,-1.1905748124695001,0.1605056001426365,-0.5863763923697208
101,-0.5796517359906843,0.03146604149914911,-0.8260431883853423,0.8911284580297707,1.6378046799542219,-1.1909623017804358,0.46670745179003253,-0.15736755118275197,0.2121935507642348,-1.2028490183209688,0.09443104645628264,-0.6503457908496787
102,-0.5619753916732568,0.03924902014716969,-0.8375212153650031,0.8307403783239744,1.7179324724451668,-1.1943290426690945,0.4692273290210555,-0.15762820963352664,0.21643618088873023,-1.2044136572934623,0.02978850958924236,-0.7122841873408812
103,-0.5446711809204068,0.04686814661312655,-0.8487575996714078,0.7716236266119854,1.7963733640415676,-1.1976249048022023,0.47108871560343535,-0.15728178163586848,0.22082241641926978,-1.1960838103047184,-0.03223851787715089,-0.7732045556619557
104,-0.5277391037321348,0.05432342089702036,-0.8597523413045567,0.7137782028938053,1.8731273547434188,-1.2008498881797596,0.47232545195075554,-0.1563649529169795,0.2252144837827108,-1.178610342776162,-0.09061973710672579,-0.8339288482582512
105,-0.5111791601084397,0.06161484299885012,-0.8705054402644496,0.6572041071694281,1.9481944445507242,-1.2040039928017658,0.4729835195599103,-0.15492159926303925,0.2294937186636861,-1.1527162327248996,-0.14445712306139,-0.8950669804120034
106,-0.4949913500493217,0.06874241291861627,-0.8810168965510863,0.6019013394388599,2.0215746334634854,-1.2070872186682218,0.4731183158956977,-0.15299998741478926,0.23356102973338858,-1.1191395863278324,-0.19297535516842432,-0.9570010483468019
107,-0.4791756735547814,0.07570613065631882,-0.891286710164467,0.5478698997020954,2.093267921481697,-1.2100995657791267,0.47279193898012106,-0.15065042034875803,0.23733670540406354,-1.0786746720480618,-0.23552263972361615,-1.0198745148093709
108,-0.4637321306248179,0.08250599621195831,-0.9013148811045923,0.4951097879591364,2.1632743086053683,-1.213041034134481,0.4720705908873816,-0.1479233289894146,0.24075967729475448,-1.032203103809845,-0.2715797205573199,-1.0835898925405847
109,-0.448660721259432,0.08914200958553375,-0.9111014093714611,0.4436210042099864,2.23159379483449,-1.2159116237342849,0.4710221853023729,-0.14486779190569676,0.24378635386042394,-0.9807080863745623,-0.30077366576514364,-1.14782020719191
110,-0.43396144545862514,0.09561417077704548,-0.9206462949650738,0.39340354845464187,2.298226380169062,-1.2187113345785379,0.46971422078898706,-0.14153044946251153,0.24638913300006057,-0.9252666545542506,-0.32289200659068507,-1.2120388127802237
111,-0.4196343032223937,0.10192247978649438,-0.9299495378854306,0.3444574206931028,2.3631720646090955,-1.2214401666672399,0.4682119594895241,-0.1379547687625418,0.24855469448548195,-0.8670187192775772,-0.33789240038325036,-1.275568876709751
112,-0.40567929455074037,0.1080669366138789,-0.9390111381325317,0.29678262092536833,2.4264308481545775,-1.2240981200003915,0.4665769313866522,-0.13418060990759467,0.2502821627353034,-0.8071169833274924,-0.34590360752973415,-1.3376488617295628
113,-0.39209641944366425,0.11404754125919991,-0.9478310957063762,0.25037914915144555,2.488002730805512,-1.2266851945779924,0.4648657674741249,-0.13024404192900413,0.25158121868836153,-0.7466667636440998,-0.3472153220917789,-1.3975054331151266
114,-0.37888567790116623,0.11986429372245722,-0.9564094106069647,0.20524700537132468,2.547887712561904,-1.2292013904000425,0.46312935142892736,-0.12617735745573816,0.2524702270754534,-0.6866674138558633,-0.3422568896050325,-1.4544225500557961
115,-0.36604706992324587,0.1255171940036517,-0.9647460828342973,0.16138618958500928,2.6060857934237465,-1.2316467074665418,0.4614122686824158,-0.12200923810049534,0.25297443288326565,-0.6279661619911466,-0.33156739915979855,-1.507796329933977
116,-0.35358059550990184,0.131006242102782,-0.9728411123883742,0.1187967017925029,2.6625969733910484,-1.2340211457774906,0.45975252402141087,-0.11776502699677299,0.25312426875376953,-0.5712311823230647,-0.31576124959015356,-1.557169210269618
117,-0.34148625466113547,0.1363314380198486,-0.9806944992691948,0.07747854199379844,2.717421252463799,-1.2363247053328885,0.45818149376744166,-0.11346707033864836,0.25295380384395455,-0.5169454003189784,-0.2954936484169524,-1.6022421942486789
118,-0.32976404737694676,0.1414927817548517,-0.9883062434767593,0.03743171018890301,2.770558630642004,-1.238557386132736,0.45672407586261776,-0.10913509567355173,0.2524993545475938,-0.46541794844235596,-0.2714297333903889,-1.6428684941587923
119,-0.31841397365733526,0.14649027330779152,-0.9956763450110677,-0.0013437936221851743,2.822009107925666,-1.2407191881770325,0.45539900047051163,-0.10478660068303207,0.2517982686145284,-0.41680761690059187,-0.24421960953853095,-1.6790344153500882
120,-0.3074360335023023,0.1513239126786674,-1.0028048038721202,-0.03884796943946789,2.8717726843147773,-1.2428101114657781,0.45421926460178375,-0.10043723195423414,0.2508878866696648,-0.3711522079771752,-0.21448013115778883,-1.7108337207052353
121,-0.29683022691184524,0.1559936998674798,-1.0096916200599169,-0.07508081726294336,2.9198493598093442,-1.2448301559989734,0.45319265642632245,-0.09610113857637773,0.24980467893958563,-0.3283987485920542,-0.18278311431496605,-1.738440637919197
122,-0.2865965538859663,0.1604996348742287,-1.0163367935744574,-0.11004233709261513,2.966239134409367,-1.2467793217766179,0.4523223379893893,-0.0917912901472122,0.24858355009080843,-0.28843117894078396,-0.1496489829346872,-1.7620849823712745
123,-0.2767350144246641,0.1648417176989141,-1.0227403244157423,-0.14373252892847788,3.0109420081148404,-1.2486576087987118,0.45160745869678814,-0.08751975286272397,0.24725730138140353,-0.25109375157488956,-0.1155445874254056,-1.7820312299140755
124,-0.26724560852794,0.16901994834153555,-1.0289022125837706,-0.1761513927705387,3.0539579809257678,-1.2504650170652547,0.45104377590347805,-0.08329792075973114,0.2458562367106024,-0.21620960778958856,-0.08088396126545758,-1.7985621229605857
125,-0.2581283361957931,0.1730343268020933,-1.0348224580785428,-0.2072989286187905,3.0952870528421528,-1.2522015465762468,0.45062426300638325,-0.07913670189581974,0.24440789748622818,-0.18359477404431648,-0.046030963831345834,-1.8119666017775027
126,-0.24938319742822435,0.176884853080588,-1.0405010609000593,-0.2371751364732333,3.134929223863983,-1.2538671973316886,0.4503396894256105,-0.07504666132480936,0.24293691037707105,-0.15306821278821608,-0.011302995106189085,-1.8225314479612107
127,-0.24101019222523234,0.18057152717701896,-1.0459380210483198,-0.26578001633387593,3.172884493991276,-1.2554619693315796,0.45017916062198504,-0.07103812421894808,0.24146493183638965,-0.12445868851642124,0.02302480198958565,-1.8305358893388843
128,-0.233009320586818,0.18409434909138578,-1.051133338523324,-0.293113568200706,3.20915286322402,-1.2569858625759198,0.45013060974521946,-0.06712124347428579,0.2400106736389249,-0.0976091813851831,0.05671524223887992,-1.8362484345915464
129,-0.22538058251298043,0.18745331882368998,-1.0560870133250724,-0.3191757920737359,3.243734331562214,-1.2584388770647092,0.4501812355730318,-0.06330603669141818,0.23858999444203272,-0.0723794783025579,0.08956494329859895,-1.8399253006660903
130,-0.21812397800372052,0.1906484363739298,-1.0607990454535647,-0.3439666879529568,3.276628899005866,-1.2598210127979481,0.45031788405348505,-0.05960239762907743,0.23721604344912092,-0.04864744609412771,0.12140044961658124,-1.8418099155930134
131,-0.2112395070590387,0.19367970174210636,-1.065269434908802,-0.36748625583837047,3.3078365655549753,-1.2611322697756362,0.45052737299103923,-0.056020087158267944,0.2358994435216021,-0.026309370933033996,0.1520746962199726,-1.8421330959842344
132,-0.20472716967893412,0.19654711492821897,-1.0694981816907823,-0.38973449572997865,3.337357331209528,-1.2623726479977735,0.4507967612304369,-0.05256870846930216,0.2346485024696511,-0.005279645272303389,0.18146382642879286,-1.8411135998725363
133,-0.1985869658634063,0.19925067593226853,-1.0734852857995065,-0.41071140762778313,3.365191195969542,-1.2635421474643602,0.45111356511486167,-0.049257670864833084,0.23346944268211428,0.014509998301429102,0.2094643492031175,-1.8389588381527862
134,-0.19281889561245613,0.20179038475425415,-1.077230747234974,-0.4304169915317786,3.3913381598350085,-1.2646407681753962,0.4514659260589438,-0.04609614596181673,0.23236664067557997,0.0331115684309606,0.2359906064233324,-1.8358655926571998
135,-0.18742295892608318,0.20416624139417627,-1.0807345659971865,-0.4488512474419686,3.4157982228059307,-1.2656685101308813,0.45184273382222245,-0.043093019568396534,0.2313428695079664,0.050562117816078125,0.26097251363492147,-1.8320206386348665
136,-0.18239915580428923,0.20637824585203446,-1.0839967420861432,-0.46601417535834955,3.438571384882305,-1.266625373330816,0.452233710537111,-0.04025684193356008,0.23039953828065454,0.0668852037636572,0.28435353661314844,-1.8276012072831633
137,-0.17774748624707115,0.20842639812782982,-1.0870172755018435,-0.4819057752809286,3.4596576460641284,-1.2675113577752,0.45262946078000227,-0.03759577851547335,0.2295369241223646,0.08209246184263104,0.3060888684219699,-1.8227752528588268
138,-0.1734679502544303,0.210310698221561,-1.0897961662442879,-0.4965260472097004,3.4790570063514146,-1.268326463464033,0.45302149301665684,-0.03511756289903255,0.2287543930934978,0.09618525908067628,0.3261437760344054,-1.8177015110662482
139,-0.16956054782636754,0.2120311461332285,-1.092333414313476,-0.509874991144665,3.4967694657441513,-1.2690706903973152,0.4534022176423647,-0.03282945302829926,0.22805060736421254,0.10915639848689529,0.3444920910894539,-1.8125293525561634
140,-0.16602527896288155,0.21358774186283314,-1.0946290197094082,-0.5219526070858258,3.5127950242423367,-1.2697440385750471,0.45376492660889556,-0.03073819151387206,0.22742371680137152,0.1209918482579417,0.36111482532610795,-1.8073984486092898
141,-0.16286214366397456,0.2149804854103734,-1.096682982432084,-0.5327588950331759,3.527133681845978,-1.2703465079972283,0.4541037593150633,-0.028849970433240217,0.22687153375147373,0.13167246837887045,0.37599889719206486,-1.802438276147487
142,-0.1600711419296439,0.21620937677585017,-1.098495302481504,-0.542293854986724,3.5397854385550787,-1.2708780986638586,0.4544136590624503,-0.027170400764644585,0.2263916903347751,0.14117570568566049,0.3891359617321831,-1.7977674965395858
143,-0.15765227375989044,0.21727441595926344,-1.1000659798576682,-0.5505574869464631,3.5507502943696245,-1.271338810574938,0.45469032396449116,-0.025704486380316513,0.22598177797843916,0.14947722673855118,0.40052134086029234,-1.7934932475042347
144,-0.1556055391547142,0.21817560296061367,-1.1013950145605764,-0.5575497909123985,3.56002824928963,-1.2717286437304667,0.4549301557633637,-0.024456602369397437,0.2256394692238482,0.15655245672221033,0.4101530553126752,-1.7897103899303455
145,-0.15393093811411562,0.21891293777989973,-1.1024824065902288,-0.5632707668845285,3.567619303315091,-1.272047598130445,0.4551302095684674,-0.02343047735952037,0.2253626220561628,0.16237799245794096,0.41803096283412433,-1.7865007517967437
146,-0.15262847063809426,0.2194864204171223,-1.1033281559466248,-0.5677204148628476,3.573523456446001,-1.2722956737748725,0.4552881470924122,-0.02262917945294806,0.2251493671344047,0.1669328586963587,0.4241560093769422,-1.7839324097623994
147,-0.1516981367266519,0.21989605087228092,-1.103932262629765,-0.5708987348473649,3.57774070868237,-1.2724728706637491,0.4554021955317294,-0.02205510538208482,0.22499817835953115,0.17019957919717593,0.4285296012756745,-1.7820590456453262
148,-0.15113993637978407,0.2201418291453765,-1.1042947266396488,-0.5728057268380713,3.5802710600241845,-1.2725791887970752,0.4554711138234202,-0.021709972513418264,0.2249079272177318,0.17216503761060753,0.4311531065320566,-1.7809194101777308
149,-0.15095386959749657,0.22022375523640858,-1.1044155479762767,-0.5734413908349758,3.5811145104714583,-1.2726146281748507,0.4554941676059541,-0.021594813381966255,0.22487792128797812,0.17282110768376763,0.4320274925989024,-1.780536920405058
