nimar13/UR3e_dataset_trayectorias/data/trayectorias_completas_UR3e_TRAPEZOIDAL/trayectoria_468.csv
Punto,shoulder_pan_joint,shoulder_lift_joint,elbow_joint,wrist_1_joint,wrist_2_joint,wrist_3_joint,Posicion_X,Posicion_Y,Posicion_Z,Roll,Pitch,Yaw
0,-2.3474034526224794,0.27727749603323204,-0.7538455283863834,-1.3047053211388633,1.9545081041131507,3.5037037089885423,-0.27423999177041136,-0.41715097542715657,0.2938858968012661,-0.6815586579074793,-1.139447593588816,1.8768382252114195
1,-2.347558938082043,0.2772106095760299,-0.7539513673743451,-1.3047518465450694,1.9542237407747132,3.5030943614859726,-0.2742618531898369,-0.4170993267517533,0.29395819766068276,-0.6813933209995107,-1.1395904392327054,1.8759198352177222
2,-2.348025394460734,0.2770099502044234,-0.7542688843382302,-1.3048914227636879,1.9533706507594004,3.5012663189782636,-0.27432731618986,-0.4169443582317973,0.29417500952890185,-0.6808943928165183,-1.140017422876113,1.873161371782876
3,-2.348802821758553,0.27667551791841266,-0.7547980792780388,-1.3051240497947187,1.9519488340672129,3.498219581465415,-0.27443601724762007,-0.41668600298153446,0.2945360601006683,-0.6800531477880349,-1.1407238688614934,1.8685529815162558
4,-2.3498912199754987,0.2762073127179976,-0.7555389521937708,-1.3054497276381618,1.94995829069815,3.4939541489474273,-0.27458735133522877,-0.4163241515074726,0.2950408949525784,-0.6788551352707564,-1.141701931919664,1.8620783346131593
5,-2.351290589111572,0.2756053346031782,-0.7564915030854261,-1.305868456294017,1.9473990206522123,3.4884700214242996,-0.2747804731986325,-0.41585865467479566,0.2956888766800632,-0.6772803267356741,-1.1429405189137938,1.8537147728247538
6,-2.3530009291667726,0.2748695835739545,-0.7576557319530048,-1.3063802357622847,1.9442710239293992,3.481767198896033,-0.2750142991749881,-0.4152893278447369,0.2964791837070865,-0.6753033404954688,-1.1444251803913867,1.8434335352304798
7,-2.3550222401411007,0.27400005963032653,-0.759031638796507,-1.3069850660429647,1.9405743005297111,3.473845681362627,-0.27528750957526454,-0.4146159561669534,0.29741080878652315,-0.6728937630945239,-1.1461379732983437,1.831200080884442
8,-2.3573545220345564,0.27299676277229423,-0.7606192236159327,-1.3076829471360571,1.936308850453148,3.4647054688240813,-0.27559855166601177,-0.41383830100588537,0.2984825572143568,-0.6700165924865119,-1.1480572969544558,1.8169745333955138
9,-2.3599977748471397,0.2718596929998576,-0.7624184864112816,-1.3084738790415615,1.93147467369971,3.4543465612803965,-0.27594564329120547,-0.4129561074746728,0.2996930447860704,-0.6666328343147729,-1.150157705419936,1.8007122786768823
10,-2.36295199857885,0.2705888503130167,-0.7644294271825541,-1.3093578617594785,1.9260717702693966,3.4427689587315724,-0.2763267771816381,-0.41196911304433637,0.3010406955288553,-0.6627002887519036,-1.1524097007739547,1.7823647532277296
11,-2.3662171932296876,0.2691842347117715,-0.76665204592975,-1.3103348952898077,1.9201001401622084,3.4299726611776085,-0.2767397260054531,-0.41087705718956885,0.30252373924856546,-0.6581745709981603,-1.1547795136556998,1.7618804659389484
12,-2.3697933587996527,0.267645846196122,-0.7690863426528692,-1.3114049796325493,1.913559783378145,3.415957668618505,-0.27718204821900333,-0.40967969202555776,0.3041402089356848,-0.6530104129431111,-1.1572288797543682,1.7392063008056426
13,-2.3736804952887454,0.26597368476606814,-0.771732317351912,-1.312568114787703,1.9064506999172064,3.400723981054263,-0.27765109478215205,-0.4083767938826984,0.30588793807994297,-0.6471632955549228,-1.1597148238225197,1.714289149975386
14,-2.3778786026969656,0.26416775042161,-0.774589970026878,-1.3138243007552692,1.898772889779393,3.384271598484881,-0.2781440168063533,-0.40696817575783883,0.3077645579485988,-0.6405914597330605,-1.162189466227631,1.6870779247189505
15,-2.382387681024313,0.26222804316274756,-0.7776593006777675,-1.3151735375352476,1.8905263529647043,3.3666005209103593,-0.27865777420719556,-0.40545370057177754,0.3097674948888159,-0.6332583356413694,-1.1645998709728334,1.6575259841779386
16,-2.387207730270788,0.2601545629894808,-0.7809403093045804,-1.3166158251276383,1.8817110894731404,3.347710748330699,-0.2791891454355065,-0.40383329515307476,0.31189396771992195,-0.6251354145358262,-1.1668879583159755,1.6255940057277012
17,-2.39233875043639,0.2579473099018097,-0.7844329959073167,-1.3181511635324414,1.8723270993047016,3.3276022807458987,-0.27973473836239743,-0.4021069648578512,0.31414098528668366,-0.6162055602545575,-1.1689905092386987,1.5912532939339998
18,-2.3977807415211196,0.2556062838997344,-0.7881373604859765,-1.3197795527496567,1.8623743824593877,3.306275118155959,-0.28029100239372723,-0.4002748087241318,0.316505344249992,-0.6064667175823272,-1.1708392924996873,1.5544894851133677
19,-2.403533703524977,0.25313148498325466,-0.7920534030405596,-1.3215009927792845,1.8518529389371987,3.28372926056088,-0.2808542418881556,-0.3983370350474476,0.31898362719649537,-0.5959359204269549,-1.1723613470510714,1.5153065502192844
20,-2.409597636447961,0.2505229131523707,-0.7961811235710662,-1.3233154836213243,1.8407627687381347,3.2599647079606617,-0.28142063095016945,-0.39629397725192134,0.3215722011536987,-0.5846534350626794,-1.1734794521906076,1.473730931080865
21,-2.415972540290073,0.24778056840708243,-0.8005205220774962,-1.3252230252757766,1.8291038718621955,3.234981460355304,-0.2819862296649719,-0.3941461099179499,0.32426721660182006,-0.5726867968951131,-1.1741128138217616,1.429815568207409
22,-2.4226584150513126,0.2449044507473898,-0.8050715985598496,-1.327223617742641,1.8168762483093812,3.208779517744807,-0.28254700183583736,-0.3918940648139849,0.32706460707817825,-0.5601344220876608,-1.1741779865153146,1.383643501244391
23,-2.4296552607316793,0.24189456017329292,-0.8098343530181265,-1.329317261021918,1.8040798980796922,3.1813588801291703,-0.28309883427623345,-0.3895386467658806,0.3299600894740306,-0.547128411744165,-1.1735900369819054,1.3353306595083818
24,-2.4369630773311735,0.2387508966847917,-0.8148087854523266,-1.3315039551136072,1.7907148211731276,3.1527195475083944,-0.2836375576985768,-0.38708084918300684,0.33294916512747447,-0.5338361340270442,-1.1722639350868547,1.2850274276998137
25,-2.444581864849795,0.2354734602818862,-0.8199948958624503,-1.3337837000177086,1.776781017589688,3.1228615198824787,-0.2841589692287548,-0.38452186904595276,0.336027121819241,-0.5204601876286015,-1.1701161348003841,1.2329185899178392
26,-2.4525116232875437,0.2320622509645764,-0.8253926842484973,-1.3361564957342225,1.7622784873293738,3.091784797251424,-0.284658856560334,-0.38186312114639037,0.33918903678075507,-0.5072364335547375,-1.1670662819720377,1.179221338629947
27,-2.46075235264442,0.22851726873286227,-0.8310021506104678,-1.3386223422631485,1.747207230392184,3.05948937961523,-0.2851330237446108,-0.37910625135579185,0.3424297808257273,-0.49442993616781333,-1.1630389623195643,1.1241811892233446
28,-2.469304052920424,0.22483851358674384,-0.8368232949483617,-1.3411812396044869,1.7315672467781194,3.025975266973896,-0.28557731859213625,-0.3762531486864202,0.34574402371753304,-0.4823288680022052,-1.1579653860434702,1.0680658543189274
29,-2.4781667241155554,0.2210259855262211,-0.842856117262179,-1.3438331877582377,1.7153585364871795,2.9912424593274234,-0.28598766163804706,-0.373305955895732,0.34912624088472394,-0.4712366772218635,-1.151784899290425,1.0111573763715018
30,-2.4873403662298137,0.21707968455129403,-0.8491006175519197,-1.3465781867244007,1.6985810995193646,2.955290956675811,-0.2863600765973,-0.3702670783743016,0.352570721595979,-0.46146304871398464,-1.1444462201022534,0.9537430491923353
31,-2.4968249792631996,0.21299961066196268,-0.8555567958175838,-1.3494162365029758,1.6812349358746748,2.918120759019059,-0.2866907222067707,-0.3671391910480909,0.3560715787035695,-0.45331436229670863,-1.1359083178006268,0.8961058315021491
32,-2.506620563215713,0.208785763858227,-0.8622246520591714,-1.3523473370939636,1.6633200455531099,2.879731866357168,-0.28697592531906,-0.3639252430186823,0.35962276006078137,-0.44708442597447445,-1.1261408873156062,0.8385150300677151
33,-2.516727118087354,0.20443814414008704,-0.8691041862766823,-1.3553714884973633,1.6448364285546697,2.8401242786901375,-0.28721221507787603,-0.36062845966049834,0.3632180617136302,-0.44304622131636795,-1.115124408602362,0.781217989107911
34,-2.527144643878122,0.19995675150754277,-0.8761953984701167,-1.3584886907131757,1.6257840848793546,2.7992979960179674,-0.2873963579670375,-0.35725234189250943,0.36685114296039084,-0.44144525139182295,-1.10284981957561,0.7244333760074418
35,-2.537873140588018,0.1953415859605942,-0.8834982886394744,-1.3616989437414002,1.6061630145271644,2.7572530183406583,-0.2875253934847167,-0.35380066234402274,0.37051554336384673,-0.4424948624525223,-1.0893178628718907,0.6683464341276325
36,-2.548912608217041,0.19059264749924132,-0.8910128567847557,-1.365002247582037,1.585973217498099,2.7139893456582094,-0.28759667015168966,-0.35027745814041883,0.37420470179059423,-0.4463736648745929,-1.074538187986223,0.6131063278302041
37,-2.5602630467651912,0.18570993612348413,-0.8987391029059603,-1.3683986022350862,1.5652146937921585,2.669506977970621,-0.287607881517418,-0.3466870200456948,0.37791197753899003,-0.4532249523587833,-1.0585282992706138,0.5588254783211165
38,-2.5719244562324692,0.1806934518333226,-0.9066770270030884,-1.3718880077005475,1.5438874434093428,2.6238059152778934,-0.28755710178116617,-0.3430338777150223,0.3816306736023796,-0.4631578447248489,-1.041312437808142,0.5055806152759846
39,-2.5838968366188744,0.17554319462875678,-0.9148266290761398,-1.3754704639784214,1.5219914663496523,2.5768861575800264,-0.2874428205975467,-0.3393227808327687,0.38535406209683654,-0.476249775027089,-1.0229204739908941,0.4534151646262398
40,-2.596180187924407,0.17025916450978668,-0.9231879091251146,-1.3791459710687073,1.4995267626130868,2.52874770487702,-0.2872639765875076,-0.3355586759401805,0.38907541186274286,-0.49254990542971044,-1.0033868712570535,0.4023425566383033
41,-2.6087745101490674,0.16484136147641226,-0.9317608671500128,-1.3829145289714058,1.476493332199646,2.479390557168874,-0.28701998902754033,-0.33174667879271763,0.3927880182269756,-0.5120830755179115,-0.9827497633023432,0.35235005771539285
42,-2.6216798032928548,0.15928978552863354,-0.9405455031508345,-1.3867761376865164,1.4528911751093303,2.428814714455589,-0.2867107871426636,-0.3278920421303951,0.3964852348872092,-0.5348539429968354,-0.9610501698718947,0.30340278571196216
43,-2.6348960673557698,0.15360443666645052,-0.9495418171275796,-1.3907307972140392,1.4287202913421395,2.3770201767371644,-0.28633683638346275,-0.3240001187958474,0.40016050785176094,-0.5608510514345213,-0.9383313616814106,0.25544764336970904
44,-2.648423302337812,0.14778531488986316,-0.9587498090802482,-1.3947785075539747,1.4039806808980733,2.3240069440136004,-0.285899161025262,-0.32007632019464777,0.4038074113375417,-0.5900506376640497,-0.9146383738953175,0.20841698259710387
45,-2.662261508238982,0.14183242019887152,-0.9681694790088401,-1.3989192687063223,1.3786723437771322,2.269775016284897,-0.2853993623895989,-0.31612607016086103,0.4074196854949641,-0.6224200623907717,-0.8900176599622462,0.16223188344827727
46,-2.676410685059279,0.13574575259347557,-0.9778008269133555,-1.4031530806710821,1.3527952799793161,2.2143243935510544,-0.28483963195588663,-0.3121547543681709,0.41099127579218897,-0.6579208059201571,-0.8645168730707797,0.11680499029175463
47,-2.6908708327987036,0.12952531207367532,-0.9876438527937942,-1.4074799434482543,1.3263494895046248,2.157655075812072,-0.28422275860601964,-0.3081676655130932,0.41451637385192297,-0.6965110149466522,-0.8381847604144599,0.07204289202637597
48,-2.705641951457255,0.12317109863947076,-0.9976985566501564,-1.4118998570378387,1.2993349723530585,2.0997670630679504,-0.2835521292281937,-0.3041699445917212,0.41798945949227845,-0.7381476167243031,-0.8110711551712523,0.027848064019727017
49,-2.7207240410349347,0.1166831122908619,-1.0079649384824418,-1.4164128214398355,1.2717517285246174,2.0406603553186895,-0.28283172190018524,-0.30016651869468514,0.4214053436791458,-0.7827880357181731,-0.7832270519971423,-0.01587959122201129
50,-2.7360998253695676,0.11006878485642668,-1.0184312384030996,-1.4210136671646663,1.2436313539457937,1.980402657842352,-0.28206696484688254,-0.2961664842909968,0.42475552157150337,-0.8303370340878565,-0.7547368018161221,-0.059193541975541206
51,-2.751544714352896,0.10342473010767944,-1.0289445778739623,-1.4256351908478107,1.215384595660998,1.9198741392537615,-0.28127470102741237,-0.2922304974485966,0.4279899528482023,-0.8800147067511307,-0.7260712016549374,-0.10159020422603407
52,-2.766989603336224,0.09678067535893226,-1.0394579173448253,-1.4302567145309553,1.1871378373762027,1.859345620665171,-0.280464870954058,-0.2883756546418293,0.4310970805671452,-0.9314712299245975,-0.6974122069773208,-0.14302974056854562
53,-2.7824344923195516,0.09013662061018501,-1.049971256815688,-1.4348782382140997,1.158891079091407,1.798817102076581,-0.27964375432394906,-0.28460050965108175,0.4340808524977827,-0.9845830261794005,-0.6688098031319829,-0.18365316412537117
54,-2.79787938130288,0.08349256586143777,-1.060484596286551,-1.439499761897244,1.1306443208066115,1.7382885834879906,-0.27881732056639064,-0.2809032553650443,0.4369453526370576,-1.039241575766355,-0.6403105825988156,-0.22358686486119508
55,-2.813324270286208,0.07684851111269059,-1.070997935757414,-1.4441212855803887,1.1023975625218159,1.6777600648994007,-0.2779912077946831,-0.2772817441805862,0.43969478819405977,-1.0953515997456065,-0.611958357973929,-0.2629443502250444
56,-2.828769159269536,0.07020445636394329,-1.081511275228277,-1.4487428092635333,1.07415080423702,1.6172315463108098,-0.2771707032916694,-0.27373350965228904,0.4423334763279433,-1.1528294335979252,-0.5837946816218819,-0.30182778323485204
57,-2.844214048252864,0.0635604016151961,-1.0920246146991397,-1.4533643329466777,1.0459040459522244,1.5567030277222194,-0.2763607256045413,-0.27025578929288696,0.44486583067324437,-1.21160157987835,-0.5558592864022158,-0.3403293281628216
58,-2.859658937236192,0.056916346866448864,-1.1025379541700024,-1.457985856629822,1.0176572876674288,1.496174509133629,-0.2755658083177741,-0.26684554842120306,0.44729634768727045,-1.271603423923145,-0.5281904595349385,-0.3785323184963684
59,-2.87510382621952,0.05027229211770162,-1.1130512936408654,-1.4626073803129667,0.9894105293826332,1.435645990545039,-0.2747900855660799,-0.263499504949981,0.4496295928546309,-1.3327780948630847,-0.5008253595883801,-0.41651226359730503
60,-2.890548715202848,0.04362823736895444,-1.1235646331117284,-1.467228903996111,0.9611637710978376,1.3751174719564485,-0.2740372793420561,-0.26021415500225825,0.4518701867843353,-1.3950754541060484,-0.473800284765231,-0.45433771059241024
61,-2.905993604186176,0.036984182620207195,-1.1340779725825914,-1.4718504276792554,0.9329170128130422,1.3145889533678585,-0.27331068864576,-0.2569857992416486,0.4540227912351123,-1.4584511943111624,-0.4471508991151087,-0.4920709772281482
62,-2.921438493169504,0.0303401278714599,-1.1445913120534543,-1.4764719513624,0.9046702545282463,1.2540604347792677,-0.27261318051579125,-0.25381056979910854,0.4560920951047656,-1.5228660332350485,-0.4209124219894572,-0.5297687701704874
63,-2.936883382152832,0.023696073122712713,-1.155104651524317,-1.4810934750455447,0.8764234962434507,1.1935319161906772,-0.2719471829736579,-0.2506844576764607,0.4580828004194532,-1.5882849884137558,-0.3951197849483614,-0.5674827018118803
64,-2.9523282711361603,0.017052018373965472,-1.1656179909951798,-1.485714998728689,0.8481767379586551,1.1330033976020868,-0.27131467990526337,-0.24760334050515373,0.4599996083587359,-1.6546767202907078,-0.3698077594011837,-0.6052597172331355
65,-2.967773160119488,0.01040796362521823,-1.1761313304660428,-1.4903365224118335,0.8199299796738595,1.0724748790134968,-0.2707172078953142,-0.24456301053746324,0.46184720535214924,-1.7220129330228588,-0.3450110574891912,-0.6431424416575479
66,-2.983218049102816,0.003763908876471045,-1.1866446699369058,-1.494958046094978,0.7916832213890639,1.0119463604249064,-0.2701558550223436,-0.24155920274656187,0.4636302492828227,-1.7902678237508416,-0.320764408077732,-0.6811694575824584
67,-2.9986629380861443,-0.002880145872276252,-1.1971580094077687,-1.4995795697781225,0.763436463104268,0.9514178418363155,-0.269631261613914,-0.23858762291166,0.4653533558334015,-1.8594175725878546,-0.297102609201628,-0.71937551980502
68,-3.014107827069472,-0.009524200621023493,-1.2076713488786317,-1.504201093461267,0.7351897048194724,0.8908893232477251,-0.2691436229534321,-0.23564397556469013,0.4670210850091219,-1.929439866966021,-0.27406055788774514,-0.757791715782678
69,-3.0295527160528,-0.01616825536977068,-1.2181846883494944,-1.5088226171444115,0.7069429465346768,0.8303608046591355,-0.2686926939219195,-0.23272399167581365,0.4686379278724387,-2.0003134552849478,-0.251673257954194,-0.7964455781818717
70,-3.0449976050361283,-0.02281231011851792,-1.2286980278203572,-1.513444140827556,0.6786961882498814,0.7698322860705451,-0.26827779555005205,-0.22982345595634773,0.4702082935230364,-2.0720177260453614,-0.2299758061505321,-0.8353611560607723
71,-3.060442494019456,-0.02945636486726516,-1.2392113672912202,-1.5180656645107005,0.6504494299650858,0.7093037674819547,-0.2678978234478767,-0.22693823365954274,0.4717364963564186,-2.1445323098299154,-0.2090033568542622,-0.8745590508882335
72,-3.075887383002784,-0.03610041961601235,-1.2497247067620831,-1.5226871881938449,0.6222026716802902,0.6487752488933642,-0.2675512580718249,-0.22406429676197756,0.47322674363355044,-2.2178367026194947,-0.18879106547422134,-0.9140564235020374
73,-3.0913322719861123,-0.042744474364759644,-1.260238046232946,-1.5273087118769895,0.5939559133954941,0.5882467303047738,-0.26723617678103756,-0.2211977494111721,0.4746831233932092,-2.291909910007091,-0.16937401073064243,-0.9538669781309287
74,-3.1067771609694406,-0.049388529113506885,-1.2707513857038089,-1.5319302355601339,0.5657091551106985,0.5277182117161834,-0.26695026762761115,-0.21833485252832724,0.47610959273783465,-2.3667301128874128,-0.1507870960844651,-0.9940009297187614
75,-3.122222049952768,-0.056032583862254015,-1.2812647251746716,-1.5365517592432782,0.5374623968259034,0.46718969312759384,-0.266690844818199,-0.21547204745889056,0.4775099665226839,-2.442274356146197,-0.13306493077387965,-1.0344649609622405
76,-3.1376669389360963,-0.06267663861100137,-1.2917780646455348,-1.5411732829264229,0.5092156385411073,0.4066611745390025,-0.2664548657774962,-0.21260597856787397,0.47888790647708174,-2.5185182627294824,-0.11624169118187673,-1.0752621756686125
77,-3.1531118279194246,-0.06932069335974855,-1.3022914041163975,-1.5457948066095675,0.4809688802563117,0.3461326559504121,-0.2662389497375123,-0.20973351468152798,0.48024691078542614,-2.5954357762137072,-0.10035096359970343,-1.1163920552143267
78,-3.1685567169027524,-0.07596474810849585,-1.3128047435872605,-1.5504163302927119,0.45272212197151607,0.28560413736182166,-0.2660393977702469,-0.2068517692820529,0.48159030415444953,-2.672998935591104,-0.08542556985961688,-1.1578504249948385
79,-3.1840016058860803,-0.08260880285724304,-1.3233180830581235,-1.5550378539758563,0.42447536368672045,0.22507561877323123,-0.26585221417542987,-0.20395811936751046,0.48292122839197527,-2.7511776863960056,-0.07149737777405282,-1.1996294377522572
80,-3.1994464948694086,-0.08925285760599022,-1.3338314225289862,-1.5596593776590009,0.39622860540192484,0.1645471001846408,-0.26567312912940105,-0.20105022289495025,0.48424263352111047,-2.8299397324907796,-0.05859709882052688,-1.2417175805054586
81,-3.2148913838527364,-0.09589691235473752,-1.344344761999849,-1.5642809013421453,0.3679818471171292,0.10401858159605126,-0.2654976224960328,-0.1981260347309486,0.48555726945244254,-2.909250432771232,-0.04675407603120569,-1.2840997114443025
82,-3.2303362728360643,-0.1025409671034847,-1.354858101470712,-1.5689024250252899,0.3397350888323336,0.04349006300746083,-0.26532094869581746,-0.19518382104028262,0.48686767823538124,-2.989072746713871,-0.03599606555720454,-1.3267571325514964
83,-3.2457811618193926,-0.10918502185223189,-1.365371440941575,-1.5735239487084343,0.311488330547538,-0.017038455581129597,-0.26513816252492006,-0.19222217205025938,0.48817618690831627,-3.0693672320550567,-0.02634901585122118,-1.3696677028600321
84,-3.2612260508027204,-0.11582907660097919,-1.375884780412438,-1.5781454723915789,0.2832415722627428,-0.07756697416972003,-0.26494414581210574,-0.1892400131352856,0.4894849009657182,3.1330932102156432,-0.017836848816334353,-1.4128059961347783
85,-3.2766709397860483,-0.12247313134972637,-1.3863981198833006,-1.5827669960747233,0.2549948139779472,-0.13809549275831046,-0.2647336347980623,-0.18623661417357348,0.49079569845875975,3.0519819993150947,-0.010481247571858539,-1.45614350539663
86,-3.2921158287693766,-0.12911718609847356,-1.3969114593541634,-1.5873885197578677,0.2267480556931516,-0.19862401134690089,-0.26450124811869263,-0.18321159713536558,0.49211022474439164,2.970530554564404,-0.004301455658852872,-1.4996488951211553
87,-3.3075607177527044,-0.13576124084722085,-1.4074247988250264,-1.5920100434410123,0.19850129740835598,-0.2591525299354904,-0.2642415152715478,-0.180164941869751,0.49342988789618214,2.8887868500519387,0.0006859074773612127,-1.5432883001972981
88,-3.3230056067360323,-0.14240529559596815,-1.4179381382958893,-1.5966315671241569,0.17025453912355992,-0.31968104852408175,-0.2639489054426403,-0.17709699006493956,0.49475585478852624,2.8068004554030384,0.004467010051098776,-1.5870256689017659
89,-3.3384504957193606,-0.14904935034471534,-1.4284514777667523,-1.6012530908073013,0.1420077808387643,-0.3802095671126722,-0.2636178565694677,-0.17400844736478788,0.49608904786411673,2.724622224962727,0.0070309462155348805,-1.630823145323457
90,-3.353895384702689,-0.15569340509346263,-1.4389648172376153,-1.6058746144904457,0.1137610225539687,-0.4407380857012626,-0.2632428045152157,-0.17090038363235208,0.4974301425928447,2.6423039495945444,0.008369845254422211,-1.674641484961521
91,-3.3693402736860163,-0.16233745984220982,-1.4494781567084782,-1.6104961381735903,0.08551426426917308,-0.501266604289853,-0.26281821222872154,-0.1677742313592656,0.498779565628516,2.5598979795578174,0.008478948580561604,-1.718440495723334
92,-3.3847851626693446,-0.168981514590957,-1.459991496179341,-1.6151176618567347,0.057267505984377465,-0.5617951228784435,-0.26233859876496796,-0.16463178222776848,0.5001374936680054,2.477456828066996,0.007356652275321294,-1.7621794953602572
93,-3.400230051652673,-0.1756255693397043,-1.4705048356502037,-1.619739185539879,0.02902074769958185,-0.622323641467033,-0.26179856804155616,-0.1614751818402163,0.5015038530156922,2.395032765900967,0.00500451385023572,-1.8058177755780813
94,-3.4156749406360003,-0.1822696240884515,-1.4810181751210667,-1.6243607092230237,0.0007739894147862358,-0.6828521600556234,-0.26119283720782216,-0.15830692263882024,0.5028783198541956,2.3126774177626817,0.0014272229206673938,-1.8493150626998325
95,-3.4311198296193286,-0.18891367883719867,-1.4915315145919297,-1.628982232906168,-0.02747276887000938,-0.7433806786442139,-0.26051626450499393,-0.1551298350462143,0.5042603212206708,2.230441370965338,-0.0033674634966608173,-1.892631964865173
96,-3.4465647186026565,-0.19555773358594597,-1.5020448540627924,-1.6336037565893127,-0.05571952715480499,-0.8039091972328043,-0.2597638764980166,-0.15194707686514272,0.505649036686098,2.1483738064488036,-0.009368819366034835,-1.9357303963148609
97,-3.4620096075859843,-0.20220178833469316,-1.5125581935336554,-1.638225280272457,-0.08396628543960061,-0.8644377158213947,-0.2589308945624133,-0.1487621209831071,0.5070434007332222,2.0665221611488684,-0.01656327909928764,-1.9785739702905945
98,-3.4774544965693126,-0.20884584308344034,-1.5230715330045181,-1.6428468039556017,-0.11221304372439622,-0.9249662344099843,-0.2580127605127795,-0.14557874143514832,0.5084421058270256,1.9849318294200238,-0.024934594737229906,-2.021128353412628
99,-3.492899385552641,-0.21548989783218775,-1.5335848724753813,-1.647468327638746,-0.14045980200919228,-0.9854947529985756,-0.25700516126319745,-0.1424009978850754,0.5098436061698457,1.9036459096385,-0.034464016860754884,-2.0633615759914568
100,-3.5082751698872743,-0.22210422526662288,-1.544051172396039,-1.6520691733635768,-0.16858017658801527,-1.0457524504749136,-0.2559091930066389,-0.13924736321593797,0.5112398475217873,1.823066326496372,-0.0450802712565938,-2.105057720749431
101,-3.5233572594649534,-0.2285922116152317,-1.5543175542283245,-1.6565821377655734,-0.19616342041645662,-1.1048591582241754,-0.2547405455757288,-0.13616791958582614,0.5126084857836793,1.7443942623213586,-0.056566542079303256,-2.145594670934207
102,-3.5381283781235053,-0.2349464250494363,-1.5643722580846868,-1.661002051355158,-0.22317793756802384,-1.1627471709682977,-0.25350301860546015,-0.13316969718195829,0.5139460007111056,1.667729725324375,-0.06882328853204032,-2.1849263109037778
103,-3.55258852586293,-0.24116686556923672,-1.5742152839651253,-1.66532891413233,-0.2496237280427147,-1.2194164887072763,-0.25219977124106485,-0.13025582988951306,0.5152505103332803,1.593076223155728,-0.0817650645766182,-2.223058298347871
104,-3.566737702683227,-0.24725353317463228,-1.583846631869641,-1.66956272609709,-0.27550079184053056,-1.2748671114411199,-0.25083443743213096,-0.12742908117930166,0.5165202314252653,1.5204321838766088,-0.09530952148327795,-2.260000397639988
105,-3.580575908584396,-0.2532064278656241,-1.5932663017982327,-1.6737034872494374,-0.30080912896147094,-1.3290990391698232,-0.24941106330606672,-0.12469182738972802,0.5177535041306627,1.4497916179618604,-0.10937763142311242,-2.2957658745433793
106,-3.5941031435664383,-0.2590255496422115,-1.6024742937509011,-1.6777511975893726,-0.32554873940553675,-1.382112271893388,-0.247934045936617,-0.1220460476204713,0.518948812375291,1.3811447470892773,-0.1238938414978093,-2.3303709160111072
107,-3.607319407629353,-0.26471089850439455,-1.6114706077276464,-1.681705857116896,-0.3497196231727284,-1.4339068096118126,-0.24640807413021426,-0.1194933196432946,0.520104800323413,1.314478590718469,-0.13878616670032148,-2.3638340851412964
108,-3.6202247007731407,-0.270262474452173,-1.6202552437284679,-1.6855674658320066,-0.3733217802630442,-1.4844826523250987,-0.24483807174656044,-0.11703482122325856,0.5212202851398654,1.2497775047035806,-0.1539862303221522,-2.3961758179906396
109,-3.632819022997801,-0.2756802774855476,-1.6288282017533666,-1.6893360237347048,-0.39635521067648494,-1.5338398000332454,-0.24322914397005732,-0.11467133624257361,0.5222942663288596,1.1870236689204534,-0.1694292600304068,-2.4274179661175856
110,-3.6451023743033337,-0.28096430760451774,-1.637189481802341,-1.693011530824991,-0.4188199144130498,-1.5819782527362483,-0.2415865268562476,-0.1124032650277246,0.5233259319237237,1.126197523106048,-0.18505404732227607,-2.457583386432296
111,-3.657074754689739,-0.2861145648090835,-1.6453390838753925,-1.6965939871028648,-0.44071589147274093,-1.628898010434117,-0.23991554039260365,-0.11023063829693792,0.5243146618019424,1.0672781518296321,-0.20080287740562555,-2.486695578146396
112,-3.668736164157017,-0.29113104909924514,-1.6532770079725208,-1.7000833925683263,-0.46204314185555795,-1.6745990731268456,-0.2382215452361603,-0.10815313416807047,0.5252600283969092,1.0102436207897918,-0.21662143581675825,-2.514778365291506
113,-3.6800866027051677,-0.2960137604750024,-1.6610032540937252,-1.7034797472213754,-0.48280166556149773,-1.719081440814434,-0.2365099032215621,-0.10617009769530956,0.5261617950722969,0.9550712675185242,-0.23245869732119778,-2.5418556223486752
114,-3.6911260703341906,-0.3007626989363553,-1.6685178222390065,-1.7067830510620121,-0.5029914625905625,-1.7623451134968828,-0.23478594167210767,-0.1042805624354723,0.5270199124172769,0.9017379501394944,-0.2482668018883619,-2.5679510399341705
115,-3.701854567044086,-0.3053778644833035,-1.6758207124083642,-1.7099933040902364,-0.5226125329427522,-1.8043900911741897,-0.2330549214930449,-0.10248327358007517,0.5278345127112979,0.8502202581343727,-0.26400092181271867,-2.5930879271555085
116,-3.7122720928348545,-0.30985925711584805,-1.6829119246017985,-1.7131105063060488,-0.5416648766180674,-1.8452163738463607,-0.2313220089804467,-0.10077671222676149,0.5286059027961911,0.800494689177713,-0.2796191233897626,-2.617289047125483
117,-3.7223786477064955,-0.31420687683398807,-1.6897914588193097,-1.7161346577094485,-0.5601484936165089,-1.8848239615133924,-0.22959225124009247,-0.09915912040221772,0.5293345555812519,0.7525377960577375,-0.295082225954558,-2.6405764821487425
118,-3.7321742316590085,-0.3184207236377238,-1.6964593150608969,-1.7190657583004363,-0.5780633839380731,-1.9232128541752829,-0.22787055507844511,-0.09762852648766993,0.530021100393992,0.7063263075501595,-0.3103536605579287,-2.6629715252311086
119,-3.741658844692395,-0.32250079752705485,-1.7029154933265613,-1.7219038080790114,-0.5954095475827632,-1.9603830518320358,-0.22616166920160613,-0.09618277073672962,0.5306663123756988,0.6618372268900325,-0.3253993300906442,-2.6844945947700305
120,-3.750832486806653,-0.32644709850198195,-1.7091599936163018,-1.7246488070451749,-0.6121869845505774,-1.9963345544836475,-0.22447016953752497,-0.09481953061325187,0.5312711011070291,0.6190479112195818,-0.3401874722664352,-2.705165169536439
121,-3.7596951580017848,-0.33025962656250485,-1.715192815930119,-1.7273007551989257,-0.628395694841517,-2.0310673621301216,-0.22280044748123734,-0.0935363457134708,0.5318364986347971,0.5779361350991039,-0.35468852653596783,-2.7250017413318584
122,-3.7682468582777884,-0.33393838170862344,-1.7210139602680132,-1.7298596525402639,-0.644035678455583,-2.064581474771453,-0.22115670085198091,-0.09233064207167731,0.5323636470570967,0.538480140868856,-0.3688750057203195,-2.744021782982745
123,-3.776487587634665,-0.3374833639403374,-1.7266234266299836,-1.73232549906919,-0.6591069353927725,-2.096876892407648,-0.21954292734419237,-0.09119975568175144,0.53285378581004,0.5006586783529813,-0.38272137291820996,-2.7622417296050594
124,-3.7844173460724138,-0.3408945732576474,-1.7320212150160308,-1.7346982947857037,-0.6736094656530867,-2.1279536150387024,-0.21796292025110864,-0.09014095509779856,0.5333082387859039,0.46445103610967026,-0.39620392405025456,-2.7796769713272487
125,-3.792036133591035,-0.3441720096605527,-1.7372073254261542,-1.7369780396898054,-0.6875432692365253,-2.157811642664619,-0.21642026623953572,-0.08915146300576726,0.5337284013993787,0.4298370661588762,-0.4093006762498703,-2.796341855893714
126,-3.7993439501905293,-0.34731567314905365,-1.7421817578603547,-1.7391647337814944,-0.7009083461430894,-2.1864509752853944,-0.2149183449568076,-0.08822847668417419,0.5341157277060823,0.3967972038631659,-0.4219912621890956,-2.8122496997802653
127,-3.8063407958708964,-0.3503255637231508,-1.746944512318631,-1.7412583770607712,-0.7137046963727807,-2.2138716129010323,-0.21346033025567984,-0.08736918729587759,0.5344717176655699,0.3653124843988969,-0.434256830333312,-2.8274128066363184
128,-3.8130266706321354,-0.35320168138284336,-1.7514955888009849,-1.7432589695276355,-0.7259323199255938,-2.2400735555115254,-0.21204919282942772,-0.08657079797421602,0.5347979046297925,0.3353645570344892,-0.4460799510475034,-2.841842492025397
129,-3.8194015744742478,-0.3559440261281319,-1.7558349873074148,-1.745166511182088,-0.7375912168015333,-2.2650568031168845,-0.2106877040574446,-0.0858305406857958,0.535095843127417,0.3069356982288494,-0.45744452842436234,-2.8555491135666213
130,-3.8254655073972317,-0.3585525979590154,-1.759962707837921,-1.7469810020241279,-0.7486813870005964,-2.2888213557171024,-0.20937844087079666,-0.08514569186883934,0.5353670970045838,0.2800088243755339,-0.4683357176678359,-2.8685421056862963
131,-3.8312184694010893,-0.36102739687549534,-1.7638787503925042,-1.7487024420537556,-0.7592028305227849,-2.3113672133121828,-0.2081237914572114,-0.0845135868603518,0.5356132279736437,0.25456750484519886,-0.47873984784194573,-2.8808300182727673
132,-3.8366604604858185,-0.36336842287757065,-1.7675831149711636,-1.7503308312709707,-0.7691555473680998,-2.332694375902122,-0.20692596163561708,-0.08393163313756537,0.5358357846131074,0.2305959758200166,-0.4886443497811052,-2.8924205585910077
133,-3.841791480651421,-0.36557567596524176,-1.7710758015739008,-1.7518661696757736,-0.7785395375365383,-2.3528028434869235,-0.20578698174131563,-0.0833973224092688,0.536036291854522,0.2080791552671599,-0.4980376889530325,-2.9033206358588344
134,-3.846611529897895,-0.36764915613850846,-1.774356810200713,-1.753308457268165,-0.7873548010281022,-2.371692616066582,-0.20470871387407408,-0.08290824160084692,0.5362162409852222,0.18700265926444595,-0.5069093030665318,-2.9135364079165784
135,-3.8511206082252425,-0.36958886339737096,-1.7774261408516032,-1.7546576940481433,-0.7956013378427906,-2.389363693641103,-0.20369285937256845,-0.08246208278330008,0.5363770801898519,0.16735281976839314,-0.5152495442226942,-2.923073329439268
136,-3.8553187156334623,-0.37139479774182926,-1.780283793526569,-1.7559138800157092,-0.8032791479806036,-2.4058160762104848,-0.20274096638968264,-0.08205665210128603,0.536520205648252,0.14911670380412828,-0.5230496254180554,-2.9319362011477677
137,-3.859205852122555,-0.3730669591718827,-1.7829297682256116,-1.7570770151708632,-0.8103882314415438,-2.421049763774729,-0.2018544374539477,-0.08168987775848893,0.5366469532026569,0.13228213395691046,-0.5303015712209028,-2.940129219475663
138,-3.8627820176925205,-0.3746053476875324,-1.7853640649487308,-1.7581470995136046,-0.8169285882256068,-2.4350647563338335,-0.20103453691288778,-0.08135981712049453,0.5367585906031804,0.1168377099577348,-0.536998172456348,-2.9476560261447
139,-3.866047212343358,-0.37600996328877767,-1.7875866836959262,-1.7591241330439338,-0.8229002183327943,-2.447861053887797,-0.20028239816409432,-0.08106466299595882,0.5368563103371932,0.10277283108041595,-0.5431329447513233,-2.9545197570962065
140,-3.869001436075069,-0.37728080597561875,-1.7895976244671998,-1.7600081157618508,-0.828303121763108,-2.4594386564366193,-0.19959903058945977,-0.08080274915635847,0.536941223045434,0.09007771900564518,-0.5487000908065464,-2.960723090221389
141,-3.8716446888876517,-0.37841787574805497,-1.791396887262548,-1.7607990476673552,-0.8331372985165455,-2.469797563980304,-0.1989853261171427,-0.08057255515306855,0.5370143515254494,0.07874344075935145,-0.5536944662783629,-2.9662682913323977
142,-3.8739769707811074,-0.37942117260608743,-1.7929844720819736,-1.7614969287604474,-0.8374027485931093,-2.4789377765188494,-0.19844206534445497,-0.08037271048811144,0.5370766253212242,0.06876193129870156,-0.5581115491688422,-2.971157257820426
143,-3.8759982817554355,-0.3802906965497155,-1.7943603789254756,-1.7621017590411274,-0.8410994719927976,-2.486859294052257,-0.19796992316302003,-0.08020199819169249,0.5371288758965951,0.06012601529981957,-0.5619474126370088,-2.9753915594586577
144,-3.8777086218106365,-0.38102644757893933,-1.7955246077930545,-1.762613538509395,-0.8442274687156104,-2.4935621165805237,-0.19756947383518958,-0.08005935785575632,0.5371718323891734,0.052829427696852095,-0.5651987011578652,-2.978972475828075
145,-3.87910799094671,-0.38162842569375854,-1.7964771586847106,-1.7630322671652503,-0.8467867387615478,-2.4990462441036527,-0.19724119547791458,-0.07994388816829505,0.5372061179410129,0.04686683253229054,-0.5678626099682518,-2.981901029873674
146,-3.8801963891636557,-0.3820966308941738,-1.7972180316004418,-1.763357945008694,-0.8487772821306105,-2.503311676621637,-0.19698547391703064,-0.07985484898814113,0.5372322466021059,0.04223383970311232,-0.5699368677499551,-2.9841780171381855
147,-3.8809738164614744,-0.3824310631801846,-1.7977472265402512,-1.7635905720397247,-0.8501990988227996,-2.5063584141344855,-0.19680260588131337,-0.07979166299455674,0.5372506208029085,0.03892701922522198,-0.5714197225105291,-2.9858040302697573
148,-3.8814402728401656,-0.3826317225517908,-1.7980647435041361,-1.7637301482583432,-0.8510521888381115,-2.5081864566421963,-0.19669280151169868,-0.0797539169401417,0.5372615293924581,0.03694391268912877,-0.5723099306312669,-2.9867794784587676
149,-3.881595758299729,-0.382698609008993,-1.7981705824920975,-1.7637766736645493,-0.8513365521765488,-2.508795804144766,-0.19665618616683733,-0.07974136252954023,0.5372651462392144,0.036283041640523005,-0.572606749059729,-2.987104601526041
