nimar13/UR3e_dataset_trayectorias/data/trayectorias_completas_UR3e_TRAPEZOIDAL/trayectoria_354.csv
Punto,shoulder_pan_joint,shoulder_lift_joint,elbow_joint,wrist_1_joint,wrist_2_joint,wrist_3_joint,Posicion_X,Posicion_Y,Posicion_Z,Roll,Pitch,Yaw
0,1.1608929535192747,-1.9630282096417646,1.3763691849246245,4.8304048140002696,-1.3262935737680381,-5.259572731986054,-0.05997683246474659,0.24570440078286077,0.46324274393325615,-1.6801123015586927,1.050342828671527,1.6558485404206784
1,1.1610981353302896,-1.9630551667628762,1.3762055986025934,4.829360365223654,-1.3255881068933713,-5.259455535688439,-0.060079589856820576,0.24573150380806588,0.4634317963016499,-1.6800658516514329,1.048958144633525,1.6563174336181172
2,1.1617136807633346,-1.9631360381262108,1.3757148396365004,4.826227018893808,-1.3234717062693708,-5.259103946795594,-0.06038845749739751,0.24581128021320492,0.463999433078372,-1.679934005639762,1.0448053032505726,1.6577225673222313
3,1.1627395898184096,-1.9632708237317689,1.3748969080263453,4.821004775010731,-1.3199443718960366,-5.258517965307517,-0.06090521562299898,0.2459391175686461,0.4649470712055717,-1.679738976427751,1.0378879801916672,1.6600596428205203
4,1.1641758624955147,-1.9634595235795498,1.3737518037721284,4.813693633574424,-1.3150061037733687,-5.257697591224209,-0.06163281042663036,0.24610728092267553,0.4662769983417512,-1.679516838886042,1.0282124465272884,1.6633225796177216
5,1.1660224987946497,-1.963702137669554,1.3722795268738492,4.804293594584885,-1.3086569019013672,-5.256642824545672,-0.06257532154886852,0.24630484318550203,0.46799226083139117,-1.6793162653768616,1.0157877864531861,1.6675049917317841
6,1.1682794987158147,-1.9639986660017814,1.3704800773315082,4.792804658042115,-1.3008967662800321,-5.255353665271904,-0.06373791416636188,0.24651759120119537,0.47009650459542046,-1.6791970317311888,1.0006262032353168,1.6726019897699356
7,1.1709468622590098,-1.9643491085762321,1.368353455145105,4.779226823946115,-1.2917256969093631,-5.2538301134029055,-0.0651267733165379,0.24672791117814608,0.4725937668141178,-1.6792285000550993,0.9827434156583756,1.6786121139774124
8,1.1740245894242347,-1.9647534653929057,1.36589966031464,4.763560092296885,-1.2811436937893608,-5.2520721689386765,-0.06674901748256198,0.24691465838631801,0.47548821586894546,-1.6794882678141376,0.9621591492710111,1.6855392237650202
9,1.17751268021149,-1.9652117364518025,1.3631186928401129,4.745804463094423,-1.2691507569200244,-5.250079831879217,-0.06861258790292359,0.24705301739847618,0.47878383676552605,-1.680061130178836,0.9388977293790183,1.693394215103437
10,1.181411134620775,-1.9657239217529225,1.3600105527215238,4.725959936338731,-1.2557468863013546,-5.247853102224526,-0.070726109588691,0.24711436066948372,0.4824840592210744,-1.6810384485344347,0.9129887859627208,1.7021964946617865
11,1.1857199526520898,-1.9662900212962657,1.3565752399588729,4.704026512029808,-1.2409320819333511,-5.245391979974605,-0.07309871965794698,0.2470661149207544,0.4865913258148679,-1.6825179654438445,0.8844680844241429,1.711975195504857
12,1.190439134305435,-1.966910035081832,1.3528127545521595,4.680004190167654,-1.224706343816014,-5.242696465129454,-0.07573985836751036,0.24687164662313982,0.4911065981228526,-1.6846040642895557,0.8533785002997718,1.7227701643112154
13,1.19556867958081,-1.9675839631096217,1.3487230965013846,4.65389297075227,-1.207069671949343,-5.239766557689071,-0.07865901818027889,0.24649017983396726,0.49602879964364777,-1.687408444366206,0.8197711608709514,1.7346327801098802
14,1.2011085884782151,-1.9683118053796342,1.3443062658065474,4.6256928537836535,-1.1880220663333385,-5.236602257653459,-0.0818654464029763,0.24587676170858117,0.5013541956316058,-1.691051169060451,0.7837067820880185,1.7476266793038868
15,1.2070588609976503,-1.9690935618918701,1.3395622624676482,4.595403839261808,-1.1675635269680003,-5.233203565022616,-0.08536779742069374,0.2449822931187822,0.5070757117417425,-1.6956620428155629,0.7452572355447551,1.761828463660558
16,1.2134194971391152,-1.9699292326463291,1.334491086484687,4.563025927186731,-1.1456940538533285,-5.229570479796542,-0.08917373140319344,0.24375364389099682,0.5131821957167252,-1.7013822774284761,0.7045073875327346,1.7773284602712558
17,1.2201904969026103,-1.9708188176430113,1.3290927378576638,4.528559117558423,-1.1224136469893229,-5.225703001975237,-0.09328945762786628,0.2421338741188799,0.5196576292560633,-1.7083664152782125,0.6615572605421198,1.7942315880412743
18,1.2273718602881354,-1.9717623168819165,1.3233672165865786,4.492003410376884,-1.0977223063759836,-5.221601131558702,-0.09771922231877966,0.24006258467047512,0.5264803007382484,-1.7167844820735232,0.6165245768914129,1.8126583656292907
19,1.2349635872956906,-1.9727597303630449,1.3173145226714313,4.4533588056421145,-1.0716200320133107,-5.217264868546937,-0.10246474319805016,0.23747642122753498,0.533621953635218,-1.7268243406822816,0.5695477541498188,1.8327460708110226
20,1.2429656779252756,-1.9738110580863966,1.3109346561122222,4.4126253033541145,-1.044106823901304,-5.212694212939941,-0.10752459583045237,0.234309756758051,0.5410469302563934,-1.7386942065463225,0.5207894319214863,1.8546500290185761
21,1.2513781321768906,-1.9749163000519714,1.304227616908951,4.369802903512884,-1.0151826820399639,-5.207889164737714,-0.11289356034087092,0.23049557699227,0.5487113358431188,-1.7526252594170137,0.47044061793717207,1.8785449653059418
22,1.2602009500505358,-1.9760754562597693,1.2971934050616176,4.324891606118422,-0.9848476064292899,-5.202849723940257,-0.11856194119445065,0.2259665919763648,0.5565622539156488,-1.7688742396683694,0.41872554563274506,1.9046262929904938
23,1.2694341315462108,-1.9772885267097904,1.2898320205702225,4.27789141117073,-0.9531015970692824,-5.1975758905475695,-0.12451487740975646,0.22065659382092376,0.5645370500116749,-1.7877258423314384,0.3659073310389573,1.9331111250656483
24,1.2790776766639158,-1.9785555114020346,1.2821434634347653,4.228802318669807,-0.9199446539599412,-5.192067664559651,-0.13073166573439574,0.21450207603403543,0.5725628073409609,-1.8094946081169658,0.312294496613922,1.9642386700725993
25,1.2891315854036511,-1.979876410336502,1.274127733655246,4.177624328615653,-0.8853767771012662,-5.186325045976502,-0.13718512479718917,0.20744412302298992,0.5805559441342933,-1.8345258462648348,0.2582483822725069,1.9982694996186523
26,1.299595857765416,-1.9812512235131925,1.2657848312316646,4.124357441008268,-0.8493979664932576,-5.180348034798122,-0.1438410338350419,0.19943056917921145,0.5884220682242819,-1.863194897995448,0.20419137234291868,2.0354829379833657
27,1.3104704937492113,-1.9826799509321062,1.2571147561640212,4.069001655847653,-0.8120082221359154,-5.1741366310245125,-0.1506576849678169,0.19041841519245312,0.5960561292113393,-1.895903757201689,0.15061570761982637,2.0761715197396526
28,1.3217554933550364,-1.9841625925932431,1.248117508452316,4.011556973133806,-0.7732075440292395,-5.167690834655672,-0.15758559276369186,0.1803764747206409,0.6033429319037462,-1.9330737212469915,0.09809239328919069,2.1206311023369198
29,1.3334508565828915,-1.9856991484966031,1.2387930880965488,3.9520233928667294,-0.7329959321732299,-5.161010645691601,-0.16456740851341645,0.16928820724220775,0.6101580759566592,-1.975132404445184,0.047279322305440616,2.169144861017314
30,1.3455565834327765,-1.9872896186421865,1.2291414950967194,3.890400915046422,-0.6913733865678867,-5.154096064132299,-0.1715380886423567,0.15715467297767552,0.616369385081904,-2.022493238932199,-0.0010728156615591525,2.2219591607646483
31,1.3580726739046918,-1.9889340030299927,1.219162729452828,3.8266895396728833,-0.6483399072132097,-5.1469470899777665,-0.17842536639160317,0.14399752354237738,0.6218388841210086,-2.0755257538417338,-0.04611896873016506,2.279249434151511
32,1.3709991279986369,-1.9906323016600223,1.2088567911648747,3.760889266746114,-0.6038954941091991,-5.139563723228004,-0.1851505726063988,0.12986191810368952,0.626425372915879,-2.134515838583784,-0.0869253913966315,2.3410750675265413
33,1.384335945714612,-1.992384514532275,1.1982236802328592,3.693000096266114,-0.5580401472558548,-5.131945963883011,-0.19162984448891707,0.1148192301962673,0.6299876315534331,-2.1996173114599724,-0.12248603665077719,2.407324360442165
34,1.398083127052617,-1.9941906416467508,1.1872633966567818,3.6230220282328824,-0.5107738666531768,-5.124093811942786,-0.1977757498587136,0.0989693862781144,0.632388271571287,-2.2707997384112035,-0.15175318838490187,2.477654179508763
35,1.4122406720126524,-1.99605068300345,1.1759759404366426,3.550955062646421,-0.46209665230116526,-5.116007267407332,-0.20349933829190026,0.08244265524003783,0.6334982216235151,-2.3478022904907383,-0.17368475452033588,2.5514336875892685
36,1.4268085805947175,-1.997964638602372,1.1643613115724412,3.4767991995067287,-0.41200850419982005,-5.107686330276646,-0.20871260915589965,0.06540069043250016,0.6332018037002148,-2.4301080505813446,-0.1873079510887977,2.627706048908268
37,1.4417868527988125,-1.9999325084435173,1.1524195100641776,3.4005544388138054,-0.36050942234914096,-5.099131000550731,-0.21333135999679742,0.04803661470722492,0.6314023173991529,-2.5169548188814734,-0.1917948861728188,2.7051835310161354
38,1.4571754886249377,-2.001954292526886,1.1401505359118522,3.322220780567651,-0.30759940674912833,-5.090341278229585,-0.21727834735151394,0.030573937113886385,0.6280280055369272,-2.6073940466265575,-0.1865408794968838,2.782286879014825
39,1.4729744880730928,-2.0040299908524775,1.1275543891154647,3.2417982247682664,-0.25327845739978194,-5.081317163313208,-0.2204866567372115,0.01326410002087431,0.6230382256848768,-2.7003980496339905,-0.17123333926293738,2.857228253657245
40,1.4891838511432782,-2.006159603420292,1.1146310696750152,3.159286771415651,-0.197546574301102,-5.0720586558016,-0.22290314080947304,-0.003617519705956619,0.6164296007870127,-2.795000496323804,-0.14589987444169067,2.928121842978882
41,1.5058035778354932,-2.00834313023033,1.101380577590504,3.0746864205098046,-0.14040375745308853,-5.062565755694762,-0.22449174664782168,-0.01977728973871023,0.6082418703422391,-2.8904434970386106,-0.11092976353430382,2.99309477638732
42,1.5228336681497385,-2.0105805712825915,1.0878029128619304,2.9879971720507275,-0.08185000685574129,-5.0528384629926935,-0.22523651769701292,-0.03491075454083776,0.5985631149401899,-2.986302883585672,-0.0670711618180385,3.0503698977750617
43,1.5402741220860134,-2.0128719265770756,1.073898075489295,2.89921902603842,-0.02188532250906028,-5.042876777695395,-0.22514402661886457,-0.048711812341375726,0.5875339851961814,-3.0825720424234735,-0.015414056271620395,3.0983023901336377
44,1.5581249396443189,-2.0152171961137832,1.0596660654725973,2.808351982472881,0.039490295586954716,-5.032680699802865,-0.22424497631988863,-0.060883526803465475,0.5753505359627624,3.103487416303563,0.042627038179911036,3.135369084179495
45,1.5763861208246541,-2.0176163798927136,1.045106882811838,2.7153960413541114,0.10227684743230303,-5.022250229315104,-0.22259470221696726,-0.07115034365377929,0.5622652532289917,3.0046134587378805,0.10531730123409426,-3.1230595483304544
46,1.5950576656270192,-2.0200694779138675,1.0302205275070164,2.6203512026821114,0.1664743330269849,-5.011585366232114,-0.22027232395562027,-0.07927134851389629,0.5485858697230416,2.902707119263553,0.17058398053394536,-3.1120247376179537
47,1.6141395740514144,-2.0225764901772445,1.0150069995581328,2.5232174664568805,0.2320827523710005,-5.000686110553892,-0.21737833351542304,-0.08505405998537663,0.534671601160221,2.7961946253388468,0.23597587459623676,-3.116102930849955
48,1.6336318460978396,-2.0251374166828446,0.9994662989651873,2.423994832678419,0.2991021054643497,-4.98955246228044,-0.21403047224774158,-0.08836811030250633,0.5209265029921196,2.683396409596801,0.2986105098700659,-3.1365913733134656
49,1.6535344817662947,-2.0277522574306674,0.9835984257281798,2.3226833013467267,0.3675323923070324,-4.978184421411758,-0.21035784370185917,-0.08915803563138822,0.5077897509246313,2.562838394632079,0.3551373774345068,3.108708529366648
50,1.6738246830777783,-2.030418017185035,0.9674215561051136,2.2193989223258717,0.4372952276907536,-4.9665950097586915,-0.20649768394233528,-0.08745753244464569,0.49573542992214337,2.433881339376964,0.4017252823749911,3.053227035325245
51,1.6942060763052684,-2.0330957578821187,0.9511719814500338,2.1156503438487437,0.507371603907659,-4.95495351086224,-0.2026329127034761,-0.08347171543745982,0.48536123335597003,2.2990525596365083,0.43403463397596576,2.982335620489548
52,1.7145874695327588,-2.035773498579202,0.9349224067949539,2.011901765371615,0.5774479801245644,-4.943312011965788,-0.19888420028126264,-0.07753745914009759,0.47704810626526467,2.1614107688815296,0.44901364087229023,2.8996870149876792
53,1.7349688627602489,-2.0384512392762857,0.918672832139874,1.908153186894487,0.6475243563414699,-4.931670513069337,-0.19532173705509978,-0.07003964564773861,0.4710549602111016,2.024922845041043,0.4447408970477231,2.810009339673376
54,1.755350255987739,-2.041128979973369,0.9024232574847941,1.804404608417359,0.7176007325583753,-4.9200290141728855,-0.19197970985562518,-0.06139901407267519,0.46756920290003096,1.8943146597760079,0.4204960216783487,2.7186040260277324
55,1.7757316492152293,-2.043806720670453,0.8861736828297143,1.7006560299402302,0.7876771087752807,-4.908387515276434,-0.18885537453588627,-0.05205691778574688,0.46670213922525405,1.7740461277784414,0.3768164292498274,2.630320946167875
56,1.7961130424427196,-2.0464844613675366,0.8699241081746343,1.5969074514631014,0.8577534849921871,-4.896746016379982,-0.18590994444988404,-0.04245968344557158,0.46848689443012687,1.6674618417032434,0.3152687931803085,2.548703707025111
57,1.8164944356702097,-2.04916220206462,0.8536745335195544,1.4931588729859726,0.9278298612090925,-4.885104517483531,-0.18307123933775396,-0.03304316968352301,0.47287890242170877,1.5764643039354582,0.23805142687081704,2.475648022648027
58,1.8368758288976998,-2.0518399427617036,0.8374249588644745,1.3894102945088447,0.9979062374259979,-4.8734630185870795,-0.18023795644775464,-0.024218106992057786,0.4797589122604733,1.5016950760893697,0.14759655595497684,2.41155357382835
59,1.8572572221251902,-2.054517683458787,0.8211753842093946,1.2856617160317168,1.0679826136429038,-4.861821519690627,-0.17728534969944904,-0.0163567605942122,0.48893837803272105,1.442978623742628,0.04628374906057756,2.355717006970281
60,1.8776386153526803,-2.057195424155871,0.8049258095543148,1.181913137554588,1.1380589898598088,-4.850180020794176,-0.1740720368688166,-0.009781396720839356,0.50016701484541,1.399795511159154,-0.06371088990193793,2.3067212875640135
61,1.8980200085801704,-2.0598731648529545,0.7886762348992349,1.07816455907746,1.2081353660767147,-4.838538521897725,-0.1704476022389768,-0.004754952559967919,0.5131422295360367,1.371676126719084,-0.18045710372392842,2.262693228368523
62,1.9184014018076607,-2.062550905550038,0.772426660244155,0.9744159806003312,1.2782117422936206,-4.826897023001273,-0.1662606253757742,-0.001474214718087563,0.5275200715175637,1.3585140089061267,-0.3022422477576358,2.2213943191268073
63,1.938782795035151,-2.0652286462471214,0.756177085589075,0.8706674021232024,1.3482881185105264,-4.815255524104821,-0.16136674738778964,-6.570451484348705e-05,0.5429272992257281,1.3608566720596327,-0.4274983552943127,2.1801414444295726
64,1.9591641882626412,-2.0679063869442054,0.7399275109339951,0.7669188236460744,1.4183644947274314,-4.80361402520837,-0.1556363851318795,-0.0005843554253542379,0.5589741226578704,1.3802654420864855,-0.5546911419471807,2.135535379765986
65,1.9795455814901313,-2.070584127641289,0.7236779362789152,0.6631702451689465,1.4884408709443373,-4.791972526311919,-0.14896172138488925,-0.003014953326814975,0.5752671636887206,1.4198783549806946,-0.6821538844675914,2.0829176107279173
66,1.9999269747176216,-2.0732618683383723,0.7074283616238355,0.5594216666918177,1.5585172471612432,-4.780331027415468,-0.1412626342126602,-0.007276198759697754,0.5914221738218265,1.4853901010926813,-0.8078127048132492,2.0153768454616863
67,2.0203083679451117,-2.075939609035456,0.6911787869687553,0.4556730882146889,1.628593623378149,-4.768689528519015,-0.1324912799935503,-0.013227146851941107,0.6070760637695589,1.586770999003186,-0.9286798339721797,1.9220036197132047
68,2.040689761172602,-2.0786173497325398,0.6749292123136756,0.35192450973756095,1.698669999595054,-4.757048029622564,-0.12263510940631374,-0.020675689160752173,0.6218978301174268,1.7408889549853954,-1.0398606473348369,1.7852397701046092
69,2.061071154400092,-2.0812950904296232,0.6586796376585957,0.24817593126043214,1.76874637581196,-4.745406530726113,-0.11171817113764325,-0.029388666172101455,0.635598010095627,1.9728988846691689,-1.1327299440374397,1.5794634114599515
70,2.0814525476275825,-2.0839728311267067,0.6424300630035158,0.1444273527833042,1.8388227520288658,-4.733765031829661,-0.09980064056434204,-0.039103142544624846,0.647936354382957,2.3036630747368623,-1.192981550641206,1.2835479885542842
71,2.1018339408550726,-2.08665057182379,0.6261804883484359,0.04067877430617628,1.9088991282457708,-4.722123532933209,-0.08697659633868543,-0.04953834152166768,0.658727477657562,2.702918867946471,-1.2044199360934242,0.9276794575391829
72,2.1222153340825627,-2.089328312520874,0.6099309136933562,-0.06306980417095254,1.9789755044626767,-4.710482034036758,-0.07337015261075708,-0.06040772145415245,0.66784432464328,3.0754589360737974,-1.1638636175289563,0.6071659035453777
73,2.1425967273100532,-2.0920060532179576,0.593681339038276,-0.16681838264808135,2.0490518806795825,-4.698840535140306,-0.05913013454185742,-0.07143068628854582,0.675219372741885,-2.921679621417417,-1.0855574248146511,0.38205705000686535
74,2.1629781205375433,-2.094683793915041,0.5774317643831961,-0.2705669611252093,2.1191282568964884,-4.687199036243855,-0.044423555994846646,-0.08234345240892456,0.6808435778665446,-2.7130735862921433,-0.9861616534843223,0.24374016848831148
75,2.1833595137650335,-2.0973615346121246,0.5611821897281164,-0.3743155396023372,2.1892046331133934,-4.675557537347403,-0.029428217417772577,-0.09290864467417201,0.6847631546068063,-2.5547668319715924,-0.8766177810242384,0.1656779161245685
76,2.2037409069925236,-2.100039275309208,0.5449326150730363,-0.4780641180794669,2.2592810093303,-4.663916038450951,-0.014324786105078213,-0.10292326230355611,0.6870743622157062,-2.4259303464762656,-0.7632162739109913,0.1278025783172671
77,2.224122300220014,-2.102717016006292,0.5286830404179563,-0.5818126965565948,2.329357385547205,-4.6522745395545,0.0007112519479673639,-0.11222473715003486,0.6879165411362386,-2.313401246733356,-0.6497779875375039,0.11785388374563482
78,2.2445036934475042,-2.1053947567033755,0.5124334657628766,-0.6855612750337228,2.399433761764111,-4.640633040658049,0.015517370869659843,-0.12069489899865055,0.6874637081742149,-2.2089755914917495,-0.5389457884014681,0.12863910546906723
79,2.2648850866749943,-2.108072497400459,0.4961838911077967,-0.7893098535108516,2.469510137981016,-4.628991541761597,0.029951127216210904,-0.12826176057751396,0.6859150696504692,-2.1073469317690625,-0.4328322376677617,0.1559110901429786
80,2.285266479902485,-2.1107502380975425,0.4799343164527168,-0.8930584319879804,2.539586514197922,-4.617350042865146,0.04389626776121858,-0.13489913450761984,0.6834848490620753,-2.004929533612916,-0.3333409779588178,0.19708944823470434
81,2.305647873129975,-2.1134279787946264,0.46368474179763686,-0.9968070104651074,2.609662890414828,-4.605708543968694,0.05726751141090921,-0.14062419097935425,0.6803918476148867,-1.8992466889798398,-0.24232286806305336,0.25049140644678036
82,2.326029266357465,-2.11610571949171,0.44743516714255716,-1.1005555889422363,2.679739266631733,-4.594067045072243,0.07001375588495477,-0.14549315425992065,0.6768491617027026,-1.7886470788428361,-0.16163465452793332,0.31482768306937153
83,2.346410659584955,-2.1187834601887934,0.43118559248747723,-1.204304167419365,2.7498156428486387,-4.5824255461757915,0.08211953436413644,-0.1495954143258888,0.6730544708524607,-1.6722087187491574,-0.09312454285293628,0.38883355730193353
84,2.3667920528124453,-2.121461200885877,0.4149360178323973,-1.3080527458964921,2.8198920190655437,-4.570784047279339,0.09360463102013222,-0.15304639365458386,0.669181283291947,-1.54973614421677,-0.03855254084280348,0.47098492845231205
85,2.3871734460399354,-2.124138941582961,0.3986864431773174,-1.411801324373621,2.8899683952824495,-4.559142548382888,0.10452185334496701,-0.15597955587382964,0.665371485181223,-1.4217686701681427,0.000545747704876002,0.559303482980063
86,2.4075548392674255,-2.1268166822800443,0.3824368685222377,-1.5155499028507498,2.9600447714993554,-4.547501049486437,0.11495304934499362,-0.15853797074994488,0.6617294852886233,-1.2895217141587028,0.02302979041422764,0.6512854258051276
87,2.4279362324949156,-2.1294944229771278,0.36618729386715776,-1.6192984813278768,3.0301211477162604,-4.535859550589985,0.12500354472413627,-0.16086585796186087,0.658318181585839,-1.1547055268906674,0.028319062946576247,0.7439838822963374
88,2.4483176257224066,-2.1321721636742113,0.3499377192120776,-1.7230470598050074,3.100197523933167,-4.524218051693533,0.13479525502641632,-0.1631005202549035,0.6551569023961172,-1.019218770205818,0.016503082392215315,0.8342314223363178
89,2.4686990189498967,-2.134849904371295,0.3336881445569977,-1.8267956382821362,3.170273900150073,-4.512576552797082,0.14445879650797178,-0.1653650457890124,0.6522213951850736,-0.8847798902376194,-0.011639869106508473,0.9189285148003329
90,2.489080412177387,-2.1375276450683787,0.31743856990191777,-1.9305442167592632,3.240350276366978,-4.50093505390063,0.1541249739087192,-0.16776211154778128,0.6494458538771787,-0.7525950131418717,-0.0547184318985999,0.9952902913769617
91,2.509461805404877,-2.140205385765462,0.30118899524683806,-2.034292795236392,3.310426652583884,-4.489293555004179,0.1639160605718415,-0.1703691570793856,0.6467268938527059,-0.6231402135026498,-0.11086549502416174,1.0609659321868579
92,2.529843198632367,-2.1428831264625456,0.28493942059175814,-2.138041373713521,3.380503028800789,-4.477652056107727,0.17393730455760423,-0.1732351237651087,0.6439293056501066,-0.496076301377055,-0.17788619294773703,1.1140055328265368
93,2.550224591859857,-2.145560867159629,0.2686898459366782,-2.241789952190648,3.450579405017695,-4.466010557211276,0.18426909241873538,-0.17637887291491622,0.6408933468508007,-0.3702600906530835,-0.25337060531297484,1.1527058245288218
94,2.5706059850873473,-2.148238607856713,0.2524402712815983,-2.3455385306677767,3.5206557812346007,-4.454369058314825,0.19496017996759446,-0.17978931025038522,0.6374432693922134,-0.24379748683830052,-0.33474327079902566,1.175392147747228
95,2.5909873783148374,-2.1509163485537965,0.23619069662651837,-2.4492871091449055,3.5907321574515056,-4.442727559418373,0.20602235742423544,-0.18342715886343486,0.633396729024023,-0.11410202900890554,-0.419239640399215,1.1801961367631135
96,2.6113687715423275,-2.15359408925088,0.21994112197143867,-2.5530356876220326,3.6608085336684115,-4.431086060521921,0.21742685645068163,-0.18722824158582735,0.6285746867351454,0.022032229959526275,-0.5038122111623843,1.164892617265044
97,2.631750164769818,-2.1562718299479635,0.20369154731635875,-2.6567842660991614,3.7308849098853165,-4.41944456162547,0.22910273125166683,-0.19110806067389813,0.622811390164122,0.16826379693287616,-0.584981531256926,1.126893099281935
98,2.652131557997308,-2.1589495706450474,0.18744197266127882,-2.7605328445762902,3.8009612861022224,-4.407803062729018,0.24093735839111252,-0.19496740118906952,0.6159640171250224,0.328261564307521,-0.658674341773782,1.063572697856769
99,2.6725129512247987,-2.161627311342131,0.17119239800619868,-2.864281423053419,3.871037662319129,-4.396161563832567,0.25277910406560644,-0.1986986372459494,0.6079215736960982,0.5047096361439941,-0.7201529826323136,0.9731950214220313
100,2.692803152536282,-2.1642930710964983,0.1550155283831327,-2.967565802074276,3.940800497702849,-4.3845721521795,0.26439062976277267,-0.20217744447095148,0.5986571926486848,0.6966871317606761,-0.7640856527511064,0.8571723227722566
101,2.712705788204737,-2.1669079118443215,0.13914765514612504,-3.0688773334059682,4.009230784545533,-4.373204111310817,0.275405221339462,-0.20526154748033537,0.588325702831331,0.8963883012971724,-0.7857756735208783,0.723169165928271
102,2.7321980602511626,-2.1694688383499217,0.12360695455317972,-3.16809996718443,4.076250137638882,-4.362070463037365,0.28562324969982467,-0.20788239574183875,0.5770342924209272,1.0941291738068095,-0.7834073634997271,0.5817626210037241
103,2.751279968675558,-2.1719758506132982,0.1083934266042963,-3.2652337034096632,4.141858556982898,-4.351171207359144,0.2948757890360868,-0.20999905255065573,0.5649196354299697,1.2792932069381444,-0.7577248751978394,0.444343902329603
104,2.7699515134779227,-2.174428948634452,0.093507071299475,-3.360278542081664,4.20605604257758,-4.340506344276153,0.303019489801793,-0.21159411598849562,0.5521491350120259,1.443807970649574,-0.7116499310847131,0.31957768857643076
105,2.7882126946582577,-2.176828132413383,0.0789478886387156,-3.4532344832004327,4.268842594422928,-4.3300758737883935,0.30994241184104143,-0.2126721752652017,0.5389118520820523,1.5839430252274973,-0.6492525625084207,0.21162726490255374
106,2.8060635122165634,-2.17917340195009,0.06471587862201722,-3.544101526765971,4.330218212518943,-4.319879795895863,0.31556760256946975,-0.21325712554092155,0.5254093904275888,1.6996953187012052,-0.5747110953384197,0.12078793959262633
107,2.8235039661528383,-2.1814647572445747,0.05081104124938207,-3.6328796727782784,4.390182896865623,-4.309918110598564,0.31985453154291893,-0.21338872597701877,0.5118472177532746,1.7931641497494997,-0.49169859432825413,0.04512683014803593
108,2.8405340564670833,-2.1837021982968357,0.0372333765208086,-3.7195689212373555,4.448736647462967,-4.300190817896496,0.32279860204725797,-0.213118758787777,0.49842679516798083,1.8671676205971506,-0.4031890398534124,-0.01812244067124265
109,2.8571537831592986,-2.1858857251068735,0.023982884436296814,-3.804169272143204,4.505879464310983,-4.290697917789657,0.3244290353697792,-0.21250710097411957,0.4853387797847375,1.9244549866886622,-0.31149892637803206,-0.0717639259687227
110,2.873363146229484,-2.1880153376746883,0.011059564995847815,-3.8866807254958164,4.561611347409661,-4.28143941027805,0.3248054661746104,-0.21161796299629296,0.4727574630996496,1.9673791003264933,-0.21841203976390655,-0.11830588614143583
111,2.889162145677639,-2.19009103600028,-0.001536581800539949,-3.9671032812951985,4.615932296759009,-4.272415295361673,0.324013601729458,-0.21051648661653305,0.46083651651096,1.9978193025720694,-0.12531020106908408,-0.15987917289483589
112,2.9045507815037643,-2.192112820083649,-0.013805555952865145,-4.045436939541352,4.668842312359024,-4.263625573040526,0.3221602885594578,-0.209265832939867,0.4497060378379656,2.017212560609153,-0.03328278835181807,-0.19826420722475255
113,2.9195290537078598,-2.194080689924794,-0.02574735746112866,-4.121681700234275,4.720341394209703,-4.255070243314611,0.3193683028697948,-0.20792483533612308,0.43947083055853675,2.026619863616261,0.056789244874537764,-0.23495218687730293
114,2.9340969622899244,-2.195994645523716,-0.03736198632532961,-4.195837563373967,4.770429542311046,-4.246749306183926,0.3157711412058005,-0.20654624313357905,0.430209800978676,2.0267968620135113,0.1441713234111129,-0.27120765739359287
115,2.9482545072499593,-2.197854686880415,-0.04864944254546888,-4.267904528960427,4.819106756663057,-4.238662761648472,0.31150804034364893,-0.20517554223192533,0.42197632695770326,2.018258609247867,0.22823023652001373,-0.30811981562734664
116,2.9620016885879648,-2.199660813994891,-0.05960972612154647,-4.33788259699366,4.866373037265737,-4.230810609708247,0.306719404720643,-0.20385030858698752,0.41479943370479794,2.0013375357709178,0.3084019933543747,-0.3466384108268871
117,2.9753385063039404,-2.2014130268671437,-0.07024283705356194,-4.405771767473661,4.912228384119082,-4.223192850363254,0.3015427694291182,-0.20260002959131584,0.4086856056486881,1.9762375169093434,0.38416967230692434,-0.38759306161565876
118,2.9882649603978853,-2.203111325497173,-0.08054877534151572,-4.471572040400428,4.956672797223092,-4.215809483613491,0.2961093796812331,-0.20144631587536593,0.4036210663430694,1.943088089748245,0.45504962667958765,-0.43169552781144255
119,3.0007810508698003,-2.2047557098849797,-0.09052754098540738,-4.535283415773975,4.99970627657777,-4.208660509458959,0.2905414256539049,-0.20040342079157425,0.3995743686382089,1.902002693315404,0.5205854340115644,-0.4795247151266414
120,3.012886777719685,-2.206346180030563,-0.10017913398523648,-4.596905893594283,5.041328822183113,-4.201745927899657,0.28494993594693907,-0.19947898544665865,0.396499152847593,1.8531434224815573,0.5803497088343779,-0.5314950292163828
121,3.024582140947541,-2.207882735933923,-0.1095035543410039,-4.65643947386136,5.081540434039123,-4.195065738935586,0.27943330409285283,-0.19867493220562193,0.39433694948117565,1.796791908637202,0.6339542113393495,-0.5878109218847499
122,3.035867140553366,-2.2093653775950597,-0.11850080205270874,-4.7138841565752045,5.120341112145798,-4.188619942566745,0.27407640068137196,-0.19798843776041442,0.3930199236701707,1.7334213250588983,0.6810683731990442,-0.6484145056232106
123,3.0467417765371607,-2.210794105013973,-0.12717087712035235,-4.769239941735817,5.157730856503141,-4.182408538793135,0.26895020834401406,-0.197412926932057,0.39247347932273224,1.6637586403652553,0.7214452182116499,-0.7129385185551236
124,3.0572060488989257,-2.212168918190664,-0.1355137795439334,-4.822506829343201,5.1937096671111505,-4.1764315276147554,0.264111907443999,-0.19693903933408033,0.39261866126635125,1.5888210278313315,0.7549516652777846,-0.7806817777422652
125,3.067259957638661,-2.213489817125131,-0.14352950932345276,-4.873684819397354,5.228277543969821,-4.170688909031607,0.25960533601944397,-0.19655553204495546,0.3933743123706098,1.5099092309281674,0.7815978178664014,-0.8506250966406677
126,3.076903502756366,-2.2147568018173756,-0.15121806645890956,-4.922773911898275,5.261434487079162,-4.165180683043689,0.2554617474349995,-0.19625009189616696,0.3946589593755395,1.4285471728778236,0.8015581199973536,-0.9214989555597068
127,3.086136684252041,-2.2159698722673973,-0.15857945095030512,-4.969774106845971,5.293180496439172,-4.1599068496510005,0.2517007923982683,-0.19601004044659082,0.39639241556843174,1.3463715885022498,0.815177511473659,-0.9918995767527128
128,3.0949595021256857,-2.2171290284751946,-0.16561366279763812,-5.014685404240431,5.323515572049844,-4.154867408853544,0.2483316576239827,-0.19582292291433165,0.39849710043026293,1.2649928116186582,0.8229586583686103,-1.0604325932187617
129,3.1033719563773015,-2.218234270440769,-0.17232070200090943,-5.057507804081663,5.352439713911187,-4.150062360651317,0.2453543006921944,-0.19567697914411686,0.4008990859313741,1.1858590551202055,0.8255312406993663,-1.125852217718991
130,3.111374047006886,-2.219285598164121,-0.17870056856011907,-5.098241306369662,5.379952922023191,-4.1454917050443205,0.24276072886063155,-0.19556150008211234,0.4035288864224493,1.1101548396191319,0.8236090846452858,-1.1871654423511406
131,3.118965774014442,-2.2202830116452494,-0.18475326247526658,-5.136885911104432,5.406055196385866,-4.141155442032556,0.24053627818395254,-0.19546707727356383,0.4063220142447733,1.0387506811429057,0.8179434947106753,-1.2436843026566986
132,3.126147137399967,-2.2212265108841547,-0.19047878374635152,-5.173441618285967,5.430746536999203,-4.13705357161602,0.23866085780774246,-0.19538575571234848,0.40921932652381265,0.9722036495665557,0.8092806626280822,-1.2950267088228236
133,3.1329181371634616,-2.2221160958808372,-0.19587713237337434,-5.207908427914276,5.454026943863209,-4.133186093794716,0.23711013239714937,-0.19531110211124803,0.41216719038666955,0.9107954836534604,0.7983283355165253,-1.341079250604484
134,3.1392787733049277,-2.222951766635296,-0.20094830835633593,-5.240286339989357,5.475896416977882,-4.129553008568642,0.23585662308402908,-0.19523820150090712,0.41511749433572503,0.8545903582901457,0.7857336225550483,-1.3819399573047437
135,3.145229045824362,-2.2237335231475317,-0.20569231169523494,-5.270575354511202,5.496354956343222,-4.126154315937799,0.23487071391483974,-0.19516359518066806,0.4180275329871698,0.803496687600917,0.7720712049763506,-1.4178566949058418
136,3.1507689547217668,-2.2244613654175445,-0.21010914239007183,-5.298775471479818,5.515402561959226,-4.122990015902186,0.23412155647024846,-0.19508517260521677,0.42085979109369726,0.7573227858950407,0.7578397907148748,-1.4491714361273045
137,3.155898499997142,-2.2251352934453337,-0.21419880044084705,-5.324886690895202,5.533039233825896,-4.120060108461804,0.2335778700811358,-0.19500202895226038,0.4235816509385648,0.7158216393509019,0.7434642799090199,-1.4762752022594312
138,3.160617681650487,-2.2257553072309,-0.21796128584756014,-5.348909012757357,5.549264971943234,-4.117364593616652,0.2332086389042711,-0.19491429901434867,0.42616504500690605,0.6787239373946645,0.7293013753383717,-1.4995745748894829
139,3.164926499681801,-2.226321406774243,-0.2213965986102111,-5.370842437066276,5.564079776311237,-4.114903471366732,0.2329837100967991,-0.19482297680753863,0.4285860734714271,0.645760669052424,0.715646902150202,-1.519468515365645
140,3.168824954091087,-2.226833592075363,-0.2245047387288004,-5.39068696382197,5.577483646929908,-4.112676741712042,0.23287429951598182,-0.1947297289843537,0.4308246036047142,0.6166774287190516,0.7027436493272475,-1.5363333870555274
141,3.172313044878341,-2.22729186313426,-0.2272857062033271,-5.408442593024432,5.5894765837992395,-4.110684404652582,0.23285341285616956,-0.19463670885123205,0.4328638658512887,0.5912426330495043,0.6907889975780468,-1.5505140146421477
142,3.175390772043568,-2.227696219950934,-0.22973950103379215,-5.424109324673662,5.600058586919243,-4.108926460188352,0.23289619101079742,-0.19454637657512414,0.43469005903487523,0.5692515434381321,0.6799419260009729,-1.5623189183291797
143,3.1780581355867623,-2.2280466625253843,-0.23186612322019595,-5.437687158769663,5.609229656289912,-4.107402908319353,0.2329801888050388,-0.1944613300570129,0.4362919750920218,0.5505275729047618,0.6703292058697672,-1.5720182727669654
144,3.1803151355079278,-2.228343190857612,-0.2336655727625372,-5.449176095312431,5.616989791911248,-4.106113749045585,0.2330855961718829,-0.1943841499742267,0.43766065184405994,0.5349219610970847,0.662050720770216,-1.5798435318515525
145,3.1821617718070625,-2.228585804947616,-0.2351378496608163,-5.458576134301971,5.62333899378325,-4.105058982367048,0.23319541042083267,-0.19431726165892954,0.4387890606599794,0.522312576392643,0.6551839244191388,-1.5859879815244324
146,3.1835980444841683,-2.228774504795397,-0.2362829539150333,-5.465887275738282,5.628277261905918,-4.10423860828374,0.2332955675453984,-0.19426281578758672,0.43967183442367147,0.512602358181537,0.6497874818105562,-1.5906077249658752
147,3.1846239535392424,-2.228909290400955,-0.23710088552518815,-5.471109519621358,5.6318045962792525,-4.103652626795665,0.23337503959469572,-0.19422258929852237,0.44030503998945725,0.5057177358492381,0.6459041507797207,-1.5938227777057108
148,3.1852394989722876,-2.2289901617642895,-0.23759164449128134,-5.474242865951204,5.633920996903253,-4.103301037902819,0.23342590404798827,-0.1941979075188269,0.44068599827004895,0.5016072388538863,0.6435629594711834,-1.5957180691438546
149,3.185444680783302,-2.2290171188854013,-0.23775523081331196,-5.475287314727819,5.63462646377792,-4.103183841605203,0.23344338992230212,-0.19418958815055426,0.44081315422463946,0.5002404299670434,0.6427807266134267,-1.5963442264488323
