nimar13/UR3e_dataset_trayectorias/data/trayectorias_completas_UR3e_TRAPEZOIDAL/trayectoria_195.csv
Punto,shoulder_pan_joint,shoulder_lift_joint,elbow_joint,wrist_1_joint,wrist_2_joint,wrist_3_joint,Posicion_X,Posicion_Y,Posicion_Z,Roll,Pitch,Yaw
0,4.183391059527052,0.2703166913051738,-1.5329419484396858,4.111414149190203,-3.896975063880549,0.33065247060851277,-0.052965080946405514,-0.21806649294939962,0.3634630514315752,-2.5935976667321285,0.19936515578302658,1.875084006665317
1,4.182555353942999,0.27015726388965944,-1.532719415691037,4.111395339299707,-3.8966045171687367,0.33051055367281773,-0.053192624195299805,-0.21805320795571587,0.36350736490212454,-2.5937004203126754,0.19925536173952102,1.874610907896503
2,4.18004823719084,0.2696789816431163,-1.532051817445091,4.111338909628221,-3.8954928770332993,0.33008480286573255,-0.05387530288779121,-0.21801202760450528,0.36364031193432955,-2.5940089947528593,0.19892596586037375,1.8731915526746135
3,4.175869709270574,0.2688818445655446,-1.5309391537018477,4.111244860175742,-3.893640143474237,0.32937521818725735,-0.05501325133121887,-0.21793897466761397,0.36386191220471537,-2.594524330717467,0.19837692825785422,1.8708257649610007
4,4.170019770182203,0.2677658526569441,-1.5293814244613069,4.111113190942272,-3.8910463164915496,0.328381799637392,-0.05660665158534064,-0.21782741687014545,0.36417219789048727,-2.595247994539629,0.19760818697577753,1.8675132537173698
5,4.162498419925726,0.26633100591731484,-1.5273786297234688,4.110943901927811,-3.887711396085238,0.3271045472161366,-0.05865567072038662,-0.21766806212384396,0.3645712127445529,-2.5961821760396546,0.19661966476113446,1.8632536164464548
6,4.153305658501142,0.26457730434665694,-1.5249307694883332,4.110736993132359,-3.8836353822553007,0.325543460923491,-0.061160372861808136,-0.21744895300566452,0.365059010801628,-2.5973296854339187,0.19541127851743773,1.8580463441514958
7,4.142441485908452,0.2625047479449703,-1.5220378437559003,4.110492464555915,-3.8788182750017386,0.32369854075945537,-0.06412060592842242,-0.21715546163586208,0.3656356547165685,-2.5986939492968544,0.19398295141267777,1.851890827715913
8,4.129905902147656,0.260113336712255,-1.5186998525261701,4.11021031619848,-3.873260074324552,0.32156978672402964,-0.06753586297722149,-0.21677028644275056,0.3663012137364519,-2.6002790055294014,0.1923346276067639,1.8447863657034456
9,4.115698907218754,0.2574030706485109,-1.5149167957991427,4.109890548060054,-3.86696078022374,0.3191571988172138,-0.07140511809969528,-0.21627345263545694,0.3670557613084205,-2.602089497278037,0.19046628955514036,1.8367321735766706
10,4.099820501121746,0.25437394975373817,-1.5106886735748177,4.109533160140637,-3.8599203926993035,0.31646077703900793,-0.07572663687671338,-0.21564231854073482,0.3678993723258154,-2.604130665740024,0.18837797783684415,1.8277273943281571
11,4.082270683856632,0.2510259740279367,-1.5060154858531953,4.109138152440227,-3.8521389117512417,0.3134805213894119,-0.080497761497439,-0.21485159029386477,0.36883212001575205,-2.6064083417826467,0.18606981344662635,1.817771110513287
12,4.063049455423412,0.2473591434711065,-1.5008972326342758,4.108705524958827,-3.8436163373795553,0.3102164318684258,-0.08571467078799125,-0.21387334770473104,0.36985407247201385,-2.608928936297161,0.18354202248180634,1.8068623576667218
13,4.042156815822086,0.2433734580832476,-1.4953339139180588,4.108235277696435,-3.834352669584244,0.30666850847604954,-0.09137211558310707,-0.21267708444535413,0.3709652888379495,-2.6116994292018294,0.18079496314528845,1.795000139075701
14,4.0195927650526535,0.23906891786435996,-1.4893255297045442,4.107727410653052,-3.824347908365308,0.30283675121228326,-0.09746313011419049,-0.21122976602054827,0.37216581514501773,-2.614727357002828,0.1778291549766273,1.7821834418723863
15,3.9953573031151146,0.23444552281444364,-1.4828720799937325,4.107181923828677,-3.813602053722746,0.29872116007712685,-0.10397872038494561,-0.20949590928397183,0.37345567981368283,-2.618020798816821,0.17464531021311153,1.768411254394549
16,3.96945043000947,0.22950327293349862,-1.4759735647856234,4.106598817223312,-3.80211510565656,0.29432173507058035,-0.1109075308659108,-0.20743768754147754,0.37483488882459043,-2.6215883607546613,0.1712443671725693,1.7536825847487338
17,3.941872145735719,0.22424216822152487,-1.468629984080217,4.105978090836955,-3.789887064166749,0.2896384761926437,-0.11823549126578899,-0.20501506553493176,0.37630342056930477,-2.6254391585616705,0.1676275255389295,1.7379964804927626
18,3.912622450293862,0.2186622086785224,-1.4608413378775131,4.105319744669607,-3.776917929253313,0.28467138344331705,-0.1259454456339047,-0.20218596881386236,0.3778612203914141,-2.629582798406309,0.16379628342047398,1.721352049335046
19,3.8817013436838987,0.2127633943044912,-1.452607626177512,4.104623778721266,-3.763207700916252,0.2794204568226002,-0.13401676661689055,-0.1989064921692756,0.3795081948304874,-2.634029355705395,0.1597524760391275,1.7037484807267038
20,3.8491088259058297,0.2065457250994313,-1.4439288489802133,4.103890192991936,-3.7487563791555663,0.2738856963304933,-0.1424249583351471,-0.19513115191233352,0.3812442055832276,-2.638789351870335,0.15549831589701182,1.6851850681990972
21,3.8148448969596545,0.20000920106334275,-1.4348050062856175,4.103118987481613,-3.733563963971256,0.26806710196699635,-0.15114125206058465,-0.19081318681739762,0.383069063198181,-2.6438737288546923,0.15103643425372548,1.6656612322742026
22,3.778909556845373,0.1931538221962254,-1.4252360980937242,4.1023101621902995,-3.71763045536332,0.26196467373210924,-0.16013219966478556,-0.18590491250008565,0.38498252052257026,-2.6492938213787425,0.146369923734317,1.6451765437485024
23,3.7413028055629853,0.18597958849807938,-1.4152221244045335,4.101463717117994,-3.7009558533317595,0.25557841162583206,-0.16935927066211773,-0.18035813385104554,0.38698426592219876,-2.6550613267010927,0.1415023818736306,1.6237307471229683
24,3.702024643112492,0.17848649996890467,-1.4047630852180455,4.100579652264698,-3.683540157876574,0.2489083156481648,-0.17877845958908822,-0.17412461987864225,0.38907391629792626,-2.6611882718008957,0.1364379553872738,1.6013237839226204
25,3.6610750694938923,0.1706745566087012,-1.3938589805342603,4.09965796763041,-3.6653833689977637,0.24195438579910739,-0.18833991143027132,-0.1671566449113977,0.39125100992493744,-2.6676869778263113,0.13118138494299011,1.5779558156193432
26,3.6184540847071864,0.16254375841746904,-1.3825098103531774,4.0986986632151305,-3.6464854866953282,0.2347166220786599,-0.19798757381015158,-0.15940759955593636,0.3935149991439305,-2.674570021655715,0.125738050188201,1.5536272458415723
27,3.5741616887523744,0.15409410539520818,-1.3707155746747974,4.09770173901886,-3.6268465109692682,0.22719502448682236,-0.2076588857033908,-0.1508326740803665,0.3958652429363855,-2.681850194407485,0.1201140147699246,1.5283387415245813
28,3.528197881629456,0.1453255975419186,-1.3584762734991198,4.096667195041599,-3.606466441819583,0.21938959302359468,-0.21728451345363375,-0.14138961597874716,0.39830099941927616,-2.689540456722152,0.11431607106169185,1.5020912526259464
29,3.480562663338432,0.1362382348576003,-1.345791906826145,4.095595031283345,-3.585345279246273,0.2113003276889769,-0.2267881459090717,-0.13103956235273465,0.40082141829791407,-2.6976538906273837,0.10835178428838514,1.4748860300028817
30,3.431256033879302,0.1268320173422533,-1.332662474655873,4.094485247744101,-3.563483023249338,0.20292722848296904,-0.23608636145313902,-0.11974794640640785,0.4034255333190379,-2.7062036477819404,0.10222953571358462,1.4467246410223062
31,3.3802779932520655,0.11710694499587757,-1.3190879769883035,4.093337844423865,-3.540879673828778,0.19427029540557106,-0.24508858059775332,-0.10748547577675,0.40611225476979534,-2.7152028938798294,0.09595856452494433,1.4176089824513984
32,3.327628541456723,0.10706301781847313,-1.3050684138234365,4.092152821322638,-3.5175352309845933,0.185329528456783,-0.253697118576413,-0.09422917860567143,0.4088803620718393,-2.724664748981146,0.08954900802082953,1.3875412901569557
33,3.2733076784932744,0.09670023581004,-1.2906037851612724,4.09093017844042,-3.4934496947167837,0.17610492763660487,-0.2618073529823568,-0.07996351119448233,0.4117284965233791,-2.7346022235220966,0.08301193966577382,1.356524145127143
34,3.2173154043617194,0.08601859897057812,-1.2756940910018106,4.089669915777209,-3.468623065025349,0.16659649294503656,-0.2693080218953361,-0.06468151876838195,0.41465515424563726,-2.745028149744905,0.07635940454301489,1.324560475320221
35,3.159651719062059,0.07501810730008757,-1.2603393313450517,4.088372033333009,-3.4430553419102896,0.15680422438207825,-0.2760816680773799,-0.04838603832355355,0.41765867939372014,-2.7559551082796983,0.06960445168922356,1.2916535528430684
36,3.100316622594292,0.06369876079856829,-1.2445395061909954,4.087036531107816,-3.416746525371605,0.1467281219477298,-0.282005244637546,-0.0310909297473589,0.42073725769539366,-2.767395349606874,0.06276116274963241,1.2578069859690253
37,3.0393101149584187,0.052060559466020284,-1.2282946155396415,4.085663409101632,-3.389696615409296,0.13636818564199124,-0.2869508970092238,-0.01282231841679507,0.4238889103845696,-2.7793607101317646,0.0558446763410427,1.223024705521656
38,2.9766321961544393,0.040103503302443555,-1.2116046593909906,4.084252667314457,-3.3619056120233615,0.12572441546486257,-0.29078693509042003,0.006380170673886704,0.42711148859946213,-2.791862522615627,0.04887120745609679,1.187310945180006
39,2.912282866182354,0.027827592307838128,-1.1944696377450421,4.082804305746291,-3.333373515213802,0.11479681141634382,-0.2933790079063265,0.02646221048234137,0.4304026683182342,-2.8049115207307853,0.041858061185106696,1.1506702153040966
40,2.8462621250421627,0.015232826482203976,-1.1768895506017962,4.081318324397133,-3.304100324980618,0.10358537349643498,-0.2945914911043233,0.047353627750118435,0.43375994590751343,-2.8185177375455845,0.034823639972546644,1.113107269938608
41,2.778569972733865,0.002319205825541182,-1.1588643979612532,4.079794723266984,-3.2740860413238093,0.0920901017051361,-0.2942890949276588,0.06896734699329493,0.43718063436131305,-2.8326903977996194,0.02778744356507547,1.0746270667302955
42,2.7092064092574617,-0.010913269662150338,-1.1403941798234127,4.078233502355843,-3.2433306642433752,0.08031099604244707,-0.2923386969844847,0.09119845577843255,0.4406618603095782,-2.8474378039043966,0.020770060748208242,1.0352347195928326
43,2.638171434612952,-0.024464599980870583,-1.121478896188275,4.076634661663711,-3.2118341937393167,0.06824805650836796,-0.2886114000914561,0.11392342743834721,0.44420056187671064,-2.862767215701978,0.013793151911399935,0.9949354440735547
44,2.565465048800336,-0.038334785130619664,-1.1021185470558394,4.074998201190588,-3.1795966298116323,0.05590128310289866,-0.2829848106955269,0.13699954008713994,0.44779348747092335,-2.878684724137081,0.006879421428673606,0.9537344955218533
45,2.491087251819614,-0.05252382511139736,-1.0823131324261068,4.073324120936474,-3.146617972460324,0.04327067582603933,-0.2753455278490992,0.16026453304097324,0.45143719558504275,-2.8951951191487613,5.257879694332367e-05,0.9116371003301535
46,2.415038043670786,-0.06703171992320373,-1.062062652299077,4.071612420901367,-3.1128982216853904,0.030356234677789917,-0.2655918264371045,0.18353654339089753,0.45512805568832737,-2.912301752268048,-0.006662712559911987,0.8686483807163036
47,2.337317424353852,-0.08185846956603882,-1.0413671066747496,4.069863101085271,-3.078437377486832,0.017157959658150423,-0.25363651135812554,0.20661436634491184,0.4588622502869066,-2.930006394618547,-0.013240899932549292,0.8247732737404874
48,2.2579253938688115,-0.09700407403990263,-1.0202264955531248,4.0680761614881815,-3.043235439864649,0.0036758507671208474,-0.23940991170134726,0.22927808288684468,0.46263577822746976,-2.948309091257696,-0.019655620525014482,0.7800164454992371
49,2.1768619522156656,-0.11246853334479512,-0.998640818934203,4.066251602110102,-3.0072924088188406,-0.010090091995298867,-0.2228629757248795,0.25129009711187783,0.4664444593147525,-2.9672080130654965,-0.025879796299874993,0.7343822017105653
50,2.094219955570418,-0.12823413332343714,-0.9766348026789444,4.0643915129388635,-2.970649456206275,-0.024124100080698208,-0.2039927144669083,0.2723737715617679,0.4702796587344674,-2.986677323730772,-0.031879203635158546,0.6879265556054867
51,2.011206534221148,-0.14407058993119648,-0.9545298829798421,4.062523063816294,-2.933841816166238,-0.0382211823597397,-0.18312400751357785,0.29199379994147767,0.4740821148925415,-3.006421976510043,-0.03754718102874613,0.6413296783613658
52,1.9281931128718774,-0.15990704653895582,-0.9324249632807398,4.060654614693724,-2.8970341761262004,-0.0523182646387812,-0.1604748430167147,0.3098822362836364,0.4778330029375252,-3.026336545311717,-0.04285002359411874,0.5947991543051233
53,1.845179691522608,-0.17574350314671516,-0.9103200435816377,4.058786165571155,-2.860226536086163,-0.06641534691782258,-0.13619777428994292,0.3258818239429414,0.4815309333835311,-3.0464023842797574,-0.04778266543202405,0.5483330928451954
54,1.7621662701733376,-0.1915799597544745,-0.8882151238825353,4.056917716448584,-2.8234188960461255,-0.08051242919686408,-0.11045904596935816,0.33984930772520444,0.485174606123794,-3.0666006091963305,-0.05234093752122673,0.5019291102178141
55,1.6791528488240672,-0.20741641636223396,-0.866110204183433,4.055049267326015,-2.7866112560060885,-0.09460951147590557,-0.08343727560082315,0.35165661568756323,0.48876281087771806,-3.086912136651414,-0.056521580976873376,0.45558437249745815
56,1.5961394274747969,-0.2232528729699934,-0.8440052844843307,4.053180818203445,-2.7498036159660506,-0.10870659375494718,-0.0553220337369362,0.3611919149780103,0.49229442746019686,-3.107317726456266,-0.060322258079707675,0.40929564177814765
57,1.5131260061255265,-0.23908932957775275,-0.8219003647852283,4.051312369080875,-2.712995975926013,-0.12280367603398867,-0.026312334662678995,0.3683605330090292,0.4957684258735537,-3.1277980270056145,-0.06374156086263566,0.36305932508659
58,1.4301125847762561,-0.2549257861855121,-0.799795445086126,4.049443919958305,-2.676188335885976,-0.13690075831303006,0.0033849493806479038,0.3730857364288395,0.4991838662227943,3.1348516839422866,-0.06677901706706012,0.3168715255417748
59,1.3470991634269867,-0.27076224279327143,-0.7776905253870237,4.047575470835736,-2.6393806958459387,-0.15099784059207155,0.03355673696566675,0.3753093615882487,0.5025398984551728,3.1142802203903095,-0.06943509331095403,0.27072809523522057
60,1.2640857420777163,-0.2865986994010308,-0.7555856056879215,4.045707021713166,-2.6025730558059013,-0.16509492287111305,0.06398543521652958,0.37499229149053537,0.505835761925417,3.0936922792660537,-0.0717111953431673,0.22462468927315213
61,1.181072320728446,-0.3024351560087901,-0.7334806859888192,4.043838572590596,-2.565765415765864,-0.17919200515015454,0.09445067209137717,0.37211477554473915,0.509070784788271,3.0731071585038903,-0.07360966529324832,0.17855682039757134
62,1.0980588993791756,-0.3182716126165497,-0.7113757662897167,4.041970123468026,-2.5289577757258264,-0.19328908742919615,0.1247310485187984,0.3666765898072618,0.512244383220342,3.052544010230992,-0.07513377586237548,0.13251991358828027
63,1.0150454780299052,-0.334108069224309,-0.6892708465906145,4.040101674345457,-2.492150135685789,-0.20738616970823764,0.15460589555915155,0.3586970367805802,0.5153560604735441,3.0320217864812387,-0.0762877214378134,0.08650936004323084
64,0.9320320566806357,-0.34994452583206825,-0.6671659268915122,4.0382332252228865,-2.455342495645752,-0.22148325198727903,0.18385702175479954,0.34821478522858973,0.5184054057627535,3.0115591851168078,-0.07707660615008832,0.040520569940181266
65,0.8490186353313653,-0.3657809824398276,-0.6450610071924099,4.036364776100317,-2.4185348556057145,-0.23558033426632052,0.2122704359582482,0.33528755185302495,0.5213920929905899,2.991174596445645,-0.07750642892760054,-0.005450976601311455
66,0.766005213982095,-0.38161743904758694,-0.6229560874933076,4.034496326977747,-2.381727215565677,-0.24967741654536202,0.23963803118285687,0.31999162804186604,0.5243158793125421,2.9708860510007855,-0.07758406563716463,-0.051409680912535984
67,0.6829917926328246,-0.3974538956553465,-0.6008511677942052,4.032627877855178,-2.3449195755256396,-0.2637744988244036,0.26575921540498454,0.3024212562361343,0.5271766035459505,2.9507111689157477,-0.07731724843002714,-0.09735978004253354
68,0.5999783712835542,-0.41329035226310584,-0.5787462480951029,4.030759428732607,-2.308111935485602,-0.2778715811034451,0.2904424757556676,0.2826878617536841,0.5299741844266367,2.930667111290195,-0.07671454244072941,-0.14330530437512196
69,0.5169649499342839,-0.4291268088708652,-0.5566413283960006,4.028890979610038,-2.2713042954455647,-0.2919686633824865,0.31350686316958143,0.2609191471456209,0.5327086187172748,2.910770533892866,-0.07578532001009723,-0.18925003902090834
70,0.4339515285850144,-0.4449632654786245,-0.5345364086968984,4.027022530487468,-2.234496655405527,-0.306065745661528,0.3347833853032251,0.23725805733132463,0.535379979171839,2.8910375434961137,-0.0745397326233327,-0.235197489352251
71,0.35093810723574403,-0.46079972208638387,-0.5124314889977961,4.0251540813648985,-2.19768901536549,-0.3201628279405695,0.3541162963860944,0.21186162485093055,0.5379884123607539,2.8714836570796853,-0.07298868076923062,-0.2811508509877772
72,0.26792468588647367,-0.4766361786941432,-0.4903265692986938,4.023285632242328,-2.1608813753254528,-0.3342599102196109,0.37136427362003105,0.1848997055793888,0.5405341363616151,2.852123764082469,-0.07114378193694544,-0.3271129844687077
73,0.1849112645372033,-0.4924726353019028,-0.46822164959959145,4.021417183119759,-2.1240737352854153,-0.3483569924986525,0.38640147078399395,0.1565536161545466,0.5430174383205912,2.8329720918212833,-0.06901733697224886,-0.3730863948035186
74,0.10189784318793293,-0.5083090919096621,-0.4461167299004891,4.019548733997189,-2.087266095245378,-0.3624540747776941,0.3991184408242856,0.12701468517476638,0.5454386718898683,2.814042174137265,-0.06662229501621948,-0.4190732159916013
75,0.018884421838663457,-0.5241455485174212,-0.424011810201387,4.017680284874619,-2.050458455205341,-0.3765511570567355,0.409422920403097,0.09648273091197156,0.5477982545467088,2.7953468232742207,-0.06397221724577264,-0.4650752005721154
76,-0.0641289995106078,-0.539982005125181,-0.40190689050228445,4.015811835752049,-2.013650815165303,-0.3906482393357771,0.41724047062974345,0.06516447885747516,0.5500966647999235,2.776898104941073,-0.061081239627886044,-0.5110937141821906
77,-0.14714242085987728,-0.5558184617329404,-0.3798019708031821,4.01394338662948,-1.9768431751252655,-0.4047453216148187,0.4225149694971318,0.03327193286539103,0.5523344392897522,2.7587073164631932,-0.057964034888142286,-0.5571297350500447
78,-0.23015584220914764,-0.5716549183406997,-0.3576970511040798,4.01207493750691,-1.940035535085228,-0.41884240389386007,0.4252089528784494,0.0010207139779043837,0.5545121697873503,2.740784967886084,-0.05463577387985099,-0.6031838582943251
79,-0.313169263558418,-0.587491374948459,-0.33559213140497746,4.01020648838434,-1.903227895045191,-0.43293948617290146,0.42530380229296905,-0.0313716187943016,0.5566305001002477,2.723140765860149,-0.05111208652299289,-0.6492563048514292
80,-0.3961826849076875,-0.6033278315562184,-0.31348721170587535,4.00833803926177,-1.8664202550051536,-0.44703656845194306,0.4227997790122933,-0.06368725140609957,0.5586901228903378,2.7057836001078597,-0.047409022463303065,-0.6953469348083677
81,-0.47919610625695785,-0.6191642881639777,-0.291382292006773,4.006469590139201,-1.8296126149651162,-0.46113365073098445,0.417715905436227,-0.09570978717080321,0.5606917764110827,2.688721532254502,-0.043543011581379444,-0.7414552648797935
82,-0.5622095276062282,-0.6350007447717371,-0.2692773723076707,4.0046011410166305,-1.7928049749250787,-0.47523073301002605,0.41008969600782164,-0.12722589456155342,0.5626362411707975,2.671961786791311,-0.039530824460576326,-0.7875804897342947
83,-0.6452229489554977,-0.6508372013794964,-0.24717245260856835,4.002732691894061,-1.7559973348850417,-0.48932781528906744,0.39997674124718097,-0.15802691670411137,0.5645243365289808,2.6555107439346703,-0.035389532901017505,-0.8337215068467505
84,-0.7282363703047681,-0.6666736579872558,-0.22506753290946624,4.000864242771491,-1.7191896948450043,-0.5034248975681088,0.38745014975091935,-0.18791042930125293,0.5663569172328017,2.6393739341472373,-0.031136470546118896,-0.8798769445301269
85,-0.8112497916540384,-0.6825101145950151,-0.2029626132103639,3.998995793648921,-1.6823820548049668,-0.5175219798471504,0.37259985421675246,-0.21668173430513243,0.5681348699009406,2.6235560340956408,-0.026789193667811576,-0.9260451927811542
86,-0.8942632130033079,-0.6983465712027744,-0.18085769351126157,3.9971273445263513,-1.6455744147649294,-0.5316190621261918,0.3555317886991943,-0.24415527734278378,0.569859109462087,2.6080608638344454,-0.022365442137989106,-0.9722244365595563
87,-0.9772766343525783,-0.7141830278105338,-0.15875277381215924,3.9952588954037815,-1.6087667747248924,-0.5457161444052334,0.3363669453720875,-0.27015597769385724,0.571530575555472,2.592891385026557,-0.017883100596638113,-1.0184126911092077
88,-1.0602900557018495,-0.7300194844182933,-0.1366478541130567,3.9933904462812118,-1.5719591346848545,-0.559813226684275,0.315240320056855,-0.2945204605103094,0.5731502289008761,2.578049700035558,-0.013360159812381788,-1.064607838921433
89,-1.14330347705112,-0.7458559410260527,-0.11454293441395436,3.991521997158642,-1.535151494644817,-0.5739103089633164,0.29229975666305363,-0.3170981819456953,0.574719047645612,2.5635370517547105,-0.008814678218768263,-1.1108076679351866
90,-1.2263168984003903,-0.761692397633812,-0.09243801471485225,3.989653548036072,-1.4983438546047796,-0.588007391242358,0.2677047014721483,-0.33775243891663775,0.5762380236960107,2.549353824069771,-0.004264743600002349,-1.1570099105655132
91,-1.3093303197496597,-0.7775288542415716,-0.07033309501574969,3.9877850989135024,-1.4615362145647421,-0.6021044735213994,0.2416248788696585,-0.3563612563400596,0.5777081590409742,2.5354995428874214,0.0002715651069306541,-1.2032122831503322
92,-1.39234374109893,-0.7933653108493309,-0.0482281753166478,3.9859166497909326,-1.4247285745247051,-0.616201555800441,0.21423890068935159,-0.37281814586524464,0.5791304620751508,2.5219728776971424,0.004776215930559441,-1.2494125254058346
93,-1.4753571624482005,-0.8092017674570903,-0.02612325561754547,3.984048200668363,-1.3879209344846677,-0.6302986380794824,0.18573282177163172,-0.38703273133771143,0.5805059439293088,2.5087716436709133,0.009231261941130366,-1.2956084394825373
94,-1.55837058379747,-0.8250382240648496,-0.004018335918443139,3.982179751545793,-1.3511132944446302,-0.6443957203585238,0.15629865465359766,-0.39893123747981996,0.581835614815446,2.4958928043411865,0.013618879319855129,-1.3417979282172903
95,-1.6413840051467403,-0.840874680672609,0.018086583780659193,3.9803113024232233,-1.3143056544045928,-0.6584928026375654,0.12613285649864983,-0.4084568395383918,0.5831204803941443,2.4833324749324555,0.01792140545096691,-1.387979032181211
96,-1.7243974264960107,-0.8567111372803683,0.040191503479761526,3.9784428533006535,-1.2774980143645558,-0.6725898849166068,0.09543480143854187,-0.4155698729197395,0.5843615381716425,2.4710859264543807,0.02212137705813043,-1.4341499651299587
97,-1.807410847845281,-0.8725475938881276,0.06229642317886386,3.9765744041780837,-1.2406903743245183,-0.6866869671956484,0.06440525144119398,-0.4202479030947641,0.5855597739340285,2.459147590694154,0.026201568395849542,-1.4803091474710783
98,-1.8904242691945505,-0.888384050495887,0.08440134287796619,3.974705955055514,-1.203882734284481,-0.7007840494746898,0.033244838635608835,-0.42248565729878884,0.586716158225884,2.4475110662716957,0.030145029493192147,-1.526455237373685
99,-1.9734376905438218,-0.9042205071036465,0.10650626257706852,3.972837505932944,-1.167075094244443,-0.7148811317537316,0.0021525717241447973,-0.4222948207605229,0.5878316428806297,2.4361691259426848,0.03393512443167234,-1.5725871591589617
100,-2.0560796871890705,-0.919986107082289,0.1285122788323272,3.970977416761706,-1.1304321416318794,-0.7289151398391303,-0.02853856125765275,-0.41972058048408756,0.5889024331315813,2.4251625648845945,0.03753977229172663,-1.6184978228370606
101,-2.137143128842217,-0.935450566387181,0.1500979554512485,3.969152857383626,-1.0944891105860695,-0.7426810826015502,-0.05820681879461487,-0.41492662132251035,0.5899151462367117,2.414633713865626,0.04089707863429923,-1.6635166934999353
102,-2.2165351593272558,-0.9505961708610453,0.17123856657287329,3.9673659177865375,-1.0592871729638866,-0.7561631914925799,-0.0866766019461903,-0.4081073342994623,0.5908716527200689,2.4045700255141056,0.043999860958614134,-1.7075929535352499
103,-2.2942557786441906,-0.9654229205038798,0.1919341121972007,3.96561659797044,-1.0248263287653288,-0.7693614665122197,-0.11383295423131351,-0.399458240514074,0.5917748769549306,2.3949472005244,0.046846967635849446,-1.7507276594181493
104,-2.370304986793018,-0.9799308153156867,0.2121845923242307,3.9639048979353344,-0.9911065779903963,-0.7822759076604691,-0.1395854777572756,-0.389174783240908,0.5926275801985552,2.3857418018226815,0.04943898793072882,-1.792922095936888
105,-2.4446827837737395,-0.9941198552964639,0.23199000695396377,3.96223081768122,-0.958127920639086,-0.7949065149373278,-0.16386672643253014,-0.37744991314837306,0.5934323690139927,2.3769313299695702,0.05177811032815243,-1.8341777244422743
106,-2.5173891695863553,-1.0079900404462132,0.2513503560863981,3.960594357208097,-0.9258903567114025,-0.8072532883427972,-0.18663046370896802,-0.36447202037608345,0.5941917037321915,2.3684942854776034,0.053867982407226726,-1.8744961328415533
107,-2.5884241442308653,-1.0215413707649328,0.27026563972153594,3.9589955165159645,-0.8943938862073448,-0.8193162278768764,-0.2078498340385559,-0.3504232002725286,0.5949079068646482,2.360410218661348,0.05571357311955185,-1.91387898831142
108,-2.657787707707268,-1.0347738462526248,0.28873585785937683,3.9574342956048243,-0.8636385091269094,-0.8310953335395657,-0.22751549136036578,-0.3354778350954341,0.5955831713882421,2.3526597676641523,0.05732103824032807,-1.9523279934995776
109,-2.725479860015568,-1.0476874669092875,0.30676101049992033,3.9559106944746745,-0.8336242254701007,-0.8425906053308649,-0.2456337220823764,-0.31980147060849207,0.5962195688346859,2.3452246853346224,0.05869758967371032,-1.9898448467901642
110,-2.7915006011557573,-1.0602822327349217,0.324341097643166,3.9544247131255172,-0.8043510352369179,-0.8538020432507736,-0.2622245943265363,-0.30354996415315705,0.5968190571272095,2.3380878556550395,0.05985136920736966,-2.0264312070286765
111,-2.8558499311278442,-1.072558143729527,0.3414761192891147,3.9529763515573504,-0.7758189384273564,-0.8647296472992922,-0.277320159774656,-0.2868688793112565,0.597383488116612,2.331233300450958,0.060791327225938406,-2.062088662939333
112,-2.9185278499318237,-1.0845151998931044,0.358166075437766,3.9515656097701752,-0.7480279350414225,-0.8753734174764212,-0.29096272936820955,-0.2698931015806076,0.5979146147776642,2.3246461771339986,0.06152710680907474,-2.0968187073231666
113,-2.9795343575676956,-1.096153401225652,0.37441096608911906,3.9501924877639913,-0.7209780250791145,-0.8857333537821597,-0.3032032394349631,-0.2527466494417081,0.5984140980350003,2.3183127682467775,0.06206893355795275,-2.1306227160002646
114,-3.0388694540354617,-1.1074727477271713,0.39021079124317515,3.948856985538799,-0.6946692085404305,-0.8958094562165082,-0.31409972057563484,-0.23554265568488603,0.5988835131951485,2.312220463588823,0.06242751141471617,-2.163501931354051
115,-3.096533139335122,-1.1184732393976615,0.4055655508999343,3.947559103094598,-0.6691014854253696,-0.9056017247794659,-0.32371587786316036,-0.21838349478745,0.5993243559681525,2.3063577357045926,0.06261392466355235,-2.19545745024951
116,-3.1525254134666785,-1.129154876237124,0.4204752450593965,3.946298840431388,-0.6442748557339355,-0.9151101594710345,-0.33211978758884025,-0.20136103338220387,0.5997380480683997,2.3007141095089096,0.06263954623014788,-2.2264902160298554
117,-3.2068462764301273,-1.1395176582455568,0.43493987372156084,3.9450761975491693,-0.6201893194661263,-0.9243347602912129,-0.3393827129250704,-0.18455698235493032,0.6001259423898098,2.295280126811592,0.062515952329119,-2.25660101424622
118,-3.2594957282254686,-1.1495615854229615,0.4489594368864269,3.9438911744479426,-0.5968448766219403,-0.9332755272400008,-0.3455780384451717,-0.16804333077224126,0.6004893277554367,2.290047306481987,0.062254843446973684,-2.2857904717411603
119,-3.310473768852706,-1.1592866577693375,0.46253393455399694,3.9427437711277067,-0.574241527201381,-0.9419324603173993,-0.35078032142172555,-0.15188284360622364,0.6008294332458763,2.2850081009664667,0.0618679715917771,-2.3140590586872216
120,-3.3597803983118357,-1.168692875284684,0.4756633667242691,3.941633987588462,-0.5523792712044466,-0.950305559523406,-0.3550644561852752,-0.13612960703218105,0.601147432114635,2.2801558498383843,0.06136707369011441,-2.341407093174917
121,-3.4074156166028597,-1.177780237969003,0.4883477333972439,3.940561823830209,-0.5312581086311354,-0.9583948248580243,-0.35850494653169823,-0.12082960688383675,0.6014444453018765,2.2754847310216997,0.0607638109675117,-2.3678347479484576
122,-3.453379423725778,-1.186548745822292,0.5005870345729209,3.939527279852947,-0.5108780394814509,-0.966200256321252,-0.36117528018337886,-0.10602132761880143,0.6017215445607009,2.270989710287441,0.060069714109987356,-2.393342058900145
123,-3.4976718196805887,-1.1949983988445534,0.5123812702513009,3.9385303556566766,-0.4912390637553905,-0.9737218539130899,-0.36314739860081235,-0.09173636084612283,0.6019797552124412,2.266666489577465,0.05929613397200474,-2.4179289349542925
124,-3.5402928044672954,-1.2031291970357851,0.5237304404323848,3.9375710512413975,-0.4723411814529559,-0.9809596176335367,-0.3644912549719448,-0.07800001407482754,0.602220058549304,2.262511454663754,0.05845419756943519,-2.441595168996876
125,-3.5812423780858946,-1.2109411403959887,0.5346345451161691,3.93664936660711,-0.45418439257414533,-0.9879135474825942,-0.3652744529423653,-0.0648319118414059,0.6024433939042132,2.258521622604516,0.05755476907503129,-2.4643404495361563
126,-3.620520540536388,-1.218434228925163,0.5450935843026583,3.935765301753813,-0.4367686971189597,-0.9945836434602615,-0.36556195855834134,-0.052246582754331174,0.6026506604088033,2.254694589411786,0.05660841551801225,-2.486164372811446
127,-3.6581272918187757,-1.2256084626233097,0.5551075579918483,3.934918856681508,-0.42009409508739903,-1.000969905566539,-0.3654158779466193,-0.040254027249057495,0.6028427184613737,2.251028478299475,0.05562537687821627,-2.5070664551000106
128,-3.694062631933056,-1.2324638414904263,0.5646764661837405,3.9341100313901944,-0.4041605864794633,-1.007072333801426,-0.364895293422836,-0.02886026197506405,0.6030203909270755,2.247521888836949,0.05461554025860609,-2.527046145005567
129,-3.7283265608792355,-1.2390003655265156,0.5738003088783379,3.933338825879872,-0.3889681712951525,-1.0128909281649228,-0.36405615097954225,-0.01806783773846684,0.603184464092927,2.244173847291257,0.05358841781710663,-2.5461028355445396
130,-3.7609190786573006,-1.2452180347315744,0.5824790860756353,3.932605240150541,-0.3745168495344675,-1.0184256886570293,-0.36295119243360024,-0.007876328802765637,0.6033356884002229,2.24098375840201,0.052553128139518325,-2.564235875877652
131,-3.7918401852672687,-1.2511168491056064,0.5907127977756379,3.931909274202201,-0.3608066211974048,-1.0236766152777466,-0.36162992589191256,0.0017172078883581979,0.6034747789767577,2.237951358796429,0.05151838073906399,-2.5814445825642913
132,-3.8210898807091205,-1.2566968086486083,0.5985014439783409,3.931250928034853,-0.3478374862839697,-1.0286437080270736,-0.36013862860766643,0.010717804351797724,0.6036024159909193,2.2350766722187316,0.05049246337458052,-2.597728250244268
133,-3.8486681649828736,-1.2619579133605825,0.6058450246837466,3.9306302016484955,-0.33560944479415955,-1.03332696690501,-0.3585203767325475,0.019132184308175537,0.6037192448491813,2.2323599667178575,0.049483231888098875,-2.6130861616769847
134,-3.874575038088519,-1.266900163241527,0.6127435398918557,3.93004709504313,-0.32412249672797344,-1.0377263919115562,-0.3568150969120727,0.02696839681446816,0.6038258762578778,2.2298017139103976,0.04849810227317375,-2.627517597089936
135,-3.8988105000260553,-1.271523558291444,0.6191969896026688,3.9295016082187555,-0.3133766420854114,-1.0418419830467127,-0.3550596351116937,0.034235480208654745,0.6039228861693867,2.227402550411686,0.04754404469745387,-2.6410218428085366
136,-3.9213745507954894,-1.2758280985103312,0.6252053738161818,3.928993741175373,-0.30337188086647604,-1.045673740310479,-0.3532878384931008,0.040943155502616776,0.6040108156319585,2.225163241507042,0.04662757921643063,-2.6535981991558173
137,-3.9422671903968123,-1.2798137838981902,0.6307686925324001,3.928523493912981,-0.29410821307116475,-1.0492216637028555,-0.3515306465771867,0.04710154814356545,0.6040901705615026,2.2230846471171017,0.045754772929646394,-2.665245987624899
138,-3.9614884188300383,-1.2834806144550202,0.6358869457513192,3.9280908664315803,-0.2855856386994766,-1.0524857532238414,-0.3498161883280721,0.05272093691058298,0.6041614214526225,2.221167690095751,0.04493123834580223,-2.6759645573389035
139,-3.979038236095146,-1.2868285901808219,0.6405601334729409,3.9276958587311714,-0.2778041577514161,-1.0554660088734371,-0.348169882168329,0.057811528613820724,0.6042250030451107,2.219413326886429,0.04416213273888418,-2.6857532908218835
140,-3.994916642192159,-1.2898577110755944,0.644788255697267,3.927338470811754,-0.2707637702269796,-1.0581624306516435,-0.34661453628705924,0.062383257212833686,0.6042813139610196,2.217822520551938,0.0434521582934598,-2.694611609111696
141,-4.009123637121057,-1.2925679771393388,0.648571312424294,3.927018702673327,-0.2644644761261672,-1.0605750185584593,-0.3451704469288997,0.06644560596044685,0.604330716326266,2.216396216184552,0.042805562853621096,-2.7025389762500933
142,-4.021659220881855,-1.2949593883720536,0.6519093036540244,3.9267365543158923,-0.2589062754489806,-1.0627037725938853,-0.3438554926530501,0.07000745120430274,0.6043735353895539,2.2151353186967015,0.04222614110647812,-2.709534903188831
143,-4.032523393474541,-1.2970319447737406,0.6548022293864575,3.9264920257394484,-0.25408916819541894,-1.0645486927579202,-0.34268522282765634,0.07307692653364775,0.604410059150219,2.2140406729876445,0.041717236047539505,-2.715598951151178
144,-4.041716154899131,-1.298785646344398,0.6572500896215923,3.9262851169439963,-0.2500131543654822,-1.0661097790505658,-0.3416729388773781,0.07566130604013496,0.6044405380053742,2.213113046478343,0.04128174059182965,-2.720730734488506
145,-4.049237505155606,-1.3002204930840282,0.6592528843594314,3.926115827929535,-0.24667823395916866,-1.0673870314718217,-0.34082976703226225,0.07776690556341097,0.6044651844255476,2.21235311400465,0.04092209921091611,-2.7249299230694852
146,-4.055087444243977,-1.3013364849926283,0.6608106135999723,3.9259841586960653,-0.24408440697648004,-1.0683804500216874,-0.3401647215360616,0.07939900091202268,0.6044841726667501,2.2117614450581424,0.04064030949234361,-2.7281962442370853
147,-4.059265972164244,-1.3021336220702002,0.6619232773432149,3.925890109243587,-0.24223167341741814,-1.069090034700162,-0.33968475746412136,0.08056176218378827,0.6044976385257246,2.211338493363967,0.04043792353412989,-2.730529484364342
148,-4.0617730889164,-1.302611904316743,0.6625908755891619,3.9258336795721,-0.24112003328198206,-1.0695157855072472,-0.339394812477291,0.08125820345497957,0.6045056791438667,2.211084588785992,0.04031604910306278,-2.7319294900356343
149,-4.062608794500456,-1.3027713317322576,0.6628134083378097,3.9258148696816044,-0.24074948657017003,-1.0696577024429423,-0.3392978370016867,0.08149014726142194,0.6045083528641175,2.2109999315510356,0.040275350501473094,-2.732396168874803
