nimar13/UR3e_dataset_trayectorias/data/trayectorias_completas_UR3e_TRAPEZOIDAL/trayectoria_044.csv
Punto,shoulder_pan_joint,shoulder_lift_joint,elbow_joint,wrist_1_joint,wrist_2_joint,wrist_3_joint,Posicion_X,Posicion_Y,Posicion_Z,Roll,Pitch,Yaw
0,5.616802534454596,-0.18838523167978893,-0.23596341591216108,-1.3441193426576472,4.965726774253312,5.4704538178057796,0.5156854507217228,-0.21008553310006678,0.223993529714418,-3.0645449267987934,1.2559803828475773,0.24742828689591786
1,5.615816850775455,-0.1885711956312517,-0.23594900855144632,-1.3434450932173212,4.964985912920349,5.470367292075184,0.515393280216096,-0.21061140907516768,0.22400409886121636,-3.0647763451189776,1.2568624115869111,0.24615584177683436
2,5.612859799738033,-0.18912908748563997,-0.23590578646930205,-1.3414223448963427,4.962763328921456,5.4701077148833965,0.514513200714131,-0.21218661425691918,0.2240361569073281,-3.065478752450517,1.2595087730373062,0.24233270416400876
3,5.607931381342331,-0.19005890724295377,-0.2358337496657283,-1.3380510976947122,4.959059022256636,5.469675086230418,0.5130345459245699,-0.21480383847507467,0.2240907584462855,-3.066677220752257,1.2639202755805194,0.23594084604403598
4,5.6010315955883465,-0.19136065490319307,-0.23573289814072498,-1.3333313516124294,4.953872992925889,5.4690694061162475,0.5109396649651247,-0.21845075921354848,0.22416967030590423,-3.0684156881673363,1.2700982076802272,0.2269480481016285
5,5.592160442476081,-0.1930343304663579,-0.2356032318942922,-1.3272631066494942,4.947205240929212,5.468290674540886,0.5082041142684254,-0.22310983642702417,0.22427538501586156,-3.070760571258356,1.278044245372133,0.2153042567538806
6,5.581317922005535,-0.19507993393244827,-0.23544475092642989,-1.319846362805907,4.939055766266608,5.467338891504333,0.504796931145048,-0.2287580316719722,0.22441113907841936,-3.0738067031368006,1.2877603129371553,0.20093560477933614
7,5.568504034176708,-0.19749746530146411,-0.23525745523713804,-1.3110811200816674,4.929424568938076,5.466214057006589,0.5006809936453057,-0.2353664580693466,0.2245809354509786,-3.077686786406388,1.2992483833168413,0.18373490840059423
8,5.553718778989599,-0.20028692457340552,-0.23504134482641673,-1.3009673784767757,4.918311648943616,5.464916171047652,0.49581347232249007,-0.24289996965120808,0.22478956947008366,-3.082586484679892,1.31251019398502,0.16354651934324313
9,5.536962156444209,-0.2034483117482724,-0.23479641969426587,-1.2895051379912317,4.905717006283228,5.4634452336275245,0.490146380181508,-0.2513167007868542,0.22504265726070832,-3.088769039697851,1.3275468333994067,0.14014164762578768
10,5.5182341665405374,-0.20698162682606483,-0.2345226798406855,-1.2766943986250354,4.891640640956912,5.461801244746206,0.483627227431115,-0.26056756863592667,0.2253466654816047,-3.0966168304776085,1.344358111772868,0.11317674193229796
11,5.497534809278585,-0.21088686980678278,-0.23422012526567565,-1.262535160378187,4.876082552964669,5.459984204403695,0.47619978757673725,-0.270595753922285,0.22570894105728578,-3.1067048205251777,1.3629415413262778,0.08211998530850763
12,5.474864084658352,-0.21516404069042622,-0.23388875596923625,-1.2470274232506864,4.859042742306497,5.457994112599994,0.4678049808262318,-0.28133617773190833,0.22613773934062625,-3.1199381357623395,1.3832905469835894,0.04611366779166233
13,5.450221992679837,-0.2198131394769952,-0.23352857195136736,-1.2301711872425334,4.840521208982397,5.4558309693351,0.4583818796675936,-0.29271499446022176,0.2266422489387696,-3.137829466928942,1.4053910130464318,0.0036967469637399675
14,5.4236085333430415,-0.2248341661664897,-0.23313957321206896,-1.2119664523537281,4.820517952992369,5.453494774609015,0.4478688397564762,-0.30464912339714756,0.22723261122167143,3.120071260744417,1.4292138133096177,-0.04781014831067
15,5.395023706647964,-0.23022712075890972,-0.23272175975134105,-1.1924132185842709,4.799032974336413,5.450985528421739,0.4362047568737319,-0.31704584364725263,0.22791993232090924,3.0818892659557076,1.4546961868538528,-0.11385110679624041
16,5.364467512594606,-0.23599200325425523,-0.2322751315691836,-1.171511485934161,4.776066273014529,5.448303230773271,0.42333044764605227,-0.32980247901994914,0.22871628522139043,3.017904192858416,1.481685581586305,-0.20726746290326156
17,5.331939951182967,-0.2421288136525263,-0.23179968866559666,-1.1492612544033993,4.751617849026717,5.445447881663611,0.4091901479550942,-0.3428062010506072,0.22963469935658218,2.8898539858862082,1.5097154990242,-0.36625262329051717
18,5.297441022413047,-0.24863755195372284,-0.23129543104058023,-1.1256625239919853,4.725687702372977,5.44241948109276,0.39373311851016124,-0.3559339792674603,0.23068913494672133,2.533166159967338,1.536591213449084,-0.7553059903842666
19,5.260970726284845,-0.2555182181578449,-0.23076235869413428,-1.1007152946999188,4.69827583305331,5.439218029060718,0.3769153419806966,-0.3690527080252746,0.2318944391784161,1.3715273965374002,1.546355997910617,-1.950663201485759
20,5.222529062798362,-0.2627708122648925,-0.23020047162625878,-1.0744195665272003,4.669382241067714,5.435843525567484,0.3587012904756185,-0.38201953849966813,0.2332662812240813,0.6222569975151541,1.5221112636312824,-2.7349224500277836
21,5.182116031953599,-0.2703953342748656,-0.2296097698369538,-1.0467753394738295,4.63900692641619,5.432295970613059,0.3390657361656147,-0.39468244259044266,0.2348210630531508,0.4063844261592902,1.4879524846018215,-2.986966650940451
22,5.139731633750553,-0.27839178418776434,-0.2289902533262193,-1.0177826135398065,4.6071498890987375,5.428575364197442,0.3179955716770474,-0.40688103234530787,0.23657580300798664,0.31263199898080374,1.4505215760423038,-3.1179803760994185
23,5.095375868189227,-0.28676016200358845,-0.2283419220940553,-0.9874413887251312,4.573811129115358,5.424681706320634,0.2954916008070615,-0.41844765394098465,0.2385479892211605,0.25938391542797273,1.4108492839648537,3.0737049446901215
24,5.049048735269619,-0.2955004677223381,-0.2276647761404618,-0.9557516650298037,4.5389906464660505,5.420614996982635,0.27157025444358307,-0.4292087691459528,0.24075540015371177,0.22383402988661055,1.3692269421864025,2.9990181301505388
25,5.000750234991731,-0.3046127013440133,-0.22695881546543875,-0.9227134424538239,4.502688441150815,5.416375236183443,0.24626518170164405,-0.4389866295020562,0.2432158898533696,0.19731271179955517,1.3257802667906464,2.9325876273478597
26,4.950480367355561,-0.31409686286861405,-0.22622404006898622,-0.8883267209971919,4.4649045131696505,5.41196242392306,0.21962866263465378,-0.4476012392511968,0.2459471359850551,0.17581471039696134,1.2805848092934586,2.8705289511033234
27,4.89823913236111,-0.32395295229614024,-0.22546044995110417,-0.8525915006599079,4.4256388625225584,5.407376560201486,0.19173278690052303,-0.4548725924565361,0.24896634929055125,0.1572229130473043,1.2336996154773667,2.810854693893689
28,4.844026530008378,-0.334180969626592,-0.2246680451117926,-0.8155077814419713,4.384891489209539,5.40261764501872,0.1626703429163883,-0.4606231581104234,0.2522899439062695,0.1402986397564403,1.1851798539017433,2.752465920547111
29,4.787842560297364,-0.34478091485996926,-0.22384682555105154,-0.7770755633433827,4.342662393230591,5.3976856783747635,0.13255536475174667,-0.46468057471169477,0.2559331689218575,0.12425456744157629,1.135082659797858,2.694726363683912
30,4.72968722322807,-0.355752787996272,-0.22299679126888095,-0.7372948463641418,4.298951574585716,5.392580660269616,0.10152328964739649,-0.4668805034117274,0.25990970270923036,0.10855269569704842,1.0834704588538884,2.6372618463610062
31,4.669560518800495,-0.36709658903550035,-0.22211794226528084,-0.6961656305042485,4.253759033274911,5.387302590703275,0.06973068784737971,-0.4670695770987988,0.2642312128984909,0.09280006475547738,1.03041329438484,2.5798576558130333
32,4.607462447014638,-0.37881231797765413,-0.22121027854025122,-0.6536879157637031,4.20708476929818,5.381851469675744,0.03735453846113864,-0.4651083725729312,0.26890688642537963,0.07669096367599715,0.975990786636987,2.5224026161144506
33,4.5433930078705,-0.3908999748227335,-0.2202738000937921,-0.6098617021425056,4.15892878265552,5.376227297187021,0.004591040172926015,-0.46087432521595895,0.2739429358184695,0.05997289991913724,0.9202940218697186,2.464857134453076
34,4.47735220136808,-0.4033595595707384,-0.21930850692590348,-0.5646869896406557,4.109291073346932,5.370430073237106,-0.02834603665658751,-0.454264501285625,0.27934208981843195,0.0424254469718712,0.8634275348305179,2.407234330603088
35,4.40934002750738,-0.41619107222166873,-0.21831439903658534,-0.5181637782581536,4.058171641372416,5.364459797826,-0.061227430362241056,-0.44519814312787953,0.28510307850093064,0.02384642530495012,0.8055114907218612,2.3495886807357373
36,4.339356486288398,-0.4293945127755246,-0.21729147642583768,-0.47029206799499934,4.005570486731973,5.358316470953703,-0.09381085435274111,-0.43361890804760483,0.2912201252713353,0.00404245145000785,0.7466841472022212,2.2920091597002585
37,4.267401577711135,-0.442969881232306,-0.2162397390936605,-0.4210718588511927,3.951487609425601,5.352000092620214,-0.1258437834211196,-0.41949673289529615,0.2976824603618686,-0.017177782444454427,0.6871046649014643,2.2346151534109855
38,4.193475301775592,-0.45691717759201295,-0.21515918704005382,-0.3705031508267338,3.895923009453301,5.345510662825534,-0.15706647681581964,-0.40282927382469597,0.3044738727231186,-0.040008407298198496,0.6269563274083296,2.177554082740486
39,4.117577658481767,-0.47123640185464544,-0.21404982026501762,-0.31858594392162276,3.838876686815073,5.338848181569662,-0.18721514233242537,-0.3836428938428167,0.3115723193788223,-0.06464992979691302,0.5664502230692006,2.1210000278518364
40,4.039708647829661,-0.4859275540202034,-0.21291163876855193,-0.2653202381358595,3.7803486415109173,5.332012648852598,-0.21602513976476662,-0.36199319874811214,0.3189496133052712,-0.09131162847697868,0.5058294262313061,2.065152807843387
41,3.9598682698192738,-0.5009906340886868,-0.21174464255065673,-0.21070603346944417,3.7203388735408343,5.325004064674344,-0.24323412480754836,-0.33796515311967623,0.32657121258756594,-0.12021276417039078,0.44537368899876684,2.010237023698861
42,3.878056524450605,-0.5164256420600958,-0.210548831611332,-0.1547433299223766,3.6588473829048223,5.317822429034898,-0.2685850476192177,-0.3116728396552621,0.3343961348612027,-0.1515823819107706,0.38540460866513,1.956500547349548
43,3.7942734117236556,-0.5322325779344304,-0.20932420595057777,-0.09743212749465657,3.595874169602883,5.31046774193426,-0.2918289447872469,-0.28325895403970136,0.3423770217219713,-0.18565728861871336,0.3262911609424935,1.904211855578936
44,3.708518931638424,-0.5484114417116904,-0.20807076556839402,-0.03877242618628407,3.5314192336350145,5.302940003372431,-0.3127274994800748,-0.2528941496591774,0.3504603777217568,-0.2226775913769961,0.2684553727348608,1.8536554811313875
45,3.6207930841949123,-0.564962233391876,-0.20678851046478075,0.02123577400274046,3.465482575001219,5.29523921334941,-0.33105539092033853,-0.22077635741599355,0.35858700759785606,-0.26287898520367176,0.21237773698351403,1.805124709489765
46,3.5310958693931194,-0.581884952974987,-0.205477440639738,0.0825924730724168,3.3980641937014955,5.287365371865198,-0.34660250818688704,-0.18713020112368842,0.366692673343663,-0.3064808233812378,0.15860173449720769,1.7589105337257251
47,3.439427287233045,-0.5991796004610236,-0.2041375560932657,0.14529767102274582,3.329164089735844,5.2793184789197936,-0.3591761601702947,-0.15220660439359104,0.37470898946087167,-0.35366896178646423,0.10773652123513476,1.7152858716235915
48,3.3457873377146896,-0.6168461758499857,-0.2027688568253639,0.20935136785372666,3.258782263104264,5.271098534513198,-0.3686034668378197,-0.11628263756566752,0.3825645700959114,-0.40457256339548003,0.06045648357346448,1.6744842752013993
49,3.2501760208380532,-0.6348846791418732,-0.2013713428360326,0.27475356356535996,3.186918713806757,5.262705538645412,-0.37473415867559096,-0.07966158192210712,0.3901864356417018,-0.4592346469517886,0.017496018256967266,1.6366729928679515
50,3.1527028570119286,-0.6532744476754129,-0.199946614943129,0.34142934155316507,3.1136557597692063,5.2541491052864995,-0.3774429569862515,-0.04271426805052812,0.3974937472474936,-0.5175105398139652,-0.020323386653505107,1.6019583789418559
51,3.0547916115506313,-0.6717468668540468,-0.19851548377879658,0.4084047859588926,3.040063534028116,5.245554216047323,-0.37668380912552535,-0.00631620543324677,0.40432206008588717,-0.5782601451505244,-0.05180643552112316,1.5706969829871624
52,2.956880366089333,-0.6902192860326809,-0.1970843526144642,0.4753802303646202,2.9664713082870255,5.2369593268081465,-0.3725803793743562,0.029053051947330228,0.41060468431978914,-0.6407080355999947,-0.07639086936728726,1.5426455349913661
53,2.8589691206280357,-0.708691705211315,-0.1956532214501318,0.5423556747703477,2.8928790825459356,5.2283644375689695,-0.3653003236033942,0.0630950309209079,0.41631842697176397,-0.7042044211343387,-0.09377995186436132,1.5172848332662157
54,2.7610578751667374,-0.727164124389949,-0.1942220902857994,0.6093311191760753,2.8192868568048453,5.2197695483297935,-0.3550360859167738,0.09552633889286954,0.4214500401967156,-0.7679879397302601,-0.10378090900207892,1.4940057887607754
55,2.663146629705439,-0.745636543568583,-0.192790959121467,0.6763065635818029,2.7456946310637553,5.2111746590906165,-0.34200587144978467,0.12608076399220358,0.42599644259990915,-0.8312177818753886,-0.1063223528137995,1.4721444838053963
56,2.565235384244141,-0.7641089627472173,-0.19135982795713458,0.7432820079875309,2.672102405322664,5.2025797698514396,-0.3264543131761886,0.1545122904239853,0.4299647797212864,-0.8930151701609834,-0.10146413638092652,1.4510272637825645
57,2.4673241387828426,-0.7825813819258514,-0.18992869679280217,0.8102574523932584,2.5985101795815737,5.1939848806122635,-0.30865252756012845,0.1805989356936527,0.43337232265589193,-0.9525080555173048,-0.08939815327863004,1.4300198219281557
58,2.3694128933215453,-0.8010538011044852,-0.18849756562846978,0.877232896798986,2.5249179538404842,5.1853899913730865,-0.28889728619382027,0.20414723537921386,0.436246206262277,-1.0088719052178678,-0.0704401878977994,1.408573273015732
59,2.271501647860247,-0.8195262202831193,-0.1870664344641374,0.9442083412047135,2.451325728099394,5.17679510213391,-0.2675090822067983,0.22499713036867913,0.4386230108709647,-1.0613603849118203,-0.045014508793854095,1.3862611575072639
60,2.1735904023989496,-0.8379986394617533,-0.185635303299805,1.0111837856104415,2.3777335023583035,5.1682002128947335,-0.24482893824976087,0.2430269552844791,0.44054819380597426,-1.1093221896649235,-0.01363401461526459,1.3628037818103245
61,2.0756791569376514,-0.8564710586403874,-0.18420417213547258,1.078159230016169,2.304141276617213,5.159605323655557,-0.22121388335453698,0.25815818871062884,0.4420753793373126,-1.152203301722189,0.023120863442301836,1.3380793189972238
62,1.9777679114763522,-0.8749434778190215,-0.18277304097114017,1.1451346744218966,2.2305490508761228,5.15101043441638,-0.19703111434238424,0.2703596083529103,0.4432655178561525,-1.1895365406100946,0.06462159681798066,1.312123648422858
63,1.8798566660150549,-0.8934158969976556,-0.18134190980680778,1.2121101188276242,2.1569568251350324,5.142415545177204,-0.17265094861488364,0.27965049879521886,0.44418592707391213,-1.2209218201667733,0.1102071728043671,1.285122372936145
64,1.7819454205537566,-0.9118883161762896,-0.1799107786424754,1.2790855632333518,2.083364599393942,5.133820655938027,-0.14843876383343219,0.28610258625173995,0.4449092298609944,-1.2460009753869323,0.15919461209376154,1.257398714850095
65,1.6840341750924592,-0.9303607353549237,-0.178479647478143,1.3460610076390793,2.0097723736528517,5.12522576669885,-0.12474620097383372,0.2898404226118438,0.44551220493282456,-1.2644307057428403,0.21088390068582147,1.2294003236536484
66,1.586122929631161,-0.9488331545335578,-0.17704851631381058,1.4130364520448069,1.9361801479117613,5.116630877459674,-0.10190197569007803,0.2910400079093611,0.4460745679357483,-1.275856586328031,0.26455741213502215,1.201686806309318
67,1.4882116841698618,-0.9673055737121918,-0.17561738514947817,1.4800118964505353,1.862587922170671,5.108035988220497,-0.08020269461444138,0.28992552282671014,0.44667770156278064,-1.279890668534155,0.3194742492926623,1.174918297148732
68,1.3903004387085645,-0.9857779928908259,-0.17418625398514576,1.5469873408562629,1.7889956964295806,5.09944109898132,-0.059904104787410456,0.2867641367694909,0.44740335412265164,-1.2760952546923718,0.3748601661341742,1.1498437230881702
69,1.2923891932472662,-1.00425041206946,-0.17275512282081337,1.6139627852619904,1.7154034706884902,5.090846209742144,-0.04121321351482215,0.28185895753062523,0.44833232648296345,-1.2639761914053325,0.4298939850311694,1.1272855406911553
70,1.1944779477859688,-1.022722831248094,-0.171323991656481,1.680938229667718,1.6418112449473998,5.082251320502967,-0.0242817014255089,0.27554029027774196,0.4495431675019121,-1.2429905580725351,0.4836918850756373,1.1081155267506833
71,1.0965667023246706,-1.0411952504267281,-0.16989286049214858,1.7479136740734447,1.5682190192063103,5.07365643126379,-0.009201013429680866,0.26815547105241616,0.4511108979499449,-1.2125757633022665,0.5352918097246454,1.0932137563031454
72,0.9986554568633723,-1.0596676696053622,-0.16846172932781617,1.8148891184791722,1.49462679346522,5.065061542024614,0.004000548009443642,0.2600576277965126,0.4531057825046034,-1.1722090919377304,0.5836417164627551,1.083400793507322
73,0.9007442114020741,-1.0781400887839963,-0.16703059816348376,1.8818645628849007,1.4210345677241287,5.056466652785437,0.015358482845344266,0.2515937951549106,0.4555921686849721,-1.1215068887400057,0.6275975034149684,1.079333032625458
74,0.8028329659407758,-1.0966125079626303,-0.16559946699915137,1.9488400072906282,1.3474423419830384,5.04787176354626,0.024970358240180124,0.24309286364864435,0.4586274105874772,-1.0603674761007347,0.6659387759175203,1.081356332721278
75,0.7049217204794793,-1.1150849271412642,-0.164168335834819,2.015815451696355,1.2738501162419489,5.039276874307084,0.03299163731367563,0.23485387587066395,0.462260894007545,-0.9891471937344971,0.6974118195478857,1.0893279348230744
76,0.6070104750181793,-1.1335573463198985,-0.16273720467048655,2.0827908961020842,1.2002578905008576,5.030681985067907,0.03962914484207365,0.22713518981762362,0.46653317800125155,-0.9088326087115904,0.7208067088491511,1.102443118916103
77,0.5090992295568819,-1.1520297654985325,-0.16130607350615417,2.149766340507812,1.1266656647597673,5.02208709582873,0.04513235740913435,0.22014501124608793,0.4714752661808386,-0.8211416239708219,0.7350666090829246,1.1191334892077338
78,0.41118798409558366,-1.1705021846771666,-0.15987494234182176,2.2167417849135393,1.053073439018677,5.013492206589554,0.04978281486687461,0.21403375323533422,0.47710801907464456,-0.7284750006673115,0.7394119633692736,1.1371150779660442
79,0.3132767386342854,-1.1889746038558007,-0.15844381117748935,2.283717229319266,0.9794812132775874,5.004897317350377,0.05388204850755813,0.20888861345932064,0.4834417167454676,-0.6336760672493287,0.7334468414368251,1.1536282685522856
80,0.21536549317298803,-1.2074470230344347,-0.15701268001315696,2.3506926737249936,0.905888987536497,4.9963024281112,0.057738503855618455,0.20473067077028131,0.49047577858415514,-0.5396410188060684,0.7172112568558766,1.1658269567301103
81,0.11745424771168977,-1.2259194422130688,-0.15558154884882458,2.417668118130721,0.8322967617954067,4.987707538872024,0.0616539979383381,0.20151469645323095,0.4981986448119987,-0.4489050748529569,0.6911595080880512,1.1711915381397793
82,0.019543002250392405,-1.2443918613917029,-0.15415041768449217,2.4846435625364487,0.7587045360543163,4.979112649632847,0.06591028870922869,0.19913175674726838,0.5065878217725328,-0.3633441503610825,0.6560733919933096,1.1678259439715524
83,-0.07836824321090674,-1.2628642805703367,-0.15271928652015976,2.5516190069421762,0.685112310313226,4.97051776039367,0.07075634553580859,0.19741455748653264,0.5156100906080134,-0.284064978249951,0.6129419867992578,1.1545656743883859
84,-0.1762794886722041,-1.2813366997489708,-0.15128815535582735,2.618594451347904,0.6115200845721365,4.961922871154494,0.07639689315554359,0.1961453549825172,0.5252218764359494,-0.21146494870752447,0.5628437480907659,1.1309154557578565
85,-0.2741907341335015,-1.2998091189276049,-0.14985702419149496,2.6855698957536314,0.5379278588310461,4.953327981915317,0.08298275743255824,0.19506613570104225,0.5353697727044037,-0.14538880627265105,0.5068547358233697,1.096889271186775
86,-0.37210197959479885,-1.318281538106239,-0.14842589302716258,2.752545340159359,0.46433563308995573,4.94473309267614,0.09060347115643916,0.19389065688866186,0.5459912130484468,-0.08530785333356851,0.44599062835394926,1.0528270035942284
87,-0.470013225056098,-1.336753957284873,-0.14699476186283017,2.8195207845650865,0.39074340734886537,4.936138203436964,0.09928250485977591,0.1923178466389923,0.5570152807300158,-0.030474731873245373,0.3811787546363029,0.9992345075833517
88,-0.5679244705173971,-1.3552263764635073,-0.14556363069849776,2.886496228970815,0.3171511816077741,4.927543314197787,0.10897537522084776,0.19004598980063322,0.5683636436536313,0.019963913072727046,0.3132517614949067,0.9366647042311987
89,-0.6658357159786945,-1.3736987956421414,-0.14413249953416535,2.9534716733765425,0.24355895586668375,4.91894842495861,0.1195707570891659,0.18678707948534432,0.5799516010427778,0.06689596732475084,0.24295461719488096,0.8656387047526876
90,-0.7637469614399937,-1.3921712148207754,-0.14270136836983294,3.02044711778227,0.16996673012559338,4.910353535719434,0.13089459031764472,0.18228069543498654,0.5916892261653077,0.11120483862943278,0.17095870882270559,0.786598215862425
91,-0.861658206901291,-1.4106436339994095,-0.14127023720550055,3.0874225621879976,0.09637450438450301,4.901758646480257,0.14271703569232175,0.17630678152511026,0.6034825880368193,0.1537529569604561,0.09787907475689828,0.6998794024748437
92,-0.9595694523625884,-1.4291160531780434,-0.13983910604116814,3.154398006593725,0.022782278643413534,4.89316375724108,0.15476200179809435,0.16869673519452796,0.6152350338308284,0.19537941386634836,0.024292608963930637,0.6057001996865916
93,-1.0574806978238858,-1.4475884723566774,-0.13840797487683576,3.2213734509994527,-0.05080994709767683,4.884568868001904,0.16671884300670947,0.15934229014618828,0.6268485128019606,0.23690549436083533,-0.04924374246273336,0.504155603353195
94,-1.155391943285185,-1.4660608915353115,-0.13697684371250335,3.2883488954051803,-0.1244021728387672,4.875973978762727,0.1782557238518848,0.14820176745051064,0.6382249218973803,0.2791435422004502,-0.12217509970368491,0.3952178434186706
95,-1.2533031887464823,-1.4845333107139456,-0.13554571254817097,3.355324339810908,-0.19799439857985757,4.86737908952355,0.1890340620754473,0.13530338513657825,0.6492674529019101,0.3229055422647286,-0.1939310993194865,0.2787403829378067
96,-1.3512144342077796,-1.5030057298925796,-0.13411458138383855,3.4222997842166354,-0.27158662432094793,4.858784200284374,0.19872340581669776,0.12074544735258683,0.6598819209387041,0.3690079677606094,-0.2639087019249554,0.1544665134200561
97,-1.4491256796690788,-1.5214781490712137,-0.13268345021950617,3.489275228622363,-0.3451788500620383,4.850189311045197,0.20701607280863224,0.10469337525825166,0.6699780544303752,0.4182688839581094,-0.3314556747042661,0.022045123141944453
98,-1.5470369251303762,-1.5399505682498478,-0.13125231905517376,3.5562506730280905,-0.4187710758031278,4.84159442180602,0.21364088271948123,0.08737368646938933,0.6794707272107854,0.47149216646939174,-0.39585568138327515,-0.11894190398566543
99,-1.6449481705916753,-1.558422987428482,-0.12982118789084135,3.623226117433819,-0.4923633015442199,4.832999532566843,0.21837534816835552,0.06906517135351048,0.6882811143563413,0.5294323427269135,-0.45631692369826726,-0.26893442543840373
100,-1.7424213344178003,-1.5768127559620218,-0.12839645999793772,3.6899018954216247,-0.5656262555817717,4.824443099207931,0.2210485062541864,0.050173538847137926,0.6963034823811542,0.5924369458496075,-0.5117308091484659,-0.42758922264638005
101,-1.838032651294439,-1.5948512592539088,-0.12699894600860642,3.755304091133259,-0.6374898048792801,4.816050103340145,0.2215995029370988,0.031329607633403214,0.7033866556295387,0.6598191766104535,-0.5605557773022083,-0.5924933958676303
102,-1.9316726008127922,-1.6125178346428708,-0.1256302467407046,3.8193577879642397,-0.7078716315108586,4.80783015893355,0.22012526322004525,0.012899254820594872,0.7095203660369509,0.7312776615575659,-0.6021720972866946,-0.7628798360250593
103,-2.0233411829728656,-1.6298124821289075,-0.12429036219423234,3.882062985914568,-0.7767717354765091,4.799783265988146,0.2167865748120676,-0.004814174272937677,0.7147168909609272,0.8061920838761599,-0.6361295573040873,-0.9378259684780912
104,-2.1130383977746607,-1.6467352017120187,-0.12297929236918961,3.943419684984245,-0.8441901167762325,4.791909424503934,0.2117902300365538,-0.021557603412283174,0.7190000192425918,0.8835451029170358,-0.6621308654691624,-1.116059181742148
105,-2.2007642452181706,-1.6632859933922042,-0.12169703726557632,4.003427885173269,-0.9101267754100277,4.784208634480914,0.20537492179750094,-0.0371330974835628,0.7224034084537729,0.9619740080405491,-0.6800767034482318,-1.2959993815092905
106,-2.286518725303404,-1.6794648571694646,-0.12044359688339257,4.062087586481642,-0.9745817113778994,4.776680895919084,0.19779758127856756,-0.051399299815862776,0.7249689366541165,1.039890496292203,-0.6900956399421169,-1.4758713278009876
107,-2.3703018380303504,-1.6952717930437986,-0.11921897122263839,4.119398788909361,-1.0375549246798368,4.7693262088184465,0.18932083403192362,-0.06426992528626994,0.7267450908218467,1.1156505156513385,-0.6925490043048179,-1.6538683350098986
108,-2.4521135833990204,-1.710706801015208,-0.11802316028331361,4.175361492456429,-1.0990464153158488,4.762144573179,0.1802020601593431,-0.075709883625044,0.7277854264354254,1.1877349982948595,-0.6880070753560965,-1.8283278804917873
109,-2.5319539614094086,-1.725769881083692,-0.1168561640654184,4.229975697122846,-1.1590561832859336,4.755135989000745,0.17068436083366154,-0.08572963811447948,0.7281471252456228,1.254897225207261,-0.6772012379065115,-1.9978746491397934
110,-2.6098229720615116,-1.7404610332492485,-0.11571798256895274,4.283241402908608,-1.2175842285900877,4.748300456283682,0.16098956817666732,-0.094378391838097,0.727889671291074,1.3162468760602617,-0.6609631024131114,-2.1615009046169127
111,-2.685720615355338,-1.7547802575118814,-0.11460861579391651,4.335158609813716,-1.2746305512283147,4.74163797502781,0.15131329548446085,-0.10173664710795058,0.7270736588228985,1.371265209304564,-0.6401632281533844,-2.3185785086628674
112,-2.759646891290881,-1.7687275538715888,-0.11352806374030983,4.385727317838176,-1.3301951512006145,4.73514854523313,0.14182191359349777,-0.10790861397918552,0.7257597401135791,1.419766480043352,-0.6156592559567904,-2.4688176038706007
113,-2.8316017998681495,-1.7823029223283702,-0.11247632640813263,4.434947526981983,-1.3842780285069871,4.728832166899641,0.13265125761051283,-0.11301486037831222,0.7240077161869629,1.4618296548693486,-0.5882583309550583,-2.612195951848581
114,-2.9015853410871273,-1.795506362882226,-0.11145340379738503,4.482819237245135,-1.4368791831474326,4.7226888400273435,0.12390681489405964,-0.11718550757002,0.721875769338372,1.497722510744656,-0.5586941934261823,-2.7488809664568166
115,-2.969597514947827,-1.8083378755331565,-0.11045929590806688,4.529342448627638,-1.4879986151219473,4.7167185646162375,0.11566511712251601,-0.12055418715281858,0.7194198329048763,1.5278327667205929,-0.5276165349292867,-2.879159059361176
116,-3.0356383214502447,-1.8207974602811614,-0.1094940027401782,4.574517161129489,-1.5376363244305367,4.7109213406663235,0.10797605259247008,-0.1232528945438023,0.7166930910610438,1.552613089947814,-0.4955891987780711,-3.0033791202831095
117,-3.099707760594388,-1.8328851171262412,-0.10855752429371904,4.618343374750687,-1.5857923110731953,4.7052971681776,0.10086582518393002,-0.12540780243256244,0.7137455994026527,1.5725412031568673,-0.46309396183787954,-3.121911349609049
118,-3.1618058323802423,-1.8446008460683947,-0.10764986056868947,4.660821089491231,-1.6324665750499268,4.699846047150069,0.09434030928151366,-0.12713603796424414,0.7106240156758754,1.588093282232365,-0.430537327627602,3.0480656778162163
119,-3.2219325368078167,-1.8559446471076222,-0.10677101156508939,4.701950305351124,-1.6776591163607293,4.694567977583729,0.08838858119427537,-0.12854338024937637,0.7073714291408199,1.5997277202001994,-0.39825855137119986,2.939840796545146
120,-3.2800878738771093,-1.866916520243925,-0.10592097728291883,4.741731022330365,-1.7213699350056046,4.68946295947858,0.08298644358633427,-0.12972280002663586,0.7040272766514053,1.6078763269349365,-0.3665377920899501,2.8362914166667506
121,-3.336271843588129,-1.8775164654773024,-0.10509975772217775,4.780163240428955,-1.7635990309845528,4.684530992834623,0.07809979702737697,-0.13075374004621326,0.7006273335135567,1.6129405107877965,-0.33560378209384983,2.7371463790071457
122,-3.39048444594086,-1.8877444828077543,-0.10430735288286622,4.817246959646891,-1.8043464042975756,4.679772077651857,0.073687749553572,-0.13170202164144565,0.6972037674784893,1.6152905844686027,-0.30564073273577247,2.642171963794136
123,-3.442725680935311,-1.8976005722352811,-0.10354376276498414,4.852982179984176,-1.8436120549446677,4.675186213930283,0.06970538928987806,-0.1326202583905401,0.6937852447695647,1.615266880952699,-0.2767943953779394,2.5511705273598073
124,-3.4929955485714803,-1.9070847337598815,-0.10280898736853161,4.887368901440807,-1.8813959829258309,4.6707734016699005,0.0661061755081802,-0.13354866001365112,0.6903970777679094,1.6131817975525249,-0.249177307819632,2.4639779652758547
125,-3.541294048849366,-1.9161969673815569,-0.10210302669350851,4.920407124016787,-1.917698188241065,4.66653364087071,0.06284392928012907,-0.1345161170100426,0.6870614048383021,1.6093222046580171,-0.22287331079650374,2.3804605817791518
126,-3.587621181768972,-1.9249372731003067,-0.10142588073991501,4.952096847712115,-1.9525186708903721,4.66246693153271,0.0598744258535243,-0.1355414674481927,0.6837973937144994,1.6039518784743727,-0.19794143923201823,2.30051173001993
127,-3.6319769473303047,-1.933305650916131,-0.100777549507751,4.98243807252679,-1.985857430873752,4.658573273655902,0.05715660709454015,-0.13663486039884506,0.6806214608410199,1.5973137673315592,-0.17441929363444272,2.2240484447561153
128,-3.6743613455333453,-1.9413021008290285,-0.10015803299701656,5.011430798460813,-2.017714468191203,4.654852667240285,0.054653444098092994,-0.13779914458820558,0.6775475000523439,1.5896319992867687,-0.15232598772685055,2.15100819747343
129,-3.7147743763781094,-1.9489266228390019,-0.09956733120771155,5.039075025514185,-2.0480897828427267,4.6513051122858595,0.05233248784274654,-0.1390312250180806,0.674587114932927,1.581113600774926,-0.13166475466799302,2.081345846919452
130,-3.75321603986459,-1.9561792169460492,-0.09900544413983614,5.065370753686903,-2.076983374828325,4.647930608792626,0.05016615011785576,-0.1403233438488197,0.671749850120953,1.5719499336040905,-0.11242527929252277,2.0150308235677166
131,-3.7896863359927977,-1.963059883150172,-0.09847237179339005,5.09031798297897,-2.1043952441479927,4.644729156760583,0.048131758481413295,-0.1416642542729603,0.6690434176793367,1.5623178787460794,-0.09458580944618249,1.9520445661272414
132,-3.824185264762715,-1.9695686214513684,-0.09796811416837364,5.113916713390383,-2.1303253908017314,4.641700756189733,0.04621142831555537,-0.14304026710625042,0.6664739154480155,1.5523808056613924,-0.07811508663111001,1.8923782162287717
133,-3.856712826174352,-1.9757054318496396,-0.09749267126478672,5.136166944921145,-2.154773814789543,4.6388454070800735,0.044391792695141576,-0.14443615922316072,0.6640460350049228,1.542289369057148,-0.06297412522027593,1.8360305702061768
134,-3.8872690202277127,-1.9814703143449854,-0.09704604308262926,5.157068677571253,-2.1777405161114274,4.636163109431605,0.04266362727919898,-0.1458359407213239,0.6617632574957026,1.532182173548107,-0.04911786056576148,1.7830062822122668
135,-3.91585384692279,-1.9868632689374053,-0.09662822962190137,5.17662191134071,-2.199225494767383,4.633653863244329,0.04102140321228191,-0.14722348386040585,0.6596280361434418,1.5221863424307258,-0.03649667935609222,1.7333143094777579
136,-3.94246730625958,-1.9918842956268987,-0.096239230882603,5.194826646229515,-2.2192287507574093,4.6313176685182444,0.03946279644667797,-0.14858302149740096,0.657641964720942,1.5124180209317724,-0.025057840412167767,1.686966587684243
137,-3.967109398238101,-1.996533394413468,-0.09587904686473414,5.2116828822376675,-2.2377502840815087,4.629154525253351,0.03798817725752802,-0.14989952608608792,0.6558059316626477,1.5029828377516732,-0.014746790525742464,1.6439769219110767
138,-3.9897801228583347,-2.0008105652971118,-0.09554767756829474,5.227190619365169,-2.2547900947396844,4.627164433449648,0.03660009924340591,-0.15115898250017207,0.6541202598156863,1.4939763421372572,-0.005508377681843005,1.604360076391922
139,-4.010479480120285,-2.0047158082778296,-0.0952451229932848,5.2413498576120165,-2.2703481827319276,4.625347393107138,0.03530280294513601,-0.15234856916215817,0.6525848320850023,1.485484427549197,0.002712037203315083,1.5681310444478438
140,-4.029207470023955,-2.0082491233556223,-0.09497138313970444,5.254160596978213,-2.2844245480582437,4.623703404225819,0.03410174548276568,-0.15345676239406283,0.6511992034220958,1.4775837475445317,0.00996756932046777,1.5353044785525618
141,-4.045964092569342,-2.011410510530489,-0.09472645800755364,5.2656228374637575,-2.297019190718631,4.622232466805692,0.033003164366934915,-0.1544733787207964,0.6499626997465688,1.4703421249566275,0.01630889895728791,1.5058942596186466
142,-4.060749347756456,-2.0141999698024304,-0.0945103475968323,5.275736579068649,-2.308132110713089,4.620934580846756,0.03201368091303963,-0.15538956920396416,0.6488745044806407,1.4638189519022176,0.021783459181175826,1.4799131843220676
143,-4.073563235585283,-2.0166175011714467,-0.09432305190754048,5.2845018217928885,-2.317763308041622,4.619809746349011,0.03113994647308169,-0.15619777889403744,0.6479337334250643,1.4580655755741274,0.026434720385972957,1.4573727496129305
144,-4.084405756055826,-2.018663104637537,-0.09416457093967823,5.291918565636475,-2.3259127827042256,4.618857963312458,0.030388332978698307,-0.15689168327172154,0.6471394987161441,1.4531256631244498,0.030301569314016074,1.4382830144574692
145,-4.093276909168093,-2.020336780200702,-0.09403490469324532,5.2979868105994115,-2.3325805347009023,4.618079231737096,0.029764668022822384,-0.15746611219242637,0.6464909625832159,1.4490355381019544,0.033417779721321726,1.422652520256511
146,-4.100176694922077,-2.021638527860941,-0.0939340531682421,5.302706556681699,-2.3377665640316536,4.6174735516229255,0.02927401385000514,-0.1579169704181594,0.6459873815790338,1.4458244807536886,0.035811571594709775,1.4104882532051042
147,-4.105105113317784,-2.0225683476182548,-0.09386201636466823,5.306077803883328,-2.3414708706964724,4.617040922969947,0.02892048912438928,-0.15824116236715216,0.6456281418864966,1.4435149849027615,0.03750525579113727,1.401795634008639
148,-4.1080621643552035,-2.023126239472643,-0.09381879428252399,5.308100552204307,-2.3436934546953623,4.61678134577816,0.028707132144337476,-0.15843652726483673,0.6454127862183343,1.4421229649465734,0.03851496115924912,1.3965785227679757
149,-4.1090478480343435,-2.023312203424106,-0.09380438692180926,5.308774801644633,-2.3444343160283267,4.616694820047565,0.02863580421755067,-0.1585017894581674,0.6453410327254743,1.4416579076706013,0.038850441606331415,1.3948392294156404
