nimar13/UR3e_dataset_trayectorias/data/trayectorias_completas_UR3e_TRAPEZOIDAL/trayectoria_411.csv
Punto,shoulder_pan_joint,shoulder_lift_joint,elbow_joint,wrist_1_joint,wrist_2_joint,wrist_3_joint,Posicion_X,Posicion_Y,Posicion_Z,Roll,Pitch,Yaw
0,3.7821337623654454,5.000865791034952,0.18594708037979535,-2.3778654094350595,-2.8679906839433755,-3.5717609129554773,-0.10497688045402467,-0.13166549412501904,0.6739115728239469,-0.10986135074174017,-0.08983750674060911,2.4672963851681167
1,3.7813819378794076,5.000833624051673,0.18610838054290413,-2.377847255034013,-2.8674630912683985,-3.5718751752403533,-0.10512762564214466,-0.1316413584162716,0.6739170320379158,-0.11016460844841744,-0.08996621464095302,2.4670600509636147
2,3.779126464421294,5.000737123101834,0.18659228103223047,-2.377792791830874,-2.865880313243468,-3.572217962094982,-0.10557989319810666,-0.1315681433765239,0.6739332854321611,-0.11107468153625262,-0.09035132966167166,2.4663513725812054
3,3.775367341991105,5.000576288185435,0.18739878184777436,-2.377702019825642,-2.8632423498685826,-3.5727892735193625,-0.10633377216908156,-0.13144342398558628,0.673959960135302,-0.11259246292003303,-0.09098982404836704,2.4651713202801515
4,3.7701045705888396,5.000351119302477,0.18852788298953582,-2.377574939018318,-2.859549201143744,-3.5735891095134957,-0.10738938784595593,-0.13126315436095612,0.6739964342744801,-0.11471941744791972,-0.09187664590414545,2.4635215029786597
5,3.763338150214499,5.000061616452959,0.18997958445751484,-2.3774115494089005,-2.854800867068951,-3.5746174700773814,-0.10874686698175577,-0.13102166177716104,0.6740418363706189,-0.1174575467204752,-0.09300471098305303,2.461404155749649
6,3.7550680808680825,4.999707779636883,0.19175388625171141,-2.3772118509973907,-2.8489973476442043,-3.575874355211019,-0.11040628890232163,-0.13071163888077,0.6740950445439917,-0.12080933950855313,-0.09436489170998107,2.458822121854086
7,3.7452943625495907,4.999289608854247,0.19385078837212558,-2.376975843783788,-2.8421386428695037,-3.577359764914409,-0.11236762232548891,-0.13032413469515244,0.6741546855823735,-0.12477770745017729,-0.09594600394426621,2.45577882886546
8,3.7340169952590228,4.998807104105051,0.19627029081875727,-2.376703527768093,-2.834224752744849,-3.5790736991875516,-0.1146306476690182,-0.12984854518733094,0.6742191339390565,-0.1293659056287575,-0.097734792163364,2.4522782583325284
9,3.721235978996379,4.9982602653892965,0.19901239359160652,-2.3763949029503046,-2.82525567727024,-3.581016158030446,-0.11719486460421619,-0.12927260435342697,0.674286510743054,-0.1345774375686967,-0.09971591391014718,2.4483249083380008
10,3.70695131376166,4.997649092706982,0.20207709669067334,-2.376049969330424,-2.8152314164456773,-3.5831871414430934,-0.12005938460485033,-0.12858237697000835,0.6743546829188773,-0.14041594413376524,-0.10187192452382914,2.443923748243342
11,3.691162999554865,4.996973586058108,0.20546440011595773,-2.3756687269084504,-2.804151970271161,-3.5855866494254927,-0.12322280825303747,-0.1277622543565281,0.674421262528305,-0.14688507578356777,-0.10418326336099447,2.4390801648700813
12,3.6738710363759943,4.996233745442675,0.20917430386745967,-2.375251175684384,-2.7920173387466902,-3.5882146819776444,-0.12668308709889375,-0.1267949546988836,0.6744836064615405,-0.1539883476395806,-0.10662824290999849,2.4337998993623158
13,3.655075424225048,4.995429570860682,0.21320680794517916,-2.374797315658225,-2.778827521872266,-3.5910712390995485,-0.13043736993285182,-0.12566152969541572,0.6745388166199634,-0.16172897684163443,-0.1091830424085995,2.428088974010672
14,3.6347761631020257,4.994561062312131,0.2175619123491162,-2.3743071468299735,-2.7645825196478873,-3.5941563207912046,-0.13448183342269932,-0.12434137950310428,0.6745837407472715,-0.1701097017457685,-0.1118217077898118,2.421953608402761
15,3.612973253006928,4.993628219797019,0.22223961707927084,-2.373780669199629,-2.749282332073555,-3.597469927052613,-0.1388114971959388,-0.12281227818137176,0.6746149740800136,-0.1791325826336252,-0.11451616000213402,2.415400124407401
16,3.5896666939397543,4.992631043315348,0.22723992213564304,-2.373217882767192,-2.7329269591492684,-3.601012057883774,-0.1434200236163683,-0.12105041205090182,0.674628862002213,-0.1887987837807812,-0.11723621397386721,2.4084348397083337
17,3.5648564859005054,4.991569532867118,0.23256282751823276,-2.3726187875326623,-2.7155164008750283,-3.6047827132846875,-0.1482995027162565,-0.11903043360138282,0.6746215039017498,-0.19910833697558103,-0.11994961071193053,2.4010639498861126
18,3.5385426288891804,4.990443688452328,0.23820833322704005,-2.37198338349604,-2.697050657250834,-3.6087818932553533,-0.15344022300650895,-0.11672553379016906,0.6745887584382602,-0.2100598868994586,-0.12262206523653843,2.39329339941202
19,3.5107251229057796,4.989253510070979,0.24417643926206492,-2.3713116706573247,-2.6775297282766855,-3.613009597795771,-0.15883042920081608,-0.11410753576733215,0.6745262504431577,-0.2216504191815462,-0.12521733324563117,2.385128742371113
20,3.4814039679503033,4.9879989977230705,0.25046714562330735,-2.3706036490165165,-2.6569536139525836,-3.617465826905941,-0.1644560682595821,-0.11114701323397207,0.6744293796818258,-0.23387497242908298,-0.1276972995664078,2.376574994276142
21,3.450579164022751,4.986680151408603,0.2570804523107673,-2.369859318573616,-2.635322314278527,-3.622150580585864,-0.1703005255883866,-0.10781343678108912,0.6742933317156228,-0.246726336112053,-0.13002209157334704,2.367636476969433
22,3.4182507111231235,4.985296971127576,0.2640163593244449,-2.3690786793286227,-2.612635829254517,-3.627063858835539,-0.17634435371572368,-0.10407535165543265,0.6741130911067881,-0.2601947368416014,-0.13215022081867034,2.3583166593298217
23,3.38441860925142,4.983849456879989,0.27127486666434,-2.3682617312815366,-2.588894158880553,-3.632205661654966,-0.18256499632647,-0.09990059044473318,0.6738834572122231,-0.2742675163171295,-0.1340387561172838,2.3486179972935126
24,3.349082858407641,4.982337608665842,0.2788559743304526,-2.3674084744323576,-2.564097303156635,-3.6375759890441453,-0.1889365111398241,-0.09525652415437565,0.6735990628119476,-0.28892880500848755,-0.13564353123810985,2.33854177753993
25,3.312243458591786,4.980761426485137,0.2867596823227828,-2.366518908781086,-2.538245262082763,-3.643174841003077,-0.19542929579021365,-0.09011035504636772,0.6732543958144129,-0.3041591964607507,-0.13691939016255877,2.328087970055397
26,3.2739004098038555,4.979120910337873,0.2949859906413306,-2.365593034327722,-2.511338035658937,-3.6490022175317613,-0.20200982159110986,-0.08442945441376604,0.6728438242731763,-0.3199354279232033,-0.13782047256537722,2.3172550956271842
27,3.234053712043849,4.977416060224048,0.3035348992860959,-2.364630851072265,-2.483375623885157,-3.655058118630198,-0.20864038082617162,-0.07818174815318084,0.672361624937256,-0.3362300737657244,-0.13830054174355613,2.3060401150860947
28,3.192703365311767,4.9756468761436645,0.3124064082570788,-2.3636323590147157,-2.454358026761423,-3.6613425442983867,-0.21527885400740362,-0.07133615255778175,0.6718020155401621,-0.3530112588004073,-0.13831335666065414,2.2944383477450456
29,3.149849369607609,4.973813358096721,0.3216005175542793,-2.3625975581550733,-2.424285244287735,-3.6678554945363278,-0.22187850435007697,-0.06386306216682325,0.6711591910096072,-0.37024239911410206,-0.13781308908917225,2.282443426904262
30,3.105491724931376,4.971915506083218,0.3311172271776973,-2.361526448493338,-2.3931572764640934,-3.6745969693440212,-0.22838780751865223,-0.05573489075940243,0.6704273637506296,-0.3878819782763299,-0.13675478603333904,2.270047300436412
31,3.0596304312830664,4.969953320103157,0.34095653712733287,-2.3604190300295103,-2.3609741232904975,-3.681566968721467,-0.2347503254719915,-0.046926665655978916,0.669600808118753,-0.40588336675834386,-0.1350948767198472,2.2572402842533794
32,3.012265488662682,4.967926800156535,0.35111844740318604,-2.3592753027635895,-2.327735784766948,-3.688765492668665,-0.24090463395017964,-0.037416674379907686,0.6686739091562928,-0.4241946920347219,-0.1327917224861178,2.2440111758235797
33,2.963396897070221,4.965835946243354,0.3616029580052567,-2.3580952666955763,-2.2934422608934444,-3.6961925411856154,-0.246784313765,-0.027187161425451332,0.6676412156134712,-0.44275876610906173,-0.12980620691653683,2.2303474338013487
34,2.913024656505685,4.963680758363614,0.372410068933545,-2.3568789218254707,-2.2580935516699863,-3.703848114272318,-0.2523180165427365,-0.016225071376182586,0.6664974972161734,-0.4615130761066031,-0.12610236262744565,2.216235428215792
35,2.861148766969073,4.961461236517315,0.3835397801880508,-2.355626268153272,-2.221689657096575,-3.7117322119287732,-0.25742961587885693,-0.004522832922501427,0.6652378060735072,-0.48038984213951536,-0.1216480302380355,2.201660763540525
36,2.8077692284603852,4.959177380704456,0.39499209176877415,-2.3543373056789805,-2.184230577173209,-3.7198448341549804,-0.2620384549533732,0.00792082354885068,0.6638575420405931,-0.49931614494493626,-0.1164155443448328,2.186608674354798
37,2.7528860409796216,4.9568291909250375,0.4067670036757151,-2.3530120344025964,-2.1457163118998897,-3.7281859809509403,-0.26605970147555574,0.021100024155774957,0.6623525217649157,-0.5182141239335318,-0.11038244079596846,2.1710644902701066
38,2.6964992045267824,4.95441666717906,0.41886451590887364,-2.35165045432412,-2.106146861276616,-3.7367556523166523,-0.2694048203290515,0.03500089703818687,0.6607190510481623,-0.5370012444195874,-0.10353217928092517,2.155014163425012
39,2.6386087191018675,4.951939809466522,0.43128462846824966,-2.35025256544355,-2.0655222253033885,-3.7455538482521167,-0.27198217342697073,0.04960071896612066,0.6589540000498005,-0.5555906311191183,-0.09585487523673938,2.1384448482581293
40,2.5792145847048773,4.949398617787425,0.4440273413538433,-2.348818367760888,-2.023842403980207,-3.754580568757333,-0.27369775501883165,0.06486707909141641,0.657054880744086,-0.5738914637101198,-0.08734803532246499,2.121345519581653
41,2.518316801335811,4.946793092141769,0.45709265456565445,-2.347347861276133,-1.9811073973070719,-3.7638358138323023,-0.274456068982055,0.080757078136919,0.6550199259192849,-0.5918094295676439,-0.07801729119886656,2.1037076113207953
42,2.455915368994669,4.944123232529554,0.47048056810368316,-2.3458410459892853,-1.9373172052839824,-3.7733195834770235,-0.2741611524547967,0.09721658344146164,0.6528481688774427,-0.6092472289249666,-0.06787712700276442,2.085525654767487
43,2.3920102876814515,4.941389038950779,0.4841910819679294,-2.344297921900345,-1.8924718279109394,-3.783031877691497,-0.2727177475124985,0.1141795621961325,0.6505395228562055,-0.6261051288512649,-0.05695159662068535,2.066797891900305
44,2.326601557396158,4.938590511405445,0.4982241961583934,-2.342718489009312,-1.8465712651879416,-3.792972696475723,-0.2700326194628593,0.13156751681832293,0.6480948590524389,-0.6422815647079837,-0.0452750275019126,2.047526836289694
45,2.259689178138789,4.935727649893551,0.5125799106750748,-2.341102747316186,-1.7996155171149906,-3.803142039829701,-0.2660160167583909,0.14928904760955095,0.6455160819824609,-0.6576737912161066,-0.03289270812944801,2.0277197513431524
46,2.1912731499093443,4.932800454415098,0.5272582255179737,-2.339450696820968,-1.7516045836920855,-3.8135399077534315,-0.2605832635509837,0.16723956852400623,0.6428062007679042,-0.6721785899159345,-0.019861556181375816,2.007389013125733
47,2.1213534727078236,4.929808924970086,0.5422591406870902,-2.3377623375236563,-1.7025384649192263,-3.8241663002469144,-0.25365647161296856,0.18530120193299138,0.6399693947920799,-0.6856930455097339,-0.006250763635626574,1.9865523226879347
48,2.0499301465342272,4.926753061558514,0.5575826561824244,-2.3360376694242526,-1.6524171607964133,-3.8350212173101497,-0.24516635382482976,0.2033428776111443,0.6370110720323365,-0.6981154101047681,0.007857586642858511,1.965232730747882
49,1.9770031713885559,4.923632864180382,0.5732287720039759,-2.334276692522756,-1.6012406713236462,-3.8461046589431374,-0.23505411680822133,0.2212206597146385,0.6339379182427272,-0.7093460813344091,0.02236794117964765,1.9434584357911124
50,1.9026560833248118,4.920451906944944,0.5891795659113999,-2.3324814239748384,-1.5490676179092562,-3.8574039293364466,-0.22328743470699855,0.23875905312578516,0.6307615243511187,-0.7192784288731321,0.0371541801117527,1.9212871988235012
51,1.8279748510450515,4.917256653272494,0.6052020487802053,-2.3306780868042334,-1.496660078861543,-3.8687539829674784,-0.21004195149526855,0.2555558041784527,0.6275383746067903,-0.7277146382691916,0.051880323148898275,1.8990778656099947
52,1.7532936187652912,4.914061399600043,0.6212245316490108,-2.3288747496336284,-1.4442525398138297,-3.88010403659851,-0.1954337175325995,0.27141260087928304,0.6242943757126018,-0.734614970718013,0.06635878926239604,1.8769632437121255
53,1.6786123864855313,4.910866145927592,0.6372470145178162,-2.327071412463024,-1.3918450007661165,-3.891454090229542,-0.1795388983070416,0.28621772746140317,0.6210411447629609,-0.7399951710062197,0.08046909070133748,1.8549738669127407
54,1.603931154205771,4.907670892255141,0.6532694973866217,-2.325268075292419,-1.3394374617184028,-3.902804143860574,-0.16244272933107967,0.29986637191300525,0.6177901365536165,-0.743878636820764,0.09409170423906058,1.8331365719831687
55,1.5292499219260112,4.904475638582691,0.6692919802554271,-2.3234647381218143,-1.2870299226706896,-3.914154197491606,-0.14423881067089278,0.3122613381334763,0.6145525861139762,-0.7462967448562018,0.10710854398940997,1.8114733878456923
56,1.4545686896462504,4.90128038491024,0.6853144631242327,-2.3216614009512093,-1.234622383622976,-3.925504251122638,-0.12502835054472694,0.32331367655042575,0.6113394522881563,-0.7472892100815873,0.11940348728752867,1.7900004937874476
57,1.3798874573664897,4.8980851312377895,0.7013369459930382,-2.3198580637806043,-1.1822148445752627,-3.9368543047536697,-0.10491936846361043,0.33294323054982816,0.6081613626285994,-0.7469044471549795,0.13086296004738135,1.7687272742038387
58,1.3052062250867298,4.8948898775653396,0.7173594288618436,-2.31805472661,-1.1298073055275495,-3.9482043583847015,-0.08402586831501332,0.34107909751772636,0.6050285598601147,-0.7451998977717205,0.1413765841319606,1.7476555008543078
59,1.230524992806969,4.891694623892889,0.733381911730649,-2.316251389439395,-1.0773997664798363,-3.9595544120157333,-0.06246699150968215,0.3476600046800667,0.6019508501650931,-0.7422422840424447,0.1508378847064031,1.7267786762570063
60,1.1558437605272092,4.888499370220438,0.7494043945994545,-2.3144480522687902,-1.024992227432123,-3.9709044656467656,-0.04036615983759651,0.3526346012268277,0.5989375535323402,-0.7381077463918221,0.159145050450634,1.7060815729304175
61,1.0811625282474493,4.885304116547987,0.76542687746826,-2.3126447150981853,-0.9725846883844094,-3.9822545192777974,-0.017850217029054823,0.3559616693901216,0.5959974564026265,-0.7328818255177615,0.16620173413529024,1.6855400020242102
62,1.0064812959676885,4.882108862875537,0.7814493603370656,-2.3108413779275803,-0.9201771493366957,-3.993604572908829,0.004951422786465152,0.357610258188988,0.5931387668335945,-0.7266592521241659,0.17191787575127598,1.6651208408972085
63,0.9318000636879278,4.878913609203086,0.797471843205871,-2.3090380407569757,-0.8677696102889825,-4.0049546265398615,0.027907612462231376,0.3575597444357246,0.5903690723952176,-0.7195435157015843,0.17621052554519961,1.644782342049331
64,0.8571188314081679,4.875718355530635,0.8134943260746765,-2.3072347035863707,-0.8153620712412692,-4.016304680170893,0.05088628882619345,0.3557998263036685,0.5876953009945928,-0.7116461945268283,0.17900464041330655,1.6244747354816516
65,0.782437599128408,4.872523101858185,0.8295168089434819,-2.305431366415766,-0.762954532193556,-4.027654733801925,0.07375526415188419,0.35233045527290496,0.5851236848155158,-0.703086042832997,0.18023382460701662,1.6041411234430722
66,0.7077563668486473,4.869327848185734,0.8455392918122873,-2.303628029245161,-0.7105469931458428,-4.039004787432956,0.09638298811433993,0.3471617125920083,0.5826597275441366,-0.6939878468823865,0.17984098500331488,1.583718651467178
67,0.6330751345688865,4.866132594513283,0.8615617746810929,-2.301824692074556,-0.6581394540981291,-4.050354841063989,0.11863927737934903,0.34031363651920643,0.5803081750370147,-0.684481078183295,0.17777887256350053,1.563139923853578
68,0.5583939022891267,4.8629373408408325,0.8775842575498984,-2.3000213549039517,-0.6057319150504155,-4.061704894695021,0.14039601108983452,0.3318160065390494,0.5780729895722562,-0.6746983877861698,0.1740104851280848,1.5423346168274612
69,0.4837126700093668,4.8597420871683825,0.8936067404187038,-2.2982180177333467,-0.5533243760027022,-4.073054948326052,0.16152779157107386,0.32170809049951904,0.5759573278080751,-0.6647739988593288,0.1685093122339116,1.5212312301237563
70,0.40903143772960604,4.856546833495932,0.9096292232875094,-2.2964146805627417,-0.500916836954989,-4.084405001957085,0.18191257054775956,0.31003836019304476,0.5739635225562589,-0.6548420641255955,0.1612594098221765,1.4997589091374108
71,0.33435020544984617,4.853351579823481,0.9256517061563148,-2.294611343392137,-0.4485092979072758,-4.095755055588116,0.20143224202419316,0.29686418033107614,0.5720930684606192,-0.645035059178624,0.15225530096648993,1.4778492661190694
72,0.2596689731700863,4.850156326151031,0.9416741890251201,-2.292808006221532,-0.39610175885956256,-4.107105109219148,0.21997320370097245,0.28225147515764276,0.5703466116527361,-0.6354822817049581,0.14150170739055434,1.4554381306662263
73,0.18498774089032555,4.84696107247858,0.9576966718939257,-2.2910046690509276,-0.3436942198118489,-4.11845516285018,0.2374268893680109,0.2662743761381366,0.5687239434391551,-0.6263085203860926,0.12901312482740018,1.4324671667997098
74,0.11030650861056479,4.843765818806129,0.9737191547627313,-2.2892013318803226,-0.29128668076413566,-4.129805216481212,0.2536902751096007,0.24901485327356507,0.567223998055809,-0.617632946543845,0.11481326251491511,1.4088853054333843
75,0.03562527633080581,4.840570565133678,0.9897416376315367,-2.2873979947097176,-0.23887914171642244,-4.141155270112243,0.268666362372124,0.23056233165809967,0.5658448545068975,-0.6095682677126952,0.0989343727876896,1.3846499557620888
76,-0.039055955948955834,4.837375311461228,1.0057641205003423,-2.285594657539113,-0.18647160266870833,-4.152505323743275,0.28226464097366655,0.21101329395054005,0.5645837424867888,-0.6022201668428698,0.08141650047812711,1.3597279754525728
77,-0.11373718822871659,4.834180057788777,1.0217866033691478,-2.283791320368508,-0.1340640636209951,-4.163855377374308,0.2944015349770286,0.1904708685005856,0.563437052364876,-0.595687035363137,0.06230668357356062,1.3340963959326444
78,-0.18841842050847646,4.830984804116326,1.0378090862379532,-2.2819879831979035,-0.08165652457328232,-4.17520543100534,0.3050008340085842,0.16904440199048534,0.562400349194734,-0.5900599942833813,0.04165813640026961,1.307742914126715
79,-0.2630996527882363,4.827789550443876,1.0538315691067586,-2.2801846460272985,-0.02924898552556865,-4.186555484636371,0.3139941120953104,0.14684901465268307,0.5614683906905437,-0.5854231859694924,0.01952944480468011,1.2806661746184207
80,-0.3377808850679971,4.8245942967714255,1.0698540519755642,-2.2783813088566935,0.02315855352214502,-4.1979055382674035,0.32132113542632545,0.12400513543344112,0.5606351490955624,-0.5818543108238916,-0.004016200222071593,1.2528758757956329
81,-0.41246211734775695,4.821399043098975,1.0858765348443695,-2.276577971686089,0.0755660925698578,-4.209255591898435,0.3269302596432033,0.10063801391753341,0.5598938368496189,-0.5794253780687866,-0.028911707824433145,1.2243927398407417
82,-0.4871433496275168,4.818203789426524,1.101899017713175,-2.274774634515484,0.12797363161757147,-4.220605645529467,0.33077881634915235,0.07687720543297022,0.5592369359451782,-0.5782036379972156,-0.055086712933217416,1.1952483896262054
83,-0.5618245819072776,4.815008535754074,1.1179215005819805,-2.2729712973448795,0.18038117066528425,-4.2319556991604985,0.33283348752848,0.05285602553640915,0.5586562308445985,-0.5782526639928228,-0.08246810779645308,1.1654851760834302
84,-0.6365058141870374,4.811813282081623,1.1339439834507858,-2.2711679601742745,0.23278870971299792,-4.243305752791531,0.3330706655151817,0.028710970053927733,0.5581428448148388,-0.579633555718464,-0.11098046855190248,1.1351559980023522
85,-0.7111870464667973,4.808618028409172,1.1499664663195914,-2.2693646230036695,0.2851962487607107,-4.254655806422562,0.3314767950758952,0.004581097027750017,0.5576872795201497,-0.5824062394610399,-0.14054636903388334,1.1043241530994627
86,-0.7858682787465581,4.805422774736722,1.1659889491883968,-2.267561285833065,0.33760378780842437,-4.266005860053594,0.32804869311212964,-0.019392632698444837,0.5572794576982703,-0.5866308470250532,-0.17108657627499788,1.073063255122118
87,-0.8605495110263179,4.802227521064271,1.1820114320572024,-2.26575794866246,0.39001132685613804,-4.277355913684627,0.32279384047471493,-0.04306805893614769,0.5569087687314195,-0.5923691601679996,-0.20252012360213995,1.0414572471763943
88,-0.9352307433060796,4.79903226739182,1.198033914926008,-2.2639546114918554,0.4424188659038517,-4.288705967315658,0.315730639454496,-0.06630257154631702,0.5565641169099673,-0.5996861128049514,-0.2347642578306003,1.0096005366493548
89,-1.0099119755858394,4.795837013719369,1.2140563977948133,-2.2621512743212504,0.4948264049515654,-4.30005602094669,0.3068886297012225,-0.08895390669682955,0.5562339721742071,-0.6086513475577481,-0.2677342568704566,0.9775982721215907
90,-1.0845932078655993,4.792641760046919,1.230078880663619,-2.2603479371506454,0.5472339439992782,-4.311406074577722,0.29630865465904965,-0.11088098977074641,0.5559064231080892,-0.6193408261646001,-0.30134311315051543,0.9455667773848314
91,-1.15927444014536,4.7894465063744684,1.2461013635324243,-2.258544599980041,0.5996414830469918,-4.322756128208754,0.28404297012114316,-0.13194482343052183,0.5555692319482978,-0.6318384942069166,-0.33550107674050267,0.913634151686973
92,-1.23395567242512,4.786251252702018,1.2621238464012299,-2.256741262809436,0.6520490220947046,-4.334106181839786,0.2701552862229119,-0.15200941794367095,0.5552098913625582,-0.6462379987980819,-0.3701150500485859,0.8819410379106415
93,-1.3086369047048807,4.783055999029568,1.2781463292700352,-2.2549379256388313,0.7044565611424183,-4.3454562354708175,0.2547207341346651,-0.17094275939037826,0.5548156827427523,-0.662644452280985,-0.4050878236742479,0.8506415504575068
94,-1.3833181369846406,4.779860745357117,1.2941688121388406,-2.2531345884682263,0.756864100190132,-4.35680628910185,0.23782574889620062,-0.18861780983810783,0.554373735751172,-0.6811762241402418,-0.4403171406715291,0.8199043405769262
95,-1.4579993692644004,4.776665491684666,1.3101912950076462,-2.2513312512976213,0.8092716392378447,-4.368156342732881,0.2195678602689047,-0.2049135320203798,0.5538710888522288,-0.7019667251986781,-0.4756945745234184,0.7899137565318786
96,-1.5326806015441612,4.773470238012215,1.3262137778764516,-2.249527914127017,0.8616791782855584,-4.379506396363913,0.20005538417039284,-0.2197159295359833,0.5532947505570984,-0.7251661198977614,-0.5111042051560061,0.760871026329868
97,-1.607361833823921,4.770274984339765,1.3422362607452571,-2.247724576956412,0.9140867173332712,-4.390856449994946,0.17940700820148361,-0.2329190921317672,0.5526317611051643,-0.7509428602623529,-0.5464210782726256,0.732995347800184
98,-1.682043066103681,4.767079730667314,1.3582587436140625,-2.2459212397858073,0.9664942563809849,-4.402206503625977,0.15775126596802685,-0.24442623428731194,0.5518692543037629,-0.7794848741922351,-0.5815094375955385,0.7065247095917283
99,-1.7567242983834426,4.763884476994863,1.3742812264828683,-2.2441179026152023,1.0189017954286985,-4.413556557257009,0.13522589632719567,-0.2541507141230472,0.5509945192466178,-0.8110001553349443,-0.6162207293949116,0.6817161813952173
100,-1.831071386447185,4.760703519759427,1.3902320203902916,-2.2423226340672846,1.0710748488430886,-4.424855827650318,0.11208249287418492,-0.26198605972275524,0.5499998294658413,-0.8455535696543728,-0.650239973193811,0.6589428845918726
101,-1.9039983615928584,4.757583322381295,1.4058781362118435,-2.240561657165788,1.1222513383158574,-4.435939269283305,0.08883097957545821,-0.26782206127327257,0.5488924109973636,-0.8827627535156358,-0.6829166874809328,0.6387482181962496
102,-1.9754216877664552,4.754527458969723,1.4212016517071777,-2.238836989066384,1.1723726424386696,-4.4467941863465414,0.06567526908041811,-0.2717162667598614,0.5476706473272105,-0.9226214023931559,-0.7140740874116722,0.6213019419037402
103,-2.045341364967973,4.751535929524711,1.4362025668762943,-2.237148629769073,1.2214387612115294,-4.457420578840024,0.042779594995027447,-0.2737506362842535,0.5463333588826754,-0.9651413087114442,-0.743577388221224,0.6067203358354023
104,-2.113757393197419,4.748608734046258,1.4508808817191934,-2.235496579273854,1.2694496946344325,-4.467818446763753,0.020293263063497678,-0.2740195652987575,0.5448807537726229,-1.010307816310916,-0.7712964115267467,0.5950858593593037
105,-2.180669772454788,4.745745872534364,1.4652365962358742,-2.233880837580729,1.3164054427073841,-4.477987790117733,-0.0016499437385110328,-0.272627761209521,0.5433143264925246,-1.058071666482476,-0.7971073163459456,0.5864394866330049
106,-2.246078502740083,4.74294734498903,1.4792697104263381,-2.2323014046896956,1.3623060054303826,-4.487928608901958,-0.022932090874495232,-0.26968815610051455,0.5416367523751991,-1.1083407518890938,-0.8208949187995911,0.580772940864542
107,-2.309983584053297,4.740213151410255,1.4929802242905845,-2.2307582806007553,1.4071513828034234,-4.497640903116432,-0.043451166058572355,-0.26531988733244033,0.5398517795652029,-1.1609725221382543,-0.8425555702649976,0.5780215635762291
108,-2.372385016394439,4.73754329179804,1.5063681378286136,-2.2292514653139075,1.4509415748265138,-4.507124672761154,-0.06312092220354808,-0.25964637381837474,0.5379641201108442,-1.2157679937739794,-0.8620004931061919,0.5780587667402195
109,-2.433282799763509,4.734937766152384,1.519433451040425,-2.227780958829152,1.4936765814996509,-4.516379917836122,-0.08187051329367688,-0.2527935114464355,0.5359793415839492,-1.2724684397981958,-0.8791593880530453,0.5806931399201992
110,-2.4926769341604977,4.732396574473287,1.5321761639260176,-2.2263467611464907,1.535356402822833,-4.525406638341339,-0.0996439489213766,-0.2448880065847931,0.5339037604567016,-1.3307557956083131,-0.8939840398377767,0.5856692477460788
111,-2.550567419585411,4.72991971676075,1.5445962764853942,-2.2249488722659208,1.5759810387960602,-4.534204834276803,-0.11639939435754862,-0.23605586202936477,0.531744338289673,-1.3902575590438568,-0.9064515765241574,0.5926728948787732
112,-2.606954256038252,4.727507193014772,1.5566937887185532,-2.223587292187444,1.615550489419335,-4.542774505642515,-0.1321083433850476,-0.22642102528510816,0.5295085816175503,-1.4505564664506914,-0.916567005239655,0.6013411405638281
113,-2.6618374435190173,4.725159003235354,1.5684687006254943,-2.2222620209110597,1.6540647546926515,-4.551115652438475,-0.14675469078736658,-0.21610420483148124,0.527204446260587,-1.5112045503376774,-0.9243646718983081,0.611276669039312
114,-2.7152169820277035,4.722875147422495,1.5799210122062175,-2.2209730584367686,1.6915238346160182,-4.559228274664681,-0.16033373043902827,-0.2052218561107898,0.5248402466417716,-1.571740459850638,-0.9299083831269188,0.6220653980450163
115,-2.767092871564314,4.720655625576195,1.5910507234607225,-2.21972040476457,1.7279277291894308,-4.567112372321137,-0.17285110348998817,-0.19388533546950132,0.5224245705528154,-1.63170833221376,-0.9332900760117009,0.6332956148116676
116,-2.8174651121288505,4.718500437696455,1.601857834389011,-2.2185040598944643,1.7632764384128867,-4.5747679454078405,-0.1843217192773077,-0.18220021722769644,0.5199661996869529,-1.6906762077151445,-0.9346270989274715,0.6445766334503829
117,-2.8663337037213132,4.716409583783274,1.6123423449910823,-2.2173240238264507,1.7975699622863912,-4.58219499392479,-0.19476866943671786,-0.17026576647887856,0.5174740361433955,-1.7482520707915903,-0.9340583372734806,0.6555550576896392
118,-2.9136986463416985,4.714383063836653,1.6225042552669353,-2.2161802965605304,1.8308083008099416,-4.589393517871989,-0.20422215332320542,-0.15817455813948897,0.5149570350071367,-1.8040960481223698,-0.9317395451709626,0.6659271812640347
119,-2.9595599399900046,4.712420877856591,1.63234356521657,-2.215072878096702,1.8629914539835353,-4.596363517249435,-0.2127184303746296,-0.14601223116564607,0.5124241430184666,-1.8579279705612597,-0.9278383046293474,0.6754467341487436
120,-3.0039175846662385,4.710523025843088,1.6418602748399884,-2.2140017684349673,1.8941194218071784,-4.603104992057126,-0.22029881254696387,-0.13385736571076456,0.509884243268666,-1.9095302284671416,-0.922529023031891,0.6839279055135917
121,-3.0467715803703985,4.708689507796145,1.6510543841371885,-2.2129669675753254,1.9241922042808675,-4.609617942295069,-0.22700870748424096,-0.1217814702777231,0.5073461057914508,-1.9587464556076997,-0.9159883114898184,0.6912441798208857
122,-3.088121927102481,4.706920323715761,1.6599258931081726,-2.2119684755177755,1.9532098014045989,-4.615902367963257,-0.2328967207189723,-0.10984906558112771,0.5048183438631911,-2.0054769662238985,-0.9083909846897542,0.6973239118329935
123,-3.1279686248624845,4.705215473601937,1.6684748017529385,-2.2110062922623186,1.9811722131783815,-4.621958269061695,-0.23801382297594767,-0.09811785183189645,0.5023093757781381,-2.049672022053387,-0.899906812870073,0.7021437184318985
124,-3.1663116736504158,4.703574957454672,1.6767011100714853,-2.210080417808954,2.0080794396022075,-4.627785645590378,-0.24241258660873324,-0.08663894643802994,0.49982739182707264,-2.0913239611363017,-0.8906980586120424,0.7057207201042969
125,-3.2031510734662714,4.7019987752739665,1.6846048180638147,-2.2091908521576826,2.0339314806760775,-4.633384497549311,-0.24614649335777955,-0.07545717963177648,0.4973803261782432,-2.1304590481595644,-0.8809177567249773,0.7081044928064233
126,-3.2384868243100513,4.700486927059821,1.6921859257299285,-2.208337595308504,2.058728336399996,-4.63875482493849,-0.24926931399609947,-0.06461143623541483,0.49497583333740147,-2.1671296784779717,-0.8707086479092561,0.7093693632365781
127,-3.272318926181754,4.699039412812234,1.6994444330698233,-2.207520647261418,2.0824700067739617,-4.643896627757917,-0.25183455902870594,-0.05413503261920763,0.49262126884840435,-2.2014073401858716,-0.8602026535110252,0.7096074527147467
128,-3.3046473790813806,4.697656232531207,1.7063803400835011,-2.206740008016425,2.1051564917979686,-4.6488099060075925,-0.25389499843397406,-0.04405611884293603,0.4903236738865081,-2.2333765442022937,-0.8495207739488154,0.708922680398533
129,-3.3354721830089336,4.696337386216739,1.7129936467709608,-2.205995677573524,2.1267877914720277,-4.653494659687515,-0.25550224747147854,-0.03439809696854836,0.4880897633923984,-2.2631297852386383,-0.8387733010200774,0.7074257894164547
130,-3.364793337964411,4.69508287386883,1.7192843531322022,-2.205287655932716,2.14736390579613,-4.657950888797684,-0.25670641481978385,-0.025180047552244587,0.4859259173954745,-2.2907634970940225,-0.8280602487510094,0.7052303600260912
131,-3.392610843947809,4.693892695487481,1.7252524591672285,-2.2046159430940007,2.1668848347702774,-4.662178593338103,-0.25755580873384154,-0.016417157341154443,0.48383817517932476,-2.3163749068643615,-0.817471924557307,0.702449715000687
132,-3.418924700959135,4.692766851072691,1.7308979648760348,-2.2039805390573783,2.1853505783944716,-4.6661777733087675,-0.2580966965075155,-0.008121142189054364,0.4818322319500641,-2.340059664519492,-0.8070895794748862,0.6991945942753186
133,-3.443734908998385,4.691705340624461,1.7362208702586237,-2.2033814438228485,2.2027611366687125,-4.669948428709681,-0.25837311227347065,-0.00030066014826717925,0.4799134376786717,-2.361910117252858,-0.7969860915236915,0.6955714687971162
134,-3.4670414680655597,4.69070816414279,1.7412211753149966,-2.2028186573904116,2.2191165095929986,-4.673490559540842,-0.2584267080507638,0.007038289423522557,0.47808679780125635,-2.382014104004197,-0.7872266491771633,0.6916813694865046
135,-3.488844378160655,4.689775321627678,1.7458988800451523,-2.202292179760067,2.2344166971673314,-4.67680416580225,-0.2582966429408647,0.013891984092802456,0.47635697547568223,-2.40045415859026,-0.7778694122790439,0.6876191202203236
136,-3.5091436392836766,4.688906813079127,1.7502539844490883,-2.2018020109318153,2.2486616993917075,-4.679889247493907,-0.25801950545692415,0.020258616536003058,0.47472829510895337,-2.4173070258351608,-0.7689661357522721,0.6834728796759897
137,-3.527939251434624,4.688102638497134,1.7542864885268088,-2.2013481509056563,2.261851516266132,-4.682745804615811,-0.2576292641316453,0.026137954652477233,0.4732047468867276,-2.43264341138285,-0.7605627474077925,0.6793239131403571
138,-3.545231214613496,4.6873627978817005,1.7579963922783106,-2.20093059968159,2.2739861477906054,-4.685373837167962,-0.2571572417701391,0.03153102501046225,0.4717899920540317,-2.446527901030638,-0.7526998754556169,0.6752465305180899
139,-3.561019528820287,4.686687291232827,1.7613836957035938,-2.200549357259617,2.2850655939651183,-4.6877733451503625,-0.2566321089814362,0.036439820549415254,0.47048736871441704,-2.459018998736008,-0.745413324301933,0.6713081400635529
140,-3.5753041940550094,4.686076118550513,1.7644483988026622,-2.200204423639736,2.2950898547896834,-4.6899443285630085,-0.256079892923372,0.04086703305990938,0.46929989793321525,-2.47016924369039,-0.7387344991964643,0.6675693785777707
141,-3.5880852103176526,4.685529279834758,1.7671905015755103,-2.199895798821948,2.3040589302642918,-4.691886787405904,-0.255523997519662,0.04481581063619119,0.4682302899490396,-2.480025376073048,-0.7326907815313353,0.6640842880077802
142,-3.59936257760822,4.685046775085563,1.7696100040221432,-2.199623482806252,2.3119728203889487,-4.693600721679046,-0.2549852317461824,0.04828954004171964,0.46728095031605127,-2.488628528490621,-0.7273058572903787,0.6609005157539692
143,-3.609136295926712,4.684628604302927,1.7717069061425565,-2.19938747559265,2.318831525163647,-4.6950861313824355,-0.25448184292857956,0.051291653738513354,0.46645398581779574,-2.496014425926464,-0.7226000014638355,0.658059521785185
144,-3.617406365273128,4.6842747674868495,1.7734812079367526,-2.19918777718114,2.324635044588394,-4.696343016516074,-0.2540295523397154,0.053825461201117517,0.4657512100112995,-2.5022135815337796,-0.7185903212948483,0.6555967801457949
145,-3.6241727856474704,4.683985264637332,1.774932909404733,-2.199024387571723,2.3293833786631897,-4.69737137707996,-0.25364159072896986,0.055894004058731545,0.465174148277857,-2.5072514790532416,-0.7152909610973497,0.6535419658594808
146,-3.6294355570497316,4.683760095754375,1.7760620105464944,-2.1988973067643984,2.3330765273880267,-4.698171213074094,-0.2533287317532943,0.057499934578167204,0.464724042274228,-2.5111487352390163,-0.7127132711412387,0.651919120810484
147,-3.6331946794799244,4.683599260837976,1.7768685113620375,-2.1988065347591665,2.3357144907629124,-4.698742524498473,-0.25309932161050075,0.05864541700921898,0.4644018536949752,-2.5139212376215347,-0.7108659427831848,0.6507467940993253
148,-3.635450152938038,4.683502759888137,1.7773524118513633,-2.198752071556027,2.3372972687878413,-4.699085311353102,-0.25295930349802265,0.05933205135623727,0.46420826727341347,-2.5155802543766237,-0.7097551116590675,0.6500381537821889
149,-3.6362019774240757,4.683470592904857,1.777513712014473,-2.198733917154981,2.3378248614628188,-4.699199573637978,-0.25291223583549044,0.05956081920903076,0.4641436929650219,-2.5161325141367468,-0.7093844303658577,0.6498010679391223
