nimar13/UR3e_dataset_trayectorias/data/trayectorias_completas_UR3e_TRAPEZOIDAL/trayectoria_167.csv
Punto,shoulder_pan_joint,shoulder_lift_joint,elbow_joint,wrist_1_joint,wrist_2_joint,wrist_3_joint,Posicion_X,Posicion_Y,Posicion_Z,Roll,Pitch,Yaw
0,3.7837676797027875,-1.827235007576608,1.7173601813956334,6.207641521394455,-5.4793954078570035,-2.903428155516312,-0.06876175241651493,-0.2941450422323984,0.3482093114139003,-3.0379019195923025,-0.12978175538732994,-1.7227336638954434
1,3.783534453872354,-1.8272580024965308,1.7172836373510827,6.207293616438382,-5.479431703710519,-2.902767639641544,-0.06884653003802164,-0.2941443426288962,0.34826477361052516,-3.037562257191029,-0.13009608697914443,-1.7228874469412794
2,3.7828347763810535,-1.8273269872562992,1.7170540052174301,6.206249901570164,-5.479540591271068,-2.9007860920172392,-0.06910079703962752,-0.2941420377962369,0.34843123184080943,-3.0365435703884884,-0.1310388620071109,-1.7233481750015989
3,3.781668647228886,-1.8274419618559132,1.7166712849946761,6.204510376789798,-5.479722070538648,-2.8974835126433987,-0.0695243547582562,-0.2941375099943215,0.3487089005865363,-3.034846764126481,-0.1326094190793373,-1.7241139838593575
4,3.780036066415851,-1.8276029262953728,1.7161354766828207,6.202075042097288,-5.47997614151326,-2.892859901520021,-0.07011686851094465,-0.2941297307532938,0.34909813585082705,-3.0324733591005075,-0.13480664869954354,-1.7251817631747919
5,3.777937033941949,-1.827809880574678,1.7154465802818635,6.198943897492632,-5.4803028041949045,-2.8869152586471074,-0.07087786223971179,-0.29411726255085385,0.349599432952444,-3.0294255104463326,-0.13762898246152086,-1.7265471514264072
6,3.77537154980718,-1.8280628246938289,1.7146045957918048,6.1951169429758295,-5.4807020585835815,-2.879649584024657,-0.07180671103796313,-0.2940982612240496,0.3502134234260454,-3.0257060338970687,-0.14107437783863333,-1.728204528645709
7,3.7723396140115444,-1.8283617586528254,1.7136095232126445,6.190594178546881,-5.48117390467929,-2.8710628776526708,-0.07290263158291498,-0.2940704791787767,0.3509408710168134,-3.0213184394074086,-0.14514029848322396,-1.7301470067663332
8,3.768841226555041,-1.8287066824516673,1.7124613625443825,6.185375604205787,-5.481718342482031,-2.861155139531148,-0.07416467050671383,-0.29403126947777425,0.35178266675482806,-3.016266972241423,-0.14982368992303932,-1.7323664173615942
9,3.764876387437671,-1.829097596090355,1.711160113787019,6.179461219952547,-5.4823353719918035,-2.8499263696600887,-0.07559169074808549,-0.29397759090509845,0.3527398230917101,-3.0105566615204142,-0.15512095051152916,-1.7348532965017385
10,3.760445096659434,-1.8295344995688883,1.7097057769405537,6.1728510257871605,-5.483024993208609,-2.837376568039493,-0.07718235593657789,-0.29390601412171996,0.3538134670794716,-3.0041933762273185,-0.16102789745553997,-1.7375968664240464
11,3.7555473542203295,-1.8300173928872672,1.708098352004987,6.165545021709629,-5.483787206132446,-2.8235057346693613,-0.07893511287300017,-0.2938127290429319,0.35500483256918686,-2.9971838886633946,-0.1675397277070627,-1.7405850136769019
12,3.750183160120358,-1.8305462760454918,1.7063378389803188,6.157543207719951,-5.484622010763315,-2.8083138695496928,-0.08084817218264176,-0.29369355358351745,0.3563152514051544,-2.98953594535062,-0.17465097346480588,-1.743804263374161
13,3.74435251435952,-1.831121149043562,1.7044242378665488,6.148845583818128,-5.485529407101216,-2.791800972680488,-0.08291948723248037,-0.2935439439309162,0.35774614358862933,-2.9812583453678934,-0.18235545198604786,-1.7472397491806373
14,3.7380554169378146,-1.8317420118814776,1.7023575486636773,6.139452150004158,-5.486509395146149,-2.773967044061747,-0.08514673141995896,-0.29335900651979946,0.35929900638409007,-2.9723610260989997,-0.1906462093591533,-1.7508751786450423
15,3.731291867855242,-1.832408864559239,1.7001377713717043,6.129362906278042,-5.4875619748981155,-2.7548120836934693,-0.08752727395918683,-0.29313351189326664,0.3609754023403523,-2.9628551563528784,-0.19951545783199534,-1.7546927935061578
16,3.724061867111802,-1.8331217070768457,1.6977649059906297,6.118577852639781,-5.488687146357113,-2.7343360915756554,-0.09005815431070308,-0.292861910646078,0.36277694619877177,-2.9527532367887934,-0.2089545062312663,-1.758673324624449
17,3.7163654147074956,-1.8338805394342983,1.6952389525204534,6.107096989089374,-5.489884909523142,-2.712539067708305,-0.0927360554232839,-0.2925383516536796,0.3647052906612659,-2.9420692075363215,-0.2189536829421656,-1.7627959412388208
18,3.7082025106423218,-1.8346853616315966,1.6925599109611755,6.094920315626821,-5.4911552643962045,-2.6894210120914184,-0.09555727598076846,-0.2921567027969572,0.366762110992072,-2.9308185628374384,-0.2295022508476441,-1.7670381943219342
19,3.699573154916281,-1.8355361736687403,1.689727781312796,6.0820478322521225,-5.492498210976298,-2.6649819247249953,-0.09851770187350238,-0.2917105743963466,0.3689490884290301,-2.919018472448551,-0.2405883135516545,-1.7713759539137157
20,3.6904773475293733,-1.8364329755457296,1.686742563575315,6.068479538965278,-5.493913749263424,-2.639221805609036,-0.10161277714275135,-0.2911933455697936,0.3712678923828227,-2.906687909415844,-0.25219871213277595,-1.7757833404594259
21,3.680915088481598,-1.8373757672625646,1.6836042577487322,6.054215435766286,-5.4954018792575825,-2.6121406547435404,-0.104837474677238,-0.2905981937267055,0.3737201614060839,-2.8938477836672343,-0.2643189115945922,-1.7802326503758628
22,3.670886377772956,-1.838364548819245,1.680312863833048,6.03925552265515,-5.496962600958772,-2.583738472128508,-0.10818626697368529,-0.2899181274040895,0.3763074829186274,-2.8805210806358086,-0.276932876099653,-1.7846942763291544
23,3.660391215403447,-1.8393993202157712,1.6768683818282624,6.023599799631867,-5.4985959143669945,-2.5540152577639397,-0.11165309730773103,-0.28914602264108913,0.37903137168033696,-2.866733003827156,-0.29002293199786466,-1.789136623045321
24,3.649429601373071,-1.8404800814521431,1.6732708117343749,6.007248266696439,-5.5003018194822495,-2.5229710116498345,-0.11523135169757452,-0.2882746630737032,0.3818932470095198,-2.8525111198473234,-0.3035696175924377,-1.7935260199088434
25,3.6380015356818274,-1.8416068325283605,1.669520153551386,5.990200923848865,-5.502080316304536,-2.490605733786193,-0.11891383207990196,-0.2872967839121348,0.3848944087518302,-2.8378855038965867,-0.3175515185331965,-1.7978266321569283
26,3.626107018329717,-1.8427795734444234,1.6656164072792952,5.972457771089145,-5.503931404833854,-2.4569194241730155,-0.12269273115563359,-0.2862051199385282,0.38803601201325083,-2.8228888830795866,-0.33194508769668996,-1.8020003731746401
27,3.61374604931674,-1.843998304200332,1.661559572918103,5.9540188084172785,-5.505855085070205,-2.4219120828103016,-0.12655960940138095,-0.28499245763238923,0.39131904068012413,-2.807556774053148,-0.3467244484164318,-1.806006821269499
28,3.600918628642895,-1.8452630247960864,1.6573496504678094,5.934884035833266,-5.507851357013588,-2.385583709698051,-0.1305053747806084,-0.2836516914942759,0.39474427975988313,-2.7919276104931896,-0.3618611799796497,-1.8098031453890335
29,3.5876247563081836,-1.8465737352316862,1.6529866399284139,5.915053453337109,-5.509920220664003,-2.347934304836264,-0.13452026572574358,-0.28217588459504306,0.39831228658798823,-2.776042854571563,-0.3773240844286246,-1.8133440455806735
30,3.573864432312605,-1.8479304355071315,1.648470541299917,5.894527060928805,-5.51206167602145,-2.308963868224941,-0.13859383799809605,-0.2805583333276044,0.4020233609596257,-2.7599470850497347,-0.3930789339199684,-1.8165817156225685
31,3.5596376566561596,-1.8493331256224226,1.6438013545823185,5.873304858608355,-5.5142757230859285,-2.2686723998640814,-0.14271495606559403,-0.27879263628057804,0.4058775142590082,-2.7436880526763714,-0.40908819823579,-1.819465837218542
32,3.544944429338847,-1.8507818055775593,1.6389790797756183,5.8513868463757595,-5.51656236185744,-2.2270598997536855,-0.14687178966805828,-0.27687276708802,0.4098744376746102,-2.727316691282079,-0.4253107525459995,-1.8219436174883559
33,3.5297847503606667,-1.8522764753725416,1.6340037168798165,5.828773024231018,-5.518921592335984,-2.1841263678937533,-0.1510518162649739,-0.27479315103658625,0.4140134696053867,-2.710887070270547,-0.4417015662393763,-1.823959884221717
34,3.51415861972162,-1.8538171350073696,1.628875265894913,5.805463392174131,-5.521353414521559,-2.1398718042842844,-0.15524183008030673,-0.272548745130843,0.4182935623809115,-2.6944562711081357,-0.4582113746301278,-1.8254572565039464
35,3.498066037421706,-1.855403784482043,1.6235937268209082,5.781457950205097,-5.523857828414166,-2.0942962089252792,-0.159427958471611,-0.2701351212291196,0.42271324843740776,-2.678084166949446,-0.47478633667330994,-1.826376411827092
36,3.481507003460925,-1.857036423796562,1.6181590996578017,5.756756698323919,-5.5264348340138065,-2.047399581816738,-0.16359568635513347,-0.2675485517665102,0.4272706061117604,-2.6618330808025834,-0.4913676835609096,-1.8266564745744966
37,3.4644815178392765,-1.8587150529509269,1.6125713844055936,5.731359636530594,-5.529084431320478,-1.9991819229586598,-0.16772988941343311,-0.26478609747873744,0.43196322523673036,-2.6457672938243424,-0.5078913652982415,-1.8262355546200764
38,3.4469895805567616,-1.860439671945137,1.6068305810642838,5.705266764825122,-5.531806620334182,-1.9496432323510455,-0.17181487679569069,-0.2618456964311979,0.4367881727426043,-2.629952371761938,-0.5242877051507839,-1.8250514683963528
39,3.429031191613379,-1.862210280779193,1.6009366896338726,5.678478083207506,-5.534601401054918,-1.8987835099938948,-0.17583444399189999,-0.2587262535423747,0.44174195849334735,-2.6144542747184287,-0.5404810752612165,-1.8230426776639093
40,3.41060635100913,-1.8640268794530945,1.5948897101143598,5.650993591677743,-5.5374687734826855,-1.8466027558872078,-0.17977193651889814,-0.2554277296709956,0.44682050160875253,-2.5993382140294385,-0.5563896107848201,-1.8201494826437163
41,3.3917150587440137,-1.8658894679668416,1.588689642505745,5.622813290235834,-5.5404087376174855,-1.7931009700309846,-0.1836103249972289,-0.25195122921308233,0.45201909754800607,-2.5846672210776434,-0.5719249845345599,-1.8163155051749869
42,3.37235731481803,-1.8677980463204344,1.5823364868080292,5.59393717888178,-5.5434212934593186,-1.7382781524252247,-0.18733229212156696,-0.24829908502997905,0.457332386254256,-2.5705003975980665,-0.5869922692196617,-1.8114894928758245
43,3.3525331192311794,-1.8697526145138728,1.5758302430212114,5.56436525761558,-5.546506441008183,-1.6821343030699287,-0.19092033193248875,-0.24447493940340911,0.46275432168397423,-2.5568908269518897,-0.6014899196119845,-1.8056274654023154
44,3.3322424719834616,-1.8717531725471568,1.5691709111452923,5.534097526437233,-5.549664180264079,-1.6246694219650957,-0.1943568616823964,-0.24048381959076504,0.4682781430688879,-2.543883142619512,-0.6153099118966228,-1.7986952071741242
45,3.311485373074877,-1.8737997204202863,1.5623584911802713,5.503133985346741,-5.552894511227008,-1.5658835091107268,-0.19762434645226679,-0.23633220643569172,0.4738963482817024,-2.531510775338821,-0.6283380813319724,-1.7906710858079917
46,3.290261822505425,-1.8758922581332613,1.5553929831261488,5.471474634344103,-5.556197433896968,-1.5057765645068217,-0.2007054365176753,-0.23202809437836883,0.47960066969946713,-2.519792934952071,-0.6404547011745672,-1.781549140915465
47,3.2685718202751066,-1.8780307856860823,1.548274386982925,5.43911947342932,-5.559572948273961,-1.44434858815338,-0.20358311728157616,-0.22758104110989655,0.48538205297985276,-2.5087314271143373,-0.6515353443935868,-1.7713423438885723
48,3.2464153663839204,-1.8802153030787485,1.5410027027505993,5.40606850260239,-5.563021054357986,-1.381599580050402,-0.20624087138731842,-0.22300220502926002,0.4912306391854422,-2.498307456760657,-0.661452063650774,-1.7600858776152493
49,3.2237924608318678,-1.8824458103112605,1.5335779304291721,5.372321721863314,-5.566541752149043,-1.3175295401978877,-0.2086628523984242,-0.21830436859323807,0.4971357507090013,-2.4884786253109863,-0.670074913062082,-1.7478402300526694
50,3.200729017600107,-1.8847197523925157,1.526008574912482,5.337917787318323,-5.57013100877452,-1.2522118592485891,-0.21083180111596445,-0.21350733394769109,0.5030792496404666,-2.4791864564252046,-0.6772666554828805,-1.7347089107853095
51,3.1775619184437094,-1.8870039144381807,1.5184051998204362,5.30335922834841,-5.573736396890448,-1.1866006156882825,-0.21270968602545814,-0.20869689165533917,0.5089641919485305,-2.470455853391441,-0.6828363217069915,-1.7210137442917206
52,3.1543948192873117,-1.889288076483846,1.5108018247283905,5.268800669378497,-5.577341785006375,-1.1209893721279753,-0.21429143787706614,-0.20391041383685507,0.5147563646917122,-2.4621804057412535,-0.6867277411932007,-1.7069785236905868
53,3.1312277201309135,-1.8915722385295113,1.5031984496363449,5.2342421104085854,-5.580947173122303,-1.0553781285676687,-0.21558338091512189,-0.19916329103411562,0.5204486316726504,-2.454202104070579,-0.6889307058324344,-1.6927776050537118
54,3.108060620974516,-1.8938564005751763,1.4955950745442992,5.199683551438673,-5.5845525612382305,-0.989766885007362,-0.21659277068935756,-0.19447042779688178,0.5260340528593331,-2.446358387751391,-0.6894454042694496,-1.6785898777166754
55,3.0848935218181177,-1.8961405626208416,1.4879916994522535,5.16512499246876,-5.588157949354159,-0.9241556414470553,-0.21732775770388318,-0.1898461866796173,0.5315058958047463,-2.4384861253116012,-0.6882825617884726,-1.6645948245618702
56,3.06172642266172,-1.898424724666507,1.4803883243602076,5.1305664334988474,-5.591763337470087,-0.8585443978867477,-0.21779734763548703,-0.18530433483993117,0.5368576466185264,-2.4304256285748473,-0.685463284089716,-1.6509685473559643
57,3.038559323505322,-1.900708886712172,1.4727849492681617,5.096007874528935,-5.595368725586014,-0.7929331543264411,-0.2180113583078924,-0.18085799344866207,0.5420830204730236,-2.422024471603133,-0.6810186142637553,-1.6378799862572568
58,3.015392224348924,-1.9029930487578373,1.465181574176116,5.061449315559022,-5.598974113701942,-0.7273219107661344,-0.2179803736213832,-0.17651959010832557,0.5471759716271757,-2.4131409059884517,-0.6749888310287595,-1.6254875420861143
59,2.992225125192526,-1.9052772108035025,1.4575781990840704,5.026890756589109,-5.6025795018178695,-0.6617106672058273,-0.21771569464906826,-0.1723008144625667,0.5521307029526641,-2.4036467052913317,-0.6674225318654542,-1.6139362686812602
60,2.9690580260361283,-1.9075613728491676,1.4499748239920247,4.992332197619197,-5.606184889933798,-0.5960994236455206,-0.2172292881218881,-0.1682125771644863,0.5569416749478534,-2.393429326807431,-0.6583755554684589,-1.6033557472629694
61,2.9458909268797306,-1.9098455348948329,1.442371448899979,4.957773638649285,-5.609790278049725,-0.5304881800852135,-0.21653373253430278,-0.16426497235629267,0.5616036142261259,-2.3823933400458595,-0.6479098031363246,-1.5938586935030747
62,2.9227238277233325,-1.9121296969404982,1.4347680738079331,4.923215079679371,-5.613395666165653,-0.4648769365249068,-0.21564216211134127,-0.16046724379676353,0.5661115214662875,-2.3704611300685148,-0.6360920184082909,-1.585540289216801
63,2.8995567285669344,-1.9144138589861632,1.4271646987158875,4.88865652070946,-5.617001054281581,-0.3992656929646001,-0.21456820888535225,-0.15682775475654048,0.5704606788138726,-2.35757293347206,-0.6229925792170772,-1.5784781809391348
64,2.8763896294105367,-1.9166980210318285,1.4195613236238418,4.854097961739547,-5.620606442397508,-0.33365444940429256,-0.21332594313731343,-0.15335396178440505,0.5746466567232703,-2.3436863010767763,-0.6086843483395212,-1.5727330513445068
65,2.853222530254139,-1.9189821830774938,1.411957948531796,4.819539402769635,-5.6242118305134365,-0.2680432058439859,-0.21192981246295078,-0.15005239243047905,0.5786653202317377,-2.328775102808157,-0.5932416174589417,-1.5683496480239922
66,2.830055431097741,-1.9212663451231589,1.4043545734397502,4.7849808437997225,-5.627817218629364,-0.2024319622836792,-0.2103945797281319,-0.1469286269948236,0.582512834657523,-2.312828197650949,-0.5767391691024298,-1.5653581467154756
67,2.8068883319413427,-1.9235505071688241,1.3967511983477046,4.75042228482981,-5.631422606745292,-0.13682071872337254,-0.2087352601810436,-0.14398728435227112,0.58618567071545,-2.2958478873798973,-0.55925147022611,-1.563775730230171
68,2.783721232784945,-1.9258346692144892,1.3891478232556587,4.715863725859897,-5.635027994861219,-0.07120947516306497,-0.20696705799055137,-0.14123201188656684,0.5896806090444784,-2.277848260295598,-0.5408520020873304,-1.5636082767643027
69,2.7605541336285473,-1.9281188312601545,1.381544448163613,4.6813051668899845,-5.638633382977147,-0.005598231602758297,-0.2051053024808143,-0.1386654795491342,0.592994744142907,-2.2588535137814096,-0.5216127237033146,-1.5648520686632121
70,2.737387034472149,-1.9304029933058198,1.3739410730715673,4.646746607920072,-5.6422387710930755,0.06001301195754838,-0.2031653843317731,-0.136289378040062,0.5961254877080304,-2.2388963251032354,-0.5016036607817067,-1.5674954520611943
71,2.7142199353157515,-1.9326871553514848,1.3663376979795214,4.612188048950159,-5.645844159209003,0.12562425551785505,-0.20116269201348613,-0.13410442109132023,0.5990705713782225,-2.2180163207761434,-0.48089260842092724,-1.5715203968754785
72,2.6910528361593533,-1.9349713173971501,1.3587343228874758,4.5776294899802465,-5.649449547324931,0.19123549907816173,-0.19911254871950357,-0.13211035181483477,0.6018280488765336,-2.196258677550305,-0.45954493387453865,-1.5769039238560456
73,2.6678857370029556,-1.9372554794428154,1.35113094779543,4.543070931010334,-5.653054935440858,0.2568467426384693,-0.1970301500605798,-0.1303059530609632,0.604396297556056,-2.17367287347342,-0.4376234649420029,-1.583619379934104
74,2.6447186378465575,-1.9395396414884805,1.3435275727033842,4.508512372040421,-5.656660323556786,0.32245798619877597,-0.19493050277500854,-0.12868906171615274,0.6067740193484052,-2.1503115958752366,-0.4151884497641861,-1.5916375546626071
75,2.6215515386901598,-1.9418238035341457,1.3359241976113385,4.473953813070509,-5.660265711672714,0.38806922975908176,-0.19282836470579698,-0.1272565868522628,0.6089602411177948,-2.126229804418013,-0.3922975746674657,-1.60092763917538
76,2.5983844395337616,-1.944107965579811,1.3283208225192928,4.439395254100596,-5.663871099788642,0.4536804733193902,-0.19073818628779254,-0.12600453162418637,0.6109543144242618,-2.101483941256531,-0.3690060279628253,-1.6114580351148906
77,2.575217340377364,-1.946392127625476,1.320717447427247,4.404836695130683,-5.66747648790457,0.5192917168796969,-0.18867405377976354,-0.12492801879714877,0.6127559147006942,-2.0761312764293915,-0.34536659906695577,-1.6231970248146579
78,2.552050241220966,-1.9486762896711414,1.3131140723352013,4.370278136160771,-5.671081876020497,0.5849029604400036,-0.18664963446738161,-0.12402131977040146,0.6143650398493582,-2.050229374406716,-0.32142980382404734,-1.6361133161233392
79,2.528883142064568,-1.9509604517168067,1.3055106972431556,4.335719577190859,-5.674687264136425,0.6505142040003102,-0.184678124053093,-0.12327788695005816,0.6157820082646766,-2.0238356668195814,-0.29724402836856145,-1.6501764760514854
80,2.50571604290817,-1.9532446137624717,1.2979073221511097,4.301161018220947,-5.6782926522523525,0.7161254475606169,-0.18277219643803208,-0.12269038931057749,0.6170074562900119,-1.997007116419516,-0.2728556852168143,-1.6653572672822774
81,2.4825489437517723,-1.955528775808137,1.290303947059064,4.266602459251034,-5.681898040368281,0.7817366911209236,-0.180943956089518,-0.12225075097194464,0.6180423351172127,-1.9697999579545205,-0.24830937647349438,-1.6816279008218922
82,2.4593818445953746,-1.9578129378538023,1.2827005719670184,4.232043900281122,-5.685503428484209,0.8473479346812312,-0.17920489317528987,-0.12195019260797939,0.6188879071386502,-1.942269502660422,-0.22364806007368793,-1.6989622169143375
83,2.4362147454389764,-1.9600970998994673,1.2750971968749725,4.197485341311209,-5.689108816600136,0.9129591782415378,-0.17756584163258332,-0.12177927549045671,0.6195457417623975,-1.914469994272929,-0.19891321585115496,-1.7173358049903713
84,2.4130476462825787,-1.9623812619451326,1.2674938217829268,4.162926782341296,-5.692714204716064,0.9785704218018445,-0.1760369403264553,-0.12172794796389902,0.6200177107021305,-1.8864545057378488,-0.17414500893791005,-1.7367260719901212
85,2.3898805471261806,-1.9646654239907977,1.2598904466908811,4.128368223371384,-5.696319592831991,1.0441816653621512,-0.17462759743752584,-0.1217855941370219,0.6203059827542103,-1.8582748670478502,-0.14938244857216634,-1.7571122669829893
86,2.366713447969783,-1.966949586036463,1.2522870715988352,4.093809664401471,-5.6999249809479196,1.1097929089224579,-0.17334645820454267,-0.12194108456893092,0.6204130180752334,-1.8299816158092195,-0.12466354083711127,-1.7784754686638762
87,2.343546348813385,-1.9692337480821283,1.2446836965067898,4.059251105431558,-5.703530369063847,1.1754041524827645,-0.17220137613202186,-0.12218282872128192,0.6203415619741828,-1.801623963211008,-0.10002543418825276,-1.800798541065887
88,2.3203792496569866,-1.9715179101277935,1.2370803214147439,4.024692546461646,-5.707135757179775,1.241015396043072,-0.17119938775766036,-0.12249882894177437,0.6200946382340706,-1.7732497690191504,-0.07550455686781735,-1.8240660617150148
89,2.297212150500589,-1.9738020721734586,1.229476946322698,3.9901339874917334,-5.710741145295703,1.3066266396033797,-0.17034669105841263,-0.12287673573954346,0.6196755419787132,-1.74490552004913,-0.05113674546549709,-1.848264225469178
90,2.274045051344191,-1.9760862342191239,1.2218735712306523,3.9555754285218208,-5.71434653341163,1.3722378831636863,-0.16964862755806917,-0.1233039041092858,0.6190878321009942,-1.716636307290987,-0.026957363978739914,-1.8733807264338074
91,2.250877952187793,-1.978370396264789,1.2142701961386067,3.9210168695519085,-5.7179519215275585,1.437849126723993,-0.16910966818298892,-0.12376745065828024,0.6183353232696344,-1.6884857974839123,-0.0030014127644708635,-1.8994046196265566
92,2.2277108530313954,-1.9806545583104542,1.2066668210465608,3.886458310581996,-5.721557309643486,1.5034603702842997,-0.16873340289636302,-0.12425431128888159,0.6174220775321162,-1.6604961954821267,0.0206963732321678,-1.9263261634715332
93,2.2045437538749972,-1.9829387203561195,1.199063445954515,3.851899751612083,-5.725162697759414,1.5690716138446064,-0.16852253412512833,-0.12475129918852393,0.6163523955320187,-1.6327081942394686,0.0441014376282339,-1.9541366437358654
94,2.1813766547185995,-1.9852228824017848,1.1914600708624694,3.817341192642171,-5.728768085875342,1.634682857404913,-0.16847887397741496,-0.12524516287982887,0.6151308073595445,-1.6051609096890924,0.06717932785756016,-1.9828281791770168
95,2.158209555562202,-1.9875070444474499,1.1838566957704235,3.7827826336722583,-5.732373473991269,1.7002941009652197,-0.16860334523235768,-0.1257226440849985,0.6137620630545546,-1.577891798229461,0.08989563334189091,-2.0123935089489673
96,2.1350424564058037,-1.9897912064931151,1.176253320678378,3.748224074702346,-5.735978862107197,1.7659053445255264,-0.16889598606820833,-0.12617053516130522,0.6122511227818845,-1.5509365549717757,0.11221593748877873,-2.042825761721853
97,2.111875357249406,-1.9920753685387802,1.1686499455863322,3.7136655157324334,-5.739584250223125,1.831516588085834,-0.16935595847908186,-0.12657573586814927,0.6106031466991435,-1.524328991380191,0.13410578452603453,-2.074118206507903
98,2.088708258093008,-1.9943595305844455,1.1610465704942863,3.6791069567625208,-5.743189638339053,1.8971278316461406,-0.16998156031539685,-0.1269253092307909,0.608823484537584,-1.4981008914668714,0.1555306622745404,-2.1062639853629435
99,2.0655411589366097,-1.9966436926301108,1.1534431954022406,3.6445483977926076,-5.746795026454981,1.9627390752064482,-0.1707702408681808,-0.12720653627148498,0.606917664916976,-1.472281846310168,0.17645600203582876,-2.1392558284539227
100,2.042477715704849,-1.998917634711366,1.1458738398855506,3.610144463247617,-5.7503842830804555,2.028056756155748,-0.17171402683607553,-0.12740627062416657,0.6049007102138138,-1.4470116277327982,0.19675720193432455,-2.1729325345266237
101,2.0198548101527956,-2.0011481419438777,1.1384490675641232,3.576397682508541,-5.753904980871513,2.0921267960082606,-0.1727895696929268,-0.12751284635283372,0.6028118690170943,-1.42266763493371,0.21612335913538294,-2.206764353846232
102,1.9976983562616093,-2.0033326593365444,1.1311773833317977,3.5433467116816106,-5.757353086955538,2.1548758041112395,-0.17398225481009097,-0.12752084859171564,0.6006655165265153,-1.3992710991071982,0.23453369755186454,-2.240655680381572
103,1.9760083540312912,-2.005471186889365,1.1240587871885737,3.510991550766826,-5.760728601332531,2.216303780464682,-0.17527856372068157,-0.12742667780829373,0.5984731290215173,-1.3768102381848406,0.2519938319232012,-2.274549066193555
104,1.9547848034618394,-2.00756372460234,1.1170932791344512,3.4793321997641895,-5.764031524002491,2.276410725068586,-0.17666522449417665,-0.12722817130514869,0.5962454875495153,-1.3552693651903476,0.26851250237773006,-2.308387827740455
105,1.9340277045532552,-2.0096102724754696,1.1102808591694306,3.4483686586736972,-5.76726185496542,2.335196637922956,-0.17812931722029793,-0.12692449278710746,0.5939926854585051,-1.334629356538934,0.28410142104195263,-2.3421160775458087
106,1.913737057305537,-2.011610830508754,1.1036215272935115,3.41810092749535,-5.770419594221316,2.3926615190277865,-0.17965836330619736,-0.1265160200363238,0.5917241394826953,-1.3148681205561685,0.29877511334482376,-2.3756788008889593
107,1.8939128617186864,-2.013565398702192,1.0971152835066937,3.3885290062291515,-5.77350474177018,2.4488053683830833,-0.18124039951328647,-0.1260042322580616,0.589448603948543,-1.295961063863286,0.31255075193672366,-2.4090219700478905
108,1.8745551177927036,-2.0154739770557843,1.0907621278089779,3.3596528948750963,-5.7765172976120125,2.5036281859888447,-0.18286403773780915,-0.1253915984582915,0.5871741876914496,-1.2778815523130815,0.3254479819191369,-2.4420926882292724
109,1.8556638255275861,-2.017336565569532,1.084562060200363,3.331472593433187,-5.779457261746813,2.5571299718450664,-0.1845185115915849,-0.1246814680208599,0.5849083732971804,-1.2606013624231338,0.3374887368184306,-2.4748393551007832
110,1.8372389849233377,-2.0191531642434337,1.0785150806808503,3.3039881019034247,-5.782324634174581,2.6093107259517536,-0.1861937108692224,-0.1238779644688025,0.5826580383064682,-1.2440911187706702,0.3486970454203701,-2.5072118458248585
111,1.8192805959799552,-2.0209237730774894,1.0726211892504387,3.2771994202858084,-5.785119414895318,2.6601704483089037,-0.18788020499832495,-0.12298588322269136,0.5804294780459377,-1.22832071259912,0.35909883019542893,-2.5391616956970138
112,1.8017886586974394,-2.0226483920716998,1.066880385909129,3.2511065485803368,-5.787841603909021,2.7097091389165193,-0.1895692565625581,-0.12201059400970629,0.5782284297731514,-1.2132596969390466,0.36872169857396775,-2.5706422829174707
113,1.784763173075791,-2.0243270212260644,1.0612926706569208,3.225709486787011,-5.790491201215692,2.757926797774596,-0.19125282596653814,-0.12095794843098995,0.576060097848014,-1.1988776538493893,0.3775947287628419,-2.6016090026593597
114,1.7682041391150105,-2.0259596605405834,1.0558580434938143,3.201008234905834,-5.793068206815332,2.8048234248831374,-0.19292356827874665,-0.11983419306209972,0.5739291796667263,-1.1851445299076522,0.3857482521225037,-2.6320194264130885
115,1.7521115568150964,-2.027546310015257,1.0505765044198099,3.1770027929367997,-5.795572620707939,2.8503990202421434,-0.19457482324637,-0.11864588834199774,0.5718398921178668,-1.1720309367790294,0.39321363434203677,-2.661833441547406
116,1.7364854261760496,-2.0290869696500846,1.0454480534349064,3.1536931608799117,-5.798004442893515,2.8946535838516123,-0.19620059942613496,-0.11739983339983932,0.5697959983427449,-1.159508414524514,0.4000230577595492,-2.6910133670871574
117,1.7213257471978705,-2.0305816394450673,1.0404726905391046,3.131079338735171,-5.8003636733720585,2.937587115711546,-0.19779555331977738,-0.11610299687545021,0.5678008346038694,-1.1475496562145535,0.4062093071823956,-2.719524042816413
118,1.7066325198805568,-2.032030319400204,1.0356504157324045,3.1091613265025755,-5.80265031214357,2.9791996158219423,-0.19935496434335054,-0.11476245370826761,0.5658573370861132,-1.1361286933441854,0.4118055614751177,-2.747332889923499
119,1.6924057442241112,-2.0334330095154947,1.0309812290148057,3.0879391241821255,-5.804864359208048,3.0194910841827998,-0.20087470639767596,-0.11338532780005575,0.5639680684747919,-1.125221042449307,0.41684519301610823,-2.7744099424653315
120,1.6786454202285332,-2.03478970979094,1.0264651303863088,3.067412731773821,-5.807005814565496,3.0584615207941237,-0.20235121674413495,-0.11197874039809598,0.5621352441734632,-1.114803814159173,0.4213615768918696,-2.800727849902453
121,1.6653515478938203,-2.03610042022654,1.0221021198469133,3.0475821492776642,-5.809074678215911,3.0961109256559087,-0.20378146282676154,-0.11054976399709708,0.5603607580416311,-1.1048557866538529,0.4253879114173622,-2.826261851811746
122,1.6525241272199764,-2.037365140822294,1.0178921973966195,3.028447376693652,-5.811070950159293,3.13243929876816,-0.20516290761922804,-0.10910538151886186,0.5586462075488289,-1.0953574461034832,0.4289570512589857,-2.8509897265995243
123,1.6401631582069989,-2.038583871578203,1.013835363035427,3.010008414021785,-5.812994630395644,3.1674466401308745,-0.20649347401453153,-0.10765245049800232,0.5569929182566029,-1.0862909971353798,0.43210135410979866,-2.8748917166014274
124,1.628268640854889,-2.0397566124942657,1.009931616763337,2.992265261262066,-5.814845718924963,3.2011329497440535,-0.20777150871665265,-0.10619767197886765,0.5554019675538583,-1.0776403467009825,0.4348525415389838,-2.8979504323649197
125,1.616840575163645,-2.0408833635704835,1.006180958580348,2.975217918414492,-5.81662421574725,3.2334982276076953,-0.2089957460376708,-0.10474756381250493,0.5538742075837818,-1.0693910649019396,0.43724157432229754,-2.920150739170788
126,1.6058789611332691,-2.041964124806855,1.0025833884864606,2.9588663854790633,-5.8183301208625045,3.2645424737217983,-0.2101652719511634,-0.10330843803212737,0.5524102873122125,-1.0615303263935763,0.4392985422671638,-2.9414796289736147
127,1.59538379876376,-2.0429988962033816,0.9991389064816747,2.9432106624557814,-5.8199634342707265,3.2942656880863677,-0.21127948870345228,-0.10188638198047317,0.5510106736978647,-1.0540468359310562,0.44105256828301714,-2.9619260809449544
128,1.585355088055119,-2.043987677760062,0.9958475125659905,2.9282507493446444,-5.821524155971916,3.3226678707013964,-0.21233808023860454,-0.10048724286186154,0.5496756719343068,-1.0469307414767286,0.44253172621937353,-2.981480913706
129,1.5757928290073426,-2.044930469476897,0.9927092067394077,2.913986646145653,-5.823012285966074,3.349749021566895,-0.2133409786511341,-0.09911661539503791,0.5484054447420691,-1.0401735380668804,0.44376297180357466,-3.0001366321601783
130,1.5666970216204357,-2.045827271353886,0.9897239890019267,2.900418352858808,-5.8244278242532,3.375509140682855,-0.21428833184211912,-0.09777983224943557,0.5472000306967498,-1.0337679653626513,0.4447720858581025,-3.017887271600832
131,1.558067665894395,-2.04667808339103,0.9868918593535472,2.88754586948411,-5.825770770833294,3.3999482280492774,-0.21518047251995642,-0.09648195695667323,0.546059361585578,-1.02770790150134,0.4455836288625126,-3.034728241494596
132,1.5499047618292199,-2.047482905588328,0.9842128177942693,2.8753691960215564,-5.827041125706357,3.4230662836661647,-0.21601788865610083,-0.09522777900049836,0.544983278790564,-1.021988255538576,0.4462209058452877,-3.050656171044441
133,1.5422083094249146,-2.048241737945781,0.981686864324093,2.8638883324711495,-5.828238888872386,3.4448633075335113,-0.21680119547883722,-0.09402181080145361,0.5439715487012784,-1.0166048604424696,0.44670594054295576,-3.0656687583329547
134,1.534978308681474,-2.0489545804633873,0.9793139989430186,2.8531032788328883,-5.829364060331384,3.465339299651328,-0.2175311090642184,-0.09286828632691521,0.5430238771643688,-1.0115543682801942,0.44705945774391126,-3.0797646245481727
135,1.5282147595989022,-2.049621433141149,0.9770942216510454,2.8430140351067728,-5.830416640083349,3.4844942600196074,-0.21820842156262793,-0.09177116107250594,0.5421399229803172,-1.0068341489344896,0.4473008727383971,-3.0929431745106797
136,1.5219176621771977,-2.0502422959790643,0.9750275324481741,2.833620601292803,-5.8313966281282825,3.502328188638346,-0.21883397808183563,-0.09073411317680567,0.5413193104606384,-1.0024421934085648,0.44744828682000143,-3.1052044644590038
137,1.5160870164163578,-2.050817168977135,0.9731139313344042,2.8249229773909788,-5.8323040244661835,3.5188410855075514,-0.21940865523265876,-0.08976054544765931,0.5405616410608062,-0.9983770225278608,0.4475184878238745,-3.1165490778147036
138,1.5107228223163869,-2.0513460521353593,0.9713534183097357,2.816921163401302,-5.833138829097052,3.5340329506272194,-0.21993334133129158,-0.08885358809483335,0.539866504105679,-0.9946376016276498,0.4475269547389099,-3.126978009442041
139,1.5058250798772832,-2.0518289454537384,0.969745993374169,2.80961515932377,-5.83390104202089,3.547903783997352,-0.22040891824275582,-0.08801610198025725,0.5392334866252073,-0.991223261627905,0.4474878654923077,-3.1364925587406183
140,1.501393789099044,-2.0522658489322714,0.9682916565277038,2.803004965158383,-5.834590663237695,3.5604535856179496,-0.22083624484258324,-0.0872506822133661,0.5386621823186573,-0.9881336267404932,0.4474141070721942,3.138091075417154
141,1.4974289499816749,-2.052656762570959,0.9669904077703402,2.797090580905145,-5.835207692747469,3.5716823554890063,-0.22121614206856902,-0.08655966193507277,0.538152199665689,-0.9853685489272787,0.4473172872250923,3.1304006547529344
142,1.4939305625251729,-2.053001686369801,0.9658422471020782,2.7918720065640503,-5.835752130550208,3.5815900936105294,-0.22154937953099904,-0.08594511614953146,0.5377031692022404,-0.9829280491289355,0.4472077470380509,3.1236198243658397
143,1.4908986267295354,-2.0533006203287973,0.9648471745229179,2.787349242135101,-5.836223976645917,3.5901767999825154,-0.2218366636480139,-0.0854088654781113,0.5373147499785227,-0.9808122652108556,0.44709457378859085,3.117746954726349
144,1.488333142594767,-2.0535535644479483,0.964005190032859,2.7835222876182995,-5.8366232310345945,3.597442474604966,-0.22207862727247524,-0.08495247972475557,0.5369866352153839,-0.9790214065216128,0.4469856135183061,3.1127805107057287
145,1.4862341101208658,-2.053760518727254,0.9633162936319017,2.7803911430136425,-5.836949893716238,3.6033871174778813,-0.22227582077774688,-0.08457728115625139,0.5367185571740477,-0.9775557149283799,0.4468874828570507,3.1087191047212075
146,1.484601529307831,-2.053921483166713,0.9627804853200466,2.7779558083211313,-5.8372039646908505,3.6080107286012577,-0.22242870457192565,-0.08428434741483423,0.5365102912526825,-0.9764154321794961,0.4468055796938396,3.105561541344393
147,1.4834354001556633,-2.054036457766327,0.9623977650972926,2.7762162835407667,-5.837385443958431,3.6113133079750988,-0.2225376430131797,-0.08407451399402195,0.5363616593215373,-0.9756007734445873,0.44674409235758233,3.1033068535370463
148,1.482735722664362,-2.0541054425260956,0.96216813296364,2.7751725686725486,-5.837494331518979,3.6132948555994027,-0.22260289970275127,-0.08394837622168315,0.5362725323064866,-0.9751119068945551,0.44670600703550184,3.1019543306633235
149,1.4825024968339289,-2.0541284374460185,0.9620915889190893,2.7748246637164753,-5.837530627372495,3.6139553714741712,-0.2226246341367296,-0.08390629070714753,0.5362428320287562,-0.9749489392049377,0.4466931132199664,3.101503538403515
