nimar13/UR3e_dataset_trayectorias/data/trayectorias_completas_UR3e_TRAPEZOIDAL/trayectoria_185.csv
Punto,shoulder_pan_joint,shoulder_lift_joint,elbow_joint,wrist_1_joint,wrist_2_joint,wrist_3_joint,Posicion_X,Posicion_Y,Posicion_Z,Roll,Pitch,Yaw
0,0.18237279097450898,5.686171753084788,-0.007683293753017129,1.0997474748924851,-5.603810891355228,-0.569975463773778,0.3448741235879619,0.2690003124375484,0.3165220891420386,-0.17619162035225233,0.30661251353968405,1.1319664036089445
1,0.18259216951766988,5.6858629069864755,-0.0074551833258321145,1.099574188453384,-5.603630411756063,-0.5694168523455733,0.3448026488195645,0.2690629787254487,0.31659508275122855,-0.17590295395351588,0.30653421808528597,1.131946437644636
2,0.18325030514715257,5.684936368691537,-0.0067708520442770715,1.0990543291360806,-5.6030889729585684,-0.5677410180609592,0.34458804606123167,0.2692508321337719,0.3168140602633139,-0.17503664961991489,0.30629876522693567,1.1318866220531092
3,0.18434719786295709,5.683392138199973,-0.005630299908352001,1.0981878969405747,-5.602186574962745,-0.5649479609199357,0.34422978040944524,0.2695634354574977,0.3171790113668892,-0.17359178965637473,0.3059044563639206,1.1317872060709355
4,0.18588284766508337,5.681230215511784,-0.0040335269180569,1.0969748918668667,-5.600923217768591,-0.561037680922503,0.34372696188428903,0.27000005722740134,0.3176899176592023,-0.17156683698213337,0.305348463462545,1.1316486128411194
5,0.18785725455353147,5.678450600626968,-0.0019805330733917723,1.0954153139149563,-5.599298901376106,-0.5560101780686607,0.3430783477402933,0.270559667526176,0.31834675081858016,-0.1689596238201728,0.30462683357122905,1.1314714509453436
6,0.19027041852830137,5.675053293545528,0.0005286816256433822,1.0935091630848435,-5.597313625785294,-0.5498654523584091,0.3422823457454317,0.27124093214605277,0.3191494700419232,-0.16576733600939747,0.3037344952683908,1.1312565303661566
7,0.19312233958939307,5.671038294267461,0.0034941171790485673,1.0912564393765285,-5.59496739099615,-0.5426035037917482,0.34133701847201214,0.2720422051034838,0.32009801874347005,-0.1619864930894089,0.30266526716745024,1.1310048826931587
8,0.19641301773680656,5.66640560279277,0.006915773586823782,1.0886571427900111,-5.592260197008677,-0.5342243323686778,0.3402400886555782,0.2729615195316479,0.3211923205100504,-0.15761292435436322,0.3014118686354269,1.1307177853301273
9,0.20014245297054187,5.6611552191214525,0.010793650848969022,1.0857112733252914,-5.589192043822875,-0.5247279380891982,0.33898894569022264,0.2739965769772968,0.3224322743071658,-0.15264174112163686,0.29996593291106705,1.1303967894000926
10,0.20431064529059895,5.655287143253509,0.015127748965484297,1.0824188309823695,-5.585762931438742,-0.5141143209533091,0.3375806533408532,0.2751447351348836,0.32381774892949305,-0.14706730551304012,0.2983180228345851,1.1300437509825623
11,0.20891759469697785,5.648801375188941,0.019918067936369598,1.0787798157612452,-5.58197285985628,-0.5023834809610106,0.3360119587649158,0.2764029940581693,0.3253485766887488,-0.1408831961010802,0.2964576494233187,1.1296608652512072
12,0.21396330118967855,5.641697914927747,0.025164607761624914,1.0747942276619187,-5.577821829075488,-0.4895354181123028,0.334279302947807,0.2777679808976697,0.3270245463314172,-0.13408217083000973,0.2943732935450641,1.1292507030116938
13,0.21944776476870104,5.633976762469927,0.03086736844125027,1.0704620666843896,-5.573309839096367,-0.4755701324071856,0.3323788326676187,0.279235933221523,0.3288453951785187,-0.1266561276805115,0.2920524309529487,1.1288162490683837
14,0.22537098543404532,5.625637917815482,0.037026349975245655,1.0657833328286583,-5.568436889918916,-0.460487623845659,0.3303064141159103,0.2808026809877676,0.33081080047955175,-0.1185960636070467,0.2894815609515944,1.1283609417762008
15,0.2317329631857114,5.616681380964411,0.043641552363611065,1.060758026094725,-5.563202981543135,-0.44428789242772304,0.3280576483117464,0.28246362724768564,0.3329203699728724,-0.10989203233673606,0.28664623896337194,1.1278887130611457
16,0.2385336980236993,5.607107151916714,0.050712975606346515,1.055386146482589,-5.5576081139690245,-0.42697093815337767,0.325627888456218,0.2842137276729605,0.33517363164519465,-0.10053310167664484,0.28353111325505637,1.1274040281213387
17,0.245773189948009,5.596915230672392,0.058240619703451985,1.049667693992251,-5.551652287196584,-0.40853676102262293,0.32301225938390143,0.28604746901398814,0.3375700226836025,-0.0905073110304601,0.2801199660685622,1.126911923951795
18,0.2534514389586405,5.5861056172314445,0.06622448465492747,1.0436026686237103,-5.545335501225814,-0.3889853610354589,0.3202056792760875,0.2879588466128727,0.3401088776144909,-0.07980162987348861,0.27639575937418287,1.1264180457725974
19,0.2615684450555938,5.574678311593871,0.07466457046077302,1.0371910703769676,-5.538657756056714,-0.3683167381918854,0.3172028838079577,0.289941341112542,0.34278941562520804,-0.06840191797389504,0.27234068543064727,1.125928680384195
20,0.27012420823886885,5.562633313759672,0.08356087712098857,1.0304328992520224,-5.531619051689285,-0.3465308924919025,0.31399845290796713,0.29198789452308954,0.3456107270659526,-0.05629288817543719,0.26793622229302494,1.125450785427822
21,0.27911872850846575,5.549970623728848,0.09291340463557414,1.023328155248875,-5.524219388123526,-0.32362782393551026,0.3105868403123658,0.2940908858279713,0.3485717591316205,-0.043458072569378454,0.26316319435747154,1.1249920134962514
22,0.28855200586438445,5.5366902415013985,0.10272215300452978,1.0158768383675252,-5.516458765359436,-0.2996075325227086,0.30696240610073333,0.29624210633609643,0.35167130072594277,-0.02987979287776583,0.2580018379711101,1.124560730023139
23,0.29842404030662495,5.5227921670773235,0.1129871222278554,1.0080789486079733,-5.508337183397018,-0.2744700182534977,0.3031194523994186,0.2984327350111786,0.3549079665133365,-0.01553913584379479,0.2524318720670441,1.1241660238805777
24,0.30873483183518724,5.508276400456622,0.12370831230555104,0.9999344859702188,-5.4998546422362695,-0.24821528112787733,0.2990522624385273,0.30065331403697265,0.35828018016753094,-0.0004159343747553558,0.24643257370945643,1.1238177096365247
25,0.3194843804500713,5.493142941639295,0.13488572323761677,0.9914434504542622,-5.491011141877191,-0.22084332114584754,0.2947551431442914,0.30289372490616584,0.3617861568302001,0.015511244893328986,0.2399828583536388,1.1235263204683839
26,0.3306726861512772,5.477391790625343,0.14651935502405247,0.9826058420601032,-5.4818066823197835,-0.1923541383074085,0.29022247144194135,0.3051431653516814,0.36542388479761806,0.032265107044488706,0.23306136454233856,1.1233030907971333
27,0.3422997489388049,5.461022947414765,0.15860920766485823,0.973421660787742,-5.4722412635640465,-0.16274773261255998,0.2854487444342155,0.30739012747187955,0.36919110645874387,0.04986962691334782,0.22564654267534737,1.1231599277984665
28,0.35436556881265435,5.444036412007562,0.171155281160034,0.9638909066371782,-5.462314885609979,-0.1320241040613021,0.28042863360698717,0.30962237743546195,0.3730852985142216,0.06835003942786379,0.2177167474062613,1.1231093710624258
29,0.3668701457728256,5.426432184403733,0.1841575755095798,0.9540135796084124,-5.452027548457582,-0.10018325265363492,0.2751570431957797,0.3118269371876174,0.37710365151254555,0.08773282218495625,0.209250333141654,1.123164539809117
30,0.3798134798193187,5.408210264603278,0.19761609071349565,0.9437896797014441,-5.441379252106856,-0.06722517838955833,0.2696291728247137,0.3139900686158358,0.38124304874714293,0.10804567039587923,0.20022575204655033,1.1233390672218855
31,0.39319557095213364,5.389370652606199,0.21153082677178153,0.9332192069162735,-5.430369996557799,-0.03314988126907226,0.2638405845022943,0.31609726067154537,0.3855000445663942,0.12931746457726015,0.19062165389905764,1.1236470216261945
32,0.4070164191712703,5.369913348412493,0.22590178368443745,0.9223021612529007,-5.418999781810413,0.0020426387078231745,0.25778727402590257,0.318133219981941,0.389870842157679,0.1515782316214341,0.1804169870894311,1.1241028144165746
33,0.42127602447672874,5.349838352022162,0.24072896145146333,0.9110385427113254,-5.407268607864697,0.038352381541127856,0.2514657468085182,0.3200818655245845,0.3943512708764043,0.17485910015107636,0.16959110002757197,1.1247210948080246
34,0.4359743868685091,5.329145663435205,0.2560123600728593,0.899428351291548,-5.395176474720651,0.07577934723084212,0.24487309809654867,0.32192632797505194,0.39893676320170457,0.19919225134246923,0.1581238422104783,1.1255166316543714
35,0.4511115063466111,5.307835282651622,0.2717519795486253,0.8874715869935681,-5.382723382378276,0.11432353577696552,0.23800709749634602,0.32364895437445007,0.4036223314120736,0.22461086668314312,0.1459956642098383,1.1265041827250653
36,0.466687382911035,5.285907209671414,0.2879478198787613,0.8751682498173861,-5.369909330837571,0.1539849471794984,0.23086627766855772,0.32523131879830164,0.40840254408662546,0.2511490744072422,0.1331877158713151,1.1276983519546233
37,0.4827020165617807,5.263361444494581,0.30459988106326735,0.8625183397630016,-5.3567343200985365,0.19476358143844075,0.22345002698359423,0.32665423974028124,0.4132715025509979,0.2788418966204606,0.11968194207227324,1.1291134352657064
38,0.4991554072988482,5.240197987121122,0.32170816310214345,0.8495218568304148,-5.343198350161172,0.23665943855379246,0.21575868585786784,0.3278978049526756,0.41822281740107314,0.30772519938161447,0.10546117546427607,1.1307632556083904
39,0.5160475551222374,5.216416837551037,0.3392726659953895,0.8361788010196257,-5.3293014210254785,0.2796725185255535,0.20779364640879777,0.3289414045091511,0.4232495852526909,0.33783564824697637,0.09050922573053473,1.13266098784553
40,0.5333784600319486,5.192017995784327,0.3572933897430057,0.8224891723306343,-5.315043532691455,0.32380282135372385,0.19955745497679134,0.3297637728733812,0.4283443658813844,0.3692106720057103,0.07481096501593028,1.1348189740391623
41,0.5511481220279814,5.167001461820991,0.37577033434499174,0.8084529707634407,-5.300424685159101,0.36905034703830353,0.19105391696437332,0.33034304076797977,0.4334991599327282,0.4018884375416766,0.058352409337353535,1.1372485295480261
42,0.5693565411103361,5.141367235661029,0.39470349980134795,0.7940701963180448,-5.285444878428418,0.4154150955792927,0.18228820333649243,0.3306567976407206,0.4387053874012469,0.43590783895283036,0.04112079595346772,1.1399597401250805
43,0.5880037172790125,5.115115317304443,0.4140928861120741,0.7793408489944464,-5.270104112499405,0.462897066976691,0.17326695801194136,0.3306821655176713,0.4439538670937738,0.47130850425184634,0.023104656864380124,1.142961249900245
44,0.6070896505340109,5.08824570675123,0.4339384932771705,0.7642649287926456,-5.254402387372062,0.5114962612304994,0.16399840525422915,0.330395885014133,0.44923479731170246,0.5081308231710561,0.004293888821881673,1.1462600397419862
45,0.626614340875331,5.060758404001391,0.4542403212966367,0.7488424357126426,-5.23833970304639,0.5612126783407165,0.15449245604170725,0.32977441424247167,0.4545377380055388,0.5464159998154366,-0.015320179540617327,1.1498611950059414
46,0.6465777883029729,5.032653409054928,0.47499837017047297,0.7330733697544375,-5.221916059522387,0.612046318307343,0.1447608122620973,0.3287940413093775,0.4598515946744967,0.5862061341669996,-0.03574472260249228,1.1537676610929306
47,0.6669799928169364,5.003930721911838,0.49621263989867925,0.71695773091803,-5.205131456800056,0.6639971811303791,0.13481706743685432,0.32743101103200273,0.46516460430335277,0.6275443367640305,-0.05698535355188409,1.1579799845441978
48,0.6878209544172219,4.974590342572124,0.5178831304812556,0.7004955192034201,-5.187985894879394,0.7170652668098245,0.12467680253740396,0.325661666421061,0.4704643236482691,0.6704748812850856,-0.07904605967071696,1.1624960365873596
49,0.7091006731038291,4.9446322710357835,0.5400098419182019,0.6836867346106079,-5.170479373760403,0.7712505753456791,0.11435767530979417,0.32346260537751326,0.4757376202026027,0.7150434002905669,-0.10192913537841959,1.1673107150976416
50,0.7307947734830738,4.914090823535963,0.5625674286064979,0.6665506311883823,-5.152631946731878,0.8264910388014766,0.10389122424435754,0.3208140589048048,0.48096487927561127,0.7612447832722072,-0.12560831433088898,1.1724097906944069
51,0.7525863754370563,4.883412111103559,0.5852263977068759,0.6493375115710007,-5.134704306548168,0.8819797740031423,0.09345040977713079,0.3177427478347557,0.48605922174079597,0.8084335341273171,-0.14972808498108256,1.1777025585305807
52,0.7743779773910391,4.852733398671155,0.6078853668072539,0.6321243919536192,-5.116776666364459,0.9374685092048081,0.08310074603523808,0.3142630939510696,0.4909916428796606,0.8564068826856923,-0.1741608133859036,1.183141962242475
53,0.7961695793450216,4.822054686238752,0.6305443359076319,0.6149112723362377,-5.09884902618075,0.9929572444064734,0.07286047576004827,0.31037946871551525,0.49575711284000196,0.9051691000241977,-0.19888483869794546,1.1887021298784057
54,0.8179611812990044,4.791375973806348,0.6532033050080102,0.5976981527188561,-5.080921385997041,1.0484459796081391,0.06274769686162716,0.30609717024630106,0.5003507483974996,0.9547257760746114,-0.22387879009838607,1.1943558357200335
55,0.839752783252987,4.760697261373944,0.6758622741083882,0.5804850331014746,-5.062993745813332,1.1039347148098049,0.052780313037332764,0.30142241929022806,0.5047678207384981,1.0050840022423522,-0.2491215379991008,1.2000744403617456
56,0.86154438520697,4.7300185489415405,0.6985212432087664,0.5632719134840929,-5.045066105629623,1.159423450011471,0.0429759843794966,0.29636235243223835,0.5090037631127797,1.0562525591348253,-0.27459213871385013,1.2058278093185182
57,0.8833359871609525,4.699339836509137,0.7211802123091444,0.5460587938667113,-5.027138465445913,1.2149121852131368,0.03335207813055468,0.2909250125286766,0.5130541783428991,1.1082421116049814,-0.30026977247822784,1.211584209399838
58,0.9051275891149353,4.668661124076733,0.7438391814095224,0.5288456742493298,-5.009210825262204,1.2704009204148021,0.023925619745538355,0.28511933635985987,0.5169148461767652,1.1610654134475036,-0.32613367455569786,1.2173101819199625
59,0.9269191910689178,4.63798241164433,0.7664981505099004,0.5116325546319482,-4.991283185078495,1.3258896556164679,0.014713244422831007,0.2789551395069602,0.520581730470275,1.2147375242107767,-0.3521630590158333,1.2229703916332704
60,0.9487107930229006,4.607303699211926,0.7891571196102785,0.49441943501456675,-4.973355544894785,1.3813783908181336,0.005731149264519137,0.27244309846772363,0.5240509861869788,1.2692760407052528,-0.3783370346094327,1.2285274500960446
61,0.9705023949768832,4.576624986779523,0.8118160887106565,0.47720631539718505,-4.955427904711076,1.4368671260197994,-0.003004953772460967,0.26559473003513195,0.5273189662019085,1.3247013458921926,-0.40463451199150796,1.233941711973277
62,0.9922939969308662,4.545946274347118,0.8344750578110347,0.4599931957798036,-4.937500264527367,1.4923558612214656,-0.011479883973917502,0.2584223679727039,0.5303822278969333,1.3810368779158508,-0.4310341013555212,1.2391710426452451
63,1.0140855988848487,4.515267561914715,0.8571340269114129,0.4427800761624219,-4.919572624343657,1.5478445964231313,-0.01967903685555431,0.25093913702977133,0.5332375395352035,1.4383094220806518,-0.4575139993382528,1.2441705553431017
64,1.0358772008388315,4.484588849482312,0.879792996011791,0.4255669565450404,-4.901644984159948,1.6033333316247966,-0.02758842788240445,0.24315892434959538,0.5358818864025284,1.496549428548375,-0.484051863832996,1.2488923159823324
65,1.057668802792814,4.453910137049908,0.902451965112169,0.4083538369276589,-4.8837173439762385,1.6588220668264624,-0.03519473476571342,0.23509634833270718,0.5383124767037661,1.5557913584034067,-0.5106246751075587,1.2532850139049274
66,1.0794604047467968,4.423231424617504,0.925110934212547,0.3911407173102772,-4.8657897037925295,1.7143108020281281,-0.04248533818551268,0.226766725027214,0.5405267472026363,1.616074060456274,-0.5372085813629973,1.257293596937332
67,1.1012520067007796,4.3925527121851005,0.9477699033129252,0.3739275976928955,-4.8478620636088205,1.7697995372297943,-0.0494483607907316,0.2181860321270544,0.5425223685936663,1.6774411806567193,-0.5637787265900827,1.2608588695926317
68,1.1230436086547624,4.361873999752697,0.9704288724133032,0.35671447807551404,-4.829934423425112,1.82528827243146,-0.05607270433289891,0.20937087066822352,0.5442972505953194,1.7399416051700056,-0.5903090582876005,1.2639170539903732
69,1.144835210608745,4.331195287320293,0.9930878415136812,0.33950135845813256,-4.812006783241402,1.8807770076331254,-0.06234808479423217,0.2003384245218205,0.5458495467537297,1.8036299369010058,-0.6167721123079246,1.2663993142689
70,1.1666268125627277,4.300516574887889,1.0157468106140592,0.32228823884075086,-4.794079143057693,1.9362657428347911,-0.06826506537622004,0.19110641779133847,0.5471776589468306,1.8685670033497837,-0.6431387718056704,1.268231247103612
71,1.1884184145167103,4.269837862455486,1.0384057797144375,0.3050751192233694,-4.776151502873983,1.9917544780364569,-0.07381508722062922,0.18169307022990544,0.5482802415790927,1.9348203909087582,-0.669377997008767,1.2693323436610313
72,1.210210016470693,4.239159150023083,1.0610647488148155,0.2878619996059879,-4.758223862690274,2.0472432132381226,-0.07899049774123136,0.17211705080113945,0.5491562054574822,2.0024649967465513,-0.6954565223459044,1.2696154322315667
73,1.2320016184246758,4.208480437590678,1.0837237179151937,0.2706488799886062,-4.740296222506565,2.1027319484397884,-0.0837845764513831,0.16239742951489228,0.5498047213397124,2.071583583853203,-0.7213385174073987,1.2689861163070573
74,1.2537932203786586,4.177801725158275,1.1063826870155717,0.2534357603712247,-4.722368582322856,2.1582206836414546,-0.08819155817994004,0.15255362767638145,0.5502252231463128,2.142267317117554,-0.7469852083730956,1.2673422305306499
75,1.275584822332641,4.147123012725872,1.1290416561159495,0.23622264075384325,-4.704440942139146,2.21370941884312,-0.09220665357576546,0.14260536669399357,0.5504174108285235,2.214616247816702,-0.7723544570336434,1.2645733473991532
76,1.2973764242866241,4.116444300293468,1.151700625216328,0.21900952113646133,-4.686513301955436,2.269198154044786,-0.0958260668093203,0.13257261559742786,0.5503812528845045,2.288739699840827,-0.7974002955336797,1.2605603816205273
77,1.3191680262406067,4.085765587861063,1.174359594316706,0.20179640151907985,-4.668585661771727,2.3246868892464523,-0.09904701038845334,0.12247553742370818,0.5501169885168857,2.3647564924829902,-0.8220724167169394,1.2551753574922466
78,1.3409596281945895,4.05508687542866,1.197018563417084,0.18458328190169837,-4.650658021588018,2.3801756244481176,-0.10186771701451905,0.11233443463398828,0.5496251294251809,2.4427949108166285,-0.8463156227755981,1.2482814284461063
79,1.362751230148572,4.024408162996257,1.2196775325174622,0.1673701622843169,-4.6327303814043095,2.435664359649783,-0.10428744841431452,0.10216969372892482,0.548906461227152,2.5229923048679925,-0.8700692392177537,1.2397332676963317
80,1.3845428321025548,3.993729450563853,1.2423365016178403,0.1501570426669352,-4.6148027412206,2.491153094851449,-0.1063065010930028,0.0920017292347211,0.5479620445037567,2.605494162796745,-0.8932665074868044,1.2293779849005686
81,1.4063344340565374,3.9630507381314493,1.2649954707182183,0.1329439230495537,-4.596875101036891,2.5466418300531144,-0.10792620896316026,0.08185092723566287,0.5467932154628784,2.690452462061059,-0.9158339784972814,1.2170567649612976
82,1.4281260360105201,3.9323720256990455,1.2876544398185963,0.11573080343217224,-4.578947460853182,2.6021305652547806,-0.10914894281530509,0.07173758863214814,0.54540158621762,2.7780230590117343,-0.9376909415186969,1.202607468610361
83,1.4499176379645027,3.9016933132666423,1.3103134089189743,0.09851768381479054,-4.561019820669472,2.657619300456446,-0.1099781066056987,0.06168187230574752,0.5437890446755371,2.868361837786062,-0.9587489387550243,1.1858684739783
84,1.4717092399184855,3.8710146008342385,1.3329723780193523,0.08130456419740906,-4.543092180485763,2.713108035658111,-0.11041813054783726,0.051703738374777375,0.5419577540357765,2.96161931495427,-0.9789114357798316,1.16668406275512
85,1.493500841872468,3.840335888401835,1.3556313471197303,0.06409144458002758,-4.525164540302054,2.7685967708597774,-0.11047446100480429,0.04182289172516148,0.539910151891707,3.05793340494729,-0.9980737410641438,1.1449116459616098
86,1.5152924438264508,3.809657175969431,1.3782903162201086,0.04687832496264588,-4.507236900118345,2.8240855060614427,-0.11015354719053566,0.032058726002020005,0.5376489489372392,-3.12576518884689,-1.0161232921652372,1.120431057302081
87,1.5370840457804333,3.778978463537028,1.4009492853204866,0.0296652053452644,-4.489309259934635,2.879574241263109,-0.10946282469897714,0.022430268247436692,0.5351771272756578,-3.0230231847724314,-1.0329404476014779,1.0931559846588075
88,1.5588756477344166,3.7482997511046237,1.423608254420865,0.0124520857278827,-4.471381619750925,2.935062976464775,-0.1084106958910842,0.012956124369206831,0.5324979383304181,-2.916989933191615,-1.0483999350881947,1.0630473298660816
89,1.5806672496883991,3.71762103867222,1.4462672235212428,-0.004761033889499,-4.453453979567216,2.9905517116664404,-0.10700650718056477,0.003654425624070916,0.5296149003580021,-2.807690848865152,-1.062373098715023,1.0301278628664128
90,1.6024588516423819,3.686942326239816,1.4689261926216208,-0.02197415350688048,-4.435526339383507,3.0460404468681066,-0.10526052327016837,-0.005457223703034024,0.5265317955635496,-2.6952274842355095,-1.0747310478605603,0.9944969813703921
91,1.6242504535963644,3.6562636138074125,1.4915851617219988,-0.039187273124261957,-4.417598699199798,3.101529182069772,-0.10318389840113532,-0.014361797244780962,0.5232526668206456,-2.5797905980698705,-1.085348728240615,0.9563437735548882
92,1.6460420555503472,3.625584901375009,1.5142441308223773,-0.05640039274164366,-4.399671059016089,3.157017917271438,-0.10078864468909565,-0.023042895946674774,0.5197818139972636,-2.4616692039511774,-1.09410980607176,0.9159560611034172
93,1.6678336575043298,3.5949061889426055,1.5369030999227553,-0.07361351235902514,-4.38174341883238,3.2125066524731034,-0.09808759763021223,-0.031484795739968104,0.5161237898905282,-2.341253073096144,-1.1009120891419342,0.8737228970571898
94,1.6896252594583123,3.5642274765102018,1.5595620690231333,-0.09082663197640661,-4.36381577864867,3.2679953876747687,-0.09509437887165945,-0.039672493325097306,0.5122833957735867,-2.2190265190451037,-1.105673032177984,0.8301283460062998
95,1.7114168614122953,3.533548764077798,1.5822210381235113,-0.10803975159378831,-4.345888138464961,3.323484122876435,-0.0918233563505693,-0.04759174990366082,0.5082656765585305,-2.0955523419605573,-1.1083347354451893,0.7857354243375226
96,1.7332084633662779,3.5028700516453948,1.6048800072238893,-0.1252528712111698,-4.327960498281252,3.3789728580781,-0.08828960191532878,-0.055229132702750997,0.5040759155799438,-1.971446473687474,-1.1088677992244187,0.7411607416664876
97,1.7550000653202604,3.472191339212991,1.6275389763242674,-0.14246599082855127,-4.310032858097543,3.4344615932797664,-0.08450884655254369,-0.06257205414184062,0.4997196290042815,-1.8473457698323699,-1.1072734822869932,0.6970422896809995
98,1.776791667274243,3.4415126267805873,1.6501979454246454,-0.15967911044593275,-4.292105217913833,3.4899503284814317,-0.08049743335204226,-0.06960880849939392,0.49520255987092093,-1.723872965699431,-1.1035838317313396,0.6540043951983685
99,1.7985832692282264,3.410833914348183,1.6728569145250238,-0.17689223006331467,-4.274177577730124,3.545439063683099,-0.07627226835095992,-0.07632860594389973,0.4905306717713411,-1.6016034993534716,-1.0978597588983032,0.6126245406658716
100,1.8202773696074708,3.3802924668483634,1.6954145012133197,-0.19402833348554016,-4.256330150701599,3.6006795271388947,-0.07187096333535331,-0.0826937411137933,0.4857320321994957,-1.4815734535170129,-1.0902258673698166,0.5735763135098991
101,1.8415570882940782,3.3503343953120233,1.717541212650266,-0.21083711807835193,-4.238823629582608,3.6548648356747506,-0.06738171033215126,-0.0886141811790643,0.4808880108496649,-1.3658671363796342,-1.0809629882966023,0.5377479866907182
102,1.862398049894363,3.320994015972309,1.7392117032328418,-0.2272993297929622,-4.221678067661946,3.707932921354197,-0.06283637779545567,-0.09409525999537544,0.4760182506923931,-1.2547763310616622,-1.0702963713207898,0.5053165183552967
103,1.8828002544083264,3.2922713288292185,1.7604259729610492,-0.2434149686293694,-4.204893464939614,3.7598837841772292,-0.058260025025826744,-0.09915095747731799,0.4711363343728675,-1.1483427649863314,-1.0584357796318462,0.47630009303687115
104,1.9027637018359687,3.264166333882755,1.7811840218348851,-0.2591840345875751,-4.188469821415612,3.8107174241438573,-0.053675746482387765,-0.10379635749254484,0.4662550939768702,-1.046518278886455,-1.045578436341069,0.450627497661256
105,1.9222883921772884,3.2366790311329177,1.8014858498543505,-0.27460652766757754,-4.17240713708994,3.860433841254075,-0.04910469272874184,-0.10804745258916158,0.46138661468406006,-0.9491886905819205,-1.031906226811715,0.4281619349371638
106,1.941374325432287,3.209809420579704,1.8213314570194483,-0.2896824478693787,-4.156705411962598,3.9090330355078837,-0.044566105309538334,-0.11192096051501284,0.45654224201115484,-0.8561950380792294,-1.0175843533795428,0.40872222277338666
107,1.9600215016009632,3.1835575022231177,1.8407208433301734,-0.30441179519297634,-4.141364646033585,3.956515006905282,-0.04007736379484925,-0.11543415301137959,0.4517325923162593,-0.7673511584454576,-1.0027610845429815,0.39210033575978825
108,1.9782299206833183,3.1579232760631566,1.8596540087865292,-0.31879456963837294,-4.126384839302901,4.002879755446268,-0.03565404329627152,-0.11860469717790575,0.4469675662429287,-0.6824574003423844,-0.9875682626908739,0.37807508621047387
109,1.9959995826793513,3.132906742099819,1.8781309533885153,-0.3328307712055665,-4.111765991770547,4.04812728113085,-0.031309980838117216,-0.12145050953817879,0.4422563647916207,-0.6013107739570946,-0.9721222899981322,0.3664222481413799
110,2.0133304875890623,3.10850790033311,1.8961516771361322,-0.34652039989455785,-4.097508103436524,4.09225758395902,-0.027057349056502273,-0.12398962278626553,0.43760750771672186,-0.5237120831351291,-0.9565253774040312,0.3569216686437165
111,2.0302226354124517,3.084726750763025,1.913716180029379,-0.35986345570534706,-4.083611174300829,4.1352706639307835,-0.02290673579617758,-0.12624006506330052,0.43302885395907975,-0.4494706491373207,-0.9408669027291497,0.3493619757457825
112,2.0466760261495196,3.061563293389566,1.9308244620682546,-0.37285993863793454,-4.070075204363466,4.177166521046133,-0.01886722827730009,-0.1282197514993786,0.4285276238367536,-0.3784071994853486,-0.9252247747427085,0.34354345591226815
113,2.062690659800265,3.0390175282127316,1.9474765232527598,-0.3855098486923185,-4.056900193624431,4.217945155305076,-0.014946500609967859,-0.129946387658871,0.42411042273017524,-0.31035541283982415,-0.9096667388940014,0.339279591819645
114,2.078266536364689,3.017089455232524,1.963672363582897,-0.3978131858685008,-4.044086142083726,4.257606566707609,-0.01115090354151427,-0.13143738444586836,0.41978326601206795,-0.24516251521452914,-0.894251588484036,0.3363976554140616
115,2.093403655842791,2.9957790744489428,1.9794119830586623,-0.40976995016648,-4.031633049741351,4.296150755253733,-0.007485555428606721,-0.1327097839598962,0.4155516049869273,-0.18268923210154614,-0.8790302642685864,0.33473866053622614
116,2.108102018234571,2.975086385861986,1.9946953816800579,-0.42138014158625836,-4.019540916597306,4.333577720943449,-0.0039544335318195505,-0.1337801957391961,0.41142035361961715,-0.12280932325593497,-0.864046837983669,0.3341569015770007
117,2.1223616235400296,2.955011389471653,2.009522559447085,-0.43264376012783323,-4.00780974265159,4.369887463776751,-0.0005604648333373506,-0.13466474278867913,0.4073939158474382,-0.06540886412470524,-0.8493393829492744,0.33451924186820875
118,2.1361824717591658,2.935554085277949,2.0238935163597405,-0.4435608057912055,-3.9964395279042035,4.405079983753646,0.0026943843221374376,-0.13537901676093209,0.4034762132847596,-0.010385389382055904,-0.8349407392378981,0.3357042669945345
119,2.149564562891981,2.9167144732808685,2.0378082524180257,-0.4541312785763765,-3.985430272355147,4.439155280874133,0.005809020368191805,-0.13593804164030152,0.39967071314387714,0.042353022325496516,-0.82087918301456,0.33760138185795213
120,2.162507896938474,2.8984925534804136,2.0512667676219407,-0.4643551784833444,-3.9747819760044205,4.472113355138211,0.008783136954114638,-0.13635624527092086,0.39598045621005584,0.09288866989648681,-0.8071790103685758,0.3401099037542958
121,2.1750124738986454,2.880888325876585,2.064269061971486,-0.4742325055121106,-3.9644946388520235,4.503954206545879,0.01161713210930106,-0.13664743806851565,0.3924080847226005,0.14129512404489109,-0.7938610458191679,0.34313818470781365
122,2.187078293772495,2.8639017904693818,2.076815135466663,-0.48376325966267375,-3.954568260897956,4.534677835097133,0.014312028486322905,-0.13682479826181346,0.38895587002727516,0.18763807415884315,-0.7809430850581673,0.34660278296977604
123,2.1987053565600228,2.847532947258804,2.088904988107469,-0.4929474409350356,-3.9450028421422183,4.564284240791984,0.016869396961693418,-0.1369008630214227,0.38562573987831605,0.2319761167615951,-0.7684402806341218,0.3504276944143776
124,2.2098936622612286,2.831781796244851,2.1005386198939044,-0.5017850493291944,-3.9357983825848106,4.592773423630424,0.019291283806837256,-0.1368875248511419,0.3824193052806415,0.27436148076132216,-0.756365478333938,0.3545436483988694
125,2.2206432108761125,2.816648337427525,2.1117160308259693,-0.5102760848451511,-3.9269548822257327,4.620145383612449,0.02158014158144774,-0.13679603263795823,0.3793378867746247,0.3148406887145963,-0.7447295110710513,0.35888746862437376
126,2.230954002404675,2.8021325708068243,2.122437220903666,-0.5184205474829051,-3.918472341064984,4.646400120738072,0.023738763847169546,-0.1366369967816304,0.37638254007686706,0.35345515587133397,-0.7335414561941529,0.36340149699900554
127,2.240826036846916,2.7882344963827475,2.1327021901269916,-0.5262184372424579,-3.9103507591025655,4.671537635007283,0.02577022375126637,-0.1364203978520027,0.3735540810008541,0.39024173028138764,-0.7228088613132265,0.36803307700198545
128,2.250259314202834,2.7749541141552987,2.142510938495946,-0.5336697541238071,-3.902590136338477,4.695557926420085,0.02767781648744637,-0.13615559825136045,0.3708531095910794,0.42523317805591826,-0.7125379430102913,0.37273409224484133
129,2.2592538344724313,2.7622914241244745,2.1518634660105334,-0.5407744981269551,-3.8951904727727173,4.718460994976478,0.029465005604085756,-0.13585135638963813,0.36828003341327675,0.4584586182242983,-0.7027337621613202,0.377460555589096
130,2.2678095976557064,2.750246426290275,2.160759772670748,-0.5475326692518996,-3.888151768405288,4.740246840676457,0.03113537309840992,-0.13551584291152458,0.36583508995171365,0.4899439116736986,-0.6934003790390725,0.38217224414530193
131,2.27592660375266,2.7388191206527015,2.1691998584765932,-0.5539442674986432,-3.881474023236188,4.760915463520034,0.03269257320853679,-0.13515665854606101,0.3635183680721339,0.5197120085169807,-0.6845409908865948,0.3868323756322949
132,2.2836048527632915,2.7280095072117554,2.1771837234280698,-0.5600092928671829,-3.875157237265418,4.780466863507197,0.034140289793298126,-0.13478085318077926,0.3613298285158829,0.5477832579819791,-0.6761580542399009,0.39140732184075744
133,2.290844344687601,2.717817585967434,2.184711367525175,-0.5657277453575213,-3.8692014104929777,4.798901040637952,0.03548219717211991,-0.1343949457933848,0.3592693233970211,0.5741756846043221,-0.6682533939273407,0.3958663552695453
134,2.297645079525588,2.708243356919735,2.1917827907679106,-0.5710996249696572,-3.863606542918867,4.8162179949122965,0.03672192428364959,-0.13400494490421483,0.3573366146798431,0.5989052341698263,-0.6608283003745669,0.40018142535228024
135,2.3040070572772544,2.6992868200686653,2.1983979931562754,-0.5761249317035904,-3.858372634543086,4.832417726330233,0.03786302201195466,-0.13361636924196185,0.3555313916192055,0.621985992514601,-0.6538836165903918,0.4043269610431794
136,2.3099302779425983,2.690947975414221,2.20455697469027,-0.5808036655593218,-3.853499685365635,4.8475002348917595,0.038908933522617664,-0.13323426834320298,0.3538532871504359,0.6434303799632562,-0.6474198159938291,0.4082796968715937
137,2.3154147415216215,2.6832268229563994,2.2102597353698963,-0.5851358265368503,-3.8489876953865143,4.861465520596878,0.03986296744766643,-0.13286324283304088,0.3523018932194003,0.6632493238770668,-0.6414370720604321,0.4120185198961155
138,2.3204604480143223,2.676123362695206,2.2155062751951515,-0.5891214146361778,-3.8448366646057224,4.874313583445588,0.04072827375766336,-0.1325074641595259,0.3508767750465338,0.6814524114978798,-0.6359353206117,0.41552433528715105
139,2.3250673974207006,2.669637594630638,2.2202965941660358,-0.592760429857301,-3.8410465930232607,4.886044423437882,0.04150782216117501,-0.13217069357840552,0.34957748432136765,0.6980480250116611,-0.6309143154406383,0.41877994854035266
140,2.329235589740758,2.6637695187626953,2.2246306922825525,-0.5960528722002238,-3.837617480639128,4.896658040573772,0.0422043828759707,-0.13185630020714878,0.3484035713263255,0.7130434605175937,-0.626373677855713,0.42176996257195426
141,2.3329650249744933,2.6585191350913773,2.2285085695446973,-0.5989987416649436,-3.8345493274533258,4.906154434853251,0.04282050962241274,-0.13156727798810963,0.3473545959903335,0.7264450323733888,-0.6223129406314866,0.4244806881720806
142,2.336255703121907,2.6538864436166856,2.231930225952472,-0.6015980382514603,-3.8318421334658526,4.914533606276322,0.04335852469734791,-0.13130626142013846,0.3464301378741568,0.7382581641935023,-0.6187315867742957,0.42690006649523404
143,2.339107624182999,2.6498714443386193,2.2348956615058784,-0.6038507619597753,-3.8294958986767096,4.9217955548429835,0.043820505996212844,-0.13107553993603316,0.3456298050903448,0.7484874676016778,-0.6156290834433176,0.4290176024501926
144,2.3415207881577684,2.6464741372571776,2.237404876204913,-0.605756912789889,-3.827510623085896,4.927940280553235,0.0442082758617567,-0.13087707081994737,0.34495324216131673,0.7571368096811152,-0.613004911309179,0.43082430801686983
145,2.3434951950462173,2.643694522372363,2.239457870049578,-0.6073164907417992,-3.825886306693412,4.932967783407079,0.04452339164963779,-0.1307124905743972,0.34440013681941434,0.7642093699220426,-0.6108585895823754,0.4323126546672012
146,2.345030844848343,2.641532599684173,2.241054643039873,-0.6085294958155081,-3.824622949499258,4.93687806340451,0.044767137913973645,-0.130583124660928,0.3439702257528099,0.7697076873357184,-0.6091896969005364,0.4334765342030923
147,2.3461277375641467,2.6399883691926105,2.242195195175798,-0.609395928011013,-3.823720551503434,4.939671120545533,0.04494052012952728,-0.13048999555189675,0.34366329930096023,0.7736336982836597,-0.6079978882260242,0.4343112274490246
148,2.34678587319363,2.6390618308976705,2.2428795264573536,-0.6099157873283163,-3.823179112705939,4.9413469548301485,0.0450442598815127,-0.13043382904341422,0.34347920510289687,0.7759887654596306,-0.6072829078721024,0.43481338035169986
149,2.3470052517367908,2.6387529847993587,2.243107636884538,-0.610089073767417,-3.8229986331067742,4.941905566258354,0.04507879146879847,-0.13041505879132556,0.343417850701085,0.7767736983575534,-0.6070445987462589,0.4349809871464865
