nimar13/UR3e_dataset_trayectorias/data/trayectorias_completas_UR3e_TRAPEZOIDAL/trayectoria_213.csv
Punto,shoulder_pan_joint,shoulder_lift_joint,elbow_joint,wrist_1_joint,wrist_2_joint,wrist_3_joint,Posicion_X,Posicion_Y,Posicion_Z,Roll,Pitch,Yaw
0,-5.321772253952998,6.14035208844935,0.6556648863295393,-3.3298885825309994,5.29998482023227,-1.5496525570452357,0.15147104774633893,0.5361047154000681,0.14769237399636015,1.7732228403909776,0.2722620356433518,1.5768420661044067
1,-5.321152954350301,6.140179303400329,0.6556993129011004,-3.329939697474373,5.29990525259357,-1.5501109381853948,0.15114496722007653,0.5361964055261361,0.14777730178509133,1.7726293294605173,0.27212155815251904,1.5773499103257411
2,-5.319295055542206,6.139660948253265,0.6558025926157837,-3.3300930423044943,5.299666549677471,-1.551486081605872,0.15016634593272743,0.5364702145713941,0.14803208858541994,1.770848998523288,0.2716999893289451,1.5788735782541887
3,-5.316198557528716,6.13879702300816,0.6559747254735889,-3.3303486170213628,5.299268711483973,-1.5537779873066675,0.14853405331302647,0.5369223556447725,0.14845674454810617,1.7678824529383865,0.27099692052442137,1.5814134754644678
4,-5.311863460309828,6.137587527665013,0.6562157114745165,-3.330706421624979,5.298711738013075,-1.556986655287781,0.14624623362289677,0.5375465077050297,0.1490512860855233,1.7637307009582477,0.2700116720075825,1.584970277183596
5,-5.3062897638855455,6.136032462223823,0.6565255506185661,-3.3311664561153425,5.297995629264778,-1.5611120855492127,0.143300348891663,0.5383338015232971,0.14981573511304846,1.7583951527041393,0.26874329498356303,1.5895449271870656
6,-5.299477468255866,6.134131826684591,0.6569042429057379,-3.3317287204924533,5.297120385239081,-1.5661542780909625,0.1396932392462413,0.5392728006258573,0.15075011798646815,1.7518776187211715,0.2671905744138949,1.5951386362385689
7,-5.29142657342079,6.131885621047316,0.6573517883360318,-3.332393214756312,5.296086005935986,-1.5721132329130305,0.13542120085023507,0.5403494778163227,0.15185446413488965,1.74418030810258,0.2653520326289045,1.6017528800587044
8,-5.282137079380318,6.129293845312,0.6578681869094478,-3.3331599389069178,5.2948924913554904,-1.5789889500154168,0.1304800817121637,0.5415471880531219,0.15312880438848406,1.7353058261705956,0.2632259337226749,1.6093893968044635
9,-5.27160898613445,6.126356499478641,0.658453438625986,-3.334028892944271,5.293539841497596,-1.586781429398121,0.1248653956601547,0.5428466386386864,0.1545731690003013,1.7252571716993108,0.26081028871818274,1.6180501840380184
10,-5.259842293683185,6.1230735835472405,0.6591075434856464,-3.3350000768683716,5.292028056362302,-1.5954906710611436,0.1185724548047792,0.5442258578616302,0.1561875853612673,1.7140377336634187,0.2581028614879339,1.6277374951605228
11,-5.246837002026525,6.119445097517797,0.6598305014884288,-3.3360734906792198,5.290357135949608,-1.6051166750044843,0.11159652082091388,0.5456601634226577,0.15797207540740413,1.7016512874958247,0.2551011754128367,1.6384538352843325
12,-5.2325931111644675,6.115471041390312,0.6606223126343335,-3.3372491343768154,5.288527080259516,-1.615659441228143,0.10393297537088086,0.5471221321691316,0.1599266527182391,1.688101990836821,0.2518025207595939,1.65020195651532
13,-5.217110621097015,6.111151415164785,0.6614829769233602,-3.338527007961159,5.286537889292024,-1.62711896973212,0.09557750996207445,0.5485815728617709,0.16205131930534494,1.6733943787578962,0.2482039627542336,1.662984852615806
14,-5.200389531824165,6.106486218841215,0.6624124943555092,-3.3399071114322494,5.2843895630471325,-1.6394952605164153,0.08652633547997794,0.5500055038993307,0.16434606208992059,1.6575333584444385,0.2443023503267846,1.6768057530182539
15,-5.182429843345919,6.101475452419604,0.6634108649307802,-3.3413894447900874,5.282082101524842,-1.6527883135810284,0.07677641155922402,0.5513581381323281,0.16681084906836535,1.6405242033234113,0.2400943254993625,1.691668116159952
16,-5.163231555662277,6.096119115899949,0.6644780886491733,-3.342974008034673,5.279615504725151,-1.6669981289259599,0.06632569584816252,0.5526008771034525,0.1694456251648365,1.6223725466248504,0.2355763333872592,1.7075756221099525
17,-5.142794668773239,6.090417209282253,0.6656141655106887,-3.3446608011660053,5.276989772648062,-1.6821247065512095,0.05517341308357945,0.553692317258342,0.1722503077698738,1.6030843743694962,0.23074463277989274,1.7245321644609803
18,-5.121119182678805,6.084369732566515,0.6668190955153261,-3.3464498241840857,5.2742049052935736,-1.6981680464567772,0.04332034371876082,0.5545882708734697,0.17522478196432104,1.5826660177791796,0.22559530726577862,1.7425418414613736
19,-5.098205097378973,6.077976685752734,0.6680928786630858,-3.3483410770889135,5.271260902661685,-1.715128148642663,0.030769131637437733,0.5552418046448739,0.17836889542792264,1.5611241451117277,0.22012427686311103,1.76160894636494
20,-5.074052412873747,6.071238068840912,0.6694355149539675,-3.350334559880489,5.268157764752398,-1.7330050131088672,0.017524610235567034,0.555603299068733,0.18168245303222938,1.538465752927984,0.21432731011494738,1.7817379569800658
21,-5.048661129163123,6.0641538818310465,0.6708470043879714,-3.3524302725588115,5.264895491565711,-1.7517986398553893,0.003594145860074942,0.5556205319179748,0.18516521111769407,1.5146981568051752,0.208200036605668,1.8029335244033955
22,-5.022031246247104,6.056724124723139,0.6723273469650974,-3.3546282151238818,5.261474083101624,-1.77150902888223,-0.011012002743404173,0.5552387892731054,0.1888168714551799,1.489828981518108,0.20173795985312687,1.8252004609277774
23,-4.994162764125687,6.04894879751719,0.6738765426853456,-3.356928387575699,5.257893539360139,-1.7921361801893883,-0.02628031070487114,0.5544010076945179,0.19263707489249016,1.4638661507176087,0.19493647052892582,1.8485437271189025
24,-4.965055682798876,6.040827900213198,0.6754945915487159,-3.359330789914264,5.254153860341254,-1.8136800937768651,-0.04219360118753523,0.5530479512210293,0.19662539468696993,1.4368178761440205,0.18779085995749345,1.8729684180599822
25,-4.934710002266668,6.0323614328111645,0.6771814935552084,-3.3618354221395768,5.25025504604497,-1.8361407696446599,-0.05873065006739343,0.551118426938072,0.20078132952574493,1.4086926464224951,0.18029633384322954,1.8984797487688652
26,-4.9031257225290625,6.023549395311089,0.678937248704823,-3.3644422842516364,5.246197096471286,-1.8595182077927728,-0.07586578429823249,0.5485495428706681,0.2051042962357519,1.3794992154960748,0.172448026173833,1.9250830387969218
27,-4.870302843586062,6.01439178771297,0.6807618569975596,-3.367151376250444,5.241980011620202,-1.883812408221204,-0.0935684776958671,0.5452770119123133,0.2095936221863521,1.3492465907621307,0.16424101324725135,1.9527836960238387
28,-4.836241365437664,6.004888610016811,0.6826553184334185,-3.3699626981359985,5.23760379149172,-1.9090233709299533,-0.11180294848897927,0.5412355053917147,0.21424853738806265,1.3179440209874806,0.15567032776935036,1.9815871996668348
29,-4.800941288083871,5.995039862222607,0.6846176330123995,-3.372876249908301,5.233068436085838,-1.9351510959190208,-0.13052776363675964,0.536359059694913,0.21906816629174908,1.285600984087365,0.14673097296950063,2.0114990825266825
30,-4.764402611524682,5.984845544330363,0.6866488007345027,-3.3758920315673504,5.2283739454025575,-1.9621955831884064,-0.1496954556003136,0.5305815390902403,0.22405151929349587,1.2522271748634053,0.13741793668195726,2.0425249124961105
31,-4.726625335760096,5.974305656340076,0.6887488215997281,-3.379010043113148,5.223520319441876,-1.9901568327381103,-0.16925215796824092,0.5238371575369445,0.22919748395138004,1.2178324928054882,0.12772620534186346,2.07467027335836
32,-4.687609460790114,5.963420198251747,0.6909176956080755,-3.382230284545692,5.218507558203797,-2.0190348445681323,-0.1891372670679426,0.5160610617843234,0.23450481592140882,1.1824270300723938,0.11765077784641789,2.1079407449049725
33,-4.647354986614735,5.952189170065376,0.693155422759545,-3.385552755864984,5.213335661688317,-2.0488296186784725,-0.20928313743179613,0.5071899774759437,0.23997212962106554,1.146021059775578,0.10718667923373736,2.1423418824017353
34,-4.60586191323396,5.940612571780962,0.6954620030541367,-3.388977457071024,5.208004629895439,-2.0795411550691307,-0.22961481971785555,0.49716291925272915,0.24559788863015203,1.1086250247001843,0.09632897413461071,2.177879195430295
35,-4.56313024064779,5.928690403398507,0.6978374364918506,-3.3925043881638106,5.202514462825161,-2.111169453740107,-0.25004985039226707,0.4859219649895671,0.25138039583997324,1.0702495266067613,0.0850727799554238,2.2145581261298095
36,-4.519159968856222,5.9164226649180085,0.7002817230726867,-3.396133549143345,5.196865160477484,-2.1437145146914016,-0.2704981031465163,0.4734130932942577,0.2573177833633727,1.0309053162666335,0.07341327975413159,2.252384026858088
37,-4.473951097859259,5.903809356339469,0.7027948627966447,-3.399864940009627,5.191056722852407,-2.1771763379230142,-0.29086171262577054,0.4595870822380278,0.2634080022196681,0.9906032843934061,0.06134573477530468,2.291362137284777
38,-4.427503627656899,5.8908504776628865,0.705376855663725,-3.403698560762656,5.18508914994993,-2.2115549234349454,-0.31103508156094956,0.4444004659686647,0.2696488118102323,0.9493544536427168,0.04886549661474527,2.331497560920019
39,-4.379817558249143,5.877546028888262,0.7080277016739275,-3.407634411402433,5.1789624417700555,-2.2468502712271943,-0.3309049828001525,0.42781654437836025,0.276037769202201,0.9071699718625504,0.03596801898927186,2.372795241070497
40,-4.330892889635991,5.863896010015595,0.7107474008272521,-3.411672491928957,5.172676598312781,-2.2830623812997617,-0.35035076799546505,0.4098064393594908,0.28257221823970313,0.864061106787094,0.022648869092617655,2.41525993620064
41,-4.280729621817443,5.849900421044887,0.7135359531236988,-3.4158128023422285,5.166231619578106,-2.320191253652647,-0.3692446947873802,0.3903501893877703,0.289249278503974,0.8200392423789008,0.0089037385242716,2.458896194659748
42,-4.2293277547934975,5.835559261976136,0.7163933585632676,-3.4200553426422475,5.159627505566033,-2.3582368882858504,-0.38745238420744965,0.3694378722327699,0.29606583414582976,0.7751158770371201,-0.00527154621572217,2.5037083287155832
43,-4.176687288564157,5.820872532809342,0.7193196171459586,-3.424400112829014,5.15286425627656,-2.397199285199372,-0.40483341965505365,0.3470707435254309,0.30301852261617496,0.7293026239044794,-0.019881013666405684,2.5497003878113027
44,-4.122808223129419,5.805840233544506,0.7223147288717717,-3.428847112902528,5.145941871709688,-2.437078444393212,-0.4212420981600264,0.3232623767313762,0.31010372332254527,0.6826112135228973,-0.034928537773445525,2.5968761309350468
45,-4.067690558489286,5.7904623641816295,0.725378693740707,-3.4333963428627894,5.138860351865416,-2.47787436586737,-0.43652834368261895,0.2980397878147831,0.3173175462421025,0.6350534991079194,-0.05041782867072588,2.645238997959478
46,-4.011334294643756,5.774738924720709,0.7285115117527644,-3.4380478027097983,5.131619696743745,-2.519587049621846,-0.45053879088989496,0.27144452556466137,0.3246558205240251,0.5866414647362832,-0.06635242385447773,2.6947920797717386
47,-3.9537394315928296,5.7586699151617475,0.731713182907944,-3.4428014924435546,5.124219906344675,-2.5622164956566404,-0.46311804614868163,0.24353370623585915,0.33211408311686497,0.53738723676984,-0.0827356797203029,2.745538086971582
48,-3.8949059693365076,5.742255335504743,0.7349837072062456,-3.4476574120640584,5.116660980668205,-2.605762703971753,-0.4741101303581161,0.21438096888138786,0.3396875674591808,0.487303098873887,-0.09957076342496596,2.797479316866353
49,-3.8348339078747893,5.725495185749697,0.7383230846476694,-3.452615561571309,5.108942919714336,-2.6502256745671833,-0.4833601056825072,0.18407732557986548,0.34737119227453134,0.43640151103010905,-0.11686064502562343,2.850617618434532
50,-3.7735920582746405,5.708408664235388,0.7417274900575975,-3.4576702615271557,5.101074564331812,-2.695554476205137,-0.49070881822118584,0.15276724007779455,0.35515084065812275,0.3847530270361438,-0.13458811535104429,2.904893314615916
51,-3.7120749644066264,5.69124534936596,0.7451471961659972,-3.462747679235612,5.093170845554311,-2.741087002794272,-0.49595586969429745,0.12104175437878903,0.3629085910848661,0.3331187197808358,-0.15249429956654054,2.9595119767680833
52,-3.6505578705386124,5.67408203449653,0.7485669022743968,-3.4678250969440687,5.0852671267768095,-2.7866195293834073,-0.4990550825044502,0.08919186049340148,0.3706069623702103,0.281729411819145,-0.17049627488494049,3.0142245180250566
53,-3.5890407766705983,5.656918719627102,0.7519866083827965,-3.4729025146525254,5.077363407999307,-2.8321520559725424,-0.5000090718560968,0.05736873512757671,0.3782435784357488,0.23058344660805877,-0.1885906494810947,3.0690255181777215
54,-3.527523682802584,5.639755404757673,0.7554063144911962,-3.4779799323609817,5.069459689221806,-2.8776845825616775,-0.4988314326601021,0.02572279815955927,0.3858160806768961,0.1796793805917671,-0.20677411195558953,3.1239095105941366
55,-3.4660065889345697,5.6225920898882435,0.7588260205995958,-3.4830573500694384,5.061555970444305,-2.9232171091508126,-0.4955466535605468,-0.00559710450937646,0.3933221289473276,0.1290159924347706,-0.2250434274526765,-3.1043143333624963
56,-3.404489495066555,5.605428775018814,0.7622457267079955,-3.488134767777895,5.0536522516668025,-2.9687496357399477,-0.49018996900495515,-0.03644450989159738,0.4007594025388944,0.07859229277302139,-0.2433954337514617,-3.0492809850644558
57,-3.342972401198541,5.588265460149386,0.7656654328163952,-3.4932121854863514,5.045748532889301,-3.0142821623290827,-0.4828071500978075,-0.06667613387308927,0.4081256011564875,0.028407534592699204,-0.2618270373270879,-2.9941814122429036
58,-3.281455307330527,5.571102145279957,0.7690851389247948,-3.498289603194808,5.037844814111799,-3.059814688918218,-0.47345423534745207,-0.09615264949784576,0.41541844588730914,-0.021538775646788296,-0.2803352093768553,-2.939021361974618
59,-3.219938213462513,5.553938830410528,0.7725048450331945,-3.5033670209032644,5.029941095334298,-3.105347215507353,-0.4621972027811368,-0.12473944297198117,0.4226356801640171,-0.07124686602055486,-0.2989169818043304,-2.883806680801119
60,-3.158421119594499,5.536775515541099,0.7759245511415941,-3.508444438611721,5.0220373765567965,-3.150879742096488,-0.4491115852594682,-0.1523073429056212,0.42977507072122445,-0.12071668614169295,-0.31756944315265395,-2.8285433289922675
61,-3.096904025726485,5.51961220067167,0.7793442572499938,-3.5135218563201773,5.014133657779294,-3.196412268685623,-0.43428203116798475,-0.17873331846121618,0.43683440854480693,-0.1699478930135734,-0.33628973447613425,-2.7732373962393275
62,-3.03538693185847,5.502448885802241,0.7827639633583935,-3.518599274028634,5.006229939001793,-3.2419447952747587,-0.41780181299745955,-0.20390114225449918,0.4438115098135061,-0.21893983557021165,-0.35507504513718685,-2.717895118900524
63,-2.973869837990456,5.485285570932812,0.7861836694667932,-3.5236766917370907,4.998326220224291,-3.2874773218638937,-0.399772286643972,-0.2277020140578529,0.45070421683229545,-0.2676915377276744,-0.3739226085132699,-2.6625228989418677
64,-2.9123527441224417,5.468122256063383,0.7896033755751928,-3.528754109445547,4.99042250144679,-3.333009848453029,-0.3803023045625934,-0.2500351415841744,0.4575103989569919,-0.3162016797505595,-0.3928296975960081,-2.6071273247381117
65,-2.8508356502544276,5.450958941193955,0.7930230816835925,-3.5338315271540037,4.982518782669288,-3.378542375042164,-0.35950758619288326,-0.27080827488103104,0.4642279535095861,-0.36446857771547253,-0.41179362046186896,-2.5517151939238203
66,-2.789318556386414,5.4337956263245255,0.7964427877919921,-3.53890894486246,4.974615063891786,-3.424074901631299,-0.3375100493383651,-0.2899381911385496,0.470854806683792,-0.4124901608278189,-0.43081171559068343,-2.4962935385128047
67,-2.727801462518399,5.416632311455096,0.7998624939003918,-3.5439863625709167,4.966711345114285,-3.4696074282204346,-0.3144371064241384,-0.3073511270083503,0.477388914440284,-0.4602639463184111,-0.4498813470047638,-2.440869652536567
68,-2.666284368650385,5.399468996585667,0.8032822000087915,-3.5490637802793734,4.9588076263367835,-3.5151399548095696,-0.29042092977515194,-0.3229831558431893,0.4838282633911326,-0.5077870116117572,-0.4689998991974719,-2.3854511224893002
69,-2.604767274782371,5.382305681716239,0.8067019061171911,-3.5541411979878297,4.950903907559281,-3.5606724813987047,-0.2655976902510352,-0.3367805075959052,0.49017087167292533,-0.5550559634177313,-0.4881647718155069,-2.330045860909255
70,-2.543250180914357,5.3651423668468095,0.8101216122255908,-3.5592186156962864,4.94300018878178,-3.60620500798784,-0.24010677374048559,-0.34869982945971933,0.4964147898080779,-0.6020669033515227,-0.5073733740540558,-2.2746621434750653
71,-2.4817330870463428,5.347979051977381,0.8135413183339903,-3.5642960334047427,4.935096470004278,-3.651737534576975,-0.2140899801579288,-0.3587083856878753,0.5025581015538442,-0.6488153896323741,-0.526623118717918,-2.219308650051738
72,-2.4202159931783287,5.330815737107952,0.81696102444239,-3.5693734511131994,4.927192751226777,-3.69727006116611,-0.18769070969657461,-0.3667841953967453,0.5085989247385356,-0.6952963943482618,-0.5459114158948346,-2.163994510186023
73,-2.3586988993103137,5.313652422238523,0.8203807305507897,-3.574450868821656,4.919289032449275,-3.7428025877552455,-0.1610531411743641,-0.3729161075306998,0.5145354120844682,-0.7415042556996594,-0.5652356661791351,-2.108729353626302
74,-2.2971818054422997,5.296489107369093,0.8238004366591893,-3.5795282865301123,4.911385313671773,-3.7883351143443806,-0.13432140736201148,-0.37710381254683006,0.5203657520171676,-0.7874326245491907,-0.5845932533744412,-2.053523366529887
75,-2.2356647115742865,5.279325792499665,0.827220142767589,-3.584605704238569,4.903481594894272,-3.8338676409335153,-0.10763877220505075,-0.37935779076074055,0.5260881694603533,-0.8330744045027971,-0.6039815365930814,-1.9983873541229307
76,-2.1741476177062706,5.262162477630236,0.8306398488759887,-3.5896831219470258,4.89557787611677,-3.879400167522651,-0.08114681484429524,-0.37969919767865934,0.531700926616249,-0.8784216846294851,-0.6233978416569013,-1.943332810697887
77,-2.1126305238382566,5.244999162760807,0.8340595549843884,-3.594760539655482,4.887674157339268,-3.924932694111786,-0.05498462530138504,-0.37815968702366753,0.5372023237307587,-0.9234656637873837,-0.6428394516887902,-1.8883719979737354
78,-2.0511134299702425,5.227835847891377,0.8374792610927881,-3.5998379573639387,4.879770438561767,-3.970465220700921,-0.02928801662831085,-0.37478117254253196,0.542590699843063,-0.9681965653598784,-0.6623035967661236,-1.833518033009081
79,-1.9895963361022284,5.210672533021949,0.8408989672011877,-3.604915375072395,4.871866719784265,-4.015997747290056,-0.004188758222408037,-0.36961553005206615,0.5478644335191941,-1.0126035410121126,-0.6817874424857162,-1.7787849870525272
80,-1.9280792422342143,5.19350921815252,0.8443186733095873,-3.6099927927808517,4.863963001006764,-4.061530273879191,0.02018616511824409,-0.3627242415478015,0.5530219435691591,-1.0566745618495317,-0.7012880772642124,-1.724187996944056
81,-1.8665621483662003,5.176345903283091,0.847738379417987,-3.615070210489308,4.856059282229262,-4.107062800468326,0.04371526397893191,-0.35417798355075075,0.5580616897471851,-1.1003962950892814,-0.7208024981671004,-1.6697433909526995
82,-1.8050450544981862,5.159182588413662,0.8511580855263867,-3.6201476281977647,4.84815556345176,-4.152595327057462,0.06628322071415248,-0.34405616220793095,0.5629821734346734,-1.1437539640338341,-0.740327595022777,-1.615468831257776
83,-1.7435279606301721,5.142019273544233,0.8545777916347863,-3.6252250459062214,4.840251844674259,-4.1981278536465965,0.08778152740601392,-0.3324463979870152,0.5677819383054541,-1.1867311887538337,-0.7598601325337283,-1.5613834756639342
84,-1.682010866762158,5.124855958674805,0.857997497743186,-3.6303024636146777,4.832348125896757,-4.243660380235731,0.10810908159966746,-0.3194439631128452,0.5724595709729433,-1.22930980443146,-0.7793967300435571,-1.5075081615963788
85,-1.620493772894144,5.107692643805375,0.8614172038515857,-3.6353798813231344,4.824444407119255,-4.289192906824867,0.12717273627750972,-0.30515117518172763,0.5770137016188192,-1.2714696537714658,-0.7989338385538522,-1.4538656159672187
86,-1.55897667902613,5.090529328935947,0.8648369099599853,-3.6404572990315907,4.816540688341754,-4.334725433414002,0.14488780081316735,-0.2896767506565623,0.5814430046028305,-1.3131883492360847,-0.8184677145063932,-1.400480695155251
87,-1.4974595851581158,5.073366014066518,0.868256616068385,-3.6455347167400474,4.808636969564252,-4.380257960003137,0.16117848994586878,-0.27313512219022207,0.5857461990533763,-1.3544410000801852,-0.8379943897505001,-1.3473806601216163
88,-1.4359424912901009,5.0562026991970885,0.8716763221767847,-3.650612134448504,4.800733250786751,-4.425790486592273,0.1759783181338277,-0.25564572394472684,0.5899220494384937,-1.395199898227304,-0.857509636998343,-1.29459549261983
89,-1.3744253974220868,5.039039384327659,0.8750960282851843,-3.6556895521569603,4.792829532009248,-4.471323013181408,0.18923043697975006,-0.2373322492681428,0.5939693661169049,-1.4354341559034598,-0.8770089299275863,-1.2421582595826675
90,-1.3129083035540727,5.02187606945823,0.8785157343935841,-3.660766969865417,4.784925813231747,-4.5168555397705425,0.20088791377046425,-0.218321885258644,0.597887005868793,-1.47510928659543,-0.8964873969141545,-1.1901055341188607
91,-1.2513912096860578,5.004712754588802,0.8819354405019837,-3.6658443875738733,4.777022094454246,-4.562388066359677,0.21091394953374443,-0.198744528884658,0.6016738724059695,-1.5141867192774372,-0.9159397671599617,-1.1384778831754758
92,-1.1898741158180437,4.9875494397193725,0.8853551466103833,-3.67092180528233,4.769118375676744,-4.607920592948814,0.21928203538644964,-0.1787319894406375,0.6053289168611254,-1.5526232339021961,-0.9353603077104804,-1.0873204338700533
93,-1.1283570219500296,4.970386124849943,0.888774852718783,-3.6759992229907867,4.761214656899242,-4.653453119537948,0.2259760463267741,-0.15841718219901735,0.6088511382558566,-1.5903703038175738,-0.9547427495216952,-1.0366835328313877
94,-1.0668399280820156,4.953222809980515,0.8921945588271827,-3.681076640699243,4.753310938121741,-4.698985646127083,0.23099027200734173,-0.1379333181698183,0.6122395839471766,-1.6273733279818887,-0.9740802003182389,-0.9866235156762849
95,-1.0053228342140015,4.936059495111086,0.8956142649355823,-3.6861540584076997,4.745407219344239,-4.744518172716218,0.23432938441268528,-0.11741309489983007,0.6154933500522275,-1.6635707325384101,-0.9933650414628394,-0.9372036070621073
96,-0.9438057403459874,4.918896180241657,0.899033971043982,-3.691231476116156,4.737503500566738,-4.790050699305354,0.23600834275189483,-0.09698789323317539,0.6186115818509269,-1.6988929174076686,-1.0125888054042929,-0.8884949756570407
97,-0.8822886464779733,4.901732865372228,0.9024536771523817,-3.6963088938246127,4.7295997817892355,-4.835583225894489,0.23605223626245206,-0.07678698491440113,0.6215934741662907,-1.7332610190169035,-1.0317420294529767,-0.8405779729093693
98,-0.8207715526099593,4.8845695505028,0.9058733832607813,-3.701386311533069,4.721696063011734,-4.881115752483623,0.23449606600212416,-0.05693675584432364,0.6244382717221827,-1.766585455107571,-1.0508140806065798,-0.7935435896755276
99,-0.7592544587419443,4.86740623563337,0.9092930893691811,-3.7064637292415257,4.713792344234232,-4.92664827907276,0.23138446707981336,-0.037559949698067106,0.62714526947827,-1.798764211831542,-1.069792944862158,-0.7474951704970184
100,-0.6980126091417951,4.850319714119061,0.9126974947791091,-3.711518429197372,4.705923988851708,-4.9719770807107135,0.22679526752633042,-0.018857497885530546,0.6297026298459856,-1.8295454994978946,-1.0885807944737698,-0.7027488759583196
101,-0.6379405476800777,4.833559564364014,0.916036872220533,-3.7164765787046226,4.698205927897839,-5.016440051306143,0.2209077922391074,-0.0011900434033434784,0.6320772548294074,-1.8583967654466973,-1.1068920719749857,-0.6600478983190327
102,-0.5791070854237548,4.81714498470701,0.9193073965188346,-3.7213324983251272,4.69064700222137,-5.0599862596212555,0.21387543878392287,0.015365346402224138,0.6342738955572378,-1.8852274376383198,-1.1246967112432074,-0.6195086891263648
103,-0.5215122223728308,4.8010759751480485,0.9225090676740142,-3.7260861880588827,4.683247211822299,-5.10261570565605,0.20584413245828953,0.030769337275266477,0.6363001886628397,-1.9099789959982851,-1.1419854098760072,-0.5811996703580101
104,-0.4651559585272995,4.785352535687129,0.9256418856860716,-3.7307376479058916,4.676006556700628,-5.144328389410525,0.19695531931173302,0.04499767988542332,0.6381636937332116,-1.9325899631613654,-1.158748427338733,-0.5451918662707177
105,-0.41003829388716806,4.769974666324251,0.9287058505550068,-3.735286877866153,4.668925036856357,-5.185124310884683,0.18734484467030657,0.058039880927992615,0.6398718823212677,-1.9529963695474557,-1.1749755633025918,-0.5115584564046525
106,-0.3561592284524284,4.7549423670594155,0.9317009622808199,-3.739733877939667,4.662002652289485,-5.225003470078524,0.17714203666059652,0.06989785365606808,0.6414321277638015,-1.971132422154799,-1.1906561471937906,-0.4803741233853202
107,-0.3035187622230904,4.740255637892623,0.9346272208635108,-3.7440786481264334,4.655239403000012,-5.263965866992046,0.1664689820856155,0.08058457018307791,0.6428516957767092,-1.9869314245130734,-1.205779042972124,-0.4517141481838098
108,-0.25211689519914415,4.725914478823871,0.9374846263030796,-3.748321188426453,4.648635288987938,-5.302011501625248,0.15543998062062406,0.09012273482314925,0.6441377357981495,-2.0003270000188205,-1.220332674069661,-0.4256532007085076
109,-0.20195362738059242,4.7119188898531625,0.9402731785995264,-3.7524614988397245,4.642190310253264,-5.339140373978134,0.14416116236341273,0.09854349476604411,0.6452972730495854,-2.011254673377821,-1.2343050743905182,-0.4022637710928516
110,-0.15302895876744405,4.698268870980495,0.9429928777528509,-3.756499579366248,4.635904466795989,-5.375352484050701,0.1327302532401619,0.10588520155548871,0.6463372012841109,-2.019653863401634,-1.2476839722286335,-0.38161418851462703
111,-0.10534288935968394,4.684964422205871,0.9456437237630535,-3.7604354300060256,4.629777758616114,-5.410647831842951,0.12123647258388236,0.1121922341868863,0.6472642761910639,-2.0254703327216466,-1.2604569147823677,-0.36376618206071154
112,-0.05889541915732632,4.672005543529289,0.9482257166301338,-3.764269050759054,4.623810185713637,-5.445026417354882,0.10976054731744253,0.11751389218638127,0.648085109425711,-2.0286591233934352,-1.2726114414558722,-0.34877195473654304
113,-0.013686548160361411,4.659392234950748,0.9507388563540919,-3.768000441625336,4.618001748088561,-5.478488240586494,0.09837482753922687,0.12190336479375544,0.6488061632326577,-2.0291879789327214,-1.2841353140930583,-0.33667077014615504
114,0.030283723631203685,4.6471244964702505,0.953183142934928,-3.7716296026048703,4.612352445740884,-5.511033301537789,0.08714348888101119,0.1254167803553249,0.6494337456317097,-2.0270412103779374,-1.2950168113832503,-0.32748509431086414
115,0.07301539621737518,4.635202328087795,0.9555585763726416,-3.7751565336976576,4.606862278670605,-5.542661600208766,0.07612280774224002,0.12811233824286442,0.64997400613502,-2.022223904954137,-1.305245092556834,-0.3212163941106861
116,0.11450846959814953,4.623625729803383,0.9578651566672334,-3.778581234903697,4.601531246877727,-5.5733731365994235,0.06536149636388484,0.13004952404820952,0.6504329319646371,-2.0147663015880672,-1.3148106318098634,-0.31784076815405043
117,0.1547629437735285,4.612394701617011,0.960102883818703,-3.781903706222989,4.596359350362247,-5.603167910709764,0.05490108565334645,0.13128840745441706,0.6508163447399169,-2.004728072460137,-1.3237057194069723,-0.3173046709419647
118,0.19377881874350855,4.601509243528682,0.9622717578270504,-3.785123947655534,4.591346589124168,-5.632045922539786,0.04477634467850528,0.13188902104346228,0.6511298976046974,-1.9922021636909568,-1.33192501807625,-0.31952107727782536
119,0.23155609450809678,4.590969355538395,0.9643717786922757,-3.78824195920133,4.586492963163487,-5.660007172089489,0.035015726786698016,0.1319108173553593,0.6513790727646637,-1.9773177766295125,-1.3394661544544055,-0.3243665055018052
120,0.2680947710672843,4.58077503764615,0.9664029464143788,-3.791257740860381,4.581798472480206,-5.687051659358876,0.025641833349949517,0.13141220075029314,0.6515691794059311,-1.9602420343110734,-1.3463303157803548,-0.3316793550251421
121,0.30339484842108,4.570926289851947,0.96836526099336,-3.7941712926326825,4.577263117074324,-5.713179384347943,0.01667188717131939,0.13045013002867428,0.6517053519665122,-1.9411798972242427,-1.3525228131265483,-0.34125999406577684
122,0.33745632656947855,4.561423112155786,0.9702587224292188,-3.796982614518237,4.5728868969458425,-5.738390347056691,0.008118208592657385,0.12907978731803268,0.65179254873307,-1.9203719859112642,-1.358053565994195,-0.35287294010007253
123,0.37027920551247817,4.552265504557669,0.9720833307219556,-3.7996917065170446,4.568669812094758,-5.762684547485122,-1.1311691852050436e-05,0.12735430842422307,0.6518355507360953,-1.898090140663035,-1.3629374610150955,-0.3662513028056313
124,0.4018634852500842,4.543453467057592,0.9738390858715701,-3.8022985686291046,4.564611862521075,-5.786061985633237,-0.007712748199275182,0.12532456965145855,0.6518389609174838,-1.8746307878595196,-1.3671945413839413,-0.3811034199792363
125,0.4322091657822895,4.534986999655559,0.9755259878780624,-3.8048032008544173,4.560713048224791,-5.808522661501031,-0.014985688827927841,0.12303902600560877,0.6518072035452852,-1.8503064548509773,-1.3708499941617784,-0.3971213445673537
126,0.461316247109103,4.526866102351567,0.9771440367414328,-3.8072056031929824,4.556973369205906,-5.830066575088506,-0.021832799073760838,0.12054359569304884,0.6517445238513149,-1.825436031062521,-1.373933919060157,-0.4139905851577187
127,0.4891847292305176,4.519090775145617,0.978693232461681,-3.8095057756447996,4.55339282546442,-5.850693726395668,-0.028259405011276936,0.11788158589904404,0.6516549878681721,-1.8003345583033095,-1.3764808825922508,-0.431400316980267
128,0.5158146121465386,4.511661018037711,0.980173575038807,-3.81170371820987,4.549971417000334,-5.870404115422506,-0.03427309710451902,0.11509365496205233,0.6515424824431517,-1.7753034055964554,-1.378529282323197,-0.44905320812917277
129,0.5412058958571606,4.504576831027847,0.981585064472811,-3.813799430888193,4.546709143813647,-5.8891977421690305,-0.039883356330122965,0.11221780624146169,0.65141071540746,-1.750621625969539,-1.3801205638015244,-0.4666740635927695
130,0.5653585803623873,4.497838214116024,0.9829277007636927,-3.8157929136797675,4.54360600590436,-5.907074606635232,-0.04510120357902764,0.10928940919519183,0.6512632158800896,-1.7265391183915155,-1.3812983446456406,-0.484016663930445
131,0.5882726656622186,4.491445167302243,0.9842014839114523,-3.8176841665845953,4.540662003272471,-5.924034708821118,-0.049938872853969606,0.10634124343056324,0.6511033346866583,-1.7032719676195025,-1.3821075045850524,-0.5008684258570217
132,0.6099481517566527,4.485397690586504,0.9854064139160899,-3.8194731896026757,4.537877135917983,-5.940078048726687,-0.054409508393574633,0.10340356175826863,0.6509342448744886,-1.6810000615720075,-1.3825932970642063,-0.5170527851403525
133,0.6303850386456897,4.4796957839688085,0.9865424907776051,-3.8211599827340086,4.535251403840893,-5.955204626351936,-0.05852688552725134,0.10050416855764523,0.6507589423061496,-1.6598668407794788,-1.3828005288049152,-0.5324294472825836
134,0.6495833263293349,4.474339447449154,0.9876097144959982,-3.822744545978594,4.532784807041203,-5.969414441696868,-0.062305154794411635,0.09766851004537525,0.6505802463146582,-1.6399808531667286,-1.382772840856092,-0.5468928327505507
135,0.6675430148075776,4.469328681027543,0.9886080850712693,-3.824226879336432,4.5304773455189125,-5.982707494761479,-0.06575860864269321,0.09491977332376492,0.6504008004044947,-1.6214186850216779,-1.3825521106689969,-0.5603691459196803
136,0.6842641040804285,4.464663484703973,0.9895376025034182,-3.8256069828075225,4.528329019274021,-5.995083785545777,-0.06890146984869482,0.09227899136443268,0.6502230729835407,-1.6042288117496226,-1.382177981747709,-0.5728125241498838
137,0.699746594147884,4.460343858478446,0.9903982667924449,-3.8268848563918656,4.526339828306528,-6.006543314049752,-0.07174770067691395,0.0897651513550048,0.6500493581120054,-1.5884359435018154,-1.3816875168381908,-0.5842006919212641
138,0.7139904850099388,4.4563698023509595,0.9911900779383497,-3.8280605000894616,4.524509772616436,-6.01708608027341,-0.07431083170410051,0.08739530409740413,0.6498817762553583,-1.574045509412857,-1.3811149630587733,-0.5945304763105512
139,0.7269957766666,4.452741316321517,0.9919130359411321,-3.829133913900309,4.522838852203742,-6.0267120842167525,-0.07660380918285185,0.08518467239454532,0.649722275029211,-1.5610480093131698,-1.3804916128253524,-0.6038134549563194
140,0.738762469117864,4.449458400390116,0.9925671408007924,-3.830105097824411,4.521327067068449,-6.035421325879774,-0.07863885979626657,0.08314675659620756,0.6495726299250452,-1.5494230472728232,-1.3798457424551098,-0.6120719221700349
141,0.7492905623637327,4.446521054556758,0.9931523925173307,-3.830974051861763,4.5199744172105545,-6.043213805262477,-0.08042737166105496,0.08129343569375587,0.6494344450065961,-1.5391429368008962,-1.3792026103180017,-0.6193352833808995
142,0.7585800564042025,4.443929278821441,0.9936687910907467,-3.831740776012369,4.518780902630059,-6.050089522364866,-0.08197979046631772,0.07963506255682493,0.6493091535676185,-1.5301758278552444,-1.378584497697597,-0.6256369277707321
143,0.7666309512392804,4.441683073184167,0.9941163365210407,-3.8324052702762277,4.517746523326963,-6.056048477186932,-0.08330552968599508,0.07818055209323152,0.6491980187426882,-1.5224883498555488,-1.378010777555311,-0.6310115849160095
144,0.7734432468689576,4.439782437644935,0.9944950288082125,-3.8329675346533385,4.516871279301267,-6.061090669728685,-0.08441289387189282,0.07693746128663152,0.6491021340635686,-1.516047793958153,-1.3774979987280993,-0.6354931421876908
145,0.779016943293243,4.438227372203745,0.9948048679522622,-3.8334275691437023,4.5161551705529694,-6.065216099990115,-0.0853090141184664,0.07591206022567334,0.6490224239545983,-1.5108238744936002,-1.3770599754274289,-0.6391128830155771
146,0.7833520405121295,4.4370178768605975,0.9950458539531895,-3.833785373747318,4.515598197082072,-6.06842476797123,-0.08599979488778509,0.07510939338465433,0.6489596441614208,-1.5067901165654276,-1.3767078740642842,-0.6418980990258075
147,0.7864485385256206,4.436153951615491,0.9952179868109948,-3.834040948464187,4.515200358888573,-6.070716673672022,-0.08648987149107881,0.07453333055026477,0.648914382108268,-1.5039249170358995,-1.3764502913107672,-0.6438710288313357
148,0.7883064373337145,4.435635596468428,0.9953212665256781,-3.8341942932943076,4.514961655972474,-6.072091817092504,-0.08678257763995408,0.07418660691345616,0.6488870571798994,-1.5022123216963503,-1.3762933188994104,-0.6450480806826969
149,0.7889257369364131,4.4354628114194075,0.9953556930972391,-3.834245408237682,4.514882088333774,-6.072550198232662,-0.08687992260396145,0.0740708519613683,0.6488779209251446,-1.501642554017857,-1.37624059197536,-0.6454393035868294
