nimar13/UR3e_dataset_trayectorias/data/trayectorias_completas_UR3e_TRAPEZOIDAL/trayectoria_048.csv
Punto,shoulder_pan_joint,shoulder_lift_joint,elbow_joint,wrist_1_joint,wrist_2_joint,wrist_3_joint,Posicion_X,Posicion_Y,Posicion_Z,Roll,Pitch,Yaw
0,2.995553884801911,5.6244854134150755,0.01100207961425248,-2.8777992361504636,2.8909001812237065,-3.1454853288421223,-0.3128753779608654,0.003271504052032692,0.510151702626264,0.37020197348635964,0.09013833457975402,1.1903637106761702
1,2.994968083743649,5.624391814995302,0.011194666934438166,-2.8776459080159706,2.8909164181871976,-3.1447763632089427,-0.3128910663605662,0.0034577346724010243,0.510166799927932,0.3706658003945598,0.09007407240462514,1.1897700583590907
2,2.993210680568863,5.624111019735979,0.011772428894995225,-2.877185923612491,2.89096512907767,-3.142649466309403,-0.31293746828656005,0.004016543506895041,0.5102120454336833,0.3720572874611981,0.08988129616434415,1.1879892050100045
3,2.990281675277553,5.623643027637108,0.012735365495923657,-2.876419282940025,2.8910463138951243,-3.1391046381435044,-0.3130125927898358,0.004948277535993181,0.5102872998887157,0.3743764535740666,0.08956003698895698,1.1850214613379908
4,2.986181067869719,5.622987838698689,0.01408347673722346,-2.875345985998573,2.8911599726395605,-3.134141878711246,-0.31311311788912294,0.006253501913909956,0.5103923310118631,0.3776233297519713,0.08911034767712285,1.1808673448662563
5,2.9809088583453605,5.622145452920722,0.01581676261889464,-2.8739660327881342,2.8913061053109783,-3.1277611880126286,-0.3132343850862259,0.007932980199054893,0.5105268132120228,0.38179795845427805,0.0885323040671817,1.1755275794418378
6,2.9744650467044784,5.621115870303207,0.017935223140937186,-2.8722794233087097,2.891484711909378,-3.119962566047651,-0.31337039191773314,0.00998764657859099,0.5106903271934822,0.38690039261591036,0.08782600695302181,1.1690030945444294
7,2.966849632947072,5.619899090846143,0.02043885830335111,-2.8702861575602983,2.891695792434759,-3.1107460128163145,-0.3135137827752199,0.012418569991949326,0.5108823594524926,0.3929306944095182,0.08699158454109249,1.161295024389536
8,2.958062617073142,5.618495114549531,0.023327668106136405,-2.867986235542901,2.8919393468871224,-3.100111528318618,-0.31365583829503985,0.015226910035197296,0.5111023016681069,0.399888933737124,0.08602919544385619,1.1524047068199015
9,2.9481039990826874,5.616903941413371,0.02660165254929307,-2.865379657256517,2.892215375266467,-3.088059112554562,-0.3137864636896829,0.018413864508462385,0.5113494499909987,0.40777518645418614,0.08493903220386663,1.1423336819777916
10,2.9369737789757093,5.615125571437662,0.030260811632821114,-2.862466422701147,2.8925238775727937,-3.0745887655241466,-0.31389417646580736,0.021980608452945884,0.5116230042346708,0.4165895323298188,0.08372132534154648,1.131083690749484
11,2.924671956752207,5.613160004622405,0.03430514535672052,-2.8592465318767903,2.8928648538061017,-3.0597004872273716,-0.31396609404973436,0.025928224513301644,0.5119220669741751,0.4263320527476958,0.08237634791860518,1.1186566729720078
12,2.9111985324121807,5.6110072409676,0.0387346537209913,-2.8557199847834474,2.893238303966392,-3.0433942776642375,-0.31398792191962605,0.03025762445616124,0.5122456425581975,0.4370028281531766,0.08090442060784322,1.1050547653910119
13,2.89655350595563,5.608667280473247,0.043549336725633464,-2.8518867814211184,2.8936442280536636,-3.0256701368347434,-0.31394394292489763,0.034969461677342474,0.5125926360410968,0.4486019352532803,0.07930591725887695,1.090280299357399
14,2.8807368773825557,5.606140123139346,0.048749194370646995,-2.847746921789803,2.894082626067917,-3.00652806473889,-0.3138170085577041,0.04006403453976688,0.5129618520422364,0.4611294439773186,0.0775812709480662,1.0743357982492492
15,2.863748646692957,5.603425768965896,0.054334226656031895,-2.843300405889501,2.8945534980091523,-2.9859680613766773,-0.31358853302849954,0.04554118040243123,0.5133519935407446,0.4745854142074586,0.07573098049960372,1.057223974604386
16,2.8455888138868346,5.600524217952898,0.06030443358178818,-2.8385472337202127,2.8950568438773696,-2.963990126748105,-0.3132384910875315,0.051400160229032765,0.5137616606146013,0.48896989228992993,0.07375561746337705,1.038947726947888
17,2.826257378964188,5.5974354701003515,0.06665981514791583,-2.833487405281938,2.895592663672568,-2.9405942608531728,-0.3127454206263327,0.05763953370427199,0.5141893491337869,0.5042829073393473,0.07165583353379255,1.0195101362977281
18,2.8057543419250175,5.594159525408257,0.07340037135441484,-2.8281209205746776,2.896160957394749,-2.9157804636918816,-0.31208643118733437,0.06425702483765797,0.5146334494180461,0.5205244673504746,0.06943236839227637,0.9989144623307218
19,2.784079702769323,5.590696383876614,0.08052610220128524,-2.82244777959843,2.896761725043911,-2.8895487352642304,-0.3112372196049218,0.07124937810016578,0.515092244870669,0.5376945551337466,0.06708605795461184,0.9771641391899
20,2.7612334614971044,5.5870460455054225,0.08803700768852701,-2.816467982353197,2.897394966620055,-2.86189907557022,-0.3101720940966753,0.07861220521963136,0.515563910600569,0.5557931240931413,0.06461784300266935,0.9542627709134307
21,2.7372156181083613,5.583208510294684,0.09593308781614014,-2.8101815288389767,2.8980606821231807,-2.83283148460985,-0.3088640082180695,0.08633982285772646,0.516046512045818,0.5748200938672742,0.062028778178368944,0.9302141264641777
22,2.7120261726030948,5.579183778244396,0.10421434258412467,-2.8035884190557705,2.898758871553288,-2.8023459623831206,-0.307284606186054,0.09442508150603166,0.5165380036127097,0.5947753458572254,0.05932004131595994,0.9050221343380103
23,2.685665124981304,5.57497184935456,0.11288077199248053,-2.796688653003578,2.8994895349103773,-2.7704425088900315,-0.30540428116508883,0.10285918607252716,0.5170362273453404,0.615658718667198,0.05649294308678711,0.8786908767279119
24,2.658132475242989,5.570572723625176,0.12193237604120778,-2.7894822306823994,2.900252672194448,-2.737121124130583,-0.3031922481912508,0.11163150878393266,0.5175389116416403,0.6374700034870395,0.05354893692878016,0.8512245832199586
25,2.6294282233881505,5.565986401056243,0.13136915473030644,-2.781969152092234,2.9010482834055007,-2.702381808104775,-0.30061663348365614,0.12072939520502868,0.5180436700327355,0.6602089394485793,0.0504896292307818,0.8226276239961496
26,2.5995523694167875,5.561212881647763,0.14119110805977642,-2.7741494172330827,2.9018763685435354,-2.6662245608126076,-0.2976445819549018,0.1301379643743371,0.5185480000434776,0.6838752089908434,0.04731678973964596,0.7929045025180064
27,2.5685049133289004,5.556252165399734,0.1513982360296178,-2.7660230261049445,2.9027369276085513,-2.62864938225408,-0.2942423847803968,0.1398399042772185,0.5190492821529692,0.7084684332724346,0.044032362155692596,0.7620598476637755
28,2.53628585512449,5.5511042523121565,0.16199053863983054,-2.7575899787078204,2.9036299606005493,-2.5896562724291936,-0.29037562891684915,0.14981526412314472,0.5195447788748517,0.7339881676725883,0.04063847487963822,0.7300984052909221
29,2.5028951948035547,5.545769142385031,0.17296801589041466,-2.74885027504171,2.904555467519529,-2.549245231337948,-0.2860093704688225,0.16004124516385668,0.5200316339781308,0.7604338974258098,0.03713745187148925,0.6970250291944404
30,2.4683329323660956,5.540246835618357,0.18433066778137014,-2.739803915106613,2.90551344836549,-2.507416258980342,-0.2811083337849072,0.1704919920832234,0.5205068718702699,0.7878050334382797,0.03353182357909548,0.662844671430353
31,2.4325990678121125,5.534537332012135,0.19607849431269703,-2.73045089890253,2.906503903138433,-2.4641693553563773,-0.2756371381168472,0.18113838730719067,0.5209673971652382,0.8161009083375947,0.029824337891094687,0.6275623719725604
32,2.3956936011416055,5.528640631566365,0.20821149548439527,-2.7207912264294603,2.9075268318383585,-2.4195045204660524,-0.26956055359087366,0.19194785092206643,0.5214099944601595,0.845320772810649,0.026017971065815958,0.5911832476700162
33,2.3576165323545744,5.522556734281046,0.22072967129646484,-2.7108248976874045,2.908582234465265,-2.3734217543093683,-0.2628437881149731,0.20288414924957104,0.5218313283451248,0.8754637922876533,0.022115938584346073,0.553712480470052
34,2.3183678614510193,5.5162856401561795,0.23363302174890588,-2.700551912676362,2.909670111019153,-2.3259210568863247,-0.2554528066731116,0.2139072155048927,0.5222279436716339,0.9065290440332868,0.01812170587238254,0.5151553048725462
35,2.27794758843094,5.509827349191765,0.2469215468417182,-2.689972271396334,2.9107904615000235,-2.2770024281969214,-0.24735468423150775,0.22497298635575325,0.5225962661059872,0.9385155147087741,0.01403899883168684,0.475516994578611
36,2.236355713294337,5.503181861387802,0.2605952465749019,-2.679085973847319,2.911943285907875,-2.226665868241159,-0.23851799319670877,0.23603325860154484,0.5229326029947721,0.9714220984711838,0.009871814117891429,0.43480284829657073
37,2.1935922360412095,5.49634917674429,0.27465412094845704,-2.6678930200293176,2.913128584242709,-2.1749113770190367,-0.22891322601430386,0.247035570596053,0.5232331445703581,1.005247595678425,0.005624429097129852,0.39301817466730776
38,2.1496571566715583,5.489329295261229,0.2890981699623835,-2.65639340994233,2.9143463565045242,-2.1217389545305547,-0.21851325307444974,0.257923113438035,0.5234939655250026,1.0399907122700915,0.0013014114093887052,0.35016827627055697
39,2.104550475185383,5.482122216938621,0.3039273936166814,-2.644587143586356,2.915596602693321,-2.0671486007757136,-0.207293815590242,0.26863467734241153,0.5237110269828137,1.0756500598955474,-0.003092371938333013,0.306258432673637
40,2.0582721915826836,5.474727941776465,0.3191417919113506,-2.632474220961396,2.9168793228090997,-2.011140315754513,-0.1952340525319586,0.27910463897104815,0.5238801788993593,1.1122241568611575,-0.007551746031027717,0.2612938824843665
41,2.0108223058634604,5.467146469774761,0.33474136484639117,-2.6200546420674495,2.9181945168518606,-1.9537140994669528,-0.1823170600297579,0.28926299583442733,0.523997162919152,1.1497114299684361,-0.012071220144143045,0.21527980437070304
42,1.962200818027713,5.459377800933508,0.3507261124218031,-2.6073284069045166,2.9195421848216028,-1.8948699519130332,-0.16853048089594266,0.29903545416070676,0.5240576157215949,1.1881102173138516,-0.016644980574341474,0.16822129701111133
43,1.9124077280754417,5.451421935252706,0.3670960346375864,-2.5942955154725973,2.9209223267183266,-1.8346078730927542,-0.15386712106313621,0.3083435768518154,0.5240570728861853,1.2274187721190235,-0.021266884301140265,0.1201233579418244
44,1.8614430360066458,5.443278872732357,0.3838511314937412,-2.5809559677716916,2.9223349425420326,-1.772927863006115,-0.1383255887860284,0.31710499829077204,0.5239909733078607,1.2676352676569815,-0.025930453583940628,0.07099086127028262
45,1.8093067418213264,5.434948613372459,0.4009914029902673,-2.5673097638018,2.92378003229272,-1.7098299216531168,-0.12191095141323051,0.3252337128122033,0.523854664193308,1.3087578033357796,-0.03062887160499252,0.02082853422816763
46,1.755998845519483,5.426431157173013,0.4185168491271647,-2.5533569035629213,2.9252575959703893,-1.6453140490337592,-0.10463540340608395,0.332640443579428,0.5236434066688206,1.3507844119950565,-0.0353549792749475,-0.030359067457181213
47,1.7015193471011154,5.417726504134019,0.43642746990443354,-2.539097387055057,2.9267676335750403,-1.5793802451480419,-0.08651893806984985,0.33923309840559346,0.523352382029896,1.3937130684638586,-0.04010127332373635,-0.08256758538743907
48,1.645868246566224,5.408834654255477,0.4547232653220737,-2.5245312142782064,2.928310145106673,-1.5120285099959652,-0.06759001417968107,0.34491731869128783,0.5229766986621338,1.4375416994190884,-0.044859905805493774,-0.13579288552021207
49,1.5890455439148083,5.399755607537386,0.4734042353800852,-2.509658385232369,2.9298851305652875,-1.443258843577529,-0.04788620734312327,0.34959712710428464,0.5225113996622016,1.4822681945732195,-0.04962268515200188,-0.19003108639434316
50,1.5311163281533413,5.390499763804166,0.4924489814873365,-2.494495936376933,2.9314907858438293,-1.373150019851975,-0.027477919769281534,0.3531723496625398,0.5219521477180314,1.5278392309961548,-0.05437579743385238,-0.24521664288209621
51,1.4729267563659811,5.381202320773269,0.5115793219591146,-2.479265341683945,2.933103657550589,-1.3027261002894526,-0.0067267461631416205,0.355525430128639,0.5213042327442224,1.5735877157663365,-0.05904366535159217,-0.300542885514006
52,1.4147371845786205,5.371904877742372,0.5307096624308928,-2.4640347469909574,2.934716529257349,-1.2323021807269305,0.014198771574899769,0.3566192916366076,0.520570161584567,1.6193083516013311,-0.06360225492810222,-0.35576492603145105
53,1.3565476127912603,5.362607434711475,0.5498400029026709,-2.4488041522979693,2.9363294009641088,-1.161878261164408,0.03521972315284701,0.356440660578177,0.5197501664702656,1.6650008077569471,-0.0680492332598715,-0.4108862083839031
54,1.2983580410039002,5.353309991680578,0.5689703433744491,-2.4335735576049813,2.9379422726708686,-1.091454341601886,0.05625611570119013,0.3549813707964604,0.5188445249848335,1.710664845080531,-0.07238237275672188,-0.46591023669156706
55,1.24016846921654,5.344012548649681,0.5881006838462273,-2.4183429629119937,2.9395551443776284,-1.0210304220393636,0.07722721528566728,0.3522384570256139,0.5178535598949092,1.756300315079423,-0.07659955293371552,-0.520840573655308
56,1.181978897429179,5.334715105618784,0.6072310243180055,-2.4031123682190056,2.9411680160843883,-0.9506065024768406,0.09805189672865128,0.34821422473669295,0.5167776389509833,1.8019071587359492,-0.08069876216433432,-0.57568083878952
57,1.1237893256418188,5.325417662587887,0.6263613647897837,-2.3878817735260176,2.942780887791148,-0.8801825829143182,0.11864900005535683,0.34291629564462583,0.5156171746581761,1.8474854050707659,-0.08467809938694458,-0.6304347064724275
58,1.0655997538544586,5.316120219556989,0.6454917052615619,-2.3726511788330296,2.944393759497908,-0.8097586633517961,0.1389376918144867,0.33635762825524823,0.5143726240172357,1.8930351694573113,-0.0885357757564143,-0.6851059038095149
59,1.0074101820670984,5.306822776526093,0.6646220457333398,-2.3574205841400415,2.9460066312046678,-0.7393347437892741,0.15883782946576083,0.3285565129612776,0.5130444882359338,1.9385566516910577,-0.09227011623262285,-0.7396982083070783
60,0.9492206102797383,5.297525333495195,0.683752386205118,-2.3421899894470535,2.9476195029114276,-0.6689108242267512,0.17827032697955594,0.31953654133119136,0.511633312411061,1.9840501338182746,-0.09587956109755721,-0.7942154453542469
61,0.8910310384923776,5.288227890464299,0.7028827266768962,-2.326959394754066,2.9492323746181874,-0.5984869046642292,0.19715751975702436,0.30932654937445403,0.5101396851812465,2.0295159777300316,-0.0993626673927124,-0.8486614855131261
62,0.832841466705017,5.278930447433401,0.7220130671486744,-2.3117288000610774,2.9508452463249473,-0.5280629851017062,0.21542352695301195,0.29796053470955913,0.5085642383508432,2.0749546225282947,-0.10271811026854603,-0.9030402416181235
63,0.7746518949176568,5.269633004402505,0.7411434076204526,-2.29649820536809,2.952458118031707,-0.4576390655391842,0.23299460926914795,0.2854775477071141,0.5069076464851393,2.120366581672,-0.10594468423787967,-0.9573556656868818
64,0.7164623231302967,5.260335561371607,0.7602737480922308,-2.2812676106751018,2.954070989738467,-0.3872151459766613,0.2497995202808991,0.2719215568277477,0.5051706264771827,2.1657524399121395,-0.10904130432534347,-1.0116117456466092
65,0.6582727513429361,5.25103811834071,0.7794040885640088,-2.2660370159821137,2.9556838614452268,-0.31679122641413926,0.2657698493703875,0.2573412885231214,0.503353937086514,2.211112850025966,-0.11200700710515703,-1.0658125018809594
66,0.6000831795555759,5.2417406753098135,0.798534429035787,-2.250806421289126,2.9572967331519866,-0.24636730685161723,0.28084035435642185,0.24179004221679928,0.5014583784501323,2.2564485293615166,-0.11484095161988943,-1.1199619836039532
67,0.5418936077682153,5.232443232278916,0.8176647695075654,-2.235575826596138,2.9589096048587464,-0.1759433872890943,0.2949492819445924,0.22532548102926073,0.4994847915660379,2.3017602562047226,-0.1175424201731557,-1.1740642650687199
68,0.4837040359808551,5.2231457892480195,0.8367951099793434,-2.22034523190315,2.9605224765655063,-0.10551946772657228,0.30803867416333836,0.20800939905700927,0.49743405774969746,2.347048865982352,-0.1201108189896568,-1.2281234416200735
69,0.4255144641934949,5.213848346217122,0.8559254504511216,-2.205114637210162,2.962135348272266,-0.03509554816404936,0.32005465900653113,0.18990746615852483,0.4953070980638257,2.392315247315069,-0.12254567873640061,-1.2821436256011474
70,0.36732489240613475,5.204550903186226,0.8750557909228998,-2.189884042517174,2.963748219979026,0.03532837139847267,0.3309477235691307,0.17108895133888585,0.493104872721865,2.4375603379357127,-0.12484665489946521,-1.336128942125381
71,0.3091353206187737,5.195253460155328,0.894186131394678,-2.174653447824186,2.9653610916857858,0.1057522909609947,0.3406729680395835,0.15162642595924058,0.4908283804655863,2.482785120488831,-0.12701352801122232,-1.390083524726239
72,0.2509457488314135,5.185956017124431,0.9133164718664559,-2.159422853131198,2.9669739633925456,0.17617621052351762,0.34919033900053353,0.1315954481261087,0.48847865791723666,2.527990618228143,-0.12904620372352588,-1.444011510897913
73,0.19275617704405335,5.176658574093534,0.9324468123382343,-2.14419225843821,2.9685868350993054,0.24660013008604054,0.35646484058762784,0.11107422973779277,0.486056778906683,2.5731778906293594,-0.13094471272298847,-1.4979170375411497
74,0.13456660525669317,5.167361131062637,0.9515771528100125,-2.128961663745222,2.9701997068060653,0.31702404964856257,0.36246672216432735,0.09014328778021237,0.4835638537740264,2.6183480289362997,-0.1327092104851544,-1.5518042363290452
75,0.076377033469333,5.15806368803174,0.9707074932817905,-2.1137310690522346,2.971812578512825,0.3874479692110837,0.3671716412880066,0.06888508157136468,0.4810010286481516,2.6635021516586668,-0.13433997686503227,-1.6056772290082544
76,0.01818746168197194,5.148766245000843,0.9898378337535689,-2.098500474359246,2.973425450219585,0.4578718887736075,0.3705608008687239,0.04738363775163683,0.47836948470173335,2.708641400040227,-0.1358374155221564,-1.659540122651564
77,-0.04000211010538823,5.1394688019699455,1.0089681742253471,-2.0832698796662585,2.9750383219263448,0.5282958083361295,0.37262105955610386,0.025724164905643096,0.47567043738319364,2.7537669335162893,-0.13720205317906958,-1.7133970048781333
78,-0.0981916818927484,5.130171358939049,1.028098514697125,-2.0680392849732705,2.9766511936331046,0.5987197278986525,0.3733450145310953,0.003992659779438832,0.4729051356261587,2.7988799251795315,-0.1384345387128327,-1.7672519390579424
79,-0.15638125368010947,5.1208739159081516,1.0472288551689033,-2.0528086902802825,2.9782640653398644,0.6691436474611745,0.3727310560271214,-0.01772449287567579,0.4700748610369514,2.8439815572730986,-0.1395356420798734,-1.8211089595170808
80,-0.21457082546746964,5.111576472877255,1.0663591956406815,-2.0375780955872944,2.9798769370466243,0.7395675670236965,0.37078339305849534,-0.0393409247455956,0.4671809270606811,2.8890730167297995,-0.14050625307522255,-1.8749720667604763
81,-0.2727603972548298,5.102279029846358,1.0854895361124597,-2.0223475008943064,2.981489808753384,0.8099914865862194,0.36751204999201936,-0.06077069055080571,0.46422467812651524,2.9341554907758924,-0.14134737992786878,-1.9288452227285389
82,-0.33094996904219,5.09298158681546,1.1046198765842377,-2.0071169062013183,2.983102680460144,0.8804154061487415,0.3629328337595097,-0.08192867463555392,0.4612074887727119,2.97923016261753,-0.14206014773465098,-1.982732346103847
83,-0.38913954082955016,5.083684143784564,1.1237502170560159,-1.9918863115083305,2.9847155521669038,0.9508393257112635,0.3570672716735861,-0.10273099536632925,0.4581307627520277,3.0242982072274365,-0.14264579673578356,-2.0366373076836664
84,-0.44732911261691033,5.074386700753666,1.142880557527794,-1.9766557168153427,2.9863284238736636,1.0212632452737864,0.3499425199754895,-0.1230954051506456,0.45499593211811235,3.0693607872486672,-0.143105680435697,-2.090563925833508
85,-0.5055186844042705,5.06508925772277,1.1620108979995722,-1.9614251221223546,2.9879412955804234,1.0916871648363085,0.3415912434108922,-0.14294168389360096,0.4518044562935211,3.114419049031589,-0.1434412635735389,-2.144515962036335
86,-0.5637082561916307,5.055791814691872,1.1811412384713502,-1.9461945274293668,2.9895541672871833,1.1621110843988305,0.332051466296616,-0.16219202372918679,0.4485578211199921,-3.1237111883602333,-0.14365411994817293,-2.1984971165512945
87,-0.6218978279789908,5.046494371660975,1.2002715789431284,-1.9309639327363788,2.991167038993943,1.2325350039613525,0.3213663957068703,-0.1807714028958725,0.44525753789163897,-3.0786582080834597,-0.14374593010308617,-2.252511024194985
88,-0.6800873997663528,5.037196928630078,1.2194019194149068,-1.9157333380433907,2.992779910700703,1.3029589235238763,0.309584217570971,-0.19860794667151357,0.44190514237172823,-3.0336062420682066,-0.14371847887704123,-2.306561250257434
89,-0.738276971553713,5.027899485599181,1.238532259886685,-1.9005027433504027,2.9943927824074628,1.3733828430863984,0.2967578666345374,-0.21563327334092913,0.4385021937937215,-2.9885542455872383,-0.1435736528267684,-2.3606512865638987
90,-0.7964665433410731,5.0186020425682845,1.2576626003584632,-1.8852721486574149,2.9960056541142226,1.4438067626489213,0.28294477139180996,-0.23178282324036642,0.43505027384726486,-2.9435012075239237,-0.14331343752834302,-2.414784547692652
91,-0.8546561151284333,5.009304599537387,1.2767929408302412,-1.8700415539644268,2.9976185258209824,1.5142306822114433,0.2682065752470202,-0.24699616900608518,0.431550985649833,-2.898446153251708,-0.1429399147642156,-2.46896436735775
92,-0.9128456869157935,5.00000715650649,1.2959232813020194,-1.854810959271439,2.9992313975277423,1.5846546017739653,0.25260883530670875,-0.26121730524918396,0.42800595270472774,-2.8533881472961866,-0.142455259603143,-2.523193994964718
93,-0.9710352587031537,4.990709713475593,1.3150536217737976,-1.839580364578451,3.000844269234502,1.6550785213364883,0.23622070034155068,-0.27439491598490057,0.42441681784615753,-2.808326295772603,-0.14186173738045113,-2.57747659234592
94,-1.0292248304905138,4.981412270444696,1.3341839622455758,-1.8243497698854632,3.002457140941262,1.7255024408990103,0.21911456958475772,-0.2864826182615072,0.42078524217211954,-2.7632597485928843,-0.1411617005862496,-2.631815230681231
95,-1.087414402277874,4.972114827413799,1.3533143027173538,-1.8091191751924751,3.0040700126480218,1.7959263604615323,0.2013657341535935,-0.2974391805608714,0.4171129039658188,-2.718187701437634,-0.1403575856692902,-2.6862128876084683
96,-1.145603974065235,4.962817384382902,1.372444643189132,-1.7938885804994873,3.0056828843547816,1.8663502800240543,0.1830520029901676,-0.30722871467908897,0.4134014976063733,-2.6731093974898346,-0.13945190976423893,-2.7406724445269006
97,-1.2037935458525952,4.953519941352004,1.3915749836609101,-1.7786579858064993,3.0072957560615414,1.9367741995865773,0.16425331531673107,-0.3158208399405311,0.4096527324695435,-2.6280241289282764,-0.1384472673501052,-2.795196684096033
98,-1.2619831176399554,4.944222498321108,1.4107053241326883,-1.7634273911135112,3.0089086277683013,2.0071981191490993,0.1450513416884743,-0.3231908187513486,0.4058683318192594,-2.5829312381800085,-0.13734632684754694,-2.8497882879307843
99,-1.3201726894273165,4.93492505529021,1.4298356646044668,-1.7481967964205232,3.010521499475061,2.077622038711623,0.12552907580273087,-0.3293196626580424,0.4020500316906928,-2.5378301189323196,-0.1361518271626525,-2.90444983449309
100,-1.3781019051887817,4.925669211556991,1.448880410711718,-1.7330343475650873,3.012127154753603,2.147730862437177,0.10585922645110611,-0.33417520467002865,0.39821687674361367,-2.4929220712427886,-0.13487252264848307,-2.958938737665438
101,-1.4349246078401983,4.9165901648389,1.4675613807697296,-1.7181615185192505,3.0137021402122173,2.2165005288556126,0.08641785837282931,-0.33772330146924534,0.39442765631501886,-2.4488628829285166,-0.13353300433207524,-3.0124588227557214
102,-1.4905757083750864,4.907698314960357,1.4858571761873698,-1.7035953457423993,3.01524465174385,2.283852264007688,0.06731221002909964,-0.3400307968746741,0.39069004877686786,-2.4057031484448457,-0.13214248767819273,-3.064946538497262
103,-1.5450552067934549,4.898993661921363,1.5037677969646381,-1.6893358292345344,3.016754689348501,2.349786067893408,0.0486176426230842,-0.3411741381715422,0.3870072156447249,-2.3634430911129405,-0.1307084131936714,-3.11639926498847
104,-1.5983631030952985,4.890476205721917,1.5212932431015358,-1.6753829689956568,3.01823225302617,2.4143019405127646,0.03039987112080625,-0.3412321761660596,0.3833820989347673,-2.3220830048633303,-0.129237838583651,3.116371145156173
105,-1.650499397280619,4.882145946362019,1.5384335145980619,-1.6617367650257646,3.0196773427768577,2.477399881865762,0.012715292854566063,-0.34028520849334387,0.37981742937855834,-2.281623243300419,-0.12773744491592082,3.066997108756055
106,-1.7014640893494146,4.87400288384167,1.5551886114542164,-1.6483972173248596,3.0210899586005637,2.5390798919524,-0.004388615504354654,-0.33841411182713615,0.37631573476952446,-2.242064209591083,-0.12621354399095558,3.0186671274865082
107,-1.7512571793016862,4.866047018160869,1.5715585336699993,-1.6353643258929402,3.0224701004972876,2.5993419707726773,-0.02087284580950034,-0.33569956373531923,0.37287934840016357,-2.203406347179637,-0.12467208676539375,2.971384533170911
108,-1.7998786671374347,4.858278349319616,1.587543281245411,-1.622638090730007,3.0238177684670298,2.6581861183266007,-0.036706363469286435,-0.33222135351299537,0.3695104175519547,-2.165650131320293,-0.12311867268572489,2.925152770614754
109,-1.8473285528566556,4.850696877317912,1.6031428541804522,-1.6102185118360608,3.0251329625097902,2.7156123346141605,-0.05186558101225405,-0.32805778011536785,0.3662109120028144,-2.1287960614088943,-0.1215585597980638,2.8799753748723345
110,-1.8936068364593543,4.843302602155755,1.6183572524751217,-1.5981055892111005,3.026415682625569,2.7716206196353603,-0.06633381054066902,-0.32328513429877637,0.36298263251974683,-2.092844654087914,-0.1199966755089511,2.8358559500855356
111,-1.9387135179455326,4.836095523833147,1.6331864761294193,-1.5862993228551268,3.0276659288143666,2.826210973390202,-0.08010070438094502,-0.31797726125002096,0.3598272193070111,-2.0577964370928807,-0.11843762788108891,2.7927981498477985
112,-1.9826485973151842,4.829075642350087,1.647630525143346,-1.5747997127681388,3.028883701076182,2.879383395878687,-0.09316169218882982,-0.31220519932943597,0.35674616038274576,-2.023651943803542,-0.11688571735668295,2.750805659040719
113,-2.025412074568309,4.8222429577065755,1.6616893995169009,-1.5636067589501372,3.0300689994110153,2.9311378871008067,-0.10551742173023479,-0.3060368900584049,0.35374079985946993,-1.990411708459753,-0.11534494880955724,2.709882177086405
114,-2.0670039497049117,4.815597469902612,1.6753630992500845,-1.5527204614011232,3.0312218238188673,2.981474447056568,-0.11717320955131147,-0.29953695413234915,0.350812346106255,-1.9580762619997496,-0.11381904383542446,2.670031402555435
115,-2.1074242227249913,4.809139178938197,1.6886516243428966,-1.5421408201210944,3.032342174299737,3.0303930757459714,-0.1281385067870396,-0.292766528020511,0.3479618797726389,-1.9266461284771674,-0.11231145319755018,2.631257019067824
116,-2.1466728936285477,4.80286808481333,1.7015549747953376,-1.5318678351100514,3.033430050853626,3.0778937731690146,-0.13842638444648478,-0.28578315560859613,0.3451903616564866,-1.8961218220125067,-0.11082536935252772,2.5935626824228097
117,-2.18474996241558,4.7967841875280115,1.7140731506074074,-1.5219015063679961,3.0344854534805323,3.1239765393257013,-0.1480530416626898,-0.2786407293344166,0.3424986404000498,-1.8665038442349369,-0.10936373898801763,2.5569520088924347
118,-2.221655429086086,4.790887487082242,1.7262061517791052,-1.5122418338949264,3.035508382180457,3.1686413742160244,-0.15703733961128924,-0.27138947534532526,0.33988746000036674,-1.8377926821711108,-0.10792927551096981,2.521428564613608
119,-2.2573892936400703,4.78517798347602,1.7379539783104323,-1.502888817690843,3.0364988369534003,3.2118882778399893,-0.1654003630876378,-0.26407597735545535,0.33735746712196024,-1.8099888065386147,-0.10652447143119105,2.486995856013557
120,-2.2919515560775263,4.779655676709345,1.7493166302013874,-1.4938424577557465,3.0374568177993617,3.253717250197594,-0.17316501108900928,-0.256743234087463,0.3349092182014483,-1.7830926704034755,-0.10515161059098425,2.453657321204329
121,-2.3253422163984627,4.774320566782221,1.7602941074519736,-1.4851027540896355,3.038382324718341,3.2941282912888425,-0.18035561717625243,-0.24943074543542393,0.3325431863352442,-1.7571047081627356,-0.10381278019711869,2.421416322282909
122,-2.3575612746028742,4.769172653694643,1.770886410062186,-1.4766697066925123,3.039275357710339,3.3331214011137273,-0.18699759988677242,-0.24217462277177038,0.33025976794298395,-1.7320253348152315,-0.10250988261646468,2.390276138475097
123,-2.3886087306907626,4.764211937446614,1.7810935380320267,-1.4685433155643737,3.040135916775355,3.3706965796722557,-0.19311714303561037,-0.23500771913160912,0.32805928920060373,-1.707854945485886,-0.10124464690137984,2.3602399600626263
124,-2.4184845846621226,4.759438418038133,1.7909154913614964,-1.460723580705222,3.0409640019133897,3.406853826964422,-0.19874090537036415,-0.22795977533373957,0.3259420122382794,-1.6845939151710256,-0.10001864001527146,2.3313108830350355
125,-2.447188836516961,4.754852095469201,1.800352270050595,-1.4532105021150574,3.041759613124442,3.4415931429902322,-0.20389575873509347,-0.22105757843134952,0.32390814109948446,-1.6622425986745464,-0.09883327773276251,2.3034919044095905
126,-2.4747214862552767,4.750452969739817,1.809403874099322,-1.446004079793878,3.042522750408513,3.4749145277496787,-0.20860855364375686,-0.2143251292201792,0.3219578274584802,-1.6408013307071256,-0.09768983519253441,2.2767859181647907
127,-2.501082533877069,4.746241040849981,1.8180703035076782,-1.439104313741686,3.043253413765602,3.5068179812427687,-0.2129059109607639,-0.20778381586219635,0.32009117609444415,-1.6202704261227547,-0.09658945708426543,2.2511957117350074
128,-2.5262719793823347,4.742216308799693,1.826351558275662,-1.4325112039584798,3.0439516031957097,3.537303503469495,-0.21681403823004447,-0.2014525910039457,0.31830825012126074,-1.60065018026936,-0.09553316745407157,2.226723963016161
129,-2.550289822771079,4.738378773588954,1.8342476384032755,-1.4262247504442591,3.0446173186988355,3.5663710944298668,-0.22035856908002402,-0.19534815007689177,0.31660907597271176,-1.5819408694320962,-0.09452187911559325,2.203373237834549
130,-2.5731360640432968,4.734728435217763,1.841758543890517,-1.4202449531990267,3.0452505602749795,3.5940207541238784,-0.22356442405532892,-0.18948510875936186,0.3149936481434576,-1.5641427513502222,-0.09355640265630051,2.1811459878333195
131,-2.5948107031989895,4.7312652936861195,1.8488842747373875,-1.4145718122227788,3.0458513279241415,3.62025248255153,-0.22645569118243794,-0.18387617785379914,0.31346193368672437,-1.54725606579018,-0.09263745503075865,2.1600445487332816
132,-2.615313740238159,4.727989348994026,1.8556248309438863,-1.4092053275155179,3.046419621646322,3.645066279712818,-0.22905552456149428,-0.1785323340874933,0.31201387647009954,-1.5312810351594388,-0.09176566773452406,2.1400711389271683
133,-2.6346451751608075,4.72490060114148,1.8619802125100153,-1.4041454990772442,3.0469554414415208,3.6684621456077497,-0.23138605928607173,-0.17346298557863016,0.310649401191227,-1.516217865147312,-0.09094159455402288,2.12122785836872
134,-2.652805007966931,4.721999050128481,1.867950419435771,-1.3993923269079551,3.0474587873097376,3.6904400802363266,-0.23346834102305286,-0.16867613092194475,0.30936841715550806,-1.5020667453805614,-0.09016571888923144,2.1035166877202105
135,-2.6697932386565277,4.719284695955031,1.873535451721156,-1.3949458110076538,3.047929659250973,3.711000083598538,-0.23532226863246175,-0.16417851103933978,0.308170821818172,-1.4888278500830199,-0.08943846064724821,2.086939487724316
136,-2.6856098672296014,4.716757538621129,1.878735309366169,-1.390805951376338,3.0483680572652263,3.7301421556943897,-0.23696654826896377,-0.1599757531108135,0.3070565040932816,-1.4765013387297357,-0.08876018270590157,2.071497998768439
137,-2.700254893686152,4.714417578126776,1.8835499923708112,-1.3869727480140086,3.048773981352498,3.747866296523883,-0.23841865748000163,-0.15607250605044096,0.30602534743234666,-1.465087356687518,-0.08813119694745702,2.057193840611793
138,-2.713728318026181,4.712264814471971,1.8879795007350824,-1.383446200920666,3.049147431512788,3.764172506087018,-0.2396948178976952,-0.15247256712176496,0.3050772326753192,-1.454586035834672,-0.08755176986318722,2.0440285122476682
139,-2.726030140249682,4.710299247656715,1.892023834458981,-1.3802263100963095,3.0494884077460966,3.7790607843837947,-0.24080997521051012,-0.1491789993977395,0.30421204067674845,-1.444997495153789,-0.08702212773016661,2.0320033918754437
140,-2.737160360356663,4.708520877681005,1.8956829935425095,-1.3773130755409397,3.049796910052423,3.7925311314142096,-0.24177778519451942,-0.1461942398634235,0.30342965470986843,-1.4363218412923169,-0.08654246136207795,2.0211197369589176
141,-2.7471189783471157,4.706929704544846,1.8989569779856659,-1.3747064972545555,3.050072938431768,3.8045835471782645,-0.24261060468117152,-0.14352019803619676,0.3027299626513111,-1.4285591690864166,-0.08611293043613652,2.0113786843496966
142,-2.7559059942210435,4.705525728248234,1.9018457877884511,-1.3724065752371581,3.0503164928841313,3.8152180316759594,-0.24331948643770218,-0.1411583450395435,0.302112858949044,-1.4217095620442932,-0.08573366739842554,2.0027812504561497
143,-2.76352140797845,4.70430894879117,1.9043494229508648,-1.3704133094887472,3.0505275734095125,3.8244345849072996,-0.24391417703652188,-0.13910979311393498,0.30157824637597846,-1.415773092785839,-0.08540478095002565,1.9953283314406596
144,-2.7699652196193334,4.703279366173654,1.9064678834729074,-1.3687267000093222,3.050706180007912,3.832233206872276,-0.24440311689037586,-0.13737536558319446,0.3011260375715356,-1.4107498234359133,-0.08512635911632353,1.9890207034296248
145,-2.7752374291436936,4.702436980395687,1.9082011693545784,-1.3673467467988831,3.05085231267933,3.8386138975708946,-0.24479344173020204,-0.1359556573184723,0.3007561563732397,-1.40663980596904,-0.08489847190178215,1.98385902272264
146,-2.7793380365515254,4.701781791457268,1.9095492805958791,-1.3662734498574314,3.050965971423766,3.843576657003151,-0.24509098490197168,-0.13485108575589788,0.30046853894019604,-1.4034430825038178,-0.08472117353232009,1.9798438259891766
147,-2.782267041842834,4.701313799358397,1.9105122171968079,-1.3655068091849651,3.0510471562412205,3.847121485169053,-0.2453002799572436,-0.13406193252945584,0.30026313467005056,-1.4011596855455537,-0.08459450428719013,1.9769755304428498
148,-2.7840244450176215,4.7010330040990755,1.9110899791573646,-1.3650468247814862,3.051095867131693,3.849248382068591,-0.2454245631094882,-0.13358837577905483,0.30013990691076636,-1.3997896381760924,-0.084518491922005,1.9752544339852993
149,-2.784610246075884,4.700939405679302,1.9112825664775501,-1.3648934966469928,3.051112104095184,3.8499573477017695,-0.24546577522460458,-0.13343051318634963,0.3000988334682764,-1.3993329541899242,-0.08449315268421552,1.9746807153133903
