nimar13/UR3e_dataset_trayectorias/data/trayectorias_completas_UR3e_TRAPEZOIDAL/trayectoria_343.csv
Punto,shoulder_pan_joint,shoulder_lift_joint,elbow_joint,wrist_1_joint,wrist_2_joint,wrist_3_joint,Posicion_X,Posicion_Y,Posicion_Z,Roll,Pitch,Yaw
0,2.8929237671912222,3.9259802901015792,1.0944293711748068,0.7245114198106153,-5.023109016677608,-2.289299498307039,-0.05076034200080193,-0.1505514388671169,0.5085546016605158,-2.4741466814366686,-0.510074553849072,-3.0353987453495734
1,2.8921411701786046,3.9260108046425657,1.094376338791116,0.7240236607514253,-5.022596611980381,-2.289251879274198,-0.050893437673683664,-0.15046148954268607,0.5086296198565722,-2.474023529278698,-0.5106463912789204,-3.036656561095588
2,2.8897933791407517,3.9261023482655246,1.0942172416400437,0.7225603835738555,-5.0210593978887035,-2.289109022175676,-0.05129171717680364,-0.1501909916332892,0.5088547213037272,-2.4736506098165467,-0.512362184371775,-3.0404311249823825
3,2.885880394077664,3.9262549209704565,1.0939520797215898,0.7201215882779058,-5.018497374402572,-2.2888709270114713,-0.05195215334041069,-0.14973801117703345,0.509230043349497,-2.4730175031113415,-0.5152227535522063,-3.0467258293007218
4,2.8804022149893407,3.9264685227573612,1.0935808530357543,0.7167072748635763,-5.0149105415219895,-2.2885375937815855,-0.052869685818537515,-0.14909937775059331,0.5097558041473051,-2.472106738297333,-0.5192293926610217,-3.055546470004502
5,2.8733588418757825,3.926743153626239,1.0931035615825373,0.7123174433308669,-5.010298899246955,-2.288109022486018,-0.05403719970999995,-0.14827076381687238,0.5104322865385059,-2.470893633402972,-0.5243837577647177,-3.0669014634051783
6,2.864750274736989,3.927078813577089,1.092520205361939,0.7069520936797776,-5.004662447577467,-2.287585213124769,-0.055445498055769385,-0.14724679593212903,0.5112598155313989,-2.469346063504124,-0.5306877096389175,-3.080802156647571
7,2.8545765135729604,3.927475502609912,1.0918307843739588,0.7006112259103084,-4.998001186513528,-2.286966165697838,-0.05708327063197804,-0.1460211978505097,0.5122387294279347,-2.467424149280018,-0.5381431079106693,-3.097263239361587
8,2.8428375583836965,3.9279332207247077,1.0910352986185972,0.6932948400224594,-4.990315116055135,-2.2862518802052256,-0.05893706213335817,-0.14458696545772856,0.5133693446726029,-2.4650798552933435,-0.5467515540218035,-3.1163032664239827
9,2.8295334091691977,3.928451967921476,1.090133748095854,0.6850029360162305,-4.981604236202291,-2.2854423566469313,-0.06099124350003553,-0.14293657327306847,0.5146519145286803,-2.462256484191427,-0.556514079148389,-3.137945304642566
10,2.8146640659294633,3.9290317442002176,1.0891261328057291,0.6757355138916218,-4.971868546954995,-2.284537595022955,-0.06322799077126007,-0.14106221196264437,0.5160865817260197,-2.4588880494311582,-0.5674307719111396,3.1209675876948557
11,2.798229528664494,3.9296725495609315,1.088012452748223,0.6654925736486331,-4.961108048313246,-2.2835375953332977,-0.0656272764393045,-0.13895605589123342,0.5176733252733244,-2.454898504970394,-0.579500339054316,3.0940301853697783
12,2.7802297973742895,3.9303743840036183,1.086792707923335,0.6542741152872646,-4.949322740277045,-2.2824423575779584,-0.06816687880777168,-0.13661055919128537,0.5194119016875908,-2.4502008055527904,-0.5927195901513843,3.06438580815465
13,2.76066487205885,3.931137247528278,1.0854668983310656,0.6420801388075162,-4.936512622846393,-2.281251881756938,-0.07082241530902517,-0.13401877813543503,0.5213017809653324,-2.444695765671932,-0.6070828346831602,3.031983746936261
14,2.739534752718175,3.93196114013491,1.0840350239714147,0.628910644209388,-4.922677696021287,-2.279966167870235,-0.0735674060788661,-0.1311747167561738,0.5233420777053168,-2.438270679013168,-0.6225811763641831,2.996762976266694
15,2.716839439352265,3.9328460618235153,1.0824970848443822,0.6147656314928799,-4.907817959801729,-2.278585215917851,-0.07637337429193675,-0.12807369166174387,0.5255314778916761,-2.4307976532158384,-0.6392016851606405,2.9586502682442
16,2.6925789319611195,3.9337920125940933,1.0808530809499681,0.5996451006579919,-4.8919334141877195,-2.277109025899785,-0.07920998979336318,-0.12471271085548434,0.5278681619599658,-2.4221316074405443,-0.6569264217960813,2.9175579659214255
17,2.6667532305447392,3.9347989924466438,1.0791030122881726,0.583549051704724,-4.875024059179258,-2.2755375978160375,-0.08204526238191055,-0.121090860089289,0.530349724897314,-2.412107873072337,-0.6757312823749578,2.873381360480799
18,2.6393623351031237,3.935867001381167,1.0772468788589955,0.5664774846330763,-4.857089894776343,-2.2738709316666084,-0.0848457906659022,-0.11720968889231141,0.5329730942711474,-2.4005393321463693,-0.6955846217157183,2.8259956110159052
19,2.610406245636273,3.936996039397663,1.0752846806624368,0.5484303994430487,-4.838130920978976,-2.2721090274514975,-0.08757707168245935,-0.1130735869460687,0.535734447238538,-2.3872130259826654,-0.7164456026933566,2.7752521439585323
20,2.579884962144187,3.9381861064961323,1.0732164176984964,0.5294077961346413,-4.818147137787157,-2.2702518851707048,-0.09020387540125385,-0.1086901399714394,0.5386291277590135,-2.3718861720338293,-0.7382622049925129,2.720974474958749
21,2.547798484626866,3.939437202676574,1.0710420899671746,0.5094096747078539,-4.797138545200887,-2.2682995048242303,-0.0926906867870245,-0.10407045280984059,0.541651565415989,-2.354281546937316,-0.7609688099676991,2.6629534162091315
22,2.5141468130843094,3.9407493279389882,1.0687616974684713,0.4884360351626867,-4.775105143220163,-2.2662518864120744,-0.09500221623808189,-0.09922942599264774,0.544795197443612,-2.3340822397571386,-0.7844832590120224,2.6009416783388364
23,2.478929947516518,3.9421224822833754,1.0663752402023865,0.46648687749913964,-4.752046931844987,-2.264109029934237,-0.09710397692838409,-0.09418597088684466,0.5480523957535843,-2.3109258703498687,-0.8087032620790326,2.5346479670438242
24,2.4421478879234915,3.9435566657097354,1.06388271816892,0.4435622017172127,-4.727963911075359,-2.2618709353907174,-0.09896292485021486,-0.0889631475825046,0.5514144009566142,-2.2843985339757173,-0.8335020137511395,2.4637308408541094
25,2.403800634305229,3.9450518782180684,1.061284131368072,0.4196620078169058,-4.702856080911279,-2.2595376027815166,-0.10054815419366098,-0.08358820916358428,0.5548712655706285,-2.25402902131535,-0.8587228629405218,2.3877928844980847
26,2.3638881866617325,3.946608119808374,1.0585794797998425,0.3947862957982192,-4.676723441352747,-2.257109032106634,-0.10183163714258972,-0.07809253600282791,0.5584118087969793,-2.219284340837552,-0.8841728915980925,2.3063762301151964
27,2.322410544993,3.948225390480652,1.0557687634642314,0.36893506566115264,-4.649565992399762,-2.2545852233660697,-0.10278899327825602,-0.07251144437624553,0.5620235854196657,-2.179568327967016,-0.9096153108504704,2.2189612160863836
28,2.279367709299033,3.949903690234903,1.0528519823612386,0.3421083174057062,-4.621383734052325,-2.2519661765598236,-0.10340026965862867,-0.06688385513581915,0.5656928715331004,-2.134226260940977,-0.9347607193690491,2.1249711087350174
29,2.2347596795798306,3.9516430190711267,1.0498291364908645,0.31430605103188,-4.592176666310436,-2.249251891687896,-0.10365070841979022,-0.0612518105380071,0.56940466992217,-2.0825599715710212,-0.9592575507293313,2.0237873805760103
30,2.1885864558353925,3.9534433769893234,1.0467002258531086,0.2855282665396738,-4.5619447891740945,-2.246442368750287,-0.10353147460240841,-0.055659830712483066,0.573142737994066,-2.0238598211511203,-0.9826825501216463,1.9147819209912027
31,2.1408480380657195,3.955304763989493,1.0434652504479713,0.2557749639290877,-4.5306881026433015,-2.2435376077469957,-0.1030403130613092,-0.050154105756508326,0.5768896411835723,-1.9574615492531113,-1.0045329582811389,1.7973741929869336
32,2.0915444262708114,3.957227180071635,1.0401242102754524,0.22504614320012178,-4.4984066067180555,-2.2405376086780233,-0.10218210003136223,-0.044781525103133324,0.5806268347101539,-1.8828359870812699,-1.0242232764437529,1.6711213340219422
33,2.0406756204506684,3.9592106252357495,1.0366771053355521,0.19334180435277604,-4.4651003013983575,-2.2374423715433687,-0.10096925249808346,-0.039588552631228645,0.5843347764436727,-1.7997153393753307,-1.0410908712492628,1.5358449117560031
34,1.9882416206052898,3.9612550994818374,1.0331239356282702,0.1606619473870503,-4.4307691866842065,-2.2342518963430327,-0.09942195728651845,-0.03461996389029977,0.5879930734227564,-1.7082477728440804,-1.054415649339384,1.3917860802629545
35,1.9342424267346765,3.9633606028098978,1.0294647011536067,0.12700657230294488,-4.395413262575604,-2.2309661830770153,-0.09756818208517928,-0.02991747064963508,0.5915806642525993,-1.6091507627128139,-1.0634583799375232,1.2397595967147461
36,1.8786780388388278,3.965527135219931,1.0256994019115615,0.09237567910045952,-4.359032529072549,-2.2275852317453158,-0.09544343281197291,-0.02551826750108475,0.5950760391743575,-1.5038085665753265,-1.0675184660490646,1.0812520771668963
37,1.8215484569177436,3.967754696711937,1.021828037902135,0.056769267779594235,-4.321626986175042,-2.224109042347935,-0.09309022613356861,-0.021453545093521313,0.5984574990343189,-1.394247635756782,-1.0660045544000765,0.9183983122385304
38,1.7628536809714244,3.9700432872859155,1.0178506091253268,0.020187338340349026,-4.283196633883082,-2.220537614884872,-0.09055725284652066,-0.017747024288494354,0.6017034536769903,-1.2829484885981215,-1.0585027356840546,0.7537941789124286
39,1.7025937109998701,3.972392906941867,1.013767115581137,-0.017370109217275997,-4.243741472196671,-2.2168709493561276,-0.08789821741382763,-0.01441357452221219,0.6047927594336365,-1.1725181932171533,-1.044822818603396,0.5901703090460969
40,1.6407685470030806,3.974803555679791,1.0095775572695658,-0.055903074893280835,-4.203261501115807,-2.2131090457617018,-0.08517035130210819,-0.011457987255780249,0.6077050943709924,-1.0653197907477017,-1.0250082649253711,0.43002285970112897
41,1.577378188981056,3.977275233499688,1.005281934190613,-0.09541155868766549,-4.161756720640491,-2.209251904101594,-0.08243261280289042,-0.00887398082461447,0.6104213688019886,-0.9631795151090893,-0.9993086108210119,0.2753222561406339
42,1.5124226369337963,3.9798079404015576,1.0008802463442785,-0.13589556060043007,-4.119227130770723,-2.2052995243758047,-0.07974360347176718,-0.006643515434297831,0.6129241672441678,-0.867248955256544,-0.9681266054319623,0.12737706820635666
43,1.4459018908613015,3.9824016763854004,0.9963724937305627,-0.17735508063157446,-4.075672731506502,-2.201251906584334,-0.07715925067628775,-0.004736495657080238,0.6151982165505995,-0.7780233691055486,-0.93195803487423,-0.013145757263438449
44,1.3778159507635708,3.9850564414512157,0.9917586763494651,-0.2197901187810991,-4.031093522847828,-2.197109050727181,-0.07473032624474882,-0.0031109317699420163,0.6172308733476982,-0.695462406949589,-0.8913390650744275,-0.14609804002485594
45,1.3081648166406055,3.9877722355990035,0.9870387942009861,-0.26320067504900335,-3.985489504794703,-2.1928709568043465,-0.07249989181840752,-0.0017136199685453542,0.619012622217306,-0.6191476920002936,-0.8468085090391765,-0.2716904348087411
46,1.2369484884924051,3.990549058828764,0.9822128472851255,-0.3075867494352873,-3.938860677347126,-2.1885376248158304,-0.07050078092434317,-0.00048138441998115625,0.6205375742883026,-0.5484298401846167,-0.7988857595033155,-0.39034285019678483
47,1.1641669663189693,3.993386911140498,0.9772808356018834,-0.3529483419399513,-3.8912070405050967,-2.184109054761633,-0.06875324445669084,0.0006570988967410634,0.6218039540967225,-0.48254270451325953,-0.7480614526094002,-0.5025674592635725
48,1.0898202501202987,3.9962857925342044,0.9722427591512597,-0.39928545256299497,-3.8425285942686145,-2.1795852466417536,-0.06726289844211868,0.001778905358355752,0.622814560784044,-0.4206812329412396,-0.6947969394624787,-0.608887969127158
49,1.0139083398963928,3.9992457030098834,0.9670986179332545,-0.4465980813044186,-3.7928253386376807,-2.1749662004561925,-0.06601911882996823,0.002963934452924911,0.6235771879923531,-0.3620486536118465,-0.6395291404823611,-0.7097895365388552
50,0.9365181908708746,4.00226325206298,0.9618543044349444,-0.4948320327132012,-3.7421542074675407,-2.1702572072085986,-0.0649950585992504,0.00428994966308373,0.6241045227109602,-0.30594269109960404,-0.5827422285001316,-0.8055871878003981
51,0.858780220950861,4.005294363134294,0.9565864209883275,-0.543282765926068,-3.6912553408764124,-2.165527049946409,-0.06415588325172472,0.005807588389577904,0.6244130271054367,-0.25239700349233946,-0.5256764688715294,-0.895380482523527
52,0.781042251030847,4.008325474205608,0.9513185375417104,-0.5917334991389351,-3.640356474285284,-2.1607968926842194,-0.06343841240200987,0.007562781257107442,0.624535058123248,-0.20088612267081493,-0.46897175508854005,-0.9793297080501007
53,0.7033042811108334,4.011356585276922,0.9460506540950933,-0.6401842323518019,-3.589457607694156,-2.15606673542203,-0.06276826982642092,0.009591139419912322,0.6245072879129672,-0.15074454978580618,-0.41298132972419904,-1.0579131491983145
54,0.6255663111908198,4.014387696348236,0.9407827706484763,-0.6886349655646686,-3.538558741103027,-2.15133657815984,-0.06206816495623599,0.011912092977905832,0.624367327244015,-0.10140634376121588,-0.35803760770798043,-1.1315050369586586
55,0.5478283412708063,4.017418807419551,0.9355148872018593,-0.7370856987775354,-3.4876598745118987,-2.1466064208976503,-0.06126093894286441,0.014529245345459407,0.6241532573869679,-0.05238895461150681,-0.3044608142292534,-1.200396865167091
56,0.4700903713507918,4.020449918490865,0.9302470037552422,-0.7855364319904026,-3.43676100792077,-2.141876263635461,-0.060272394080525246,0.01743126068104462,0.6239031588340022,-0.003281187732550996,-0.2525654661988678,-1.2648162055766277
57,0.3923524014307782,4.023481029562179,0.9249791203086251,-0.8339871652032693,-3.3858621413296417,-2.137146106373271,-0.0590338176245876,0.020593221926982062,0.6236546419205544,0.04626495394242665,-0.20266501819874258,-1.3249435281930484
58,0.3146144315107646,4.026512140633493,0.9197112368620081,-0.8824378984161361,-3.3349632747385134,-2.1324159491110812,-0.05748412568903813,0.02397838270671293,0.6234443843847853,0.09653892601804805,-0.15507485144710684,-1.3809275901102767
59,0.23687646159075104,4.029543251704807,0.9144433534153911,-0.9308886316290033,-3.284064408147385,-2.127685791848892,-0.0555715697701376,0.02754022513974167,0.6233076808245549,0.14777322188907988,-0.11011366959047286,-1.432899870412917
60,0.15913849167073746,4.032574362776121,0.909175469968774,-0.97933936484187,-3.2331655415562564,-2.122955634586702,-0.05325496689915071,0.03122472789191403,0.6232780088830558,0.20014235287170404,-0.06810328275052621,-1.4809883584891574
61,0.08140052175072388,4.0356054738474345,0.903907586522157,-1.0277900980547368,-3.182266674965128,-2.118225477324512,-0.05050443380234938,0.03497274468989306,0.6233866168154423,0.2537598016620553,-0.029366716967727767,-1.5253307729057037
62,0.003662551830709404,4.038636584918748,0.8986397030755399,-1.076240831267604,-3.1313678083739993,-2.1134953200623228,-0.04730162504509765,0.038722393174980746,0.6236621368615226,0.30867366941668667,0.005775412110562479,-1.56608701324374
63,-0.07407541808930418,4.041667695990062,0.8933718196289229,-1.1246915644804707,-3.080468941782871,-2.108765162800133,-0.04363949426245251,0.04241135730510653,0.6241302285762745,0.36486192452766625,0.03701026631480339,-1.6034503503826796
64,-0.15181338800931776,4.044698807061376,0.8881039361823058,-1.1731422976933374,-3.0295700751917427,-2.104035005537943,-0.03952161555867538,0.045979013360476204,0.6248132559533592,0.42222835011111354,0.0640397821557976,-1.637656581823028
65,-0.22955135792933223,4.04772991813269,0.8828360527356888,-1.2215930309062042,-2.978671208600614,-2.0993048482757537,-0.034961118365699394,0.04936829967382718,0.6257300018203248,0.4806004138520126,0.0865890160907918,-1.6689901794558692
66,-0.3072893278493458,4.050761029204004,0.8775681692890718,-1.270043764119071,-2.9277723420094857,-2.094574691013564,-0.029979302926401892,0.052527263087044224,0.6268954225914197,0.5397302692056429,0.10441534720167037,-1.697786413822986
67,-0.3850272977693603,4.053792140275318,0.8723002858424547,-1.3184944973319386,-2.876873475418357,-2.089844533751374,-0.024604014638613662,0.055410230333804565,0.6283204460389928,0.5992998684334888,0.11731783728225911,-1.7244286210607276
68,-0.46276526768937387,4.056823251346632,0.8670324023958376,-1.3669452305448053,-2.8259746088272286,-2.0851143764891846,-0.01886786338769953,0.05797856948725903,0.6300118142917501,0.6589306916739922,0.12514588969322618,-1.7493402176223338
69,-0.5405032376093875,4.059854362417946,0.8617645189492206,-1.415395963757672,-2.7750757422361003,-2.080384219226995,-0.012806378450433899,0.060201024659405356,0.6319719737923256,0.7181979090490025,0.12780629562331006,-1.7729717244443925
70,-0.618241207529401,4.06288547348926,0.8564966355026036,-1.4638466969705388,-2.7241768756449716,-2.075654061964805,-0.006456190434054961,0.06205362562604008,0.6341990134526728,0.7766480153352641,0.1252678502372425,-1.7957838139266546
71,-0.6959791774494146,4.065916584560575,0.8512287520559865,-1.5122974301834056,-2.6732780090538433,-2.0709239047026156,0.00014667098861979085,0.0635191922966582,0.6366866517387829,0.8338182913623307,0.11756296876377718,-1.8182280559655049
72,-0.7737171473694282,4.068947695631889,0.8459608686093695,-1.5607481633962723,-2.622379142462715,-2.0661937474404257,0.006968280958211312,0.06458647128181258,0.6394242729014703,0.8892560391145656,0.1047860976119658,-1.840727425863165
73,-0.8514551172894427,4.071978806703203,0.8406929851627524,-1.6091988966091395,-2.5714802758715862,-2.061463590178236,0.013978051733079769,0.06524895759438824,0.6423970120527263,0.9425355263776094,0.08708912478256739,-1.86365862812148
74,-0.9291930872094563,4.0750099177745165,0.8354251017161354,-1.6576496298220063,-2.520581409280458,-2.0567334329160465,0.02114963250868109,0.06550346817468364,0.6455858882728301,0.9932709614373352,0.06467435922537393,-1.8873378849692206
75,-1.006931057129469,4.07804102884583,0.8301572182695183,-1.706100363034873,-2.4696825426893296,-2.0520032756538567,0.02846143054415575,0.06534854494627904,0.6489679844273472,1.0411244802753925,0.03778589695037226,-1.9120111542834086
76,-1.0846690270494843,4.081072139917144,0.8248893348229012,-1.7545510962477406,-2.4187836760982004,-2.047273118391667,0.035896723974307466,0.06478277307747711,0.6525166718805255,1.0858088806656856,0.006700286187646362,-1.9378489642728387
77,-1.162406996969498,4.084103250988458,0.8196214513762842,-1.8030018294606074,-2.367884809507072,-2.0425429611294774,0.043443354546799505,0.06380310473585524,0.6562018778176505,1.1270854954370417,-0.028282648280280535,-1.9649453645288133
78,-1.2401449668895115,4.087134362059772,0.8143535679296672,-1.8514525626734741,-2.316985942915944,-2.0378128038672876,0.05109300700686552,0.062403279693260705,0.6599903924383923,1.164758038033392,-0.06684811976421569,-1.9933200159864137
79,-1.317882936809525,4.090165473131086,0.8090856844830501,-1.8999032958863409,-2.2660870763248155,-2.0330826466050977,0.0588401002755668,0.060572431602104855,0.6638462128609263,1.1986634379665504,-0.10867334062065243,-2.022922213400477
80,-1.3956209067295386,4.0931965842024,0.8038178010364331,-1.9483540290992076,-2.215188209733687,-2.0283524893429083,0.06668033325180989,0.05829396268494168,0.66773092018683,1.2286606429573084,-0.15343284540689378,-2.0536356197722236
81,-1.4733588766495522,4.096227695273714,0.7985499175898161,-1.9968047623120744,-2.164289343142559,-2.0236223320807185,0.07460894435405976,0.055544760147354155,0.6716040858236876,1.2546181684089643,-0.20080206359491465,-2.0852826206083632
82,-1.5510968465695658,4.099258806345028,0.793282034143199,-2.045255495524941,-2.11339047655143,-2.018892174818529,0.08261875819077903,0.052294815147980005,0.6754237028494561,1.2764009000377228,-0.2504591450082475,-2.1176273985132963
83,-1.6288348164895803,4.102289917416342,0.788014150696582,-2.0937062287378083,-2.0624916099603015,-2.0141620175563393,0.09069810446079146,0.048507290057468906,0.6791466379333874,1.2938563646681907,-0.30208509755802765,-2.1503770226594447
84,-1.7065727864095939,4.105321028487656,0.782746267249965,-2.1421569619506746,-2.0115927433691736,-2.0094318602941494,0.0988287028728031,0.04413906252459164,0.6827290991053243,1.3068004190594602,-0.35536229917276424,-2.1831800056180777
85,-1.7843107563296075,4.10835213955897,0.7774783838033479,-2.190607695163542,-1.9606938767780449,-2.00470170303196,0.10698361317533994,0.03914175613580347,0.6861271144909178,1.3150020917998555,-0.40997140287686895,-2.2156218907233938
86,-1.862048726249621,4.111383250630284,0.7722105003567308,-2.239058428376409,-1.909795010186917,-1.9999715457697702,0.11512535105695934,0.03346324785682487,0.6892970170065161,1.3181671675368254,-0.4655865744136591,-2.2472175108942585
87,-1.9397866961696346,4.1144143617015985,0.7669426169101138,-2.2875091615892753,-1.8588961435957883,-1.9952413885075806,0.12320426858800343,0.027049622671199338,0.6921959299355038,1.3159200555022776,-0.5218688927250061,-2.277399647490057
88,-2.01752466608965,4.117445472772912,0.7616747334634967,-2.3359598948021434,-1.8079972770046586,-1.9905112312453908,0.13115729203446366,0.019847526585758307,0.6947822482884279,1.3077835993668945,-0.5784576119806182,-2.3055039997895515
89,-2.0952626360096636,4.120476583844226,0.7564068500168797,-2.3844106280150097,-1.7570984104135308,-1.9857810739832011,0.1389071004165824,0.011806851151495027,0.6970161108826425,1.293156898184983,-0.6349588418786899,-2.330750808145561
90,-2.173000605929677,4.12350769491554,0.7511389665702626,-2.432861361227877,-1.706199543822402,-1.9810509167210115,0.1463618153708654,0.0028836665127615034,0.6988598581630405,1.2712921839067832,-0.6909310799538901,-2.3522244397513004
91,-2.2507385758496907,4.126538805986854,0.7458710831236456,-2.481312094440743,-1.6553006772312742,-1.976320759458822,0.15341525708413264,-0.006956693645432735,0.7002784709229282,1.2412738219531259,-0.7458669964172432,-2.3688542408994837
92,-2.3284765457697043,4.129569917058168,0.7406031996770286,-2.5297628276536104,-1.6044018106401454,-1.971590602196632,0.1599478027892163,-0.017736502502586547,0.7012399852717635,1.202006364531317,-0.7991710867171252,-2.3794037896883036
93,-2.406214515689718,4.132601028129482,0.7353353162304115,-2.5782135608664767,-1.5535029440490167,-1.9668604449344425,0.16582786412283587,-0.02946258027320512,0.7017158794325217,1.152225403026103,-0.8501335915658328,-2.382482465461003
94,-2.4839524856097315,4.135632139200796,0.7300674327837944,-2.626664294079344,-1.5026040774578888,-1.9621302876722528,0.17091397819949053,-0.04212342193487102,0.7016814282333236,1.0905556999585684,-0.897903020796968,-2.37660395322282
95,-2.561690455529745,4.13866325027211,0.7247995493371774,-2.675115027292211,-1.45170521086676,-1.957400130410063,0.1750574852558804,-0.055686629700235274,0.701116021482912,1.0156547270032437,-0.9414635659231273,-2.360329918821242
96,-2.6394284254497586,4.141694361343424,0.7195316658905604,-2.7235657605050774,-1.4008063442756322,-1.9526699731478734,0.1781057439030593,-0.0700967627562271,0.7000034427841649,0.9264886905840236,-0.9796303857451119,-2.3325460215384446
97,-2.7171663953697722,4.144725472414738,0.7142637824439433,-2.7720164937179446,-1.3499074776845035,-1.9479398158856838,0.17990581412863793,-0.08527370813609746,0.6983321057403895,0.8227708587502326,-1.0110842865640919,-2.2929001429479845
98,-2.7949043652897867,4.147756583486052,0.7089958989973263,-2.820467226930811,-1.2990086110933747,-1.943209658623494,0.18030851894062283,-0.10111166413383443,0.6960952449415583,0.7055125263568555,-1.0344719339463286,-2.2423532179854493
99,-2.872642335209801,4.150787694557366,0.7037280155507092,-2.868917960143679,-1.248109744502246,-1.9384795013613043,0.17917277861704994,-0.11747881174118305,0.6932910595774165,0.577479504933889,-1.0485854934065115,-2.1836355904802276
100,-2.950032484235315,4.153805243610464,0.6984837020523991,-2.9171519115524607,-1.1974386133321069,-1.9337705081137107,0.1763865223717652,-0.13414226882357302,0.6899391242441273,0.44380906238071394,-1.0525995727167043,-2.121536410190955
101,-3.0259443944592235,4.156765154086143,0.6933395608343939,-2.9644645402938847,-1.1477353577011726,-1.9291514619281493,0.17194220584179104,-0.15067238764157698,0.6861160264642528,0.31201348770381254,-1.046561845066868,-2.0624265611902812
102,-3.1002911106578956,4.15966403547985,0.6883014843837703,-3.01080165091693,-1.0990569114646904,-1.92462765380827,0.1658651013802235,-0.1668554298543462,0.6818700319865638,0.1872237430323123,-1.0314130545116589,-2.0112135380876226
103,-3.173072632831328,4.162501887791584,0.6833694727005282,-3.056163243421591,-1.051403274622663,-1.9201990837540723,0.15820708398004785,-0.18250295990521279,0.6772479202203499,0.07277481888899709,-1.0085006502876561,-1.971102111330278
104,-3.2442889609795316,4.165278711021345,0.6785435257846676,-3.100549317807877,-1.0047744471750848,-1.9158657517655564,0.14904666397914462,-0.19743797599697277,0.6722975791012203,-0.029822715789887336,-0.979323138349139,-1.9434844934023823
105,-3.3139400951024935,4.1679945051691325,0.6738236436361885,-3.143959874075782,-0.9591704291219578,-1.9116276578427218,0.138486092710486,-0.21149892905012796,0.6670672202268331,-0.12051695058054404,-0.9453304400363514,-1.9283039411776886
106,-3.3820260352002265,4.170649270234947,0.6692098262550911,-3.186394912225304,-0.9145912204632847,-1.9074848019855692,0.126647905325073,-0.22454298668535017,0.6616046738271375,-0.20016390172908144,-0.907808135122024,-1.9246035418675593
107,-3.448546781272718,4.17324300621879,0.6647020736413752,-3.227854432256449,-0.871036821199068,-1.9034371841940982,0.1136710879325262,-0.2364484923583772,0.6559567675204577,-0.2700478865450422,-0.8678354044332423,-1.9310040829775366
108,-3.5135023333199786,4.17577571312066,0.6603003857950407,-3.2683384341692143,-0.8285072313292989,-1.899484804468309,0.09970704866396259,-0.24711661121014625,0.6501687903932418,-0.33156055692090824,-0.8262888315771416,-1.946023433157446
109,-3.5768926913420067,4.178247390940557,0.6560047627160878,-3.307846917963598,-0.7870024508539819,-1.8956276628082012,0.08491555721601372,-0.25647218968348134,0.6442840418632991,-0.38602387433012086,-0.7838674338549095,-1.9682521357414062
110,-3.6387178553387933,4.180658039678481,0.6518152044045167,-3.346379883639603,-0.7465224797731187,-1.891865759213775,0.06946079698833424,-0.2644638846818788,0.638343463043291,-0.43461119448050783,-0.7411235734545433,-1.9964310351408427
111,-3.698977825310349,4.183007659334432,0.6477317108603269,-3.3839373311972274,-0.7070673180867049,-1.8881990936850306,0.0535076500797131,-0.27106363972672637,0.6323853469030659,-0.4783248930424182,-0.6984922059718459,-2.029472496880347
112,-3.757672601256667,4.185296249908411,0.6437542820835187,-3.420519260636474,-0.6686369657947449,-1.8846276662219679,0.03721830995704428,-0.2762656003702178,0.6264451224187486,-0.518002356333867,-0.6563156587171726,-2.066453393046909
113,-3.8148021831777523,4.187523811400418,0.639882918074092,-3.4561256719573406,-0.6312314228972378,-1.881151476824587,0.02074929108881668,-0.2800845695449719,0.6205552070704469,-0.554333905781798,-0.6148634892496871,-2.1065962829171823
114,-3.8703665710736015,4.189690343810451,0.6361176188320471,-3.490756565159823,-0.5948506893941836,-1.8777705254928878,0.004248880475374452,-0.2825541063188874,0.6147449214822873,-0.5878840440688794,-0.5743479439856537,-2.149247401775537
115,-3.9243657649442127,4.19179584713851,0.6324583843573837,-3.5244119402439296,-0.5594947652855806,-1.87448481222687,-0.012144946257388147,-0.28372436956200453,0.6090404596592959,-0.6191119659639542,-0.5349358172774528,-2.193855517521265
116,-3.976799764789595,4.193840321384598,0.6289052146501016,-3.557091797209657,-0.5251636505714297,-1.871294337026534,-0.02830614106568391,-0.2836598022732912,0.6034649081353808,-0.6483897104151669,-0.4967574960010002,-2.23995328202921
117,-4.027668570609736,4.195823766548713,0.625458109710201,-3.5887961360570007,-0.49185734525173075,-1.8681990998918798,-0.04412174528238395,-0.282436743711196,0.5980383073753243,-0.6760175368018965,-0.4599138565019946,-2.2871414980847558
118,-4.076972182404644,4.197746182630855,0.6221170695376822,-3.619524956785967,-0.45957584932648565,-1.865199100822907,-0.059492623444569945,-0.2801410459230329,0.5927777489422056,-0.702236653661008,-0.42448154453548986,-2.335076176673895
119,-4.124710600174316,4.199607569631025,0.6188820941325449,-3.649278259396554,-0.4283191627956917,-1.8622943398196163,-0.07433380553697654,-0.2768657595876543,0.5876975022224495,-0.7272396371665113,-0.3905170467417741,-2.3834580490426087
120,-4.170883823918754,4.201407927549221,0.6157531834947891,-3.6780560438887573,-0.39808728565935336,-1.8594848168820068,-0.08857448092818976,-0.2727089419756723,0.5828091648681533,-0.7511789242034423,-0.35805986296954323,-2.4320241482487757
121,-4.215491853637959,4.203147256385445,0.612730337624415,-3.7058583102625855,-0.3688802179174644,-1.8567705320100791,-0.10215769141177478,-0.26777162787141934,0.5781218315473522,-0.7741737414216628,-0.32713501177336024,-2.4805410956300418
122,-4.258534689331924,4.204825556139696,0.6098135565214223,-3.732685058518033,-0.34069795957002746,-1.8541514852038332,-0.11503977249280682,-0.2621559929460944,0.5736422760667045,-0.7963157819405015,-0.29775504302942296,-2.5287997740969685
123,-4.300012331000659,4.2064428268119745,0.6070028401858112,-3.7585362886550984,-0.3135405106170408,-1.8516276764632689,-0.12718959176821956,-0.25596372865717343,0.5693751424297141,-0.817673886426469,-0.2699216877552787,-2.5766111216009335
124,-4.3399247786441535,4.20799906840228,0.6042981886175817,-3.7834120006737866,-0.28740787105850796,-1.849199105788386,-0.1385876313325669,-0.2492946385006641,0.5653231409016218,-0.8382979341527852,-0.24362724231698887,-2.623802825680916
125,-4.378272032262416,4.209494280910612,0.6016996018167338,-3.8073121945740898,-0.26230004089442893,-1.8468657731791853,-0.14922495798326071,-0.24224545748889856,0.5614872456565844,-0.8582221056314686,-0.21885575942951627,-2.670216740651484
126,-4.415054091855444,4.210928464336972,0.5992070797832671,-3.8302368703560186,-0.23821702012480017,-1.8446276786356661,-0.15910212095783016,-0.23490889011504515,0.5578668910731865,-0.8774676420685812,-0.1955840995682538,-2.7157068824220856
127,-4.450270957423234,4.2123016186813595,0.5968206225171822,-3.8521860280195668,-0.21515880874962434,-1.8424848221578283,-0.16822801233001433,-0.22737285677830635,0.5544601642124656,-0.8960451976851148,-0.17378288204918066,-2.760137882908753
128,-4.483922628965789,4.213613743943774,0.5945402300184791,-3.873159667564731,-0.19312540676890144,-1.8404372037456724,-0.17661872029748876,-0.21971993461272118,0.5512639914520218,-0.9139568579367146,-0.15341736397975983,-2.8033838076316435
129,-4.516009106483111,4.214864840124216,0.592365902287157,-3.8931577889915197,-0.1721168141826297,-1.8384848233991982,-0.18429640064195923,-0.2120269757833091,0.5482743176561091,-0.9311978788617763,-0.13444826673473287,-2.845327257502815
130,-4.546530389975196,4.216054907222685,0.5902976393232171,-3.9121803922999288,-0.15213303099081088,-1.8366276811184057,-0.1912881868165817,-0.20436488445802137,0.5454862766316937,-0.9477581892707413,-0.1168325630048111,-2.88585868996885
131,-4.575486479442047,4.217183945239181,0.5883354411266581,-3.9302274774899537,-0.13317405719344322,-1.8348657769032948,-0.1976251545571335,-0.19679853269200534,0.54289435195282,-0.9636236874526307,-0.10052423239841617,-2.924875906363087
132,-4.602877374883663,4.218251954173704,0.5864793076974809,-3.9472990445616016,-0.11523989279052849,-1.8331991107538657,-0.20334135272348725,-0.18938679522727064,0.5404925275296605,-0.9787773568235639,-0.08547498975311855,-2.9622836621355515
133,-4.628703076300045,4.2192589340262545,0.5847292390356855,-3.9633950935148707,-0.09833053778207024,-1.8316276826701179,-0.2084729083232627,-0.18218268357417,0.5382744275547379,-0.9932002198830512,-0.07163498751193648,-2.99799336499433
134,-4.652963583691188,4.220204884796833,0.5830852351412715,-3.9785156243497575,-0.08244599216805959,-1.830151492652052,-0.21305721038693892,-0.17523356056735262,0.5362334456781203,-1.006872146470001,-0.05895349156371909,-3.031922833205536
135,-4.675658897057099,4.221089806485438,0.5815472960142388,-3.992660637066267,-0.06758625594850187,-1.8287705406996677,-0.21713217456569414,-0.16858141775593624,0.5343628634475618,-1.0197725301900524,-0.04737952868816198,-3.06399609255444
136,-4.696789016397771,4.22191369909207,0.5801154216545882,-4.005830131664393,-0.05375132912339531,-1.8274848268129653,-0.22073558800301274,-0.16226319938725767,0.5326559582007041,-1.0318808456553081,-0.036862503053795286,-3.0941431958898518
137,-4.716353941713214,4.22267656261673,0.5787896120623186,-4.018024108144143,-0.04094121169274345,-1.8262943509919443,-0.22390453216736805,-0.156311158282452,0.5311061007168651,-1.0431770985356226,-0.027352778973214805,-3.1223000538331824
138,-4.734353673003417,4.223378397059416,0.5775698672374308,-4.029242566505513,-0.02915590365654097,-1.825199113236605,-0.22667487989425827,-0.15075323050235093,0.5297068430282474,-1.0536421801237073,-0.018802227214707663,3.13477703799744
139,-4.750788210268389,4.22401920242013,0.5764561871799245,-4.039485506748502,-0.018395405014793198,-1.8241991135469475,-0.22908086183331894,-0.14561341730045993,0.5284519968570842,-1.0632581379767598,-0.011164732504195956,3.1107703363634447
140,-4.765657553508124,4.224598978698872,0.5754485718897999,-4.048752928873109,-0.008659715767494802,-1.8232943519229714,-0.23115469678795875,-0.140912164407028,0.5273357031890349,-1.0720083740752266,-0.004396660337137715,3.088912661626158
141,-4.7789617027226186,4.2251177258956405,0.5745470213670565,-4.057044832879338,5.1164085348887056e-05,-1.8224848283646775,-0.23292628002797394,-0.1366667301476268,0.5263524935164912,-1.0798777817404248,0.0015427182199574576,3.069246338715963
142,-4.790700657911881,4.225575444010436,0.5737515356116947,-4.064361218767187,0.007737234543739646,-1.821770542872065,-0.2344229235072553,-0.132891535246158,0.5254973432908856,-1.0868528322188726,0.006690844488794916,3.051808673526789
143,-4.800874419075914,4.225972133043259,0.5730621146237149,-4.070702086536656,0.014398495607681028,-1.8211514954451342,-0.23566914198888614,-0.1295984883801462,0.5247657181128407,-1.092921621345089,0.011081533120098392,3.0366321186089413
144,-4.809482986214707,4.22630779299411,0.5724787584031161,-4.076067436187746,0.020034947277167703,-1.8206276860838848,-0.23668647933142334,-0.12679728263844645,0.524153613165318,-1.0980738860307266,0.014744675784759607,3.0237444316772826
145,-4.816526359328265,4.226582423862987,0.5720014669498994,-4.0804572677204565,0.024646589552203224,-1.8201991147883172,-0.23749336958955813,-0.12449565897787011,0.5236575863597042,-1.1023009995073672,0.017705987034342965,3.013168823014266
146,-4.822004538416589,4.226796025649891,0.5716302402640641,-4.083871581134785,0.02823342243278404,-1.8198657815584316,-0.23810502810026848,-0.12269963359123226,0.5232747856199136,-1.105595953292991,0.019986791515071402,3.004924087881713
147,-4.825917523479674,4.226948598354824,0.5713650783456099,-4.0863103764307365,0.030795445918915476,-1.8196276863942273,-0.23853336833664684,-0.1214136867948148,0.5230029706767371,-1.1079533327825837,0.021603851602610673,2.999024720322616
148,-4.82826531451753,4.227040141977782,0.5712059811945378,-4.087773653608304,0.03233266001059398,-1.8194848292957049,-0.23878694099421505,-0.12064091163190575,0.5228405296852969,-1.109369292206694,0.02256923452040328,2.9954810051822522
149,-4.829047911530147,4.227070656518769,0.5711529488108469,-4.088261412667494,0.03284506470781956,-1.819437210262864,-0.23887089251063645,-0.12038312088711901,0.52278649091403,-1.1098415334812115,0.022890218100029672,2.99429908576018
