nimar13/UR3e_dataset_trayectorias/data/trayectorias_completas_UR3e_TRAPEZOIDAL/trayectoria_379.csv
Punto,shoulder_pan_joint,shoulder_lift_joint,elbow_joint,wrist_1_joint,wrist_2_joint,wrist_3_joint,Posicion_X,Posicion_Y,Posicion_Z,Roll,Pitch,Yaw
0,0.856759455363231,4.031354808876036,0.6523974444928102,3.675016381945662,-1.6880820698368568,1.878192972337816,-0.21514241697752745,-0.06389076774297951,0.6856537513095624,-1.0572197566850408,-1.0524634879377635,0.6154067154795458
1,0.8572775163879839,4.031367636885719,0.652168089483601,3.6752403531618723,-1.6884612466318623,1.8780285849355114,-0.21511238758547038,-0.06405897348202319,0.685651249006362,-1.0567341735771798,-1.052378228474604,0.6151766654662891
2,0.8588316994622426,4.031406120914767,0.6514800244559736,3.6759122668105024,-1.6895987770168786,1.8775354227285979,-0.21502163124200638,-0.06456352826617072,0.6856436125544269,-1.0552787993914234,-1.0521210063274125,0.6144878618209211
3,0.8614220045860072,4.0314702609631805,0.6503332494099279,3.677032122891553,-1.6914946609919057,1.8767134857170753,-0.21486814363976112,-0.06540424044382138,0.6856304533694119,-1.0528577909032522,-1.0516874975717625,0.6133443746808886
4,0.8650484317592776,4.03156005703096,0.6487277643454639,3.678599921405024,-1.6941488985569435,1.875562773900944,-0.2146485849553454,-0.0665807760880971,0.6856111239547421,-1.0494781796039276,-1.051070520376102,0.6117530897807324
5,0.8697109809820539,4.031675509118106,0.6466635692625815,3.680615662350915,-1.6975614897119924,1.8740832872802033,-0.21435828102459106,-0.06809263724052644,0.6855847181239281,-1.0451500234502205,-1.0502600728006761,0.6097238581591262
6,0.875409652254336,4.031816617224616,0.6441406641612808,3.6830793457292264,-1.701732434457052,1.872275025854854,-0.21399122527155356,-0.0699391314640166,0.6855500713244373,-1.0398866121461476,-1.0492433871435836,0.6072696985753258
7,0.8821444455761238,4.031983381350493,0.6411590490415618,3.685990971539958,-1.7066617327921223,1.8701379896248953,-0.21354008167467078,-0.07211933272112443,0.6855057610757359,-1.0337047186405177,-1.0480050021609049,0.6044070453131064
8,0.8899153609474176,4.032175801495734,0.6377187239034245,3.68935053978311,-1.7123493847172038,1.8676721785903279,-0.21299618913397622,-0.07463203360423266,0.685450107537691,-1.0266248872655708,-1.0465268547219124,0.6011560317897674
9,0.8987223983682171,4.032393877660342,0.633819688746869,3.693158050458682,-1.7187953902322959,1.8648775927511514,-0.21234956768328395,-0.07747568895927778,0.6853811742291018,-1.018671746632954,-1.044788392584071,0.597540798076525
10,0.9085655578385226,4.032637609844315,0.6294619435718951,3.697413503566674,-1.7259997493373989,1.861754232107366,-0.21158892707056415,-0.08064835096522402,0.6852967689196544,-1.0098743331122295,-1.0427667099614844,0.5935898081430699
11,0.9194448393583338,4.032906998047653,0.624645488378503,3.7021168991070867,-1.7339624620325127,1.8583020966589714,-0.21070167830794978,-0.084147595758386,0.6851944447221078,-1.0002664085556485,-1.040436707392398,0.5893361604747044
12,0.9313602429276508,4.033202042270357,0.6193703231666925,3.7072682370799197,-1.7426835283176372,1.8545211864059679,-0.20967394886957158,-0.08797044172499727,0.6850715014150033,-0.9898867540540653,-1.0377712770688026,0.5848178738283175
13,0.9443117685464738,4.033522742512427,0.6136364479364638,3.7128675174851726,-1.7521629481927727,1.8504115013483553,-0.2084906022901105,-0.09211325962794958,0.6849249870295949,-0.97877942010298,-1.0347415142638166,0.5800781284837782
14,0.9582994162148025,4.033869098773862,0.6074438626878167,3.718914740322846,-1.7624007216579192,1.845973041486134,-0.20713526298895657,-0.09657167478523516,0.6847516997380828,-0.9669939128406652,-1.0313169547805883,0.5751654426259153
15,0.973323185932637,4.034241111054663,0.6007925674207513,3.7254099055929397,-1.7733968487130762,1.8412058068193033,-0.20559034721335573,-0.10134046157915101,0.6845481900835243,-0.9545852962131599,-1.0274658374638814,0.5701337636801211
16,0.9893830776999775,4.03463877935483,0.5936825621352676,3.7323530132954534,-1.7851513293582442,1.836109797347864,-0.20383710105793817,-0.10641343064745537,0.6843107635949994,-0.9416141912248795,-1.0231553897921288,0.565042455722841
17,1.0064790915168238,4.0350621036743615,0.5861138468313657,3.7397440634303876,-1.7976641635934232,1.8306850130718153,-0.2018556465764844,-0.11178330919103859,0.6840354838347474,-0.9281466559970127,-1.0183521334509575,0.5599561666451415
18,1.0246112273831758,4.035511084013259,0.5780864215090454,3.7475830559977417,-1.8109353514186128,1.8249314539911579,-0.19962503705338924,-0.1174416149278266,0.6837181759269556,-0.914253934241271,-1.0130222056432094,0.5549445626255455
19,1.0437794852990336,4.035985720371523,0.5696002861683068,3.755869990997516,-1.8249648928338134,1.8188491201058914,-0.1971233225456441,-0.12337852432993338,0.6833544306207688,-0.9000120649102218,-1.0071316907936514,0.550081922613533
20,1.0639838652643974,4.036486012749151,0.56065544080915,3.764604868429711,-1.8397527878390247,1.812438011416016,-0.1943276268396239,-0.12958273590074773,0.6829396089427613,-0.8855013520160828,-1.0006469563457734,0.5454465917462542
21,1.085224367279267,4.0370119611461455,0.5512518854315748,3.773787688294326,-1.8552990364342468,1.8056981279215314,-0.19121423698883783,-0.13604132938072785,0.682468847496638,-0.8708057005839234,-0.9935349856113908,0.5411202995842248
22,1.1075009913436424,4.037563565562506,0.5413896200355812,3.7834184505913613,-1.8716036386194799,1.7986294696224379,-0.187758706607133,-0.1427396219149744,0.6819370644702223,-0.856011831961818,-0.9857637002006746,0.5371873562961417
23,1.1308137374575236,4.038140825998231,0.5310686446211694,3.7934971553208165,-1.8886665943947238,1.7912320365187353,-0.18393597408459328,-0.14966102237173373,0.6813389664118417,-0.8412083986983687,-0.9773022644919891,0.5337337468970049
24,1.1551626056209106,4.038743742453322,0.5202889591883394,3.8040238024826927,-1.9064879037599785,1.783505828610424,-0.1797204968683884,-0.1567868851681107,0.6806690558400039,-0.8264850253326457,-0.9681213649316718,0.5308461497626888
25,1.1805475958338036,4.039372314927778,0.509050563737091,3.8149983920769883,-1.9250675667152441,1.7754508458975033,-0.1750864029058276,-0.16409636513641201,0.6799216397517076,-0.8119313061737915,-0.9581934576843107,0.5286109103586228
26,1.2069687080962024,4.0400265434216,0.49735345826742433,3.826420924103705,-1.9444055832605205,1.767067088379974,-0.17000766027952033,-0.17156627515026154,0.6790908390958602,-0.797635794035233,-0.947492979248794,0.527113003987904
27,1.2344259424081068,4.040706427934788,0.48519764277933936,3.8382913985628413,-1.9645019533958077,1.7583545560578353,-0.16445826597250673,-0.17917094842218434,0.6781705992789854,-0.783685014656562,-0.9359965160458528,0.5264350221095965
28,1.2629192987695173,4.041411968467342,0.47258311727283603,3.8506098154543977,-1.9853566771211058,1.7493132489310879,-0.1584124545821321,-0.18688210758147192,0.6771547017706948,-0.7701625401265019,-0.9236829305727225,0.5266562153326348
29,1.2924487771804334,4.042143165019261,0.45950988174791446,3.863376174778375,-2.0069697544364145,1.7399431669997314,-0.15184492765304092,-0.1946687428402209,0.6760367768762066,-0.7571481511609889,-0.9105334433979131,0.5278516227021594
30,1.3230143776408554,4.042900017590545,0.4459779362045746,3.876590476534772,-2.0293411853417345,1.730244310263766,-0.14473110411984408,-0.20249700175329552,0.6748103177424692,-0.7447171129348544,-0.896531671917076,0.5300913117064171
31,1.3546161001507833,4.043682526181195,0.43198728064281633,3.8902527207235895,-2.052470969837065,1.7202166787231914,-0.13704739213683081,-0.2103300932710168,0.6734686956631479,-0.7329395828044997,-0.8816636283014414,0.5334397470334865
32,1.387253944710217,4.0444906907912115,0.4175379150626398,3.904362907344827,-2.0763591079224066,1.7098602723780079,-0.1287714823239059,-0.21812820896749255,0.6720051767458082,-0.7218801612643627,-0.8659176803542211,0.5379552990694116
33,1.4209279113191564,4.045324511420592,0.40262983946404507,3.918921036398485,-2.101005599597759,1.6991750912282153,-0.11988266217349831,-0.22584846449807144,0.6704129400020037,-0.7115975904333725,-0.8492844799851949,0.5436898960334813
34,1.455637999977602,4.046183988069339,0.3872630538470319,3.9339271078845632,-2.126410444863122,1.688161135273814,-0.11036215104166516,-0.2334448644913157,0.6686850969176446,-0.7021445977939276,-0.8317568646869647,0.5506888170163164
35,1.491384210685553,4.047069120737452,0.37143755821160057,3.9493811218030617,-2.1525736437184957,1.6768184045148034,-0.10019345478779437,-0.24086829420864383,0.6668147125568586,-0.6935678772238878,-0.8133297377455332,0.5589906174396407
36,1.5281665434430103,4.04797990942493,0.3551533525577509,3.9652830781539805,-2.1794951961638804,1.665146898951184,-0.08936273873157564,-0.24806654140232776,0.664794828247589,-0.6859081948540257,-0.7939999329655555,0.568627173874067
37,1.5659849982499732,4.048916354131773,0.33841043688548283,3.9816329769373193,-2.207175102199276,1.6531466185829553,-0.07785921716446749,-0.2549843518636458,0.6626184858912548,-0.6792006040883788,-0.7737660694796031,0.5796238318703234
38,1.604839575106442,4.049878454857982,0.3212088111947965,3.9984308181530785,-2.235613361824683,1.6408175634101179,-0.06567555718776305,-0.26156352217098305,0.6602787539319894,-0.6734747522498413,-0.752628401795643,0.5919996384849454
39,1.6447302740124163,4.050866211603557,0.30354847548569186,4.015676601801258,-2.2648099750401003,1.6281597334326714,-0.0528082941535764,-0.2677430331158143,0.6577687550130874,-0.6687552606574424,-0.7305886696776339,0.6057676404105171
40,1.6856570949678968,4.051879624368497,0.285429429758169,4.033370327881857,-2.2947649418455285,1.615173128650616,-0.0392582554626663,-0.27345922719594423,0.6550816953394107,-0.6650621603293569,-0.7076499518095521,0.6209352288745038
41,1.727620037972883,4.052918693152803,0.2668516740122278,4.051511996394877,-2.325478262240967,1.6018577490639514,-0.02503098892922998,-0.2786460334133483,0.6522108957544919,-0.66241136671832,-0.6838165265164265,0.6375045135277527
42,1.770619103027375,4.053983417956474,0.24781520824786835,4.070101607340318,-2.356949936226417,1.5882135946726779,-0.010137191363973253,-0.28323524239196257,0.6491498245299372,-0.6608151786933171,-0.6590937421514779,0.65547270916928
43,1.8146542901313727,4.055073798779511,0.22832003246509053,4.089139160718178,-2.389179963801878,1.5742406654767955,0.00540686753941645,-0.28715683453266605,0.6458921318524246,-0.6602827891637671,-0.6334878991406975,0.6748325211237995
44,1.8597255992848767,4.056189835621914,0.2083661466638943,4.108624656528459,-2.4221683449673495,1.5599389614763037,0.021578931493933168,-0.290339363543082,0.6424316859800788,-0.6608207971080492,-0.6070061451292675,0.6955725172046799
45,1.9058330304878863,4.057331528483682,0.1879535508442799,4.12855809477116,-2.4559150797228315,1.5453084826712034,0.03835036011756298,-0.292710397214022,0.6387626110252954,-0.6624337131621243,-0.5796563842133167,0.7176774762956795
46,1.9529765837404016,4.058498877364816,0.16708224500624724,4.148939475446281,-2.490420168068325,1.530349229061494,0.055685754202676255,-0.29419701675887633,0.6348793263051221,-0.6651244532311729,-0.5514472008727979,0.7411287055461256
47,2.001156259042423,4.059691882265315,0.14575222914979624,4.169768798553822,-2.5256836100038287,1.5150612006471753,0.0735426108132968,-0.294726375384789,0.630776587183159,-0.6688948167310926,-0.5223877989483847,0.7659043199093502
48,2.0503720563939494,4.06091054318518,0.12396350327492689,4.191046064093784,-2.5617054055293433,1.4994443974282479,0.0918710157123467,-0.2942263160243658,0.6264495273085514,-0.6737459480054702,-0.49248795582452953,0.7919794792084246
49,2.1006239757949823,4.06215486012441,0.10171606738163941,4.212771272066165,-2.5984855546448693,1.4834988194047114,0.11061338100282829,-0.29262604732502623,0.6218937021381057,-0.679678781183952,-0.46175799188727457,0.8193265790578862
50,2.151854454909438,4.063423407748597,0.07903540535984543,4.234919536780278,-2.6359819265954054,1.4672427318434886,0.12968285690941414,-0.2898606262860193,0.6171105847888424,-0.6866860734567033,-0.43024426090391854,0.8478829498930865
51,2.2033151833682276,4.064697656710421,0.056252807778403247,4.25716734425715,-2.673646821565944,1.4509135832145748,0.14873058729044486,-0.2859337213594288,0.6121699888173345,-0.6946442976987357,-0.3984225297394983,0.8771835644703396
52,2.254775911827017,4.065971905672244,0.03347021019696084,4.279415151734022,-2.711311716536482,1.4345844345856613,0.1676014705129929,-0.280863072871225,0.6070981412174321,-0.7034743553557791,-0.36645452177405197,0.9070339174927377
53,2.3062366402858068,4.067246154634068,0.010687612615518649,4.301662959210894,-2.74897661150702,1.4182552859567474,0.1862270297747405,-0.27466080018373035,0.6019001883871836,-0.7131322210543786,-0.3343591500027903,0.9373709854156058
54,2.357697368744596,4.068520403595892,-0.012094984965923539,4.323910766687766,-2.7866415064775585,1.401926137327834,0.20453983077092588,-0.2673431671675859,0.5965813746551993,-0.7235791399459639,-0.302153962598629,0.9681358261609712
55,2.409158097203386,4.069794652557715,-0.03487758254736595,4.3461585741646385,-2.8243064014480965,1.3855969886989203,0.22247373391157022,-0.2589304861983258,0.591147035840903,-0.7347812256130618,-0.2698553356968609,0.9992730756357505
56,2.4606188256621757,4.071068901519539,-0.05766018012880836,4.368406381641511,-2.8619712964186355,1.3692678400700065,0.23996413763245292,-0.24944700694739072,0.5856025927252967,-0.7467091056284952,-0.23747864603547422,1.0307304824222223
57,2.5120795541209655,4.0723431504813625,-0.08044277771025055,4.390654189118383,-2.8996361913891735,1.3529386914410928,0.25694821191523015,-0.23892079078610418,0.5799535444414199,-0.759337612302898,-0.20503842651501858,1.062458477174394
58,2.5635402825797553,4.073617399443187,-0.10322537529169296,4.412901996595255,-2.937301086359712,1.3366095428121794,0.2733651212063707,-0.22738357166825118,0.5742054617937759,-0.7726455159894877,-0.1725485074002359,1.0944097729804951
59,2.6150010110385447,4.07489164840501,-0.12600797287313514,4.435149804072127,-2.97496598133025,1.3202803941832655,0.2891562360008605,-0.2148706043973808,0.568363980516067,-0.7866152983418424,-0.14002214558865192,1.1265389928616067
60,2.6664617394973344,4.076165897366834,-0.14879057045457733,4.457397611548999,-3.0126308763007885,1.303951245554352,0.30426533243426584,-0.20142050121872523,0.5624347944766457,-0.8012329630728142,-0.10747214411770047,1.1588023206013267
61,2.717922467956124,4.077440146328657,-0.17157316803601974,4.479645419025871,-3.0502957712713266,1.2876220969254382,0.31863877930522855,-0.18707505770278599,0.5564236488411297,-0.8164878819932062,-0.07491096386968717,1.1911571711941487
62,2.769383196414914,4.078714395290481,-0.19435576561746215,4.501893226502744,-3.0879606662418655,1.2712929482965245,0.3322257120291545,-0.1718790689082197,0.5503363332016571,-0.8323726743848602,-0.042350829260153114,1.2235618773287076
63,2.8208439248737034,4.079988644252304,-0.21713836319890434,4.524141033979616,-3.1256255612124035,1.2549637996676108,0.34497819310228345,-0.15588013682584795,0.5441786746822784,-0.8488831180616366,-0.00980382955730738,1.2559753884647977
64,2.872304653332493,4.081262893214128,-0.23992096078034675,4.546388841456488,-3.163290456182942,1.2386346510386972,0.3568513587328989,-0.13912847011351742,0.5379565310299809,-0.8660180907779123,0.02271798262459828,1.2883569792067724
65,2.9237653817912825,4.082537142175952,-0.26270355836178894,4.56863664893336,-3.20095535115348,1.2223055024097835,0.3678035513727076,-0.12167667713348443,0.5316757837008232,-0.8837795409464964,0.05520249418890827,1.3206659638129095
66,2.9752261102500723,4.083811391137775,-0.28548615594323135,4.590884456410231,-3.2386202461240186,1.2059763537808699,0.3777964379558991,-0.10357955330011401,0.52534233095064,-0.9021724869179687,0.08763743435316336,1.3528614138078818
67,3.026686838708862,4.085085640099599,-0.30826875352467376,4.613132263887104,-3.276285141094557,1.1896472051519562,0.3867951137256613,-0.0848938637363999,0.5189620809397301,-0.921205044344006,0.1200102759721677,1.3849018757841105
68,3.078147567167652,4.086359889061423,-0.33105135110611594,4.635380071363977,-3.3139500360650955,1.1733180565230426,0.3947681915975856,-0.0656781222233406,0.5125409448608738,-0.9408884813910277,0.1523081339725001,1.416745086592271
69,3.1296082956264417,4.087634138023247,-0.35383394868755835,4.657627878840849,-3.3516149310356336,1.156988907894129,0.40168787707608267,-0.045992367406989865,0.506084830099985,-0.9612373017787852,0.18451765944967985,1.4483476832390532
70,3.181069024085231,4.08890838698507,-0.37661654626900054,4.67987568631772,-3.389279826006172,1.1406597592652152,0.40753002880333844,-0.025897937204356618,0.49959963343858316,-0.9822693557798361,0.21662492792112778,1.47966490494368
71,3.232529752544021,4.090182635946894,-0.39939914385044273,4.702123493794593,-3.42694472097671,1.1243306106363016,0.4122742048801869,-0.005457242321692882,0.4930912343072083,-1.0040059794152332,0.24861532014636645,1.5106502849702692
72,3.28399048100281,4.091456884908717,-0.42218174143188514,4.724371301271464,-3.4646096159472486,1.108001462007388,0.4159036951543276,0.0152664602325151,0.4865654880987571,-1.0264721620978696,0.28047339382175424,1.5412553300739713
73,3.3354512094616005,4.092731133870541,-0.44496433901332755,4.746619108748337,-3.502274510917787,1.091672313378474,0.418405539723404,0.03620929279194793,0.4800282195506328,-1.0496967428793789,0.3121827443320554,1.571429185705854
74,3.38691193792039,4.094005382832364,-0.46774693659476974,4.768866916225209,-3.5399394058883256,1.0753431647495604,0.4197705339484059,0.057306981023458166,0.4734852162044281,-1.073712635209691,0.34372585259789395,1.6011182855561752
75,3.438372666379179,4.095279631794188,-0.4905295341762119,4.791114723702081,-3.5776043008588636,1.059014016120647,0.4199932203165791,0.07849507549333576,0.4669422219517375,-1.0985570796682222,0.37508391790111784,1.6302659846330032
76,3.4898333948379694,4.096553880756012,-0.5133121317576546,4.813362531178953,-3.6152691958294025,1.042684867491733,0.41907186753248593,0.09970917007878649,0.4604049306745221,-1.1242719234009966,0.406236673406041,1.658812175945694
77,3.541294123296759,4.097828129717835,-0.5360947293390967,4.835610338655826,-3.6529340907999406,1.0263557188628194,0.417008437250973,0.12088511653732621,0.45387897998828125,-1.1509039239062946,0.4371621819342917,1.6866928920857562
78,3.5927548517555485,4.099102378679659,-0.5588773269205392,4.857858146132697,-3.690598985770479,1.0100265702339057,0.41380853889667873,0.14195923459057472,0.4473699450960978,-1.1785050732303686,0.46783660941072813,1.7138398946947755
79,3.6442155802143383,4.100376627641483,-0.5816599245019813,4.88010595360957,-3.728263880741017,0.9936974216049921,0.4094813730413424,0.1628685169233267,0.4408833327614292,-1.2071329364071761,0.4982339733015049,1.7401802571394476
80,3.695676308673128,4.101650876603307,-0.6044425220834235,4.902353761086442,-3.7659287757115556,0.9773682729760784,0.40403966383268397,0.18355082854341606,0.43442457540731205,-1.2368509949016215,0.5283258633479819,1.7656359488791737
81,3.747137037131918,4.10292512556513,-0.6272251196648659,4.924601568563314,-3.8035936706820936,0.9610391243471648,0.39749958098716476,0.20394509999242003,0.4279990253494231,-1.2677289816444846,0.5580811320112161,1.7901234342635193
82,3.798597765590707,4.104199374526954,-0.6500077172463081,4.946849376040186,-3.841258565652632,0.9447099757182511,0.38988065187361337,0.22399151394127115,0.4216119491702252,-1.2998431886745088,0.587465552351301,1.813553304140716
83,3.8500584940494966,4.105473623488777,-0.6727903148277505,4.969097183517058,-3.87892346062317,0.9283808270893374,0.3812056642257812,0.24363168474812658,0.4152685222411721,-1.3332767210710113,0.6164414416696844,1.83582996605357
84,3.9015192225082864,4.106747872450601,-0.6955729124091927,4.99134499099393,-3.9165883555937087,0.9120516784604238,0.3715005600295169,0.26280883059800186,0.40897382339971833,-1.3681196613690236,0.6449672502708842,1.8568514283463162
85,3.952979950967076,4.108022121412424,-0.7183555099906349,5.013592798470802,-3.9542532505642467,0.8957225298315104,0.36079432113472076,0.28146793788455293,0.4027328297876078,-1.4044690965880537,0.6729971163242215,1.8765092256163232
86,4.004440679425866,4.109296370374248,-0.7411381075720773,5.035840605947675,-3.991918145534785,0.8793933812025967,0.3491188471437647,0.2995559175336415,0.39655041185666673,-1.4424289450194323,0.7004803902472738,1.894688547974469
87,4.0559014078846545,4.110570619336072,-0.7639207051535195,5.058088413424547,-4.029583040505324,0.863064232573683,0.33650882612696986,0.31702175300586827,0.3904313285480432,-1.4821095018210877,0.7273611355648242,1.911268654712947
88,4.107362136343445,4.111844868297895,-0.7867033027349624,5.080336220901419,-4.067247935475862,0.8467350839447689,0.3230015987122359,0.33381663975084885,0.38438022265056043,-1.523626601444438,0.7535776181444954,1.9261236740378453
89,4.158822864802236,4.1131191172597195,-0.8094859003164043,5.102584028378291,-4.1049128304464,0.8304059353158555,0.30863701609038546,0.3498941159195616,0.3784016163435772,-1.5671002718162594,0.7790618024289592,1.9391239136561285
90,4.210283593261025,4.114393366221543,-0.8322684978978467,5.124831835855163,-4.142577725416939,0.8140767866869418,0.2934572924704444,0.365210184172523,0.3724999069294227,-1.6126527319770063,0.8037388821179651,1.9501378302551275
91,4.261744321719814,4.115667615183367,-0.8550510954792891,5.147079643332035,-4.180242620387477,0.7977476380580282,0.27750685251028195,0.3797234244507392,0.36667936276022894,-1.6604055651855867,0.8275268839456122,1.9590348256280607
92,4.313205050178604,4.11694186414519,-0.8778336930607311,5.1693274508089075,-4.217907515358016,0.7814184894291145,0.2608321742380503,0.39339509760337665,0.3609441193636168,-1.7104758893660417,0.8503363967480194,1.9656890473548618
93,4.364665778637393,4.118216113107014,-0.9006162906421735,5.19157525828578,-4.255572410328554,0.7650893408002009,0.2434816279689639,0.4061892397908541,0.3552981757714424,-1.7629713552474986,0.8720704934508018,1.9699843634905634
94,4.416126507096184,4.119490362068837,-0.9233988882236159,5.213823065762652,-4.293237305299092,0.7487601921712872,0.22550531171045934,0.41807274760464624,0.34974539105545244,-1.8179838419981251,0.8926249296720017,1.9718206412806907
95,4.467587235554973,4.120764611030661,-0.9461814858050579,5.236070873239524,-4.33090220026963,0.7324310435423735,0.20695488353693128,0.4290154538655171,0.34428948107340823,-1.8755818056061513,0.911888716933775,1.9711213744854947
96,4.519047964013762,4.122038859992484,-0.9689640833865003,5.258318680716396,-4.368567095240168,0.7161018949134599,0.18788339140326213,0.4389901940803909,0.33893401542890034,-1.935801382005623,0.9297451771235388,1.9678425571632525
97,4.570508692472552,4.123313108954308,-0.9917466809679427,5.280566488193268,-4.406231990210706,0.6997727462845462,0.16834510085456006,0.4479728635545511,0.3336824146477714,-1.99863656544312,0.9460735823615288,1.9619824832756227
98,4.621969420931341,4.124587357916132,-1.0145292785493851,5.3028142956701405,-4.443896885181245,0.6834435976556326,0.14839532107801875,0.4559424651706684,0.3285379475737106,-2.0640290701921713,0.9607514641364184,1.9535918638775722
99,4.673430149390132,4.1258616068779554,-1.0373118761308275,5.325062103147013,-4.481561780151784,0.6671144490267187,0.1280902297318595,0.4628811478593319,0.3235037289852885,-2.131858814106286,0.9736576308577446,1.942783323278912
100,4.724660628504586,4.127130154502142,-1.059992538152621,5.347210367861125,-4.519058152102319,0.6508583614654957,0.10757946261077583,0.46875021538533834,0.318604479050846,-2.201618086806024,0.9846309287968998,1.929802013523075
101,4.774912547905619,4.128374471441373,-1.0822399740459092,5.368935575833507,-4.555838301217845,0.6349127834419597,0.08722777248213306,0.4734894612452502,0.31391048081643547,-2.271958902604941,0.9934747850537308,1.9151592145044274
102,4.824128345257147,4.129593132361237,-1.1040286999207778,5.390212841373469,-4.5918600967433605,0.619295980223032,0.06712440259239845,0.4771465054588895,0.3094228489861855,-2.3423847053121962,1.000208791446766,1.8992808916924468
103,4.872308020559168,4.130786137261737,-1.1253587157772293,5.41104216448101,-4.627123538678864,0.6040079518087134,0.04732910839544514,0.479778422598569,0.30513684351727816,-2.4124606077120925,1.0048887028414133,1.8825959788875468
104,4.919451573811683,4.131953486142871,-1.1462300216152617,5.431423545156131,-4.661628627024358,0.5890486981990037,0.02789522790125877,0.4814439614217289,0.3010474800123273,-2.4817544716481503,1.0075923040592194,1.8655314458957888
105,4.965559005014694,4.133095179004639,-1.1666426174348765,5.451356983398831,-4.695375361779839,0.5744182193939038,0.00886989820761019,0.4822029931142938,0.2971495691991042,-2.5498549060652316,1.0084175183680555,1.8484942441497594
106,5.010630314168196,4.134211215847042,-1.1865965032360721,5.470842479209112,-4.728363742945312,0.560116515393412,-0.009705697957264618,0.4821160081342052,0.2934377539316942,-2.6163871609183667,1.007479526600069,1.8318553614758486
107,5.054665501272194,4.135301596670079,-1.2060916790188498,5.4898800325869725,-4.760593770520772,0.5461435861975295,-0.027796061403238585,0.4812436608690785,0.28990654375148167,-2.6810254581119985,1.0049071776139742,1.815937444196654
108,5.097664566326685,4.13636632147375,-1.2251281447832092,5.508469643532413,-4.792065444506221,0.5324994318062566,-0.045371086615303424,0.4796463609209409,0.2865503470587381,-2.743500924446664,1.0008390279984807,1.80100682102375
109,5.139627509331674,4.137405390258056,-1.243705900529151,5.526611312045433,-4.822778764901662,0.5191840522195914,-0.062405757655408844,0.4773839094968787,0.2833635009561572,-2.803604979171967,0.9954193486576006,1.7872700756434725
110,5.18055433028715,4.138418803022995,-1.2618249462566737,5.544305038126032,-4.852733731707088,0.5061974474375361,-0.07887983417341521,0.47451517911119334,0.2803402988347366,-2.861188622338167,0.9887943871788814,1.7748747213648546
111,5.220445029193129,4.13940655976857,-1.279485281965778,5.561550821774214,-4.881930344922507,0.4935396174600899,-0.0947775314321499,0.4710978345866147,0.27747501577990674,-2.9161584682609423,0.9811090959804853,1.763913133129359
112,5.259299606049596,4.14036866049478,-1.2966869076564649,5.5783486629899715,-4.910368604547913,0.4812105622872518,-0.11008719782778362,0.46718809317388,0.2747619318819395,-2.968470542320191,0.9725044477298157,1.7544287183215184
113,5.29711806085656,4.141305105201623,-1.3134298233287334,5.59469856177331,-4.93804851058331,0.46921028191902314,-0.12480099298137878,0.4628405214853071,0.2721953535395749,-3.0181228401252187,0.9631153783625198,1.7464233270491993
114,5.333900393614014,4.142215893889102,-1.3297140289825822,5.610600518124228,-4.9649700630286935,0.4575387763554035,-0.13891456909180888,0.4581078668541428,0.26976963284948424,-3.0651474990163723,0.9530693345446597,1.7398650516602128
115,5.369646604321967,4.143101026557214,-1.345539524618014,5.626054532042726,-4.991133261884066,0.4461960455963938,-0.15242675787633445,0.45304092068276586,0.2674791851768602,-3.1096032208801767,0.9424853602488608,1.7346957762875825
116,5.404356692980414,4.14396050320596,-1.360906310235027,5.641060603528807,-5.016538107149431,0.4351820896419918,-0.16533926508331506,0.44768841132511994,0.26531850500414417,3.131616940126898,0.931473634887156,1.7308380554468061
117,5.438030659589352,4.144794323835342,-1.375814385833622,5.655618732582464,-5.041184598824783,0.4244969084921988,-0.17765637424299333,0.44209692405792744,0.26328218015572036,3.0920503518600087,0.9201353690213093,1.728201091501078
118,5.470668504148787,4.145602488445358,-1.3902637514137988,5.669728919203701,-5.065072736910125,0.41414050214701614,-0.18938466102688448,0.4363108457277272,0.261364904496546,3.0547816656688624,0.9085629680812577,1.7266857283447943
119,5.5022702266587125,4.146384997036008,-1.4042544069755567,5.683391163392518,-5.088202521405455,0.40411287060644163,-0.2005327193143459,0.4303723317129922,0.25956148920204875,3.0197056410911265,0.8968403852065915,1.7261884807761656
120,5.532835827119136,4.1471418496072925,-1.4177863525188958,5.696605465148915,-5.110573952310776,0.3944140138704757,-0.21111089981613823,0.42432129290945236,0.2578668726955174,2.9867156234589407,0.8850435977373228,1.7266046814577625
121,5.562365305530054,4.14787304615921,-1.430859588043817,5.709371824472892,-5.132187029626084,0.3850439319391188,-0.22113106187868947,0.4181954005292815,0.2562761293474652,2.955705945018788,0.8732411556016763,1.727830859051221
122,5.590858661891462,4.148578586691764,-1.4434741135503217,5.721690241364449,-5.15304175335138,0.37600262481237223,-0.23060633888900783,0.41203010659831785,0.2547844770293882,2.926573680532971,0.8614947624462278,1.729766471240497
123,5.618315896203366,4.149258471204952,-1.4556299290384072,5.733560715823586,-5.17313812348667,0.3672900924902329,-0.23955091751781377,0.40585867813755333,0.253387283611799,2.899219877568151,0.8498598611340055,1.7323151127907879
124,5.644737008465766,4.149912699698774,-1.4673270345080733,5.744983247850302,-5.192476140031945,0.3589063349727035,-0.24797983087678915,0.3997122431235012,0.25208007249365044,2.8735503704103564,0.8383862039980216,1.7353853075391015
125,5.67012199867866,4.150541272173231,-1.4785654299593207,5.755957837444598,-5.211055802987211,0.3508513522597836,-0.25590876552393355,0.3936198464347228,0.25085852724719254,2.849476271801123,0.8271183950725945,1.7388909784817397
126,5.694470866842044,4.151144188628322,-1.4893451153921506,5.766484484606473,-5.228877112352465,0.3431251443514718,-0.26335388212782507,0.3876085141069831,0.2497184954590581,2.82691422117164,0.8160963966705863,1.7427516746191596
127,5.7177836129559285,4.1517214490640475,-1.499666090806564,5.7765631893359295,-5.245940068127711,0.335727711247769,-0.2703316494960411,0.381703324335628,0.24865599184496182,2.80578645334316,0.8053559964216223,1.746892618522168
128,5.7400602370203,4.152273053480408,-1.5095283562025563,5.7861939516329635,-5.262244670312942,0.3286590529486766,-0.2768586915840723,0.37592748377942575,0.24766720071186688,2.7860207385686007,0.7949292335228479,1.7512446255013872
129,5.761300739035173,4.152799001877402,-1.5189319115801316,5.795376771497579,-5.277790918908164,0.3219191694541914,-0.28295164702763687,0.37030240783403606,0.24674847783787549,2.7675502336169138,0.7848447847368187,1.7557439340990943
130,5.781505119000537,4.153299294255031,-1.527876756939289,5.804111648929775,-5.292578813913376,0.3155080607643157,-0.28862704068205375,0.36484780365457536,0.2458963518364681,2.7503132743548924,0.7751283118173641,1.7603319783849407
131,5.800673376916393,4.153773930613294,-1.5363628922800276,5.812398583929548,-5.306608355328576,0.3094257268790499,-0.2939011666065265,0.3595817548143002,0.24510752506802627,2.7342531328053723,0.7658027727267872,1.7649551250704252
132,5.818805512782747,4.154222910952192,-1.544390317602347,5.820237576496903,-5.319879543153767,0.30367216779839223,-0.29878998189723316,0.3545208065898478,0.24437887415794915,2.7193177557304162,0.7568886993618409,1.7695643925340343
133,5.83590152659959,4.1546462352717235,-1.5519590329062485,5.827628626631837,-5.332392377388945,0.2982473835223436,-0.3033090107503585,0.34968005096188254,0.24370745017703982,2.705459497156755,0.7484044446333429,1.7741151642247768
134,5.851961418366933,4.15504390357189,-1.5590690381917325,5.83457173433435,-5.344146858034113,0.2931513740509035,-0.3074732581233523,0.3450732105131097,0.24309047853626464,2.6926348536944564,0.740366401720783,1.7785669053514206
135,5.866985188084767,4.155415915852691,-1.565720333458799,5.841066899604445,-5.3551429850892704,0.28838413938407337,-0.3112971323587689,0.3407127204931743,0.24252535864447625,2.680804208788829,0.7327891982035535,1.782882889058623
136,5.880972835753097,4.155762272114126,-1.5719129187074454,5.847114122442117,-5.365380758554415,0.2839456795218518,-0.3147943761392624,0.3366098084015367,0.24200966337425295,2.6699315900114216,0.72568586759327,1.7870299362611548
137,5.893924361371917,4.156082972356196,-1.5776467939376744,5.85271340284737,-5.374860178429552,0.27983599446423923,-0.31797800515349844,0.3327745705152093,0.2415411383776443,2.6599844419904013,0.7190680005842328,1.7909781718045552
138,5.905839764941236,4.1563780165789,-1.582921959149484,5.8578647408202045,-5.3835812447146765,0.27605508421123615,-0.3208602538703861,0.3292160448579397,0.2411177012903536,2.650933416483591,0.7129458781195538,1.7947007985257117
139,5.916719046461045,4.156647404782238,-1.5877384143428772,5.862568136360616,-5.39154395740979,0.27260294876284163,-0.3234525278420162,0.32594228017137805,0.2407374408596969,2.642752180313179,0.7073285881508433,1.7981738900032127
140,5.9265622059313525,4.156891136966212,-1.592096159517851,5.866823589468609,-5.398748316514894,0.2694795881190557,-0.32576536198366335,0.32296040050687835,0.2403986160286091,2.635417241334742,0.7022241277571876,1.8013762022410422
141,5.935369243352152,4.157109213130818,-1.5959951946744058,5.87063110014418,-5.405194322029986,0.2666850022798801,-0.3278083843111283,0.3202766651093029,0.24009965500495406,2.6289077922454283,0.6976394920886737,1.804289004160017
142,5.943140158723445,4.15730163327606,-1.599435519812543,5.873990668387331,-5.410881973955065,0.26421919124531223,-0.3295902846513545,0.31789652331155344,0.23983915434252812,2.6232055718027825,0.6935807514130834,1.8068959265359608
143,5.949874952045235,4.157468397401937,-1.6024171349322636,5.876902294198064,-5.415811272290137,0.26208215501535337,-0.33111878788080323,0.3158246642010973,0.23961587805730733,2.6182947428912224,0.6900531173724382,1.8091828288859437
144,5.955573623317514,4.157609505508447,-1.6049400400335632,5.8793659775763745,-5.419982217035197,0.2602738935900035,-0.33240063128722397,0.3140650608576637,0.2394287567997803,2.6141617868122187,0.6870609993983556,1.8111376837389093
145,5.960236172540293,4.157724957595593,-1.6070042351164453,5.881381718522267,-5.423394808190247,0.2587944069692636,-0.33344154569376566,0.3126210089950396,0.2392768871015518,2.610795413166491,0.6846080520908319,1.8127504777144674
146,5.963862599713561,4.157814753663373,-1.60860972018091,5.882949517035738,-5.426049045755285,0.2576436951531318,-0.33424624002934544,0.3114951598699785,0.23915953071182877,2.608186484727559,0.6826972142330253,1.81401312885878
147,5.966452904837327,4.157878893711786,-1.6097564952269545,5.8840693731167875,-5.427944929730312,0.256821758141609,-0.33481838907571104,0.3106895473478985,0.23907611403688922,2.6063279567645927,0.6813307399929639,1.8149194197389462
148,5.968007087911584,4.1579173777408345,-1.6104445602545834,5.884741286765419,-5.4290824601153265,0.25632859593469615,-0.3351606241691565,0.31020560903907946,0.23902622769316664,2.6052148303506346,0.6805102227507658,1.8154649458681245
149,5.9685251489363385,4.1579302057505165,-1.610673915263792,5.884965257981628,-5.429461636910332,0.2561642085323914,-0.3352745266833959,0.31004420144059336,0.2390096261821811,2.6048441192838894,0.680236611884779,1.8156470791180397
