nimar13/UR3e_dataset_trayectorias/trayectorias_ejecutadas_filtradas/quintic/trayectoria_281_result_filtrado.csv
timestamp,q1,q2,q3,q4,q5,q6,qd1,qd2,qd3,qd4,qd5,qd6,tau1,tau2,tau3,tau4,tau5,tau6
1749038918.022277,-4.712269033831906,-1.559896276718234,1.3574234830473693,-3.935583469373327,4.907073145481679,5.690453492080589,0.005454491598507884,0.00015373372277909382,-0.0004921672152673678,0.001979160036834048,5.362944437713763e-06,-0.0032085783310588562,-0.1174236536026001,-0.4062100648880005,-1.0646100044250488,0.1083749458193779,0.0180627182126045,0.0389080047607421
1749038918.0223243,-4.712254543634707,-1.5598937103613124,1.3574236599232943,-3.9355784100519258,4.9070769332531965,5.690442888712483,0.0052744942452239195,0.00015614973479546334,-0.00048286017920006776,0.0020958071807467764,-0.00014299554616866702,-0.0034181924396816644,-0.0669367462396621,-0.3892211318016052,-1.073829174041748,0.1243539676070213,0.0056194271892309,0.0477119982242584
1749038918.0223646,-4.712240451407889,-1.5598911120429415,1.3574238186873708,-3.9355734889753204,4.907080456177883,5.690432497605458,0.0050957835483369275,0.00015837144766604673,-0.00047790600584262695,0.0022051613206433246,-0.00028681494041365296,-0.0036158870899575045,-0.0664858520030975,-0.3706662058830261,-1.0647895336151123,0.134421557188034,-0.0024662856012582,0.0182138085365295
1749038918.0224042,-4.7122270814760325,-1.5598885227980122,1.357423941595663,-3.9355687902777188,4.9070835172780125,5.690422457490085,0.004915877025309395,0.00016024200012962594,-0.0004794378008022141,0.002299125673229866,-0.00042150464376265127,-0.0037860639053566136,-0.0654657185077667,-0.3835595250129699,-1.0758991241455078,0.1279603540897369,-0.0117941312491893,0.0172858834266662
1749038918.0224414,-4.712214708000026,-1.5598859810730583,1.3574240134753988,-3.935564387523403,4.907085961095362,5.690412896465789,0.004732154172154129,0.00016162713283633226,-0.0004889204947192831,0.002369994081179344,-0.0005427749513297875,-0.003915597610174747,-0.0779767781496048,-0.393535315990448,-1.0682858228683472,0.1295778751373291,-0.0009659454226493,0.0388522297143936
1749038918.0224788,-4.71220354117392,-1.5598835197068317,1.3574240218044096,-3.935560342023127,4.907087682446223,5.690403928566528,0.00454199925419356,0.0001624247524357357,-0.0005069661596210058,0.00241091597449388,-0.0006468528935580039,-0.003994908014155963,-0.0844110697507858,-0.3715060949325561,-1.0648378133773804,0.1370519697666168,-0.0194471254944801,0.0348769426345825
1749038918.0225165,-4.712193719140584,-1.5598811652263986,1.357423956405232,-3.93555669949581,4.907088629455914,5.690395649691682,0.004342979059792476,0.00016257210274095275,-0.0005332248205664946,0.0024164688477401972,-0.0007307301911809587,-0.0040185298485734735,-0.0508073009550571,-0.3660670518875122,-1.0759130716323853,0.1187992319464683,-0.0188820697367191,0.0207534581422805
1749038918.0225542,-4.712185306166202,-1.5598789394406347,1.3574238089624286,-3.935553486236611,4.907088801547992,5.690388132914983,0.004133022287105094,0.0001620502423634706,-0.0005663665648269875,0.002383243086877821,-0.0007924059483703597,-0.003985140283024143,-0.0379762910306453,-0.3820465803146362,-1.0631394386291504,0.1361297965049743,-0.023688219487667,0.0201943516731262
1749038918.022591,-4.712178296919618,-1.5598768628299315,1.3574235726188357,-3.935550706502742,4.907088243788336,5.6903814237055155,0.003910573089224458,0.00016088561795316297,-0.0006041637358872546,0.00231031262991927,-0.0008310716982314525,-0.0038971020595302977,-0.0383656211197376,-0.3742629885673523,-1.0631533861160278,0.1301958858966827,-0.0040033105760812,0.0163892209529876
1749038918.0226293,-4.712172625952347,-1.5598749586098175,1.3574232418325662,-3.935548342609312,4.907087039133843,5.690375535925981,0.003674710179788495,0.00015914841960641246,-0.0006436735005005542,0.002199479345166105,-0.0008471923138413332,-0.003759665106664865,-0.0531208477914333,-0.3798257708549499,-1.066108465194702,0.1307521164417266,-0.006336610764265,-0.0015886723995208
1749038918.0226667,-4.712168180712711,-1.559873255971621,1.3574228124151544,-3.935546358425059,4.907085299786919,5.690370449546547,0.003425236537718473,0.00015694737965896117,-0.0006815111276560231,0.002055228446129874,-0.0008424592705942845,-0.003580017460385325,-0.0338675044476985,-0.3430801033973694,-1.0644274950027466,0.140752837061882,-0.022819448262453,0.0129539519548416
1749038918.0227036,-4.7121648160314775,-1.5598717911701705,1.357422281442609,-3.9355447059760422,4.907083158263483,5.690366110942408,0.0031627443681710153,0.0001544209312760617,-0.0007141933132304747,0.0018843924550251254,-0.0008196200813459265,-0.0033663743273026786,-0.0281669683754444,-0.3872280716896057,-1.064813256263733,0.1260366886854171,-0.0153759345412254,0.0153470337390899
1749038918.0227413,-4.712162368296555,-1.55987060570714,1.3574216468287956,-3.9355433340134365,4.907080758323478,5.690362436444734,0.002888650635286768,0.00015172511709838195,-0.0007385200351820762,0.0016955715003571666,-0.0007822090785354451,-0.0031272451281293074,-0.0619099698960781,-0.3652353286743164,-1.068463683128357,0.1326296478509903,-0.0210135318338871,-0.0038170665502548
1749038918.0227785,-4.712160668217433,-1.559869741534812,1.3574209066846255,-3.935542196855852,4.907078245846447,5.690359319364882,0.002605191410241891,0.000149019123524078,-0.0007519547072936736,0.0014983894966628252,-0.0007342171076226509,-0.002870940213260323,-0.0554921440780162,-0.3749692440032959,-1.0637415647506714,0.1519686132669448,-0.0301729813218116,0.0043703317642211
1749038918.022816,-4.7121595516021895,-1.5598692338614653,1.3574200587619747,-3.9355412616729275,4.9070757599942105,5.690356640003927,0.0023153668662331847,0.00014644967356617955,-0.0007529582300853005,0.0013026788876510324,-0.0006797424457308193,-0.0026052987259750026,-0.0442596413195133,-0.3895040154457092,-1.0614376068115234,0.1360150426626205,-0.0578793808817863,0.0276632457971572
1749038918.022853,-4.712158867738834,-1.5598691028483236,1.357419100163161,-3.9355405125963685,4.907073425295784,5.690354277464929,0.0020228432038092606,0.00014413571812409162,-0.0007412352595928426,0.0011176835408188961,-0.000622663890609826,-0.0023375637803648044,-0.0638352036476135,-0.3991302251815796,-1.0725066661834717,0.1475658863782882,-0.0548006147146225,0.0308621078729629
1749038918.02289,-4.712158485041414,-1.5598693461240454,1.357418027360156,-3.9355399505368553,4.907071345387213,5.690352121693257,0.0017318351500715747,0.00014215494644842573,-0.0007178613816649334,0.0009513536596051996,-0.0005663701653456221,-0.002074316504729824,-0.0395489297807216,-0.3632476329803467,-1.067821025848389,0.1472815126180648,-0.0242201313376426,0.0151526182889938
1749038918.0229275,-4.712158293874852,-1.5598699341571334,1.3574168365981067,-3.935539588381948,4.907069598993169,5.690350084093756,0.0014470026205226116,0.0001405336117096573,-0.0006852754682371835,0.0008097839438588846,-0.0005135686785166827,-0.0018214037139418434,-0.0425674878060817,-0.4024716019630432,-1.062258243560791,0.1363250464200973,-0.0326177962124347,0.0270394533872604
1749038918.0229645,-4.712158206947113,-1.5598708098472023,1.3574155247682669,-3.935539442346206,4.907068238347259,5.690348105206497,0.0011733918113764688,0.00013924104273479367,-0.0006471377424200976,0.0006968232777950415,-0.00046618372179742175,-0.0015838357567244457,-0.0303545296192169,-0.3997073173522949,-1.078460931777954,0.1583692580461502,-0.0066543538123369,0.0035029202699661
1749038918.0230002,-4.712158158126383,-1.5598718925405384,1.3574140906315404,-3.9355395213272013,4.907067289665515,5.69034615830673,0.0009164353762247153,0.0001381899820909459,-0.0006080674268764697,0.0006138657850693639,-0.0004253421660332427,-0.0013656678135554382,-0.058795478194952,-0.4003583788871765,-1.066103219985962,0.1389297097921371,-0.0409577414393425,0.0154563635587692
1749038918.0233378,-4.712158100672137,-1.5598730856133485,1.357412536002117,-3.9355398167397744,4.907066754789114,5.690344248483854,0.0006820042168244561,0.00013724353976446788,-0.0005732834520185065,0.0005598210211673157,-0.0003914353151606261,-0.0011698952178081595,-0.0502431653439998,-0.4029201865196228,-1.0603492259979248,0.1538236886262893,-0.0285794474184513,0.0324192643165588
1749038918.0253537,-4.712158005474976,-1.5598742861398467,1.3574108664439783,-3.9355402952610734,4.907066613084924,5.6903424075718005,0.00047648193417472765,0.00013622906359695694,-0.0005481785242894893,0.0005312545288996082,-0.0003642392802051632,-0.0009983912464614142,-0.0622498951852321,-0.3665185570716858,-1.087009310722351,0.1640583127737045,-0.0380560606718063,0.0071367472410202
1749038918.0662832,-4.712157859117445,-1.5598753950594013,1.3574090912193217,-3.935540896341056,4.90706682323253,5.690340685970525,0.0003068177750276475,0.0001349585874528601,-0.000537861782095825,0.0005226864197661702,-0.00034307299330574027,-0.0008519034547553545,-0.0414676032960414,-0.3856796026229858,-1.082101583480835,0.1343615055084228,-0.0314847156405448,0.0072749704122543
1749038918.0663304,-4.7121576608704645,-1.5598763265337336,1.3574072224566764,-3.935541535406147,4.907067325267076,5.690339142782544,0.00018050807833798813,0.00013325472493269316,-0.0005467081791025,0.0005270327011570119,-0.000326972434483619,-0.0007301117208330402,-0.0463021881878376,-0.4009279608726501,-1.0675902366638184,0.1423774361610412,-0.0387986376881599,0.0220624357461929
1749038918.0663714,-4.712157417719418,-1.5598770154845898,1.357405273683414,-3.935542112525386,4.907068043629288,5.690337835765583,0.00010546097198889568,0.0001309799815604452,-0.0005779532641612215,0.00053617096353076,-0.00031486117201181787,-0.0006317427402474733,-0.0583790801465511,-0.3783993124961853,-1.0748486518859863,0.1412035822868347,-0.0349892079830169,0.0136948972940444
1749038918.0664103,-4.712157137340094,-1.5598774224296552,1.3574032580405975,-3.9355425251009613,4.907068891708174,5.690336812369952,8.971424185154177e-05,0.00012806661493604724,-0.000633370552826393,0.0005416089092190494,-0.0003057003692088324,-0.0005547316427985442,-0.0525890626013278,-0.4000552892684936,-1.062462568283081,0.1301207393407821,-0.0239913947880268,0.020160898566246
1749038918.066448,-4.712156819980114,-1.5598775348820992,1.3574011866073228,-3.9355426822332684,4.907069777683008,5.690336102707014,0.0001410003836764997,0.00012454360168353393,-0.0007130658755357677,0.0005352306530079205,-0.0002986056613851162,-0.0004964190239804888,-0.0385726504027843,-0.3794699311256408,-1.0641961097717283,0.140073075890541,-0.0157723203301429,0.0188640505075454
1749038918.066493,-4.712156450572248,-1.5598773649743272,1.3573990671543865,-3.9355425180966503,4.907070610931698,5.690335714907255,0.0002661829743761783,0.00012055711076272705,-0.0008154186736832622,0.0005100907103154226,-0.0002929233909639263,-0.0004537690904008251,-0.038562323898077,-0.3764057159423828,-1.0814586877822876,0.1121732741594314,-0.0285827741026878,0.0163267999887466
1749038918.066532,-4.712155992033582,-1.5598769436087248,1.3573969033584308,-3.93554200196592,4.907071308219293,5.69033563310663,0.0004706205678630612,0.00011638109280260022,-0.0009371927001976146,0.0004612185131704883,-0.0002882640097958613,-0.00042359219612973797,-0.047763030976057,-0.3873114585876465,-1.0777809619903564,0.1131989508867263,-0.0382794626057148,0.0213151723146438
1749038918.0665698,-4.712155380301348,-1.5598763121991874,1.357394694295972,-3.9355411432242797,4.9070717991661414,5.690335818228998,0.0007575431973437024,0.00011241504213923306,-0.0010738260077941156,0.0003863877502873751,-0.0002844953632592075,-0.0004027542701714936,-0.0367747955024242,-0.3744544386863708,-1.081254005432129,0.123894914984703,-0.0505728051066398,0.03555728495121
1749038918.0666077,-4.712154521673763,-1.5598755136940559,1.3573924340657475,-3.9355399904859336,4.907072030738082,5.690336211653882,0.0011275463292329036,0.00010916659471386277,-0.0012198909854162802,0.00028679627649380335,-0.00028170254924684933,-0.0003883572840353389,-0.0052759312093257,-0.3864867687225342,-1.0818631649017334,0.1141060441732406,-0.0472526401281356,0.0251732617616653
1749038918.0666492,-4.712153293122621,-1.5598745847382505,1.3573901115257936,-3.9355386247323003,4.9070719705139085,5.690336741504657,0.0015783114175980041,0.00010721740858840623,-0.0013696894907376511,0.00016759546088332704,-0.0002801237076972945,-0.0003778787424358024,-0.0064242891967296,-0.3660342693328857,-1.0803933143615725,0.1018977463245391,-0.0391721725463867,0.0200420320034027
1749038918.0666878,-4.7121515459062016,-1.5598735504620735,1.3573877101905836,-3.9355371470512104,4.907071608403595,5.690337330603681,0.0021046444357542683,0.00010717180857164758,-0.0015179189160390003,3.820436538042139e-05,-0.00028007218356656817,-0.0003692634355064296,0.0295364763587713,-0.3704333305358886,-1.0739238262176514,0.1102444976568222,-0.0465976521372795,0.043254405260086
1749038918.0667255,-4.712149112061294,-1.5598724227224325,1.3573852083250884,-3.9355356621492277,4.907070956561918,5.6903379045652756,0.0026988777660230568,0.00010958903077094217,-0.0016603203593537788,-8.765412343256313e-05,-0.0002818550805041148,-0.00036096632380926667,0.0020907241851091,-0.3688975870609283,-1.0662691593170166,0.1207570135593414,-0.0380640961229801,0.0306532680988311
1749038918.0667624,-4.712145812668105,-1.5598712019595686,1.3573825792561267,-3.935534259269095,4.907070047524811,5.690338398562265,0.003351606491248693,0.00011490158691773267,-0.0017942116985226817,-0.0001922494104634381,-0.00028569676692459745,-0.00035195037505927234,0.0256873108446598,-0.3808547556400299,-1.0867984294891355,0.1171329766511917,-0.044638454914093,0.01564322412014
1749038918.0667996,-4.712141466521381,-1.5598698823181911,1.3573797918496837,-3.9355329925404403,4.907068930880263,5.690338761928423,0.004052644275209189,0.00012332425098146365,-0.0019188247163481088,-0.0002545087239775849,-0.0002916740575470907,-0.00034164676329120637,-0.0026192143559455,-0.3719102442264557,-1.0958762168884275,0.1089598685503006,-0.0398836657404899,0.0421375781297683
1749038918.066836,-4.712135897988477,-1.559868459277316,1.3573768109852744,-3.935531863089596,4.907067668833671,5.690338960390117,0.004792021354414069,0.00013476039835464245,-0.0020354032723574372,-0.00025106300724457386,-0.0002996680119046868,-0.00032988691623338565,0.0075345765799283,-0.3907473981380462,-1.0920987129211426,0.1242345720529556,-0.0327385850250721,0.0233401954174041
1749038918.066873,-4.712128943206709,-1.5598669385989878,1.3573735978294565,-3.9355308052526943,4.907066330859131,5.690338976066444,0.005560837288204659,0.0001487147123695797,-0.002147064114691188,-0.00015764893654343455,-0.000309335694950178,-0.0003168166072709394,0.0391188487410545,-0.3924203217029571,-1.0942529439926147,0.1171706467866897,-0.0534673705697059,0.0353297740221023
1749038918.0669105,-4.712120454293187,-1.5598653449649031,1.3573701098378117,-3.9355296788528373,4.907064987536469,5.690338805658985,0.006351822752044213,0.00016422318630502484,-0.0022584572460257355,4.91993381334778e-05,-0.0003201037648152945,-0.0003028019078850426,0.0507620200514793,-0.3910442292690277,-1.1033902168273926,0.1315605193376541,-0.0492376983165741,0.0268652588129043
1749038918.066948,-4.71211030186188,-1.5598637284367491,1.3573663005969305,-3.935528268787308,4.907063703910251,5.690338457642168,0.0071595313689382795,0.00017981234447480597,-0.0023752813286573257,0.00039028016610481806,-0.0003311842295833733,-0.00028833565209524604,0.0597624965012073,-0.4016253054141998,-1.0962467193603516,0.1399878561496734,-0.0390166938304901,0.041299745440483
1749038918.0669854,-4.712098376540781,-1.5598621670257478,1.357362119715394,-3.935526292309257,4.907062533184029,5.690337949458738,0.007980151196002047,0.00019349923552868813,-0.0025037137191184803,0.0008818290109404807,-0.0003416110682229201,-0.0002739514176726771,0.0627311319112777,-0.400974303483963,-1.0904405117034912,0.1623710542917251,-0.033328216522932,0.028016522526741
1749038918.067023,-4.712084589951844,-1.5598607642593822,1.3573575129842872,-3.9355234135684527,4.907061511945955,5.690337305382668,0.008810989021157907,0.0002028417498901395,-0.002649811069075036,0.0015337799277843453,-0.0003502949384439005,-0.0002601501691631304,0.0586788319051265,-0.4165197014808655,-1.0962278842926023,0.16859070956707,-0.0284254029393196,0.0440217703580856
1749038918.0673623,-4.712068874946712,-1.5598596416453738,1.3573524230630056,-3.9355192642599484,4.907060658091712,5.690336555095018,0.009649737113975211,0.00020504507770436754,-0.0028189304099640977,0.0023483727707882913,-0.00035609251719519,-0.0002473428547884849,0.0661141946911811,-0.4289597570896148,-1.0950751304626465,0.1716564446687698,-0.0325156524777412,0.0344053655862808
1749038918.0693543,-4.71205118458949,-1.5598589270590968,1.3573467909862855,-3.935513468543678,4.907059971990188,5.69033573272577,0.010493674026957672,0.00019712470942368727,-0.0030152143851066198,0.0033192699446164204,-0.0003578873449827943,-0.00023581056336213324,0.0892273038625717,-0.4371043443679809,-1.088295340538025,0.1817511767148971,-0.0388545095920562,0.0344057530164718
1749038918.1102707,-4.712031489942106,-1.5598587408445768,1.3573405586622858,-3.935505669778217,4.907059440348447,5.6903348762546635,0.011338969081673117,0.00017611953892330613,-0.0032411781890101547,0.0044312900388270935,-0.00035467966206825975,-0.00022568242697971848,0.0979514569044113,-0.4209825098514557,-1.0989834070205688,0.1598864942789077,-0.0461739897727966,0.0216481238603591
1749038918.1103177,-4.712009777684966,-1.5598591815745428,1.3573336722352698,-3.9354955563067238,4.907059041252125,5.6903340272430825,0.012180249010076487,0.00013934084541591146,-0.0034974296710051636,0.005660794389557684,-0.00034568266802746114,-0.000216930341370092,0.0923640429973602,-0.4472199380397796,-1.1075342893600464,0.1750937849283218,-0.0330238863825798,0.0381225794553756
1749038918.1103582,-4.711986049106609,-1.5598603132002802,1.3573260859399598,-3.9354828837316838,4.90705874869717,5.690333230567447,0.013010543351826739,8.463495825891334e-05,-0.003782546943983498,0.006976702807187949,-0.00033042162886264367,-0.00020937876111233806,0.1279517412185669,-0.4619848430156708,-1.0913444757461548,0.186884805560112,-0.0063149090856313,0.0253297835588455
1749038918.110397,-4.711960321609178,-1.5598621551338638,1.357317765945645,-3.9354674917553414,4.907058535725454,5.690332533459221,0.013821656366999904,1.0630274764479291e-05,-0.004093127879400585,0.008342081988676293,-0.0003088306199893517,-0.0002027272688938522,0.1636278331279754,-0.4573395252227783,-1.100468397140503,0.198455661535263,-0.0158105865120887,0.0229207426309585
1749038918.1104355,-4.711932632812878,-1.5598646767004902,1.357308693541235,-3.9354493145321476,4.907058376396641,5.690331983181177,0.0146049298268122,-8.306573388981466e-05,-0.0044240117562133864,0.009716235853405624,-0.0002813396999141215,-0.00019658325383894098,0.1223446428775787,-0.470135748386383,-1.099495530128479,0.2129123359918594,-0.0155181139707565,0.0218552500009536
1749038918.1104736,-4.71190304601543,-1.5598677971402268,1.3572988669395567,-3.9354283843105278,4.907058247500259,5.69033162306939,0.015352280791088403,-0.00019575541744505962,-0.004768656433706495,0.01105720762248827,-0.000248943068311269,-0.00019050179619787674,0.1375720500946045,-0.5040737390518188,-1.1022392511367798,0.2109932601451873,-0.0125902667641639,0.0293956100940704
1749038918.1105115,-4.711871654712981,-1.5598713917773241,1.3572883013108463,-3.935404828664682,4.907058130799456,5.690331487160788,0.016057340059751995,-0.0003256581357414151,-0.005119639522027764,0.012324562906696528,-0.00021323654830889932,-0.0001840296867101166,0.1387130469083786,-0.5121476650238037,-1.0978431701660156,0.223246693611145,-0.0063210912048816,0.0330269187688827
1749038918.1105497,-4.711838583771415,-1.5598753041127675,1.3572770273682007,-3.935378861746593,4.9070580158539965,5.6903315941648005,0.016716499443725656,-0.0004700580757506912,-0.005469243856510601,0.01348226696617101,-0.00017641109232896117,-0.0001767503733314265,0.1236909478902816,-0.5286343097686768,-1.102902889251709,0.2626939713954925,-0.0085862167179584,0.047426089644432
1749038918.1105871,-4.71180398584411,-1.5598793624889882,1.357265089349199,-3.9353507699186987,4.907057902624817,5.690331942187892,0.01732970876402524,-0.0006255971401978483,-0.005810085861661839,0.014501418705676231,-0.00014118859033316974,-0.0001683265218173123,0.133437767624855,-0.5256015062332153,-1.108281135559082,0.2398989647626876,0.0036092698574066,0.0395369678735733
1749038918.1106248,-4.711768033100132,-1.559883398902766,1.3572525430797175,-3.93532089214169,4.907057802711687,5.690332506030968,0.017900931192080097,-0.0007886916083534193,-0.0061357444603652,0.015362578753656408,-0.00011068762927206277,-0.00015853683287238093,0.1309561133384704,-0.5267285108566284,-1.0978268384933472,0.2297133356332779,0.0026032608002424,0.0395370870828628
1749038918.110662,-4.711730905316021,-1.5598872670551491,1.3572394541566593,-3.9352895957645635,4.907057738382574,5.6903332384635705,0.01843823427965134,-0.0009560210735156471,-0.006441342284610987,0.016057440592685487,-8.821041199112401e-05,-0.00014730384831724023,0.1435007154941558,-0.5318607091903687,-1.1008338928222656,0.2216684818267822,0.0191534794867038,0.03927443921566
1749038918.1106987,-4.711692775559039,-1.5598908571501235,1.3572258957388803,-3.935257248950118,4.907057739212043,5.690334075620698,0.018953538400932023,-0.0011250129730405816,-0.006724020755474761,0.016589648250135425,-7.694796187777693e-05,-0.00013470980813159281,0.1507457792758941,-0.5288180112838745,-1.0986241102218628,0.2252274751663208,0.0243213512003421,0.0427644699811935
1749038918.110736,-4.711653794476186,-1.559894105943348,1.3572119452891227,-3.9352241917384623,4.9070578368321485,5.690334945312706,0.01946206344135791,-0.001294239258753856,-0.006983244871607144,0.01697465927167104,-7.960890979529471e-05,-0.00012099832335151116,0.1510718166828155,-0.5367226600646973,-1.1055221557617188,0.2447971999645233,0.0271010920405387,0.031612753868103
1749038918.1107724,-4.711614074193893,-1.5598970014785873,1.3571976797501393,-3.9351907083289466,4.907058058875289,5.690335776315807,0.019981522728644775,-0.0014636603630654782,-0.007220882649949914,0.017238668003378498,-9.79871600923618e-05,-0.0001065608441966461,0.1841820329427719,-0.5685513019561768,-1.0814275741577148,0.2390769124031067,0.0448172092437744,0.0329901874065399
1749038918.1108162,-4.711573673198867,-1.5598995825968167,1.3571831689806981,-3.9351570032232925,4.907058423526622,5.690336506756066,0.020531122020060192,-0.0016346871875731717,-0.007441030818122127,0.017416708534554848,-0.00013249476387629786,-9.190866680205967e-05,0.1661222279071808,-0.5643463134765625,-1.092768311500549,0.2368101179599762,0.0384206622838974,0.0464334040880203
1749038918.1108823,-4.711532584051101,-1.5599019337973212,1.3571684678929865,-3.9351231834931295,4.9070589360271555,5.690337090265033,0.021130432322380276,-0.0018100665008109929,-0.007649594803190076,0.017550124573161286,-0.0001816971573482158,-7.763325770284064e-05,0.1702019870281219,-0.5567677021026611,-1.107579231262207,0.2349087744951248,0.0584011003375053,0.04111048579216
1749038918.1109507,-4.711490726047135,-1.5599041764826242,1.3571536084791744,-3.9350892488636373,4.9070595879425465,5.69033749937606,0.0217982146591314,-0.0019936164775254004,-0.007853665268500032,0.017683627301215227,-0.00024189698043865107,-6.435928478857061e-05,0.1830056011676788,-0.5789940357208252,-1.1001341342926023,0.2341963350772857,0.0473806001245975,0.0408784747123718
1749038918.1110184,-4.711447944818413,-1.5599064579925361,1.3571385933225266,-3.9350550905332184,4.907060359239326,5.690337726364689,0.022551279640425855,-0.002189847024436841,-0.008060757988216899,0.017862181047282138,-0.0003068183962342822,-5.269518233565088e-05,0.1655696630477905,-0.5802708864212036,-1.0941736698150637,0.2544260025024414,0.0735069960355758,0.0367843061685562
1749038918.1110854,-4.711404020156513,-1.559908939999762,1.35712339195245,-3.935020498547657,4.907061222519555,5.690337782163911,0.023403463881219645,-0.0024035013066131027,-0.008277998378233856,0.018127969497483118,-0.00036744491196429697,-4.31852086457566e-05,0.2087000906467437,-0.5985846519470215,-1.1098449230194092,0.2530827522277832,0.0779806151986122,0.0452460795640945
1749038918.1111517,-4.711358681899513,-1.5599117876608823,1.357107940759687,-3.9349851763351675,4.907062148472848,5.690337694000813,0.02436479931737877,-0.0026390573047063025,-0.008511337838108224,0.0185176911585985,-0.0004120592471680195,-3.6265407592330824e-05,0.2055070102214813,-0.6314589977264404,-1.1095255613327026,0.2752085328102112,0.0978225991129875,0.0306967049837112
1749038918.1114793,-4.71131163165472,-1.5599151603968595,1.3570921465999932,-3.9349487602041457,4.907063111847721,5.690337502150618,0.02544094028587339,-0.0029002327730469927,-0.00876488556138251,0.019060396303236343,-0.0004265231859050264,-3.222450744520251e-05,0.2335140109062194,-0.621384859085083,-1.1018952131271362,0.2877896726131439,0.104683831334114,0.0506091713905334
1749038918.113343,-4.711262566368922,-1.559919204527748,1.357075893865927,-3.9349108414994416,4.907064097838454,5.690337255987511,0.026632894730265384,-0.0031895400544593683,-0.009040427209501578,0.019776005755765127,-0.0003948183527918286,-3.1170076014007095e-05,0.220361441373825,-0.6181147694587708,-1.1228241920471191,0.278211385011673,0.0987651795148849,0.0472382456064224
1749038918.154298,-4.711211199325912,-1.5599240474892517,1.3570590545356034,-3.9348709895565364,4.907065109319085,5.690337009485372,0.02793707825726818,-0.0035079347119442252,-0.009337183091268162,0.020674558620459357,-0.00029984595899979166,-3.300025910406149e-05,0.2203907072544098,-0.6366221308708191,-1.0999969244003296,0.2877458930015564,0.127075582742691,0.0539400577545166
1749038918.154346,-4.711157275283751,-1.5599297932069955,1.3570415003018035,-3.9348287742427934,4.907066175435281,5.690336816367952,0.0293456761345256,-0.00385459360358412,-0.009651833230502956,0.021756147260907504,-0.0001244564270887749,-3.7381982330351916e-05,0.2185028493404388,-0.65496426820755,-1.11916184425354,0.282505452632904,0.1209418922662735,0.0517154783010482
1749038918.154389,-4.711100578490594,-1.559936518386329,1.3570231153826195,-3.934783787405083,4.9070673614900535,5.690336725097348,0.030847265706878724,-0.004226847563997949,-0.009978805190208056,0.0230114397796057,0.00014734861057178738,-4.3737337754530214e-05,0.2364857792854309,-0.6661391854286194,-1.1087431907653809,0.2953084707260132,0.1562324315309524,0.0622107237577438
1749038918.1544285,-4.711040934252237,-1.5599442697585444,1.357003808323496,-3.934735662740961,4.90706877897418,5.690336773944478,0.03242762583905994,-0.004620284273513727,-0.01031078895905363,0.024422675489152484,0.0005291251133321189,-5.12407319853703e-05,0.2393030971288681,-0.6893073916435242,-1.106998085975647,0.305598497390747,0.1680941730737686,0.0701394528150558
1749038918.1544669,-4.710978205861415,-1.5599530624631195,1.356983521287522,-3.9346840934922747,4.907070593446537,5.690336986683264,0.034070645661616675,-0.005029025753885097,-0.010639419831903425,0.025965037863961767,0.0010307076589872453,-5.8829977154156217e-05,0.2611680030822754,-0.6741437315940857,-1.116987705230713,0.3194045424461365,0.1673464179039001,0.0579936802387237
1749038918.1545093,-4.710912288998638,-1.559962879747999,1.3569622359289137,-3.934628847111816,4.907073027284984,5.690337369826469,0.03575924938994731,-0.0054461661065781436,-0.010956057496577503,0.02760833449733251,0.001657050857225064,-6.52346308134712e-05,0.2999480962753296,-0.6646836400032043,-1.1258752346038818,0.3099156618118286,0.1794964522123336,0.0594938546419143
1749038918.1545486,-4.710843105614755,-1.559973674266831,1.3569399756006328,-3.934569775816941,4.907076354534685,5.69033791232627,0.03747627934093318,-0.005864327504513861,-0.011252584172088608,0.029318917512547858,0.002407293958733038,-6.902436399188712e-05,0.2885370254516601,-0.6846833229064941,-1.118277072906494,0.3242362141609192,0.1830249577760696,0.0555094629526138
1749038918.154587,-4.710770599014683,-1.5599853715420846,1.35691680404933,-3.9345068218237116,4.907080886387506,5.690338588088433,0.039205310093265694,-0.006276266671716803,-0.011522142587311253,0.031061755705286822,0.0032741388960966246,-6.867886343441658e-05,0.272792100906372,-0.708834171295166,-1.105827808380127,0.3241851925849914,0.2027792185544967,0.0655397474765777
1749038918.154625,-4.710694731145949,-1.5599978763218068,1.3568928208818904,-3.9344400162544733,4.9070869479707415,5.690339360810066,0.04093137946421188,-0.00667545625454645,-0.01175973605356049,0.03280253997554206,0.004243618845385486,-6.267872837075477e-05,0.3212434947490692,-0.7381719350814819,-1.1171228885650637,0.3097935318946838,0.2195026725530624,0.0601190775632858
1749038918.1546664,-4.710615481948549,-1.560011082057561,1.3568681541170111,-3.9343694713409465,4.90709484932084,5.690340190051569,0.04264161075207613,-0.007056579820587996,-0.011962624448113045,0.0345096875514051,0.005295321760047191,-4.9614020766225073e-05,0.2952750325202942,-0.7194459438323975,-1.122043490409851,0.3097648024559021,0.2442952096462249,0.0855947509407997
1749038918.1547058,-4.710532849702671,-1.560024882480593,1.356842950176968,-3.934295366385428,4.907104854807914,5.690341037308175,0.04432568526897992,-0.007415900576535148,-0.012130477282176163,0.03615611381635994,0.0064031136050021874,-2.830366163541314e-05,0.3059028685092926,-0.6914181709289551,-1.127396821975708,0.3327012062072754,0.2347845733165741,0.0727558955550193
1749038918.154743,-4.7104468512872275,-1.560039182912377,1.3568173618246882,-3.9342179286993755,4.90711715551269,5.690341871047865,0.04597612930871527,-0.007751475459889885,-0.012265282774755276,0.03772065530865335,0.007536368538951756,2.0849897417010967e-06,0.3099418580532074,-0.7325525879859924,-1.109631896018982,0.3230197429656982,0.2364747375249862,0.0639150887727737
1749038918.15478,-4.710357521936853,-1.5600539084422667,1.3567915349638786,-3.934137411344946,4.907131848393351,5.690342670099356,0.04758840795029655,-0.008063190880554405,-0.012371047495534842,0.03918904640501819,0.008661654936344817,4.19307631385059e-05,0.3021662831306457,-0.7380943298339844,-1.121235489845276,0.3180238008499145,0.2543266415596008,0.0846910327672958
1749038918.1548214,-4.710264914573139,-1.560069006877331,1.3567655958359226,-3.9340540699593296,4.907148924914182,5.690343425335949,0.04916084585471108,-0.008352610330248065,-0.012453346916030193,0.04055437778127825,0.009744757943864917,9.108479247547237e-05,0.3128232359886169,-0.7475372552871704,-1.1212478876113892,0.3158158659934997,0.2319104075431823,0.0624622553586959
1749038918.1548605,-4.710169098541337,-1.5600844460993482,1.3567396405212693,-3.933968141100998,4.9071682703552835,5.690344140091582,0.05069440166916688,-0.00862265277896977,-0.012518800273304431,0.04181700417451288,0.010752862210030347,0.00014884660495287954,0.3225149512290954,-0.7458874583244324,-1.1126666069030762,0.3060185611248016,0.2493651509284973,0.0691669955849647
1749038918.1548977,-4.7100701569740675,-1.560100207344279,1.3567137283889958,-3.933879824319658,4.907189673458853,5.69034482981876,0.05219231529251949,-0.008877151277741194,-0.012574540681528416,0.04298392249873776,0.011656690269546657,0.00021400717862111906,0.2961864173412323,-0.7465957999229431,-1.107050538063049,0.3283846974372864,0.2318168878555297,0.092273011803627
1749038918.154935,-4.709968181832074,-1.5601162771080834,1.35668788037186,-3.9337892696647425,4.90721284469075,5.690345521092273,0.05365964644762816,-0.00912035747110882,-0.01262773476986594,0.04406769846176394,0.01243239643644646,0.00028497067832086373,0.3089960217475891,-0.7343878149986267,-1.1057904958724976,0.3249392807483673,0.2514890134334564,0.0755757763981819
1749038918.154976,-4.709863266314567,-1.560132640467637,1.3566620821088315,-3.9336965718129338,4.907237440461196,5.690346249579773,0.055102734239713534,-0.009356455135686621,-0.01268518471241112,0.04508506657182011,0.013063045278175313,0.00035995646711385956,0.3266192376613617,-0.7620877027511597,-1.11571204662323,0.3083693087100982,0.2356700897216797,0.0869688242673873
1749038918.1550136,-4.70975549545137,-1.5601492777945456,1.356636291241462,-3.933601771363938,4.907263090203474,5.690347056519671,0.0565286223190875,-0.00958913037623748,-0.012753030306679883,0.046055354939524666,0.013539549802842884,0.0004372674092829775,0.3263903558254242,-0.7510259747505188,-1.1064811944961548,0.3187567293643951,0.2245878726243972,0.1025828272104263
1749038918.155051,-4.709644936635809,-1.5601661656146057,1.3566104473637883,-3.9335048629183746,4.907289423194571,5.69034798374061,0.0579445058158549,-0.009821227246601302,-0.012836562978574917,0.0469988885433855,0.013861000844315984,0.0005155905722138162,0.3243550062179565,-0.7648464441299438,-1.1088145971298218,0.323174387216568,0.229591891169548,0.0858889296650886
1749038918.1554708,-4.709531632112195,-1.5601832810778238,1.356584482467452,-3.933405808344221,4.907316092388898,5.690349068130177,0.05935726061267822,-0.010054503664867613,-0.012940160845468347,0.04793550515171753,0.014034375508511443,0.0005942775204325557,0.3117696046829223,-0.790753960609436,-1.1009817123413086,0.3188268840312958,0.2011695504188537,0.1085381433367729
1749038918.1573384,-4.709415594843354,-1.560200608448372,1.3565583296462085,-3.9333045526030257,4.907342793307049,5.6903503371753015,0.060773108296807175,-0.010289496481479752,-0.013067345116367667,0.04888328544312017,0.014073660667779788,0.0006735427143668317,0.3379740715026855,-0.7635913491249084,-1.119066596031189,0.3325909674167633,0.2075095474720001,0.0886419266462326
1749038918.198272,-4.7092968080936055,-1.5602181455693405,1.3565319284949473,-3.933201039204427,4.907369277077119,5.690351807118871,0.062197448621307404,-0.01052550249351501,-0.013220940391816562,0.04985756207669492,0.013998470681345035,0.0007545271829376105,0.3327053785324096,-0.8020355105400085,-1.1120843887329102,0.3196134567260742,0.2337927818298339,0.1222837716341018
1749038918.1983182,-4.709175228081034,-1.5602359085343789,1.3565052266976652,-3.9330952229598273,4.907395357791851,5.690353484293093,0.06363485904475273,-0.010760678630327666,-0.013403300573090719,0.05087023553422755,0.013832283170170297,0.0008391991279557743,0.3505093455314636,-0.7823954224586487,-1.112562656402588,0.3284097909927368,0.2095962464809417,0.1268743574619293
1749038918.1983583,-4.709050788529983,-1.5602539334450511,1.3564781782143738,-3.932987078815227,4.9074209149914445,5.690355368966912,0.06508922652413994,-0.010992257197735585,-0.01361654624596212,0.051929389265401665,0.013600457084443553,0.0009300946229751355,0.342387855052948,-0.8006119132041931,-1.117862582206726,0.3287231624126434,0.2223036587238311,0.1154709681868553
1749038918.1983972,-4.708923405814988,-1.5602722747080375,1.3564507389275362,-3.932876606542761,4.907445892082412,5.690357460360485,0.06656394938296878,-0.011216861124066085,-0.013862753029449504,0.05303916969418305,0.013328221635323325,0.001029931024297374,0.3563132286071777,-0.8065474629402161,-1.1261430978775024,0.3270034193992615,0.2161958366632461,0.1106878072023391
1749038918.1984355,-4.708792983491102,-1.5602909998687127,1.3564228606293502,-3.932763831602925,4.907470291178731,5.690359761431838,0.06806213325664032,-0.01143089187570869,-0.014144034516985147,0.054199888899668536,0.013038829887937546,0.00114114805357599,0.3712227344512939,-0.8195315003395081,-1.122077703475952,0.3334741592407226,0.2186036258935928,0.1095001250505447
1749038918.198473,-4.708659415398216,-1.5603101817440161,1.356394484199989,-3.932648802598789,4.907494164732109,5.690362282218968,0.06958670680342119,-0.01163095309458341,-0.014462479912536803,0.055408322993708646,0.012752058534565305,0.001265444896354343,0.3874418139457702,-0.8264092206954956,-1.123396635055542,0.3497565388679504,0.2271594703197479,0.1050828322768211
1749038918.1985104,-4.708522587234881,-1.5603298894026096,1.3563655331458682,-3.932531585708888,4.907517604481706,5.690365040776608,0.07114039823386006,-0.011814267735514385,-0.014819937748080408,0.05665820316864394,0.012483200539954314,0.001403385574319333,0.356439858675003,-0.8135387897491455,-1.1333903074264526,0.3395726680755615,0.2194501161575317,0.1316561996936798
1749038918.1985483,-4.708382377278249,-1.5603501798103325,1.3563359092272138,-3.9324122565655175,4.907540728371932,5.690368061330729,0.07272554194404575,-0.011979043847991847,-0.015217678815197318,0.05794090368912746,0.012242634926867937,0.0015541393707257506,0.3912842571735382,-0.8138291835784912,-1.1311382055282593,0.3364896774291992,0.2361648976802826,0.1179638355970382
1749038918.1985855,-4.7082386573801145,-1.560371091563902,1.3563054920384219,-3.932290890288671,4.907563666048311,5.690371370188846,0.07434372570903215,-0.012124744041934806,-0.015656008065199473,0.05924630965622467,0.012035977137085301,0.0017154086819659963,0.3925951719284057,-0.8226864337921143,-1.1350537538528442,0.3490907549858093,0.2279833555221557,0.1373035758733749
1749038918.1986232,-4.7080912952663105,-1.560392641390381,1.3562741436053938,-3.9321675506856777,4.907586543612779,5.6903749906644325,0.0759953350916362,-0.012252220101299161,-0.01613390955953141,0.06056381047569066,0.011864735357111836,0.001883573861697863,0.394395112991333,-0.8071931600570679,-1.131676197052002,0.3432288467884063,0.2185396254062652,0.1398789584636688
1749038918.198661,-4.707940158666359,-1.5604148233353379,1.3562417176090864,-3.932042279914847,4.907609468707643,5.690378938330583,0.07767908740320904,-0.012363691280691941,-0.016648796862421898,0.06188333350645045,0.011727339197618179,0.0020540537849890682,0.419206827878952,-0.8237137794494629,-1.1353044509887695,0.3213104605674743,0.232932910323143,0.1502119898796081
1749038918.1986988,-4.707785121310819,-1.5604376100375799,1.356208071526449,-3.9319150901273,4.90763251755721,5.690383217423119,0.07939166260719041,-0.0124625712500456,-0.017196414444653318,0.06319631822979999,0.01162036944526318,0.002221842688400353,0.3980640769004822,-0.837226390838623,-1.136824131011963,0.3340925276279449,0.2190023511648178,0.1320832818746566
1749038918.1987364,-4.707626070598122,-1.5604609553806283,1.3561730793694735,-3.9317859585422363,4.90765572600633,5.690387818631219,0.08112753251802832,-0.012553176319001911,-0.017770906463098916,0.06449654165431185,0.011539799873700924,0.002382141956157849,0.4045334756374359,-0.8443294167518616,-1.130778670310974,0.3494948148727417,0.2044685333967209,0.1454561501741409
1749038918.1987736,-4.7074629165926165,-1.5604847981207297,1.3561366428436659,-3.9316548268804676,4.907679086595946,5.69039271819315,0.08287906629371493,-0.01264036650582884,-0.018365043880701433,0.0657807399910826,0.011482071681053137,0.0025309708676024053,0.405649870634079,-0.8586266040802002,-1.134674072265625,0.3346074521541595,0.2256096750497818,0.1134847924113273
1749038918.1988106,-4.707295601654396,-1.560509066549923,1.356098699360377,-3.931521605163328,4.9077025530932135,5.690397878209874,0.08463695485755278,-0.012729175691837563,-0.01897058161234947,0.06704900730185846,0.011444866728315106,0.0026656308324671664,0.4275078177452087,-0.8339927196502686,-1.1338930130004885,0.3375616669654846,0.2295297533273697,0.1230675429105758
1749038918.1988473,-4.707124109373121,-1.560533684481009,1.3560592260788034,-3.931386178919337,4.907726052542721,5.690403248238514,0.08639095149229557,-0.01282447755101554,-0.019578705832440202,0.06830495857862841,0.011427518736355023,0.002784926890182273,0.416211873292923,-0.8337632417678833,-1.1020874977111816,0.3399566411972046,0.2309151142835617,0.1307981312274933
1749038918.198884,-4.706948470948677,-1.5605585786032246,1.3560182398073013,-3.9312484181616787,4.907749503157469,5.690408768339089,0.08813086721304139,-0.012930715199694024,-0.0201805265295537,0.0695556246116725,0.011431074350113193,0.0028891135238554152,0.42647585272789,-0.847014307975769,-1.1310210227966309,0.3367527425289154,0.2143319100141525,0.1269031167030334
1749038918.1989205,-4.7067687671611935,-1.5605836866662637,1.3559757931728118,-3.931108186264109,4.907772834928101,5.690414373713005,0.08984769396832024,-0.013051704236164618,-0.020767568142842998,0.07081103895629813,0.011458063117530136,0.0029796057965917194,0.3933388590812683,-0.8737595081329346,-1.1219136714935305,0.3382500410079956,0.2060102075338363,0.1609686017036438
1749038918.198957,-4.706585124640575,-1.5606089654173396,1.3559319680176471,-3.930965347077651,4.907796009163716,5.690420000853672,0.09153468380517361,-0.01319050886418454,-0.021332211535755336,0.07208351369461187,0.01151205266171407,0.00305855343301706,0.4120052456855774,-0.8625589609146118,-1.1169520616531372,0.3530957996845245,0.2227726280689239,0.1434001326560974
1749038918.198994,-4.706397706018975,-1.5606343970666807,1.3558868673559918,-3.9308197692100877,4.907819033309462,5.690425594749812,0.09318821521104399,-0.013349387912298345,-0.021868048148816373,0.07338666256031512,0.011597065712325735,0.003128396431527842,0.3899531066417694,-0.8638079762458801,-1.1203062534332275,0.3531681299209595,0.2120769321918487,0.1530889272689819
1749038918.1993923,-4.706206694587147,-1.5606599932304164,1.3558406072083524,-3.9306713271629397,4.907841968240723,5.690431116223335,0.09480832356237145,-0.013529805454842996,-0.02237012368801193,0.07473427210331794,0.011716932567314124,0.003191503724657257,0.3975624442100525,-0.860266923904419,-1.11266028881073,0.3475646376609802,0.22554412484169,0.1636205613613128
1749038918.2013383,-4.706012275227992,-1.5606857955777915,1.3557933092292727,-3.9305198997471416,4.907864926708466,5.690436548096777,0.09639882988585599,-0.013732496763639497,-0.022835070094619755,0.07613912081550592,0.011874650461376732,0.0032499531637380516,0.3935481607913971,-0.8800055384635925,-1.1156883239746094,0.3552580177783966,0.228484958410263,0.1488023549318313
1749038918.246311,-4.7058146143523425,-1.5607118728119123,1.355745094542472,-3.9303653667139606,4.907888063382029,5.690441898796557,0.09796705023931648,-0.013957576295121064,-0.023261145391312677,0.07761181815870419,0.012071819419176935,0.003305459978510836,0.3696195185184479,-0.8661667704582214,-1.1111613512039185,0.3550222516059875,0.2296809256076812,0.1686516255140304
1749038918.2463567,-4.705613841831973,-1.5607383142497941,1.3556960789716141,-3.9302076048839716,4.907911558547364,5.690447202367649,0.09952310880613592,-0.014204672040399328,-0.023648215633391874,0.0791597108423008,0.01230822091204711,0.0033594169126662885,0.4177067279815674,-0.875751793384552,-1.116316556930542,0.3544712960720062,0.2306881695985794,0.1379807442426681
1749038918.2463968,-4.7054100374396075,-1.5607652209448855,1.3556463699091132,-3.9300464853267805,4.907935598562004,5.69045251459073,0.10107891969164004,-0.014473069177998116,-0.02399771388936305,0.08078590234422729,0.012581597036785028,0.0034129804638201675,0.387218713760376,-0.8946307897567749,-1.1102945804595947,0.3545444905757904,0.2267621606588363,0.1425986140966415
1749038918.2464345,-4.705203223527423,-1.5607926956769342,1.355596064946033,-3.929881873212893,4.9079603563732705,5.690457905651079,0.10264694617601654,-0.01476184292719592,-0.024312593424660592,0.08248845424913591,0.012887666908664925,0.0034671291926467855,0.4151175618171692,-0.8740036487579346,-1.1134248971939087,0.3781150877475738,0.2443708330392837,0.1486557573080063
1749038918.2464724,-4.7049933649508375,-1.5608208331406175,1.3555452517998796,-3.9297136315788066,4.907985974828959,5.690463450412983,0.10423888274847311,-0.015069954379307983,-0.02459726326607562,0.08425986721945171,0.013220380684990882,0.003522637494733299,0.405488908290863,-0.8693311214447021,-1.1139742136001587,0.3586488366127014,0.2235884815454483,0.1298140883445739
1749038918.2465093,-4.704780376410048,-1.5608497114558255,1.3554940083716447,-3.929541629397964,4.908012554578714,5.690469217798883,0.10586442275328631,-0.015396279442912338,-0.02485747169623452,0.08608695160282656,0.013572369827962295,0.0035799519742193073,0.4255191087722778,-0.8650518655776978,-1.1050173044204712,0.3650494813919067,0.2177795618772506,0.1482765972614288
1749038918.246547,-4.704564136238893,-1.5608793859142296,1.3554424015593378,-3.92936575332821,4.908040147525495,5.690475261034753,0.10753026722237122,-0.01573955075771595,-0.025100103025157007,0.08795118135568403,0.013935523472099505,0.0036390145847191844,0.4365197420120239,-0.8987456560134888,-1.1120169162750244,0.3854143619537353,0.2329005748033523,0.1587074846029281
1749038918.2465844,-4.704344504416395,-1.5609098857985348,1.3553904839876154,-3.9291859216331146,4.9080687561533125,5.69048161042138,0.10923949970591462,-0.016098218560752924,-0.02533287831940615,0.08982958547148218,0.014301616717559203,0.0036991220084697835,0.4149450659751892,-0.8863365054130554,-1.115757703781128,0.3714808523654938,0.2385738343000412,0.1791619807481765
1749038918.2466216,-4.704121341624156,-1.5609412150004933,1.3553382887517529,-3.9290020981672997,4.9080983384715235,5.690488269705379,0.11099140082777575,-0.016470267088630062,-0.025563988387873934,0.09169617845074442,0.014662930307491905,0.0037589199955244726,0.4442809224128723,-0.8883776068687439,-1.131719708442688,0.3811550140380859,0.2307527810335159,0.171964406967163
1749038918.2466586,-4.703894525916725,-1.5609733566584947,1.3552858230806324,-3.928814304009968,4.908128817660209,5.690495216284903,0.11278171028818001,-0.016853042351951144,-0.025801713006887175,0.09352387027656492,0.015012814664993159,0.0038165944366847283,0.4049574136734009,-0.8881402611732483,-1.1100126504898071,0.3796599805355072,0.2318723350763321,0.1533089131116867
1749038918.2466953,-4.703663964266289,-1.5610062810229324,1.3552330622361413,-3.9286226244454214,4.90816009491405,5.6905024047961525,0.11460327505348991,-0.01724314898475292,-0.026054074414545717,0.09528672552276823,0.015346155795027067,0.0038702477024062515,0.4085756540298462,-0.902180552482605,-1.1232185363769531,0.3805338144302368,0.2260604947805404,0.1675788909196853
1749038918.2467322,-4.703429597766995,-1.5610399545968774,1.3551799451104733,-3.9284272095823303,4.908192063718985,5.690509773212615,0.1164469652476678,-0.017636461491327297,-0.026328539546307334,0.09696236338931362,0.015659702819537654,0.0039183668683986615,0.417029857635498,-0.8996466994285583,-1.117903232574463,0.3666101694107055,0.2286540418863296,0.1532575935125351
1749038918.2467692,-4.70319140108149,-1.561074347971333,1.355126372981986,-3.928228267814357,4.908224623876188,5.690517250339053,0.11830270308020469,-0.018028272824225627,-0.02663175387409436,0.0985342278700223,0.015952226289591948,0.00396023622416268,0.4286485910415649,-0.9162653684616088,-1.1350504159927368,0.3648988902568817,0.2227845638990402,0.1629668474197387
1749038918.2468054,-4.702949378057523,-1.561109440273027,1.355072212554526,-3.928026052313732,4.908257693767521,5.690524763540824,0.1201604410216617,-0.018413574116499937,-0.026969288236848354,0.09999344113952247,0.016224493870205654,0.003996149421155503,0.3986672163009643,-0.883313000202179,-1.1547759771347046,0.3683456182479858,0.2324556559324264,0.1460459530353546
1749038918.246842,-4.70270355579785,-1.5611452196631361,1.3550173035423174,-3.927820841658561,4.908291219524215,5.690532245846467,0.12201095126511018,-0.018787429696590037,-0.027345405392612383,0.1013399875923971,0.016479071107809933,0.004027342168937923,0.4186683595180511,-0.9045206904411316,-1.1421785354614258,0.3419816195964813,0.221816137433052,0.1404772698879242
1749038918.246878,-4.702453978861967,-1.5611816809473014,1.3549614699739347,-3.927612916453107,4.908325180103243,5.690539642026045,0.12384635196019238,-0.019145390723937093,-0.027762874867840133,0.10258303636752017,0.01671997458356639,0.004055668874752556,0.4282225668430328,-0.8901647329330444,-1.139904260635376,0.3206411600112915,0.2408922165632248,0.1653104573488235
1749038918.2469144,-4.702200704350583,-1.5612188221230796,1.3549045336725698,-3.927402534420456,4.908359587922591,5.6905469135014295,0.12566038286056236,-0.019483885282426172,-0.028222861213092355,0.10374028970590207,0.01695221731637027,0.004083140707149633,0.417265772819519,-0.876842200756073,-1.1527187824249268,0.3406899869441986,0.2209352999925613,0.1627991199493408
1749038918.246951,-4.701943797946999,-1.5612566413534177,1.3548463282345082,-3.9271899069482945,4.9083944854152035,5.69055404189426,0.12744852064918474,-0.019800530352221526,-0.02872488937929497,0.10483636469242359,0.01718129014533468,0.0041114868927518335,0.4636356830596924,-0.8908137679100037,-1.1548854112625122,0.3527144491672516,0.2359549403190612,0.1581218093633651
1749038918.2469888,-4.701683330570862,-1.561295134921917,1.3547867119837809,-3.9269751802863757,4.908429938246308,5.6905610309250285,0.1292080530348941,-0.02009432513866604,-0.029266871343352763,0.10590037459111991,0.017412622908531652,0.004141877829202719,0.4371186196804046,-0.9009579420089722,-1.1344969272613523,0.336654782295227,0.2253584861755371,0.162490040063858
1749038918.2470264,-4.701419375030755,-1.561334296009269,1.3547255785786054,-3.9267584241955475,4.9084660259186395,5.690567906418376,0.13093819475575796,-0.02036570218650969,-0.02984516937198254,0.10696302109952023,0.017651069504580504,0.004174869185632734,0.4372732937335968,-0.8848416805267334,-1.1324429512023926,0.3542985320091247,0.1964965462684631,0.157856285572052
1749038918.2470627,-4.7011520021405415,-1.5613741140322195,1.3546628642295946,-3.926539629685058,4.908502830347167,5.690574714230553,0.132640250916304,-0.020616430951604068,-0.030454673690194136,0.10805358685287253,0.017900458736890487,0.004210526581731467,0.4565760195255279,-0.8846142888069153,-1.151766300201416,0.3441384434700012,0.2261841297149658,0.1402818858623504
1749038918.2471,-4.700881276248999,-1.561414574469381,1.3545985509621004,-3.92631871586772,4.9085404230388185,5.6905815159097175,0.13431775528069084,-0.020849384871709595,-0.031088887361252773,0.10919721818753618,0.018163245478972998,0.004248619031816564,0.424793004989624,-0.9087628722190856,-1.1698552370071411,0.3871222734451294,0.2138611674308776,0.1435662508010864
1749038918.2473583,-4.700607250599339,-1.561455659089455,1.3545326659569847,-3.9260955445095496,4.908578851871501,5.690588382039026,0.13597646571880945,-0.02106819704598049,-0.031740034759064534,0.1104128283927781,0.018440287527507523,0.004288762323425678,0.4297448992729187,-0.8994014263153076,-1.1421897411346436,0.3645100891590118,0.2359746545553207,0.1559195816516876
1749038918.2493515,-4.700329963023542,-1.5614973463405517,1.354465277531288,-3.925869939919927,4.908618129007064,5.690595383738272,0.13762410240999118,-0.021276845945763095,-0.03239922632815183,0.11171184771698105,0.018730768731094145,0.00433044901438241,0.3629533648490906,-0.9134407043457032,-1.1317760944366455,0.3935283422470093,0.224348172545433,0.1577616035938263
1749038918.2943065,-4.7000494323834685,-1.5615396116704807,1.3543964886005382,-3.925641711318288,4.908658221920254,5.690602583538329,0.1392697700427136,-0.021479230786881666,-0.03305671073388377,0.11309791964152822,0.0190322904947286,0.0043729792109263215,0.4373270869255066,-0.925934076309204,-1.1490075588226318,0.4075944721698761,0.2392890602350235,0.1687088757753372
1749038918.2943532,-4.699765656218639,-1.5615824277863117,1.3543264285030192,-3.9254106744981163,4.908699049594772,5.690610027262793,0.1409231016565561,-0.021678803995884566,-0.03370223423132068,0.11456752290516485,0.01934115291868015,0.0044153569591640135,0.4119560420513153,-0.9140450954437256,-1.1449280977249146,0.4234494864940643,0.2351973205804824,0.1613153517246246
1749038918.2943945,-4.699478610135829,-1.5616257651143264,1.3542552439606956,-3.9251766695830184,4.90874048545691,5.690617738314541,0.142593265718125,-0.021878313181433608,-0.03432551770811322,0.11611139745907455,0.019652828000421757,0.00445621760447344,0.4279335737228393,-0.9001802206039429,-1.137616753578186,0.375377357006073,0.2329209148883819,0.1436213552951812
1749038918.294433,-4.69918824925813,-1.5616695927756743,1.3541830897830376,-3.9249395722220783,4.908782367578244,5.69062571507611,0.14428803712072735,-0.02207967225729505,-0.03491685091752168,0.11771655906201403,0.019962585201864478,0.0044938147651279944,0.4265367090702057,-0.9057843685150146,-1.1499264240264893,0.3945873379707336,0.2344363927841186,0.1501229256391525
1749038918.294471,-4.698894511498486,-1.5617138801656394,1.3541101197900822,-3.9246992967521495,4.908824515282377,5.690633931496419,0.14601310967665695,-0.022283950531751282,-0.03546778019240138,0.1193686055324948,0.020266179070411942,0.004526057694461376,0.4446224570274353,-0.928226113319397,-1.1549378633499146,0.4025454223155975,0.2256990671157837,0.136056363582611
1749038918.2945082,-4.698597321835059,-1.5617585987718539,1.3540364784016878,-3.9244557914157103,4.90886674992466,5.690642340608724,0.14777173956527914,-0.022491452043971613,-0.035971829956540066,0.12105397798556271,0.02056047208033558,0.00455058272355767,0.4399143159389496,-0.9115133881568908,-1.1153651475906372,0.3831104636192322,0.2255483865737915,0.1721079051494598
1749038918.2945452,-4.698296596550927,-1.5618037234377007,1.3539622933319848,-3.924209027313933,4.9089089166521145,5.69065088052387,0.14956471175449776,-0.022701851203257236,-0.036425163682296764,0.12276185587418256,0.020843858006406844,0.0045648683067439485,0.4380743205547333,-0.9129783511161804,-1.1350332498550415,0.3903511464595794,0.2084029018878936,0.1803845763206482
1749038918.2945826,-4.697992246710671,-1.5618492322880273,1.3538876697499707,-3.9239589839908895,4.908950903601522,5.690659482157351,0.15139055201832183,-0.022914350018406433,-0.03682707747623045,0.1244854149257062,0.02111637612939276,0.004566432756377692,0.4615832567214966,-0.9182769656181335,-1.1407049894332886,0.3802563846111297,0.1900531202554702,0.1618291437625885
1749038918.2946205,-4.697684180700872,-1.5618951051973893,1.3538126861459474,-3.9237056350415487,4.90899265536323,5.690668077677514,0.1532458703135271,-0.02312783125593599,-0.037180241550023266,0.12622224857227377,0.02137946426464109,0.004553152929971215,0.442618191242218,-0.9418926239013672,-1.1291712522506714,0.3731850981712341,0.2245360761880874,0.1632793247699737
1749038918.294659,-4.697372306132977,-1.5619413216119962,1.353737392031799,-3.923448936904207,4.90903417865517,5.690676608590636,0.15512572316831788,-0.023341001187543023,-0.037490650994153045,0.12797385927942628,0.0216353866612162,0.004523699378875836,0.4441699981689453,-0.9587863087654114,-1.1326738595962524,0.3878824412822723,0.2102396637201309,0.1630827188491821
1749038918.2946956,-4.69705653177689,-1.5619878590234093,1.3536618075074933,-3.923188823332925,4.909075539814702,5.690685032526793,0.15702393635672937,-0.023552531669759222,-0.03776729147738306,0.12974427644677064,0.021886475772349506,0.00447801676908059,0.4648260474205017,-0.9445069432258606,-1.136074423789978,0.4018755853176117,0.2358696311712265,0.1425378024578094
1749038918.2947328,-4.69673677043461,-1.5620346931066988,1.3535859246476716,-3.9229252071262897,4.909116855397662,5.6906933280754055,0.15893341407838724,-0.02376121030391424,-0.038021551761462095,0.1315380344016917,0.02213440650678419,0.004417724312579782,0.4771115481853485,-0.9505566954612732,-1.1188914775848389,0.3976713716983795,0.2424732893705368,0.1578012406826019
1749038918.29477,-4.6964129434794755,-1.5620817997784762,1.3535097105838658,-3.922657989401672,4.909158278257141,5.690701497284835,0.16084651785406293,-0.023966091705072214,-0.03826643082822331,0.13335790473240322,0.02237973408725265,0.004346303196990538,0.4751198887825012,-0.9415493011474608,-1.1409574747085571,0.4225924611091614,0.2203137278556823,0.1527202129364013
1749038918.2948065,-4.696084987058479,-1.5621291586939545,1.3534331120117922,-3.922387075026194,4.9091999817178404,5.690709565529598,0.16275558303791038,-0.024166626760195972,-0.03851560976327247,0.1352028701864793,0.02262185535096384,0.004268984539420474,0.4018386304378509,-0.973046064376831,-1.1656808853149414,0.4226444959640503,0.2418723553419113,0.1606170535087585
1749038918.2948432,-4.695752859068361,-1.5621767572314642,1.3533560605756219,-3.9221123911544558,4.909242144106305,5.69071757847749,0.16465356309546697,-0.024362740715541637,-0.038782485496018114,0.13706681257088263,0.022859420677165697,0.00419232971990597,0.3999152183532715,-0.9549474120140076,-1.146187663078308,0.4466656446456909,0.2121771425008773,0.1321699023246765
1749038918.294881,-4.695416545491776,-1.5622245938458865,1.3532784782476877,-3.921833904790806,4.909284935276631,5.69072559617522,0.16653470113884297,-0.024554836476552922,-0.03907926830813127,0.1389382534438913,0.023091076248246065,0.004123570885930926,0.477410614490509,-0.9572113752365112,-1.1639121770858765,0.4498718380928039,0.220873475074768,0.1477120071649551
1749038918.2949176,-4.695076064757618,-1.5622726798407185,1.353200281728786,-3.9215516353113378,4.909328506084158,5.690733684849055,0.16839507905574422,-0.024743715799631402,-0.039416210325387314,0.1408012560708468,0.023316302532295715,0.004069826944493736,0.4671562016010284,-0.964244306087494,-1.166556477546692,0.4185557067394256,0.2075989842414856,0.1645348668098449
1749038918.2949548,-4.694731469381872,-1.5623210390922053,1.3531213853181638,-3.921265659036154,4.90937298114934,5.690741907529745,0.17023291560554069,-0.024930437425397276,-0.03980098191354983,0.14263732382097397,0.02353607138845909,0.004037317964452669,0.4454139173030853,-0.9660189747810364,-1.1462681293487549,0.4120275676250458,0.209290325641632,0.1335277110338211
1749038918.294992,-4.694382844925503,-1.5623697058961903,1.3530417024694459,-3.920976104920441,4.909418454787944,5.690750314766201,0.17204856267017735,-0.02511616027666925,-0.0402381903132041,0.14442789471731401,0.02375308897156136,0.004030674378586751,0.4827572107315063,-0.960813283920288,-1.1709208488464355,0.4209628105163574,0.2387472689151764,0.1463938355445861
1749038918.2950287,-4.69403030684211,-1.5624187216612202,1.3529611468025275,-3.920683142558058,4.9094649896257465,5.690758936582845,0.1738442416090197,-0.025302036748850388,-0.04072905404054456,0.14615691289659327,0.02397151510878273,0.004052400715360253,0.4450012147426605,-0.9788957834243774,-1.1772422790527344,0.3886945843696594,0.2184230983257293,0.1542249619960785
1749038918.2950654,-4.693673995794787,-1.5624681314148627,1.3528796333733066,-3.9203869653192815,4.909512617144745,5.690767776724741,0.1756236262304872,-0.02548921443755418,-0.041271278778460846,0.14781298282955965,0.024196209981354442,0.00410253412334923,0.459166944026947,-0.9928406476974488,-1.1601579189300537,0.3710948824882507,0.2323496341705322,0.1591978669166565
1749038918.295102,-4.693314071614201,-1.5625179809243137,1.3527970807072531,-3.9200877722604464,4.9095613393136075,5.690776810160057,0.1773913870534753,-0.025678973721329833,-0.04185918652050837,0.14939074765529717,0.024431697083501597,0.004178541619601803,0.4555710852146148,-0.9753409624099731,-1.1785486936569214,0.390942633152008,0.2297724783420562,0.1529240012168884
1749038918.295407,-4.692950705695185,-1.5625683148331209,1.3527134137349137,-3.9197857523064457,4.909611130679252,5.690785984552677,0.17915276610544204,-0.02587298106205184,-0.042484119404707824,0.15089132346194353,0.024681103423668364,0.004275505998244669,0.4779762923717499,-0.9943318367004396,-1.1837433576583862,0.3944897353649139,0.2573752403259277,0.1633137613534927
1749038918.2973597,-4.6925840716562455,-1.5626191759112065,1.3526285673623675,-3.919481073052162,4.909661940761169,5.690795225823217,0.18091319139654574,-0.026073587722635655,-0.043135095383956365,0.15232181537373224,0.02494533103003509,0.004386632269990018,0.4410175681114197,-0.970681130886078,-1.1622556447982788,0.3882241547107696,0.2323065102100372,0.1664527207612991
1749038918.338638,-4.692214334564305,-1.5626706054022355,1.3525424900456144,-3.9191738746381235,4.909713696917033,5.690804447105746,0.1826779091797677,-0.026284070928083138,-0.04379965955735355,0.1536940937764915,0.025222641172299057,0.004504054161290982,0.4686530232429504,-1.007960081100464,-1.167191743850708,0.4047586321830749,0.2313309758901596,0.1483726501464843
1749038918.3387203,-4.691841639738424,-1.5627226443515148,1.3524551466583645,-3.918864267282806,4.909766307841241,5.690813559717023,0.1844516256554032,-0.026508717086698635,-0.04446485988838998,0.15502309812500714,0.02550872413289935,0.004619844763289711,0.4237634837627411,-0.9982557892799376,-1.180626392364502,0.3901183009147644,0.2270082831382751,0.1539274752140045
1749038918.3387983,-4.691466102646615,-1.5627753356188754,1.3523665202281128,-3.9185523300321714,4.909819667765516,5.690822484481109,0.18623819355989293,-0.026752685594686212,-0.04511827492046263,0.15632497340542165,0.025797220502082663,0.004727065227704305,0.4723045527935028,-1.0122079849243164,-1.1704374551773071,0.4180090725421905,0.2308118492364883,0.1681138277053833
1749038918.3388717,-4.691087801240313,-1.5628287261400067,1.3522766125079868,-3.918238108487211,4.909873661454541,5.69083116187953,0.18804041715167724,-0.027021647724337797,-0.04574902543852604,0.15761534624210297,0.026080583463856596,0.004820655762477979,0.5019253492355347,-1.0034102201461792,-1.1730141639709473,0.3871913552284241,0.2083915919065475,0.140623539686203
1749038918.338947,-4.690706771277137,-1.562882868954529,1.352185443539195,-3.9179216104677996,4.909928170082342,5.690839559766788,0.18986004108099303,-0.027321244318498455,-0.046348700215643183,0.15890800247045903,0.02635113115941502,0.004898005234944912,0.4677904844284057,-1.0049515962600708,-1.1553243398666382,0.4172868430614471,0.228627473115921,0.1464674770832061
1749038918.3390186,-4.690323004399747,-1.562937824458886,1.3520930502637667,-3.917602800195266,4.90998307789002,5.690847677692598,0.19169792671918362,-0.0276564374460419,-0.0469121134860323,0.16021411836646673,0.026602123644915873,0.00495911718016142,0.4685454070568084,-1.025617241859436,-1.1655845642089844,0.3983030915260315,0.2229166775941848,0.151408314704895
1749038918.339092,-4.689936448508308,-1.5629936601873915,1.3519994839918472,-3.917281592951799,4.910038279219613,5.690855547351725,0.19355434189529905,-0.02803084575040525,-0.04743780014712245,0.16154204406136766,0.0268287015099204,0.005006381109002369,0.4597868919372558,-1.0211035013198853,-1.1640307903289795,0.3856123685836792,0.2317384928464889,0.1589109897613525
1749038918.3391626,-4.689547010206519,-1.5630504483040064,1.3519048063132335,-3.916957852794665,4.910093685179271,5.690863229357121,0.1954292439408686,-0.02844615402259309,-0.04792816073894349,0.16289749511056825,0.02702854222579984,0.005044021330291389,0.4547216296195984,-1.0039619207382202,-1.1535639762878418,0.3603366315364837,0.2193360477685928,0.149161547422409
1749038918.3392098,-4.689154559391725,-1.5631082601854838,1.3518090831320284,-3.9166313957260335,4.910149228934001,5.690870807113572,0.19732244106314129,-0.028901677261148378,-0.04838919768424316,0.1642839271873575,0.027202128833559224,0.005077322719260325,0.4823251962661743,-1.009676456451416,-1.1611250638961792,0.3793315291404724,0.2087851166725158,0.1509810835123062
1749038918.3392494,-4.688758936133753,-1.563167158203166,1.3517123770465198,-3.9163020000192224,4.910204868667974,5.690878378829212,0.19923356595730504,-0.02939414071222863,-0.04882983151263362,0.16570287403417083,0.027352587065044454,0.005111743069712522,0.4766617119312286,-1.0335769653320312,-1.1615086793899536,0.3650723397731781,0.2175330072641372,0.1599245965480804
1749038918.339288,-4.688359959858452,-1.5632271859114213,1.3516147390556883,-3.9159694243172085,4.910260587756122,5.690886048695762,0.2011618665319504,-0.029917710908607686,-0.04926084295274754,0.1671541129638053,0.02748512962069125,0.005152034416578522,0.5008974671363831,-1.0237295627593994,-1.1558128595352173,0.3981221318244934,0.2382519692182541,0.1606341004371643
1749038918.339326,-4.687957440612211,-1.5632883587789839,1.35151620107769,-3.915633432627497,4.910316392407686,5.690893918123123,0.20310588220376338,-0.03046428079221551,-0.049693546646190544,0.16863564406168047,0.027606234260568133,0.005201508397260433,0.4900103509426117,-1.0309382677078247,-1.166293978691101,0.3908791840076446,0.2186442911624908,0.166471779346466
1749038918.339364,-4.687551191811805,-1.5633506578559682,1.3514167707507136,-3.915293823550314,4.9103723076727945,5.690902077730387,0.2050631083608765,-0.031023982059420224,-0.05013835597725136,0.1701435738850406,0.0277227465347329,0.005261572904472968,0.4939001798629761,-1.0421807765960691,-1.1715056896209717,0.4020082354545593,0.234822615981102,0.1748894304037094
1749038918.339402,-4.687141043379325,-1.5634140282890188,1.3513164294882063,-3.9149504593305795,4.910428373085905,5.690910600665282,0.2070297560766761,-0.0315858765529743,-0.05060343386736368,0.17167204557691057,0.027841110534524992,0.005331622626437632,0.4701017141342163,-1.019459247589111,-1.1740840673446655,0.4071900844573974,0.2332120388746261,0.1708496958017349
1749038918.3394396,-4.686726853814016,-1.5634783836080672,1.3512151339657705,-3.9146032891634093,4.910484639315716,5.690919537707228,0.20900069896185722,-0.03213876398405912,-0.05109362737490996,0.1732133488661066,0.027966881369161152,0.005409288884035485,0.523827075958252,-1.054016351699829,-1.1964523792266846,0.3961892127990722,0.2339164912700653,0.1584117263555526
1749038918.3394768,-4.686308519908346,-1.5635436154717635,1.3511128204445118,-3.9142523612724136,4.910541166818621,5.69092891441553,0.21096966481411533,-0.032672029299532786,-0.05160984555152446,0.1747582919317418,0.02810457574387511,0.0054909702250386105,0.4952779412269592,-1.0262601375579834,-1.1640503406524658,0.4248664379119873,0.2301753461360931,0.1424691379070282
1749038918.339515,-4.685885983374372,-1.5636096073475194,1.3510094109422632,-3.9138978200053893,4.910598026517229,5.690938730435229,0.21292967223156462,-0.033176439533931325,-0.052148965022248056,0.17629684780224314,0.028257807444400995,0.005572508118667554,0.5205011367797852,-0.9910290241241456,-1.1555176973342896,0.4227942228317261,0.2240037620067596,0.1405874043703079
1749038918.3395522,-4.685459234155411,-1.5636762497038703,1.3509048203865854,-3.913539887251052,4.910655301348754,5.69094896111911,0.21487363982247962,-0.033644796819161576,-0.052704259746185846,0.1778190186696822,0.028429571555582886,0.0056498620778592246,0.4208836555480957,-1.0059504508972168,-1.1887788772583008,0.396028995513916,0.2225777357816696,0.1510376334190368
1749038918.3395894,-4.685028310401978,-1.5637434539355355,1.3507989643040041,-3.9131788309603732,4.910713086883028,5.69095956166528,0.21679503570373224,-0.03407237330843765,-0.05326628202074382,0.17931579928834632,0.028622508953212698,0.005719668694730815,0.4738955497741699,-1.0129996538162231,-1.1821876764297483,0.3810015916824341,0.2205780595541,0.1516408920288086
1749038918.339626,-4.68459329515037,-1.563811162508023,1.3506917668737164,-3.912814926430649,4.910771489360655,5.690970473656356,0.2186884259489085,-0.0344570933185886,-0.0538240810101259,0.1807800765732408,0.02883900555299181,0.005779613632362349,0.4725069999694824,-0.993139922618866,-1.1571404933929443,0.3835294842720032,0.2121823728084564,0.1547434329986572
1749038918.3397892,-4.684154309947084,-1.563879353609974,1.3505831689922492,-3.9124484175939362,4.910830620169327,5.690981633230178,0.22054984262142668,-0.03479946798526661,-0.054366611010399434,0.18220729645747732,0.029081048941604192,0.005828584529872987,0.5081161260604858,-0.9885528683662416,-1.126073122024536,0.3818361759185791,0.2279467731714248,0.1491761207580566
1749038918.34137,-4.683711506027923,-1.5639480397214771,1.350473135534213,-3.9120794855568515,4.910890586760614,5.690992979495417,0.2223769947958221,-0.035102310488598805,-0.05488414116413784,0.18359577075897862,0.029349857628890714,0.005866605735477377,0.5260940194129944,-1.0131661891937256,-1.1341941356658936,0.3744458258152008,0.22963248193264,0.1558169871568679
1749038918.382281,-4.6832650538826615,-1.5640172606313243,1.350361660755813,-3.9117082300220667,4.910951481247903,5.6910044615918745,0.2241694184219863,-0.03537026767295489,-0.05536945951543105,0.18494657231400152,0.029645386179903702,0.005894591125589742,0.5418925881385803,-1.0156090259552002,-1.1689903736114502,0.3737185895442962,0.2520528733730316,0.1649760454893112
1749038918.3823342,-4.68281513193013,-1.564087072289722,1.350248771036749,-3.911334666264071,4.9110133690078035,5.691016043101797,0.22592864671822904,-0.035609208356178514,-0.05581869838701518,0.18626304925472337,0.029965862210017957,0.005913987182886273,0.4672496020793915,-0.9925960898399352,-1.131618618965149,0.3975379467010498,0.2502555847167969,0.1576639860868454
1749038918.3823764,-4.682361914828514,-1.5641575334168596,1.3501345246849312,-3.91095873683008,4.911076279850216,5.691027703189445,0.22765838960880536,-0.03582551829134075,-0.05623168190946867,0.18755005725114382,0.030307509328842,0.0059264005847845915,0.4673791825771332,-1.0166689157485962,-1.139491081237793,0.3533578217029571,0.2560674548149109,0.1700428873300552
1749038918.3824158,-4.681905561925016,-1.56422869204052,1.3500190089738209,-3.91058033417594,4.911140203496034,5.691039434534702,0.2293646076129016,-0.03602537271025183,-0.056611773761454265,0.18881305160926173,0.03066455789577349,0.005933300034985012,0.4755837023258209,-1.0084550380706787,-1.1286009550094604,0.4022237062454223,0.2486114799976349,0.1558269709348678
1749038918.3824542,-4.6814462064229945,-1.5643005740410127,1.3499023348001287,-3.910199328815651,4.911205089736567,5.691051238598374,0.2310553301693202,-0.0362140852903654,-0.05696526869187001,0.19005720052365843,0.031029569649623435,0.005935852367082853,0.4667443037033081,-1.0131149291992188,-1.1424938440322876,0.3794029355049133,0.2499663382768631,0.1629649400711059
1749038918.382493,-4.680983945859663,-1.5643731753565733,1.349784629459052,-3.909815597424853,4.911270852494572,5.691063119131111,0.23274012688761805,-0.03639564402497888,-0.05730042883060716,0.19128668420386657,0.03139403510437622,0.005934911634924663,0.502869725227356,-1.016784906387329,-1.1273210048675537,0.3920643329620361,0.2605866193771362,0.1579649746417999
1749038918.3825312,-4.68051883453752,-1.5644464589454872,1.3496660281949844,-3.9094290463406063,4.91133737645064,5.691075075301592,0.23442925344149723,-0.03657251884126941,-0.05762631147075075,0.1925043323589582,0.03174916359113154,0.005931140619607423,0.5052882432937622,-1.011235594749451,-1.1420154571533203,0.4009748101234436,0.251874029636383,0.1648753583431244
1749038918.3825686,-4.680050878687198,-1.564520357024523,1.3495466654051,-3.9090396274423194,4.911404524986386,5.691087096182558,0.23613259431911357,-0.03674576984446064,-0.05795155614333626,0.19371170979001456,0.03208677506630952,0.0059252131807153476,0.4879145324230194,-1.0161174535751345,-1.1442924737930298,0.4045987725257873,0.2614766955375671,0.166835606098175
1749038918.3826065,-4.679580035117315,-1.5645947784219063,1.349426666525138,-3.9086473449179135,4.911472148783809,5.691099158171869,0.23785856601777544,-0.03691542339726901,-0.058283288554062826,0.1949096718204317,0.032400204894673136,0.005918026390911188,0.4816831648349762,-1.0217278003692627,-1.126486897468567,0.397870659828186,0.2343278229236602,0.1556814610958099
1749038918.382644,-4.679106213715075,-1.5646696200242078,1.3493061415795502,-3.9082522526363133,4.91154009509587,5.691111226129873,0.2396131286642419,-0.037081032186401054,-0.05862626339830059,0.19609928613935126,0.032685129737246556,0.005910849858059518,0.5043901801109314,-1.0113016366958618,-1.1180322170257568,0.3891116976737976,0.2365649342536926,0.1565338522195816
1749038918.3826816,-4.678629283551271,-1.5647447803968988,1.3491851810828996,-3.9078544428317956,4.911608217959865,5.691123257936709,0.24139901851801518,-0.03724229979284222,-0.05898232364272607,0.19728288967982974,0.0329402106206077,0.005905361421945741,0.5030351877212524,-1.013706088066101,-1.1382174491882324,0.3740312457084656,0.2423985600471496,0.1599331498146057
1749038918.3827188,-4.678149081882747,-1.5648201730870246,1.3490638545221652,-3.9074540277892456,4.911676389338734,5.691135211288932,0.24321528579287657,-0.037399636122041426,-0.05935021737842853,0.19846496371303313,0.03316744327304399,0.00590355780590659,0.5067406296730042,-1.0041353702545166,-1.118294358253479,0.3593924343585968,0.2307793945074081,0.1460524052381515
1749038918.3827558,-4.677665425243713,-1.5648957372491525,1.348942211240088,-3.9070511172909903,4.911744510615321,5.691147051142861,0.24505719585433183,-0.03755452576591256,-0.05972578652972437,0.19965250961287578,0.03337212542495058,0.0059075685247548014,0.4358375966548919,-0.9989374279975892,-1.1208657026290894,0.3833130896091461,0.2290728092193603,0.1508957147598266
1749038918.3827932,-4.677178121945748,-1.5649714440741074,1.348820283348471,-3.906645795539206,4.911812523257745,5.691158756256165,0.246916510781587,-0.03770963513001548,-0.06010251054593322,0.20085471629421192,0.03356240200418902,0.0059194240921050375,0.4480389058589935,-0.9969495534896852,-1.1217193603515625,0.3618993163108825,0.2328978776931762,0.1639487147331237
1749038918.38283,-4.676686985342817,-1.5650472986006785,1.3486980902701338,-3.9062381017679813,4.911880416957022,5.6911703235712245,0.24878211639831838,-0.03786863993394332,-0.06047234483534657,0.2020819109495,0.033748418923895025,0.005940829288729051,0.4546536803245544,-0.9941403865814208,-1.133729338645935,0.3847332000732422,0.2594915628433227,0.1455020904541015
1749038918.3828704,-4.676191847021377,-1.5651233373331128,1.348575644406381,-3.9058280185714205,4.9119482334015805,5.691181769597432,0.2506409219205541,-0.03803580598065123,-0.06082674731295786,0.2033440076548398,0.033941180693805514,0.00597297626078658,0.4847341179847717,-0.9872034192085266,-1.110101580619812,0.380961537361145,0.2291668057441711,0.1567830741405487
1749038918.3829088,-4.675692568858259,-1.5651996224407336,1.3484529571411976,-3.905415470974135,4.912016064368979,5.691193128551873,0.2524789534553338,-0.0382153971137537,-0.061157749499941814,0.20464882087253194,0.03415124747415695,0.0060164146645467955,0.5061907172203064,-1.0214729309082031,-1.106589913368225,0.4025532007217407,0.2188092023134231,0.1662662774324417
1749038918.3829458,-4.675189052897953,-1.5652762333459314,1.348330044118868,-3.9050003374374387,4.912084043875167,5.691204447786945,0.25428257044363795,-0.03841101337084842,-0.06145891113112075,0.2060006309349859,0.034387421915577955,0.006070987119347105,0.4903057813644409,-1.007232666015625,-1.0929077863693235,0.3988460302352905,0.233307883143425,0.1656223535537719
1749038918.3829827,-4.674681248204457,-1.5653532565741513,1.3482069287657765,-3.904582471576631,4.912152335291327,5.691215781668283,0.2560397113213852,-0.03862497222080883,-0.06172601379640866,0.20739928121400233,0.0346555789689109,0.0061358365226094795,0.4935055673122406,-1.0420299768447876,-1.1103484630584717,0.4205298125743866,0.2245909422636032,0.1701802909374237
1749038918.38302,-4.674169154058061,-1.565430774996358,1.3480836433841819,-3.9041617309290926,4.912221115196966,5.691227185276365,0.2577410115732888,-0.038857829993710576,-0.0619574079508023,0.2088399159835428,0.034957792755712,0.006209487515563721,0.4410045146942138,-1.0068365335464478,-1.1062606573104858,0.3983394801616668,0.2384685277938842,0.1468023210763931
1749038918.3833697,-4.673652819025673,-1.5655088578769483,1.3479602275347415,-3.903738007325047,4.912290556136588,5.6912387091200385,0.25938059641125916,-0.03910810691602992,-0.06215401169607221,0.21031331565834932,0.035291903003497604,0.006289990742571498,0.4540677070617676,-1.0309714078903198,-1.1072356700897217,0.3982937633991241,0.2401393800973892,0.1651230603456497
1749038918.3853097,-4.67313233565101,-1.5655875532242929,1.347836723692818,-3.903311252813647,4.912360810469455,5.691250395660017,0.26095640732453956,-0.039372245223231385,-0.06231903671741638,0.21180670644975957,0.03565161742330329,0.006375100459264243,0.5187949538230896,-1.002934217453003,-1.1240596771240234,0.3978026509284973,0.2387158870697021,0.1479016095399856
1749038918.426313,-4.672607830973082,-1.5656668836572882,1.3477131705215435,-3.9028814959503397,4.912431997192533,5.691262277928597,0.26247006895477254,-0.039644806208088065,-0.062457564908881914,0.2133049184519584,0.03602715907785878,0.00646244703430139,0.5189713835716248,-1.016300082206726,-1.1293801069259644,0.3972601890563965,0.2376185357570648,0.1635747849941253
1749038918.4263604,-4.6720794538344,-1.565746846275354,1.3475895946717924,-3.902448845344902,4.91250419295373,5.691274379985039,0.2639264383872167,-0.03991889811519014,-0.06257611227624882,0.21479180043342874,0.0364063621800081,0.006549675160668261,0.5013445019721985,-1.0267469882965088,-1.1190310716629028,0.3946887254714966,0.2216419428586959,0.1679373681545257
1749038918.426402,-4.671547360754012,-1.5658274160389558,1.3474660024232037,-3.9020134800291646,4.912577427600344,5.691286718614971,0.26533300795216597,-0.04018681566881532,-0.06268229221828998,0.2162518189302334,0.036776035999454726,0.0066345409940045345,0.5120288729667664,-1.0226552486419678,-1.1275670528411863,0.4130038917064667,0.2311936765909195,0.1574594974517822
1749038918.426442,-4.671011702591328,-1.565908551319164,1.3473423723197042,-3.901575628667739,4.912651683810669,5.691299305716569,0.2666992629467858,-0.040440850717997544,-0.06278463044474554,0.21767174201464212,0.03712338542794342,0.006714980823314184,0.4537625312805176,-1.023356556892395,-1.1308002471923828,0.384880930185318,0.210930049419403,0.1574805378913879
1749038918.426482,-4.67047261399491,-1.565990199919024,1.3472186494458498,-3.9011355413747197,4.912726899883873,5.691312150959781,0.2680360162465631,-0.040674192454386686,-0.06289250689993776,0.21904224004784528,0.037437300293241035,0.006789167662720414,0.4980301856994629,-1.0024667978286743,-1.1214061975479126,0.3889525234699249,0.2117108106613159,0.1686335802078247
1749038918.42652,-4.669930206778515,-1.566072304239215,1.3470947417181656,-3.900693458683516,4.91280297479867,5.691325264155293,0.2693547199157718,-0.0408817896272042,-0.06301613713720744,0.22035916835706437,0.03770938019930219,0.006855562754891755,0.4891061186790466,-0.9619960188865662,-1.1369303464889526,0.385449469089508,0.2149503231048584,0.1748389452695846
1749038918.4265585,-4.66938456732398,-1.566154805205424,1.346970518714559,-3.9002495821089807,4.912879775154621,5.6913386563545725,0.27066678121054544,-0.0410610310181592,-0.06316647937457938,0.22162429008745585,0.03793462060720109,0.006912959718247756,0.4968318045139313,-1.0256811380386353,-1.1216070652008057,0.3756831288337707,0.2104805409908294,0.170579046010971
1749038918.4265966,-4.6688357573623565,-1.5662376454398041,1.3468458137682695,-3.8998040499874707,4.912957144142183,5.691352338583988,0.27198293904852533,-0.04121213152371167,-0.06335496624011457,0.22284529009746779,0.03811173558416646,0.006960519206123184,0.4992439150810241,-1.0048099756240845,-1.133847713470459,0.39644855260849,0.2102539092302322,0.1553168296813964
1749038918.4266343,-4.668283817261908,-1.5663207723808297,1.3467204299000557,-3.899356921109899,4.913034912712384,5.691366317791499,0.2733127589796281,-0.04133816691515407,-0.06359300280177936,0.22403509864081425,0.038243130703607756,0.006997798408145707,0.5004173517227173,-0.9880980253219604,-1.152491807937622,0.407001256942749,0.216887354850769,0.1708221286535263
1749038918.4266722,-4.66772877112281,-1.5664041417102814,1.346594149626051,-3.898908167294519,4.913112912491146,5.691380590841675,0.274664285209706,-0.04144474658861222,-0.06389123229076764,0.22521070472433155,0.038334567227472555,0.007024783321392082,0.4946305453777313,-0.9918909668922424,-1.149752140045166,0.3895934224128723,0.2001445889472961,0.166745126247406
1749038918.42671,-4.667170633180183,-1.5664877209248682,1.3464667480304702,-3.898457674836748,4.913190989050799,5.691395138459074,0.2760438588703187,-0.041539346302537104,-0.06425862899448448,0.22639171087059518,0.03839457840766073,0.007041927185870087,0.4898650646209717,-1.0074156522750854,-1.1303004026412964,0.4089307487010956,0.2177446484565735,0.1772158443927765
1749038918.4267488,-4.666609414983957,-1.5665714924502088,1.3463380079651943,-3.8980052540356382,4.913269013510559,5.691409921294611,0.2774560757594493,-0.04163036236224093,-0.06470151869546106,0.22759883893846977,0.03843371044682717,0.0070501872403431,0.4493288993835449,-1.0060479640960691,-1.1930660009384155,0.4275678992271423,0.1998697370290756,0.1544542908668518
1749038918.4267905,-4.666045132667985,-1.5666554554804477,1.346207735886914,-3.897550655616712,4.913346890617489,5.6914248797173315,0.2789038253521949,-0.04172599972479503,-0.06522265471397648,0.22885248541444494,0.03846366048509958,0.007051039441219725,0.4653177261352539,-1.009241223335266,-1.1834666728973389,0.4051753282546997,0.1993146538734436,0.1619481146335601
1749038918.426829,-4.665477813675176,-1.566739625785922,1.3460757766269462,-3.8970935924534893,4.913424562517409,5.691439937781268,0.2803883491587737,-0.04183314754838186,-0.06582049907114626,0.23017131939029567,0.038496371774176474,0.007046443970200963,0.4783348143100738,-1.001084804534912,-1.1888774633407593,0.4263351857662201,0.2013366818428039,0.1560437083244323
1749038918.4268668,-4.664907502595544,-1.5668240329744287,1.3459420252838439,-3.8966337644560745,4.913502008786343,5.691455010509035,0.2819092877404166,-0.04195640589864834,-0.06648885891110533,0.23157087215698308,0.03854313185718888,0.007038739399152158,0.5014364719390869,-0.9926579594612122,-1.2106605768203735,0.4036105275154114,0.2056978940963745,0.1588530540466308
1749038918.426904,-4.664334265854894,-1.566908715120055,1.345806434528964,-3.896170884147438,4.913579244198838,5.6914700127204325,0.2834647258167723,-0.042097405017816864,-0.0672169888480999,0.2330621006099937,0.03861371847256949,0.007030461973052341,0.4996395111083984,-1.0203980207443235,-1.1856567859649658,0.4149971604347229,0.2200973927974701,0.1587392091751098
1749038918.426941,-4.6637581945816535,-1.5669937114057764,1.345669016114619,-3.8957047004467387,4.913656315851375,5.69148486750264,0.28505125927802744,-0.04225451568429126,-0.06799019637953338,0.2346500064469427,0.03871565731996016,0.0070241132295632116,0.4668501615524292,-1.004855394363403,-1.196976900100708,0.4162814617156982,0.2155579924583435,0.1525200009346008
1749038918.426978,-4.6631794044857156,-1.5670790542547446,1.3455298363036772,-3.8952350184112765,4.913733300793668,5.6914995129701715,0.28666409332687603,-0.042422999765305155,-0.06879090495945935,0.23633251942757533,0.03885368092070146,0.007021922809710638,0.4943200051784515,-1.031014919281006,-1.1937899589538574,0.4545850455760956,0.2173724472522735,0.1630464792251587
1749038918.4270148,-4.662598031605138,-1.567164762798522,1.3453890059973674,-3.8947617131302614,4.913810304377309,5.6915139067401945,0.2882971692707291,-0.04259560111049443,-0.0696000575596263,0.23809993209008964,0.039029475944550196,0.007025661178876434,0.520334780216217,-1.0209156274795532,-1.187673568725586,0.4629802703857422,0.188404232263565,0.1753084659576416
1749038918.4270525,-4.662014223372838,-1.5672508391975066,1.3452466671304995,-3.894284736683808,4.9138874582106356,5.6915280281459,0.28994332962981834,-0.042763524984268414,-0.07039868948653025,0.23993513361216776,0.03924175795203646,0.007036541782757793,0.5387977361679077,-1.0175007581710815,-1.18273663520813,0.4450084567070007,0.1972689181566238,0.1763375699520111
1749038918.427374,-4.66142812531938,-1.5673372685511187,1.345102977252069,-3.893804117895113,4.913964915554763,5.691541878482881,0.2915945428533051,-0.04291769524815766,-0.07116946485974276,0.24181472258570116,0.03948663776044343,0.007055218499180313,0.5676496624946594,-1.041553258895874,-1.1462033987045288,0.4613642990589142,0.1992777734994888,0.1774164140224456
1749038918.429497,-4.660839864766067,-1.5674240222569655,1.3449580941768835,-3.893319955200188,4.914042842224821,5.691555479613469,0.29324218618404924,-0.04305012115331337,-0.07189796427603111,0.2437108553420548,0.03975818842411654,0.007081848763366219,0.4867028892040252,-1.0092037916183472,-1.174072504043579,0.4133056998252868,0.2029671967029571,0.1326594948768615
1749038918.4702682,-4.660249534079678,-1.567511063952704,1.344812162381635,-3.89283240338553,4.914121402787376,5.691568871218648,0.2948773407770774,-0.04315516981952065,-0.07257354540322959,0.24559351571976137,0.040049112803807276,0.007116174674506679,0.5511213541030884,-1.0109381675720217,-1.175265192985535,0.443265438079834,0.2019033432006836,0.1707118451595306
1749038918.470314,-4.659657177019319,-1.56759835681969,1.3446653026482052,-3.892341655524895,4.91420074399515,5.691582106986113,0.29649103392015197,-0.04323054365940406,-0.07318967582698349,0.24743284312767658,0.04035143302700836,0.007157582786482462,0.5001626014709473,-1.023751735687256,-1.1464322805404663,0.437576025724411,0.2000669091939926,0.1603056192398071
1749038918.4703548,-4.6590627816520565,-1.5676858710303565,1.3445176063414555,-3.891847922219275,4.914280978627832,5.69159525003724,0.29807438867869496,-0.043277807515786144,-0.07374373823915625,0.24920122601367983,0.04065714213895423,0.007205130811753473,0.4928338229656219,-1.000141978263855,-1.1775646209716797,0.4478964805603027,0.2027922421693802,0.1668591201305389
1749038918.470394,-4.658466281978397,-1.5677735902146637,1.3443691353518894,-3.8913514108479146,4.914362172757671,5.691608367895484,0.2996186867899823,-0.04330238669804422,-0.07423640410342405,0.2508750000336427,0.0409587632710506,0.0072575575056767466,0.5265532732009888,-1.007526993751526,-1.159097671508789,0.4520091116428375,0.2011155188083648,0.1674993187189102
1749038918.4704323,-4.657867568393435,-1.5678615158631222,1.3442199278566542,-3.8908523076088595,4.914444338434958,5.691621527302344,0.30111539011229305,-0.04331304693006454,-0.07467074271319986,0.2524357078717502,0.041249765190184376,0.007313304245399036,0.524890124797821,-1.0401396751403809,-1.1713004112243652,0.4426989257335663,0.2085983455181121,0.1618348956108093
1749038918.4704714,-4.657266505365284,-1.5679496687400236,1.344070008820531,-3.890350764570952,4.914527432665229,5.691634789256589,0.3025561953189437,-0.0433209524716011,-0.07505126203090132,0.25387092639857023,0.04152480022608576,0.00737057023426065,0.5733575224876404,-1.0492680072784424,-1.151741862297058,0.4705746471881866,0.2041611671447754,0.186851292848587
1749038918.470509,-4.656662953764701,-1.5680380868747983,1.3439194030951094,-3.8898468929872494,4.91461136274821,5.691648204808427,0.30393320467220614,-0.043338457201706794,-0.07538305782585583,0.25517464666661666,0.04177976534386588,0.007427405725214467,0.5936520099639893,-1.0551975965499878,-1.168997883796692,0.4282726347446441,0.2095353752374649,0.1594796180725097
1749038918.4705472,-4.656056794961056,-1.5681268205123602,1.3437681484551214,-3.889340763145388,4.914695997502559,5.6916618122288005,0.3052392533468837,-0.04337779518204626,-0.07567119111578859,0.2563471521293291,0.042011729224485095,0.0074818282156821824,0.4805431067943573,-1.0036312341690063,-1.1422595977783203,0.4272964000701904,0.2188953459262848,0.1561538428068161
1749038918.470585,-4.65544795367095,-1.5682159252027843,1.3436163059484103,-3.888832410327584,4.91478118335855,5.691675635994906,0.30646834345449925,-0.04344980790353167,-0.07592034757996348,0.25739433993750926,0.04221879720009471,0.0075319329011640564,0.4813396036624908,-1.0136972665786743,-1.1506911516189575,0.4380435049533844,0.2097891271114349,0.1578340828418731
1749038918.4706228,-4.654836416531911,-1.5683054545819184,1.343463965407105,-3.8883218459175106,4.914866763626221,5.691689687635965,0.3076160633074382,-0.04356281144374895,-0.07613477565168643,0.2583265011299932,0.0423999868875187,0.007575969449308548,0.5215518474578857,-1.0570980310440063,-1.1574424505233765,0.4421128928661346,0.2216853946447372,0.1741821467876434
1749038918.4706595,-4.654222243835009,-1.5683954542181164,1.343311244753182,-3.8878090721107474,4.914952598464433,5.691703968101849,0.30867988443119654,-0.0437216975726932,-0.07631845458934232,0.2591566989747482,0.04255516119957806,0.007612376229257982,0.5330545902252197,-1.0668388605117798,-1.129021167755127,0.4878794550895691,0.2207032144069671,0.1705744713544845
1749038918.4706967,-4.653605572984566,-1.5684859574391719,1.343158282693831,-3.8872940981093507,4.915038582385107,5.691718471040224,0.3096593092528219,-0.04392736482137895,-0.07647540310547056,0.2598989937296662,0.04268502100490893,0.007639790397817668,0.5038160085678101,-1.0111123323440552,-1.1085916757583618,0.4406177997589111,0.1923140883445739,0.1665886789560318
1749038918.470734,-4.652986613683131,-1.5685769835797152,1.343005225505086,-3.8867769553428246,4.9151246559415585,5.6917331861579985,0.31055590608167644,-0.04417655188526073,-0.0766100032931883,0.26056678974401476,0.04279111011656172,0.007657068219608232,0.4843649268150329,-1.0257917642593384,-1.1296696662902832,0.4792241156101227,0.1833937317132949,0.1591219455003738
1749038918.4707708,-4.652365635981265,-1.5686685385960248,1.3428522099066,-3.886257709321426,4.915210809016715,5.691748101802629,0.3113732701906197,-0.044462088467991524,-0.07672719982631057,0.26117151986623244,0.04287575327369444,0.007663343256353495,0.5231227278709412,-1.0371267795562744,-1.0923110246658323,0.4499706029891968,0.2049561142921447,0.1600607335567474
1749038918.4708076,-4.651742952944314,-1.5687606174097766,1.342699345332285,-3.8857364662830562,4.915297074893096,5.691763206145888,0.31211691866448527,-0.04477351662604764,-0.07683245984707293,0.2617217847486397,0.0429418545113032,0.007658127293927616,0.5638081431388855,-1.028044581413269,-1.126570224761963,0.4624279141426086,0.1977048069238662,0.1757307350635528
1749038918.4708445,-4.651118899834035,-1.5688532068273888,1.3425466995966036,-3.8852133738703283,4.915383516468163,5.691778486722224,0.31279410023758863,-0.04509799278523761,-0.07693144457900548,0.26222298120399906,0.04299252622143284,0.007641436307247844,0.4784576892852783,-1.0293394327163696,-1.1226941347122192,0.4682106673717499,0.1821040213108062,0.1716159284114837
1749038918.470881,-4.65049381146556,-1.5689462877701814,1.3423942914925318,-3.884688616431747,4.9154702076802606,5.6917939283482175,0.3134134852413513,-0.045421355817901715,-0.07702942564220824,0.2626773918247382,0.04303057657357712,0.007613911621895791,0.4794822633266449,-1.0080244541168213,-1.0664429664611816,0.4567495882511139,0.1911048293113708,0.1579165756702423
1749038918.4709182,-4.64986799901093,-1.5690398360282305,1.342242092230741,-3.884162406618511,4.915557213832539,5.691809509725807,0.31398469656324546,-0.04572923615196937,-0.07713054630819312,0.26308465112780605,0.043057939325722425,0.007576904352406279,0.4727950394153595,-1.0260226726531982,-1.1216752529144287,0.4282683134078979,0.1950247436761856,0.1647041290998459
1749038918.4709558,-4.6492417274242674,-1.5691338216013788,1.3420900354036502,-3.8836349752296093,4.915644574078897,5.691825199481669,0.31451766524211117,-0.046008090948201415,-0.07723706601616814,0.26344244589499866,0.043075179625341374,0.007532496558967501,0.5306660532951355,-0.9979462623596193,-1.1054890155792236,0.44414222240448,0.2158594280481338,0.1500393599271774
1749038918.4709926,-4.6486151950437655,-1.5692282073777746,1.3419380331206885,-3.8831065607230557,4.915732288385893,5.691840952859059,0.3150218431378023,-0.046246081443517384,-0.07734874068028483,0.26374726782165764,0.04308123649005785,0.007483446884305136,0.5169683694839478,-1.0080159902572632,-1.1203855276107788,0.4334354102611542,0.2189075946807861,0.1921062022447586
1749038918.4713764,-4.647988517423709,-1.5693229480042479,1.3417859947546398,-3.882577398983929,4.915820310376213,5.6918567104090085,0.315505351675523,-0.04643374728939814,-0.07746248247249939,0.26399504811341656,0.04307354053794012,0.007433070379922421,0.4487430453300476,-1.003956317901611,-1.086368203163147,0.4264528155326843,0.2132058441638946,0.154490664601326
1749038918.473314,-4.647361717603542,-1.5694179893996136,1.341633844622768,-3.882047713468399,4.915908546836396,5.691872399665629,0.3159741677346406,-0.046564464947213266,-0.0775723997018981,0.2641815854650474,0.04304856329511968,0.0073850786097805895,0.4943570792675018,-1.0005329847335815,-1.097341537475586,0.4209010601043701,0.2094242125749588,0.1520243883132934
1749038918.5142806,-4.646734724670852,-1.569513268939763,1.341481535695348,-3.881517706014645,4.915996864207856,5.691887940040424,0.3164314500003012,-0.04663469905855719,-0.07767024308114068,0.2643028110828608,0.04300273563188781,0.007343400922560729,0.5331859588623047,-0.9982642531394958,-1.0842251777648926,0.4617502987384796,0.2055340707302093,0.1621086597442627
1749038918.5143278,-4.646107381640097,-1.569608716315877,1.3413290575757095,-3.8809875491887937,4.91608510183168,5.691903250312058,0.31687709944149783,-0.04664406941194503,-0.0777462057756308,0.26435505654419605,0.042933563160356,0.0073119827424353405,0.5142063498497009,-1.005385398864746,-1.0891696214675903,0.4764661192893982,0.2003698050975799,0.1470096111297607
1749038918.5143688,-4.645479462410908,-1.5697042553552532,1.3411764381479199,-3.880457381462489,4.916173090953996,5.6919182574907845,0.3173076213530259,-0.04659526206423976,-0.0777899678552413,0.2643355234167368,0.04284070624238508,0.007294534973272866,0.4900558590888977,-0.9949107766151428,-1.081267476081848,0.4653528928756714,0.2000767141580581,0.1598304510116577
1749038918.514408,-4.64485069612178,-1.5697998072203028,1.3410237394018474,-3.879927306369349,4.916260677540013,5.691932905721156,0.31771632011233375,-0.04649381027324752,-0.07779184909961277,0.2642430489720267,0.04272679761373116,0.007294214088071054,0.5197160840034485,-0.9803945422172546,-1.0907117128372192,0.4294196665287018,0.2073726952075958,0.1634308397769928
1749038918.514446,-4.64422079601441,-1.5698952949950982,1.3408710490288471,-3.8793973960774624,4.916347745979227,5.691947164082751,0.31809383170508765,-0.04634776347409131,-0.0777439317464375,0.26407905303400625,0.04259782797846193,0.007313247853492122,0.5375741720199585,-0.9944781064987184,-1.0627373456954956,0.3896785676479339,0.2012674361467361,0.1698454916477203
1749038918.5144842,-4.643589489374817,-1.5699906488941304,1.340718470142258,-3.8788676988679995,4.916434240161613,5.6919610323116165,0.31842897643339807,-0.04616726193885248,-0.077641031523659,0.2638483477320424,0.042463007680735756,0.007352566114762854,0.5002648234367371,-1.0226706266403198,-1.0829206705093384,0.3796592950820923,0.2048462331295013,0.1683722138404846
1749038918.514528,-4.642956545320942,-1.5700858108059197,1.3405661114782461,-3.878338249126842,4.916520178495557,5.691974543550691,0.31870986358082026,-0.04596404595043115,-0.07748142885148503,0.2635594176192163,0.04233408604526232,0.007411522458982416,0.4562734365463257,-1.0256264209747314,-1.0713821649551392,0.3635590970516205,0.1971345841884613,0.172189325094223
1749038918.5145664,-4.642321797919823,-1.5701807371114889,1.3404140795864814,-3.877809077843385,4.916605660248518,5.691987763520315,0.3189251081833823,-0.045750935495064926,-0.07726731160616662,0.2632238993048925,0.04222417847682695,0.007487786284616407,0.4661368131637573,-1.0188583135604858,-1.0876667499542236,0.402879923582077,0.2057903856039047,0.174060046672821
1749038918.5146036,-4.641685162933764,-1.5702753995606238,1.3402624732963524,-3.877280221426193,4.916690861874793,5.692000786116652,0.31906498394490795,-0.04554129765780725,-0.07700490973076655,0.2628552784310704,0.042146227241732746,0.0075774493763928665,0.5413737893104553,-1.0039070844650269,-1.0866628885269165,0.4263055920600891,0.2244367152452469,0.1601951718330383
1749038918.5146403,-4.641046647130703,-1.570369784792561,1.3401113797952615,-3.8767517269681333,4.916776023407406,5.692013726141041,0.3191223659868742,-0.045348480141917745,-0.07670431584212661,0.26246714725353887,0.042111302953023705,0.007675341728209211,0.4726457595825195,-1.0036345720291138,-1.0743656158447266,0.4773068428039551,0.2398391515016555,0.1738582849502563
1749038918.514677,-4.640406349628736,-1.5704638932776622,1.3399608713160966,-3.8762236529404897,4.916861426244772,5.69202671023294,0.3190933762221381,-0.04518516829520457,-0.07637899335290059,0.26207155699852297,0.04212701230270772,0.007775506332124262,0.4422506093978882,-1.0152692794799805,-1.0963187217712402,0.4481009840965271,0.2312383949756622,0.1646266877651214
1749038918.5147135,-4.639764455499943,-1.5705577380427838,1.339811001651257,-3.875696065558465,4.9169473646930575,5.692039866982852,0.31897769072934795,-0.04506264814290197,-0.07604498426711036,0.26167795201332084,0.04219627934693323,0.007871756330281665,0.4654181897640228,-1.017760157585144,-1.0853548049926758,0.3911851644515991,0.2235400825738906,0.158124640583992
1749038918.51475,-4.6391212229414895,-1.5706513429957232,1.339661802283613,-3.875169032323145,4.917034114519339,5.6920533169190834,0.31877850991496903,-0.044990015081461034,-0.07571985075907671,0.26129291817230293,0.042316702626649466,0.007958235241605839,0.4892902374267578,-1.0352258682250977,-1.0853081941604614,0.4012320935726166,0.2150139510631561,0.1586007624864578
1749038918.5147862,-4.638476966360488,-1.5707447403893267,1.3395132785947719,-3.8746426149362536,4.917121902388138,5.692067162983804,0.3185022456137033,-0.04497341884684718,-0.07542142029531539,0.2609206530261372,0.04248058283201093,0.008029915858540385,0.4569140970706939,-1.0378249883651731,-1.1084861755371094,0.3795930743217468,0.2369044870138168,0.1437973380088806
1749038918.514824,-4.637832038093323,-1.5708379671086745,1.3393654070630077,-3.874116863648095,4.917210879968425,5.692081482267121,0.31815802117837033,-0.045015457841614356,-0.07516644383920183,0.26056382574038683,0.04267560418720441,0.008082993733758087,0.4047515988349914,-1.0336084365844729,-1.1101773977279663,0.37710040807724,0.2278612703084945,0.1666319221258163
1749038918.514861,-4.637186810907166,-1.570931060005905,1.3392181343377503,-3.873591814336895,4.917301105567826,5.692096319819018,0.3177570797700289,-0.04511483120509714,-0.07496930452311938,0.26022443117164334,0.042886060887259804,0.008115147303272105,0.473791629076004,-1.0550651550292969,-1.139432072639465,0.4118149578571319,0.2202569842338562,0.1610211282968521
1749038918.5148983,-4.636541662329855,-1.5710240511935365,1.3390713785834607,-3.873067488636523,4.917392534876208,5.69211168508556,0.31731216469260637,-0.04526633028028008,-0.07484091926442514,0.25990434469231666,0.043094448834699414,0.008125647161009672,0.4862827956676483,-1.0479624271392822,-1.1349914073944092,0.3937248289585113,0.1875120252370834,0.1505696922540664
1749038918.5149355,-4.635896960922184,-1.5711169645628533,1.3389250328254687,-3.8725438966022776,4.917485021369935,5.692127551039272,0.3168369075487035,-0.04546120323621544,-0.07478795769973245,0.25960547107797954,0.04328319232015507,0.008115307675876024,0.4551166594028473,-1.0286043882369995,-1.1399803161621094,0.4095862507820129,0.1983604729175567,0.1572019308805465
1749038918.5149732,-4.635253054177071,-1.571209814522889,1.3387789695633234,-3.872021040924278,4.917578326145306,5.6921438556525095,0.31634524160701066,-0.045687864201349425,-0.07481246793077391,0.2593295591017472,0.04343626212426844,0.008086291723531504,0.4241804480552673,-1.0278595685958862,-1.1214871406555176,0.408895879983902,0.198478877544403,0.1755248606204986
1749038918.51501,-4.634610257824912,-1.5713026072680198,1.33863304583061,-3.8714989215518485,4.917672136065386,5.692160505199442,0.31585083861096763,-0.04593285958525924,-0.07491195377444844,0.2590778662757148,0.04354048544915503,0.008041803247043245,0.4560308456420898,-1.0153361558914185,-1.1606497764587402,0.4137388169765472,0.2035750746726989,0.1747715771198272
1749038918.5153573,-4.63396884686478,-1.5713953442409079,1.3384871081511445,-3.8709775396861463,4.917766088105347,5.692177379037955,0.31536655905096417,-0.04618196868349781,-0.07507989693346699,0.258850888176997,0.04358643985917075,0.00798572270177839,0.5161687731742859,-1.0232577323913574,-1.155720353126526,0.4166502654552459,0.2045989632606506,0.1618264317512512
