nimar13/UR3e_dataset_trayectorias/trayectorias_ejecutadas_filtradas/quintic/trayectoria_294_result_filtrado.csv
timestamp,q1,q2,q3,q4,q5,q6,qd1,qd2,qd3,qd4,qd5,qd6,tau1,tau2,tau3,tau4,tau5,tau6
1749039236.8671095,0.5095133730160182,-1.5834376835718063,1.0142830380966543,0.1742003624494464,5.958920166839066,5.2640588726991595,0.01168853822708,-0.002883528063875588,0.005988040239470175,0.000541273762455513,0.0004045531222994792,0.000532593568894073,0.1871647089719772,-0.8009846210479736,-0.7022160291671753,0.08247572183609,0.3887320160865783,0.1577069461345672
1749039236.8671567,0.5095315219108296,-1.5834425834393857,1.0142851617515378,0.17420117152996736,5.958925137335041,5.264057182166074,0.009544871153750578,-0.002365081276976432,0.004868910821744063,0.0005317793298712627,0.000381572742778153,0.0005152065266010509,0.1871647089719772,-0.8009846210479736,-0.7022160291671753,0.08247572183609,0.3887320160865783,0.1577069461345672
1749039236.8671973,0.509548805706082,-1.5834471756798465,1.0142871698211484,0.17420182031416206,5.958930045470166,5.264055592065149,0.007428284105008788,-0.001849879379356082,0.0037761727325622573,0.0005239502682059439,0.00035908900747127397,0.0004972319720505907,0.1122248917818069,-0.7970876693725586,-0.6910548210144043,0.0781270638108253,0.3665947318077087,0.1479793936014175
1749039236.8672357,0.5095641723946778,-1.5834510719629455,1.01428894326712,0.17420216951048295,5.958934778057951,5.264054222332838,0.005372829083114662,-0.001343251357382173,0.002735909115275555,0.0005169201781491729,0.00033740623536421147,0.00047891483962954833,0.1173983961343765,-0.7717664241790771,-0.7281655073165894,0.065372534096241,0.3601734042167663,0.1496842801570892
1749039236.8672795,0.5095767048309405,-1.5834539246317894,1.0142903658000526,0.17420210503637354,5.9589392397441125,5.264053181966906,0.0034110508740402643,-0.000849693521865177,0.0017708722681540042,0.0005095538101801281,0.00031678390270046554,0.00046059565327626295,0.1173983961343765,-0.7717664241790771,-0.7281655073165894,0.065372534096241,0.3601734042167663,0.1496842801570892
1749039236.867331,0.5095856875098985,-1.583455447117298,1.0142913286124011,0.17420154799971055,5.958943362753659,5.264052561906706,0.0015729615137634514,-0.0003727786454565176,0.0008992745507058969,0.0005004943055925889,0.00029742416662985403,0.00044272950625671835,0.0914751514792442,-0.7285562753677368,-0.7307295799255371,0.0730869024991989,0.3686516880989074,0.1646042168140411
1749039236.8673706,0.5095906521260265,-1.5834554285551212,1.01429173767429,0.17420046134671413,5.958947110058499,5.264052429363674,-0.00011495104699188581,8.466401493404944e-05,0.0001340522513038316,0.000488242612168683,0.0002794634329418458,0.00042589230414322334,0.1070126220583915,-0.7316769361495972,-0.7491092681884766,0.0874375998973846,0.3566980957984924,0.1250236332416534
1749039236.8674142,0.5095913980111287,-1.5834537421932917,1.0142915227831901,0.17419885259006207,5.958950472672819,5.264052823770443,-0.0016306257633847843,0.0005201525943102663,-0.0005173925158627685,0.0004712713559088553,0.00026296855204669474,0.00041077164307729924,0.0659682899713516,-0.7020773887634277,-0.769841194152832,0.0807456448674202,0.3629999756813049,0.1376913785934448
1749039236.8674538,0.5095879867879577,-1.5834503482467737,1.0142906467519444,0.17419677256967464,5.9589534628830485,5.264053754274428,-0.0029571632616418363,0.000931056235803618,-0.0010530307734562775,0.00044817285889424397,0.0002479378001911324,0.0003981418635521205,0.0702868402004242,-0.676741361618042,-0.7830930948257446,0.0813052505254745,0.3609488606452942,0.1316813826560974
1749039236.867491,0.5095807140469903,-1.5834452923406128,1.0142891126507594,0.1741943105812828,5.958956105657142,5.264055198788413,-0.004083295933498715,0.0013141407651988102,-0.0014757096061411763,0.0004178373942739697,0.00023430659047171912,0.00038882467987941635,0.0702868402004242,-0.676741361618042,-0.7830930948257446,0.0813052505254745,0.3609488606452942,0.1316813826560974
1749039236.867528,0.5095700639388754,-1.5834387005479602,1.0142869672080481,0.17419158641834367,5.958958430519875,5.264057104907438,-0.005003520133131078,0.001665286380573409,-0.0017924000333039906,0.0003796530698842725,0.00022195769722892057,0.0003836378012854852,0.0257882997393608,-0.6824579238891602,-0.8016181588172913,0.0905613079667091,0.3331509232521057,0.1428097486495971
1749039236.867565,0.5095566544625526,-1.5834307715678921,1.0142842994401557,0.17418874007772245,5.958960465944032,5.264059393069091,-0.005717891045527812,0.0019794609480969384,-0.0020132673741953032,0.0003337132071682065,0.0002107354975423779,0.00038333425165450717,0.0257882997393608,-0.6824579238891602,-0.8016181588172913,0.0905613079667091,0.3331509232521057,0.1428097486495971
1749039236.8676016,0.5095411813102897,-1.5834217660762797,1.0142812348795718,0.17418592014632023,5.958962237628017,5.264061961953873,-0.006231567764642655,0.002250967212761648,-0.002150649406311778,0.000281011480409223,0.00020046333257467053,0.0003885352979510183,0.0685541555285453,-0.6632247567176819,-0.8119217157363892,0.080241858959198,0.3470883965492248,0.1513112485408783
1749039236.8676383,0.509524366464016,-1.5834119929743484,1.0142779266019053,0.17418327208687465,5.9589637707587535,5.264064695623221,-0.006554238779294227,0.002473921335029133,-0.002218038440473722,0.0002236004615946214,0.00019096269136336421,0.0003996605519406834,0.0809312388300895,-0.658187210559845,-0.8329957723617554,0.0900292918086052,0.352195680141449,0.1594079136848449
1749039236.8676765,0.5095069150422917,-1.583401792434427,1.0142745441537375,0.1741809276457604,5.958965094843343,5.26406747172408,-0.006699529798889096,0.0026428815904679707,-0.0022291614388265427,0.00016468667821370686,0.00018207264205812287,0.0004168599168508419,0.0809312388300895,-0.658187210559845,-0.8329957723617554,0.0900292918086052,0.352195680141449,0.1594079136848449
1749039236.8677144,0.5094894812163093,-1.5833915163632817,1.0142712608136588,0.17417899642953777,5.958966248747448,5.264070170247726,-0.006684424202633885,0.002753531619379431,-0.0021972303417149962,0.00010863574597593428,0.00017366781950496857,0.00043995311524046716,0.0600571930408477,-0.6596360206604004,-0.8388830423355103,0.1043263003230094,0.3385394811630249,0.1408688426017761
1749039236.867752,0.5094726423313598,-1.5833815078183229,1.0142682392107547,0.17417756041714516,5.958967283740341,5.264072682458071,-0.00652866595659533,0.0028033234197959596,-0.0021343983813778304,6.086514163414784e-05,0.0001656732912340885,0.0004683829863962735,0.0573436170816421,-0.6715105772018433,-0.8422913551330566,0.1008102521300315,0.3423086404800415,0.1414443850517273
1749039236.8677893,0.5094568801261212,-1.5833720814968006,1.0142656156448329,0.1741766718272935,5.958968263366345,5.26407491949476,-0.006254099466919228,0.0027919938829597635,-0.002051419880671793,2.760978477382757e-05,0.00015807473844917086,0.0005011884631657882,0.0573436170816421,-0.6715105772018433,-0.8422913551330566,0.1008102521300315,0.3423086404800415,0.1414443850517273
1749039236.8678262,0.509442568646016,-1.5833635073876586,1.014263484273066,0.17417635436813442,5.958969260087369,5.264076819962635,-0.005883924128502093,0.0027218836127446307,-0.0019574832995479493,1.5556304530589464e-05,0.00015092260999969662,0.0005370025822923671,0.0670399889349937,-0.6900337934494019,-0.8462473750114441,0.1174829453229904,0.3501541018486023,0.1595655083656311
1749039236.867863,0.5094299690243572,-1.5833559990924726,1.014261883203347,0.17417660749118002,5.958970349237789,5.264078355788491,-0.005441876971158948,0.002598009446914503,-0.0018601762647627175,3.1354923847533384e-05,0.00014432923451154477,0.000574080426522152,0.0670399889349937,-0.6900337934494019,-0.8462473750114441,0.1174829453229904,0.3501541018486023,0.1595655083656311
1749039236.868047,0.5094192310612317,-1.5833497074283391,1.0142607851368814,0.1741774128725284,5.958971600929178,5.264079535742331,-0.0049513857830739225,0.002427872684981256,-0.0017655434827876177,8.103272766260264e-05,0.00013845829552057619,0.0006103610891991517,0.0490145906805992,-0.6562995314598083,-0.8672232031822205,0.1079821363091468,0.3412930965423584,0.171308696269989
1749039236.869892,0.5094104007049858,-1.58334471899994,1.0142600951700513,0.17417874196790226,5.9589730707954525,5.264080406051837,-0.004434751847982115,0.002221020758467709,-0.0016782039441539198,0.0001693481880481495,0.00013350659077018964,0.0006435655821683872,0.0485464707016944,-0.6659818291664124,-0.8541231155395508,0.1235604509711265,0.3624189496040344,0.1428894102573394
1749039236.910283,0.5094034318930192,-1.5833410587527115,1.0142596574406086,0.17418056320388642,5.958974791202056,5.264081047480124,-0.003912424611499414,0.0019884144624518004,-0.0016014956687858694,0.0002991430584833366,0.00012967861633786382,0.0006713287459718365,0.0485464707016944,-0.6659818291664124,-0.8541231155395508,0.1235604509711265,0.3624189496040344,0.1428894102573394
1749039236.9103296,0.5093982011778523,-1.5833386953106072,1.0142592707090021,0.17418284733759742,5.958976765081533,5.264081568452101,-0.003402417266172398,0.0017416767154486731,-0.001537616344277623,0.00047076191764008825,0.00012715521842078547,0.0006913587617505276,0.0654263645410537,-0.6848029494285583,-0.8619415760040283,0.1326643377542495,0.3484178781509399,0.1452670991420745
1749039236.91037,0.5093945239364754,-1.5833375481370315,1.0142587112605577,0.17418556991249703,5.958978964073326,5.264082094539514,-0.0029198833219442563,0.0014923060518585041,-0.0014877339562257088,0.0006816186882520381,0.00012605831182777998,0.000701614467635124,0.0490259453654289,-0.6661335825920105,-0.8688250780105591,0.1295297592878341,0.3390716910362243,0.1473118662834167
1749039236.9104097,0.5093921713181745,-1.583337495941926,1.0142577601522675,0.17418871053099688,5.958981331265,5.264082755538693,-0.002476841423721872,0.0012509308843500005,-0.0014520569455909861,0.0009259898952765948,0.00012641446039758777,0.0007004889931893481,0.0326360985636711,-0.6773895621299744,-0.8580710887908936,0.1220764592289924,0.35423743724823,0.1383538246154785
1749039236.9104478,0.5093908872935234,-1.5833383859832908,1.0142562310599414,0.17419224952635223,5.958983787398718,5.264083671964295,-0.0020820165141083088,0.0010266663394967858,-0.0014298743478418096,0.001195102932958766,0.00012812091447954383,0.0006869874970553911,0.0460607931017875,-0.6716512441635132,-0.8810218572616577,0.1441392004489898,0.3557165861129761,0.1618147045373916
1749039236.9104855,0.5093904052462215,-1.5833400438902097,1.0142539949088099,0.17419616315566466,5.95898623854921,5.264084942819299,-0.0017407691279754728,0.0008266196149580936,-0.0014195933856218624,0.0014775619896077701,0.0001309183946705102,0.0006608860909880737,0.0460607931017875,-0.6716512441635132,-0.8810218572616577,0.1441392004489898,0.3557165861129761,0.1618147045373916
1749039236.9105232,0.5093904634787261,-1.5833422834908841,1.0142509979626884,0.17420041857196913,5.958988583182046,5.264086636078423,-0.0014551045114126224,0.0006555735139889225,-0.001418807631385878,0.0017601143982679576,0.0001343753299436906,0.0006228583844805387,0.0697996839880943,-0.6864877343177795,-0.8840645551681519,0.1372499614953994,0.3425802588462829,0.1555408835411071
1749039236.910561,0.5093908188635882,-1.5833449160864754,1.0142472708292176,0.17420496981665526,5.958990717226384,5.264088782556339,-0.0012237736582666181,0.0005158604127777535,-0.001424421898598652,0.0020287092469891813,0.00013788823851506717,0.0005745561783539355,0.0697996839880943,-0.6864877343177795,-0.8840645551681519,0.1372499614953994,0.3425802588462829,0.1555408835411071
1749039236.9105985,0.5093912578626759,-1.5833477588127784,1.0142429268466828,0.17420975606925412,5.958992537211981,5.264091372934331,-0.001042487775745793,0.000407421009795982,-0.0014328445090465794,0.0022697468929319302,0.00014070237051499735,0.0005186317896580001,0.0332557335495948,-0.6939147114753723,-0.8756262063980103,0.1167084649205207,0.3577035069465637,0.1421677619218826
1749039236.910635,0.5093916043905665,-1.5833506420515586,1.0142381497539101,0.17421470321222376,5.958993942981272,5.264094357164376,-0.0009042651695560828,0.00032802651296251993,-0.0014402395612400274,0.0024713765836480136,0.00014195555696846094,0.0004586904982290517,0.0425931587815284,-0.6902645230293274,-0.8712579011917114,0.0962890461087226,0.3581286072731018,0.1353610754013061
1749039236.910672,0.5093917245444417,-1.5833534160116052,1.0142331723908422,0.17421972916228498,5.95899484208452,5.264097645673457,-0.0007999198744198765,0.0002736321976116777,-0.0014428170104644313,0.0026246828355005578,0.00014074641270827906,0.0003991621399193806,0.0425931587815284,-0.6902645230293274,-0.8712579011917114,0.0962890461087226,0.3581286072731018,0.1353610754013061
1749039236.910709,0.5093915288971453,-1.5833559564981925,1.0142282498421467,0.17422475246819932,5.958995157199224,5.264101112558975,-0.0007186884329721775,0.00023882511658268076,-0.0014371306365580166,0.002724615447251703,0.00013622564695336847,0.00034508167848353147,0.025684967637062,-0.6960185170173645,-0.8688530325889587,0.1125521808862686,0.360628604888916,0.1393089592456817
1749039236.910746,0.5093909733977546,-1.583358169675085,1.0142236311792237,0.17422970274770042,5.958994836107218,5.264104601541103,-0.0006489768581078416,0.00021732782862498128,-0.0014203536686677066,0.0027705598664270826,0.00012770634130598188,0.00030177111195268594,0.025684967637062,-0.6960185170173645,-0.8688530325889587,0.1125521808862686,0.360628604888916,0.1393089592456817
1749039236.910783,0.5093900595554535,-1.5833599954381916,1.0142195336237834,0.17423453099335937,5.9589938619792315,5.264107935273398,-0.0005791953986833409,0.0002025216279671235,-0.001390505875539264,0.002766502765576024,0.00011478585141517296,0.0002744204105559232,0.0359277948737144,-0.7052003741264343,-0.8688602447509766,0.1042952463030815,0.3721176981925964,0.144503116607666
1749039236.9108202,0.5093888336698735,-1.5833614088777097,1.0142161220538606,0.17423921780174556,5.958992261069016,5.264110927940613,-0.0004986355637369437,0.0001879557242661227,-0.0013466108991817072,0.002720806847103986,9.746875197389875e-05,0.00026757378669415476,0.0312531441450119,-0.7109034061431885,-0.8527368307113647,0.1141725033521652,0.3735814690589905,0.1324388086795807
1749039236.9108772,0.5093873840398659,-1.5833624192305082,1.014213495815716,0.1742437781323955,5.9589901055865955,5.264113400487666,-0.0003983327059673746,0.00016781247885392525,-0.0012887678126951038,0.002645657317330579,7.627731874295238e-05,0.0002845393303298597,0.0312531441450119,-0.7109034061431885,-0.8527368307113647,0.1141725033521652,0.3735814690589905,0.1324388086795807
1749039236.910916,0.5093858349315498,-1.5833630658635278,1.0142116838465467,0.1742482620204748,5.958987510726639,5.264115197465867,-0.00027184888819937304,0.00013730283112763002,-0.0012181282692987655,0.0025562756562978817,5.2333820840681696e-05,0.00032675415596797064,0.0597349181771278,-0.724077045917511,-0.856715977191925,0.1315884292125702,0.3580214381217956,0.1388689428567886
1749039236.9109523,0.509384336844039,-1.583363411310396,1.0142106479789574,0.1742527514286526,5.958984625970559,5.2641162039619545,-0.00011590559444143982,9.29703008639934e-05,-0.0011367818875726021,0.0024700136530952633,2.739779708282587e-05,0.00039315229905704396,0.0597349181771278,-0.724077045917511,-0.856715977191925,0.1315884292125702,0.3580214381217956,0.1388689428567886
1749039236.9110007,0.5093830538543279,-1.5833635321156787,1.0142102930586683,0.17425735401428427,5.958981621944804,5.264116360210306,6.920490317108902e-05,3.288626665470487e-05,-0.00104756601312471,0.002405440700176791,3.841898023901157e-06,0.0004795967708777073,0.0505643263459205,-0.7404190897941589,-0.8450363278388977,0.1103270649909973,0.3788236975669861,0.1273732930421829
1749039236.9110408,0.5093821495982,-1.5833635089380358,1.014210481522341,0.17426219511860816,5.958978675295641,5.26411567076227,0.00027949580937919663,-4.3276425415555495e-05,-0.0009538268732452881,0.00238151752000064,-1.544789783699751e-05,0.0005784482472769504,0.0681395828723907,-0.746200680732727,-0.8506737947463989,0.1380209326744079,0.3909237384796142,0.1369814574718475
1749039236.9113855,0.509381773212179,-1.5833634177252538,1.0142110496524595,0.17426740977183014,5.958975954645527,5.264114205204333,0.0005075032589713434,-0.00013429937736861742,-0.000859163483704341,0.002416910697475381,-2.7257636019636826e-05,0.000678348386681379,0.0681395828723907,-0.746200680732727,-0.8506737947463989,0.1380209326744079,0.3909237384796142,0.1369814574718475
1749039236.9133768,0.5093820459237405,-1.5833633235865896,1.0142118228898211,0.17427313666185856,5.95897361018617,5.264112088681525,0.0007428745466602405,-0.00023760448395130558,-0.0007671832578258884,0.0025294520771387352,-2.831992421250334e-05,0.0007642930224634724,0.1126496419310569,-0.8023927807807922,-0.8547524809837341,0.1438275426626205,0.4000465273857116,0.1243882924318313
1749039236.9542856,0.5093830489725006,-1.583363278189951,1.0142126282508972,0.17427951551173276,5.958971768010088,5.264109482671036,0.0009733179121183031,-0.00034955871239350815,-0.0006812911128722067,0.0027356972030251107,-1.5673020022574938e-05,0.0008180568894675595,0.134492814540863,-0.833996593952179,-0.8655315041542053,0.1485701501369476,0.3980419635772705,0.13088059425354
1749039236.9543364,0.5093848143333124,-1.5833633203541517,1.014213302962397,0.17428668822357224,5.958970528597953,5.2641065588704,0.0011858490004406437,-0.00046587135396543625,-0.0006045241901795883,0.0030505003921299885,1.2909991488461667e-05,0.0008190056963715399,0.134492814540863,-0.833996593952179,-0.8655315041542053,0.1485701501369476,0.3980419635772705,0.13088059425354
1749039236.954378,0.5093873203681136,-1.5833634785538058,1.0142136997021658,0.1742948029674063,5.958969967612248,5.26410347071281,0.0013681989489841768,-0.0005820395646414417,-0.0005394343939368688,0.003486512123615703,5.844718121179006e-05,0.0007452937084600438,0.1045187637209892,-0.8203067779541016,-0.8744049668312073,0.1428718417882919,0.4360175132751465,0.0958293974399566
1749039236.9544172,0.5093904941109344,-1.5833637737816708,1.0142136899688319,0.17430401962545972,5.958970136615011,5.264100327220503,0.0015101779393545808,-0.000693782000679817,-0.00048801300744979076,0.004053522957747321,0.00012026501756350866,0.0005753979788839886,0.1045187637209892,-0.8203067779541016,-0.8744049668312073,0.1428718417882919,0.4360175132751465,0.0958293974399566
1749039236.954455,0.5093942203585189,-1.5833642215848103,1.0142131675755464,0.17431451477208246,5.958971061594393,5.264097172874554,0.001604748552777701,-0.0007973934497810083,-0.0004516469955550905,0.004757623898456788,0.00019555259950998312,0.0002898881408568869,0.1211276873946189,-0.8239363431930542,-0.8724639415740967,0.1353221237659454,0.4175588488578796,0.1169892475008964
1749039236.9544966,0.5093983558683067,-1.5833648326759622,1.0142120536631865,0.1743264844268216,5.958972738086889,5.26409397571557,0.0016485948781444055,-0.000889964664004983,-0.0004310954575548747,0.005600215751751162,0.00027900551197703903,-0.0001267208505121914,0.1176995560526847,-0.8370779752731323,-0.868598997592926,0.1450791358947754,0.4266213774681091,0.0884298309683799
1749039236.9545355,0.509402745631458,-1.5833656119972785,1.0142103031747538,0.17434014290691452,5.958975122841344,5.264090624578412,0.0016420837315522384,-0.0009694432848348449,-0.00042647656816529445,0.006576965940670232,0.00036261447183950457,-0.0006842288561138068,0.1176995560526847,-0.8370779752731323,-0.868598997592926,0.1450791358947754,0.4266213774681091,0.0884298309683799
1749039236.9545734,0.5094072378467458,-1.5833665564913801,1.0142079113516296,0.17435571633990646,5.958978123085833,5.2640869352679704,0.0015886578305789336,-0.0010345528145330964,-0.00043725953452077325,0.007676864732270156,0.00043565053497413166,-0.0013853453164190729,0.1235644146800041,-0.8391022086143494,-0.8665153980255127,0.1336316019296646,0.4041427373886108,0.0756735354661941
1749039236.9546113,0.5094116947730921,-1.5833676522115085,1.0142049183209443,0.1743734301731779,5.958981585541628,5.264082664452875,0.001493812751468021,-0.001084619929904131,-0.0004622617767888892,0.008881560152747502,0.0004848879701565381,-0.002224839500474785,0.1235644146800041,-0.8391022086143494,-0.8665153980255127,0.1336316019296646,0.4041427373886108,0.0756735354661941
1749039236.954652,0.5094159976894296,-1.5833688717145629,1.014201410224875,0.17439349140663535,5.958985288363265,5.2640775290812885,0.0013638585843324985,-0.0011193754424264344,-0.0004996574848772854,0.010165147049925646,0.0004950872474682247,-0.00318943116559111,0.1006355211138725,-0.8726702928543091,-0.8751851320266724,0.1350835859775543,0.4059248566627502,0.0358952432870864
1749039236.9546926,0.5094200454540745,-1.5833701727981029,1.0141975160681862,0.17441606768444454,5.958988939661672,5.264071228398715,0.0012046642975345329,-0.0011387903188112647,-0.0005470082959508541,0.011494555416113977,0.00044973420239326775,-0.004258532333048543,0.1290903389453888,-0.8374354243278503,-0.8823615908622742,0.1372077614068985,0.3840156197547912,0.0170879140496253
1749039236.95473,0.5094237475210291,-1.5833714995442125,1.0141934001972266,0.17444126608415408,5.9589921855123364,5.264063465435577,0.0010205527228568621,-0.0011429896769463985,-0.0006013286637972908,0.012830632550946358,0.00033199877308907346,-0.00540584605196611,0.1290903389453888,-0.8374354243278503,-0.8823615908622742,0.1372077614068985,0.3840156197547912,0.0170879140496253
1749039236.9547668,0.5094270135771046,-1.5833727863281115,1.01418925100843,0.1744691142911631,5.958994628301009,5.264053965302086,0.0008134726398535804,-0.0011322595344404288,-0.0006591969455975754,0.014129946163805598,0.0001258404714408708,-0.006601712260277628,0.109860323369503,-0.8349008560180664,-0.8718293905258179,0.1421323418617248,0.3239762187004089,-0.0131613686680793
1749039236.9548078,0.5094297429401367,-1.583373964853354,1.014185267015229,0.17449954628338651,5.958995853616831,5.2640424886686015,0.0005825273110015633,-0.0011071297832623472,-0.0007169184704687765,0.015347255484825238,-0.00018284800030096278,-0.00781598581485698,0.1134402975440025,-0.8483426570892334,-0.8790370225906372,0.1366966366767883,0.3078735172748565,-0.0176196955144405
1749039236.954865,0.5094318171839508,-1.5833749734193212,1.01418164168403,0.17453239422848824,5.958995461603899,5.264028839957657,0.00032388940058242026,-0.0010684920277622913,-0.0007707393937802178,0.016438515175563072,-0.0006051972933174444,-0.009021151581681482,0.1134402975440025,-0.8483426570892334,-0.8790370225906372,0.1366966366767883,0.3078735172748565,-0.0176196955144405
1749039236.9549043,0.5094330987484506,-1.5833757668702115,1.01417854855457,0.17456738829049057,5.95899309749474,5.2640128705129365,3.108613863609953e-05,-0.0010177021122747144,-0.0008171006698475114,0.017364205284902755,-0.0011485730112938237,-0.010195334819834985,0.0783538296818733,-0.8183257579803467,-0.8740476965904236,0.1531772315502166,0.2776418924331665,-0.0056691542267799
1749039236.9549458,0.5094334363756142,-1.583376325391243,1.0141761281288726,0.1746041661874342,5.958988476398164,5.263994477284563,-0.0003043975809619026,-0.0009566267240038682,-0.0008529111603574738,0.018092724942915545,-0.001816192062676468,-0.01132485629497585,0.0533324182033538,-0.852593183517456,-0.8629550933837891,0.1513721793889999,0.2357785701751709,-0.0157898943871259
1749039236.9549842,0.5094326757057146,-1.5833766604724675,1.0141744777354988,0.17464229387779978,5.9589813990342355,5.263973597805515,-0.0006922723053711945,-0.000887614145783993,-0.0008758102191798875,0.018603542837369716,-0.0026072564711406543,-0.012406008448016868,0.0480753704905509,-0.8186061382293701,-0.8720337152481079,0.1490457355976104,0.2059593796730041,-0.0046845581382513
1749039236.9550223,0.5094306716349696,-1.5833768166886364,1.0141736450565235,0.17468129709306923,5.958971756991186,5.263950202647519,-0.0011424347659089581,-0.0008133903639252988,-0.0008843867788976169,0.018889765338883847,-0.003517639662105553,-0.013445793208421286,0.0303127393126487,-0.8145351409912109,-0.8709702491760254,0.129378467798233,0.157296746969223,-0.0264861918985843
1749039236.95506,0.509427299014685,-1.5833768683836729,1.0141736254807008,0.1747207009037343,5.958959527327635,5.263924286697234,-0.0016638758608433742,-0.0007368963222690214,-0.0008783263724054391,0.018959785819376795,-0.004541044038228468,-0.014461476408280603,0.0303127393126487,-0.8145351409912109,-0.8709702491760254,0.129378467798233,0.157296746969223,-0.0264861918985843
1749039236.955346,0.5094224595893208,-1.5833769110225013,1.0141743631280702,0.1747600722806233,5.9589447570749465,5.263895859986371,-0.0022635842248618903,-0.0006610884336467323,-0.0008584679833678686,0.018837744157778037,-0.0056704216619906786,-0.015478979757604002,0.0111318193376064,-0.7939516305923462,-0.869513988494873,0.1115214452147483,0.1313360929489135,-0.0689155906438827
1749039236.9573298,0.5094160846055656,-1.583377047876576,1.014175755252595,0.1747990598320889,5.958927539181928,5.263864937708962,-0.0029455306775026586,-0.0005887240592203807,-0.0008267646366529368,0.018562658620992285,-0.0068993632777855805,-0.016530314838691808,0.0111318193376064,-0.7939516305923462,-0.869513988494873,0.1115214452147483,0.1313360929489135,-0.0689155906438827
1749039236.9982913,0.5094081335120244,-1.5833773736440029,1.0141776595844214,0.17483742582969475,5.958907982888731,5.2638315283634425,-0.0037098310813922686,-0.000522149423616461,-0.0007861515792398177,0.01818626588226957,-0.008223159993115261,-0.017650409644743223,-0.0036900006234645,-0.7770617008209229,-0.862229585647583,0.1240038201212883,0.1226253807544708,-0.0629625469446182
1749039236.9983416,0.5093985895746913,-1.5833779573600544,1.0141799039096802,0.17487506762144184,5.958886182639381,5.2637956193366,-0.00455218848664478,-0.00046310229523088354,-0.0007403328034865833,0.017769775444473234,-0.009639334054871497,-0.01887374870954992,-0.0058812275528907,-0.7798850536346436,-0.8648117780685425,0.1253743320703506,0.1053520143032074,-0.0959617048501968
1749039236.9983833,0.5093874534475838,-1.5833788274205998,1.0141822969363805,0.17491202758557048,5.958862189700638,5.26375716056532,-0.005463695401628929,-0.000412537905738897,-0.0006935014403337485,0.017379875994737067,-0.011147582428068521,-0.020231237194501674,-0.0234213452786207,-0.7812751531600952,-0.8705394268035889,0.1307953149080276,0.0879411101341247,-0.0898531228303909
1749039236.998423,0.5093747360806121,-1.583379961614187,1.01418463954338,0.174948492229426,5.958835989863468,5.263716048368835,-0.0064310316181944265,-0.0003704850308798463,-0.0006500134147881031,0.017084402306777234,-0.012749215326795777,-0.02174762183433161,-0.0240586139261722,-0.7531536817550659,-0.8681964874267578,0.1358208656311035,0.0909913778305053,-0.078341469168663
1749039236.9984615,0.5093604526774873,-1.5833812845450248,1.0141867359413381,0.17498478176431725,5.958807489688499,5.263672112338222,-0.00743703523338509,-0.0003359397128909292,-0.0006140371602295974,0.016948071706775304,-0.014446247219735012,-0.023439677936969786,-0.0328634232282638,-0.75135338306427,-0.8696409463882446,0.1466551572084427,0.0903009623289108,-0.1192995309829711
1749039236.9985037,0.5093446192688713,-1.583382673636078,1.01418840477816,0.1750213317002355,5.958776513036963,5.263625108077779,-0.008461574084355683,-0.0003068057763566272,-0.0005892048831475688,0.01702863253574387,-0.01624029973037926,-0.025315229254201405,-0.0328634232282638,-0.75135338306427,-0.8696409463882446,0.1466551572084427,0.0903009623289108,-0.1192995309829711
1749039236.998542,0.5093272526444269,-1.5833839732054784,1.0141894903430106,0.1750586679988925,5.958742808808972,5.263574717870298,-0.009482617579643356,-0.00027989306799895767,-0.0005782926142782602,0.01737366030780236,-0.018131442362130122,-0.027372945059686255,-0.0678023993968963,-0.7229974269866943,-0.8795487880706787,0.1484822481870651,0.054604947566986,-0.1383860409259796
1749039236.9985814,0.5093083732446977,-1.583385014245446,1.0141898735847148,0.17509737740837722,5.958706069450587,5.263520560244239,-0.010477409958412759,-0.00025098545333526474,-0.0005829569442279253,0.01801813067838976,-0.020117079547085324,-0.029602790517374748,-0.0678023993968963,-0.7229974269866943,-0.8795487880706787,0.1484822481870651,0.054604947566986,-0.1383860409259796
1749039236.9986196,0.5092880097094232,-1.5833856360384146,1.0141894819229096,0.17513807493896752,5.958665957918726,5.2634622080951035,-0.011423667577067694,-0.00021498976676735836,-0.0006035554811596462,0.018982821161071382,-0.022191010185060586,-0.03198699542113135,-0.0812486112117767,-0.7205581665039062,-0.8874044418334961,0.1441003978252411,0.0243325531482696,-0.1243171691894531
1749039236.9986603,0.509266203466893,-1.5833857053606775,1.0141882963040767,0.17518137084383573,5.958622139083345,5.2633992137186825,-0.012300747592233416,-0.00016617233901280608,-0.0006390748660698374,0.020273550365645463,-0.024342812926219863,-0.03450142024159537,-0.0946945548057556,-0.7103249430656433,-0.9003077745437622,0.1689894497394561,-0.0134107917547225,-0.1482395231723785
1749039236.9986987,0.5092430120475285,-1.5833851299799575,1.0141863539831482,0.17522783957672933,5.9585743107844396,5.2633311382810595,-0.013090746088979175,-9.848061956825375e-05,-0.0006871836196974036,0.02188124045076292,-0.02655770506078887,-0.037117197821588274,-0.0946945548057556,-0.7103249430656433,-0.9003077745437622,0.1689894497394561,-0.0134107917547225,-0.1482395231723785
1749039236.998736,0.5092185104262608,-1.5833838647388851,1.0141837460418317,0.17527799287806445,5.958522230198231,5.2632575831088495,-0.013779474927604231,-5.935069865828015e-06,-0.0007444161768552266,0.02378276861937967,-0.02881696330540018,-0.03980250128523202,-0.1041554808616638,-0.6707385778427124,-0.8800058364868164,0.1655504405498504,-0.0291778445243835,-0.1580919921398162
1749039236.998773,0.5091927902326806,-1.5833819099716562,1.0141806094445076,0.17533225861765353,5.95846573246615,5.263178220439511,-0.014357249065550423,0.00011693653762214824,-0.0008064791333069666,0.025942548943429757,-0.03109889418358606,-0.042524256866851476,-0.1041554808616638,-0.6707385778427124,-0.8800058364868164,0.1655504405498504,-0.0291778445243835,-0.1580919921398162
1749039236.9988146,0.509165956937565,-1.583379303292548,1.0141771142730616,0.17539096656863667,5.958404740151325,5.2630928213528865,-0.014819407310006884,0.000274661264150778,-0.0008686533123241604,0.028314757697046732,-0.033380236616077745,-0.04524962331302826,-0.0834669917821884,-0.6596462726593018,-0.8731669187545776,0.1809352040290832,-0.0152923762798309,-0.1582920253276825
1749039236.9988518,0.5091381253666623,-1.5833761070573802,1.014173447487975,0.17545434187267414,5.958339263583172,5.263001278297413,-0.015166500133679303,0.00047042427290543376,-0.0009262502952559611,0.030846084234732597,-0.0356378037299186,-0.04794711967705543,-0.098828986287117,-0.6298313140869141,-0.880907416343689,0.1791580319404602,-0.0467091500759124,-0.1750576794147491
1749039236.998893,0.5091094144440735,-1.583372394674054,1.0141697950202877,0.1755225063024669,5.958269393367396,5.262903619401329,-0.01540410774404444,0.0007057549702650318,-0.0009750736418838422,0.0334788502994908,-0.03785013587443819,-0.05058738392805492,-0.098828986287117,-0.6298313140869141,-0.880907416343689,0.1791580319404602,-0.0467091500759124,-0.1750576794147491
1749039236.9989312,0.5090799427723388,-1.583368238880673,1.014166324231794,0.17559548641033876,5.958195287234625,5.262800012342188,-0.01554229232753144,0.0009803230516786884,-0.0010118342858776725,0.036154293445344036,-0.039998934995828954,-0.05314363604194478,-0.0959091186523437,-0.6529664397239685,-0.8821240663528442,0.1905076503753662,-0.0401442050933837,-0.181528702378273
1749039236.9989717,0.5090498267763477,-1.5833637040314137,1.0141631688207176,0.17567322655309695,5.9581171538374,5.2626907571087855,-0.015594730949552412,0.0012918464372720622,-0.0010344751026109484,0.0388157709501229,-0.04207007701132708,-0.05559195575038376,-0.1003320589661598,-0.6345279812812805,-0.8648964166641235,0.1610064208507537,-0.04378117993474,-0.2112640291452407
1749039236.9990098,0.5090191821569429,-1.5833588428366427,1.014160418053607,0.17575560411421104,5.9580352359009465,5.26257626886667,-0.015577611639749604,0.0016360892113490692,-0.0010423698238084035,0.04141163303381581,-0.04405405928911958,-0.05791146226173596,-0.1003320589661598,-0.6345279812812805,-0.8648964166641235,0.1610064208507537,-0.04378117993474,-0.2112640291452407
1749039236.9990468,0.5089881277861779,-1.5833536965869488,1.0141581117373164,0.17584244440771493,5.957949794260467,5.2624570533286485,-0.015508399436947123,0.002006923543176378,-0.0010363757193151265,0.04389755209063458,-0.0459458382956046,-0.0600844352704448,-0.0901254415512085,-0.6121640205383301,-0.8730651140213013,0.167728453874588,-0.0624750703573226,-0.1908640563488006
1749039236.9994962,0.5089567900129693,-1.583348297105241,1.014156241600399,0.17593353377143853,5.957861093045716,5.2623336770681535,-0.01540459149713606,0.0023964533235890837,-0.0010187366881424583,0.04623816994023849,-0.04774413220026743,-0.06209638081884081,-0.0901254415512085,-0.6121640205383301,-0.8730651140213013,0.167728453874588,-0.0624750703573226,-0.1908640563488006
1749039237.001372,0.5089253052975627,-1.583342668657543,1.014154758738719,0.17602863080386438,5.957769385224225,5.262206734650448,-0.015282583304623499,0.0027952324724643636,-0.0009928507173517366,0.048408009594940196,-0.04945036558297298,-0.06393603702715257,-0.1018750369548797,-0.6064766049385071,-0.9053006172180176,0.1901403665542602,-0.074362002313137,-0.1638311892747879
1749039237.0422802,0.5088938199348184,-1.5833368287198228,1.01415358563208,0.17612747688496963,5.957674897598308,5.262076814321969,-0.01515676083372922,0.0031926268602831425,-0.0009629299165700783,0.05039166214660841,-0.051067476543228324,-0.06559533311719645,-0.1371338963508606,-0.6176036596298218,-0.8854564428329468,0.1785602867603302,-0.0709721893072128,-0.1921197324991226
1749039237.042328,0.5088624866543565,-1.5833307874948792,1.0141526303178692,0.17622980743383504,5.957577815414564,5.261944464733571,-0.015038911215639281,0.0035773469555341855,-0.0009335910790239146,0.05218329481437467,-0.05259877833737936,-0.06706935227306246,-0.1371338963508606,-0.6176036596298218,-0.8854564428329468,0.1785602867603302,-0.0709721893072128,-0.1921197324991226
1749039237.0423691,0.5088314585324315,-1.5833245468523722,1.014151800071595,0.17633536459693816,5.9574782684058745,5.26181016612777,-0.014938003018469221,0.003938127911925464,-0.00090941988753843,0.0537855518130797,-0.05404699693755851,-0.0683563784164299,-0.096854992210865,-0.6268762946128845,-0.8977315425872803,0.1985621452331543,-0.087691344320774,-0.1737285703420639
1749039237.0424085,0.5088008808037563,-1.5833180995590808,1.0141510125742297,0.17644391072624893,5.957376321228201,5.261674309412566,-0.014860329459615228,0.0042644839494920764,-0.0008945524004882481,0.05520796277327916,-0.055413539774667876,-0.06945809332004393,-0.096854992210865,-0.6268762946128845,-0.8977315425872803,0.1985621452331543,-0.087691344320774,-0.1737285703420639
1749039237.0424464,0.5087708810876417,-1.5833114294151724,1.014150203623167,0.17655524092852384,5.957271971132772,5.2615371851327755,-0.014809945756491324,0.004547441101160319,-0.000892313003139676,0.056465035744346866,-0.05669802020554564,-0.07037992516784798,-0.1128900647163391,-0.5839483141899109,-0.8975789546966553,0.1757132709026336,-0.0832412093877792,-0.1679761260747909
1749039237.0424848,0.5087415585691111,-1.5833045126465513,1.0141493312041103,0.17666919251775423,5.957165154542349,5.261398982392643,-0.014789282260098794,0.004780163484008858,-0.0009049387536969935,0.05757425884531921,-0.05789806686134924,-0.07113146602003678,-0.0990158095955848,-0.5830230712890625,-0.9124504327774048,0.1743644922971725,-0.1187852174043655,-0.1782450079917907
1749039237.0425234,0.5087129729349313,-1.5832973208038383,1.0141483758710894,0.17678564916928546,5.95705576272774,5.261259796459975,-0.014799791545849804,0.004958419559829363,-0.0009334074556790901,0.058554231561771745,-0.0590094659093142,-0.07172681721572673,-0.0990158095955848,-0.5830230712890625,-0.9124504327774048,0.1743644922971725,-0.1187852174043655,-0.1782450079917907
1749039237.0425608,0.5086851342747583,-1.5832898252302363,1.0141473373814813,0.1769045378656923,5.956943665498798,5.261119643324208,-0.014842496142682423,0.005080864990719434,-0.000977373939781783,0.05942309698015434,-0.06002668679028451,-0.07218470956226397,-0.1302018910646438,-0.596125602722168,-0.9036751985549928,0.1847752034664154,-0.1147515028715133,-0.1469016373157501
1749039237.0425982,0.5086579955532241,-1.5832820026253835,1.0141462280888334,0.1770258176135905,5.9568287408087865,5.260978479315468,-0.014918342072633463,0.00514913465526606,-0.0010352095246093339,0.06019738231161059,-0.060943798546546184,-0.07252827913177483,-0.1436934918165207,-0.5957046747207642,-0.9077205657958984,0.1873520463705063,-0.0898706242442131,-0.1862164437770843
1749039237.0426357,0.5086314494839772,-1.5832738405959026,1.014145064713697,0.17714946039358753,5.956710907391355,5.260836223706244,-0.015028321234826317,0.005167740779245719,-0.0011041353394498612,0.06089130014272505,-0.061755691307300326,-0.07278444776757526,-0.1436934918165207,-0.5957046747207642,-0.9077205657958984,0.1873520463705063,-0.0898706242442131,-0.1862164437770843
1749039237.0426729,0.5086053314527846,-1.5832653419024876,1.0141438609786209,0.17727542649669076,5.95659015679888,5.260692782016138,-0.01517338556315706,0.005143778523787625,-0.0011804401429202944,0.06151651668807817,-0.062459420619187744,-0.07298293559585016,-0.1312728971242904,-0.5808975696563721,-0.9094085693359376,0.183793157339096,-0.1076726168394088,-0.1578774452209472
1749039237.0427103,0.508579429238203,-1.5832565265500858,1.0141426232819413,0.17740363809201184,5.956466580167128,5.260548067281705,-0.015354221606410291,0.005086453234805629,-0.0012597742522520608,0.0620823493754965,-0.06305545546267799,-0.07315499354528363,-0.1613490879535675,-0.5652203559875488,-0.902888298034668,0.1821184158325195,-0.1167779862880706,-0.1695344746112823
1749039237.0427468,0.5085534987178665,-1.5832474315100067,1.0141413500190997,0.1775339562865866,5.956340384094908,5.260402015901507,-0.015570977354867947,0.005006464142759131,-0.0013375093458758002,0.0625963174017845,-0.06354865396171278,-0.07333197562201627,-0.1544255018234253,-0.5580682754516602,-0.8993897438049316,0.1562907397747039,-0.1230078786611557,-0.1639041304588318
1749039237.042783,0.5085272831509299,-1.5832381082875329,1.0141400333758448,0.1776661673293811,5.95621189040349,5.26025459467633,-0.015823032940169544,0.00491530072005496,-0.001409146384660029,0.06306494635631366,-0.06394886919173237,-0.07354387921463953,-0.1636826395988464,-0.531720757484436,-0.9085739850997924,0.1898059397935867,-0.1178511679172515,-0.1640582978725433
1749039237.04282,0.5085005327122852,-1.583228618730717,1.014138661653363,0.1777999824682209,5.956081516852781,5.260105797009846,-0.016108886392254697,0.004824523030857192,-0.0014707405618755948,0.06349472768943171,-0.06427114167741414,-0.07381797331686997,-0.1795076131820678,-0.5485966801643372,-0.902064085006714,0.1739749461412429,-0.1366263628005981,-0.174535259604454
1749039237.0428612,0.5084730210666148,-1.5832190295819342,1.014137220733624,0.17793505357789696,5.955949739526062,5.259955628705482,-0.01642618993259125,0.004745099739274968,-0.001519296682231287,0.06389314194691872,-0.06453544601545468,-0.07417760946296795,-0.1828466057777404,-0.5381816625595093,-0.8947296142578125,0.1877241730690002,-0.1161273643374443,-0.1858812868595123
1749039237.0429,0.5084445568266478,-1.5832094063371487,1.0141356944210635,0.17807100359481084,5.95581704158318,5.259804086759666,-0.01677192880063745,0.004686860942536426,-0.0015530777955285614,0.0642696410416609,-0.06476595256608358,-0.07464127321128688,-0.1744606047868728,-0.5458694696426392,-0.8875077962875366,0.1511623114347458,-0.1027931869029998,-0.1848966181278228
1749039237.0429428,0.5084149892210135,-1.5831998069395357,1.0141340642361876,0.1782074675169205,5.9556838565321755,5.259651137164851,-0.01714269493249492,0.004658089127828824,-0.0015717721622084406,0.06463643757218286,-0.06498978052167503,-0.07522189910228859,-0.1744606047868728,-0.5458694696426392,-0.8875077962875366,0.1511623114347458,-0.1027931869029998,-0.1848966181278228
1749039237.043006,0.5083842084758717,-1.5831902757438403,1.014132309458279,0.1783441370776744,5.955550515895364,5.259496698816405,-0.017534985338543255,0.0046652356094708915,-0.0015764825070616795,0.06500890551643197,-0.06523527556043952,-0.07592645161196239,-0.2060349583625793,-0.5278977751731873,-0.8933606147766113,0.1527661085128784,-0.1246781423687934,-0.2095400094985962
1749039237.0430715,0.508352141986909,-1.5831808381684638,1.0141304079371622,0.17848080119317755,5.95541721021452,5.259340639312663,-0.01794545737784053,0.004712732548590602,-0.001569532794055394,0.06540541683874421,-0.06552993154549305,-0.0767557709904515,-0.2060349583625793,-0.5278977751731873,-0.8933606147766113,0.1527661085128784,-0.1246781423687934,-0.2095400094985962
1749039237.0439503,0.508318747628544,-1.5831714965337982,1.0141283376820855,0.17861737530044014,5.955283969177969,5.259182785068123,-0.01837109613367344,0.00480288045225266,-0.0015541207713959681,0.06584654146017538,-0.06589815900429548,-0.0777046881111919,-0.2229260802268982,-0.4836223423480987,-0.9008039832115172,0.1536315679550171,-0.1269465088844299,-0.2086260020732879
1749039237.0453703,0.5082840058304042,-1.583162227694246,1.0141260788009776,0.17875391526087092,5.955150662696181,5.2590229439415515,-0.018809280318071185,0.0049358164217233975,-0.0015338690886413865,0.06635367780088434,-0.06635915358136102,-0.07876241474320128,-0.2229260802268982,-0.4836223423480987,-0.9008039832115172,0.1536315679550171,-0.1269465088844299,-0.2086260020732879
1749039237.08628,0.5082479122206834,-1.5831529830835975,1.0141236152437991,0.17889061473854406,5.955017021084455,5.2588609347901825,-0.0192577617718062,0.005109588211142632,-0.0015123398563238982,0.06694729220134953,-0.0669251222415096,-0.07991321152046635,-0.2278074920177459,-0.4876759946346283,-0.8939604759216309,0.167030394077301,-0.1353296339511871,-0.201748251914978
1749039237.0863276,0.5082104723763512,-1.5831436915488877,1.0141209360282908,0.17902778793786514,5.9548826695849115,5.258696616154056,-0.019714594451309804,0.005320357731836395,-0.001492578986479499,0.06764499448971019,-0.06760008627643921,-0.08113733270947761,-0.2192414104938507,-0.5175442695617676,-0.8945845365524292,0.139015182852745,-0.1311254501342773,-0.2057368457317352
1749039237.0863678,0.508171699502071,-1.583134264768809,1.0141180360767952,0.17916584134199282,5.954747170847276,5.25852990666131,-0.020178057445519298,0.005562733623046535,-0.0014767509110376101,0.0684596722003227,-0.0683794083747393,-0.0824122466322791,-0.2379502952098846,-0.4915610253810882,-0.9128386974334716,0.1418775916099548,-0.1316665410995483,-0.2270983755588531
1749039237.0864065,0.5081316150166993,-1.5831246043305232,1.0141149172237789,0.17930523821125996,5.954610069298606,5.258360792749561,-0.020646608220270035,0.005830199585783339,-0.0014659127163621668,0.06939787814576516,-0.06925010030285207,-0.08371412247166925,-0.2379502952098846,-0.4915610253810882,-0.9128386974334716,0.1418775916099548,-0.1316665410995483,-0.2270983755588531
1749039237.086447,0.5080902513888642,-1.5831146090699468,1.0141115899805893,0.17944645878423776,5.954470933167644,5.258189323299437,-0.02111887752149277,0.006115583811302322,-0.0014599587320397978,0.0704586414507989,-0.07019187573126148,-0.08501954823950635,-0.2460779845714569,-0.4870913624763489,-0.8941931128501892,0.1800410598516464,-0.1337758004665374,-0.2206094413995742
1749039237.0864897,0.5080476561687521,-1.5831041813198372,1.0141080760981571,0.17958995865559635,5.954329391824611,5.258015593659771,-0.021593685846134726,0.006411516779262214,-0.0014577418417373762,0.07163285413899065,-0.07117883598261866,-0.08630739872134242,-0.2460779845714569,-0.4870913624763489,-0.8941931128501892,0.1800410598516464,-0.1337758004665374,-0.2206094413995742
1749039237.086528,0.5080038958901422,-1.5830932311979966,1.0141044112122766,0.17973612826761245,5.954185166919646,5.257839722566644,-0.02207004053479176,0.006710843105362502,-0.001457348290819969,0.0729033585204339,-0.07218162386199625,-0.08756070912613749,-0.2399257272481918,-0.4602252542972564,-0.8961876034736633,0.1848139315843582,-0.1425899714231491,-0.2142978012561798
1749039237.0865664,0.507959058346046,-1.5830816788343234,1.014100646430708,0.17988525728065036,5.954038095730381,5.257661825467555,-0.02254707895874269,0.007006970290280698,-0.001456473680329109,0.07424580861939187,-0.0731698516477245,-0.08876834420503384,-0.2510320544242859,-0.4753209948539734,-0.8828979730606079,0.1896998584270477,-0.1464463025331497,-0.2066361606121063
1749039237.086604,0.507913251782772,-1.5830694553111329,1.0140968478283028,0.18003750782136174,5.953888145108498,5.2574819878264405,-0.023023954695162812,0.007294143151920101,-0.0014528271205457356,0.07563029723883742,-0.07411459694370251,-0.08992621197653583,-0.2510320544242859,-0.4753209948539734,-0.8828979730606079,0.1896998584270477,-0.1464463025331497,-0.2066361606121063
1749039237.0866427,0.507866599947457,-1.583056503718587,1.0140930933047514,0.18019289989766255,5.953735414951502,5.257300242138272,-0.023499694729010635,0.007567633455177266,-0.0014444868693050273,0.07702364433309235,-0.07499075904392796,-0.09103778440310993,-0.2619848847389221,-0.463513970375061,-0.8970680236816406,0.1989215612411499,-0.1113861352205276,-0.2196425050497055
1749039237.0866804,0.5078192328232667,-1.5830427816279458,1.0140894668966147,0.18035131098096485,5.953580130913494,5.257116551906053,-0.023973064169831606,0.007823840154191528,-0.0014301483180057745,0.07839216219399721,-0.07577908291257701,-0.09211376342266571,-0.2473328709602356,-0.4635863304138183,-0.8956266641616821,0.1986905336380005,-0.1358702480792999,-0.2027409076690673
1749039237.0867171,0.5077712743273015,-1.583028265392556,1.014086051253542,0.18051249016454415,5.953422626804404,5.256930804752155,-0.024442463091337022,0.008060306300209291,-0.0014092384417409114,0.07970466371556593,-0.07646769778698781,-0.09317084890007425,-0.2473328709602356,-0.4635863304138183,-0.8956266641616821,0.1986905336380005,-0.1358702480792999,-0.2027409076690673
1749039237.0867538,0.5077228296726753,-1.583012955547944,1.0140829194555072,0.180676085471348,5.953263317906597,5.256742815934929,-0.024905865531860565,0.008275666540591467,-0.0013819063982125643,0.08093544475912187,-0.07705308102259706,-0.09422969070254102,-0.2653355598449707,-0.4526611566543579,-0.9037445783615112,0.1804987341165542,-0.1261576414108276,-0.2066163420677185
1749039237.0867903,0.5076739754503745,-1.5829968818149096,1.0140801275142157,0.18084168129398184,5.953102667160339,5.256552342721839,-0.025360806336183428,0.008469543547740136,-0.001348924639624133,0.08206693239635397,-0.07754042183513209,-0.09531222025234155,-0.2653355598449707,-0.4526611566543579,-0.9037445783615112,0.1804987341165542,-0.1261576414108276,-0.2066163420677185
1749039237.0868266,0.5076247543220406,-1.5829801059960278,1.0140777086927861,0.18100884222883523,5.952941146478191,5.256359108485869,-0.025804426762010155,0.008642416740743715,-0.0013115429261665082,0.08309166728957913,-0.07794339747608096,-0.09643865233203343,-0.2454517781734466,-0.4584813117980957,-0.912788450717926,0.171232134103775,-0.1331403106451034,-0.2236083149909973
1749039237.086863,0.5075751743823886,-1.5829627213026607,1.0140756703272515,0.18117715958233108,5.952779195413522,5.2561628333317145,-0.02623359335841644,0.008795488882704471,-0.0012713313823590853,0.08401332752130518,-0.07828338634690375,-0.09762451302285237,-0.2348996698856353,-0.4684392511844635,-0.8896217346191406,0.1966614127159118,-0.1284059882164001,-0.2319123446941375
1749039237.0869005,0.5075252119950285,-1.5829448472990502,1.0140739934063596,0.1813462969083259,5.952617179581482,5.255963266942379,-0.026645096113611166,0.008930568084457425,-0.0012300346604093573,0.08484662600474964,-0.07858815633368785,-0.09887806660453217,-0.2348996698856353,-0.4684392511844635,-0.8896217346191406,0.1966614127159118,-0.1284059882164001,-0.2319123446941375
1749039237.0869377,0.5074748166354743,-1.5829266205962547,1.0140726348968905,0.18151603082100107,5.952455351846977,5.255760219674021,-0.027035912830238696,0.00904996635112447,-0.0011894441827547011,0.0856160901095709,-0.0788901019568011,-0.10019848530076862,-0.2543158829212188,-0.4605476558208465,-0.902917742729187,0.177932009100914,-0.1111729145050048,-0.2347633689641952
1749039237.086974,0.5074239166080168,-1.5829081823485502,1.014071532581304,0.18168628320374394,5.952293819964262,5.25555358874742,-0.02740350870629737,0.009156401639596622,-0.0011512848939736484,0.08635389113880713,-0.07922414669155892,-0.10157505277526281,-0.2474710792303085,-0.4604974389076233,-0.908055305480957,0.2053495347499847,-0.1178745776414871,-0.2574008107185364
1749039237.087015,0.5073724251097821,-1.58288966415824,1.0140706118627436,0.18185714078761223,5.952132524752448,5.255343377000339,-0.02774613188702398,0.009252885563851903,-0.001117110023284534,0.08709698502862112,-0.07962544976890816,-0.10298762019822547,-0.2474710792303085,-0.4604974389076233,-0.908055305480957,0.2053495347499847,-0.1178745776414871,-0.2574008107185364
1749039237.0873485,0.5073202468640141,-1.5828711741117856,1.014069793637677,0.1820288580742821,5.951971232893653,5.255129702399666,-0.02806306617504686,0.009342583224788216,-0.0010882014940668979,0.08788385858710751,-0.08012705715482642,-0.1044084169541872,-0.2604722678661346,-0.4387049376964569,-0.8978880047798157,0.1964155733585357,-0.1370939314365387,-0.2453146427869796
1749039237.0894172,0.5072672860347887,-1.5828527845258782,1.0140690020929881,0.18220184074910184,5.951809547485411,5.2549127973614675,-0.028354806444471695,0.009428642689343004,-0.0010654811855525202,0.08875118033354286,-0.08075763520575711,-0.1058051407099096,-0.2604722678661346,-0.4387049376964569,-0.8978880047798157,0.1964155733585357,-0.1370939314365387,-0.2453146427869796
1749039237.1343424,0.5072134558637976,-1.5828345228323073,1.0140681712709412,0.18237660979622924,5.951646937081347,5.254692997293303,-0.028623130561736168,0.009514005763695411,-0.001049444865171814,0.08973064963173517,-0.0815394337361031,-0.1071450406642988,-0.2397189289331436,-0.4426314830780029,-0.9030290842056274,0.2290953695774078,-0.1525982618331909,-0.2546515762805938
1749039237.1343884,0.5071586895295725,-1.5828163670544946,1.0140672495515735,0.18255375045567301,5.951482780826085,5.254470717853519,-0.028871057039895683,0.009601222479256372,-0.001040133261185827,0.09084631524973699,-0.08248662942426019,-0.1083995123500688,-0.2732961177825928,-0.4358232021331787,-0.9098856449127196,0.2349269092082977,-0.1283416897058487,-0.2087956517934799
1749039237.1344287,0.5071029508555718,-1.5827982473819875,1.0140662017912152,0.18273385294621136,5.951316424856876,5.254246421406645,-0.029102698714885696,0.009692294391883304,-0.0010371522012230423,0.09211258409900941,-0.08360418371174651,-0.10954858118938893,-0.2732961177825928,-0.4358232021331787,-0.9098856449127196,0.2349269092082977,-0.1283416897058487,-0.2087956517934799
1749039237.134468,0.5070462432683982,-1.5827800549220392,1.0140650094029524,0.18291745253712607,5.95114724395301,5.254020575528611,-0.029323040703073476,0.00978856835112599,-0.0010397461617454658,0.09353306757616395,-0.08488731821780383,-0.1105845960802936,-0.2830800414085388,-0.4296865463256836,-0.9142228364944458,0.2523767650127411,-0.1844020038843155,-0.1869206130504608
1749039237.134506,0.5069886156618137,-1.5827616574291234,1.0140636687828202,0.18310497574907855,5.950974701772285,5.253793608872769,-0.029537677775693744,0.009890697163427371,-0.0010469187881734577,0.09510033395933021,-0.08632168895616343,-0.11151451371393425,-0.2830800414085388,-0.4296865463256836,-0.9142228364944458,0.2523767650127411,-0.1844020038843155,-0.1869206130504608
1749039237.1345434,0.5069301640212113,-1.5827429200094365,1.0140621882384164,0.18329669832219644,5.9507984023774805,5.2535658704465265,-0.02975254175416822,0.009998675381565696,-0.001057583525022598,0.09679656456436239,-0.08788432559273214,-0.11236033643908216,-0.2564959526062011,-0.4039045572280884,-0.9152909517288208,0.2542660534381866,-0.18392014503479,-0.1795766055583953
1749039237.1345818,0.506871027677907,-1.5827237273158492,1.0140605834939584,0.18349271937480732,5.950618125822497,5.253337597096373,-0.02997363858188646,0.010111942090818553,-0.0010707211030249692,0.09859504981454158,-0.08954534666978022,-0.11315753790895315,-0.2727081179618835,-0.4315040707588196,-0.9166342616081238,0.2605489492416382,-0.1602514386177063,-0.1798709332942962
1749039237.1346192,0.5068113792662106,-1.5827040032328363,1.0140588722425274,0.1836929543930685,5.950433842410703,5.253108892071362,-0.03020680265206533,0.010229519623558017,-0.0010855198306975755,0.10046240279696546,-0.09127033396686537,-0.11395161543094828,-0.2727081179618835,-0.4315040707588196,-0.9166342616081238,0.2605489492416382,-0.1602514386177063,-0.1798709332942962
1749039237.134657,0.5067514082370052,-1.5826837245407253,1.0140570687710455,0.18389714732777443,5.9502457036490615,5.252879715999043,-0.030457466679251883,0.0103501418300053,-0.0011014787316082789,0.10236131215040448,-0.09302309785757322,-0.11479319273090549,-0.2515221238136291,-0.3976667523384094,-0.9084295034408568,0.2458688467741012,-0.1721692383289337,-0.2090575397014618
1749039237.134694,0.5066912991591036,-1.582662926219262,1.0140551798841757,0.18410490015401137,5.950054011330398,5.252649890146063,-0.03073044145244968,0.010472333207415245,-0.0011184611186831365,0.1042536133997632,-0.09476848645174793,-0.11573231847328634,-0.2515221238136291,-0.3976667523384094,-0.9084295034408568,0.2458688467741012,-0.1721692383289337,-0.2090575397014618
1749039237.1347308,0.5066312075175313,-1.5826416975956465,1.0140532030509624,0.18431571755955456,5.949859168363283,5.2524191098899315,-0.031029703313681403,0.010594428441069588,-0.001136695536295265,0.1061034364283357,-0.09647492251834476,-0.11681273310644126,-0.272303968667984,-0.4314988255500793,-0.9227923154830932,0.2735417783260345,-0.1691019237041473,-0.217318058013916
1749039237.1347675,0.5065712364929191,-1.582620170226447,1.0140511270653505,0.18452906416898687,5.949661616294612,5.252186964615442,-0.031358198703316326,0.010714550632722834,-0.00115672967207093,0.10788018017884625,-0.09811643789310247,-0.11806689432009128,-0.2712323665618896,-0.4127998948097229,-0.9295156002044678,0.2295617908239364,-0.1591355502605438,-0.2547244131565094
1749039237.1348038,0.506511417894092,-1.5825984998852063,1.0140489348033257,0.18474443027784432,5.949461766097387,5.251952960139522,-0.031717688398743324,0.010830580267272944,-0.001179348182083644,0.1095610587189698,-0.09967404250454484,-0.11951245699834841,-0.2712323665618896,-0.4127998948097229,-0.9295156002044678,0.2295617908239364,-0.1591355502605438,-0.2547244131565094
1749039237.1348398,0.5064516995045164,-1.582576845893315,1.014046607170302,0.18496139910131446,5.949259931060746,5.2517165414809215,-0.03210865741713692,0.010940148321748543,-0.0012054661044834812,0.11113295435608934,-0.10113630490070828,-0.121150699706622,-0.3326543569564819,-0.4106738567352295,-0.9191433191299438,0.2300442159175872,-0.1384007036685943,-0.2379678785800933
1749039237.1348765,0.5063919403816232,-1.5825553510962824,1.0140441273026601,0.18517970555947946,5.9490562725180425,5.251477116101098,-0.0325303045541519,0.011040684039102387,-0.0012360066397486009,0.11259332511008158,-0.10249907548191874,-0.12296709116878375,-0.2998859584331512,-0.4019740223884582,-0.913598656654358,0.2209610193967819,-0.1291861236095428,-0.2801517844200134
1749039237.1349127,0.5063319153182763,-1.582534125200574,1.0140414844686885,0.18539927568808873,5.948850769188432,5.251234079319692,-0.03298060561707795,0.01112954142368288,-0.0012717686237851903,0.11394996890477395,-0.10376438135252848,-0.12493384138828935,-0.2998859584331512,-0.4019740223884582,-0.913598656654358,0.2209610193967819,-0.1291861236095428,-0.2801517844200134
1749039237.134949,0.5062713291914512,-1.5825132332131966,1.0140386775571584,0.18562023798754929,5.948643218095236,5.250986843876915,-0.03345643100646346,0.011204215332551079,-0.0013132888153654378,0.115219556861276,-0.1049386489449483,-0.1270139512249434,-0.3334917724132538,-0.3850896954536438,-0.924202561378479,0.2403786033391952,-0.136577695608139,-0.2483811229467392
1749039237.1349864,0.5062098407060573,-1.582492689667119,1.0140357182022415,0.18584290294582928,5.9484332695920275,5.250734874712416,-0.03395370214777626,0.011262637582965312,-0.0013607090621267264,0.1164250188475012,-0.10603053152343311,-0.12916602078476147,-0.3334917724132538,-0.3850896954536438,-0.924202561378479,0.2403786033391952,-0.136577695608139,-0.2483811229467392
1749039237.1350226,0.5061470933066885,-1.5824724585377365,1.0140326333801482,0.18606771282772328,5.948220492596306,5.25047772856707,-0.034467587102499295,0.01130351703266743,-0.001413666624439165,0.11759207859258614,-0.10704870064097957,-0.13134894828072333,-0.3043407797813415,-0.3982795178890228,-0.9366403818130492,0.2294992357492447,-0.1414268761873245,-0.2402525097131729
1749039237.1350594,0.5060827496343799,-1.5824524584350401,1.014029466868002,0.18629516892308756,5.948004460510315,5.250215096347549,-0.034992742735574796,0.01132665945281828,-0.0014712328590178129,0.11874543156886577,-0.10799998350657708,-0.13352569921986837,-0.3043407797813415,-0.3982795178890228,-0.9366403818130492,0.2294992357492447,-0.1414268761873245,-0.2402525097131729
1749039237.135096,0.5060165253764262,-1.582432572532455,1.0140262785697445,0.18652574733701985,5.947784844241743,5.249946844005186,-0.03552359787551986,0.011333185557556366,-0.0015319266240078882,0.11990516506175536,-0.1088881870579178,-0.1356655700676597,-0.3097147941589355,-0.3754650056362152,-0.9388885498046876,0.2502683401107788,-0.1543983668088913,-0.2176376730203628
1749039237.135132,0.505948218479997,-1.5824126623654067,1.01402314073111,0.18675981709573475,5.9475614964516685,5.249673045054147,-0.036054653497160805,0.01132557488498256,-0.0015938215161518062,0.12108400494460267,-0.10971385087979887,-0.13774474689484184,-0.3309347629547119,-0.3740582168102264,-0.9319285154342652,0.2652564942836761,-0.1466118097305297,-0.2282643020153045
1749039237.135388,0.505877730081466,-1.5823925840823703,1.014020130661129,0.1869975750354574,5.94733451141533,5.249393996242412,-0.03658077044469855,0.011307502929882468,-0.00165475001063682,0.12228584414994036,-0.11047502501273565,-0.13974535613742348,-0.3155025839805603,-0.3587568998336792,-0.936828911304474,0.229653999209404,-0.1521444171667099,-0.2579029202461242
1749039237.1373312,0.5058050741658019,-1.5823722053274722,1.0140173205927134,0.1872390094775399,5.947104248532171,5.249110209070015,-0.03709742059347352,0.01128349184871276,-0.0017125851789614632,0.12350578565695272,-0.11116898778307886,-0.1416535323017056,-0.3118278980255127,-0.3631848394870758,-0.9390591382980348,0.253612220287323,-0.1390151530504226,-0.2483457773923874
1749039237.178558,0.5057303742950878,-1.5823514209147387,1.0140147663379968,0.18748389900901366,5.946871314249086,5.24882237414251,-0.03760088133145394,0.011258436905890934,-0.0017655576015337571,0.12473165766040181,-0.11179462629350308,-0.14345723008619804,-0.3280048370361328,-0.374120831489563,-0.9358204007148744,0.2404106557369232,-0.124748021364212,-0.2643781006336212
1749039237.1786387,0.5056538478743361,-1.5823301656694466,1.0140124969600623,0.18773184537819643,5.9466365050786045,5.2485313012037915,-0.038088353349151796,0.011237089121650775,-0.0018125491076972412,0.1259466895458284,-0.11235503812772082,-0.14514454386139103,-0.3280048370361328,-0.374120831489563,-0.9358204007148744,0.2404106557369232,-0.124748021364212,-0.2643781006336212
1749039237.1787105,0.5055757807197365,-1.5823084230210605,1.0140105075247767,0.18798233313356955,5.946400720814375,5.2482378425521645,-0.038557984632472425,0.011223572724955918,-0.001853302735949553,0.12713283440452153,-0.1128598294033069,-0.146703145868749,-0.3281721472740173,-0.3466716706752777,-0.9235677123069764,0.2716265916824341,-0.1630856096744537,-0.2551802396774292
1749039237.178781,0.5054964960770021,-1.582286228120252,1.0140087562525313,0.18823480528191253,5.946164860023623,5.247942809311892,-0.03900879302989801,0.011221004302260671,-0.0018885019711828344,0.1282741319318208,-0.11332662297564229,-0.1481211419891017,-0.3281721472740173,-0.3466716706752777,-0.9235677123069764,0.2716265916824341,-0.1630856096744537,-0.2551802396774292
1749039237.1788504,0.5054163222507423,-1.5822636646149493,1.0140071664648937,0.18848874418086975,5.945929709661446,5.2476468887691805,-0.039440493020687896,0.011231265572870556,-0.0019196976675767733,0.12935954395268362,-0.11378144587304741,-0.14938925329227667,-0.3120544850826263,-0.3394163846969604,-0.9275492429733276,0.2240493595600128,-0.1450089365243911,-0.2620843648910522
1749039237.1789193,0.5053355622691189,-1.5822408549662632,1.0140056329273555,0.18874374841642227,5.945695839409681,5.247350569111743,-0.039853246391285034,0.011254963163896846,-0.0019490892842931118,0.13038484561599348,-0.11425787841903991,-0.15050387455997188,-0.3494164943695068,-0.3438339233398437,-0.9303920269012452,0.2331895232200622,-0.1447297036647796,-0.2421867996454239
1749039237.1789894,0.5052544683980602,-1.5822179453156509,1.0140040316472616,0.18899959746739198,5.945463511156417,5.247054077902599,-0.040247372808200024,0.011291584115268606,-0.0019791900332950182,0.13135336970152908,-0.1147950504763009,-0.15147031639453323,-0.3494164943695068,-0.3438339233398437,-0.9303920269012452,0.2331895232200622,-0.1447297036647796,-0.2421867996454239
1749039237.1790583,0.5051732239281873,-1.5821950870683534,1.0140022319651438,0.18925629613883924,5.945232614736435,5.246757342237568,-0.04062307396894517,0.011339824503872008,-0.0020124200438803442,0.13227562448686916,-0.11543471924150522,-0.15230542880381698,-0.3224065601825714,-0.3494705259799957,-0.9350525140762328,0.2467944025993347,-0.1539951264858245,-0.2042426466941833
1749039237.1791277,0.5050919338507917,-1.5821724179583734,1.0140001098655522,0.18951409174695058,5.94500264051472,5.246459978973988,-0.04098023314049351,0.01139803242045938,-0.0020506791061903214,0.13316799187657666,-0.11621773630876155,-0.15303884249138447,-0.3224065601825714,-0.3494705259799957,-0.9350525140762328,0.2467944025993347,-0.1539951264858245,-0.2042426466941833
1749039237.1791782,0.5050106245680623,-1.5821500451097887,1.0139975615650791,0.1897734603754831,5.944772696018115,5.2461613204966415,-0.04131833744579415,0.011464674073862985,-0.002094954654129921,0.13405082922281708,-0.11718021566851615,-0.15371226913731476,-0.2843963503837585,-0.3661915063858032,-0.927493691444397,0.2423901557922363,-0.1510199308395385,-0.2034058272838592
1749039237.1792178,0.5049292514038954,-1.5821280318135873,1.0139945162281307,0.19003506335337034,5.944541568279553,5.245860476019173,-0.04163653711846812,0.01153871931806462,-0.002145024446271496,0.13494632963229872,-0.11834969592485266,-0.1543766636625396,-0.3205617368221283,-0.357746958732605,-0.9415726661682128,0.2670111060142517,-0.1850838810205459,-0.214269757270813
1749039237.1792617,0.5048477122858975,-1.5821063890106788,1.0139909461041658,0.19029967921657218,5.944307827726226,5.245556422883853,-0.04193382623649163,0.011619861578854073,-0.0021993152122014546,0.1358764489162251,-0.11974160199509153,-0.15508750101465538,-0.3205617368221283,-0.357746958732605,-0.9415726661682128,0.2670111060142517,-0.1850838810205459,-0.214269757270813
1749039237.1793115,0.5047658663430511,-1.5820850721222992,1.0139868720192076,0.19056811895306322,5.944069964227536,5.245248117968281,-0.04220931766769298,0.011708530660644792,-0.0022549702117761615,0.13686111076286353,-0.12135636077535235,-0.15589884551229982,-0.2839694023132324,-0.3413870930671692,-0.9397306442260742,0.2548359036445617,-0.1602911949157714,-0.2430445551872253
1749039237.179351,0.5046835561616893,-1.5820639836604535,1.013982362567178,0.19084113417911333,5.9438265410689555,5.244934615739076,-0.04246257942834145,0.011805707704492789,-0.002308151094325248,0.1379167893937018,-0.12317757483197346,-0.15685717868949942,-0.2946062088012695,-0.3565711677074432,-0.9321927428245544,0.2585669755935669,-0.1985283344984054,-0.2742413878440857
1749039237.179389,0.5046006314695695,-1.582042981564335,1.0139775265355886,0.19111932940555743,5.943576348563183,5.244615176986548,-0.04269398486471282,0.011912594970061615,-0.0023545514029745134,0.13905546829317808,-0.12517166457265105,-0.15799603050615693,-0.2978359460830688,-0.3706358969211578,-0.9078601598739624,0.2537496089935303,-0.2371403574943542,-0.2818698287010193
1749039237.179427,0.5045169707766924,-1.5820218923924105,1.013972499539632,0.19140308965215327,5.943318537390225,5.2442893524833,-0.04290501522858344,0.012030221927789766,-0.00239004162062961,0.14028390709470484,-0.12728931552156733,-0.15933231803822712,-0.2931031882762909,-0.310374766588211,-0.9146445393562316,0.2258495688438415,-0.220499649643898,-0.309583455324173
1749039237.1794648,0.5044324970712579,-1.582000527739327,1.013967426965884,0.19169253271509848,5.943052713662405,5.243957029507198,-0.04309846006080701,0.012159080225165295,-0.0024113207387089675,0.1416031369228675,-0.1294688811959425,-0.16086496888789986,-0.2936260998249054,-0.3296533226966858,-0.9203014969825744,0.2640394568443298,-0.2226865887641906,-0.276037335395813
1749039237.1795022,0.5043471844746279,-1.581978701892534,1.0139624458533663,0.19198749195333611,5.942778982854221,5.243618435310863,-0.04327848488791799,0.012298870922305673,-0.0024164415208045523,0.14300815151122578,-0.1316415931172491,-0.16257595260040805,-0.2809854447841644,-0.3251757621765136,-0.9145978093147278,0.2678049802780151,-0.2564457356929779,-0.2948660552501678
1749039237.1795397,0.504261054628844,-1.5819562487556231,1.0139576682561244,0.19228753108527843,5.942497937332565,5.243274098854845,-0.043450558114867734,0.012448417745654713,-0.00240511558818498,0.1444878404585502,-0.13373807589216402,-0.16443335588201524,-0.3048767447471618,-0.3202914297580719,-0.9226301908493042,0.2812471389770508,-0.1857296526432037,-0.2399700433015823
1749039237.179577,0.5041741640646552,-1.5819330362538426,1.013953168127241,0.19259198765340987,5.9422105910325485,5.24292477923681,-0.04362124258103707,0.012605757601466596,-0.0023787705184539756,0.14602527949151636,-0.1356953529474742,-0.16639575050874644,-0.3048767447471618,-0.3202914297580719,-0.9226301908493042,0.2812471389770508,-0.1857296526432037,-0.2399700433015823
1749039237.179741,0.5040865860432915,-1.5819089768104402,1.013948973104745,0.19290003797775104,5.941918272537964,5.242571374299536,-0.04379786840361587,0.012768379649274604,-0.002340386166381425,0.14759852271413834,-0.13746335461340295,-0.16841694546745312,-0.306300401687622,-0.322945773601532,-0.9167463779449464,0.2846359014511108,-0.1546177268028259,-0.2389942407608032
1749039237.1813574,0.5039983914029571,-1.581884033087384,1.0139450619307535,0.19321077533033162,5.941622491977823,5.24221482388862,-0.04398811649173747,0.012933560203781707,-0.002294156625091816,0.14918202588806445,-0.13900997876068447,-0.1704503356957485,-0.306300401687622,-0.322945773601532,-0.9167463779449464,0.2846359014511108,-0.1546177268028259,-0.2389942407608032
1749039237.226301,0.5039096323875449,-1.581858218821808,1.0139413676207607,0.1935232947008881,5.941324797136622,5.241856019106058,-0.044199553183996675,0.013098734404072757,-0.002245016134515168,0.15074876165781126,-0.14032401213847334,-0.17245239185223624,-0.3302671909332275,-0.3314335942268371,-0.9072101712226868,0.2816035151481628,-0.1376659572124481,-0.2456897348165512
1749039237.2263498,0.5038203318289464,-1.5818315949854354,1.0139377859232948,0.19383677962051507,5.9410266318615195,5.241495724123574,-0.04443916147950879,0.013261849392655704,-0.0021980607839621005,0.15227295724054773,-0.14141561290446958,-0.17438523388382524,-0.3236240744590759,-0.3251751959323883,-0.9165711998939514,0.2610891759395599,-0.1630353778600692,-0.3079094886779785
1749039237.226395,0.5037304783916502,-1.581804261650074,1.013934188104249,0.1941505864223409,5.940729207935571,5.241134513867934,-0.04471291172716017,0.013421651475392246,-0.0021579127057534285,0.15373319888222436,-0.14231445708950702,-0.17621854753827493,-0.3236240744590759,-0.3251751959323883,-0.9165711998939514,0.2610891759395599,-0.1630353778600692,-0.3079094886779785
1749039237.2264347,0.5036400275970297,-1.5817763461513643,1.0139304366745767,0.19446431848901835,5.940433401232432,5.240772730441994,-0.04502540471606822,0.013577871553849315,-0.0021281038795106064,0.15511545142589658,-0.1430659709444499,-0.177931230091877,-0.3221455812454223,-0.3178024888038635,-0.9306769967079164,0.25680011510849,-0.1371413171291351,-0.3034019470214844
1749039237.226474,0.5035489080783232,-1.5817479886582815,1.0139264023695553,0.1947778796715569,5.94013968298109,5.240410461900949,-0.04537960485009059,0.013731289758808937,-0.002110580905587055,0.156415414492878,-0.14372626350583578,-0.17951303643619096,-0.3419354259967804,-0.312529444694519,-0.933507204055786,0.2116878479719162,-0.1611652970314026,-0.3010486364364624
1749039237.2265158,0.5034570324709676,-1.5817193269559426,1.0139219805112043,0.1950914952714797,5.939848095218117,5.240047546454062,-0.04577666526535579,0.013883678087487989,-0.002105431440201107,0.15763964830301874,-0.14435643530511305,-0.18096617912693058,-0.3419354259967804,-0.312529444694519,-0.933507204055786,0.2116878479719162,-0.1611652970314026,-0.3010486364364624
1749039237.226554,0.5033643118980375,-1.5816904826581155,1.0139171048315678,0.1954056924756331,5.93955827465554,5.2396836023432725,-0.046215836964712285,0.01403763447502048,-0.0021109014977532033,0.15880507397087576,-0.14501690010633897,-0.1823064701853617,-0.329391211271286,-0.3034989237785339,-0.9466763138771056,0.2156674563884735,-0.1683898717164993,-0.2049207091331482
1749039237.226592,0.503270671985183,-1.5816615507912617,1.0139117568834624,0.19572123926822999,5.939269521623947,5.239318079628863,-0.0466944541576369,0.014196331583701042,-0.0021237169450947927,0.1599367542267734,-0.14576226183003546,-0.1835633684681603,-0.329391211271286,-0.3034989237785339,-0.9466763138771056,0.2156674563884735,-0.1683898717164993,-0.2049207091331482
1749039237.2266295,0.5031760672716122,-1.5816325937884055,1.0139059694712382,0.19603904900216504,5.938980902748066,5.238950326784571,-0.04720799488141638,0.014363209230833682,-0.002139657609508979,0.16106421932543838,-0.1466371659786627,-0.1847783335447744,-0.3384040594100952,-0.2970484793186188,-0.9351060390472412,0.221981793642044,-0.1787255555391311,-0.2202759981155395
1749039237.2266674,0.503080490629731,-1.5816036397844289,1.0138998233836485,0.19636006406488413,5.938691370593736,5.238579663566711,-0.047750222096044355,0.01454164105419022,-0.002154277372053823,0.1622169300023961,-0.14767339792318016,-0.18600120421713934,-0.3123227655887604,-0.2994226217269897,-0.9233559370040894,0.2704944312572479,-0.1799433827400207,-0.2483398914337158
1749039237.2267048,0.5029839753164963,-1.5815746841816412,1.0138934380610138,0.19668513482824368,5.938399882520561,5.238205452166174,-0.048313411938907175,0.014734602776477621,-0.0021636336981879557,0.16341968638306714,-0.14888833973728216,-0.18728483848447536,-0.3123227655887604,-0.2994226217269897,-0.9233559370040894,0.2704944312572479,-0.1799433827400207,-0.2483398914337158
1749039237.2267425,0.5028865891770592,-1.581545693180252,1.0138869580779837,0.19701490961988966,5.938105504027936,5.237827160443308,-0.04888867603083467,0.01494436231935604,-0.002164892569548094,0.16468884681882737,-0.15028475588324408,-0.1886787919999394,-0.3291783332824707,-0.2966688871383667,-0.922622799873352,0.2932847738265991,-0.174943521618843,-0.3035796284675598
1749039237.22678,0.5027884222949144,-1.5815166084722891,1.0138805378423827,0.19734974948525677,5.937807486845209,5.237444412569599,-0.049466387546476476,0.015172207598819553,-0.002156707712347071,0.1660300925446651,-0.15185178266227023,-0.19022315499814488,-0.3291783332824707,-0.2966688871383667,-0.922622799873352,0.2932847738265991,-0.174943521618843,-0.3035796284675598
1749039237.2268174,0.5026895702866526,-1.5814873531602622,1.0138743266586827,0.19768967929642034,5.9375053165558125,5.237057022530666,-0.05003672165549219,0.015418232226109333,-0.0021393250047253487,0.16743817836765404,-0.1535669398956036,-0.1919436761483795,-0.3420100808143616,-0.3039679527282715,-0.917319655418396,0.2965854406356811,-0.1908917427062988,-0.3105743527412414
1749039237.2268536,0.5025901157390428,-1.5814578394608665,1.0138684557196824,0.1980343835141465,5.937198727897788,5.236665005680196,-0.05059030715566438,0.015681208740842847,-0.002114417743563275,0.16889869651219117,-0.15539893992079695,-0.19384898389793875,-0.3178480863571167,-0.2890845835208893,-0.9275994896888732,0.2451907992362976,-0.189607635140419,-0.3173858225345611
1749039237.2268906,0.5024901107553579,-1.581427978478535,1.0138630280663854,0.19838324890631898,5.9368876890305184,5.236268565285762,-0.05111894908224265,0.015958582584299857,-0.0020847036218714908,0.17039143064306966,-0.15731102265965657,-0.1959302001900571,-0.3178480863571167,-0.2890845835208893,-0.9275994896888732,0.2451907992362976,-0.189607635140419,-0.3173858225345611
1749039237.2269328,0.5023895642842876,-1.5813976914383288,1.013858112176221,0.19873544800860687,5.936572360040095,5.235868055723101,-0.05161633305700117,0.01624661054541855,-0.0020534256006996604,0.17189450763534098,-0.15926450161496516,-0.19816271659821078,-0.3192707598209381,-0.2974166870117187,-0.920871376991272,0.2253162711858749,-0.2256483137607574,-0.2679692208766937
1749039237.226971,0.5022884379248496,-1.5813669206917078,1.013853739479204,0.19909004901471944,5.93625303519108,5.235463929721931,-0.052078591319504874,0.01654064493941307,-0.0020237967734313793,0.17338839940575693,-0.16122218467334434,-0.200509539522909,-0.3288184702396393,-0.288264662027359,-0.941182017326355,0.2345607578754425,-0.1983786225318908,-0.2518399059772491
1749039237.2270074,0.502186652339893,-1.5813356380308712,1.0138499056730799,0.19944613347690937,5.9359300808724065,5.235056680575335,-0.052504621689078566,0.016835535061727712,-0.001998513164209773,0.1748589552183877,-0.16315135099678785,-0.20292549156489645,-0.3288184702396393,-0.288264662027359,-0.941182017326355,0.2345607578754425,-0.1983786225318908,-0.2518399059772491
1749039237.227048,0.502084103353255,-1.5813038478287114,1.0138465752572352,0.19980290424700886,5.935603879965702,5.234646789336423,-0.05289610195535785,0.017126090768713267,-0.0019794249277924067,0.17629899607824712,-0.16502601636019304,-0.2053616606109167,-0.3219115138053894,-0.3012896776199341,-0.9575106501579284,0.2291301190853119,-0.1874190717935562,-0.2968522310256958
1749039237.2270856,0.5019806833578482,-1.5812715834948206,1.0138436882984674,0.2001597715304942,5.935274788649949,5.234234682275814,-0.05325721267923767,0.017407539445992243,-0.0019674234903843896,0.177708419707083,-0.16682828867823077,-0.20776971855525053,-0.3219115138053894,-0.3012896776199341,-0.9575106501579284,0.2291301190853119,-0.1874190717935562,-0.2968522310256958
1749039237.2271228,0.5018763015035167,-1.5812388974473395,1.0138411681299946,0.200516411720223,5.93494310610022,5.233820698337612,-0.05359414390437883,0.01767590984350371,-0.0019625533547813225,0.17909309124642822,-0.16854869852474363,-0.21010594267763905,-0.3314554691314697,-0.3031477034091949,-0.9375823140144348,0.2677232623100281,-0.1856460124254226,-0.287238210439682
1749039237.2273474,0.5017708966383184,-1.5812058465857204,1.0138389285979073,0.20087279853190862,5.934609054293566,5.233405063316397,-0.05391448843174551,0.017928289277863853,-0.001964302234070087,0.18046295112302718,-0.1701854973258225,-0.21233483581974255,-0.3216252326965332,-0.3410972952842712,-0.9303107261657716,0.2275931388139724,-0.1759824305772781,-0.2634279429912567
1749039237.2293403,0.5016644400465304,-1.58117247644509,1.0138368797613684,0.2012292074152509,5.93427276537034,5.232987868266584,-0.054226607033536045,0.018162918978806397,-0.0019719760857875943,0.18182976127497755,-0.17174305568058265,-0.21443213251933432,-0.3216252326965332,-0.3410972952842712,-0.9303107261657716,0.2275931388139724,-0.1759824305772781,-0.2634279429912567
1749039237.2705958,0.5015569288559026,-1.5811388074729493,1.013834931590097,0.20158619343977724,5.933934276286279,5.232569052982223,-0.05453901162474243,0.01837911546151258,-0.001985044740474695,0.18320479528019137,-0.17322964892917478,-0.21638680573506797,-0.3511500060558319,-0.3057023584842682,-0.9339630007743835,0.239991158246994,-0.2015520930290222,-0.2147725969552993
1749039237.270681,0.5014483734848585,-1.58110482622577,1.0138329959054428,0.20194454286940214,5.933593532020898,5.232148398155615,-0.05485978275905762,0.018577035816277794,-0.0020033636400204296,0.1845966471779559,-0.17465504868579593,-0.21820161658850568,-0.3511500060558319,-0.3057023584842682,-0.9339630007743835,0.239991158246994,-0.2015520930290222,-0.2147725969552993
1749039237.2707543,0.5013387829832986,-1.5810704830254767,1.0138309872608895,0.2023052017187323,5.933250397385775,5.231725529322979,-0.05519602894135997,0.018757337820725924,-0.0020272319072600535,0.18600927051856989,-0.17602840101369904,-0.21989188214014835,-0.3147013783454895,-0.3229188323020935,-0.9427252411842346,0.2605314254760742,-0.2297229319810867,-0.2330446392297744
1749039237.2708204,0.5012281513793914,-1.5810356961293985,1.0138288235376045,0.202669189877344,5.932904674022935,5.231299932109983,-0.05555339922382705,0.018920809436127194,-0.002057307652110227,0.1874403927972416,-0.17735681885822766,-0.22148246545028122,-0.3493541479110718,-0.3101765215396881,-0.9546107649803162,0.2445946335792541,-0.1922740489244461,-0.2441135197877884
1749039237.270862,0.5011164472251828,-1.5810003611902126,1.01382642685439,0.20303751343902032,5.932556116356774,5.230870974726828,-0.05593566978989452,0.019068044769502107,-0.0020944385407278693,0.18888053646417277,-0.1786449271858601,-0.22300341385161124,-0.3553909361362457,-0.3066452741622925,-0.9521037936210632,0.2523798942565918,-0.1978354454040527,-0.268462598323822
1749039237.2709012,0.5010036079347837,-1.5809643641632918,1.0138237251246618,0.2034110874324025,5.932204441177886,5.2304379335428015,-0.056344435685300384,0.019199223040537988,-0.0021394700757989913,0.19031292910326153,-0.17989531131219091,-0.224485028046177,-0.3464440703392029,-0.3264280557632446,-0.9452492594718932,0.2607349455356598,-0.188280314207077,-0.3060365915298462
1749039237.2709403,0.5008895402347872,-1.5809275960041602,1.013820654340959,0.20379067571012707,5.931849330883362,5.230000021639846,-0.05677894291036962,0.019314012671160053,-0.002193074863218711,0.19171453481024972,-0.18110953483432582,-0.22595328790227975,-0.3512516319751739,-0.3124728798866272,-0.93908953666687,0.2775789201259613,-0.1805409938097,-0.293935626745224
1749039237.2709792,0.5007741278197351,-1.5808899680752209,1.0138171615265965,0.20417684703147862,5.931490437467451,5.2295564259376865,-0.05723608760011197,0.01941159122037963,-0.002255619268242367,0.19305827412901913,-0.18228923635825134,-0.22742642625908271,-0.3512516319751739,-0.3124728798866272,-0.93908953666687,0.2775789201259613,-0.1805409938097,-0.293935626745224
1749039237.271017,0.5006572466580913,-1.5808514274980436,1.0138132082968805,0.20456994074838922,5.9311273986596555,5.2291063615470605,-0.05771059078955504,0.01949075884821063,-0.0023270649940482697,0.19431625615774925,-0.18343685711373434,-0.22891309142061722,-0.2889178693294525,-0.3085784018039703,-0.949560046195984,0.2707901000976562,-0.2086633592844009,-0.2652851641178131
1749039237.2710547,0.5005387869655561,-1.5808119714361026,1.01380877495099,0.20497003544790074,5.930759875666645,5.2286491489976505,-0.05819533559557956,0.019550128777457938,-0.002406900324858398,0.19546359208301328,-0.1845557744527181,-0.23041212928559987,-0.2889178693294525,-0.3085784018039703,-0.949560046195984,0.2707901000976562,-0.2086633592844009,-0.2652851641178131
1749039237.271093,0.5004186788196576,-1.5807716586589329,1.0138038647764644,0.2053769197483443,5.930387613497048,5.228184310687597,-0.058681835342742815,0.019588387100284117,-0.002494103409071655,0.19648218547493515,-0.18564991592684332,-0.2319137117986906,-0.3451009094715118,-0.3181140422821045,-0.9422429203987122,0.2698811292648315,-0.2128159701824188,-0.264108806848526
1749039237.271131,0.5002969164525096,-1.5807306161545944,1.013798507865185,0.2057900729992015,5.930010513098364,5.227711671027145,-0.05916079673289604,0.0196046099551051,-0.0025871441100209108,0.19736387714182052,-0.18672317382455045,-0.233401427843966,-0.3451009094715118,-0.3181140422821045,-0.9422429203987122,0.2698811292648315,-0.2128159701824188,-0.264108806848526
1749039237.2711694,0.5001735754542078,-1.5806890384937784,1.013792763462261,0.20620866949496175,5.929628695252617,5.227231436428137,-0.059622755142490755,0.019598606880294876,-0.0026840232336254872,0.1981124661846759,-0.18777902939562033,-0.23485500816931507,-0.3333031237125397,-0.3207755386829376,-0.9319226145744324,0.2576096653938293,-0.2277711480855941,-0.293396919965744
1749039237.2712069,0.5000488184101151,-1.5806471784429987,1.0137867198426387,0.20663161787029483,5.929242535174325,5.226744232197768,-0.06005877368326161,0.019571237935195294,-0.0027823333987438423,0.19874435910281527,-0.18882068994124132,-0.23625345796707858,-0.3272380530834198,-0.3261358439922333,-0.9334521889686584,0.2715699374675751,-0.210557222366333,-0.3160213828086853
1749039237.2712507,0.49992288782866795,-1.580605328846872,1.0137804909420818,0.20705763708470368,5.928852655403788,5.226251084369401,-0.06046119265332092,0.019524644410396738,-0.0028793189406536605,0.19928782470244585,-0.1898517806745649,-0.23757839780048087,-0.3272380530834198,-0.3261358439922333,-0.9334521889686584,0.2715699374675751,-0.210557222366333,-0.3160213828086853
1749039237.2712948,0.49979608882600574,-1.5805637974130775,1.0137742094302784,0.20748535834146672,5.928459877244373,5.225753349066644,-0.060824388529421916,0.019462344280903668,-0.002971924964236364,0.1997810085619316,-0.1908773349068268,-0.23881733140284298,-0.3079500794410705,-0.3189112842082977,-0.970866560935974,0.2631480395793915,-0.1897467076778412,-0.2943895757198334
1749039237.271333,0.4996687657610662,-1.5805228772426227,1.0137680165383318,0.20791343652936445,5.928065140118833,5.225252601728071,-0.061145467125405674,0.019389166607049122,-0.0030568549328607053,0.2002689786364246,-0.19190462965596872,-0.2399664280990913,-0.2862919569015503,-0.3147958517074585,-0.9659241437911988,0.2592958807945251,-0.1492783427238464,-0.2159775197505951
1749039237.2713704,0.49954127646627877,-1.5804828168136604,1.013762049596061,0.20834065688801404,5.927669401746825,5.224750501272962,-0.06142479168310518,0.019311021519170718,-0.003130681775000325,0.20080013440379643,-0.19294339976159922,-0.24103232669825442,-0.2862919569015503,-0.3147958517074585,-0.9659241437911988,0.2592958807945251,-0.1492783427238464,-0.2159775197505951
1749039237.2714078,0.49941396617328726,-1.5804437936283502,1.0137564287109555,0.20876602806118608,5.927273532519118,5.2242486435823245,-0.061666245330664456,0.01923451934868268,-0.0031900550418209475,0.20142233184735586,-0.19400513383715656,-0.2420325216106906,-0.3087113499641418,-0.3124073445796966,-0.971610963344574,0.2934780120849609,-0.1711707413196563,-0.2315188646316528
1749039237.2714458,0.49928714193625395,-1.5804058953300615,1.0137512442385315,0.20918885732632533,5.926878216618633,5.223748417355029,-0.06187715303036173,0.019166469637206668,-0.003232006466415173,0.2021790846793205,-0.19510145965856582,-0.24299411551351827,-0.3106774389743805,-0.2914137542247772,-0.9172865748405457,0.3149618804454803,-0.2211593091487884,-0.2961846590042114
1749039237.2715662,0.49916104796031935,-1.5803691105743052,1.013746546731923,0.2096088058103879,5.926483870735556,5.2232508744040445,-0.06206783409947302,0.01911331321900498,-0.0032542950873445478,0.20310619974311664,-0.19624196809426145,-0.24395106412844833,-0.3106774389743805,-0.2914137542247772,-0.9172865748405457,0.3149618804454803,-0.2211593091487884,-0.2961846590042114
1749039237.2734072,0.49903584294449566,-1.5803333300225049,1.0137423409766064,0.2100259207590082,5.926090589227902,5.222756626179837,-0.06225080795644055,0.019080561572493944,-0.003255690133475332,0.2042291541370072,-0.19743206553472814,-0.24494036579313477,-0.3311295509338379,-0.2899799644947052,-0.928729236125946,0.3150284588336944,-0.2454879730939865,-0.2814935147762298
1749039237.3145218,0.49891158179645373,-1.580298356428037,1.0137385853323273,0.21044064020193437,5.925698122172048,5.222265777795392,-0.062439723463207274,0.01907232392302269,-0.003236101780672519,0.20556140931187009,-0.19867146814988654,-0.24599783311691686,-0.3311295509338379,-0.2899799644947052,-0.928729236125946,0.3150284588336944,-0.2454879730939865,-0.2814935147762298
1749039237.314602,0.4987882048838993,-1.580263922118157,1.0137351967018218,0.21085376501589884,5.925305889509816,5.221777908613441,-0.0626481255069993,0.0190909885874393,-0.0031965376993890494,0.207103734402788,-0.1999537383530463,-0.2471540884616087,-0.3714137375354767,-0.2866341173648834,-0.9480467438697816,0.3267098069190979,-0.2172722518444061,-0.2762475311756134
1749039237.314676,0.4986655377867731,-1.5802297119594813,1.0137320601832565,0.21126639509816533,5.924913031177372,5.221292104616301,-0.06288820866259204,0.019137097449112534,-0.003138946237892734,0.20884454099090413,-0.20126690634380873,-0.2484313041625947,-0.3438007235527038,-0.2793905436992645,-0.9687802195549012,0.3557775020599365,-0.186208114027977,-0.2736960053443908
1749039237.314747,0.4985433032871244,-1.5801953898528562,1.0137290413712245,0.21167982994636897,5.924518490264559,5.220807042790884,-0.063169725297429,0.01920942292430339,-0.003066053932928392,0.21076121595877986,-0.20259487367984214,-0.2498410428494956,-0.3438007235527038,-0.2793905436992645,-0.9687802195549012,0.3557775020599365,-0.186208114027977,-0.2736960053443908
1749039237.314818,0.49842114524093245,-1.5801606267798027,1.0137259988603486,0.21209543981424106,5.924121122841006,5.220321121065807,-0.0634992000950866,0.01930523290045183,-0.002981289021255677,0.21282241755774148,-0.20391911628429946,-0.2513833949372702,-0.330389142036438,-0.2889114618301391,-0.9327645897865297,0.3784173429012298,-0.1896364390850067,-0.31585693359375
1749039237.314891,0.49829866141729806,-1.5801251283100948,1.0137227949343974,0.212514521362781,5.923719823367812,5.219832619231494,-0.06387955068925234,0.019420710439547652,-0.002888812586731485,0.2149912151189684,-0.2052202644263588,-0.2530474706429052,-0.330389142036438,-0.2889114618301391,-0.9327645897865297,0.3784173429012298,-0.1896364390850067,-0.31585693359375
1749039237.3149626,0.49817544019291954,-1.5800886592505747,1.0137193034372178,0.21293815866335036,5.923313649981541,5.219339869337772,-0.06431013953962363,0.01955147756183547,-0.002793592286374117,0.21722880676335832,-0.20647937675428985,-0.2548131612866544,-0.371185839176178,-0.3128089308738708,-0.9219860434532166,0.3525440692901611,-0.218346819281578,-0.2973060011863708
1749039237.3150325,0.4980510950581323,-1.5800510628867421,1.0137154149268626,0.21336711313268833,5.9229019315166385,5.218841411169622,-0.06478721028184081,0.0196931566230902,-0.0027013975237881473,0.21949839955906983,-0.20767899295090073,-0.25665391095004386,-0.3849045038223266,-0.2822950482368469,-0.9237797856330872,0.3546865582466125,-0.2195436358451843,-0.2960658371448517
1749039237.3151035,0.49792529166477656,-1.5800122723349346,1.0137110399293983,0.21380176237719373,5.922484339444085,5.2183361110292825,-0.06530460743506733,0.019841894827601132,-0.0026186010538042127,0.2217687524852031,-0.20880420190665533,-0.2585400468342282,-0.2930518686771393,-0.2684560120105743,-0.9434736371040344,0.3587067425251007,-0.2436424791812896,-0.2586203515529632
1749039237.3151731,0.49779776443883994,-1.579972312238323,1.0137061111596306,0.21424209793651428,5.922060913795286,5.217823230326922,-0.06585464257235649,0.019994783474806148,-0.0025517389008974274,0.22401690580265166,-0.20984393135890744,-0.26044208184428275,-0.3554219007492065,-0.2754748165607452,-0.9565950036048888,0.336749255657196,-0.2180919349193573,-0.2438285648822784
1749039237.3152442,0.49766832277595635,-1.579931290438361,1.013700585065641,0.21468777861326546,5.9216320414264905,5.217302442095651,-0.06642895858740201,0.02015012441442653,-0.0025068754525243053,0.22622974737892457,-0.21079247655506061,-0.2623334222501802,-0.3554219007492065,-0.2754748165607452,-0.9565950036048888,0.336749255657196,-0.2180919349193573,-0.2438285648822784
1749039237.3153136,0.4975368492429477,-1.5798893808292318,1.0136944424897247,0.21513822519982306,5.92119839376342,5.21677380347632,-0.06701926891117638,0.020307524960517496,-0.0024888978663138925,0.22840425510996124,-0.21165104652010938,-0.2641921154885155,-0.3339828550815582,-0.2788389027118683,-0.967507004737854,0.3346967399120331,-0.2006667405366897,-0.2952928841114044
1749039237.3153827,0.4974032930745446,-1.5798467997544348,1.0136876881777346,0.2155927379861638,5.920760836117407,5.216237696658931,-0.06761790361467769,0.020467827712630254,-0.002500890501053788,0.23054644921665107,-0.21242894909559604,-0.26600157876587266,-0.3797066211700439,-0.2682529091835022,-0.9655330181121826,0.373974084854126,-0.1711403876543045,-0.3029842674732208
1749039237.3154511,0.4972676618280014,-1.5798037788801051,1.013680349388981,0.2160506192671874,5.920320322093454,5.215694750671826,-0.06821814774587007,0.020632895990308216,-0.0025437123041986854,0.23266924647890014,-0.2131440385244057,-0.26775051906885106,-0.3797066211700439,-0.2682529091835022,-0.9655330181121826,0.373974084854126,-0.1711403876543045,-0.3029842674732208
1749039237.3155208,0.49713001322745476,-1.579760537628126,1.0136724744224312,0.21651128563457692,5.919877786314615,5.2151457548474145,-0.06881438363021947,0.020805280841110725,-0.0026158381192906144,0.23478951578903878,-0.21382219863376936,-0.26943238619884385,-0.3382073044776916,-0.2868588268756866,-0.9634615182876588,0.3437309265136719,-0.16022390127182,-0.2994631230831146
1749039237.3155897,0.49699044836423,-1.5797172580678636,1.0136641318311919,0.21697435759645886,5.919434047035943,5.21459157304413,-0.06940205112111353,0.020987798670249806,-0.002713455758978921,0.23692469905718727,-0.21449585417486708,-0.2710446835803979,-0.3482182919979095,-0.2613964080810547,-0.9403780102729796,0.3385577499866485,-0.2029972970485687,-0.2519753575325012
1749039237.3156583,0.4968491065276095,-1.5796740647894219,1.0136554103651596,0.21743971693414363,5.918989727512837,5.214033066149134,-0.06997744074168337,0.021183054276237668,-0.0028307591241621068,0.23908939452104172,-0.21520170278948306,-0.2725883590256353,-0.3482182919979095,-0.2613964080810547,-0.9403780102729796,0.3385577499866485,-0.2029972970485687,-0.2519753575325012
1749039237.3157296,0.4967061612158807,-1.5796310119257246,1.013646418868491,0.21790752518904466,5.9185452023737755,5.213471029329618,-0.0705373549979238,0.021392952893504045,-0.0029603626836053345,0.24129230271378832,-0.21597796624686622,-0.2740673792113481,-0.3292751908302307,-0.2851603627204895,-0.9587796330451964,0.3448659181594848,-0.2011775076389312,-0.3260290026664734
1749039237.3158011,0.49656181631906093,-1.5795880790915566,1.0136372851172655,0.21837820083679158,5.918100572676264,5.212906148477382,-0.07107871052549955,0.021618253469557647,-0.0030937877984674456,0.24353390350055323,-0.21686143881433995,-0.27548849628734556,-0.3292751908302307,-0.2851603627204895,-0.9587796330451964,0.3448659181594848,-0.2011775076389312,-0.3260290026664734
1749039237.3158703,0.4964163008614143,-1.5795451771865407,1.0136281529325526,0.21885235905875244,5.917655669864366,5.212338975881645,-0.07159818286230542,0.02185821918349509,-0.003222015160032721,0.2458051522387878,-0.21788450411000526,-0.2768611454940409,-0.3372161984443664,-0.2776265740394592,-0.9625420570373536,0.3568509817123413,-0.1999191492795944,-0.3028957843780517
1749039237.3160295,0.4962698603504525,-1.5795021635297808,1.0136191773402354,0.21933072484024155,5.917210085352722,5.2117699206592,-0.07209199499530412,0.022110417313474056,-0.003336123511226078,0.24808734038085148,-0.2190722047959377,-0.27819735154105285,-0.3402101099491119,-0.2804914116859436,-0.9701094627380372,0.3443412184715271,-0.1947255879640579,-0.2583429515361786
1749039237.3173852,0.49612274345944174,-1.5794588639720364,1.0136105177640187,0.21981403386742288,5.916763221145254,5.211199248930987,-0.07255592212767432,0.02237070823254199,-0.003428018689645948,0.2503530798002532,-0.22043946915852647,-0.2795114683669332,-0.3402101099491119,-0.2804914116859436,-0.9701094627380372,0.3443412184715271,-0.1947255879640579,-0.2583429515361786
1749039237.3582747,0.4959751846783052,-1.5794150982789321,1.01360232942431,0.22030293473162899,5.916314358061935,5.210627092527883,-0.07298554286626725,0.02263344189021435,-0.003491205546314647,0.25256820772697774,-0.22198872186188118,-0.2808195724615159,-0.3386416435241699,-0.2665177285671234,-0.9269636273384094,0.3774964511394501,-0.2226522564888,-0.2816821336746216
1749039237.358322,0.49582738586735714,-1.5793707049095354,1.0135947534754512,0.22079790215696324,5.915862739185587,5.210053468827519,-0.07337672074169509,0.022891850154813986,-0.0035214993976159827,0.25469433698412547,-0.22370825450191612,-0.28213842353124874,-0.3304669260978699,-0.2876113355159759,-0.940415620803833,0.3977601528167724,-0.2656765878200531,-0.2932739853858948
1749039237.358363,0.4956795010062595,-1.5793255622303648,1.0135879067401123,0.2212991678339204,5.915407664176251,5.209478313639065,-0.07372625395278924,0.0231385905765462,-0.003517546664392968,0.2566917979835433,-0.22557181203064713,-0.2834840911074559,-0.3304669260978699,-0.2876113355159759,-0.940415620803833,0.3977601528167724,-0.2656765878200531,-0.2932739853858948
1749039237.3584025,0.4955316277965769,-1.5792796043077746,1.0135818718718772,0.22180667530176015,5.914948584705018,5.208901523097845,-0.07403259403817745,0.02336637285314039,-0.0034810434523091225,0.25852277731542783,-0.22753979348180484,-0.2848705354724559,-0.2933104634284973,-0.2794872522354126,-0.937737226486206,0.3805601298809051,-0.2632480561733246,-0.2976036667823791
1749039237.3584418,0.49538380723062164,-1.5792328300256584,1.0135766884623234,0.22232006694918907,5.914485185386231,5.208322993316048,-0.07429651682668591,0.02356859270389334,-0.0034166009473876025,0.2601544899550448,-0.22956224077907947,-0.2863085111951779,-0.3312990665435791,-0.2711690068244934,-0.9450874924659728,0.3751108944416046,-0.2642904222011566,-0.3237002789974212
1749039237.3584802,0.4952360295274692,-1.579185304724138,1.0135723454706305,0.22283870944520442,5.914017433625317,5.207742645025668,-0.07452163493235647,0.023739906382790856,-0.003331284898658147,0.26156220668965785,-0.2315834370202287,-0.28780507261706806,-0.3333106637001037,-0.2630913257598877,-0.9608807563781738,0.3467578887939453,-0.2448713481426239,-0.2758058607578277
1749039237.358518,0.49508824394641004,-1.5791371545380932,1.0135687757761662,0.22336175507243433,5.913545588924713,5.207160428188119,-0.07471466494607067,0.023876691685329347,-0.0032339231350444215,0.2627319217312384,-0.23354757190207132,-0.28936374571720397,-0.3359987735748291,-0.2740804553031921,-0.972765862941742,0.3211622834205627,-0.2178100496530532,-0.2953996658325195
1749039237.3585565,0.494940370747591,-1.5790885549113403,1.01356585445234,0.22388822481451215,5.91307017352304,5.206576312967852,-0.07488539578181491,0.023977352940219958,-0.0031343048504612714,0.2636624307715039,-0.23540469784954257,-0.29098520370613207,-0.3359987735748291,-0.2740804553031921,-0.972765862941742,0.3211622834205627,-0.2178100496530532,-0.2953996658325195
1749039237.3585944,0.494792314024862,-1.5790397154328533,1.0135634027433336,0.22441709389419467,5.912591913870612,5.205990278659665,-0.07504633800800899,0.024042442709629314,-0.0030423801972665637,0.2643666194627842,-0.23711617257292644,-0.29266814946337816,-0.3463808298110962,-0.311318427324295,-0.9421647787094116,0.3002209365367889,-0.2072499245405197,-0.3059805631637573
1749039237.358632,0.49464397342378225,-1.5789908628394227,1.013561198952047,0.22494736561046444,5.912111662927047,5.205402307704106,-0.07521206068058313,0.02407459472283649,-0.0029675239269524875,0.2648718267873118,-0.23865892937032518,-0.29441010104231774,-0.3463808298110962,-0.311318427324295,-0.9421647787094116,0.3002209365367889,-0.2072499245405197,-0.3059805631637573
1749039237.35867,0.49449525202386246,-1.5789422233223396,1.0135589956938704,0.2254781296644872,5.911630310164097,5.204812383383885,-0.07539824381783707,0.024078286384831903,-0.002917882220679082,0.2652192152180401,-0.24002813359462627,-0.29620786346340805,-0.3422366976737976,-0.2862018942832947,-0.9530186653137208,0.3375160098075866,-0.2362168282270431,-0.2758902907371521
1749039237.3587077,0.49434605818847777,-1.5788940047791649,1.0135565413019698,0.2260086091792899,5.911148684535582,5.204220484373684,-0.07562049984225534,0.024059468934386492,-0.0028998013244725114,0.2654621167162938,-0.24123798132264784,-0.29805760052859215,-0.3177728354930877,-0.3162837326526642,-0.961405634880066,0.2877618670463562,-0.1675257384777069,-0.2822059392929077
1749039237.358745,0.49419630104334866,-1.578846379571177,1.01355360243139,0.22653820279134673,5.910667457212387,5.2036265698642765,-0.07589305117836104,0.02402511525227094,-0.0029173440606192584,0.26566332646113183,-0.24232054144969553,-0.29995456258704045,-0.3177728354930877,-0.3162837326526642,-0.961405634880066,0.2877618670463562,-0.1675257384777069,-0.2822059392929077
1749039237.3587823,0.49404588153492546,-1.5787994686581739,1.0135499850007534,0.22706652567374846,5.910187053641437,5.203030553683106,-0.07622738823578515,0.02398273746026653,-0.00297192227462229,0.26589132799306014,-0.24332266387670204,-0.3018926549810417,-0.3341255187988281,-0.2710357308387756,-0.9577648043632508,0.2933644354343414,-0.1435112804174423,-0.2961674332618713
1749039237.3588204,0.4938946825744936,-1.578753328470896,1.0135455510183784,0.22759344914642696,5.909707585602794,5.20243227098989,-0.07663106058022748,0.02393992011276104,-0.0030620919578984405,0.26621551588904324,-0.24430113904401038,-0.30386410733986036,-0.3216775357723236,-0.297924280166626,-0.9801814556121826,0.2684516608715057,-0.1764831244945526,-0.3164325952529907
1749039237.3588576,0.49374256205880845,-1.5787079421938806,1.013540229374742,0.22811913428421493,5.909228812801463,5.201831444879362,-0.0771067637024926,0.023903903901981004,-0.0031835609703620297,0.2667006561749064,-0.24531653473657622,-0.30585948365564464,-0.3216775357723236,-0.297924280166626,-0.9801814556121826,0.2684516608715057,-0.1764831244945526,-0.3164325952529907
1749039237.3588953,0.49358935186338415,-1.5786632170276005,1.013534019458065,0.22864405108294028,5.908750141387554,5.201227662738613,-0.07765186603314002,0.023881241395828628,-0.003329441884518157,0.2674010489421136,-0.24642640417809433,-0.30786814965740916,-0.358349084854126,-0.2838953137397766,-0.9769942760467528,0.3181790709495544,-0.2366586178541183,-0.295015424489975
1749039237.358933,0.49343486450471796,-1.5786189884530022,1.0135269875131874,0.22916897303174705,5.908270663473902,5.200620372461343,-0.07825847042195905,0.023877530877153254,-0.0034907467386107107,0.2683550597070805,-0.24767874195295397,-0.3098791344704741,-0.358349084854126,-0.2838953137397766,-0.9769942760467528,0.3181790709495544,-0.2366586178541183,-0.295015424489975
