nimar13/UR3e_dataset_trayectorias/trayectorias_ejecutadas_filtradas/quintic/trayectoria_229_result_filtrado.csv
timestamp,q1,q2,q3,q4,q5,q6,qd1,qd2,qd3,qd4,qd5,qd6,tau1,tau2,tau3,tau4,tau5,tau6
1749037200.1262658,0.613101750496189,-0.3601389629750329,0.7405218015851595,-4.191558899863454,4.905450190327112,4.060363875973655,-1.9029392352982274e-07,-0.004040481861169147,-0.00029951805948957844,0.003432438079586565,-0.0018422805381871344,-0.0001944398106140572,0.1171280294656753,-1.7423301935195925,-0.9931553602218628,-0.1089742928743362,0.0139782624319195,0.0304720923304557
1749037200.1263134,0.6130939442864352,-0.360148049276074,0.7405255040847295,-4.191554393413985,4.905445407377764,4.060370398124318,-2.0287422697341465e-07,-0.003905489946735079,-0.00029168378646567003,0.003181055771471996,-0.0018746863206480157,-0.0005429642350352653,0.1298040002584457,-1.755645751953125,-0.9947379231452942,-0.1312059760093689,0.0329444743692874,0.0263056308031082
1749037200.126355,0.6130863485752318,-0.3601568164048537,0.7405290371541774,-4.191549914276166,4.90544077828247,4.060376639928928,-1.9630747779315135e-07,-0.003769719972388216,-0.00028389578150001465,0.0029390907805396465,-0.0019026472880352124,-0.0008800033073567261,0.1355325132608413,-1.7791376113891602,-0.9952389001846312,-0.1113149374723434,0.0130897890776395,0.0314015075564384
1749037200.1263945,0.6130791888762037,-0.3601650010235254,0.7405322237894487,-4.191545451434065,4.905436424920127,4.060382253573263,-1.6618825189928253e-07,-0.003631161702567823,-0.00027565049118524,0.0027127384535328633,-0.001920838268490515,-0.0011938068035409863,0.1346997320652008,-1.7994736433029177,-0.9863832592964172,-0.1142474710941314,0.0172491166740655,0.0228208675980567
1749037200.1264334,0.6130726643531033,-0.36017238529428675,0.7405349203871887,-4.191540993599246,4.905432460906268,4.060386953080913,-1.0954497851128624e-07,-0.0034876628888960053,-0.00026643384199420597,0.0025067371138416295,-0.0019245537250306415,-0.0014742201427837699,0.1252080202102661,-1.792357087135315,-0.9914004802703856,-0.0916868075728416,0.0148334661498665,-0.001192070543766
1749037200.1264713,0.613066935942773,-0.3601788081610339,0.7405370281319672,-4.191536533543915,4.905428985866009,4.060390537202157,-2.555480024583534e-08,-0.0033370447992727664,-0.0002557522008842154,0.0023239692402595717,-0.001910018625824655,-0.0017133289670668982,0.1472671777009964,-1.8099454641342163,-1.001736402511597,-0.0919780060648918,-0.0174852907657623,0.0112987533211708
1749037200.1265187,0.6130621170216745,-0.36018416991752567,0.7405384979212023,-4.19153207237552,4.905426078382922,4.0603928996173435,8.378823168405703e-08,-0.0031773015683431434,-0.00024316794574178604,0.002165265785940999,-0.00187464094230231,-0.001905850871110128,0.1225988864898681,-1.8282655477523804,-0.9922029972076416,-0.0979344919323921,0.0034919725731015,0.0188892558217048
1749037200.126566,0.6130582682076565,-0.36018843090019825,0.7405393295257463,-4.191527622979578,4.905423789196451,4.060394026631687,2.1313829002631316e-07,-0.003006867672742158,-0.00022833837181118698,0.002029453810112523,-0.0018171997633578208,-0.0020492555735416302,0.1182767152786254,-1.8183931112289429,-0.976097583770752,-0.0803469866514206,0.0045088762417435,0.0047216638922691
1749037200.1266055,0.6130553974733441,-0.36019160608153533,0.7405395662710436,-4.191523211918159,4.905422136060319,4.060393984564269,3.534913339182611e-07,-0.0028249105430934486,-0.00021105549555744033,0.0019136454040949242,-0.001737952483236378,-0.002143637376279155,0.1371909826993942,-1.834954857826233,-0.9758976697921752,-0.08118936419487,0.0182697959244251,0.0147753655910491
1749037200.1266437,0.6130534655893733,-0.36019375756854777,0.7405392865704707,-4.1915188792718645,4.9054211010299795,4.060392900423016,4.922023497489999e-07,-0.002631593583517688,-0.00019128328122339653,0.0018137212882089256,-0.001638633361041261,-0.002191395581856655,0.1268716752529144,-1.8707951307296755,-0.9811404943466188,-0.0893638283014297,-0.0021768240258097,0.0226901248097419
1749037200.126682,0.6130523955377313,-0.36019498658079374,0.7405385934725806,-4.1915146762116295,4.90542063039335,4.060390939926354,6.134111335763556e-07,-0.0024282591019729256,-0.0001691881656170743,0.0017249318959404218,-0.0015223195190839926,-0.0021967930610604642,0.1221523731946945,-1.8400161266326904,-0.9845271110534668,-0.099015288054943,-0.0122363548725843,0.006040059030056
1749037200.126721,0.6130520836827914,-0.360195425535995,0.740537603205208,-4.1915106605226855,4.905420637230069,4.060388286375059,6.989388912524998e-07,-0.0022174916065421345,-0.00014515877425485242,0.0016425290144495266,-0.0013931641905542455,-0.002165459337026142,0.142037034034729,-1.835760712623596,-0.9834253191947936,-0.0772211998701095,-0.0117296054959297,0.011165551841259
1749037200.1267588,0.6130524105377045,-0.3601952298591902,0.7405364336788399,-4.191506890797189,4.905421006612873,4.060385122690882,7.29682382193299e-07,-0.002003034531942785,-0.0001198116495727728,0.0015623481399721867,-0.001256029353960318,-0.0021038870952711647,0.155448243021965,-1.82440197467804,-0.978257417678833,-0.0652782320976257,-0.0137729346752166,-0.0101169198751449
1749037200.1267962,0.6130532496633723,-0.3601945687576258,0.7405351940512455,-4.191503420334185,4.905421603524452,4.06038161780894,6.874842939922939e-07,-0.0017895503894594907,-9.398158888327157e-05,0.0014812767538002227,-0.001116072368778586,-0.0020189489742431697,0.1450726687908172,-1.8157373666763303,-0.9939124584197998,-0.0882587879896164,-0.0087206158787012,-0.0070372894406318
1749037200.1268568,0.6130544741201284,-0.36019361479872747,0.7405339764826052,-4.19150029177057,4.905422283332677,4.060377917920421,5.573999985981038e-07,-0.0015822379230645298,-6.869707653527872e-05,0.0013975602931020255,-0.0009783439212657805,-0.001917444322977163,0.1306475698947906,-1.8421493768692017,-1.0048162937164309,-0.0824697688221931,-0.0092737041413784,0.0001592263579368
1749037200.1269228,0.6130559606973617,-0.3601925331805666,0.7405328508451137,-4.191497533185061,4.905422904004343,4.060374142623431,3.302154997673379e-07,-0.0013863457235596852,-4.5142091953187214e-05,0.0013109147852529228,-0.000847441336416003,-0.0018056790713862811,0.1348969340324401,-1.8305522203445437,-0.9885165691375732,-0.0891728475689888,-0.0258798990398645,0.013155922293663
1749037200.1269877,0.6130575927274187,-0.36019147219992,0.7405318624709732,-4.191495156074088,4.905423338498301,4.060370385474628,5.004679293967487e-09,-0.0012066413143187729,-2.46047203055093e-05,0.0012224350674487384,-0.000727242319328257,-0.0016890859333334924,0.1504936218261718,-1.8229843378067017,-1.000182032585144,-0.0903733074665069,0.0013884408399462,0.0165048912167549
1749037200.1270545,0.6130592624730143,-0.36019055619509444,0.7405310324423636,-4.191493155316234,4.905423485559821,4.060366717745215,-4.0854705411234505e-07,-0.001046901876083199,-8.411289509399123e-06,0.0011343109004944543,-0.0006207274520064461,-0.0015719020706230298,0.1580681800842285,-1.8174281120300293,-1.004780888557434,-0.0986222624778747,-0.0066345781087875,0.0360049083828926
1749037200.127123,0.6130608737945336,-0.3601898814666799,0.7405303598141079,-4.191491510995385,4.90542327759682,4.060363193797851,-8.883725868848926e-07,-0.0009094873236587556,2.156325600132008e-06,0.001049387267027645,-0.0005298884359672676,-0.0014569307830641246,0.1581228077411651,-1.8047679662704468,-0.9926587343215942,-0.0876404196023941,-0.0051511824131011,0.0190296098589897
1749037200.1271915,0.6130623452126358,-0.3601895149094418,0.7405298255002665,-4.191490191668721,4.905422685031023,4.060359856690042,-1.3991502057547932e-06,-0.000795042483025936,5.9620922704041365e-06,0.0009706250250485897,-0.0004557127490252605,-0.0013454183523511516,0.1634698212146759,-1.8109346628189087,-0.9936085939407348,-0.0791647136211395,-0.0143315382301807,0.0097187831997871
1749037200.1278715,0.6130636128822309,-0.3601894946664704,0.7405293979224318,-4.191489158372937,4.905421717029574,4.060356743125902,-1.892663814797581e-06,-0.0007023576403347319,2.1355473620786985e-06,0.0009005302632462096,-0.0003982322100696818,-0.0012370755712831003,0.1613548398017883,-1.821333765983581,-0.9899232983589172,-0.0908466726541519,-0.0051131416112184,0.0103566795587539
1749037200.1297717,0.6130646326736745,-0.36018983203655913,0.7405290403955997,-4.191488368565516,4.905420418755627,4.060353887304997,-2.309684453280286e-06,-0.0006283994486215549,-9.79407503651072e-06,0.0008406240376709195,-0.0003566212000706696,-0.0011302662224993549,0.1661673486232757,-1.799685001373291,-0.9896185994148254,-0.0855541974306106,-0.0096017764881253,0.018200360238552
1749037200.1702762,0.6130653806658051,-0.3601905139251772,0.7405287195453849,-4.1914877794882655,4.905418865429339,4.0603513234277235,-2.5835685852981624e-06,-0.0005685090220045167,-2.975766910556383e-05,0.0007910195710966946,-0.0003293292434270768,-0.001022372321782642,0.1548554003238678,-1.7965556383132937,-0.9872602224349976,-0.0916750952601432,-0.0054981028661131,0.0010804682970046
1749037200.170336,0.6130658518592084,-0.36019150521385374,0.7405284133379003,-4.191487350968281,4.9054171537790365,4.060349086721158,-2.6456289483530083e-06,-0.0005167516149030149,-5.701301741151318e-05,0.0007501633988092648,-0.00031423259093000465,-0.0009103287837409594,0.1486887633800506,-1.8004788160324097,-0.9990017414093018,-0.0994100198149681,0.0043546166270971,0.0109980404376983
1749037200.1703782,0.6130660576140956,-0.36019275061347494,0.7405281171302093,-4.191487048001621,4.905415391877783,4.060347212931613,-2.432149900517576e-06,-0.0004663924252267728,-9.003569400702607e-05,0.0007147823283805741,-0.0003087910553309367,-0.0007912999266079183,0.1561945527791977,-1.7903342247009275,-0.9871103763580322,-0.1108313798904419,-0.0109816053882241,-0.0090804547071456
1749037200.170417,0.6130660228441245,-0.36019417594267544,0.7405278465472994,-4.191486843360979,4.905413688638705,4.060345736282387,-1.892699634735924e-06,-0.0004104653710174403,-0.00012645457910945095,0.0006800608925249069,-0.0003101999423391732,-0.0006634497997638294,0.1696173101663589,-1.7623443603515625,-1.017013669013977,-0.1092442572116851,-0.0015817191451787,0.0296243354678154
1749037200.1704557,0.613065783960252,-0.3601956892325693,0.7405276366406968,-4.191486720114907,4.905412144166433,4.060344685879726,-9.99150990953526e-07,-0.0003423958543749952,-0.00016305417363018877,0.0006400550800595313,-0.0003155319504249115,-0.000526740577342312,0.1760715544223785,-1.7704917192459106,-1.0115444660186768,-0.0898153632879257,0.0042845848947763,0.0058255195617675
1749037200.1704938,0.6130653878624217,-0.3601971824444937,0.7405275374806507,-4.191486673617162,4.9054108417920474,4.060344080498374,2.454181855510085e-07,-0.0002566344528162944,-0.00019586541703985337,0.0005883280843327928,-0.0003218691602424755,-0.0003836800913169929,0.1598730385303497,-1.7589141130447388,-1.005122184753418,-0.0936455577611923,-0.0006957205478101,0.0163795873522758
1749037200.1705315,0.6130648913522482,-0.3601985347916736,0.7405276070077501,-4.191486712331019,4.9054098421285595,4.060343921757095,1.7989885567488485e-06,-0.00014925596332765226,-0.00022036334542571617,0.0005187731521248352,-0.0003264294201250306,-0.0002399320457989636,0.1733075380325317,-1.761775255203247,-1.0115442276000977,-0.111759528517723,-0.003946853801608,0.013070173561573
1749037200.1705697,0.6130643598278599,-0.3601996185165678,0.7405279024933207,-4.19148685685019,4.905409179024748,4.060344186065787,3.5752272503521587e-06,-1.8476361628492143e-05,-0.00023178321478988103,0.00042656811210642077,-0.0003266937192115271,-0.00010470162196174678,0.1824097782373428,-1.7288037538528442,-1.0159087181091309,-0.1139765381813049,0.0135368779301643,0.0304619818925857
1749037200.1706078,0.6130638642576837,-0.360200307355824,0.7405284721925726,-4.191487136686927,4.905408857078042,4.060344816287184,5.44174801023492e-06,0.00013496207121895052,-0.00022555659749180215,0.00030918695475239886,-0.00032054120593452457,9.183422312627388e-06,0.1687806695699691,-1.7343899011611938,-1.0185678005218506,-0.1114731132984161,0.0022039795294404,0.0321126580238342
1749037200.1706457,0.6130634759793294,-0.36020048703844554,0.7405293486827518,-4.191487584695653,4.9054088505433855,4.060345714442827,7.223216740997956e-06,0.0003075891900585447,-0.00019785584026001953,0.00016737752586898252,-0.0003063964215266721,8.555875031806481e-05,0.1842787861824035,-1.73215913772583,-1.009260654449463,-0.1133606508374214,0.0054885670542716,0.0203131288290023
1749037200.1706831,0.613063259634874,-0.360200066528142,0.7405305449662999,-4.191488229249911,4.905409103902624,4.0603467367332025,8.71031241924424e-06,0.000493238633970842,-0.00014622001213471006,6.0030240776574805e-06,-0.00028338941244288393,0.00010561100868131004,0.1982192099094391,-1.6949657201766968,-1.0029135942459106,-0.1160067319869995,0.0004654368385672,-0.0043112933635711
1749037200.1707208,0.6130632654304803,-0.3601989886374667,0.7405320536808232,-4.191489084560629,4.905409534683787,4.060347691766228,9.675183341011231e-06,0.0006833511525400587,-7.021937665861767e-05,-0.00016535912112741673,-0.0002515242179330057,4.8963190995139665e-05,0.2165011167526245,-1.671436429023743,-0.996491551399231,-0.1291156411170959,-0.0027825720608234,0.0002343878149986
1749037200.1707578,0.6130635225108835,-0.36019723891110333,0.7405338488027611,-4.1914901399489946,4.905410039025551,4.060348342539287,9.89349687935406e-06,0.0008675641068548451,2.7899789750109478e-05,-0.0003321621345012793,-0.0002118455329181373,-0.00010489170415529897,0.2141548693180084,-1.648535966873169,-0.9871844053268432,-0.1021158695220947,-0.00091438065283,0.0234189331531524
1749037200.170795,0.6130640351091666,-0.3601948519236216,0.7405358883890291,-4.1914913493391746,4.905410499912357,4.060348412488126,9.172479162615803e-06,0.0010345631520358924,0.00014266050044789202,-0.0004750638124475123,-0.00016658797994934386,-0.0003749072140777794,0.2466720342636108,-1.6353415250778198,-0.9795830845832824,-0.0961260199546814,0.0031203092075884,0.0010701715946197
1749037200.1708324,0.6130647822994573,-0.3601919142187537,0.7405381165927525,-4.191492622406919,4.905410797308654,4.060347595620146,7.383510827519779e-06,0.0011731206538842186,0.000264968089695804,-0.0005705883441261663,-0.00011928830119786063,-0.0007766949364798987,0.2349547147750854,-1.64247465133667,-0.984449863433838,-0.0986568480730056,-0.0060682008042931,0.0002448856830596
1749037200.1708689,0.6130657211167894,-0.3601885631248986,0.7405404636379749,-4.191493818641186,4.9054108190618235,4.060345570321531,4.496938614302046e-06,0.0012731912880295886,0.00038196838089499436,-0.0005922986550029771,-7.483878611950972e-05,-0.0013208115642434196,0.2326936423778534,-1.6582478284835815,-0.9913268089294434,-0.1106768995523452,0.0040324721485376,-0.0247955471277236
1749037200.170907,0.6130667919746858,-0.3601849807515318,0.74054284340824,-4.191494745268745,4.905410471467633,4.0603420159763,6.158523707020627e-07,0.001326901766226519,0.00047721904960668104,-0.0005124562888306528,-3.9461137927791815e-05,-0.0020113173898474034,0.2326936423778534,-1.6582478284835815,-0.9913268089294434,-0.1106768995523452,0.0040324721485376,-0.0247955471277236
1749037200.1709452,0.6130679249660285,-0.3601813827328377,0.740545149235627,-4.191495159677865,4.905409688455754,4.060336631114868,-3.995248337835906e-06,0.0013292831246059038,0.0005312227365112911,-0.000304091884089578,-2.0584274225016536e-05,-0.0028447873099793934,0.2302194833755493,-1.638035535812378,-1.0075151920318604,-0.0983292013406753,-0.0066655045375227,-0.0366683676838874
1749037200.1709826,0.6130690458482417,-0.3601780018695474,0.7405472490239821,-4.19149477653217,4.905408438241089,4.060329151428613,-8.891616075517558e-06,0.0012786519168951102,0.0005223409493565133,5.664983869534103e-05,-2.6617423180342334e-05,-0.00380990570499408,0.248812735080719,-1.6320515871047974,-1.0111167430877686,-0.0831116884946823,-0.0069774575531482,-0.0392662733793258
1749037200.1710198,0.6130700811185936,-0.3601750677713568,0.7405489810754895,-4.191493279140931,4.905406726139834,4.060319365767027,-1.3444325044504942e-05,0.0011766231268169952,0.0004280695824932857,0.0005880845211488738,-6.662097945274532e-05,-0.004887702725308071,0.2547178268432617,-1.6549205780029297,-1.028074026107788,-0.0746181905269622,-0.0102018965408205,-0.04593376070261
1749037200.171795,0.6130709621992207,-0.36017278474464337,0.7405501520239449,-4.191490334118243,4.905404592374504,4.0603071284007,-1.6856322642068833e-05,0.0010277986332566822,0.0002266124218427185,0.0013007228893879923,-0.00014989094701636077,-0.006052416774528675,0.2318319380283355,-1.6762975454330444,-1.0311095714569092,-0.0704660192131996,-0.0129123013466596,-0.0404424704611301
1749037200.173741,0.6130716290681282,-0.3601713110601232,0.7405505380450738,-4.191485608251798,4.905402104301,4.06029236655085,-1.8203095772935306e-05,0.0008392049661137077,-0.00010135792175315625,0.002195430326681364,-0.0002854867787209767,-0.007272918557448499,0.2480673193931579,-1.6729823350906372,-1.0368798971176147,-0.036276027560234,-0.0270858258008956,-0.0465249679982662
1749037200.2142704,0.6130720336562454,-0.36017074287519935,0.7405498899885107,-4.191478786764311,4.905399343543901,4.060275083275968,-1.650159010315802e-05,0.0006195576861015856,-0.000570905882561209,0.00326226342634296,-0.0004817447230334106,-0.00851460861819008,0.2324254214763641,-1.6901097297668457,-1.075263500213623,-0.0348888859152793,-0.0042648632079362,-0.0556829534471035
1749037200.2143185,0.6130721430973664,-0.36017110536774566,0.7405479423867383,-4.1914695923230765,4.905396389672645,4.060255356638647,-1.0809213350031157e-05,0.00037841994424854975,-0.0011911920890206533,0.004480179321265049,-0.0007458262928954606,-0.009741691623976503,0.2426415085792541,-1.7321841716766355,-1.0740832090377808,-0.0480762720108032,-0.0484314747154712,-0.0554767772555351
1749037200.214359,0.6130719426255864,-0.36017235246382834,0.7405444256144189,-4.191457803825074,4.905393302713311,4.060233336069463,-3.51801626396459e-07,0.0001253107664754743,-0.001964182451033571,0.005817721043177706,-0.0010833499997780216,-0.010919725903188699,0.2237501144409179,-1.7500258684158323,-1.1012489795684814,-0.0264572203159332,-0.0484403707087039,-0.0724416971206665
1749037200.2143986,0.6130714377460637,-0.3601743753534716,0.740539079936173,-4.191443273290964,4.905390106619919,4.060209236104163,1.5324724259844614e-05,-0.00013118891925876326,-0.002883880424495366,0.0072346785534649636,-0.0014981391846254602,-0.012018336562908204,0.223408043384552,-1.78679096698761,-1.0920265913009644,-0.0171207785606384,-0.0647691339254379,-0.0839936658740043
1749037200.2144375,0.6130706553122528,-0.3601770188931418,0.740531669893414,-4.191425938753297,4.905386775209832,4.06018332686989,3.618914563047091e-05,-0.000384284615795496,-0.003936192813523144,0.00868463585165514,-0.00199208710751508,-0.013013952620620595,0.2148794829845428,-1.818366527557373,-1.0776422023773191,0.0052918046712875,-0.0662506222724914,-0.0923793688416481
1749037200.2144804,0.6130696431786566,-0.3601801039657359,0.7405219975184973,-4.191405831274192,4.905383221761637,4.060155920404459,6.156101670453386e-05,-0.0006297153554975959,-0.005099449537056482,0.010118244412864632,-0.002565098582108442,-0.013892375157267765,0.211559772491455,-1.856269598007202,-1.1011871099472046,-0.0079662352800369,-0.067439429461956,-0.0961197614669799
1749037200.2145247,0.6130684680301366,-0.3601834529870578,0.7405099132528636,-4.191383075013456,4.905379293630822,4.060127352219656,8.996657732493516e-05,-0.0008663290960752778,-0.006345514957866498,0.01148699804581106,-0.003215033623515684,-0.014650917297645975,0.1983221173286438,-1.8278577327728271,-1.1182411909103394,0.0131997168064117,-0.0627605393528938,-0.0856069847941398
1749037200.214564,0.6130672109033872,-0.3601869151103325,0.7404953240400557,-4.191357880083215,4.905374773241161,4.060097958291887,0.00011903514761654274,-0.0010963987527181952,-0.007641385090361597,0.012747213748956552,-0.003937574961619783,-0.015299816529639788,0.1938235759735107,-1.842849373817444,-1.123789668083191,0.0036828964948654,-0.0683894529938697,-0.0833542793989181
1749037200.2146022,0.6130659600673908,-0.3601903874233913,0.7404781985231703,-4.191330528473489,4.905369386202493,4.0600680486475,0.0001454565970894192,-0.001325588475766941,-0.008951159926895227,0.01386385654293892,-0.004725977323155969,-0.015862649574550254,0.1965387910604477,-1.860867619514465,-1.135278344154358,0.0280290096998214,-0.0656696483492851,-0.0763528123497963
1749037200.21464,0.6130648014654729,-0.36019382888177953,0.7404585693137985,-4.191301353693073,4.905362816388464,4.060037879586384,0.0001650179264139448,-0.0015625144375358885,-0.010238280428439482,0.01481380802941034,-0.005570720122019708,-0.016375593327790774,0.1761254072189331,-1.8893340826034544,-1.1298468112945557,0.0133852213621139,-0.0988410636782646,-0.1023948267102241
1749037200.214678,0.6130638076519899,-0.36019726510570377,0.7404365320151665,-4.1912707151702016,4.905354727146729,4.06000762697329,0.00017273171686324446,-0.0018179194262954767,-0.011467899586130663,0.015588192760101902,-0.006459150910133815,-0.016885538939993353,0.1483912467956543,-1.883255124092102,-1.1264777183532717,0.0149353891611099,-0.0970632955431938,-0.1124128103256225
1749037200.2147162,0.6130630267218005,-0.3602007840820341,0.7404122405109311,-4.191238969038585,4.90534478753865,4.059977362790071,0.0001630611705485038,-0.0021035654111778174,-0.012609223801225328,0.0161934546513825,-0.00737525016227716,-0.01744722253023319,0.1728301644325256,-1.9337780475616453,-1.1326971054077148,0.0057318955659866,-0.0912400260567665,-0.104153536260128
1749037200.2147536,0.6130624729832257,-0.3602045243970087,0.7403858982591879,-4.191206437644609,4.905332702263238,4.0599470365780626,0.00013023590633741178,-0.0024310019150184255,-0.013637639251834454,0.016651012244558852,-0.008299655629117528,-0.018119641601089986,0.1503069251775741,-1.9364367723464968,-1.1408920288085938,0.005475677549839,-0.0977225303649902,-0.1251141726970672
1749037200.214791,0.6130621211281376,-0.3602086584568445,0.7403577458155904,-4.191173380692584,4.905318243307249,4.059916462897829,6.864017424992759e-05,-0.0028103706023650215,-0.014536439205287455,0.016995497104629217,-0.009210058727145492,-0.018962068262180134,0.1417773067951202,-1.940792679786682,-1.1397123336791992,0.0157627686858177,-0.0889201313257217,-0.1172530204057693
1749037200.2148285,0.6130619053538794,-0.3602133734662509,0.7403280452685747,-4.191139971031986,4.905301280324999,4.05988531561968,-2.6758129795919584e-05,-0.0032493670670750772,-0.01529798704265301,0.017271763206016724,-0.010082040363560302,-0.020029962951434326,0.1333618462085724,-1.955892324447632,-1.1297916173934937,0.0168132707476615,-0.1177004128694534,-0.1493140459060669
1749037200.2148664,0.6130617241282204,-0.36021885293561934,0.7402970626163606,-4.191106277491454,4.905281805710763,4.05985312963742,-0.00015998144178647075,-0.0037524269328353247,-0.01592418330835031,0.017531009132753007,-0.010890361710155528,-0.021371062892329425,0.1077619791030883,-1.942275881767273,-1.1259592771530151,0.0344962179660797,-0.1239537075161933,-0.1441968977451324
1749037200.2149043,0.6130614501567005,-0.36022526110915465,0.7402650493713201,-4.191072256117221,4.905259949946938,4.05981931033091,-0.0003336718682883535,-0.004320164415171172,-0.0164261597801336,0.017826448835487622,-0.011610665121859235,-0.023021888873148696,0.1180985271930694,-1.96046781539917,-1.1340559720993042,0.0585385113954544,-0.1027756929397583,-0.1620706766843795
1749037200.2149422,0.6130609440444752,-0.36023273204132517,0.740232224797828,-4.191037750146309,4.905235983556474,4.059783150706221,-0.0005488303454486459,-0.004949079227773247,-0.01682320215686885,0.018208991858837023,-0.012221464765108762,-0.02500488378469412,0.1118028759956359,-1.980839967727661,-1.1279014348983765,0.0570795387029647,-0.1208474040031433,-0.179121121764183
1749037200.2149796,0.6130600695237206,-0.36024136431793446,0.7401987601864122,-4.191002498254776,4.905210303821454,4.059743855675829,-0.0008047124756393359,-0.005631548019143886,-0.017140995399756772,0.018723360299449442,-0.012706225477748113,-0.027326359186817813,0.06477090716362,-1.961435317993164,-1.1255618333816528,0.0582702308893203,-0.1235483810305595,-0.1826656609773636
1749037200.2150164,0.6130587079976519,-0.3602512215576353,0.7401647665945282,-4.190966149980337,4.905183406824604,4.059700572603106,-0.0010989075138664154,-0.006356107000418597,-0.01740937332883456,0.01940499114983272,-0.013055270855909785,-0.02997538068982803,0.0620663315057754,-1.97525691986084,-1.150332808494568,0.0546747520565986,-0.1298636049032211,-0.2015102952718734
1749037200.2162936,0.6130567704058587,-0.3602623377146826,0.7401302875235757,-4.190928286665432,4.905155847637471,4.059652427148362,-0.001427593682371325,-0.007108009460259836,-0.017659817691739743,0.020277963233877684,-0.0132672519735422,-0.03292367315767547,0.0553402304649353,-1.985508680343628,-1.136820912361145,0.0685887858271598,-0.1191254705190658,-0.1980299353599548
1749037200.2178087,0.6130542049051921,-0.3602747251277992,0.7400952976888989,-4.190888445870191,4.905128193130174,4.059598563433892,-0.0017859248887125087,-0.007870021095595313,-0.017922977605061723,0.02135406591525777,-0.013349948341446883,-0.03612657395542474,0.062717355787754,-2.0101187229156494,-1.1532822847366333,0.0677555873990058,-0.1385663449764251,-0.2058128714561462
1749037200.2582874,0.6130509994049771,-0.3602883827693659,0.7400597081248395,-4.190846147037583,4.905100972683098,4.059538187187245,-0.0021684778186521025,-0.008623406056377248,-0.01822646345698437,0.022633008484621367,-0.013320248551166246,-0.03952500567444654,0.0565141588449478,-1.9956530332565308,-1.147621750831604,0.0780851244926452,-0.1385307312011718,-0.2137078940868377
1749037200.2583337,0.6130471784615017,-0.3603033025196333,0.7400233766308533,-4.190800916306479,4.905074631997256,4.059470609672577,-0.0025696886983244396,-0.009349047175810633,-0.018593117725096583,0.024103660394947397,-0.013203254127724018,-0.04304838068422345,0.0331375002861022,-2.0076091289520264,-1.1601448059082031,0.096840389072895,-0.1621932983398437,-0.192410871386528
1749037200.2583752,0.6130427945746846,-0.36031947230897765,0.7399861215804384,-4.190752308774005,4.905049494468941,4.059395289286632,-0.002984233424077555,-0.010028626856765517,-0.019039893249975296,0.02574611440188882,-0.013030553900308816,-0.046618292567712445,0.0218563098460435,-1.9944559335708616,-1.1685913801193235,0.094896487891674,-0.1550649106502533,-0.2325953096151352
1749037200.2584157,0.6130379148092595,-0.3603368761324302,0.7399477367821413,-4.190699927050901,4.905025733673737,4.059311867238808,-0.0034073335454371145,-0.010645780819376009,-0.01957738748621229,0.027534284622404197,-0.012837815716654691,-0.05015279534240837,0.0257825572043657,-2.0124168395996094,-1.1501939296722412,0.1136349812150001,-0.1302759349346161,-0.2272247076034546
1749037200.258454,0.6130326047513819,-0.3603554918245806,0.7399080054323594,-4.190643435345079,4.905003359598445,4.0592201938691295,-0.0038349837402172154,-0.011187138135580801,-0.020209994335519184,0.02943870291591253,-0.012661927724625346,-0.05357101782535082,0.0433623790740966,-2.0146117210388184,-1.1602864265441897,0.1181877925992012,-0.1471183598041534,-0.2251284122467041
1749037200.258493,0.6130269125496374,-0.3603752878967854,0.7398667119964908,-4.190582568459968,4.904982220108509,4.0591203426400835,-0.004264092536806829,-0.011643171963316745,-0.02093655485932407,0.0314291713603247,-0.012537986323101005,-0.05679781031903409,0.0392798483371734,-2.03989839553833,-1.1590802669525146,0.1204554885625839,-0.1819053590297699,-0.2196596711874008
1749037200.258531,0.6130208557771258,-0.36039622059319854,0.7398236517889094,-4.190517135315613,4.904962017510579,4.059012609550826,-0.004692524926131863,-0.0120087916275586,-0.021751333769747257,0.03347697063757471,-0.012496463348803317,-0.05976809250212467,0.0323785915970802,-2.041266679763794,-1.1506439447402954,0.1222156733274459,-0.184804230928421,-0.2295215725898742
1749037200.25857,0.613014413149413,-0.36041823169212733,0.7397786387508646,-4.1904470172350425,4.904942338237375,4.058897496774106,-0.0051190487483847615,-0.012283608486769168,-0.022645133136656382,0.03555641020496975,-0.012560875580244298,-0.062430589083597596,0.0002429261803627,-2.036571741104126,-1.1519181728363037,0.113116554915905,-0.1869295090436935,-0.2086642533540725
1749037200.2586076,0.6130075220507376,-0.36044124687598533,0.7397315121348098,-4.190372162129986,4.90492269223237,4.05877568081966,-0.005543208726313655,-0.012471821691621816,-0.023606376297323706,0.03764562515908872,-0.012746213923624086,-0.06475070362637039,0.0041918531060218,-2.043558120727539,-1.164330005645752,0.140262484550476,-0.177982673048973,-0.2035832405090332
1749037200.2586448,0.6130000817517974,-0.3604651742014353,0.7396821425122111,-4.190292576341823,4.904902557851633,4.058647967429756,-0.005965159064375506,-0.012581709114295842,-0.024622043721620246,0.03972665850366491,-0.013058277983188394,-0.06671236063449294,0.0203147679567337,-2.05173921585083,-1.1592155694961548,0.1547901928424835,-0.1737598925828933,-0.1863282769918441
1749037200.2586818,0.6129919615104952,-0.36048990240643863,0.7396304370828217,-4.190208315981734,4.904881427766219,4.058515237360328,-0.0063854679202938035,-0.012624770618482732,-0.02567840800307922,0.04178498790759397,-0.013493936187021653,-0.06831871506842552,-0.0014192573726177,-2.054525852203369,-1.1745247840881348,0.1330432891845703,-0.1869927942752838,-0.1861164271831512
1749037200.2587192,0.6129830124769482,-0.3605152992503751,0.7395763439078645,-4.190119479331042,4.904858851071505,4.058378388581113,-0.006804883920632282,-0.012614635522694853,-0.026761581700715322,0.04380872959118609,-0.014042224081382998,-0.06959169065274637,-0.010114386677742,-2.0598032474517822,-1.1709136962890625,0.1453848332166671,-0.2000898718833923,-0.1776597052812576
1749037200.258756,0.6129730821289726,-0.360541210629283,0.7395198544570076,-4.190026201385935,4.9048344667969,4.058238280744126,-0.007224053113799892,-0.012565887103485893,-0.027857936597822923,0.04578776018420543,-0.014686113408723328,-0.0705703786453771,-0.0293848942965269,-2.0579864978790283,-1.1732593774795532,0.1415731459856033,-0.1947244107723236,-0.1806104779243469
1749037200.2587929,0.6129620295525622,-0.36056746169069254,0.7394610038997214,-4.189928650956305,4.904808024905729,4.0580956869415505,-0.007643198382179605,-0.012492959170982329,-0.02895445867685035,0.04771295195482075,-0.0154047219190253,-0.0713084074641732,-0.0272540617734193,-2.059721708297729,-1.1598559617996216,0.1533330678939819,-0.2059287130832672,-0.1551660299301147
1749037200.2588303,0.612949739488125,-0.3605938612343371,0.7393998689745799,-4.18982702988885,4.904779392891722,4.05795125607733,-0.00806180134457727,-0.012409228319632102,-0.030039074834441983,0.04957564937884917,-0.016175683510827182,-0.07187047056948447,-0.046012133359909,-2.082993745803833,-1.1525784730911257,0.1522934883832931,-0.196533054113388,-0.1852466911077499
1749037200.2588675,0.6129361332180053,-0.36062021009421774,0.7393365637681412,-4.189721573180879,4.90474854858714,4.057805487128276,-0.008478338734984669,-0.012326375913390138,-0.031100951119239353,0.05136745338052095,-0.016977376891061925,-0.07232826440292787,-0.0326036214828491,-2.0733938217163086,-1.1608662605285645,0.1478871703147888,-0.1847886145114898,-0.1798812747001648
1749037200.2589042,0.6129211751841604,-0.3606463132281174,0.7392712339904765,-4.1896125482455355,4.904715561909231,4.0576587148171255,-0.008890120528633005,-0.01225403907991778,-0.03213074258157022,0.053080333597420336,-0.01779074151373973,-0.07275612524251666,-0.0436746962368488,-2.0898585319519043,-1.1382722854614258,0.1605161428451538,-0.2194559872150421,-0.1951095461845398
1749037200.2589412,0.6129048752147727,-0.3606719943254363,0.7392040502655898,-4.189500251584127,4.904680569556833,4.057511105229704,-0.009293266255254526,-0.012199720357041872,-0.03312077724025788,0.054707052331772074,-0.018600494865623474,-0.07322665119957945,-0.0515101328492164,-2.077808618545532,-1.1590293645858765,0.1372005045413971,-0.2143589556217193,-0.1864535510540008
1749037200.2589786,0.6128872869314506,-0.360697111012416,0.7391352006517095,-4.189385001632719,4.904643747143154,4.057362659698979,-0.009682842057014583,-0.012168893040662576,-0.034065173058816116,0.05624184566249344,-0.01939568261037688,-0.0738065598313367,-0.0719828605651855,-2.0893611907958984,-1.1509313583374023,0.1397408843040466,-0.2197330743074417,-0.1925570517778396
1749037200.2590165,0.6128685032764898,-0.36072156824247703,0.7390648822557365,-4.189267127317547,4.904605282924382,4.057213225505008,-0.01005315906223804,-0.012165231650904842,-0.03495990756308116,0.057681265298863416,-0.02016960917095062,-0.0745529863014329,-0.062647059559822,-2.104950189590454,-1.144883632659912,0.1532103717327118,-0.201994776725769,-0.2094700634479522
1749037200.2599144,0.6128486502628923,-0.360745327504403,0.7389932916638281,-4.189146952545844,4.904565356115684,4.0570625122274535,-0.010398204501823037,-0.012190909639526393,-0.0358028756860904,0.059025048944265524,-0.020919282229636845,-0.07551039009060412,-0.0599972084164619,-2.108848810195923,-1.1587187051773071,0.1318866163492202,-0.2189618349075317,-0.1948609352111816
1749037200.2617188,0.6128278799016559,-0.36076841029175105,0.7389206140628777,-4.189024777373819,4.904524121091856,4.056910112776016,-0.01071215190293044,-0.0122469247496798,-0.036593973118599535,0.060276871158978486,-0.021644547850297423,-0.07670821115738326,-0.0943311378359794,-2.1183321475982666,-1.1526424884796145,0.13372403383255,-0.2166309952735901,-0.2021806240081787
1749037200.302282,0.6128063627364045,-0.36079089566902034,0.738847011206468,-4.188900857015844,4.90448169731031,4.0567555282391154,-0.010989885918336233,-0.012333424848168918,-0.037335225143664004,0.061444838846833875,-0.022347098624109437,-0.078159391126109,-0.1142318174242973,-2.1142055988311768,-1.159216284751892,0.1274422109127044,-0.2452068924903869,-0.2266566455364227
1749037200.3023324,0.6127842798850286,-0.3608129132322974,0.7387726086655424,-4.188775380268698,4.904438164199631,4.056598195786416,-0.011227480696373119,-0.012450012942956364,-0.038030949070490774,0.06254163212139717,-0.023029516328926036,-0.07985984637393005,-0.0903852880001068,-2.138790845870972,-1.15065336227417,0.1326582133769989,-0.2435143142938614,-0.2478648722171783
1749037200.3023734,0.6127618144569879,-0.36083463365151486,0.738697483198496,-4.188648449384192,4.9043935604400035,4.056437518962521,-0.011422580985715323,-0.012596013019459746,-0.03868790358618738,0.06358423981558335,-0.023694471131039677,-0.08178894780296235,-0.095890998840332,-2.122481346130371,-1.1636793613433838,0.1331472694873809,-0.2425651997327804,-0.2256907969713211
1749037200.3024127,0.6127391426971154,-0.36085625882587685,0.7386216516239826,-4.188520063958723,4.9043478873707755,4.05627289981936,-0.011574647709352208,-0.012770680224568792,-0.0393153539120656,0.06459328513327749,-0.024344150544664402,-0.08391102652432976,-0.09806539863348,-2.1337876319885254,-1.169085144996643,0.1477846652269363,-0.2408529371023178,-0.2359571158885955
1749037200.302451,0.6127164256637693,-0.36087801262502234,0.738545063060203,-4.1883901118830655,4.904301116209256,4.0561037723621665,-0.011685045329052958,-0.0129733429717576,-0.03992497666612444,0.06559197136660981,-0.024979945847359367,-0.08617788491038501,-0.0892480164766311,-2.1437270641326904,-1.171993851661682,0.1439983397722244,-0.2440889775753021,-0.2482870519161224
1749037200.3024893,0.6126938022084959,-0.3609001319616819,0.7384675964977392,-4.188258370449786,4.904253198414574,4.055929636581436,-0.011756968049629318,-0.01320347439947471,-0.04053054370480168,0.06660469731452728,-0.02560238911833015,-0.08853225293660864,-0.0960662811994552,-2.155587673187256,-1.1658687591552734,0.1177953630685806,-0.2466259449720382,-0.2657137811183929
1749037200.3025272,0.6126713836513603,-0.3609228572656694,0.738389065278566,-4.188124519928099,4.904204078109622,4.055750091900829,-0.011795222765925716,-0.013460704792193537,-0.04114735426417755,0.06765540568669076,-0.026211307096791,-0.09091209166623099,-0.1236398965120315,-2.159783363342285,-1.1760075092315674,0.1417152136564254,-0.2413271814584732,-0.2778687477111816
1749037200.302565,0.6126492504421698,-0.3609464215799157,0.7383092292425998,-4.187988170170448,4.904153705016432,4.055564868256878,-0.011805902658218874,-0.013744798967789323,-0.04179142336312006,0.06876575786169747,-0.02680613353475707,-0.09325558534732004,-0.1211993768811225,-2.162361621856689,-1.1876307725906372,0.1499731093645095,-0.2387643605470657,-0.277854323387146
1749037200.3026023,0.6126274514517742,-0.36097103838211975,0.7382278141316306,-4.187848898420999,4.904102045950631,4.055373852115765,-0.011795991283060272,-0.014055628433412619,-0.04247847749172449,0.06995329005647094,-0.027386305938451237,-0.09550654554724788,-0.1108806505799293,-2.176421880722046,-1.210156798362732,0.1641608029603958,-0.2596178650856018,-0.2441587597131729
1749037200.3026395,0.6126060066678755,-0.3609968894801407,0.7381445362664403,-4.187706293867962,4.9040490928499825,4.055177103335002,-0.011772932527042644,-0.014393165722204754,-0.043222848704942515,0.07122977590650224,-0.027951677019763255,-0.09761978553587454,-0.1108806505799293,-2.176421880722046,-1.210156798362732,0.1641608029603958,-0.2596178650856018,-0.2441587597131729
1749037200.302681,0.6125849131824278,-0.36102411528640427,0.7380591287498935,-4.18756000212449,4.903994865687882,4.0549748572906745,-0.011744193409153678,-0.014757515704774106,-0.04403638210082883,0.0726000451520934,-0.028502892522050752,-0.09956588569841066,-0.1078085675835609,-2.204606294631958,-1.191380262374878,0.1610085070133209,-0.2652783691883087,-0.2600121200084686
1749037200.302719,0.612564152745997,-0.36105280978152443,0.7379713643168504,-4.18740976184411,4.903939409268682,4.054767506601719,-0.011716843459053267,-0.015148972313470713,-0.04492746891647425,0.07406145249826271,-0.02904170407030132,-0.101334731359956,-0.1098468899726867,-2.207521438598633,-1.226714849472046,0.1544355899095535,-0.2588715255260467,-0.2164388000965118
1749037200.3027568,0.6125436981191915,-0.36108302134593806,0.7378810704491384,-4.187255427387489,4.90388278381065,4.05455555986436,-0.011697178989296422,-0.015568053082786745,-0.04590029289191223,0.07560407060385138,-0.029571181355924292,-0.10293726170412269,-0.1388549357652664,-2.201825857162476,-1.2214750051498413,0.1443795412778854,-0.2643827795982361,-0.2113905698060989
1749037200.3027935,0.6125235158518848,-0.3611147589161705,0.7377881346069984,-4.1870969756289975,4.903825050509828,4.054339580886837,-0.011690425803652224,-0.01601543894979169,-0.046954348646647444,0.07721155336566109,-0.030095770348956222,-0.10440498851637198,-0.1535374373197555,-2.2393126487731934,-1.239212989807129,0.1561390459537506,-0.2710590362548828,-0.2115354239940643
1749037200.3028307,0.6125035646381687,-0.3611480015518472,0.7376925002639246,-4.186934499305081,4.903766254630674,4.054120117996199,-0.011700549546087544,-0.01649175994160099,-0.04808427129997635,0.0788625372699774,-0.030621139525385612,-0.10578703934696813,-0.1220725178718566,-2.203369617462158,-1.206724762916565,0.1521845161914825,-0.2682628929615021,-0.1772597134113311
1749037200.3028677,0.6124837901318569,-0.3611827090921641,0.7375941565191341,-4.186768191476435,4.903706409491606,4.05389763585701,-0.011730187561759208,-0.016997227339280458,-0.049280009170329514,0.0805324299782016,-0.03115378292623546,-0.10714479180077464,-0.0986131057143211,-2.2130072116851807,-1.2067805528640747,0.1436740159988403,-0.2737745940685272,-0.2082235515117645
1749037200.302905,0.6124641184120979,-0.3612188319984331,0.7374931248688129,-4.186598325473206,4.903645484749152,4.053672461275283,-0.011780701188110816,-0.017531198285602883,-0.05052737320137907,0.08219543952119544,-0.0317004023898249,-0.10854457188446158,-0.1178988590836525,-2.2330915927886963,-1.2302719354629517,0.1149987578392028,-0.2642709016799927,-0.2010485976934433
1749037200.3029425,0.6124444508299451,-0.36125631915897355,0.7373894464365163,-4.186425233361364,4.903583401676052,4.053444751109513,-0.011852344424273579,-0.01809182726081844,-0.051808994797212286,0.08382669516552733,-0.03226714891109483,-0.1100492874930522,-0.1815918684005737,-2.3059563636779785,-1.2494741678237915,0.1563342660665512,-0.2813857495784759,-0.2299844175577163
1749037200.30298,0.6124246625954827,-0.36129512298111116,0.7372831719626399,-4.186249284574015,4.90352003671043,4.053214486178239,-0.011944547157363412,-0.018675965175288356,-0.053105690092876516,0.08540430945715627,-0.03285884042292274,-0.11171014148370778,-0.1698493659496307,-2.266577959060669,-1.238779902458191,0.1383116543292999,-0.3025780320167541,-0.2678859531879425
1749037200.3030176,0.6124046063179004,-0.36133520152345056,0.73717435547946,-4.186070865234457,4.903455232707527,4.052981490864521,-0.01205629663508293,-0.019279390656046214,-0.054398145111429284,0.08691124112974516,-0.0334782766620673,-0.11355963868063072,-0.1636094152927398,-2.257193088531494,-1.2499693632125854,0.1348909735679626,-0.292807400226593,-0.2671067416667938
1749037200.3037665,0.6123841202593451,-0.3613765179229024,0.7370630512478211,-4.185890357895,4.903388815782953,4.0527454744829265,-0.012186561978312464,-0.019897330908199954,-0.0556687255916561,0.08833683162613444,-0.03412574293532659,-0.11560694434097032,-0.173744797706604,-2.27021861076355,-1.2197448015213013,0.1383562833070755,-0.2797584533691406,-0.2568767368793487
1749037200.3057575,0.6123630398953299,-0.3614190379567294,0.7369493126498163,-4.185708121017894,4.903320614997172,4.052506087487276,-0.012334666997347355,-0.020525121868071827,-0.05690313154474517,0.08967789627427405,-0.03479874893625918,-0.11783630868274172,-0.1880517601966858,-2.2658021450042725,-1.2054842710494995,0.1318749040365219,-0.2955170571804046,-0.2749813795089721
1749037200.3502927,0.6123412108830164,-0.3614627270033534,0.7368331916309265,-4.185524467651419,4.903250482253873,4.0522629833099515,-0.012500509509272466,-0.0211588232895852,-0.05809160558653268,0.09093926398399413,-0.03549200665724303,-0.12020882596343377,-0.1655202209949493,-2.2492318153381348,-1.208234786987305,0.1308541744947433,-0.2967774868011474,-0.3065789937973022
1749037200.3503404,0.6123185017082985,-0.3615075477007652,0.7367147379453072,-4.185339643405775,4.903178310115753,4.052015875583865,-0.012684560825419142,-0.021795644709746202,-0.05922947920988539,0.09213368808784371,-0.03619762770966794,-0.12266732109925384,-0.1540432125329971,-2.2801873683929443,-1.1960967779159546,0.1453029513359069,-0.3113477826118469,-0.2578069865703583
1749037200.3503814,0.6122948147139554,-0.36155345929609156,0.7365939984581114,-4.185153804837028,4.903104045592093,4.051764581413328,-0.012887641101561872,-0.022434119151557037,-0.06031698098752885,0.09328109431672087,-0.0369055189314222,-0.12514370240031486,-0.1682072281837463,-2.3000941276550293,-1.2104973793029783,0.1366791129112243,-0.3053281009197235,-0.2558566331863403
1749037200.3504212,0.6122700944772332,-0.3616004192736039,0.7364710174253115,-4.184967000384704,4.903027698550823,4.051509044229092,-0.013110530568038245,-0.023074047453618345,-0.06135838761893341,0.09440718010271176,-0.03760396705622256,-0.1275677462942782,-0.1670963019132614,-2.300868511199951,-1.212993621826172,0.1155874878168106,-0.3092861175537109,-0.2307057231664657
1749037200.35046,0.6122443325739467,-0.36164838745928823,0.7363458385369306,-4.184779156716098,4.902949344257524,4.051249333740866,-0.01335352153647728,-0.023716297349016643,-0.06236072346979035,0.09554142659662924,-0.038280408888573036,-0.12987606180580819,-0.2006542980670929,-2.2971067428588867,-1.227843165397644,0.1138705760240554,-0.3161315023899078,-0.2267899215221405
1749037200.3504982,0.6122175679596203,-0.3616973323411275,0.7362185087258636,-4.1845900734509165,4.90286912024469,4.050985624577524,-0.013616026327334076,-0.024362554458443993,-0.06333228130560303,0.0967146355617103,-0.03892236620186288,-0.13201996151531747,-0.2135045230388641,-2.3055546283721924,-1.2442069053649902,0.138376384973526,-0.324673056602478,-0.2089181542396545
1749037200.350536,0.6121898826943561,-0.3617472387779616,0.7360890829043417,-4.1843994287193045,4.902787218072534,4.050718158698758,-0.01389633062551267,-0.025015084625239326,-0.06428124253682728,0.09795616436273284,-0.03951848461655388,-0.13397113967686644,-0.2067780792713165,-2.31485366821289,-1.2566287517547607,0.137958213686943,-0.2972933053970337,-0.2058185338973999
1749037200.350574,0.6121613933215179,-0.3617981157118847,0.7359576283275808,-4.184206796953958,4.902703870895162,4.050447199112497,-0.014191535902812141,-0.02567650387413257,-0.06521462158212606,0.09929109511864426,-0.04005956689353653,-0.13572440321340426,-0.1919542849063873,-2.267452478408813,-1.21464204788208,0.1433445364236831,-0.3012732863426208,-0.1726859658956527
1749037200.350611,0.6121322386045263,-0.36185000210616225,0.7358242272132339,-4.184011678873169,4.902619338357601,4.050172983460528,-0.014497690989726445,-0.026349502773787333,-0.06613765836471508,0.10073761598312976,-0.04053945081107689,-0.137297173491965,-0.2070064395666122,-2.2707326412200928,-1.208330750465393,0.1383870095014572,-0.2807396054267883,-0.1772627681493759
1749037200.3506482,0.612102564545361,-0.3619029692965093,0.7356889764663432,-4.1838135418993225,4.902533890873486,4.049895685473009,-0.014810085932031314,-0.0270364677237935,-0.06705366896652391,0.10230490189933635,-0.04095557206589508,-0.13872599648261508,-0.2244285941123962,-2.3065946102142334,-1.2208397388458252,0.1605530679225921,-0.2802585959434509,-0.2034296095371246
1749037200.3506844,0.6120725078568792,-0.3619571184349429,0.7355519839114674,-4.183611867507486,4.902447795245092,4.0496153902744165,-0.015123669507144622,-0.027738989341252716,-0.06796427174499758,0.10399176445982539,-0.0413090977548716,-0.1400607628037349,-0.1916053891181945,-2.3170859813690186,-1.2144707441329956,0.1820737272500991,-0.2916284501552582,-0.2284019142389297
1749037200.3507214,0.6120421794440086,-0.36201257264607367,0.7354133613019346,-4.1834062006332235,4.902361302820316,4.04933208646926,-0.015433543717800728,-0.028457320733771805,-0.06886984335434747,0.10578628897750375,-0.04160461848578021,-0.1413576563348496,-0.1877074986696243,-2.3114383220672607,-1.154948115348816,0.1490482091903686,-0.2856075465679168,-0.209801971912384
1749037200.3507576,0.6120116498652913,-0.3620694645829078,0.7352732152642647,-4.183196195720246,4.902274640329724,4.049045674549771,-0.015735477122369647,-0.02918990040520419,-0.0697700242888083,0.1076665723190525,-0.041849508725444594,-0.14267197103381854,-0.1830203086137771,-2.2999839782714844,-1.1990901231765747,0.1518375277519226,-0.2991976141929626,-0.2695176005363464
1749037200.350794,0.6119809389750843,-0.36212792093706925,0.7351316378131196,-4.1829816543644815,4.902188002773872,4.048755988252212,-0.016026369372691564,-0.029933055650402655,-0.07066410290718414,0.10960253147246458,-0.042053147509752815,-0.14405185862925673,-0.2268162816762924,-2.3245320320129395,-1.2049320936203003,0.1843460798263549,-0.3196350038051605,-0.2779928743839264
1749037200.3508303,0.611950011761081,-0.3621880459995668,0.7349886979573151,-4.182762550488639,4.902101547628572,4.0484628236244475,-0.016304600940162815,-0.030680956479992933,-0.07155117256979768,0.11155862100477325,-0.042226198796577206,-0.1455338222303997,-0.2107024937868118,-2.3042898178100586,-1.2182676792144775,0.1749348938465118,-0.2871012687683105,-0.2638715803623199
1749037200.3508658,0.611918781607618,-0.3622499066578381,0.7348444354515726,-4.182539040140707,4.902015390036128,4.048165969985008,-0.016570215705117096,-0.03142582362028927,-0.07243005227074954,0.11349720284945328,-0.042380086942218474,-0.1471403909670732,-0.1988781690597534,-2.252312183380127,-1.2022103071212769,0.1684688776731491,-0.2964036166667938,-0.2805372178554535
1749037200.3509026,0.6118871208364995,-0.36231352129115224,0.7346988573350598,-4.1823114542157125,4.901929598997257,4.047865237538365,-0.016824905319989647,-0.03215833678170942,-0.07329904452195966,0.11538223232362191,-0.042526703314993315,-0.14887996266348028,-0.2168274670839309,-2.244403123855591,-1.2025188207626345,0.1503033936023712,-0.2973406016826629,-0.267580509185791
1749037200.350939,0.6118548768410705,-0.36237885465143105,0.7345519377030012,-4.182080273758766,4.901844194644084,4.047560477769214,-0.017071791169901485,-0.03286816533976932,-0.07415565612598837,0.11718284994130901,-0.042678288903512496,-0.15074838900898205,-0.2416461259126663,-2.278805494308472,-1.2033345699310305,0.151849016547203,-0.291196346282959,-0.2465629279613495
1749037200.3509755,0.611821891144114,-0.36244581971201123,0.7344036210116939,-4.181846089085788,4.901759146699487,4.047251594491508,-0.017315030438708693,-0.033544559561885914,-0.07499642561656703,0.11887643687878098,-0.04284738300859128,-0.15273160883522074,-0.2270324975252151,-2.2962429523468018,-1.1904699802398682,0.153863787651062,-0.3026562631130218,-0.2370354086160659
1749037200.3510118,0.6117880186285235,-0.362514285874994,0.7342538288725974,-4.1816095456771825,4.901674374361969,4.046938545426583,-0.017559299364204826,-0.03417697442277578,-0.07581697999402741,0.12045074133268077,-0.0430467120565031,-0.15480857161911984,-0.241166204214096,-2.2412514686584477,-1.1829012632369995,0.1455873101949691,-0.3189053833484649,-0.2203287035226822
1749037200.351048,0.6117531447313972,-0.3625840916052235,0.7341024697121453,-4.181371281472709,4.90158974796699,4.046621336193545,-0.017809221019854278,-0.034755715129814534,-0.07661238365589237,0.12190480790969743,-0.043288907876928975,-0.15695383453356032,-0.2308752983808517,-2.235857486724853,-1.1917716264724731,0.1281893402338028,-0.3151239156723022,-0.2339772284030914
1749037200.351084,0.6117171990486114,-0.36265505905632917,0.7339494500432254,-4.181131861549285,4.901505092734329,4.046300009992235,-0.018068807310078323,-0.035272581479118374,-0.07737776282304949,0.12324861202492791,-0.04358599059162985,-0.15913950600573054,-0.2678688764572143,-2.251826047897339,-1.1982014179229736,0.136968120932579,-0.3047408163547516,-0.2515445649623871
1749037200.3517642,0.611680164291051,-0.36272700849642014,0.7337946856563953,-4.180891716911223,4.901420194691203,4.045974636496732,-0.01834098096380778,-0.03572146481928051,-0.07810911328632572,0.12450149128926316,-0.043948624087577215,-0.16133654755222002,-0.2508372068405151,-2.246801853179932,-1.1910873651504517,0.1487988382577896,-0.3187193870544433,-0.2326645106077194
1749037200.3537464,0.6116420798564832,-0.3627997709284642,0.7336381110458968,-4.180651094076081,4.9013348085303186,4.045645302657477,-0.018627234658459463,-0.03609883860305566,-0.07880414298660651,0.12568964647162595,-0.044385232375299885,-0.16351572015965996,-0.2495043724775314,-2.2280266284942627,-1.174694299697876,0.1495707929134369,-0.3267734050750732,-0.2542673945426941
1749037200.39428,0.6116030395203367,-0.36287319788555933,0.7334796859672025,-4.18041002122644,4.90124866690801,4.045312106745758,-0.018927468476547773,-0.03640408841453184,-0.07946297292451514,0.12684310653219852,-0.04490112630806332,-0.16564858401619661,-0.2354534864425659,-2.2366113662719727,-1.1592472791671753,0.1407148987054824,-0.3384051024913788,-0.2652909457683563
1749037200.3943264,0.6115631830739872,-0.3629471678037787,0.7333193988813449,-4.180168295001212,4.901161490667861,4.0449751555119065,-0.019240023933536708,-0.036639644712387794,-0.08008852985022843,0.12799257594463798,-0.04549781502341071,-0.16770889727400867,-0.2705610990524292,-2.230903387069702,-1.1695460081100464,0.1466544568538665,-0.3336735963821411,-0.2607727646827698
1749037200.3943667,0.6115226823903138,-0.36302158866739787,0.7331572675603564,-4.1799254898186256,4.901072999644305,4.044634563184634,-0.019561906772713196,-0.03681090107047692,-0.08068651840673573,0.1291665153715535,-0.046172658824269096,-0.16967453816634662,-0.2644597887992859,-2.252225399017334,-1.1843477487564087,0.1394756287336349,-0.3621322512626648,-0.2590517103672027
1749037200.3944073,0.6114817233808006,-0.36309639687692963,0.7329933370475454,-4.17968098933024,4.900982923898267,4.04429045059767,-0.01988916520344532,-0.03692591550574623,-0.08126495225903864,0.1303886903709282,-0.046918958611186556,-0.17152977663039423,-0.2436137497425079,-2.2317490577697754,-1.1824243068695068,0.1274134963750839,-0.3562369346618652,-0.2263176441192627
1749037200.3944454,0.6114404862193168,-0.3631715525942933,0.7328276748700677,-4.179434037461653,4.900891015343939,4.04394294300172,-0.02021736868158883,-0.036994905443661734,-0.08183332825937477,0.13167629929273297,-0.047726478988250734,-0.17326745785768505,-0.2445315420627594,-2.2326765060424805,-1.1793944835662842,0.1286288499832153,-0.3378449082374573,-0.2210525721311569
1749037200.3944838,0.6113991265868597,-0.36324703228003646,0.7326603634149192,-4.1791838046529595,4.900797059701332,4.043592165763819,-0.020542119823183935,-0.03702956384856648,-0.08240160921441769,0.13303869424890172,-0.04858229518536847,-0.17489053041911182,-0.2778798341751098,-2.261223077774048,-1.1996610164642334,0.1560590863227844,-0.3429292440414428,-0.2368581742048263
1749037200.394521,0.6113577604520344,-0.36332281968100266,0.7324914898832291,-4.178929463447031,4.900700888539913,4.04323823788981,-0.020859531585236728,-0.03704224320859361,-0.08297921358225156,0.1344766598893641,-0.04947178225486961,-0.17641240751386814,-0.2595977783203125,-2.259673595428467,-1.2301146984100342,0.1378792226314544,-0.3394886255264282,-0.2214042693376541
1749037200.3945584,0.6113164542583001,-0.3633988967569936,0.7323211350583003,-4.178670266499746,4.900602390798757,4.0428812639830705,-0.02116661130362064,-0.03704507018307161,-0.08357418966896915,0.13598221315262654,-0.050379563506046526,-0.17785587974469924,-0.2599560022354126,-2.2374234199523926,-1.193567991256714,0.1592329740524292,-0.3588144481182098,-0.2196849733591079
1749037200.3945956,0.6112752215077663,-0.3634752357259269,0.7321493628775019,-4.17840561946816,4.900501522552966,4.042521325718215,-0.02146150964114918,-0.03704906805687934,-0.08419268620515151,0.1375389150455794,-0.05129029956119384,-0.17925062993079735,-0.2603741288185119,-2.263606548309326,-1.1824756860733032,0.1516375541687011,-0.3508560359477997,-0.2417576313018798
1749037200.3946328,0.6112340256448543,-0.36355179294705015,0.7319762130272708,-4.178135141251255,4.90039831319513,4.042158474115198,-0.021743614377755034,-0.03706338075662005,-0.08483874197158865,0.13912272527494055,-0.052189285768447696,-0.18062973161589338,-0.2511381506919861,-2.258563280105591,-1.19174325466156,0.1751082092523574,-0.3774580359458923,-0.2203118652105331
1749037200.3946738,0.6111927880400878,-0.3636285052343549,0.7318016981953885,-4.177858704897586,4.900292866074085,4.041792723967918,-0.02201349224012736,-0.037094706322252355,-0.0855143420535087,0.1407034677856624,-0.053062884662361816,-0.18202574895540172,-0.2689405381679535,-2.2881784439086914,-1.2281996011734009,0.1998668909072876,-0.3489897847175598,-0.2790736556053161
1749037200.3947127,0.611151399194024,-0.36370528926324297,0.7316258063693892,-4.177576454209344,4.9001853522822465,4.041424051694981,-0.022272701101331043,-0.037147044186657464,-0.08621965615095097,0.14224698568858207,-0.0538988343510111,-0.18346713375616538,-0.2672352492809295,-2.3039300441741943,-1.1663161516189575,0.2234120070934295,-0.353405237197876,-0.2456298172473907
1749037200.3947496,0.6111097312636627,-0.3637820445498641,0.731448507223955,-4.177288793543491,4.900075997631026,4.041052397384895,-0.022523508324830428,-0.03722182501027673,-0.08695337831208387,0.14371801166563358,-0.054686462077364786,-0.18497551312155455,-0.2692132294178009,-2.2937612533569336,-1.208840012550354,0.1862785518169403,-0.348317414522171,-0.2781262099742889
1749037200.3947868,0.6110676504048166,-0.36385866002716943,0.7312697607369345,-4.17699635125326,4.899965064447362,4.040677670845708,-0.0227685600427369,-0.03731842389523619,-0.0877131037355174,0.1450836422093083,-0.05541682139178908,-0.18656421164313075,-0.2677189409732818,-2.257406711578369,-1.1953368186950684,0.1903454363346099,-0.3523452281951904,-0.277426153421402
1749037200.3948238,0.6110250278766163,-0.363935023871048,0.7310895258960165,-4.176699920258113,4.899852830952084,4.040299760462112,-0.023010549008908726,-0.03743497615138328,-0.08849569854271673,0.1463171066029772,-0.0560827714607139,-0.18823804246437761,-0.2839522361755371,-2.2945902347564697,-1.2170602083206177,0.1917445957660675,-0.3607681393623352,-0.2549819350242615
1749037200.3948624,0.6109817492917134,-0.36401103602342827,0.7309077676344876,-4.17640038199909,4.899739571062742,4.039918543172763,-0.02325192192226202,-0.03756934808492926,-0.08929764513779272,0.14740133833667776,-0.056679025885218566,-0.1899941327197898,-0.2833578288555145,-2.291454553604126,-1.20850670337677,0.1446370184421539,-0.3686714172363281,-0.2379233241081237
1749037200.3948996,0.6109377217822881,-0.36408662249922086,0.7307244608658897,-4.176098622127922,4.899625536566698,4.039533894104063,-0.023494652792568637,-0.03772008551414909,-0.09011537172758337,0.1483317670142849,-0.05720221069502946,-0.19182339455893666,-0.2820228636264801,-2.288699150085449,-1.234019160270691,0.137642040848732,-0.3447441160678863,-0.2437968254089355
1749037200.3949366,0.6108928790234711,-0.3641617498710982,0.7305395914839847,-4.175795447320308,4.899510942505626,4.0391456950600775,-0.023740094831851882,-0.037887175604621376,-0.09094558437798217,0.14911780000451957,-0.05765097119440823,-0.19371224476429752,-0.2673450708389282,-2.2945680618286133,-1.2171776294708252,0.1381967961788177,-0.3446114063262939,-0.252675324678421
1749037200.3949733,0.6108471839913255,-0.36423643765180297,0.7303531550716548,-4.175491512396153,4.899395956150382,4.038753841723625,-0.023988915059940875,-0.03807250561136196,-0.09178560687236408,0.14978265905841065,-0.05802613462870979,-0.19564429307881298,-0.294293612241745,-2.2925467491149902,-1.2247859239578247,0.1163996011018753,-0.3415076434612274,-0.2473587095737457
1749037200.3950098,0.6108006292771068,-0.36431076624895914,0.7301651544522142,-4.175187265487042,4.899280690252438,4.038358249742228,-0.024241111430745983,-0.038279969553724966,-0.09263370519073862,0.15036152944559733,-0.05833087844263574,-0.19760188905665316,-0.295371949672699,-2.309171438217163,-1.2173676490783691,0.1551872342824936,-0.323458194732666,-0.2545875906944275
1749037200.3957913,0.6107532349284119,-0.3643848789750402,0.729975597051653,-4.1748829165558705,4.899165201568435,4.037958859715921,-0.024496106373913754,-0.03851524049182577,-0.0934893425260755,0.1508982741023379,-0.05857081778692885,-0.1995675514032046,-0.3160460889339447,-2.3308756351470947,-1.2081831693649292,0.160148948431015,-0.3410678505897522,-0.2970070540904999
1749037200.3977666,0.610705044020482,-0.36445897783175957,0.729784492533555,-4.174578431629625,4.899049495130282,4.037555640596152,-0.024752902042105476,-0.03878527328205567,-0.09435329201253588,0.15144117251654976,-0.05875394699564275,-0.2015253471659097,-0.2995398640632629,-2.3390350341796875,-1.2246326208114624,0.1537322700023651,-0.3473449349403381,-0.274430513381958
1749037200.4382863,0.6106561162478454,-0.3645333138052425,0.7295918506160214,-4.174273552177299,4.898933533461854,4.037148590560101,-0.025010275566268603,-0.03909761942394784,-0.09522754639348255,0.15203823010317902,-0.058890431834785165,-0.20346223794111828,-0.2982584238052368,-2.328812599182129,-1.2311382293701172,0.161045953631401,-0.3424038887023926,-0.2796820700168609
1749037200.438332,0.6106065198490683,-0.3646081728850526,0.7293976786527006,-4.173967836443824,4.89881724882949,4.0367377344199795,-0.02526698900357912,-0.03945962444646929,-0.0961150148411115,0.1527325939952909,-0.0589923029005431,-0.20536930520850602,-0.2817344069480896,-2.3226122856140137,-1.2479171752929688,0.1744982004165649,-0.3448531627655029,-0.2683811783790588
1749037200.4383736,0.6105563224777311,-0.3646838591051357,0.7292019786055757,-4.173660717336371,4.898700556314733,4.036323117111521,-0.0255219849383595,-0.03987756112348467,-0.09701906527608084,0.153558547043424,-0.059073112939960704,-0.20724266736702393,-0.2821559906005859,-2.370369911193848,-1.2567596435546875,0.1572567820549011,-0.3331489562988281,-0.2657726109027862
1749037200.438414,0.6105055822354202,-0.3647606759566852,0.7290047433606132,-4.173351569782238,4.8985833658383005,4.035904793687912,-0.025774536479263525,-0.04035575585748766,-0.09794301529676513,0.15453846252354572,-0.059147596653457056,-0.20908386639799414,-0.2858210802078247,-2.3524749279022217,-1.1957517862319946,0.1912057101726532,-0.331432431936264,-0.2650807499885559
1749037200.4384532,0.6104543404874276,-0.36483890775195416,0.728805952680562,-4.173039779564671,4.8984655917188,4.035482817415431,-0.026024329662267684,-0.04089579133166865,-0.09888967136228588,0.15568100555748332,-0.05923133436820639,-0.21089956152763853,-0.310264527797699,-2.369611978530884,-1.2545709609985352,0.1897126734256744,-0.3405161499977112,-0.2569137811660766
1749037200.438492,0.6104026178389096,-0.3649188028158942,0.7286055692656379,-4.172724805716866,4.898347158718869,4.035057228609969,-0.026271478781779316,-0.04149588732114822,-0.0998609726541241,0.15698076334744646,-0.05934039085379974,-0.21270050251673117,-0.2984452247619629,-2.3418943881988525,-1.2233972549438477,0.2020279020071029,-0.3407250940799713,-0.2503326535224914
1749037200.4385304,0.6103504138491942,-0.3650005604431496,0.7284035354018351,-4.172406229742258,4.898228003962378,4.034628047052103,-0.026516493646580628,-0.042150552589035634,-0.10085774102659584,0.1584193522771878,-0.059490887382814134,-0.2144999145618652,-0.3060725331306457,-2.334441900253296,-1.2337833642959597,0.2065354585647583,-0.3484151363372803,-0.2679058611392975
1749037200.4385698,0.61029771013682,-0.3650843231668847,0.7281997706435914,-4.172083787183701,4.898108074696843,4.0341952697500405,-0.02676021463360883,-0.04285057207283025,-0.10187949689915664,0.15996787388572872,-0.0596984704009061,-0.21631155391687187,-0.2971712648868561,-2.3624496459960938,-1.2270761728286743,0.1870258450508117,-0.3430453538894653,-0.2634924650192261
1749037200.4386115,0.610244475866282,-0.36517017505993604,0.7279941710232013,-4.171757380038817,4.8979873225391035,4.0337588738553185,-0.027003713285906825,-0.04358336243186126,-0.10292428786674038,0.16159040318524423,-0.05997765830542092,-0.21814774990592148,-0.3169331848621368,-2.357984781265259,-1.2287476062774658,0.1840492188930511,-0.3365402817726135,-0.2751661539077759
1749037200.4386497,0.6101906743993408,-0.3652581456340271,0.7277866104202857,-4.171427071485057,4.897865695495272,4.033318822720933,-0.027248146126279016,-0.044333698004291655,-0.10398849804170227,0.16324804402933632,-0.06034107021601346,-0.22001772860486526,-0.3093506991863251,-2.3397388458251958,-1.2100450992584229,0.1594154983758926,-0.3490506410598755,-0.2846448421478271
1749037200.4386878,0.6101362700768759,-0.36534821761921155,0.7275769448488248,-4.171093066435137,4.897743129655253,4.032875072478084,-0.027494558234480625,-0.04508476814822703,-0.1050666558972433,0.1649030173435379,-0.06079856167235313,-0.22192643959678207,-0.311570793390274,-2.320192575454712,-1.2334516048431396,0.1603318601846695,-0.3502292037010193,-0.2925035059452057
1749037200.4387293,0.610081234389085,-0.36544033605103915,0.7273650202903984,-4.170755682085693,4.897619542837742,4.032427577327598,-0.027743653096178798,-0.045819475755363694,-0.10615131736282352,0.1665222738359716,-0.0613563117913929,-0.22387401309337343,-0.3155368864536285,-2.3417983055114746,-1.234089493751526,0.1721930652856826,-0.3621603846549988,-0.2728472650051117
1749037200.4387708,0.6100255509224567,-0.36553441633985856,0.7271506841004558,-4.170415312122836,4.897494832250187,4.031976293179343,-0.027995567787671736,-0.04652184422928584,-0.10723314039286067,0.16808023270907646,-0.06201592680647592,-0.22585588448160848,-0.3352870941162109,-2.323061943054199,-1.2475924491882324,0.1635732948780059,-0.3605025112628937,-0.2940044105052948
1749037200.4388115,0.6099692184882581,-0.3656303502896491,0.7269337990523237,-4.170072387362605,4.897368877318916,4.031521180227246,-0.02824971350031119,-0.04717838305224431,-0.10830126107191908,0.16956041033827163,-0.06277364589721218,-0.22786354602270648,-0.3253675699234009,-2.3254547119140625,-1.2235538959503174,0.1665837466716766,-0.3688460290431976,-0.2777723968029022
1749037200.4388494,0.6099122520645086,-0.36572801042430597,0.7267142582514143,-4.169727334987317,4.897241547594674,4.031062205082478,-0.028504747252686608,-0.04777926860028538,-0.10934402267076093,0.17095588052956934,-0.06361975375421193,-0.2298858139969936,-0.3178921341896057,-2.320366144180298,-1.246524453163147,0.1699316799640655,-0.3586259186267853,-0.2923192977905273
1749037200.438887,0.609854681744194,-0.36582725362763713,0.7264919988701621,-4.16938053846191,4.897112714547394,4.030599342579463,-0.028758714052686228,-0.048319218472587466,-0.11035001626015839,0.17226867165968077,-0.06453831765330638,-0.23191042058428088,-0.3140693604946136,-2.3268239498138428,-1.2159079313278198,0.1787228137254715,-0.3694579601287842,-0.2658591270446777
1749037200.4389238,0.6097965504159945,-0.36592792506210126,0.7262670129290657,-4.16903230054583,4.8969822654567,4.030132576953131,-0.02900934516099756,-0.04879797083732043,-0.11130929763122038,0.1735083344361782,-0.06550737099783513,-0.23392565934254805,-0.3409710228443146,-2.33728575706482,-1.2161675691604614,0.1869758367538452,-0.3900958001613617,-0.27751624584198
1749037200.4389613,0.6097379109620706,-0.36602986311764324,0.7260393539588463,-4.168682812172157,4.896850117569163,4.0296619020920765,-0.02925444785111407,-0.049220321522102005,-0.11221458317127139,0.17468999313416023,-0.06649965136335884,-0.23592176838527867,-0.3239121735095978,-2.3231394290924072,-1.2141485214233398,0.1815478950738906,-0.3560637235641479,-0.2618182897567749
1749037200.438999,0.609678823362266,-0.36613290594645925,0.7258091391242628,-4.168332130054262,4.896716230939378,4.0291873208724835,-0.029492299818901117,-0.04959571148415812,-0.11306221711439553,0.1758322193130936,-0.06748395885094087,-0.2378917692100813,-0.3351162672042846,-2.302664279937744,-1.2033005952835083,0.1659232079982757,-0.3765303492546081,-0.2565271556377411
1749037200.439036,0.6096193516870805,-0.3662368997258269,0.7255765470377559,-4.167980165668433,4.896580618409191,4.028708843852532,-0.029721967711963105,-0.049937390944995344,-0.11385274373868422,0.1769550393146664,-0.0684271253198202,-0.23983160728204903,-0.3341022431850433,-2.3531477451324463,-1.207744002342224,0.1848737001419067,-0.3742122054100036,-0.2600347995758056
1749037200.4397895,0.6095595608475732,-0.3663417079879986,0.7253418117884937,-4.167626687702993,4.896443351013711,4.028226487707824,-0.029943492729516963,-0.050261219290980035,-0.11459099105533195,0.17807830346783524,-0.0692964798886429,-0.24173963511155494,-0.3578495979309082,-2.336097955703736,-1.224318504333496,0.1727492660284042,-0.3583507537841797,-0.2603081464767456
1749037200.4417548,0.6094995130437456,-0.36644722044730743,0.72510521363609,-4.167271338930567,4.896304557327218,4.027740273769345,-0.030157917534046143,-0.05058419102218406,-0.1152856516167399,0.17922051664192962,-0.07006257916860326,-0.2436156733663567,-0.3170250058174133,-2.283414125442505,-1.2090052366256714,0.1937972903251648,-0.3321672677993774,-0.2922324538230896
1749037200.4822886,0.6094392638916893,-0.3665533593032855,0.7248670665922189,-4.166913666705504,4.89616441622548,4.027250226890773,-0.030367160694412143,-0.05092279596449725,-0.1159484163836436,0.18039808449317152,-0.0707018850723343,-0.24546000646381438,-0.3475925624370575,-2.258188247680664,-1.181491494178772,0.1892687827348709,-0.3504860699176788,-0.28041872382164
1749037200.482335,0.6093788582131309,-0.3666600813033311,0.7246277029821141,-4.166553164345956,4.896023143893584,4.026756374523872,-0.030573770820044834,-0.051291331786934444,-0.11659278039763905,0.18162480329689915,-0.0711990664315021,-0.24727267083607257,-0.3566989600658417,-2.3308842182159424,-1.2209445238113403,0.1777930408716201,-0.3494438230991363,-0.2891015410423279
1749037200.4823768,0.60931832560978,-0.36676737471444715,0.724387455226091,-4.16618931907469,4.895880977021353,4.026258745419179,-0.03078060733771002,-0.05170031087842037,-0.11723269654232829,0.18291135668249706,-0.07154867537310503,-0.2490532743060852,-0.3502234816551208,-2.3290233612060547,-1.2024317979812622,0.1794899553060531,-0.347085177898407,-0.2756139039993286
1749037200.4824164,0.6092576762413274,-0.36687525141146315,0.7241466355725158,-4.165821661195699,4.895738154596322,4.025757367168213,-0.030990496391788205,-0.05215513603373197,-0.11788129057906639,0.184264622591492,-0.07175604891779597,-0.2508013844621821,-0.3393107652664184,-2.30554461479187,-1.2108886241912842,0.163924753665924,-0.3415620625019073,-0.2816426455974579
1749037200.4824548,0.6091968974077134,-0.36698373529629513,0.7239055151307818,-4.16544980883004,4.895594900457035,4.025252262075218,-0.03120590223595329,-0.05265521998130768,-0.11854983969023239,0.18568674769702326,-0.07183735404714484,-0.2525173183469706,-0.330973356962204,-2.3085904121398926,-1.2158763408660889,0.2057408839464187,-0.3136318325996399,-0.2698614597320556
1749037200.482494,0.6091359513699917,-0.36709284903770323,0.7236643039363874,-4.165073502916129,4.895451407961643,4.024743441418599,-0.031428645464536345,-0.05319367317037545,-0.11924714717919845,0.18717416604176013,-0.07181873519966178,-0.2542030316729883,-0.3698957860469818,-2.301274299621582,-1.221812725067139,0.2252989560365677,-0.3299748003482818,-0.2577123343944549
1749037200.482532,0.6090747745650547,-0.3672026014713207,0.723423133803942,-4.164692628265096,4.895307827092561,4.024230898795386,-0.0316596945121004,-0.05375760773378116,-0.11997933963313492,0.18871693374954743,-0.07173458683396608,-0.25586277778354927,-0.3588176965713501,-2.286710262298584,-1.2262823581695557,0.2486335337162017,-0.363670289516449,-0.2690784931182861
1749037200.4825692,0.6090132784202825,-0.3673129777978815,0.7231820455105831,-4.164307218025017,4.895164253592586,4.02371460379041,-0.031899051754967905,-0.05432903455249444,-0.12075000866509766,0.1902988277826537,-0.07162508410981815,-0.25750327128297196,-0.3449007868766784,-2.250797986984253,-1.2143163681030271,0.2546249628067016,-0.3576833605766296,-0.2709228992462158
1749037200.4826066,0.6089513522788726,-0.36742393393865647,0.7229409815007481,-4.163917440821373,4.895020719758607,4.023194497505406,-0.03214574417460194,-0.05488627478014894,-0.1215605489778357,0.1918985521805654,-0.07153321932491455,-0.2591332139021783,-0.3367108702659607,-2.2559657096862797,-1.2048611640930176,0.2390187084674835,-0.3639456629753113,-0.2607415020465851
1749037200.4826484,0.6088888689595221,-0.36753539526388035,0.7226997848612682,-4.163523572193373,4.894877187175269,4.022670491483982,-0.03239791268042686,-0.055405766506737474,-0.12241052470133781,0.193492114590755,-0.0715016441533886,-0.2607621887122009,-0.3670065999031067,-2.2891244888305664,-1.2070978879928589,0.2409764975309372,-0.3601869642734527,-0.2803895473480224
1749037200.4826872,0.6088256929918333,-0.36764725896318806,0.7224582049175438,-4.163125954635096,4.894733542352266,4.022142471512789,-0.03265298282375769,-0.055864118839055836,-0.12329792927603826,0.19505606218763524,-0.07156959232851862,-0.26239908182732374,-0.3594274520874023,-2.2141482830047607,-1.217203974723816,0.1877444088459015,-0.3642220497131347,-0.2771291136741638
1749037200.4827242,0.6087616909394001,-0.3677593990675343,0.7222159095865924,-4.162724952884072,4.8945895965521435,4.0216103077969665,-0.032907898918073185,-0.05624024365980504,-0.1242192770045803,0.1965709362124352,-0.0717700984428725,-0.2640503284968345,-0.3672403693199157,-2.2193219661712646,-1.209351658821106,0.1886177510023117,-0.3950516283512115,-0.2811759710311889
1749037200.482761,0.6086967427788047,-0.3678716734334907,0.7219725045171866,-4.162320912127481,4.89444509114294,4.021073872754653,-0.03315940853852045,-0.056517379253608974,-0.12516955047288764,0.1980241528621237,-0.07212768008281435,-0.26571836900712875,-0.3537519574165344,-2.227090835571289,-1.2181025743484497,0.1428230851888656,-0.3911898136138916,-0.2611094117164612
1749037200.482798,0.6086307530601857,-0.36798393232142135,0.7217275587630118,-4.161914126118039,4.894299709700746,4.020533066617795,-0.03340438411761475,-0.056684819390551595,-0.1261420977081022,0.19941161334068447,-0.07265661698458348,-0.2674006977644291,-0.3664208352565765,-2.232789993286133,-1.215622901916504,0.1474569290876388,-0.394292265176773,-0.2864105999469757
1749037200.4828346,0.6085636604644821,-0.36809602823099563,0.721480636055398,-4.161504820176689,4.894153097641229,4.019987849055104,-0.03364015968274309,-0.056739183416934895,-0.12712860298179363,0.2007376595146749,-0.07335992386506841,-0.26908978077655055,-0.3393543660640716,-2.196264743804932,-1.2319071292877195,0.1612322032451629,-0.3944265246391296,-0.275922417640686
1749037200.4828718,0.608495444459477,-0.3682078264875175,0.7212313297506462,-4.161093151294374,4.894004889094501,4.019438272721883,-0.03386485142731456,-0.0566851043245582,-0.12811923845525744,0.2020134188878825,-0.07422905982151119,-0.27077393188738685,-0.3480872809886932,-2.2471697330474854,-1.2084214687347412,0.178241491317749,-0.3808696866035461,-0.2962367236614227
1749037200.4829087,0.6084261281388103,-0.36831921587912475,0.7209792985175373,-4.160679224469768,4.8938547391792095,4.01888451290995,-0.03407763016520332,-0.056535266341279256,-0.12910305230391644,0.20325398201119174,-0.0752443527343863,-0.2724390339155381,-0.3603549301624298,-2.2303082942962646,-1.2252148389816284,0.2029023170471191,-0.3652009963989258,-0.264873743057251
1749037200.4829462,0.6083557769357688,-0.3684301185514338,0.7207242991039682,-4.160263121471394,4.893702358456573,4.018326887006089,-0.03427892308543229,-0.05630978560059748,-0.13006858663275286,0.2044750964782828,-0.07637607069857617,-0.27407082477748507,-0.3769625127315521,-2.2410054206848145,-1.2200013399124146,0.2045020163059234,-0.400384247303009,-0.25179323554039
1749037200.4829824,0.6082844935255444,-0.368540498425189,0.7204662122983988,-4.159844935887019,4.893547545715368,4.0177658584371105,-0.034470530384662516,-0.05603498817509245,-0.13100467026040583,0.20569008355642093,-0.07758607145605068,-0.2756573804916654,-0.3700461983680725,-2.279662132263184,-1.225618839263916,0.2254643440246582,-0.3907902240753174,-0.2574033737182617
1749037200.4830215,0.6082124096908349,-0.36865036749644164,0.7202050586007551,-4.159424807003527,4.89339021518051,4.01720202183834,-0.03465563481497996,-0.05574168845905337,-0.13190130807359735,0.20690752515643232,-0.07882998850997953,-0.2771914230539742,-0.3550492227077484,-2.2473340034484863,-1.2168070077896118,0.1938835680484771,-0.4036738276481628,-0.2776243090629577
1749037200.483774,0.6081396761469594,-0.36875978935070053,0.7199410010969831,-4.159002944955832,4.893230414355525,4.016636068611319,-0.03483866363253559,-0.05546310231397654,-0.13275058100203646,0.20813003074704367,-0.080059913366427,-0.2786721281033024,-0.362754613161087,-2.253767251968384,-1.2230005264282229,0.2038638591766357,-0.387887179851532,-0.2649751603603363
1749037200.4857516,0.6080664512541609,-0.3688688791902,0.7196743343447989,-4.158579640720841,4.893068329211199,4.0160687341894095,-0.03502496034861553,-0.05523254959521444,-0.1335474654565319,0.20935416914277277,-0.08122747645018567,-0.2801061590926382,-0.3677666187286377,-2.307277202606201,-1.2240252494812012,0.175527423620224,-0.3667283654212951,-0.2655784785747528
1749037200.5262828,0.6079928892211016,-0.3689777999332828,0.7194054593873266,-4.158155256674369,4.8929042748135405,4.015500730133171,-0.035220257104853034,-0.05508111848684943,-0.1342904779096702,0.21057148463464134,-0.08228714689491715,-0.28150769721963104,-0.3772092163562774,-2.333753824234009,-1.217516303062439,0.2003202438354492,-0.3776245713233948,-0.2390822023153305
1749037200.5263305,0.6079191280855076,-0.3690867545517877,0.7191348461543898,-4.157730196211027,4.892738671579098,4.014932666033535,-0.03542999351205052,-0.05503547098617554,-0.13498205946386393,0.21177040852650972,-0.08319951989414334,-0.28289730219029247,-0.358379989862442,-2.264580726623535,-1.2187621593475342,0.1914532333612442,-0.3865118622779846,-0.2065264582633972
1749037200.526374,0.6078452777978769,-0.3691959754900894,0.7188629856404377,-4.1573048541309365,4.892572009326625,4.014364968396364,-0.03565857383345907,-0.05511594578894218,-0.1356286447150555,0.2129387975598183,-0.08393435834171903,-0.28429957910949066,-0.3697005212306976,-2.2920708656311035,-1.2034001350402832,0.1872637122869491,-0.3851436674594879,-0.2420766204595565
1749037200.5264146,0.6077714092593451,-0.36930571243446864,0.7185903356231323,-4.156879552918639,4.892404802591761,4.013797805944418,-0.03590867339044117,-0.0553350698967656,-0.13624040348266708,0.2140667550115033,-0.08447317263642101,-0.2857398612811004,-0.384216159582138,-2.3227901458740234,-1.233095407485962,0.1740306764841079,-0.3607678115367889,-0.246596872806549
1749037200.5264535,0.6076975459590633,-0.3694162197241257,0.718317265291905,-4.156454473153405,4.892237541405795,4.0132310322527385,-0.03618069706591286,-0.05569655705021554,-0.13683068460665543,0.2151493178193151,-0.08481112500352554,-0.2872403973164534,-0.3777453303337097,-2.3247721195220947,-1.2643648386001587,0.1731834858655929,-0.3571659922599792,-0.2720682621002197
1749037200.526492,0.6076236603949922,-0.3695277443681811,0.7180440055175922,-4.156029588413446,4.892070642220383,4.012664156304594,-0.036472465001211055,-0.05619485682613847,-0.13741521236668855,0.21618854921247777,-0.08495803919950932,-0.2888167425084063,-0.3382530510425567,-2.317333459854126,-1.2329930067062378,0.151888906955719,-0.3527891039848327,-0.2935988008975982
1749037200.52653,0.6075496771482817,-0.3696405151390898,0.717770611932142,-4.1556046158083895,4.891904403950397,4.012096348946594,-0.036779162672046145,-0.05681529684464806,-0.13801108905017517,0.21719459873633967,-0.084938318605454,-0.29047509309514147,-0.3315567970275879,-2.301650285720825,-1.2210012674331665,0.1384875774383545,-0.3446821272373199,-0.2916930317878723
1749037200.5265677,0.6074754831974544,-0.3697547327297049,0.717496947116758,-4.1551789926717415,4.891738974135919,4.01152648893808,-0.037093557634597055,-0.05753482363802866,-0.13863565694049976,0.21818541172520933,-0.08478964752285709,-0.2922111412854122,-0.3442229628562927,-2.3095362186431885,-1.2402167320251465,0.1554359644651413,-0.3354593515396118,-0.2731282114982605
1749037200.526605,0.6074009444001165,-0.36987056059882367,0.7172226861597832,-4.154751887881905,4.891574329870029,4.0109532475870155,-0.037406463992817295,-0.058323317538539324,-0.13930528710863643,0.2191849928499028,-0.08456046424753298,-0.29401073118825666,-0.3712721467018127,-2.3336117267608643,-1.2632198333740234,0.1674755811691284,-0.3342204689979553,-0.299920380115509
1749037200.5266423,0.6073259258042678,-0.3699881160065803,0.7169473470403649,-4.154322252540043,4.891410277129924,4.010375206636846,-0.037707426035311714,-0.05914544387629601,-0.14003419376316115,0.22022041573736262,-0.08430632766414316,-0.2958522543913828,-0.3250506222248077,-2.297957181930542,-1.279627561569214,0.1840154528617859,-0.3545409142971039,-0.3052933514118194
1749037200.5266817,0.6072503129050855,-0.3701074609905215,0.71667034399162,-4.1538889093199325,4.891246470183131,4.009790999889422,-0.03798558121048986,-0.05996298578474616,-0.14083339616379317,0.22131804582125716,-0.08408543090768443,-0.2977104062514041,-0.3171467781066894,-2.293662071228028,-1.2484127283096311,0.1998254507780075,-0.3520059585571289,-0.3048449754714966
1749037200.526723,0.6071740310308411,-0.3702285937201841,0.7163910582532252,-4.1534506730259695,4.891082449758407,4.009199464293371,-0.038230640392736145,-0.06073755907839506,-0.1417099287136466,0.22249961842289853,-0.08395363254212893,-0.2995606631138145,-0.3426250517368316,-2.289325475692749,-1.2612334489822388,0.1846418976783752,-0.3588227033615112,-0.2823591530323028
1749037200.5267591,0.6070970604434537,-0.37035144176633905,0.7161089165266298,-4.153006487208226,4.890917695036023,4.008599780676681,-0.038433896565281796,-0.061433539557986555,-0.14266633002682758,0.22377883187188063,-0.08395946549378513,-0.30138366549057927,-0.3426250517368316,-2.289325475692749,-1.2612334489822388,0.1846418976783752,-0.3588227033615112,-0.2823591530323028
1749037200.5267985,0.6070194451256932,-0.37047586002549454,0.7158234638105092,-4.152555554515787,4.890751681214273,4.007991579560723,-0.03858915642240113,-0.062020963280288166,-0.14370036868796637,0.2251589770178553,-0.08413962689797107,-0.30316865485822947,-0.3233675956726074,-2.2585554122924805,-1.2606052160263062,0.1916005760431289,-0.3641959428787231,-0.2418052107095718
1749037200.526836,0.6069412934822775,-0.3706016364452041,0.7155344163724968,-4.152097435580358,4.890583933076347,4.0073749880385865,-0.03869349025909544,-0.06247811769849579,-0.14480494078199074,0.22663188061416423,-0.08451542783535847,-0.3049152671775881,-0.3393096625804901,-2.268796443939209,-1.2251635789871216,0.1850965023040771,-0.3619174361228943,-0.2184153944253921
1749037200.5268729,0.6068627697582569,-0.37072850729378115,0.7152416848933303,-4.151632096941742,4.890414066900565,4.00675060421163,-0.03874770933764767,-0.06279354074484425,-0.14596811320137654,0.2281781724228423,-0.08509059018115124,-0.3066333339059599,-0.3226680755615234,-2.207897901535034,-1.2586582899093628,0.1726751029491424,-0.3829222321510315,-0.2746046781539917
1749037200.52691,0.6067840763672437,-0.37085618075372495,0.714945366649244,-4.151159902311177,4.890241817483491,4.006119404289403,-0.03875650085463899,-0.062967189818842,-0.14717335410691268,0.22976868932848743,-0.08585064207953727,-0.3083407965436596,-0.3473586738109588,-2.2911503314971924,-1.3002748489379885,0.1884323060512542,-0.3919852375984192,-0.3290198743343353
1749037200.5269463,0.606705429180132,-0.3709843648498296,0.7146457142347654,-4.150681556127522,4.890067051189823,4.005482604291961,-0.03872818092429312,-0.0630106319542244,-0.14840004737860527,0.23136676975986054,-0.08676401198043966,-0.3100602637965729,-0.2838039994239807,-2.183542013168335,-1.201301336288452,0.1831019520759582,-0.3622089028358459,-0.27618408203125
1749037200.526983,0.6066270292592875,-0.37111279476743037,0.7143430922025751,-4.150198016405624,4.889889767564133,4.004841504601503,-0.03867407207832239,-0.06294622800181329,-0.14962440503822458,0.23293124728296366,-0.08778476875148483,-0.31181499962291465,-0.3260703682899475,-2.2636492252349854,-1.2628934383392334,0.2197755724191665,-0.3792987465858459,-0.3031086325645447
1749037200.5270195,0.6065490351053189,-0.3712412555239902,0.7140379318075081,-4.149710394052348,4.88971009145721,4.004197341854913,-0.038607571001487775,-0.0628054057308247,-0.15082085676399862,0.23442002124276418,-0.0888568058921251,-0.31362517044443794,-0.3607464730739593,-2.2885947227478027,-1.27085280418396,0.2040192782878875,-0.4038543701171875,-0.3196771740913391
1749037200.5277798,0.6064715393811878,-0.3713695976655132,0.713730690508328,-4.149219851875351,4.889528256645269,4.003551165089417,-0.03854302400822266,-0.06262620070459327,-0.15196391064731976,0.23579406775110817,-0.08991912343102272,-0.31550503683746606,-0.3427558839321136,-2.3081605434417725,-1.246382474899292,0.2101956009864807,-0.379725694656372,-0.3287934362888336
1749037200.5297568,0.6063945534464369,-0.3714977451982949,0.7134218193075869,-4.148727512055076,4.88934458177945,4.002903746125131,-0.038494545562608416,-0.06245027292634664,-0.15303036596712016,0.2370216405972154,-0.09091172910930767,-0.3174615123888021,-0.305982381105423,-2.279670000076294,-1.2226287126541138,0.1661757826805114,-0.3543566465377807,-0.346577525138855
1749037200.5703182,0.6063180018501865,-0.3716256959786106,0.7131117382461677,-4.148234377292287,4.889159440201789,4.00225552880251,-0.0384748964560486,-0.06231960012095121,-0.15400165276648678,0.23808226206717437,-0.09178158153022713,-0.31949416723751806,-0.35661181807518,-2.291259527206421,-1.2129359245300293,0.1752330362796783,-0.3829598128795624,-0.2966149449348449
1749037200.5703657,0.6062417273689431,-0.37175351536418405,0.7128008186591972,-4.147741268380342,4.888973226020003,4.001606617495217,-0.038494511522528044,-0.0622730436315813,-0.15486600862408725,0.2389700040749206,-0.09248796045811411,-0.3215963774419461,-0.3947204053401947,-2.331762313842773,-1.2528905868530271,0.1726905852556228,-0.3737378418445587,-0.2824016511440277
1749037200.570407,0.6061655057364023,-0.37188132432024684,0.7124893702979985,-4.147248779570931,4.888786319287864,4.000956802011864,-0.03856075265664573,-0.06234300564604669,-0.15562019180066652,0.23969556584081914,-0.09300668270841986,-0.32375703485652224,-0.3684561252593994,-2.3352630138397217,-1.1949719190597534,0.1668552011251449,-0.3528589904308319,-0.2503264248371124
1749037200.5704513,0.6060890682841447,-0.37200928351744145,0.7121776319597033,-4.146757252578207,4.888599053230554,4.000305613456307,-0.03867744683562317,-0.06255243666329914,-0.15627045908142614,0.24028676783630545,-0.09333267087339601,-0.3259621776935244,-0.3225337266921997,-2.277853012084961,-1.1564399003982544,0.1790520995855331,-0.3192045390605926,-0.2582891881465912
1749037200.5704918,0.6060121301154888,-0.3721375751827835,0.7118657652065705,-4.14626676990557,4.888411686464594,3.999652403641056,-0.038844732974864085,-0.06291247949001613,-0.15683259924913773,0.24078726150997787,-0.0934805223880452,-0.32819611828167844,-0.31049445271492,-2.326873779296875,-1.2003467082977295,0.1442531943321228,-0.3320949673652649,-0.292597085237503
1749037200.5705311,0.6059344207156867,-0.37226638434437664,0.7115538514467825,-4.145777167892399,4.888224383034605,3.9989964390030757,-0.039059201369340824,-0.06342103146907133,-0.15733092317205094,0.24125344972936183,-0.0934829377553883,-0.330442008764693,-0.3591603338718414,-2.374797105789185,-1.235348343849182,0.1763172894716262,-0.3400982022285461,-0.345518559217453
1749037200.5705693,0.6058557131049882,-0.37239588063503754,0.7112418928598284,-4.145288069110193,4.888037202552258,3.998336998692056,-0.039314292380915446,-0.06406246285653344,-0.15779626558559215,0.24174980018108785,-0.0933871453191402,-0.33268209148011835,-0.3687577843666076,-2.34247088432312,-1.2199846506118774,0.1762860417366027,-0.3519298434257507,-0.3214760422706604
1749037200.5706103,0.605775847436406,-0.37252620141655557,0.7109298174829105,-4.144798932285608,4.887850101729851,3.9976734660495814,-0.03960092259839202,-0.06480863580460208,-0.1582632011885368,0.24234292353724557,-0.09324974401965423,-0.3348979833130265,-0.3223215639591217,-2.3167097568511963,-1.1903555393218994,0.187562346458435,-0.3476614952087402,-0.2993045151233673
1749037200.5706513,0.6056947458515882,-0.3726574371244859,0.7106174883999004,-4.144309115909467,4.887662947329791,3.997005403549564,-0.03990829681177018,-0.06562122516360931,-0.15876676627530825,0.2430949906057438,-0.09313059602277773,-0.33707124347764766,-0.3463578224182129,-2.337498188018799,-1.1821423768997192,0.2153654098510742,-0.3627332746982574,-0.3197099566459656
1749037200.5706942,0.6056124172358887,-0.37278962032316354,0.7103047165502311,-4.143817949605573,4.887475539113691,3.9963326034436553,-0.040224832141077624,-0.06645517827880214,-0.15933901082548976,0.24405724519889072,-0.09308650185787311,-0.339184285559906,-0.3414787054061889,-2.332437753677368,-1.2339059114456177,0.2367055118083953,-0.367891252040863,-0.3346462249755859
1749037200.5707366,0.605528952539644,-0.3729227203538181,0.709991276328817,-4.1433248058365875,4.88728763987358,3.995655109446776,-0.04053909095941317,-0.06726300320722639,-0.16000572195038343,0.24526445442977116,-0.09316538883354823,-0.3412215275169139,-0.3135614097118377,-2.263579130172729,-1.2673382759094238,0.2496112585067749,-0.3828326463699341,-0.3519158065319061
1749037200.570776,0.6054445127771777,-0.3730566450770764,0.7096769229249462,-4.142829164084073,4.887099008461596,3.994973208313138,-0.04084061770817823,-0.06799946039031797,-0.16078366305767594,0.24673105270658344,-0.09340165167525982,-0.3431705543910496,-0.3275389075279236,-2.2877063751220703,-1.2517125606536863,0.2721430659294128,-0.3993777632713318,-0.3032773733139038
1749037200.5708191,0.6053593121886297,-0.37319125009516835,0.709361410173813,-4.142330660286552,4.886909431390919,3.9942873936888277,-0.04112060102650009,-0.06862615758804867,-0.16167863101434318,0.24844947083154129,-0.09381311177041296,-0.345022987398724,-0.3473164141178131,-2.2716801166534424,-1.2278430461883545,0.2417732328176498,-0.3790513277053833,-0.2332185953855514
1749037200.5708575,0.6052735984739668,-0.3733263545507403,0.70904450745187,-4.141829115735176,4.886718749046824,3.993598307722098,-0.04137232133019543,-0.06911552510025676,-0.16268452990262974,0.25039077375760993,-0.09439983638903224,-0.34677475260430934,-0.3391223549842834,-2.2027716636657715,-1.2353988885879517,0.2435214072465896,-0.3756360411643982,-0.2367346435785293
1749037200.570899,0.6051876312086895,-0.37346176169359246,0.7087260138281798,-4.141324541515281,4.8865268733585845,3.9929066678473046,-0.041591381956090516,-0.06945369654339842,-0.16378353232722387,0.2525073824515991,-0.09514483570983105,-0.3484255929006493,-0.3429751098155975,-2.2612693309783936,-1.2368369102478027,0.2298438847064972,-0.3787867724895477,-0.279540091753006
1749037200.570938,0.6051016592738445,-0.3735972821232381,0.7084057674429427,-4.140817116852888,4.886333794692968,3.992213186350783,-0.04177575023179942,-0.06964194807812488,-0.1649473065537152,0.2547374241472762,-0.09601647741147054,-0.34997794734512183,-0.3412244915962219,-2.287491798400879,-1.2469053268432615,0.2349989563226699,-0.3885367512702942,-0.3392745554447174
1749037200.5709753,0.6050158985508991,-0.3737327578580309,0.7080836482086857,-4.140307142375729,4.886139576895573,3.991518489154265,-0.04192564864426856,-0.06969653694405918,-0.16613924347376366,0.2570101708946618,-0.09697232180884795,-0.35143558698076516,-0.3367957174777984,-2.2793161869049072,-1.2802042961120603,0.2536922097206116,-0.3855926394462585,-0.3194565773010254
1749037200.5710125,0.6049305118427045,-0.37386808572314206,0.7077595727314135,-4.139794972334321,4.885944340938343,3.990823039073238,-0.04204333792843289,-0.06964698272419109,-0.16731757305232203,0.2592520551891883,-0.09796395583884888,-0.35280249141251174,-0.3316583931446075,-2.308389902114868,-1.2616081237792969,0.2667444050312042,-0.3695725202560425,-0.3006655573844909
1749037200.5710535,0.6048455934298149,-0.37400323848752937,0.7074334818967811,-4.139280933203038,4.885748239336448,3.990127068827012,-0.04213282890645037,-0.06953300908088117,-0.1684391662563195,0.2613928178009941,-0.098942297450725,-0.35408233850021203,-0.365290880203247,-2.31896710395813,-1.2451244592666626,0.2439571321010589,-0.3904924988746643,-0.3149431347846985
1749037200.571092,0.6047611605249829,-0.3741382816525162,0.7071053234933582,-4.138765239407268,4.885551425000948,3.9894305302346207,-0.042199551202982535,-0.06940049396879398,-0.16946368917994306,0.26337136628019375,-0.09986279514917158,-0.35527874694343975,-0.3246476650238037,-2.302010297775269,-1.206283688545227,0.2440740913152694,-0.3859392404556274,-0.307934820652008
1749037200.5717742,0.6046771531537363,-0.37427338323912673,0.7067750339155718,-4.13824791930468,4.885354019117671,3.9887330671397305,-0.04224999587905236,-0.0692968652249322,-0.17035767858451067,0.26514087646537754,-0.10068997704043389,-0.3563961693033409,-0.3256935179233551,-2.3294272422790527,-1.2249181270599363,0.2072598040103912,-0.354863166809082,-0.3024820685386657
1749037200.5737686,0.6045934428679506,-0.3744088137663975,0.7064425238353339,-4.137728764973609,4.885156082844545,3.988034019536827,-0.042291341617040734,-0.06926642678198917,-0.17109809911998927,0.2666726133902798,-0.10140087921118296,-0.35744113947074796,-0.3460032045841217,-2.384527921676636,-1.2570576667785645,0.2017648518085479,-0.3681365549564361,-0.2947213649749756
1749037200.6143024,0.6045098494485884,-0.37454493402646144,0.7061076724758193,-4.1372073172904145,4.884957597330811,3.9873324647826225,-0.04233107889824388,-0.06934609946704301,-0.17167501857831172,0.2679579834431445,-0.10198697940032417,-0.35842345996803276,-0.3695386052131653,-2.3672239780426025,-1.2511324882507324,0.2080822139978408,-0.3332341909408569,-0.2609622180461883
1749037200.6143503,0.6044261636800282,-0.37468216933259074,0.705770333808925,-4.136682893335871,4.884758456011403,3.9866272986352014,-0.042376658434704575,-0.06956200037925889,-0.1720931429338875,0.2690085114810985,-0.10245439427414471,-0.35935691475107134,-0.3304201662540436,-2.346045970916748,-1.18559730052948,0.2048309892416,-0.3455062210559845,-0.2672197222709656
1749037200.6143978,0.6043421735989984,-0.37482097069336157,0.7054303557867746,-4.136154656874322,4.884558472004641,3.985917353784516,-0.04243518746696825,-0.06992717605040258,-0.17237203851804314,0.2698537336516385,-0.10282228756720901,-0.3602592499832217,-0.3370078206062317,-2.3616621494293213,-1.1964856386184692,0.2455117404460907,-0.3341765701770782,-0.3009877800941467
1749037200.6144404,0.6042576911791921,-0.3749617657996434,0.7050876105871579,-4.135621724990519,4.88435740111701,3.985201545953806,-0.042513171040514365,-0.07044067357193859,-0.17254494364868223,0.2705373238188947,-0.10311966278772561,-0.36115143506997655,-0.3330100774765014,-2.3267693519592285,-1.215510368347168,0.2317066937685012,-0.3517310321331024,-0.3264142274856567
1749037200.6144795,0.6041725758334549,-0.3751049056558392,0.7047420297890393,-4.135083295403944,4.884154977381305,3.984479027665531,-0.042616265521346584,-0.0710879985457298,-0.17265618133927887,0.27111203646499726,-0.10338093000188864,-0.36205646468672165,-0.3330100774765014,-2.3267693519592285,-1.215510368347168,0.2317066937685012,-0.3517310321331024,-0.3264142274856567
1749037200.614519,0.6040867505420479,-0.3752506155003633,0.7043936343248617,-4.1345387709971755,4.883950954225034,3.9837493199699376,-0.04274900507958769,-0.07184287455238342,-0.17275733620832556,0.2716341761304386,-0.10364080416045615,-0.36299805842221317,-0.3532401919364929,-2.392049789428711,-1.2433967590332031,0.2393331825733184,-0.3483108282089233,-0.3345264196395874
1749037200.6145616,0.6040002068403288,-0.3753989597233955,0.7040425476285349,-4.1339878546864535,4.883745142148934,3.9830123894421647,-0.04291448315922525,-0.07267009572026811,-0.17290250645983726,0.2721582565809521,-0.10392920005663477,-0.36399952921637807,-0.3387322127819061,-2.2890024185180664,-1.2164192199707031,0.2356707751750946,-0.3746820092201233,-0.3378393054008484
1749037200.6146011,0.6039129971866066,-0.3755498281272176,0.7036889844756864,-4.13343059373283,4.8835374349911325,3.9822686484275427,-0.043114004473835794,-0.07352916129048469,-0.17314304881540282,0.2727323283710751,-0.10426682823019401,-0.36508290037234703,-0.3424122035503387,-2.3000760078430176,-1.254045486450195,0.2421969324350357,-0.3471108376979828,-0.3408203721046448
1749037200.6146402,0.6038252167336134,-0.37570294549024996,0.7033332169434736,-4.1328673676070125,4.883327821373172,3.981518879039693,-0.04334675321959463,-0.07437830308138974,-0.17352231272299984,0.27339424028430076,-0.10466214635458934,-0.3662681609063298,-0.3344184458255768,-2.277430534362793,-1.2814037799835205,0.2574746608734131,-0.3925078511238098,-0.3243067264556885
1749037200.6146784,0.6037369793534564,-0.3758579008965293,0.7029755275434645,-4.132298829695725,4.883116383045207,3.9807641034023113,-0.0436095484621976,-0.0751784844383291,-0.17407092976465618,0.27416897282174857,-0.10511016463371341,-0.36757244140764833,-0.2850931584835052,-2.150763988494873,-1.1966954469680786,0.2098185569047927,-0.3614502251148224,-0.2271331995725631
1749037200.6147206,0.6036483936492096,-0.3760141904557101,0.7026161628803094,-4.131725821986812,4.8829032845076,3.9800054324604437,-0.043896785044507274,-0.0758969940175805,-0.17480326078482633,0.2750671785332714,-0.10559335384080998,-0.3690089127375318,-0.3082166314125061,-2.1941425800323486,-1.21088445186615,0.215314120054245,-0.3387634754180908,-0.2060296386480331
1749037200.614759,0.6035595438383611,-0.37617126706286647,0.7022552987676841,-4.131149281880703,4.882688757867783,3.979243922703155,-0.044200680772120894,-0.07651036884192143,-0.17571555233441513,0.2760851217726822,-0.10608459936782395,-0.3705853735028146,-0.4131715893745422,-2.366218090057373,-1.349224090576172,0.298708438873291,-0.3490317165851593,-0.3194230198860168
1749037200.614796,0.6034704785314284,-0.3763285920331933,0.7018930226451846,-4.130570155467759,4.882473085005838,3.978480461079768,-0.044511932951318174,-0.07700648483604498,-0.17678617609959962,0.2772062088056345,-0.10655182639104852,-0.37230275860179074,-0.3981110751628876,-2.302910804748535,-1.316377878189087,0.2911033630371094,-0.3725212216377258,-0.3667245507240295
1749037200.614833,0.6033812080868081,-0.3764856843319802,0.7015293341856507,-4.129989325853857,4.882256577511663,3.97771568880992,-0.04482079134790762,-0.07738567411634784,-0.1779780218231985,0.27840414111255424,-0.10696363190855256,-0.3741540381033915,-0.3271225690841675,-2.2323532104492188,-1.262494444847107,0.2654172480106354,-0.3495494127273559,-0.3528820276260376
1749037200.614874,0.6032917090677192,-0.37664216338896106,0.701164161298743,-4.1294075601646565,4.882039554259362,3.9769499667071257,-0.045118393768033956,-0.07766067810005756,-0.17924274798598824,0.27964741437586726,-0.10729504557782008,-0.3761240144891798,-0.3399928510189056,-2.238910436630249,-1.2597079277038574,0.2253261655569076,-0.3244054913520813,-0.3294357657432556
1749037200.6149118,0.6032019331092809,-0.37679778163105887,0.7007973864537655,-4.128825475360208,4.881822316838385,3.9761833785580705,-0.04539806823693888,-0.07785523305137187,-0.18052628511509822,0.2809045418979055,-0.1075324468228652,-0.37819030535248915,-0.3766769766807556,-2.3198611736297607,-1.298929214477539,0.2153583317995071,-0.3037412762641907,-0.3433122932910919
1749037200.6149487,0.6031118174638208,-0.376952443552007,0.7004288772285003,-4.128243521076355,4.881605123969524,3.9754157651480044,-0.04565627209791967,-0.0780012147558703,-0.1817748375094359,0.28214916449799393,-0.10767672969487752,-0.3803254343748806,-0.3484086096286773,-2.2634716033935547,-1.2746951580047607,0.2345148622989654,-0.2881735563278198,-0.3397203683853149
1749037200.6149864,0.6030212952466667,-0.3771062096044118,0.7000585151625891,-4.1276619770418845,4.881388167002941,3.9746467795023466,-0.04589293067320436,-0.078134536214724,-0.18294064236319035,0.2833642160013031,-0.1077440644083609,-0.38249963654446645,-0.2961612939834595,-2.2695558071136475,-1.2165790796279907,0.216648519039154,-0.3109723925590515,-0.3337482810020447
1749037200.6150277,0.6029303043691034,-0.3772592850445764,0.6996862183149503,-4.127080962646712,4.881171549226454,3.9738759534429198,-0.04611110279398389,-0.07829029324147999,-0.18398684675416138,0.2845445208520785,-0.10776404575013986,-0.3846838256537708,-0.3223272562026977,-2.305345296859741,-1.2199876308441162,0.186821699142456,-0.3278816640377044,-0.3108262717723846
1749037200.6150663,0.6028387948136671,-0.3774119954481822,0.6993119550603247,-4.126500456445612,4.8809552718616285,3.973102766198904,-0.046316072758566404,-0.07849787818657057,-0.1848910039194409,0.2856974984418052,-0.10777554054097478,-0.38685217382336146,-0.370612770318985,-2.3246042728424072,-1.2397361993789673,0.1819249838590622,-0.3219374418258667,-0.3025383055210113
1749037200.6157997,0.6027467339591385,-0.37756475171311,0.6989357488116958,-4.1259203234139985,4.880739229259471,3.972326707149077,-0.046514102354566295,-0.07877686744510087,-0.18564687299477883,0.28684193647275424,-0.1078209898017357,-0.3889838789901947,-0.3758764564990997,-2.3724522590637207,-1.2350637912750244,0.2103760689496994,-0.3537870049476623,-0.2929015755653381
