nimar13/UR3e_dataset_trayectorias/trayectorias_ejecutadas_filtradas/quintic/trayectoria_059_result_filtrado.csv
timestamp,q1,q2,q3,q4,q5,q6,qd1,qd2,qd3,qd4,qd5,qd6,tau1,tau2,tau3,tau4,tau5,tau6
1749033775.0862615,-0.13263653678357412,-2.0477061139994515,-0.49525095387047446,1.3694968293744447,-0.646796057640253,0.8097763785630256,-0.0001412018879737027,-0.0002841116788682877,0.0005041522337007999,-1.7342547071806043e-05,9.892586766363525e-05,2.172207580201807e-05,-0.2911639511585235,0.7330489754676819,0.6798944473266602,-0.2585780024528503,0.3219162821769714,0.1028045117855072
1749033775.086309,-0.13263411361987784,-2.047707482642055,-0.4952521512421132,1.3695012236401718,-0.6467907362871254,0.809776599696644,-0.00014132319667648857,-0.0003388666492837315,0.00048530930476291256,-2.2395510014699437e-05,0.00018339688074724085,1.4878410291988791e-05,-0.2905833721160888,0.7093977332115173,0.6775379776954651,-0.2718509137630462,0.3379676640033722,0.1204723864793777
1749033775.0863504,-0.1326318473770621,-2.047708872841409,-0.49525319457454975,1.3695054008384617,-0.6467856738099621,0.8097767459768574,-0.00014220203775126966,-0.00039310935945746975,0.0004666046726966025,-2.9168727876344253e-05,0.00026592026663562265,4.545003751106855e-06,-0.2996439337730407,0.7167906165122986,0.6922811269760132,-0.2555666267871856,0.3229858875274658,0.0995357930660247
1749033775.0863895,-0.13262989339140188,-2.0477103047286973,-0.49525396467764454,1.3695092144820167,-0.6467811190372272,0.809776757885727,-0.00014367041424162279,-0.0004476108945249204,0.00044810422842902044,-3.7339289872785093e-05,0.00034422494374106556,-9.068773578664507e-06,-0.2996439337730407,0.7167906165122986,0.6922811269760132,-0.2555666267871856,0.3229858875274658,0.0995357930660247
1749033775.0864277,-0.13262837872091304,-2.0477117852256486,-0.49525437791210514,1.369512545956432,-0.6467772801980698,0.8097765781253784,-0.00014545236913603225,-0.0005028621004229147,0.00042990115219385214,-4.6343845827051425e-05,0.000416176743652479,-2.5334052127521333e-05,-0.2935094833374023,0.7079444527626038,0.6774788498878479,-0.253738522529602,0.3383623957633972,0.1061837673187255
1749033775.0864654,-0.13262739347208022,-2.0477133046259177,-0.49525439688852735,1.3695153125524817,-0.6467743077260095,0.8097761556600354,-0.00014716647677076415,-0.0005589873968764542,0.0004121201466000557,-5.537695063075219e-05,0.00047986582567870943,-4.316006660344497e-05,-0.2928168177604675,0.7005590796470642,0.6873084306716919,-0.2511587142944336,0.3343277871608734,0.1063659191131591
1749033775.0865023,-0.1326269867944026,-2.0477148375507,-0.4952540338510046,1.3695174721583423,-0.6467722832565004,0.8097754507707315,-0.00014834026574367715,-0.0006157434186734986,0.0003949136200795543,-6.341581995873871e-05,0.0005336982713988448,-6.099175795721239e-05,-0.2928168177604675,0.7005590796470642,0.6873084306716919,-0.2511587142944336,0.3343277871608734,0.1063659191131591
1749033775.0865393,-0.1326271669076745,-2.047716347882362,-0.4952533465488877,1.3695190245718725,-0.6467712149563439,0.8097744409602305,-0.00014843825138090668,-0.0006726053905016482,0.0003784493941269245,-6.927584232768883e-05,0.0005764856290015759,-7.685838750260164e-05,-0.2968652248382568,0.6918196082115173,0.67552250623703,-0.2630821466445923,0.3227162957191467,0.1075056940317154
1749033775.086576,-0.13262790408625916,-2.04771779635939,-0.49525242770092615,1.3695200096852003,-0.6467710388514762,0.8097731270278646,-0.00014690422090001586,-0.0007289270015704667,0.0003628911970429618,-7.169893802509887e-05,0.0006075208752281358,-8.848146779927678e-05,-0.2973980605602264,0.6769718527793884,0.6708172559738159,-0.2547983527183532,0.3344805538654327,0.1001414954662323
1749033775.0866127,-0.13262913569833049,-2.0477191490395783,-0.4952513902631492,1.3695205028532558,-0.6467716259322592,0.8097715380733297,-0.00014321698854051533,-0.0007841422510747713,0.00034837479924643985,-6.947375297125709e-05,0.0006266257798135754,-9.344595431431439e-05,-0.2801285982131958,0.6966164112091064,0.6881996989250183,-0.2340733557939529,0.3361772298812866,0.1088842749595642
1749033775.0866497,-0.13263077271195184,-2.047720384885425,-0.49525035129398126,1.3695206077761304,-0.6467727949244658,0.8097697338543491,-0.00013695707188484665,-0.0008379649890544765,0.00033498382097463535,-6.15828395823599e-05,0.0006341563120211063,-8.943266922112865e-05,-0.2954079806804657,0.6887509226799011,0.6739574074745178,-0.2618560194969177,0.3241513669490814,0.0960967242717742
1749033775.0866864,-0.1326327072261237,-2.0477215011682675,-0.49524941706601044,1.3695204473493294,-0.6467743301120514,0.8097678031361238,-0.0001278797489106655,-0.0008905394502639578,0.00032272976467100144,-4.736763445189673e-05,0.0006309605761591015,-7.450257201552596e-05,-0.282985657453537,0.7074467539787292,0.6818982362747192,-0.2465494275093078,0.3346300721168518,0.1069308519363403
1749033775.086723,-0.13263482055134826,-2.047722516070665,-0.4952486713950738,1.3695201531672423,-0.6467760025205833,0.8097658575558179,-0.00011598791441880974,-0.0009425055158985827,0.00031154045143307534,-2.6697538457393926e-05,0.000618294407992058,-4.7415192689083974e-05,-0.282985657453537,0.7074467539787292,0.6818982362747192,-0.2465494275093078,0.3346300721168518,0.1069308519363403
1749033775.08676,-0.13263699121663577,-2.0477234686301125,-0.4952481682947402,1.3695198545716671,-0.6467775917463399,0.8097640217008087,-0.0001015962993778631,-0.0009949620007401294,0.00030125971022925075,-1.25192959589326e-07,0.0005977079536729595,-7.95496539186073e-06,-0.2801663279533386,0.6922363638877869,0.6825305223464966,-0.2508956789970398,0.3381379246711731,0.0928777456283569
1749033775.086796,-0.13263910219144398,-2.04772441668086,-0.49524792918640353,1.3695196681496624,-0.646778905413761,0.8097624209074678,-8.537722496497797e-05,-0.0010493325493833613,0.00029165920463691044,3.0993331699405755e-05,0.0005709195534359657,4.276878580147049e-05,-0.2900407910346985,0.6910237073898315,0.6728295683860779,-0.2630329132080078,0.3257942795753479,0.1076502799987793
1749033775.086832,-0.1326410468131344,-2.047725433436489,-0.4952479441251209,1.3695196884048622,-0.6467797939198145,0.8097611684120887,-6.837742345258779e-05,-0.0011071557198030842,0.00028246136767444077,6.443667047050384e-05,0.0005396919159545637,0.00010208881658953521,-0.2827015817165375,0.7066757678985596,0.6795487999916077,-0.2507107853889465,0.3299335241317749,0.1051031053066253
1749033775.0868683,-0.13264273336153312,-2.047726602955522,-0.4952481761073418,1.369519980178467,-0.6467801594575425,0.8097603531787431,-5.199582770033556e-05,-0.0011698309275939298,0.0002733711913808977,9.713779422060621e-05,0.0005057220964666745,0.00016565809760867294,-0.2808154821395874,0.6934074759483337,0.6821964383125305,-0.2657708525657654,0.3435946106910705,0.1060420870780944
1749033775.0869043,-0.13264408860545068,-2.0477280143135275,-0.4952485676233312,1.3695205734185347,-0.6467799595767988,0.8097600294615954,-3.7913802901502744e-05,-0.0012383552059429851,0.00026411416130421827,0.000125305720577147,0.00047055265236466777,0.00022748304817639755,-0.3040779829025268,0.705242395401001,0.6896699070930481,-0.2305116057395935,0.3330033421516418,0.1107776761054992
1749033775.086941,-0.13264506072621277,-2.047729754152172,-0.4952490488739156,1.3695214609206598,-0.6467792061033395,0.8097602091486256,-2.7972191995946288e-05,-0.0013130841464725786,0.0002544774364310559,0.00014466439839233317,0.00043550718299319266,0.00028015065736124005,-0.2936457991600036,0.6873154044151306,0.6762720942497253,-0.2695707678794861,0.3314473330974579,0.1274439394474029
1749033775.0869772,-0.13264562178933287,-2.0477318976166488,-0.49524954701274426,1.369522599471449,-0.6467779600474814,0.8097608579797586,-2.399381704463468e-05,-0.0013935463637568834,0.0002443509254148754,0.00015081531409408586,0.0004016498580583483,0.00031527756224788083,-0.2936457991600036,0.6873154044151306,0.6762720942497253,-0.2695707678794861,0.3314473330974579,0.1274439394474029
1749033775.0876567,-0.13264576952559884,-2.0477344985142576,-0.49524999533903075,1.3695239144589446,-0.646776322766615,0.8097618964799566,-2.7555644096072965e-05,-0.00147833509528275,0.00023376407112364747,0.00013971891627735807,0.00036976615511094313,0.00032419258871774345,-0.2931172251701355,0.6915833353996277,0.6799687743186951,-0.2575793862342834,0.3307458162307739,0.1252205818891525
1749033775.089635,-0.13264552781372302,-2.047737580305309,-0.49525034100242216,1.3695253076724196,-0.6467744237859295,0.8097632057816512,-3.9721359550985754e-05,-0.0015650919182704644,0.00022291317622245195,0.00010827614554959448,0.0003403611636995266,0.0002988421622460358,-0.2954400181770324,0.7018470168113708,0.6797606348991394,-0.2466313540935516,0.3338972330093384,0.1111765503883361
1749033775.134291,-0.1326449451128114,-2.0477411296860635,-0.49525054993318596,1.369526667773879,-0.6467724064461572,0.8097646376996794,-6.075193869532908e-05,-0.0016505861266525258,0.00021217344022836279,5.4976231280455084e-05,0.0003136722565142523,0.00023288138310748383,-0.2954400181770324,0.7018470168113708,0.6797606348991394,-0.2466313540935516,0.3338972330093384,0.1111765503883361
1749033775.134336,-0.1326440902666111,-2.047745094015446,-0.4952506083410988,1.3695278826792245,-0.6467704133270603,0.8097660279217683,-8.981793937646982e-05,-0.0017308827282582057,0.00020209001215546537,-1.943801941468707e-05,0.0002896940158221431,0.00012288423108398596,-0.2716297507286072,0.6943634748458862,0.6858450770378113,-0.2553918659687042,0.3345422744750976,0.1072013974189758
1749033775.13438,-0.13264304563420065,-2.0477493830358915,-0.4952505208967135,1.369528852766115,-0.6467685734704669,0.8097672112521195,-0.0001247418152394257,-0.0018015864406864999,0.00019334354461787712,-0.00011134919598835248,0.00026821418810720236,-3.0423092920305148e-05,-0.2716297507286072,0.6943634748458862,0.6858450770378113,-0.2553918659687042,0.3345422744750976,0.1072013974189758
1749033775.13442,-0.13264189829934775,-2.047753874546966,-0.4952503063759333,1.3695295035828816,-0.6467669927077861,0.8097680382790886,-0.00016180092719795972,-0.0018581477198188361,0.00018668785792173034,-0.0002137594898185093,0.0002488595376769124,-0.00022102797085754274,-0.230779767036438,0.6718160510063171,0.6731608510017395,-0.253890722990036,0.3216360807418823,0.1100302785634994
1749033775.134458,-0.13264073081583225,-2.0477584231230903,-0.4952499919974628,1.3695297968357005,-0.6467657474486406,0.8097683930741973,-0.00019562173128373226,-0.0018962136886291748,0.00018286004795124323,-0.00031597475736007137,0.00023114969707731315,-0.0004367379013952577,-0.222596526145935,0.6878734230995178,0.6768662333488464,-0.24148890376091,0.3197536468505859,0.095283642411232
1749033775.1344955,-0.1326396131147299,-2.04776287075343,-0.495249607803741,1.3695297389280237,-0.6467648817112744,0.8097682112088626,-0.00021919234975925834,-0.0019119962970149513,0.00018246634618252101,-0.000403549480070306,0.00021455572614958513,-0.0006586776143763314,-0.2171674370765686,0.6821664571762085,0.6678290367126465,-0.2222420871257782,0.3127422928810119,0.096488207578659
1749033775.1345325,-0.13263859666304592,-2.047767058329194,-0.4952491821998352,1.369529386921623,-0.6467644071147751,0.8097674966792825,-0.0002240138888148144,-0.0019026130789520574,0.0001858499813919603,-0.00045855145362945976,0.00019855846336253022,-0.0008613199837390448,-0.225984126329422,0.7004756331443787,0.6728290915489197,-0.2303933799266815,0.3038610816001892,0.1023818999528884
1749033775.1345685,-0.13263771099278895,-2.0477708370213192,-0.49524873931637964,1.3695288521081588,-0.6467643057112329,0.8097663357375855,-0.0002004002665216513,-0.0018663411193072686,0.00019294996224646023,-0.0004601835308896227,0.00018270023278690135,-0.0010131692551744527,-0.1898368299007415,0.7257079482078552,0.6700565814971924,-0.2198154926300048,0.3002696633338928,0.1024928539991378
1749033775.1346056,-0.13263696189154284,-2.0477740787346455,-0.49524829839995455,1.369528301290062,-0.6467645355373098,0.8097649054779541,-0.0001379224025769602,-0.0018027242407059687,0.00020316187461127779,-0.00038576932523288825,0.00016662232295748707,-0.0010781704467612099,-0.192931592464447,0.7101370692253113,0.6619229912757874,-0.2103675454854965,0.2933356761932373,0.0958565175533294
1749033775.1346428,-0.13263633033543884,-2.047776685015665,-0.4952478750462507,1.3695279555300932,-0.6467650384555923,0.8097634753978956,-2.5976573514761252e-05,-0.0017124942555163589,0.00021521323805699267,-0.00021207227913094546,0.00015008006223582142,-0.0010178541845985221,-0.1633673310279846,0.7123542428016663,0.6665293574333191,-0.2000723332166671,0.2996557652950287,0.0913642644882202
1749033775.1346796,-0.1326357716191863,-2.0477785939287805,-0.4952474838037692,1.3695280858700407,-0.6467657492942294,0.8097624009480165,0.00014555978977406892,-0.0015973056835926409,0.00022706643677879916,8.312350410010015e-05,0.00013292740505938796,-0.0007941442352501404,-0.1365230679512024,0.7136170268058777,0.6550189852714539,-0.1976149231195449,0.2753255367279053,0.0992840230464935
1749033775.1347165,-0.13263521463782676,-2.0477797843526204,-0.49524714152725413,1.369529005642576,-0.6467666046751034,0.8097621090833607,0.0003856369094437304,-0.001459325605890464,0.00023586146535357563,0.0005192811904423199,0.00011506380797610871,-0.00037266117663599645,-0.1289030611515045,0.7597119212150574,0.6519164443016052,-0.1852844953536987,0.2725751996040344,0.1116115152835846
1749033775.1347528,-0.13263456151421668,-2.047780276914822,-0.49524687081413127,1.369531059487394,-0.6467675496507336,0.8097630767920105,0.0007013702810604527,-0.0013007501307731976,0.0002379084980935465,0.0011113677911803173,9.633789800069053e-05,0.0002737409665642312,-0.122632510960102,0.7752503752708435,0.6454089283943176,-0.1900368630886078,0.2691646218299866,0.1141495406627655
1749033775.1347888,-0.13263368772823214,-2.0477801306673236,-0.49524670280928246,1.3695346096206498,-0.6467685407680913,0.809765804317665,0.001097476969294217,-0.0011233274600703635,0.0002287365231527801,0.0018682514609087329,7.640508314801087e-05,0.0011615550616830153,-0.0584855526685714,0.7745140194892883,0.6392033100128174,-0.1627810597419738,0.258321076631546,0.1403572559356689
1749033775.1348257,-0.1326324428598619,-2.047779434945391,-0.495246678652865,1.3695400199572725,-0.6467695453734129,0.8097707852142578,0.0015758750826355189,-0.0009279564939829306,0.0002031991093546853,0.002791383510686864,5.453980935815521e-05,0.002293728852329712,-0.05532668530941,0.8025489449501038,0.6298295855522156,-0.1788099110126495,0.2583210468292236,0.1611780524253845
1749033775.1348617,-0.1326306522412251,-2.0477782967162805,-0.49524684908669336,1.3695476385477576,-0.6467705382687806,0.8097784755183839,0.0021354918356662187,-0.0007144072496314567,0.00015563219502803013,0.0038738867198161333,2.940750608591237e-05,0.0036577266387816457,-0.0606969743967056,0.8068467378616333,0.6122314929962158,-0.1389348208904266,0.2560111880302429,0.187160313129425
1749033775.134913,-0.13262812011029332,-2.047776824819197,-0.49524727231931687,1.369557778923281,-0.6467714977119481,0.8097892643718989,0.002772294880826804,-0.0004811832749008059,8.005224352347233e-05,0.0051001476309436205,-1.193722158298485e-06,0.005224920111969598,-0.0330624729394912,0.8325751423835754,0.6032871603965759,-0.1448163986206054,0.2281610816717147,0.1790291666984558
1749033775.1349666,-0.1326246349494114,-2.0477751134329227,-0.4952480109539732,1.3695707014414915,-0.6467724031042034,0.8098034484432498,0.0034795263746084317,-0.00022552273324518956,-2.962306257724425e-05,0.006445994288186841,-4.060585567692653e-05,0.006951553282948527,-0.0333866328001022,0.8549057841300964,0.5850216746330261,-0.1110148504376411,0.2272067964076995,0.1660065650939941
1749033775.1350062,-0.1326199774582708,-2.047773227555414,-0.49524912925698467,1.3695865962431544,-0.6467732364780412,0.8098212123229157,0.004248089716595655,5.6481563062972065e-05,-0.00017935435663699392,0.007879526916386197,-9.357589543162286e-05,0.00878132553358021,-0.0342984348535537,0.8628720641136169,0.5702816843986511,-0.1135028153657913,0.2064037770032882,0.1755917370319366
1749033775.1350436,-0.1326139312133287,-2.0477711929866267,-0.4952506920655204,1.3696055696136225,-0.6467739888878802,0.8098426165437677,0.005067024350856434,0.0003696685386529503,-0.00037478536213840204,0.009362637293039815,-0.0001664841079144915,0.010649409410411358,-0.0096336156129837,0.9046826362609864,0.5762340426445007,-0.1151086539030075,0.2082669138908386,0.1860130429267883
1749033775.13508,-0.13260629562729098,-2.047768992200521,-0.4952527661238968,1.369627635308857,-0.6467746711464203,0.8098675940922111,0.005924006287777637,0.0007195200217448025,-0.000621094824949781,0.010853183981665905,-0.0002675012356687817,0.01248752560880374,-0.0144865363836288,0.9257659316062928,0.5520665049552917,-0.0751268863677978,0.1925812661647796,0.2158952504396438
1749033775.135117,-0.13259690027696563,-2.0477665659119575,-0.4952554236830598,1.3696527118733688,-0.6467753267073493,0.8098959555246293,0.006805823432968079,0.0011117965570500003,-0.0009229053096751785,0.012307688821134418,-0.00040663679636250436,0.01422957289310975,-0.0018606930971145,0.925472855567932,0.5191161632537842,-0.0874536111950874,0.1826156079769134,0.2181472182273864
1749033775.1356838,-0.13258561901448493,-2.0477638187970815,-0.4952587472017761,1.369680626363473,-0.6467760435968839,0.809927402316614,0.007698788248196542,0.00155207518555013,-0.0012842337290453133,0.01368431742534748,-0.0005956387309148807,0.015817251792315915,0.0105017125606536,0.9030715823173524,0.5388557314872742,-0.0839255675673484,0.1713133603334427,0.2139541506767273
1749033775.137638,-0.1325723818059814,-2.0477606273042883,-0.49526283352108785,1.3697111244131013,-0.6467769624307002,0.8099615478108394,0.008589068580207698,0.0020451590525136917,-0.0017084334356458613,0.01494584395832662,-0.0008477044746753441,0.017205108601320428,0.0110601186752319,0.9562508463859558,0.5209522843360901,-0.0878361165523529,0.1608814448118209,0.1905201375484466
1749033775.1782649,-0.13255718223201887,-2.0477568478192865,-0.49526779616931943,1.3697438863050297,-0.6467782786166819,0.8099979448785135,0.009462946443653709,0.00259436024540722,-0.0021980492299916803,0.016062299907550766,-0.0011769670732051812,0.018364457870546896,0.044885441660881,0.99105304479599,0.5211365222930908,-0.0865910500288009,0.1432506442070007,0.1855517625808715
1749033775.1783094,-0.13254007893599987,-2.047752324204582,-0.4952737651350912,1.3697785484785794,-0.6467802384701798,0.8100361190553875,0.010307049373680188,0.0032007287411201547,-0.0027545120928081828,0.017013060037183874,-0.0015977297908368235,0.01928573489681178,0.044885441660881,0.99105304479599,0.5211365222930908,-0.0865910500288009,0.1432506442070007,0.1855517625808715
1749033775.1783483,-0.13252118989939643,-2.0477468945068575,-0.49528088396275965,1.3698147294685044,-0.6467831304629573,0.8100756054551359,0.01110862239922878,0.0038623729709621637,-0.003377653157194568,0.017788199086687124,-0.002123438305387494,0.019978999300476585,0.0345313176512718,1.0310664176940918,0.4726229608058929,-0.1101212725043296,0.1291265487670898,0.1671173274517059
1749033775.1783862,-0.13250067957343314,-2.0477403971881483,-0.49528930415009753,1.369852058503918,-0.6467872734174827,0.8101159871120867,0.011855902713468987,0.004574039545687332,-0.004065095653018396,0.01838903278107602,-0.0027653997813107223,0.02047254294236935,0.056655466556549,1.0230252742767334,0.4741319715976715,-0.118263378739357,0.1119054406881332,0.178989753127098
1749033775.1784236,-0.13247874078291047,-2.047732677484451,-0.495299176806513,1.3698902040736185,-0.6467930030097334,0.8101569315287672,0.012538622849814463,0.005327071658549691,-0.0048116480771367535,0.01882782502488132,-0.0035312890868822973,0.020809804621731168,0.056655466556549,1.0230252742767334,0.4741319715976715,-0.118263378739357,0.1119054406881332,0.178989753127098
1749033775.1784604,-0.13245557512639242,-2.047723594380848,-0.4953106417904078,1.36992889917016,-0.6468006572002809,0.8101982214636535,0.013148621677328132,0.00610977630415866,-0.005608842538348242,0.01912670738965643,-0.004423536634205821,0.021045003276990392,0.0737953782081604,1.0301740169525146,0.4692108035087585,-0.1095775291323661,0.0878547132015228,0.1815031468868255
1749033775.1784973,-0.13243137604881608,-2.04771302823144,-0.49532381522885405,1.3699679601191599,-0.6468105609333991,0.8102397759634109,0.013680505422891903,0.0069081503543311756,-0.0064447386839033985,0.019315926439359584,-0.005437769253930656,0.02123803086723525,0.0737953782081604,1.0301740169525146,0.4692108035087585,-0.1095775291323661,0.0878547132015228,0.1815031468868255
1749033775.1785345,-0.13240631748750753,-2.047700888413882,-0.495338777061407,1.370007296901937,-0.646823010523918,0.810281658572896,0.014132275112258624,0.007706874173836755,-0.007304066440666723,0.019431600062298313,-0.006561547523636542,0.021449188091985115,0.0669141486287117,1.0648837089538574,0.4535656571388244,-0.1180639564990997,0.0640120506286621,0.1780837327241897
1749033775.1785717,-0.13238054881177058,-2.047687119899106,-0.4953555605055043,1.3700469143004397,-0.6468382579755724,0.8103240713650106,0.014505818456329632,0.008490469437227968,-0.008168733145042397,0.019513203668522067,-0.007773671190363663,0.021734315621900098,0.0681247115135192,1.0876858234405518,0.4484532177448272,-0.1221663877367973,0.0623860731720924,0.2068412601947784
1749033775.178609,-0.13235419474558777,-2.04767170744094,-0.4953741449867052,1.3700869045822597,-0.6468564949129127,0.8103673355405081,0.014807160371138451,0.00924451121920095,-0.009018683267216165,0.01960100934934459,-0.009044289643866645,0.02214078439231507,0.0681247115135192,1.0876858234405518,0.4484532177448272,-0.1221663877367973,0.0623860731720924,0.2068412601947784
1749033775.178646,-0.13232735773628013,-2.04765467623638,-0.4953944534553979,1.3701274334857343,-0.6468778355279731,0.8104118613767671,0.01504638923884098,0.009956774977374827,-0.009833068324182093,0.019733674523105926,-0.010335967880010604,0.022704666280041468,0.1235531717538833,1.1247011423110962,0.44951331615448,-0.1094630062580108,0.0370111465454101,0.1996273100376129
1749033775.1786823,-0.13230012017774517,-2.0476360883840576,-0.49541635444901194,1.3701687218081857,-0.646902298700971,0.8104581117459718,0.015237226396586579,0.01061819454870862,-0.010591652777863907,0.019946137102874965,-0.011605743636592256,0.023449226671105387,0.116267554461956,1.12469220161438,0.442801296710968,-0.1186552494764328,0.0113291442394256,0.2055995911359787
1749033775.1787188,-0.13227254496716517,-2.0476160353730726,-0.49543966880729556,1.3702110249609027,-0.6469297912087928,0.8105065639577141,0.015396268871715819,0.011223517403923368,-0.011276347111922404,0.02026793185035866,-0.012808084983940796,0.024384699900510065,0.116267554461956,1.12469220161438,0.442801296710968,-0.1186552494764328,0.0113291442394256,0.2055995911359787
1749033775.1787727,-0.13224467421840508,-2.047594627958372,-0.49546418055024516,1.3702546126145925,-0.646960095742049,0.8105576743541228,0.015541990094659423,0.011771574188364239,-0.011872728605188527,0.02072200133111976,-0.013898527712055846,0.025509168412964644,0.1393289268016815,1.1273539066314695,0.4387127161026001,-0.0977563709020614,0.035897247493267,0.1963676959276199
1749033775.1788125,-0.13221652649139318,-2.0475719854677465,-0.4954896510106578,1.3702997502431964,-0.6469928681916265,0.8106118491799804,0.015693617453882234,0.012265131410671539,-0.012371391468196772,0.021324036391432086,-0.014837646775662284,0.02681028755661214,0.1393289268016815,1.1273539066314695,0.4387127161026001,-0.0977563709020614,0.035897247493267,0.1963676959276199
1749033775.1789038,-0.13218809258454087,-2.047548226336492,-0.49551583486431916,1.3703466840806813,-0.6470276477986222,0.8106694240371206,0.015870014269620317,0.012710360652265086,-0.01276896451464811,0.022082344743023577,-0.01559491379709387,0.028267575649978966,0.1562255620956421,1.1710772514343262,0.4610984921455383,-0.0978167876601219,0.0502284318208694,0.1912444829940796
1749033775.1789422,-0.13215932984109416,-2.0475234606878105,-0.49554249645919823,1.3703956307268625,-0.6470638815670687,0.8107306529596184,0.016088676663313893,0.01311602017543508,-0.01306864997380969,0.022998210151453258,-0.01615194435559743,0.029855006853185418,0.1562255620956421,1.1710772514343262,0.4610984921455383,-0.0978167876601219,0.0502284318208694,0.1912444829940796
1749033775.1789796,-0.13213015575448644,-2.0474977847767226,-0.495569425090516,1.3704467723361744,-0.6471009616789233,0.8107957070713422,0.016364918278930163,0.013492487747611122,-0.013280178954643581,0.024066668763029354,-0.016504675344783986,0.03154368472677627,0.1608186364173889,1.1528356075286863,0.4686867296695709,-0.1027639955282211,0.0661481916904449,0.210321232676506
1749033775.179016,-0.13210044287295022,-2.0474712766939205,-0.49559644842507405,1.3705002578481404,-0.6471382724053207,0.81086468195826,0.016711270098811185,0.013850790127406568,-0.013419151241737133,0.02527759548093464,-0.016664142128571476,0.033304416467913045,0.1649122834205627,1.1954572200775146,0.4394066333770752,-0.1163185238838195,0.0616306811571121,0.2118971645832061
1749033775.1790526,-0.13207001752119596,-2.047443993005504,-0.4956234435832256,1.3705562098441997,-0.6471752415068552,0.8109376120518459,0.017137083271902893,0.014201742087551626,-0.01350581839056312,0.02661696587296534,-0.01665572460288817,0.03511002906721251,0.1835785806179046,1.169605016708374,0.4390506744384765,-0.0923658311367034,0.056213229894638,0.2078875601291656
1749033775.1796772,-0.13203866415828666,-2.047415966633047,-0.4956503451595853,1.3706147353696172,-0.6472113902236216,0.8110144893408877,0.01764830186479208,0.01455525597849775,-0.01356345397498969,0.028068146729382074,-0.01651695401108489,0.036937263883288614,0.2132044732570648,1.1792669296264648,0.4320865273475647,-0.0871580094099044,0.0657279789447784,0.196169763803482
1749033775.1816144,-0.1320061355737546,-2.0473872067232906,-0.49567714910539784,1.370675937918325,-0.647246375742776,0.8110952829786362,0.01824737475395192,0.014919839080469744,-0.013616508491245035,0.029613083394467988,-0.016294164941060268,0.03876808536503367,0.2148495316505432,1.1873868703842163,0.4241977035999298,-0.0606567487120628,0.0618009641766548,0.2081110924482345
1749033775.222273,-0.13197216741691703,-2.047357701148408,-0.4957039115713782,1.3707399273729302,-0.6472800208528736,0.811179956389392,0.018933293983207374,0.015302272355895893,-0.013688759323490863,0.031233294824833446,-0.016038402013196253,0.04059028741451872,0.2213151007890701,1.21218740940094,0.4182156920433044,-0.0854900777339935,0.0524809584021568,0.2119528949260711
1749033775.2223248,-0.13193649462074183,-2.047327421608662,-0.4957307426773376,1.3708068253303922,-0.6473123272857653,0.8112684794206374,0.019701763703457192,0.015707454740982302,-0.013801643917008818,0.03291063855673737,-0.015801040309143925,0.04239738837120183,0.2305530458688736,1.1938832998275757,0.4312117397785187,-0.0829961895942688,0.0549011081457138,0.2283090204000473
1749033775.2223651,-0.13189886738479303,-2.047296330441513,-0.4957577962332608,1.3708767647154325,-0.6473434713903286,0.8113608345184993,0.020545507880661684,0.016138391830052487,-0.013972918503193585,0.034627846248818754,-0.015629565955028818,0.044187932724440875,0.223124548792839,1.190061330795288,0.4113321602344513,-0.0764376148581504,0.0486406609416008,0.231509268283844
1749033775.2224038,-0.13185906506983575,-2.0472643876425307,-0.4957852571152883,1.37094988429616,-0.647373782840799,0.8114570173046703,0.02145471889178769,0.016596302718663865,-0.014215727553096053,0.03636885287145287,-0.015563907905784265,0.04596440698577712,0.223124548792839,1.190061330795288,0.4113321602344513,-0.0764376148581504,0.0486406609416008,0.231509268283844
1749033775.2224414,-0.1318169071032025,-2.047231556500728,-0.4958133281121292,1.3710263199988106,-0.6474037090808724,0.8115570329747717,0.022417639916043623,0.017080815231234298,-0.014538111677695585,0.0381189568597695,-0.01563362892047542,0.047731996822191224,0.2747615277767181,1.2282369136810305,0.4321071207523346,-0.0644715428352356,0.0424520522356033,0.2169388234615326
1749033775.2224796,-0.1317722606334845,-2.0471978066348497,-0.49584221770023335,1.371106195286316,-0.6474337700626935,0.8116608904034569,0.02342126212317631,0.01759021924603472,-0.014942932427444459,0.03986485766055495,-0.015856180738918976,0.049497367835944696,0.2805871069431305,1.2284791469573977,0.4176641404628753,-0.062518373131752,0.031740665435791,0.2226331830024719
1749033775.222517,-0.13172504518496886,-2.0471631140183977,-0.4958721295831122,1.371189612254411,-0.647464509061559,0.8117685956315832,0.024452098892744314,0.018121749554342186,-0.015428156948002014,0.041594620046924116,-0.016236313400306967,0.05126757523536291,0.2785512506961822,1.2217967510223389,0.4249620139598846,-0.0549191534519195,0.0171962976455688,0.2316153198480606
1749033775.222554,-0.13167523487547117,-2.047127458587206,-0.49590325423286263,1.3712766440512303,-0.6474964454922302,0.8118801458204578,0.025496974243172398,0.018671873163253604,-0.01598742671106212,0.04329761566715903,-0.0167666153462818,0.05304914159051009,0.2643503248691559,1.235826015472412,0.4043217003345489,-0.0592706203460693,0.0215286910533905,0.2299029231071472
1749033775.2225912,-0.13162285879775737,-2.047090820836843,-0.4959357623358968,1.3713673285463133,-0.647530034768337,0.8119955242610205,0.026543742569159416,0.01923656309697866,-0.016610831098919122,0.0449644962486297,-0.017429060013060563,0.05484731580102212,0.2338241636753082,1.23412823677063,0.4207828342914581,-0.0503810048103332,0.0343660712242126,0.2564422190189361
1749033775.222628,-0.13156799986142723,-2.0470531791195605,-0.4959697999199618,1.3714616631849876,-0.6475656386494361,0.8121146966640815,0.02758185901497224,0.019811552159863997,-0.017285811326892834,0.04658725259241701,-0.018197346166245815,0.05666553174665205,0.268665075302124,1.2311713695526123,0.4148851335048675,-0.0608534961938858,0.0248284637928009,0.2424852102994918
1749033775.222664,-0.1315107918509602,-2.047014509050193,-0.49600548477986234,1.371559601348097,-0.647603507489866,0.8122376085085214,0.02860275213357526,0.02039257056344905,-0.017998125310709736,0.048159394520068524,-0.019039747183528747,0.0585050894505306,0.2720403671264648,1.2708992958068848,0.416979044675827,-0.0476842299103736,0.0210961997509002,0.2377556562423706
1749033775.2227006,-0.13145141408030825,-2.0469747856095077,-0.49604290356659386,1.3716610507908087,-0.6476437737377501,0.8123641828596694,0.02959999896262812,0.020975573665312143,-0.018732808224420243,0.0496762451585593,-0.01992214798595763,0.06036506569302829,0.2734848260879516,1.2653404474258425,0.4134669005870819,-0.0608843639492988,0.027194857597351,0.238822266459465
1749033775.2227366,-0.13139008318052534,-2.0469339874952217,-0.49608210882708864,1.371765874513998,-0.6476864545942349,0.8124943182377384,0.03056934160131735,0.02155695927013938,-0.019475069888067006,0.05113529315680882,-0.020810964146669154,0.062242433523265646,0.2958987355232239,1.2630324363708496,0.4331543743610382,-0.0694458857178688,0.0305889844894409,0.248844176530838
1749033775.2227728,-0.1313270421457199,-2.046892102489454,-0.49612311562689304,1.3718738937905304,-0.6477314614187506,0.8126278868671164,0.0315085994338398,0.02213376284659213,-0.020211079991696825,0.05253651326845798,-0.021675698172508067,0.06413234919327454,0.2936238646507263,1.2716165781021118,0.4211255609989166,-0.0667952373623848,0.0335171520709991,0.2400936484336853
1749033775.2228088,-0.1312625473313393,-2.046849132399549,-0.4961658980344621,1.3719848925817977,-0.6477786140046852,0.8127647344337177,0.03241752633934658,0.022703809683354958,-0.020928604263269084,0.05388256547172362,-0.02249096622659917,0.06602855565915117,0.2912167310714721,1.2747349739074707,0.4295867681503296,-0.0778636783361435,0.0405693352222442,0.2501073777675628
1749033775.2228446,-0.1311968542596603,-2.0468050964154703,-0.49621038634434234,1.3720986228218335,-0.6478276584687467,0.8129046826738385,0.03329764749204814,0.023265803590527802,-0.02161746840488935,0.05517881164451203,-0.02323790058985434,0.06792384684393046,0.3221963942050934,1.3008519411087036,0.4318112730979919,-0.0625059083104133,0.0368152856826782,0.2348484098911285
1749033775.2228806,-0.13113020283637203,-2.0467600321954054,-0.4962564662388032,1.3722148109996506,-0.6478782876884133,0.813047535565423,0.03415209119705941,0.023819350192687296,-0.022269841470409456,0.05643312748898526,-0.023904890784248612,0.06981053645439929,0.3114045262336731,1.3267817497253418,0.4281967878341675,-0.0729125887155532,0.0284915044903755,0.2424196898937225
1749033775.2229164,-0.13106280233211112,-2.0467139943581474,-0.49630398109423834,1.3723331674621213,-0.6479301631201735,0.8131930890276592,0.03498540991893232,0.024364943598557894,-0.02288034540080486,0.05765551570782226,-0.024487674786397018,0.07168089195647229,0.3042420744895935,1.3203375339508057,0.4233517348766327,-0.0702041834592819,0.0370412804186344,0.2329590618610382
1749033775.222952,-0.1309948166763783,-2.046667050259633,-0.4963527383474315,1.3724534001240654,-0.6479829368486042,0.8133411434154371,0.03580336578633802,0.024903964210555806,-0.023446012243518555,0.05885753676643977,-0.024988838791249728,0.0735275318003818,0.3019249737262726,1.3258229494094849,0.4359947741031647,-0.064364805817604,0.0373614504933357,0.2590055763721466
1749033775.222988,-0.13092635125932853,-2.046619273075047,-0.4964025202598684,1.3725752335327244,-0.6480362730195538,0.813491517952106,0.03661264754145057,0.02543872128928306,-0.023966124029333083,0.06005157511522093,-0.025416830890901396,0.07534381749339691,0.3189263045787811,1.2920886278152466,0.4407675862312317,-0.0867287144064903,0.0535497367382049,0.2366398274898529
1749033775.2236452,-0.13085744307229707,-2.0465707323564812,-0.49645309860634973,1.3726984327990868,-0.6480898681250712,0.8136440663776242,0.037420494557743586,0.02597253371892961,-0.02444197908585359,0.06124996781667915,-0.02578463483828278,0.07712426888686427,0.3076545894145965,1.3634454011917114,0.4133491516113281,-0.0668695420026779,0.0387539304792881,0.2175038903951645
1749033775.225641,-0.13078805600050186,-2.0465214823629307,-0.4965042519372186,1.3728228303594392,-0.6481434695670943,0.8137986931050545,0.03823422787800364,0.026509805551644665,-0.024876628773716606,0.062464046409219584,-0.026108274712151595,0.07886499382753369,0.3300482928752899,1.3421121835708618,0.437907338142395,-0.0594262480735778,0.0512679554522037,0.2219438254833221
1749033775.266286,-0.13071808207444788,-2.046471548725473,-0.49655578341736006,1.3729483523773605,-0.6481968916205288,0.8139553688987003,0.039060719453016535,0.027056039146836706,-0.02527461878496309,0.06370317214251382,-0.026405320623924228,0.08056409408211905,0.3438273072242737,1.3381305932998655,0.4296263754367828,-0.0697905197739601,0.0662435591220855,0.2511526346206665
1749033775.266332,-0.13064734789071403,-2.046420914698792,-0.4966075371106865,1.3730750410488808,-0.6482500277973952,0.81411414469733,0.03990585710151842,0.02761773626379392,-0.025641752448226102,0.06497386134236299,-0.026693536296322772,0.08222201415859487,0.3311611115932464,1.3527088165283203,0.4337579905986786,-0.0590471252799034,0.0328462868928909,0.2492107599973678
1749033775.266374,-0.1305756241934774,-2.046369509197723,-0.4966594110096888,1.373203069001922,-0.648302858878616,0.8142751619416839,0.04077407380743555,0.028202160777456846,-0.02598487561251591,0.06627909226626529,-0.026989756588474363,0.08384181230741611,0.3374315202236175,1.372731328010559,0.4253158271312713,-0.0631535351276397,0.0512464493513107,0.2238515615463256
1749033775.2664125,-0.1305026364828144,-2.0463171992938207,-0.4967113658175226,1.3733327422239898,-0.6483554563084759,0.8144386576275847,0.041668001451982864,0.028816973563470155,-0.026311667456519063,0.0676178662793414,-0.027309021395505624,0.08542931793198276,0.3784312605857849,1.425506591796875,0.4503836631774902,-0.0665535405278205,0.0488562434911727,0.212686151266098
1749033775.2664502,-0.13042807542948243,-2.0462637893219933,-0.4967634290301691,1.3734644886559713,-0.6484079809898535,0.8146049621974499,0.04258828523016179,0.029469785573966036,-0.026630412218777433,0.06898508033899502,-0.02766394284670249,0.0869931071617347,0.364367663860321,1.394922971725464,0.4342893660068512,-0.0495722368359565,0.0257395915687084,0.230050504207611
1749033775.2664883,-0.13035160727958317,-2.0462090275038647,-0.49681569404582904,1.373598831030828,-0.6484606776613148,0.8147744883947943,0.043533565861562824,0.030167683640821872,-0.02694972927687446,0.07037175876652907,-0.028064262226461682,0.08854422212899696,0.3833398818969726,1.4079383611679075,0.4392723441123962,-0.061721958220005,0.0277096219360828,0.2612740695476532
1749033775.266528,-0.13027288570263498,-2.046152619712752,-0.49686831408397086,1.3737363446951611,-0.6485138648644849,0.814947709697586,0.044500612731080955,0.03091676032036909,-0.027278255517835547,0.07176568188589162,-0.028516561332871945,0.09009560167838365,0.3719823956489563,1.403844118118286,0.4386364221572876,-0.0847251117229461,0.0467562265694141,0.2325582653284073
1749033775.2665668,-0.13019156699623305,-2.0460942490048075,-0.4969214910378765,1.3738776037346039,-0.6485679200365996,0.8151251283864336,0.04548457983803118,0.031721652055021164,-0.027624294039992406,0.07315243322262921,-0.029024112276001702,0.09166125876198386,0.3751496076583862,1.410044550895691,0.4374979436397552,-0.0439005307853221,0.0281569883227348,0.2606141865253448
1749033775.2666042,-0.13010732963287175,-2.0460335987242035,-0.4969754601840869,1.3740231214291443,-0.6486232589236164,0.8153072358680811,0.046479359666579075,0.032585089193273915,-0.027995451104158842,0.07451686858391955,-0.02958686160470501,0.09325529321702115,0.3751496076583862,1.410044550895691,0.4374979436397552,-0.0439005307853221,0.0281569883227348,0.2606141865253448
1749033775.2666416,-0.13001989703867864,-2.0459703763803514,-0.49703047257864774,1.3741732933587785,-0.6486803089091556,0.8154944708307723,0.047478020658818,0.033507487154899096,-0.02839827642874995,0.07584497693377051,-0.03020154649371259,0.09489085030354294,0.3700301647186279,1.4264464378356934,0.4428065419197082,-0.0378703400492668,0.0374758392572402,0.2388529479503631
1749033775.2666795,-0.12992906058982742,-2.045904335507136,-0.4970867772252546,1.3743283521138836,-0.6487394770431332,0.8156871822679431,0.04847331670106503,0.03448663373514813,-0.028837912822041577,0.0771260196744594,-0.030861940703224244,0.09657913005673405,0.3800148963928222,1.4282797574996948,0.4422516226768493,-0.054966315627098,0.0179188400506973,0.2498423159122467
1749033775.266717,-0.12983469954042642,-2.0458352936589215,-0.4971446042507269,1.3744883402263846,-0.6488011148750159,0.8158856025691931,0.04945823910357483,0.03551752784859355,-0.029317759896429565,0.07835469047090189,-0.03155922926114664,0.09832852713064452,0.3800185322761535,1.4006165266036987,0.4401892721652984,-0.077660247683525,0.0417070686817169,0.2447283416986465
1749033775.2667542,-0.12973679583369563,-2.0457631460450703,-0.49720414897559684,1.3746531032143015,-0.6488654831432518,0.8160898314305564,0.05042654815834988,0.036592398399755026,-0.029839164010364534,0.0795328952654661,-0.03228251042762686,0.10014394541088087,0.3767495155334472,1.4366950988769531,0.4360895752906799,-0.0788105428218841,0.0249411612749099,0.2582671046257019
1749033775.266791,-0.12963544279083794,-2.045687874902625,-0.49726555627160335,1.374822300536389,-0.6489327201938584,0.8162998278343502,0.051373198622559846,0.0377009001190083,-0.03040116226813234,0.08067072098140839,-0.033019422296407794,0.10202630801582702,0.3767495155334472,1.4366950988769531,0.4360895752906799,-0.0788105428218841,0.0249411612749099,0.2582671046257019
1749033775.2668295,-0.12953084627427108,-2.0456095540794883,-0.4973289056438108,1.3749954314165362,-0.6490028189624235,0.8165154077625221,0.05229458911967585,0.03883046821682665,-0.03100033033323055,0.08178629759731196,-0.03375689008391314,0.10397228858337526,0.4099730253219604,1.4234639406204224,0.4187399744987488,-0.0217845737934112,0.0287568271160125,0.2495828121900558
1749033775.266868,-0.12942331593154308,-2.0455283473551447,-0.49739419924584166,1.3751718741417425,-0.6490756177660495,0.8167362485784938,0.053188621969987755,0.03996681576881873,-0.03163079901646885,0.0829045045800046,-0.0344819789949194,0.10597431418131645,0.3386304378509521,1.384111404418945,0.4272785186767578,-0.0776851773262023,0.0465441793203353,0.2336366176605224
1749033775.2669065,-0.12931324446666834,-2.045444499042306,-0.49746135603249436,1.3753509383652676,-0.6491508088900346,0.8169619033122686,0.054054625531636834,0.041094559186507305,-0.03228449530617203,0.0840547098240659,-0.03518280692720725,0.10802090395638225,0.3386304378509521,1.384111404418945,0.4272785186767578,-0.0776851773262023,0.0465441793203353,0.2336366176605224
1749033775.2669487,-0.1292010751990782,-2.0453583165979707,-0.4975302147266692,1.375531928312443,-0.649227965898054,0.8171918272093638,0.054893223574891035,0.042197946949034615,-0.0329516274250113,0.08526787430372035,-0.035849432727576264,0.11009738848443756,0.414283812046051,1.4217222929000854,0.3945010602474212,-0.0291265696287155,0.0239662677049636,0.2348794043064117
1749033775.2669902,-0.1290872612751766,-2.045270146500846,-0.4976005465852131,1.37571421164593,-0.6493065869131891,0.8174254160589077,0.05570621937912739,0.043261651213035476,-0.033621388671580626,0.08657340060695644,-0.036474614954875195,0.11218700235503178,0.4059112071990967,1.3966379165649414,0.4145618081092834,-0.0159016866236925,0.0481880754232406,0.256946712732315
1749033775.2670276,-0.12897222229124905,-2.045180345832659,-0.49767207686405784,1.375897286154221,-0.6493861481095283,0.8176620532195905,0.05649651347474625,0.044271571126920435,-0.03428281944915144,0.08799607958193778,-0.037054344079587694,0.11427227178401217,0.3585869669914245,1.3959439992904663,0.4070546627044678,-0.0468670055270195,0.0400658696889877,0.2505473494529724
1749033775.2676322,-0.1288563049620754,-2.0450892526783155,-0.4977445121077356,1.3760808356046816,-0.6494661599305646,0.8179011608432099,0.057268024415432814,0.04521559392058034,-0.0349257443744653,0.08955342701075537,-0.03758807863948255,0.11633654843272281,0.4251166582107544,1.4045226573944092,0.4197825789451599,-0.0402997657656669,0.0394562929868698,0.2424545586109161
1749033775.2696104,-0.1287397536148875,-2.0449971585859985,-0.4978175694767396,1.376264767364618,-0.6495462182853735,0.8181422504133822,0.058025560048137505,0.04608426444214951,-0.03554168951124259,0.09125362798384448,-0.03807865531601296,0.11836548607809037,0.4226314425468445,1.3934310674667358,0.4200750291347503,-0.026741124689579,0.0490966439247131,0.2261652499437332
1749033775.3102784,-0.1286226940621029,-2.044904285980313,-0.49789100444162815,1.376449227296417,-0.6496260441990911,0.8183849679481227,0.05877460380062201,0.046871323346095284,-0.036124685040554536,0.09309424486382731,-0.03853189366742246,0.12034823737344795,0.3850544393062591,1.404068112373352,0.39883553981781,-0.0184466615319252,0.0299503952264785,0.2583895623683929
1749033775.310324,-0.1285051316191882,-2.04481077291729,-0.4979646339721292,1.3766345908595539,-0.6497055078038255,0.8186291296085748,0.05952102012989002,0.04757408465396815,-0.036671869648658394,0.09506180541706097,-0.03895596961252065,0.122278187259152,0.4227578043937683,1.391912817955017,0.4023389518260956,0.0043854564428329,0.0271317809820175,0.235626608133316
1749033775.3103647,-0.12838696142531417,-2.0447166669719667,-0.49803835336992924,1.376821432209847,-0.6497846353526835,0.8188747438403703,0.060270715687143483,0.04819363342134346,-0.03718382898375055,0.09713236049325258,-0.03936066706938727,0.1241531397389035,0.4059672951698303,1.413604974746704,0.4318292438983917,-0.0002658367156982,0.009694293141365,0.2616010010242462
1749033775.3104036,-0.1282679873720239,-2.044621929018598,-0.49811214584984426,1.3770104749086514,-0.6498636002115674,0.8191220167096629,0.061029301495301065,0.04873483474753263,-0.03766462270011983,0.09927305686999596,-0.03975661596605779,0.12597499614039692,0.4122428297996521,1.4219402074813845,0.3944248557090759,0.0197471901774406,0.028074100613594,0.2549774050712585
1749033775.3104424,-0.12814794545624578,-2.0445264461722825,-0.498186084661553,1.3772025287430874,-0.6499427001480584,0.8193713379637694,0.061801790264252775,0.04920615520834246,-0.038121489952918926,0.10144467459406246,-0.04015458465555257,0.12774905374715087,0.4274936020374298,1.415798902511597,0.39418625831604,-0.012151226401329,0.0219208151102066,0.2382301688194275
1749033775.3104804,-0.12802652843698473,-2.044430051833823,-0.49826032785102453,1.3773984175665805,-0.6500223239668818,0.8196232467536273,0.06259234332693178,0.04961930443568333,-0.03856426766683219,0.10360492565631876,-0.040564834890573755,0.12948309076784772,0.4602461755275726,1.3994697332382202,0.4053802192211151,-0.0197103191167116,0.0590477883815765,0.2486714571714401
1749033775.3105175,-0.12790341053447898,-2.044332550191603,-0.49833510589812835,1.3775989036483087,-0.6501029110460075,0.8198783782754191,0.06340406044523215,0.049988708075321464,-0.03900458939801853,0.10571216025572432,-0.04099650174093385,0.13118639532179846,0.4035786390304565,1.4162214994430542,0.3950071334838867,-0.019839908927679,0.0360957980155944,0.2517717182636261
1749033775.310557,-0.12777827229638772,-2.0442337425075747,-0.49841070290102746,1.377804615169951,-0.6501849077624595,0.8201373959634359,0.06423878749679626,0.05033082619762401,-0.03945494096543765,0.10772905288627158,-0.041456957820809485,0.1328688625384796,0.4035786390304565,1.4162214994430542,0.3950071334838867,-0.019839908927679,0.0360957980155944,0.2517717182636261
1749033775.3105943,-0.12765082584031417,-2.0441334524820047,-0.4984874329045128,1.3780159847284674,-0.6502687250810275,0.820400917520982,0.06509691460107332,0.050663335781582566,-0.039927642006302944,0.1096258579870423,-0.0419511698762923,0.13454024096995224,0.4472998380661011,1.400141358375549,0.4124147295951843,-0.0448969602584838,0.0340243726968765,0.2099334001541137
1749033775.3106318,-0.12752083959146257,-2.044031547896535,-0.49856561396766624,1.378233206682628,-0.6503547014759068,0.8206694453520791,0.06597716454160532,0.05100420247710253,-0.04043382107270355,0.11138288872067174,-0.04248114038931623,0.13620956387056418,0.4375403523445129,1.4269353151321411,0.3869902789592743,-0.0526421815156936,0.0013356618583202,0.2206624448299408
1749033775.3106687,-0.12738816016735924,-2.0439279560104078,-0.4986455430394064,1.3784562191688283,-0.6504430747320671,0.8209433117278945,0.06687642103827851,0.05137067366944136,-0.04098246267356794,0.11299194982107516,-0.04304560285156904,0.13788475952420506,0.4375403523445129,1.4269353151321411,0.3869902789592743,-0.0526421815156936,0.0013356618583202,0.2206624448299408
1749033775.3107054,-0.12725272796796602,-2.043822670853589,-0.4987274745356527,1.3786847134711269,-0.6505339652710366,0.8212226469511301,0.06778968842330686,0.051778230525920975,-0.041579612463490095,0.11445656212319288,-0.043640147140030255,0.13957240783572097,0.4572233557701111,1.43522846698761,0.3933924436569214,-0.0394012033939361,0.0208065100014209,0.2418053299188614
1749033775.3107424,-0.12711458273623452,-2.0437157512070825,-0.4988116048965076,1.3789181704188123,-0.6506273727003928,0.8215073760448534,0.06871028101645606,0.052239543212904666,-0.04222781044361518,0.11579097047280643,-0.04425786089375199,0.14127759479289861,0.4572233557701111,1.43522846698761,0.3933924436569214,-0.0394012033939361,0.0208065100014209,0.2418053299188614
1749033775.3107789,-0.1269738562707325,-2.0436073087671685,-0.4988980644081949,1.3791559205778214,-0.6507231860569321,0.8217972458701686,0.06963030481284106,0.052763487779694376,-0.0429257831352161,0.11701810174106314,-0.04489041689169005,0.1430038034269166,0.447970449924469,1.4694573879241943,0.3725877404212951,-0.076807215809822,0.0140240043401718,0.261461853981018
1749033775.310815,-0.12683075185551673,-2.0434974873612815,-0.4989869162558475,1.379397221607248,-0.6508212063674554,0.8220918793708175,0.07054142586532265,0.05335431060310621,-0.043668394032449466,0.11816678420974801,-0.045529387991709136,0.14475278300030478,0.4713815450668335,1.4568886756896973,0.3739872872829437,-0.0366285964846611,0.0247454792261123,0.264503538608551
1749033775.3108518,-0.12668551324077823,-2.04338643619371,-0.4990781614467294,1.3796413427640524,-0.6509211778988466,0.8223908476886209,0.07143583831257617,0.05401105435760947,-0.044446849382221196,0.11926861930088935,-0.046167490366277146,0.14652437522283282,0.4346418380737304,1.45523202419281,0.3686462342739105,-0.0227181613445281,0.0316621139645576,0.2555387616157532
1749033775.3108883,-0.12653838869311534,-2.043274282028551,-0.49917174732243547,1.3798876446739583,-0.6510228226578516,0.8226937464765197,0.07230727552900758,0.05472736028119877,-0.04524916859339184,0.12035490268162582,-0.04679946685111305,0.14831633108173164,0.4199749827384949,1.471521258354187,0.3617488443851471,-0.0224016606807708,0.0221038460731506,0.2475422173738479
1749033775.3109248,-0.12638959650418785,-2.043161105817152,-0.499267577132107,1.3801356432564629,-0.6511258722903077,0.8230002618513954,0.07315187429152295,0.05549172372204553,-0.04606092534238063,0.12145393081390454,-0.04742242218837008,0.1501241905672726,0.4303000569343567,1.471355676651001,0.3626659214496612,-0.037855714559555,0.0238974392414093,0.2795459032058716
1749033775.3109612,-0.12623929750159482,-2.043046928261309,-0.4993655185648403,1.3803850497774666,-0.6512300926466018,0.823310214284732,0.07396871709853456,0.05628822367328163,-0.046866237474519595,0.12258892043196344,-0.04803558279073541,0.15194130827541635,0.4197710454463959,1.467842936515808,0.3699933886528015,-0.0270761847496032,0.0255534574389457,0.2582312822341919
1749033775.310997,-0.12608757855805974,-2.0429317068846555,-0.4994654099494518,1.3806357830754652,-0.6513352980218438,0.8236235738006409,0.0747599386545005,0.057097695722150385,-0.04764894401211886,0.12377664315532817,-0.048639618145275614,0.15375909802835033,0.4494434893131256,1.473833441734314,0.37131267786026,-0.0581508837640285,0.009471021592617,0.2743456959724426
1749033775.3116558,-0.1259344494777741,-2.042815345143609,-0.49956706370284987,1.380887953952798,-0.6514413536825627,0.8239404452834582,0.07553037036285998,0.05789927506985376,-0.04839387150683632,0.12502676931200546,-0.0492357633731028,0.1555675424637019,0.4240424633026123,1.438169002532959,0.3826452791690826,-0.0224802512675523,0.0162466466426849,0.2780954241752624
1749033775.3136604,-0.12577985388142635,-2.042697712133981,-0.49967026745791226,1.3811418251042848,-0.6515481669416033,0.8242610273949613,0.07628678431652253,0.05867219775005408,-0.04908806805354525,0.12634184532925374,-0.04982499019805902,0.15735596410559083,0.4534392952919006,1.4461462497711182,0.3897541761398315,-0.0379208847880363,0.0203063338994979,0.2235400974750518
1749033775.354525,-0.12562369262029116,-2.0425786695286,-0.4997747841558199,1.3813977527167656,-0.65165566911656,0.8245855523706376,0.07703686415742428,0.05939771834951625,-0.0497218757567118,0.12771779411174505,-0.050407407762798784,0.15911398628249068,0.4512125849723816,1.4732414484024048,0.3969342112541199,-0.0603783726692199,0.0034268125891685,0.2660357654094696
1749033775.354604,-0.12546585587424156,-2.0424581008427083,-0.49988035311301127,1.3816561181615998,-0.6517637928603195,0.8249142171044318,0.07778806734685673,0.06006098752934783,-0.05028972507229499,0.1291448107451807,-0.05098198721712841,0.16083255262073498,0.4512125849723816,1.4732414484024048,0.3969342112541199,-0.0603783726692199,0.0034268125891685,0.2660357654094696
1749033775.354679,-0.12530625792173283,-2.042335937529911,-0.4999866943307948,1.3819172599369252,-0.6518724507146905,0.8252471181917792,0.0785465525481272,0.060652725689680755,-0.0507905677851072,0.13060852532292458,-0.05154663501142669,0.16250485663199277,0.4644062221050262,1.398943305015564,0.4003373086452484,-0.0291240662336349,0.0171270072460174,0.2430571913719177
1749033775.3547523,-0.1251448676807767,-2.0422121772044473,-0.5000935176980316,1.382181416229281,-0.6519815205901309,0.8255842034287859,0.07931632470350979,0.06117051966637016,-0.05122791192834455,0.13209133303709045,-0.052098596013918766,0.16412705909109074,0.4213473200798034,1.4619442224502563,0.3860659301280975,-0.0406590476632118,0.0229719877243042,0.2681354582309723
1749033775.354823,-0.12498172939273186,-2.042086891375072,-0.5002005371315322,1.3824486860500185,-0.6520908421021994,0.8259252482943067,0.08009869994453511,0.06161956770621831,-0.05160946897526741,0.13357383808564846,-0.05263513468694961,0.16569871129190014,0.4144092500209808,1.439661979675293,0.4068648517131805,-0.0263793915510177,0.0297878328710794,0.2704884707927704
1749033775.3548944,-0.12481697072994666,-2.0419602225014533,-0.5003074877865011,1.3827190124953284,-0.6522002250079549,0.8262698594958163,0.0808921307258435,0.062012729591446936,-0.05194646218158739,0.13503638411200888,-0.0531544102182996,0.16722284281225547,0.4604052305221557,1.4553663730621338,0.3974548280239105,-0.0503707975149154,0.0339686684310436,0.2692965865135193
1749033775.3549426,-0.12465079850732314,-2.0418323717707767,-0.5004141434470323,1.3829921874854856,-0.6523094684948888,0.8266175021322156,0.08169238485893156,0.06236980822685526,-0.05225267359046697,0.13646062792909988,-0.053656429978643935,0.16870572045359708,0.4255319237709045,1.4328869581222534,0.3956122100353241,-0.0468546152114868,0.0346553958952426,0.2669103741645813
1749033775.3549812,-0.12448348394399163,-2.041703579538477,-0.5005203316405149,1.38326787479821,-0.6524183883064149,0.8269675444489571,0.08249304879178591,0.06271607286417478,-0.05254332744613938,0.13783107197848943,-0.054143936448423205,0.17015633477869008,0.4153858721256256,1.4651490449905396,0.3861747980117798,-0.057344377040863,0.0474200025200843,0.2534249722957611
1749033775.3550189,-0.12431534007396242,-2.0415741004907,-0.5006259453204703,1.3835456471750776,-0.6525268474057805,0.8273193139356416,0.08328631163073014,0.06308011301439063,-0.052833919085988154,0.139136436452899,-0.05462305834250604,0.1715856993924653,0.4559036791324615,1.4596130847930908,0.3807203769683838,-0.0587482005357742,0.0558860562741756,0.2502389550209045
1749033775.3550563,-0.12414669387316508,-2.041444175614336,-0.5007309510764016,1.383825033224429,-0.6526347850643105,0.8276721592426144,0.08406396702726847,0.06349118479707296,-0.053139098056180924,0.14037074798433874,-0.05510354989602023,0.17300604429227134,0.4042296111583709,1.4880677461624146,0.3903933465480804,-0.0319578722119331,0.0323098227381706,0.2611038088798523
1749033775.355096,-0.1239778553317727,-2.0413140030385457,-0.5008353941566495,1.384105570385979,-0.652742239497293,0.828025513294456,0.08481854082819204,0.06397627795832408,-0.05347170069046453,0.14153405039686046,-0.05559847140811537,0.17442996212106607,0.4525225758552551,1.4965674877166748,0.3865680694580078,-0.0395126193761825,0.0434585809707641,0.2563340961933136
1749033775.3551328,-0.12380908542994473,-2.041183709960975,-0.5009394003125095,1.3843868607279608,-0.6528493606986714,0.8283789537554199,0.08554441661140215,0.0645571844490997,-0.053842003150864286,0.1426326775974602,-0.056123236180195726,0.1758695508991028,0.3960669934749603,1.4982572793960571,0.4020605087280273,-0.059359073638916,0.0347693040966987,0.260773241519928
1749033775.355188,-0.12364056501237411,-2.041053328318911,-0.5010431741702736,1.3846686261817898,-0.6529564122067617,0.8287322574607421,0.08623880130646679,0.06524787973968381,-0.054257236828345275,0.14367904167649326,-0.056694055504296015,0.1773356021589166,0.4203277230262756,1.5127135515213013,0.3866109549999237,-0.0425838753581047,0.0250557586550712,0.2646107077598572
1749033775.3552277,-0.12347236686754838,-2.040922777244695,-0.5011469938371468,1.3849507589573697,-0.6530637622293187,0.8290854454172798,0.08690237081331538,0.06605252762906685,-0.05472138175611104,0.14469089197834348,-0.05732593841198105,0.17883690124410972,0.4218120574951172,1.514970302581787,0.3608045876026153,-0.0525668561458587,0.0005610026419162,0.2801581621170044
1749033775.3552644,-0.12330443379368226,-2.0407918551717503,-0.5012512016162313,1.385233361827198,-0.6531718655561395,0.8294388144012204,0.08753947453708762,0.06696437884841876,-0.055235234749495994,0.1456900282635608,-0.058030522990689046,0.1803797195148931,0.4310352206230163,1.505176305770874,0.3712310194969177,-0.0415351390838623,-0.01179825887084,0.3054296374320984
1749033775.3553095,-0.12313656601716609,-2.0406602436699184,-0.5013561907742821,1.3855167722540045,-0.6532812381396665,0.8297929501207083,0.08815784652666327,0.06796574981977102,-0.055796729362181836,0.14670051646705765,-0.05881409476061592,0.18196757175291436,0.4306920170783996,1.4867329597473145,0.4007952511310577,-0.0459204912185668,-0.0521233901381492,0.2888296842575073
1749033775.3553495,-0.12296842171478813,-2.040527524028305,-0.5014623881519052,1.3858015643635948,-0.6533924263167966,0.8301487158882579,0.08876784726970541,0.06902914989917308,-0.05640145159051556,0.1477465431401351,-0.05967614786791685,0.18360128083014415,0.4111005365848541,1.486091375350952,0.3911740183830261,-0.0309258438646793,-0.0221482012420892,0.2953185141086578
1749033775.3553889,-0.12279953392474646,-2.04039320661046,-0.5015702321707506,1.386088523827193,-0.6535059724898737,0.8305072107477963,0.08938133528302826,0.07011949291671846,-0.057043257640269365,0.14885012740502065,-0.060608756119873236,0.18527934479502428,0.4580947756767273,1.4950432777404783,0.371047705411911,-0.0111788399517536,-0.0347206257283687,0.3011451959609985
1749033775.3554258,-0.12262934537842829,-2.0402567721094296,-0.5016801458847596,1.386378592951767,-0.6536223787176724,0.8308696930159478,0.09001033672081446,0.07119720278652479,-0.0577148876080207,0.1500289584486617,-0.06159686830039315,0.18699855512208938,0.423847496509552,1.4659192562103271,0.3761053085327148,-0.0210518240928649,-0.0310549698770046,0.29404217004776
1749033775.3554623,-0.12245725993147055,-2.0401177227538003,-0.501792505532806,1.3866727866893271,-0.6537420692364898,0.8312374696953129,0.09066572423527766,0.07222191716255819,-0.05840849144165899,0.15129462181516556,-0.0626194700303257,0.1887547762843314,0.4222391843795776,1.4526772499084473,0.3715639114379883,-0.0082937031984329,-0.0108930617570877,0.2888058423995971
1749033775.355696,-0.12228270579176921,-2.0399756398891618,-0.5019076065696809,1.3869720849047737,-0.653865352957432,0.8316117590171718,0.09135611079322838,0.07315641171398986,-0.059116018577637784,0.15265142022854372,-0.0636514080817603,0.190543766091863,0.4282580614089966,1.415558695793152,0.3930035829544067,-0.0170849859714508,-0.0013532191514968,0.262816309928894
1749033775.3577251,-0.12210520216569634,-2.0398302420168215,-0.5020256309919306,1.3872773120558672,-0.6539923881378166,0.8319935416613611,0.09208711168508385,0.07397031522250723,-0.05982945282841266,0.15409590717861382,-0.06466558931364237,0.19236190438172096,0.4282580614089966,1.415558695793152,0.3930035829544067,-0.0170849859714508,-0.0013532191514968,0.262816309928894
1749033775.402326,-0.12192441822671739,-2.039681434818962,-0.5021466213453806,1.3875890215005853,-0.6541231536800854,0.8323834239798852,0.09286105324798428,0.07464318111178456,-0.06054090688750761,0.15561716120655866,-0.06563525980933156,0.19420672177030412,0.4171698689460754,1.4345684051513672,0.3650192320346832,-0.0325638651847839,-0.0006568431854248,0.2986196279525757
1749033775.402372,-0.12174021294892014,-2.039529343392272,-0.5022704672624247,1.3879074052422429,-0.6542574334686907,0.8327815400333886,0.09367713191581008,0.07516654557206491,-0.061242632447894435,0.1571977508917841,-0.06653612047421226,0.196077171200465,0.4154187440872192,1.3900738954544067,0.4013429582118988,-0.001093067228794,0.0111760795116424,0.2667871117591858
1749033775.4024122,-0.12155264744690475,-2.0393743184303057,-0.5023969089464806,1.3882322478982787,-0.6543948198348578,0.8331875147531569,0.09453195704604969,0.07554472857835091,-0.061927036439070354,0.15881528088651406,-0.06734810333129643,0.19797362726700327,0.4154187440872192,1.3900738954544067,0.4013429582118988,-0.001093067228794,0.0111760795116424,0.2667871117591858
1749033775.4024513,-0.12136196733885973,-2.0392169125469666,-0.5025255588536133,1.388562935660207,-0.6545347391368849,0.8336004984348009,0.09542034593597012,0.07579428929986086,-0.06258679659471592,0.16044437371284773,-0.06805669413984723,0.19989761430618336,0.4125071167945862,1.4079614877700806,0.3869247138500213,-0.0038250088691711,0.0242597609758377,0.2811557948589325
1749033775.402489,-0.12116855890663901,-2.039057828702512,-0.5026559391393861,1.3888985200743331,-0.6546764981211656,0.8340192679399894,0.0963361923235857,0.07594221198305284,-0.06321513193481224,0.16205892742739889,-0.0686537476335317,0.20185127254637833,0.4610276222229004,1.431511402130127,0.4167452156543731,-0.013994351029396,0.0080957412719726,0.2879374027252197
1749033775.4025347,-0.12097288729487758,-2.0388978479022306,-0.5027875295232335,1.3892378262976106,-0.6548193460388397,0.8344423775873171,0.09727322374265368,0.07602306140767177,-0.06380622538047225,0.16363447707337134,-0.06913780989672673,0.20383659779343802,0.4677357673645019,1.4261434078216553,0.3728938996791839,-0.0069308206439018,0.0289109274744987,0.3057435750961303
1749033775.4025729,-0.12077542702164099,-2.0387377467741032,-0.5029198187899511,1.3895795884738762,-0.654962545159807,0.8348683354011271,0.0982255118672899,0.07607547224807638,-0.06435574940733736,0.1651504662155012,-0.069514019959803,0.20585454449818574,0.4741921722888946,1.4405049085617063,0.3916681408882141,-0.0086852796375751,0.0187138319015502,0.3152801990509033
1749033775.4026098,-0.12057659508975563,-2.0385782165862367,-0.5030523534271493,1.3899225922623115,-0.6551054412792415,0.8352957788447899,0.09918768715719649,0.07613838502281285,-0.06486142326721545,0.16659221846903643,-0.06979367670280393,0.20790415193320286,0.4900310337543487,1.4284685850143433,0.397037923336029,0.0015558153390884,0.0093578211963176,0.3134593665599823
1749033775.4026463,-0.12037669573554839,-2.03841979374912,-0.5031847784617574,1.390265806052986,-0.6552475258476728,0.8357236274691512,0.10015489399899154,0.07624742018768689,-0.06532351544522676,0.16795241037722214,-0.06999352086949275,0.20998189672946233,0.4638536274433136,1.470226168632507,0.3939392268657684,-0.008105918765068,0.0328811183571815,0.3296117186546325
1749033775.4026823,-0.12017588387642844,-2.0382628089245083,-0.5033168673630363,1.3906084862632788,-0.6553884823615067,0.8361511958536446,0.10112257141126473,0.07643173089624362,-0.06574518767600991,0.16923189005449277,-0.07013473495628836,0.212081446187278,0.4249926507472992,1.4361414909362793,0.398375004529953,-0.0093153864145278,0.0557505115866661,0.3324759602546692
1749033775.4027195,-0.1199741516834308,-2.0381073589451995,-0.5034485390798318,1.3909502465464434,-0.6555282116086588,0.8365782567583487,0.10208615569645374,0.07671161617120058,-0.06613257287382046,0.17043974900034287,-0.07024166282489909,0.2141938824989569,0.4866080582141876,1.4685771465301514,0.4128195345401764,0.0150975845754146,0.0047641098499298,0.336699903011322
1749033775.4027562,-0.11977133943675088,-2.03795330348564,-0.5035798608840361,1.3912910850299378,-0.6556668331290332,0.8370050504152033,0.10304079869843345,0.07709710775875754,-0.06649450576300213,0.17159262514341542,-0.07034031489908231,0.21630833715588915,0.452157586812973,1.4665472507476809,0.4210637211799621,-0.018154390156269,-0.0016346201300621,0.3015113472938537
1749033775.402796,-0.1195671684453758,-2.0378002864772684,-0.5037110363080662,1.3916313678896017,-0.6558046633545057,0.8374322409575623,0.10398119488255915,0.07758766066453007,-0.06684187989312255,0.17271328162840824,-0.07045680546609322,0.2184128783644475,0.4551742076873779,1.495780110359192,0.4018392562866211,0.0009278580546379,0.0065963864326477,0.3104390501976013
1749033775.402835,-0.11936129099584503,-2.037647780064824,-0.5038423786430324,1.3919717718657818,-0.6559421737201397,0.8378608253526026,0.10490160218851101,0.07817297409946547,-0.06718667697674807,0.17382855985509088,-0.07061588906576877,0.22049546290875477,0.4697408080101013,1.4613884687423706,0.3751124143600464,0.0027408897876739,0.0059417784214019,0.3197306990623474
1749033775.4028711,-0.11915335019881101,-2.0374951463382374,-0.5039742723204301,1.3923131928387713,-0.6560799341742208,0.838292004555296,0.105796108241488,0.07883484387886686,-0.06754079036520888,0.17496685421446792,-0.07083969772480778,0.222544789875733,0.4578676223754883,1.450994610786438,0.3782505691051483,-0.0252620354294776,0.0205466300249099,0.3109018206596374
1749033775.402907,-0.11894304098454349,-2.0373417095410966,-0.5041071266946983,1.392656632220393,-0.6562185489036492,0.8387270314530042,0.10665913704748782,0.07954981582079414,-0.06791482081117788,0.17615531563581605,-0.07114668501523126,0.22455095304927333,0.4578676223754883,1.450994610786438,0.3782505691051483,-0.0252620354294776,0.0205466300249099,0.3109018206596374
1749033775.402943,-0.11873016259654193,-2.037186829657754,-0.5042413285585822,1.393003076891963,-0.6563585918362661,0.8391670548449377,0.10748612954758446,0.08029230354477798,-0.06831703518495218,0.17741706169967675,-0.07155073197308771,0.22650585997465364,0.4104317426681518,1.434374213218689,0.3847825527191162,-0.0002200305461883,0.0007666647434234,0.3159077167510986
1749033775.402979,-0.11851465385741784,-2.0370299680274737,-0.5043772002439587,1.3933533898372144,-0.6565005494869747,0.8396129808868456,0.10827428020362809,0.08103777386523471,-0.06875264403686178,0.17876872808217534,-0.07206038738160303,0.22840344963610948,0.4211642742156982,1.4283137321472168,0.3794958591461181,0.0178860276937484,0.0037992745637893,0.3257364928722381
1749033775.403015,-0.11829660590515198,-2.036870737200092,-0.5045149689285687,1.3937082260614664,-0.656644777699878,0.8400653710226526,0.1090231806276101,0.08176559404185764,-0.06922349064699988,0.18021869855880945,-0.07267826800484144,0.23023978059634337,0.4211642742156982,1.4283137321472168,0.3794958591461181,0.0178860276937484,0.0037992745637893,0.3257364928722381
1749033775.4030533,-0.11807625173628085,-2.03670892995416,-0.5046547503508971,1.3940679828906961,-0.6567914767293747,0.8405243890023736,0.10973521742672653,0.0824611807870219,-0.06972817294091353,0.1817662630847652,-0.07340068819182344,0.23201306856671203,0.4501460194587707,1.4103468656539917,0.3835264146327972,0.0154067948460578,0.0032202005386352,0.3196470737457275
1749033775.403091,-0.11785393571518189,-2.036544525490768,-0.504796547488192,1.394432787476258,-0.6569406860843446,0.840989801251951,0.11041559799707489,0.08311719008869144,-0.07026255050474245,0.18340177888133397,-0.07421759916322272,0.2337237259503803,0.4170970022678375,1.4347275495529177,0.3879731297492981,0.0464333072304725,-0.0234920978546142,0.2846964001655578
1749033775.403127,-0.11763006871877052,-2.0363776741388184,-0.5049402623249277,1.3948025183019364,-0.6570922971090873,0.8414610260170804,0.11107193261678101,0.08373362461412164,-0.07082052901876085,0.18510770480596714,-0.07511289583789,0.2353744057373794,0.4233691692352295,1.421342134475708,0.36188805103302,0.0204198807477951,0.014820821583271,0.3145315945148468
1749033775.403756,-0.11740507617390954,-2.0362086648947533,-0.5050857170453849,1.3951768527292394,-0.6572460786298758,0.8419372195295853,0.11171338248332684,0.08431689037486421,-0.07139497595370015,0.18686022400670527,-0.07606510655013425,0.2369700086552694,0.4686565399169922,1.4506511688232422,0.397053062915802,0.0280655920505523,0.0001539848744869,0.2889219522476196
1749033775.405639,-0.11717934639198394,-2.0360378814354383,-0.5052326806530775,1.3955553311847104,-0.6574017105805069,0.8424173853084224,0.11234948572854128,0.08487798842190877,-0.07197861536167859,0.18863111876112237,-0.07704844033239414,0.2385176092125247,0.4686565399169922,1.4506511688232422,0.397053062915802,0.0280655920505523,0.0001539848744869,0.2889219522476196
1749033775.4463058,-0.11695318479382381,-2.03586575153935,-0.5053808982508798,1.3959374306059826,-0.6575588221210993,0.8429004956631118,0.112988869222662,0.08543016026341098,-0.07256477505453096,0.19038962122333314,-0.07803414877690325,0.24002628589353625,0.4272031188011169,1.4968900680541992,0.3707251250743866,-0.0004115775227546,-0.0241409540176391,0.3235321342945099
1749033775.446351,-0.11672677707413451,-2.0356926937570194,-0.5055301215922973,1.3963226417011758,-0.6577170322793339,0.8433856173607931,0.1136380999505204,0.08598639087343793,-0.07314790463237764,0.1921040948029598,-0.0789921645809387,0.24150685515905224,0.4328222870826721,1.447337627410889,0.399060845375061,0.0240217503160238,-0.0029492303729057,0.3309982419013977
1749033775.446393,-0.1165001630954779,-2.035519065503186,-0.5056801394874222,1.3967105431494142,-0.6578759908436907,0.843872031539794,0.11430090197572441,0.0865571870131542,-0.07372383482660003,0.19374353775604877,-0.07989297679849895,0.24297147707857017,0.4720921814441681,1.5046111345291138,0.3555306196212768,0.0471519455313682,-0.0109764337539672,0.3174921870231628
1749033775.4464324,-0.11627322377772521,-2.0353451182977773,-0.5058308053129452,1.3971008623451346,-0.6580354156248588,0.8443593328306498,0.11497787454588489,0.08714898222111914,-0.0742897982891642,0.1952789888194823,-0.0807096628366668,0.24443304749654785,0.4548290967941284,1.4840739965438845,0.357447475194931,0.0474814772605896,-0.0133869647979736,0.3169751167297363
1749033775.4464698,-0.11604568408073553,-2.0351709668119313,-0.5059820576418121,1.3974935109093654,-0.658195121090557,0.8448474899133604,0.11566672389437808,0.08776338640643452,-0.07484427043182168,0.19668493323756722,-0.08141992931498107,0.245904277717458,0.399162083864212,1.4705810546875,0.3799909055233001,0.0132761374115943,0.0082317888736724,0.281965047121048
1749033775.4465091,-0.11581713499089531,-2.0349965773495096,-0.5061339298479882,1.3978885860510517,-0.6583550337617583,0.8453368526611401,0.11636290330949188,0.0883973321365983,-0.075386705018558,0.19794076387564027,-0.08200796866236656,0.24739643442430742,0.4348920881748199,1.4884185791015625,0.3644894063472748,0.0587811805307865,-0.0164919346570968,0.2846449613571167
1749033775.4465468,-0.11558707585085644,-2.034821778568326,-0.5062865454507604,1.3982863344875334,-0.6585151913647966,0.8458280985995308,0.11706048328747598,0.08904401220098813,-0.07591722804915844,0.19903227266030232,-0.0824659535290137,0.24891786653768622,0.4819444417953491,1.4563422203063965,0.3574599027633667,0.0104033574461936,0.0038909763097763,0.3384331464767456
1749033775.4465835,-0.11535497550897454,-2.0346462935505962,-0.5064400977890592,1.398687081982126,-0.658675725127392,0.8463221214567844,0.11775306698181284,0.08969438163779705,-0.0764363260047828,0.19995306771111163,-0.08279504643980685,0.25047262063483133,0.4287962317466736,1.474031925201416,0.4088487029075622,0.0437231361865997,0.0159603580832481,0.3397402167320251
1749033775.4466207,-0.11512034674035308,-2.0344697886545755,-0.5065948153621195,1.3990911380793871,-0.6588368276145146,0.8468198757286465,0.1184346106446835,0.0903389261410727,-0.07694454195996706,0.20070576039730145,-0.08300584557956936,0.2520595484153194,0.4148883819580078,1.4358811378479004,0.3730581998825073,0.0260231718420982,0.0143242552876472,0.3362008929252624
1749033775.4466574,-0.11488282363622325,-2.034291931320672,-0.5067509175751143,1.3994986924790194,-0.6589987118171619,0.8473222022772728,0.11910007257354677,0.09096938583614407,-0.07744219259747767,0.20130275573056236,-0.08311820013155995,0.25367226705207135,0.4148883819580078,1.4358811378479004,0.3730581998825073,0.0260231718420982,0.0143242552876472,0.3362008929252624
1749033775.4466949,-0.11464222737804279,-2.034112446241875,-0.5069085690151183,1.399909725857292,-0.6591615701618839,0.8478296689406437,0.11974587448319139,0.09158016538926188,-0.07792913914553876,0.20176650126366755,-0.08316033753277405,0.25530014853882094,0.4313453733921051,1.4694124460220337,0.3760133981704712,0.0105738472193479,0.023728959262371,0.3319062292575836
1749033775.446736,-0.11439860434183331,-2.0339311578265606,-0.5070678425837543,1.4003239606842859,-0.6593255434857302,0.8483424630595471,0.1203702025762979,0.09216923683895695,-0.07840465922090163,0.2021290852371297,-0.08316727793790266,0.25693025664199093,0.4640102684497833,1.4548670053482056,0.4243679642677307,0.0120273306965827,0.0058661866933107,0.2850151658058166
1749033775.4467742,-0.11415222439908294,-2.033748008585178,-0.5072287011255513,1.4007408721398378,-0.6594907082825018,0.8488603650374863,0.12097319021966606,0.09273842459225923,-0.07886744946768733,0.20243110926041694,-0.08317856645970162,0.2585499026057177,0.4377866387367248,1.4745851755142212,0.4029555022716522,0.0152872502803802,0.0077077262103557,0.2904422581195831
1749033775.4468117,-0.1139035368052403,-2.0335630491102954,-0.5073910026155759,1.401159764061754,-0.6596570852664377,0.8493828124967348,0.12155700690467916,0.09329304430643083,-0.07931575275684584,0.202719794521378,-0.08323541837044228,0.26014932026564214,0.4260688722133636,1.4941458702087402,0.4004213809967041,-0.0055294968187808,0.0066294372081756,0.3197852969169616
1749033775.4468508,-0.11365309247730312,-2.033376403774922,-0.5075545270156558,1.4015798952688818,-0.6598246655079161,0.849909039826611,0.12212584474627672,0.09384095944184029,-0.07974758341741767,0.20304633077210546,-0.08337744234190698,0.2617239102009721,0.4356375932693481,1.480000138282776,0.3838198781013489,0.0258784964680671,0.0006514117121696,0.3294215798377991
1749033775.4468875,-0.11340144950674942,-2.033188222920087,-0.5077190170541374,1.402000626869195,-0.6599934452828593,0.8504382587983218,0.12268577204297273,0.09439122309191045,-0.08016103077436115,0.20346256669757423,-0.08363918033596225,0.2632755662533879,0.3350008428096771,1.448033094406128,0.3979391753673553,-0.008412942290306,0.0120978914201259,0.2569369077682495
1749033775.4469242,-0.1131490807759177,-2.032998634199662,-0.5078842228741317,1.4024215571222791,-0.6601634591960892,0.8509698391780818,0.12324443006414985,0.09495256102445504,-0.08055463384391605,0.20401726829913,-0.08404676793321413,0.2648127358828558,0.4103699922561645,1.5037741661071775,0.3928995430469513,0.0212563574314117,-0.0180425122380256,0.2669103741645813
1749033775.4469612,-0.11289629968386568,-2.0328077035052137,-0.5080499414148298,1.402842616015613,-0.6603348026419906,0.8515034526747832,0.12381057730233769,0.09553198705787982,-0.08092781406108222,0.20475229966242556,-0.08461505629480263,0.26634906305724465,0.4944111704826355,1.4965267181396484,0.391120582818985,0.0612626075744628,-0.0306196939200162,0.2661074995994568
1749033775.446998,-0.11264321492593038,-2.032615412170512,-0.5082160438494429,1.4032641021991812,-0.6605076377448731,0.8520391540349751,0.12439351442400617,0.09613380627944461,-0.08128132316036037,0.20569915375442585,-0.08534553249117188,0.26790073670068526,0.3882266581058502,1.510507345199585,0.4067458510398865,0.057155292481184,-0.0290833227336406,0.3124867975711822
1749033775.4470344,-0.11238971981635755,-2.032421653787002,-0.5083824872748036,1.4036866563108314,-0.6606821804004096,0.8525773859350149,0.12500243318714166,0.09675916632783046,-0.08161762537156854,0.20687624815765657,-0.08622532719008526,0.26948299745894866,0.4194459617137909,1.5151687860488892,0.406691312789917,0.0725128799676895,-0.0457270815968513,0.3066813945770263
1749033775.4477236,-0.11213551625329943,-2.0322262510019597,-0.5085493098062274,1.4041111751491884,-0.6608586694313168,0.8531189079297742,0.12564571978278888,0.09740619293789769,-0.08194111279631289,0.20828730963680184,-0.08722751711635804,0.2711065363228197,0.412997841835022,1.489509344100952,0.4348421096801758,0.0698106437921524,-0.0487763062119483,0.3442173898220062
1749033775.449711,-0.11188016809444061,-2.0320289895252563,-0.5087166111322676,1.4045386801893456,-0.6610373221663385,0.853664662989181,0.1263302337067173,0.09807062647023015,-0.08225806721701898,0.2099210410593082,-0.08831282502858166,0.27277461939030906,0.480594128370285,1.4928920269012451,0.4122273921966553,0.0804519355297088,-0.0442067384719848,0.3438607454299927
1749033775.494308,-0.11162317382053491,-2.031829663163432,-0.5088845231939181,1.404970161608923,-0.6612182840286163,0.8542156066724423,0.12706061255498186,0.09874678373016506,-0.08257632556292853,0.21175213956917163,-0.08943269338073415,0.274481629411402,0.480594128370285,1.4928920269012451,0.4122273921966553,0.0804519355297088,-0.0442067384719848,0.3438607454299927
1749033775.494354,-0.11136404497110325,-2.031628120734541,-0.5090531775477757,1.4054064245908586,-0.6614015824409349,0.8547725317767959,0.12783871254294077,0.09942861645870048,-0.08290466098079188,0.21374363365667595,-0.09053355462165405,0.2762133703133591,0.4730872213840484,1.4315897226333618,0.4181818962097168,0.105490431189537,-0.0153470635414123,0.3019623756408691
1749033775.4943943,-0.11110237636724841,-2.0314243044477793,-0.5092226764641216,1.4058479660133425,-0.6615870960529203,0.8553359226289968,0.12866332431047894,0.1001106309063348,-0.08325194237451124,0.21585040386892135,-0.09156194997013654,0.27794905584415547,0.4730872213840484,1.4315897226333618,0.4181818962097168,0.105490431189537,-0.0153470635414123,0.3019623756408691
1749033775.4944327,-0.11083789724706616,-2.031218270909893,-0.5093930733884175,1.406294904348016,-0.6617745476976611,0.8559058661151152,0.12953025811676555,0.10078847529749431,-0.08362617727495998,0.21802360923496802,-0.09246999190734087,0.27966453896760585,0.4497637450695038,1.480322241783142,0.4004106521606445,0.0801439583301544,-0.016798198223114,0.301589161157608
1749033775.4944706,-0.11057049796879216,-2.031010190378836,-0.5095643654226789,1.4067469737704288,-0.6619635240614128,0.856482032396848,0.13043279213227318,0.10145909594522477,-0.0840335726515213,0.2202155574102079,-0.09322056280974644,0.2813361429700975,0.4873972833156585,1.5336648225784302,0.3861419260501861,0.0604768842458725,-0.0124377310276031,0.3234653770923614
1749033775.494509,-0.11030023255866259,-2.030800325683942,-0.5097364971609306,1.4072035787649573,-0.662153518872215,0.857063721775952,0.13136237934447725,0.1021204958714213,-0.08447775879005734,0.22238438507195812,-0.09379161392432617,0.2829444429798502,0.45137819647789,1.500112771987915,0.4119206964969635,0.0495599955320358,0.0207390654832124,0.3167001605033874
1749033775.4945464,-0.1100273012890996,-2.0305889969952937,-0.5099093728242123,1.4076638932672263,-0.6623439916760149,0.8576499610404593,0.1323094529746072,0.10277125814320982,-0.0849593065200974,0.2244978429723602,-0.09417898128269912,0.28447742993964586,0.4692564010620117,1.521977782249451,0.3721443116664886,0.0409988462924957,-0.0023303143680095,0.2972522974014282
1749033775.4945834,-0.10975201926305368,-2.030376540668474,-0.5100828728354003,1.4081269825881568,-0.6625344321226164,0.8582396266162026,0.1332641704345535,0.10341006319528433,-0.08547562999506748,0.22653557841982538,-0.09439728117314959,0.2859325783418786,0.4509057700634002,1.5271331071853638,0.3905463814735412,0.0171464681625366,0.0250227078795433,0.245826855301857
1749033775.49462,-0.10947477731207375,-2.0301632697683503,-0.5102568714849615,1.4085919271508407,-0.6627244199485447,0.8588315728429288,0.1342169892937501,0.1040354111648244,-0.08602131482583884,0.22848958225960067,-0.09447869135189974,0.28731744661404784,0.4516194462776184,1.4958269596099854,0.3876464664936065,0.063729278743267,0.0182364732027053,0.2490727007389068
1749033775.494657,-0.10919600104984158,-2.0299494417765964,-0.5104312534204891,1.4090579315983482,-0.6629136726357263,0.8594247485787454,0.13515905605472428,0.1046456786250822,-0.08658885324015123,0.23036284419850409,-0.09446972119723518,0.28864864741400736,0.4797781407833099,1.518762707710266,0.3632983565330505,0.0414298176765441,0.0122949928045272,0.2774406969547272
1749033775.494694,-0.10891611267878687,-2.0297352364418306,-0.5106059278257395,1.4095244082902716,-0.6631020753012596,0.8600182910328928,0.13608247189830924,0.10523953011708582,-0.0871697096909811,0.232166619545644,-0.09442634716961833,0.2899493590334096,0.4473490417003631,1.4595391750335691,0.3846700191497803,0.0817647725343704,0.0123199522495269,0.3103858530521393
1749033775.4947305,-0.10863549819010251,-2.0295207443589742,-0.5107808400565548,1.4099910293404347,-0.6632896902471949,0.8606115907851613,0.13698053806834187,0.10581659260502602,-0.08775558647724721,0.23391693478761957,-0.09440808497344313,0.2912459049732522,0.4643258452415466,1.4963765144348145,0.3754092454910278,0.0646063834428787,-0.0127676576375961,0.3187508881092071
1749033775.4947689,-0.10835448075862404,-2.029305965191197,-0.5109559808292513,1.4104577457653045,-0.6634767463661618,0.8612043259789612,0.13784805898651706,0.10637820512469684,-0.08833971700077173,0.23563098739032717,-0.09447167623521974,0.29256414073515963,0.4613051414489746,1.4801838397979736,0.3645327687263489,0.0427257306873798,-0.0227219611406326,0.3221299052238464
1749033775.4948063,-0.10807330033370306,-2.02909081372855,-0.5111313926864078,1.4109247757244703,-0.6636636109970966,0.8617964667038502,0.1386817128075308,0.10692800259648282,-0.08891799503022658,0.23732395748457755,-0.09466509798077538,0.29392636133343314,0.4317850172519684,1.4839552640914917,0.3982503414154053,0.0531728416681289,-0.0101105570793151,0.3121176660060882
1749033775.494844,-0.10779209964410384,-2.028875132025014,-0.5113071728372168,1.4113925661033808,-0.6638507486456722,0.8623882528793051,0.13948042800884533,0.10747210337610215,-0.08948975766954527,0.2390065468180535,-0.09502257154786257,0.29534922152635523,0.4511950314044952,1.4537795782089231,0.3844188749790191,0.0501695424318313,-0.0503783375024795,0.2894395589828491
1749033775.494881,-0.10751091726642985,-2.0286587062786436,-0.5114834712055258,1.4118617330711272,-0.6640386719866795,0.8629801507470324,0.14024566116714998,0.10801874658690203,-0.09005807682118619,0.24068339395568947,-0.09556115337020425,0.29684286360305373,0.446980357170105,1.4856895208358765,0.3856994807720184,0.0834303423762321,-0.080582857131958,0.3072888553142547
1749033775.494918,-0.1072296884453104,-2.028441287533749,-0.5116604828002036,1.4123329882052882,-0.6642278906845168,0.8635727943031754,0.14098146326955543,0.10857735084895515,-0.09062947815712365,0.24235242294953457,-0.09627931600187083,0.29841117916528304,0.4447381496429443,1.535267949104309,0.3954531550407409,0.0645621120929718,-0.0563048645853996,0.3487350344657898
1749033775.494956,-0.10694825402112508,-2.0282226154128167,-0.5118384341368548,1.4128070575321987,-0.6644188629781971,0.8641669183931715,0.14169424691655905,0.10915711096608638,-0.09121309307099904,0.24400513546940641,-0.09715767037687151,0.30005293403211525,0.375127375125885,1.486528992652893,0.376090943813324,0.056986279785633,-0.0395876392722129,0.3235182464122772
1749033775.4949932,-0.10666637731403389,-2.0280024438783015,-0.5120175642352709,1.4132846013123568,-0.6646119539740316,0.8647632897475992,0.14239222066770574,0.10976537556300751,-0.09181934106017375,0.24562779703974735,-0.09816168678531216,0.3017633554874952,0.4442490935325622,1.5235323905944824,0.3723789751529693,0.0462521500885486,-0.0528721958398819,0.2822119295597076
1749033775.4950297,-0.10638376801406786,-2.0277805675677016,-0.5121981017254802,1.413766142559511,-0.6648074036112676,0.865362641474645,0.14308453449463443,0.11040612270640798,-0.09245831700497656,0.2472033666205531,-0.09924601976744195,0.30353571585392725,0.4317469596862793,1.5276963710784912,0.3468130826950073,0.0254432260990142,-0.0444482341408729,0.288848727941513
1749033775.4950662,-0.10610011074636146,-2.0275568464635403,-0.5123802408377435,1.4142520122657392,-0.665005306811567,0.8659656163032912,0.14378026718797338,0.11107885504547577,-0.09313810523898969,0.2487138978881505,-0.10035987494562731,0.3053624746124055,0.4395228922367096,1.5317195653915403,0.3594796359539032,0.0512944012880325,-0.0272511690855026,0.2714191079139709
1749033775.4951022,-0.10581509408863832,-2.0273312253796747,-0.512564120348531,1.414742319277188,-0.6652056084974218,0.86657272480629,0.1444874488699241,0.1117781700653359,-0.09386325348275416,0.25014305783767726,-0.1014527672873555,0.307235698809138,0.4395228922367096,1.5317195653915403,0.3594796359539032,0.0512944012880325,-0.0272511690855026,0.2714191079139709
1749033775.495715,-0.10552843429821111,-2.027103743462912,-0.5127498102994401,1.4152369520621737,-0.6654081162572514,0.8671843260302773,0.14521231038807483,0.1124941352832661,-0.0946336186771029,0.25147840723683407,-0.10248000003848438,0.3091467522353559,0.4404869675636291,1.5332187414169312,0.3583647906780243,0.017323886975646,-0.033620186150074,0.3353023827075958
1749033775.4978037,-0.1052398884654767,-2.0268745292026913,-0.5129373104737979,1.415735616073149,-0.6656125321290611,0.8678006363114756,0.1459588767107868,0.11321343746705943,-0.09544375449382295,0.25271316122488074,-0.10340725048788671,0.31108553697361396,0.4434399604797363,1.4824873208999634,0.3447136580944061,0.042114645242691,-0.0295620635151863,0.3380509614944458
1749033775.5382752,-0.10494925522388988,-2.0266437795465193,-0.5131265617108164,1.4162379025343108,-0.6658185015521775,0.8684217651196847,0.14672890865250604,0.11392111766193175,-0.096282953969594,0.2538472551490978,-0.10421377865454698,0.3130397612987055,0.4773926138877868,1.5061720609664917,0.3345191180706024,0.0364028066396713,-0.0110331438481807,0.3375864624977112
1749033775.5383208,-0.10465636611193949,-2.02641172654485,-0.5133174673297901,1.4167433750132452,-0.6660256731124349,0.8690477672216598,0.14752210306166946,0.11460258789093003,-0.0971359908509527,0.2548876457526206,-0.10489394499916257,0.3149947063348734,0.4727426767349243,1.4694422483444214,0.3577613830566406,0.0149668157100677,-0.0048931241035461,0.3274990618228912
1749033775.538361,-0.10436107415067164,-2.026178598727954,-0.5135099193135885,1.417251654608407,-0.666233759494675,0.869678694562258,0.14833642600483454,0.11524557345521998,-0.09798451806745846,0.25584786858419856,-0.10545690538537818,0.31693377493682295,0.4351723194122314,1.4525665044784546,0.3400720059871673,0.0379121899604797,-0.0105493310838937,0.3466607928276062
1749033775.538404,-0.10406324641526259,-2.0259445854438365,-0.5137038233806106,1.417762485695187,-0.6664425892881162,0.8703146322204555,0.14916847736473043,0.11584164508152407,-0.09880898226085601,0.2567469462113025,-0.10592454288860342,0.31883983158864715,0.4307847917079925,1.424998760223389,0.3607548475265503,0.0122975260019302,-0.0047526732087135,0.3170378804206848
1749033775.538442,-0.10376276503830217,-2.025709811056687,-0.51389911798431,1.4182757700363005,-0.6666521406753999,0.870955708596975,0.15001383929599188,0.11638709826247856,-0.09959081313993853,0.25760780081677886,-0.10632789360369724,0.3206971076486656,0.459146499633789,1.4956868886947632,0.362642377614975,0.0312341600656509,-0.0063157007098197,0.364993691444397
1749033775.5384798,-0.10345953775325409,-2.0254743233670465,-0.5140957838071766,1.4187915647087452,-0.6668625508768263,0.8716020774382647,0.15086741250764638,0.11688308827767256,-0.10031457581208596,0.2584553764596776,-0.10670250296712969,0.3224933149273122,0.4663580060005188,1.4575577974319458,0.3855167329311371,0.0461992621421813,0.0036107636988162,0.3618537187576294
1749033775.5385168,-0.1031535157760192,-2.0252380975294875,-0.5142938423426203,1.4193100471538869,-0.6670740990376532,0.8722538768207997,0.15172377130396988,0.11733509793338777,-0.10096976281103141,0.259314714325662,-0.10708327919991023,0.32422156973900695,0.4202058911323547,1.4880757331848145,0.4050003886222839,0.0631247386336326,0.0029192827641963,0.3171074390411377
1749033775.538554,-0.10284471403906376,-2.0250010533386615,-0.5144933447236704,1.4198314579133684,-0.6672871646028044,0.8729111769975553,0.15257755795028552,0.11775194646474006,-0.10155195848906011,0.26020921879667713,-0.10749947460354356,0.3258817497538845,0.4202058911323547,1.4880757331848145,0.4050003886222839,0.0631247386336326,0.0029192827641963,0.3171074390411377
1749033775.5385911,-0.10253322721550712,-2.024763080598297,-0.5146943544729051,1.420356036760569,-0.6675021674016657,0.873573933318663,0.15342389545322435,0.11814460437593448,-0.10206321964000233,0.26115928234366337,-0.10797042199226875,0.32748098245944307,0.4796906113624573,1.4895457029342651,0.3728336691856384,0.0197585802525281,-0.0028967633843421,0.2874968647956848
1749033775.538628,-0.10221923567214908,-2.02452406572588,-0.5148969290102474,1.4208839683212462,-0.667719498490685,0.8742419592691529,0.15425875733578479,0.11852505739286935,-0.10251166052547037,0.2621813257698645,-0.10850258515403531,0.32903310101331307,0.4605409204959869,1.513582468032837,0.3982561528682709,0.0449224412441253,-0.0133848488330841,0.306923359632492
1749033775.5386648,-0.1019029989036433,-2.0242839138803603,-0.5151011037068453,1.4214153474096152,-0.6679394514083347,0.8749149265015082,0.15507922347241668,0.11890538544046601,-0.10291037175520966,0.2632872101933153,-0.10908834956929657,0.33055708887430113,0.4396098554134369,1.4862498044967651,0.3792654275894165,0.0408335030078887,-0.015443667769432,0.3141776919364929
1749033775.5387008,-0.10158483855674967,-2.024042564005124,-0.5153068799239469,1.4219501651122417,-0.6681621624594255,0.8755923873773428,0.1558835741105598,0.11929711773288017,-0.1032758929637751,0.26448393141723836,-0.10970678502280937,0.3320747383514889,0.4400124549865722,1.488173484802246,0.3917664885520935,0.0627965927124023,-0.0103674978017807,0.3361074030399322
1749033775.5387373,-0.10126511612937432,-2.023799997148948,-0.515514216714248,1.4224883098737966,-0.6683875672920582,0.8762738080497007,0.15667121935779083,0.11971082236646105,-0.10362647187054347,0.265773520919951,-0.1103263703854444,0.3336079204400311,0.4194599986076355,1.4593088626861572,0.3829445242881775,0.0608909986913204,-0.0407813191413879,0.3145715296268463
1749033775.5387738,-0.1009442105354004,-2.0235562398763824,-0.5157230254547822,1.4230295763773564,-0.6686153796812254,0.8769585999649859,0.15744252183772336,0.12015582172157073,-0.1039802974658683,0.2671531163656206,-0.1109094130492996,0.3351759432178871,0.4895040690898895,1.4823060035705566,0.404858648777008,0.0482758730649948,-0.0447675958275795,0.3257556855678558
1749033775.53881,-0.10062249887254823,-2.023311364546074,-0.5159331669978522,1.4235736771221503,-0.668845096424041,0.8776461425369256,0.15819862357888223,0.12063991722217889,-0.1043538410641637,0.26861518446690086,-0.11141765132804472,0.3367934296657433,0.4686627984046936,1.4400646686553955,0.395374447107315,0.0491109937429428,-0.0102099552750587,0.3490465581417084
1749033775.5388737,-0.10030034145137383,-2.0230654873276284,-0.5161444513462675,1.4241202543101366,-0.6690760292696084,0.8783357957327468,0.15894139074246172,0.12116905431579515,-0.10476041001896647,0.2701478660958008,-0.1118183235358804,0.338468996561394,0.4531193673610687,1.5059417486190796,0.3733783066272735,0.0432761050760746,0.0143392002210021,0.3549543619155884
1749033775.538916,-0.09997807039236767,-2.022818763709071,-0.5163566402977866,1.424668891568311,-0.6693073613002699,0.8790269060825536,0.15967351802653232,0.12174693361268829,-0.10520901645519558,0.27173539411508285,-0.11208986288734245,0.3402048247401162,0.4597920179367065,1.453983187675476,0.3728988170623779,0.0489135980606079,-0.0072539523243904,0.3424652814865112
1749033775.5389588,-0.09965598021189608,-2.0225713805799024,-0.516569453933335,1.4252191262541305,-0.6695382219409426,0.8797188123215561,0.16039872587794293,0.12237464548778498,-0.10570366655155303,0.273358547122755,-0.11222637850084494,0.34199703289303296,0.4587310552597046,1.4992492198944092,0.3623302280902862,0.0666856914758682,0.0197806358337402,0.3196056485176086
1749033775.5390005,-0.09933431868919408,-2.0223235441490837,-0.5167825820353942,1.425770464133829,-0.6697677724792768,0.8804108574638783,0.16112191274506066,0.12305044694557056,-0.10624315944465848,0.27499516081965825,-0.11224021577512736,0.3438366381782483,0.4514208137989044,1.5142292976379397,0.3835077285766601,0.0562199875712394,0.0432667583227157,0.3065733909606933
1749033775.539038,-0.0990132765641659,-2.0220754638288936,-0.5169957013163778,1.4263223992534435,-0.6699952928020629,0.8811024130799591,0.16184913546208948,0.12376979604969246,-0.1068214350885603,0.2766207963047946,-0.11216211655819448,0.34571083225154553,0.4711064994335174,1.5358567237854004,0.3690081536769867,0.0716152638196945,0.0375718176364898,0.3388186693191528
1749033775.539658,-0.0986929749648265,-2.021827333159847,-0.5172084987092853,1.4268744424187516,-0.6702202597935359,0.8817929194174712,0.1625873664115091,0.12452571079040226,-0.1074284364487082,0.27820970736392875,-0.11203878917071175,0.3476043310225371,0.474684327840805,1.527926683425903,0.3739143013954162,0.0553255751729011,0.0380237102508544,0.3468279540538788
1749033775.5416334,-0.09837344992218236,-2.021579309179674,-0.5174207000813428,1.427426161153576,-0.6704424085844717,0.8824819419277296,0.16334406868965248,0.12530943706785877,-0.10805137901095171,0.2797362143001091,-0.11192804407423851,0.34950064835011085,0.5122290253639221,1.4989088773727417,0.4151171743869781,0.0694897174835205,0.0326579809188842,0.3321658670902252
1749033775.5822797,-0.09805463409689127,-2.021331491179065,-0.5176321027183871,1.4279772318499566,-0.6706617699804418,0.8831692409084186,0.16412669448157588,0.12611131813392004,-0.10867627154653824,0.28117648590198174,-0.11189203309809305,0.3513832455032379,0.454418271780014,1.449467420578003,0.3630110621452331,0.060429036617279,0.0159864127635955,0.3082765340805053
1749033775.5823271,-0.09773633697137436,-2.021083899143506,-0.5178426088805597,1.428527501235035,-0.670878680791399,0.8838548469626549,0.16494221468564715,0.12692169462241212,-0.10928951268608875,0.28251059877065293,-0.11198948373866861,0.3532365714705142,0.4716500341892242,1.509388089179993,0.3987753689289093,0.06250961124897,-0.0286281183362007,0.3177218735218048
1749033775.5823689,-0.09741822609883673,-2.0208364523134423,-0.5180522567378673,1.429077050110438,-0.6710937673333283,0.8845391316281453,0.1657967279573346,0.1277316656200827,-0.10987939213866943,0.28372462673594,-0.11226804959635339,0.3550470229835886,0.4874259233474731,1.4735256433486938,0.3933725357055664,0.0442020371556282,-0.0379430800676345,0.3515889048576355
1749033775.5824084,-0.09709981335859433,-2.020588949663031,-0.5182612441622578,1.429626248708383,-0.6713079047992665,0.8852228604851018,0.1666951164286069,0.12853360925839277,-0.11043734155575638,0.28481243699488307,-0.1127579237246365,0.35680383709915725,0.4815682470798492,1.5005128383636477,0.4099080562591553,0.073820911347866,-0.0431694537401199,0.3304581046104431
1749033775.5824482,-0.09678045131730896,-2.0203410561625077,-0.5184699403951555,1.430175790877489,-0.671522156171391,0.885907215598731,0.16764066803489566,0.12932145969565242,-0.11095880143097216,0.2857768575158213,-0.11346766850132133,0.35849990367135715,0.4860420823097229,1.4921536445617676,0.402654618024826,0.0229731947183609,-0.052155315876007,0.3582271635532379
1749033775.582486,-0.09645934534933864,-2.0200923002790763,-0.5186788809237483,1.430726694236257,-0.6717376946279723,0.8865937752609986,0.1686345968450864,0.13009081661212524,-0.1114436034926483,0.2866299540685967,-0.11438286396128435,0.3601324536608636,0.4808485805988312,1.513710856437683,0.4089967310428619,0.0273972917348146,-0.0627777725458145,0.3170962035655975
1749033775.582529,-0.0961355866776701,-2.019842088268142,-0.5188887423008083,1.4312802558430147,-0.6719557139510299,0.8872844417252918,0.16967545647068288,0.13083899220555315,-0.11189582121248144,0.2873923090252094,-0.11546775231307531,0.36170353708226766,0.4916290938854217,1.5196110010147097,0.3968735635280609,0.0543921217322349,-0.0834345966577529,0.3105924427509308
1749033775.5825665,-0.09580820959866412,-2.019589739037619,-0.5191002960313728,1.4318379581444556,-0.6721773326273481,0.8879813125376603,0.1707585345599965,0.13156507370749712,-0.11232311012448169,0.28809138750449387,-0.11666961854275883,0.3632201611933273,0.513800323009491,1.5049922466278076,0.3879158198833465,0.062458612024784,-0.0671003311872482,0.3445704877376556
1749033775.5826025,-0.0954762725419887,-2.0193345399799423,-0.5193143436856698,1.4324013280223324,-0.6724034989048256,0.8886864989576079,0.17187539717134934,0.13227000685081242,-0.11273563031788364,0.28875925497685967,-0.11792524254365826,0.3646939493119881,0.5060914754867554,1.444806694984436,0.3941597938537597,0.0802299827337265,-0.0395089015364646,0.3518999218940735
1749033775.5826397,-0.09513895711391067,-2.0190758196539114,-0.5195316389375974,1.4329717623007434,-0.672634905654122,0.8894019062176177,0.17301377450101094,0.1329566162503879,-0.11314470029249972,0.28943002045402305,-0.11916845868830786,0.36614023376329746,0.5060914754867554,1.444806694984436,0.3941597938537597,0.0802299827337265,-0.0395089015364646,0.3518999218940735
1749033775.5826757,-0.09479567255454079,-2.018813028241143,-0.5197528060391213,1.4335503444569757,-0.6728719251767209,0.89012900365231,0.17415793240033317,0.1336294260983095,-0.11356136416604252,0.29013738369958375,-0.1203377299664103,0.3675766039992883,0.4917477667331695,1.500401735305786,0.3765701055526733,0.0606689602136611,-0.0119516998529434,0.3032388687133789
1749033775.5827122,-0.09444614763237931,-2.0185458128080893,-0.5199782670443417,1.4341376850631156,-0.6731145741052197,0.8908686229813966,0.1752895824514949,0.13429417575704192,-0.11399506223435235,0.2909125695369087,-0.12138268870351299,0.3690210538994723,0.4288457036018371,1.445221781730652,0.3742680549621582,0.0288032740354537,0.0310806408524513,0.356602668762207
1749033775.5827482,-0.09409049131740053,-2.0182740737124765,-0.5202081899062442,1.4347338172340962,-0.6733625155793909,0.89162082322011,0.17638927474671523,0.13495702609812976,-0.11445257888789136,0.29178278943955605,-0.12226877336596118,0.37048997806184103,0.4288457036018371,1.445221781730652,0.3742680549621582,0.0288032740354537,0.0310806408524513,0.356602668762207
1749033775.582785,-0.09372920864017947,-2.0179979917058977,-0.5204424658985228,1.4353381674735253,-0.6736150996626302,0.8923848489329075,0.17743811892685524,0.13562355745004753,-0.11493739463526337,0.29277024328504,-0.12297938332065421,0.3719963363516042,0.486238956451416,1.460290789604187,0.3884902000427246,0.0797443389892578,0.0267372243106365,0.3638684153556824
1749033775.582821,-0.09336316642383193,-2.0177180206750607,-0.5206807195333001,1.4359496076406524,-0.6738714358450264,0.8931591909837665,0.17841962650102203,0.13629772361621795,-0.11544948943701591,0.293891596593922,-0.12351538512292125,0.3735483154792491,0.486238956451416,1.460290789604187,0.3884902000427246,0.0797443389892578,0.0267372243106365,0.3638684153556824
1749033775.582857,-0.0929935119976075,-2.0174348464566068,-0.5209223492991373,1.436566580997228,-0.6741304862818273,0.8939417425362753,0.17932146974124372,0.1369809544563267,-0.11598555692182189,0.2951578279719454,-0.1238922884335885,0.37514874199911846,0.4361813366413116,1.4849374294281006,0.4082109332084656,0.0774840340018272,-0.0125562958419322,0.3607698082923889
1749033775.5828931,-0.09262155540566613,-2.017149317157772,-0.5211665935173191,1.4371872849856537,-0.6743911660371155,0.894730029346942,0.18013696581013566,0.13767160128370665,-0.11653952955194734,0.29657430102876653,-0.12413584366089053,0.37679534431635586,0.4158865809440613,1.4818097352981567,0.3636732697486877,0.064614400267601,-0.0337470397353172,0.3500764369964599
1749033775.5829291,-0.09224863158448642,-2.0168623548252222,-0.521412612055025,1.4378098844372045,-0.6746524366643049,0.8955214818060109,0.1808660825991814,0.138364879188644,-0.11710330009865687,0.29814087476932477,-0.12427706190910254,0.3784817598828068,0.4096086621284485,1.474457025527954,0.4207983314990997,0.0473672151565551,-0.0266221165657043,0.3426442146301269
