nimar13/UR3e_dataset_trayectorias/trayectorias_ejecutadas_filtradas/quintic/trayectoria_002_result_filtrado.csv
timestamp,q1,q2,q3,q4,q5,q6,qd1,qd2,qd3,qd4,qd5,qd6,tau1,tau2,tau3,tau4,tau5,tau6
1749032080.8542788,-1.9470784445343579,-1.730409061757638,2.576570663440443,-3.8253802238206367,-1.1404089381603817,-5.271635911574491,0.0011186970582319454,-0.0006168449488772715,0.00021352367941328252,0.001537460454226238,0.000734472450435741,0.0017323771411058096,-0.0979948937892913,-0.7269294261932373,-0.7127306461334229,-0.5412707924842834,-0.0394300818443298,-0.0482425466179847
1749032080.8543272,-1.9470806344072544,-1.7304140152237788,2.5765672639117683,-3.8253870785387893,-1.140402787710551,-5.271642131533861,0.0010195195864331741,-0.0006943264884890484,0.00020419719835219796,0.0013370513449329738,0.0006780230127066131,0.0018654249094473803,-0.093078464269638,-0.7560915350914001,-0.7197413444519043,-0.5271570682525635,-0.0504971593618392,-0.0636747106909751
1749032080.8543675,-1.9470828214886706,-1.7304188970283407,2.5765639605473876,-3.825393755257064,-1.1403968350664524,-5.271647951985034,0.0009222162304338076,-0.0007670654172165409,0.0001961995673747645,0.0011432151308262352,0.0006237093822603294,0.0019834180435717294,-0.1020682454109191,-0.7557898163795471,-0.7256026268005371,-0.5446168184280396,-0.0556095987558364,-0.0670902132987976
1749032080.854406,-1.9470849486712256,-1.730423635159279,2.576560896025134,-3.8254000488364084,-1.1403912579685012,-5.271653062956637,0.0008284010827299888,-0.0008309616784113024,0.00019001987456669433,0.0009615302316943429,0.0005728713826932948,0.00207351669147174,-0.0999956429004669,-0.7342497110366821,-0.7221393585205078,-0.5400820374488831,-0.0393293797969818,-0.0632452443242073
1749032080.8544438,-1.9470869717792543,-1.7304281541280706,2.576558195301816,-3.8254057841381632,-1.1403862101826898,-5.271657221937157,0.0007395359175309193,-0.000882543107453506,0.0001860686741557474,0.0007966232573027754,0.0005265487519681798,0.0021252163912499466,-0.1043597161769867,-0.7343903183937073,-0.7074876427650452,-0.5281757116317749,-0.0381201431155204,-0.0762042477726936
1749032080.8544817,-1.9470888667337853,-1.7304323745457117,2.5765559587557787,-3.8254108277980667,-1.1403818107382038,-5.271660272917762,0.0006568704045738345,-0.000919244028025559,0.000184618048787903,0.0006518630000924627,0.000485399492908403,0.002131285941503013,-0.112912118434906,-0.739741325378418,-0.7086436748504639,-0.5507256388664246,-0.0426188260316848,-0.0670274272561073
1749032080.854523,-1.947090631079573,-1.7304362142820822,2.576554258512312,-3.8254150947323566,-1.1403781374823576,-5.271662156030567,0.0005813914929086889,-0.0009396230861080987,0.00018574105506046732,0.0005291961768224342,0.00044966250798853826,0.002088399277513094,-0.0780145078897476,-0.7245054244995117,-0.6999945640563965,-0.5381170511245728,-0.0558243989944458,-0.0748307406902313
1749032080.854561,-1.9470922802041655,-1.730439592550582,2.576553137293037,-3.825418548817431,-1.1403752243737397,-5.271662907210371,0.0005137841179607776,-0.0009434839259084055,0.00018925689847843868,0.0004291307454792893,0.0004191661840543585,0.0019973781312408513,-0.0780145078897476,-0.7245054244995117,-0.6999945640563965,-0.5381170511245728,-0.0558243989944458,-0.0748307406902313
1749032080.8546166,-1.9470938396652444,-1.7304424371919738,2.576552609000756,-3.8254211982424717,-1.140373061674909,-5.271662648149675,0.00045440693436035674,-0.0009318727682430942,0.00019468922389174114,0.00035085340135818885,0.0003933785556065925,0.0018630143836444427,-0.107374757528305,-0.7410056591033936,-0.7176085710525513,-0.5268134474754333,-0.0611112862825393,-0.0618360340595245
1749032080.8546803,-1.9470953357409568,-1.7304446940041325,2.5765526604545466,-3.825423087073382,-1.1403715983552123,-5.271661567868015,0.0004032872346631051,-0.0009069484483188997,0.00020124540808568134,0.00029245398933002424,0.000371490489794839,0.0016935039643855446,-0.1077950298786163,-0.7640925645828247,-0.7033717632293701,-0.5371972322463989,-0.0484165251255035,-0.0699790343642234
1749032080.854746,-1.9470967865700977,-1.7304463360525835,2.5765532539367784,-3.82542428505297,-1.1403707462629926,-5.271659898362506,0.0003601373104996044,-0.00087174354911193,0.0002078245339139033,0.0002512215405103507,0.0003525210411433971,0.0014995761748433502,-0.1021412014961242,-0.7451708316802979,-0.7124056816101074,-0.5366234183311462,-0.0400822684168815,-0.0632484629750251
1749032080.8548148,-1.947098196067695,-1.7304473708869732,2.576554330300983,-3.8254248774699726,-1.140370385829214,-5.271657887540051,0.0003243911956214917,-0.0008298520943513481,0.0002130606905367775,0.0002239741689792992,0.0003354335500229336,0.0012934315865788914,-0.120247334241867,-0.7371920347213745,-0.7075639963150024,-0.5331165790557861,-0.0507715344429016,-0.0672695040702819
1749032080.8548844,-1.9470995521656143,-1.7304478442084565,2.576555812354443,-3.825424956417502,-1.1403703731692234,-5.271655772700538,0.00029525777679231824,-0.0007850868420653321,0.00021540627960557572,0.00020738722305840875,0.00031925179419200935,0.001087608208324284,-0.1166522204875946,-0.7502124309539795,-0.7058275938034058,-0.5502061247825623,-0.0544530600309371,-0.0595863983035087
1749032080.854953,-1.9471008298300443,-1.730447839242593,2.5765576082526467,-3.82542461426789,-1.1403705485051199,-5.2716537574607,0.0002717845743258397,-0.0007411480722695013,0.00021325703994040144,0.0001982894718898335,0.00030316691533139385,0.0008938853579700632,-0.1241140216588974,-0.7649003863334656,-0.704747200012207,-0.5474078059196472,-0.0755367502570152,-0.0632496997714042
1749032080.8550222,-1.9471019979530217,-1.7304474716434892,2.5765596147849843,-3.8254239397225507,-1.1403707459060697,-5.271651994446487,0.0002529260430519901,-0.0007013384130468431,0.00020511655337995328,0.00019390430370259872,0.0002866273734905054,0.0007223150901611165,-0.1068603694438934,-0.7663828134536743,-0.6957067251205444,-0.5533980131149292,-0.0777218267321586,-0.0669326856732368
1749032080.8550897,-1.9471030280608492,-1.730446880354393,2.576561720632029,-3.8254230162489367,-1.1403708043607972,-5.271650575371431,0.00023761068994339316,-0.0006683481118575234,0.00018979321791493333,0.00019202077516121505,0.000269405541802612,0.0005804481488672802,-0.1068603694438934,-0.7663828134536743,-0.6957067251205444,-0.5533980131149292,-0.0777218267321586,-0.0669326856732368
1749032080.8551588,-1.9471039023166066,-1.7304462155519842,2.5765638099055934,-3.825421922173265,-1.140370579958028,-5.2716495292505305,0.00022480228651135725,-0.0006441250835952523,0.00016661737017717053,0.00019108701734635205,0.00025163567188773235,0.0004727981655910412,-0.1359525769948959,-0.7544317245483398,-0.7122591137886047,-0.5485177636146545,-0.0662315785884857,-0.0828249529004097
1749032080.8552277,-1.9471046187220735,-1.7304456253473746,2.576565766507501,-3.8254207313773985,-1.1403699584219045,-5.2716488285434435,0.00021355167498765358,-0.0006298353670311741,0.00013566086079346815,0.00019022539160553462,0.00023381892296003322,0.000400565499658993,-0.1114185452461242,-0.7509572505950928,-0.6951262950897217,-0.5542489290237427,-0.0719671696424484,-0.0776750221848487
1749032080.8552954,-1.947105192471023,-1.7304452430587152,2.576567479925916,-3.825419513585308,-1.1403688667249985,-5.271648402049849,0.00020303700484211,-0.0006259122490413616,9.793654756028863e-05,0.00018917465536873006,0.00021679220281038802,0.0003616226790241919,-0.1349023133516311,-0.757392168045044,-0.6940447092056274,-0.5567899942398071,-0.0757608711719513,-0.0647560209035873
1749032080.8553634,-1.947105653516404,-1.7304451766604745,2.576568852857751,-3.82541833357798,-1.1403672823180555,-5.271648152522045,0.00019259169987384314,-0.0006321855006853521,5.555160513606253e-05,0.00018816925762583778,0.00020165904034448006,0.0003507490679415741,-0.1346910893917083,-0.7606863975524902,-0.6883661150932312,-0.5568357110023499,-0.0595155656337738,-0.0644969344139099
1749032080.8559158,-1.9471060412245327,-1.7304455016371258,2.576569810435956,-3.8254172491830927,-1.1403652386847725,-5.271647976392819,0.00018172096218964972,-0.0006480748891051295,1.1787013869169514e-05,0.00018776980045367815,0.0001896828140266343,0.00036009364019624066,-0.1365556567907333,-0.752419650554657,-0.68590247631073,-0.5617592930793762,-0.0592114254832267,-0.082651175558567
1749032080.85768,-1.947106397411341,-1.7304462579752065,2.5765703100015758,-3.8254163083634447,-1.1403628262038767,-5.27164778277167,0.00017010884071101296,-0.0006728236798091359,-2.892321614500352e-05,0.00018866169248225414,0.00018214543432289128,0.0003798399139263128,-0.1524558961391449,-0.7700461745262146,-0.6962559223175049,-0.5482144355773926,-0.0780613347887992,-0.0749477371573448
1749032080.8982613,-1.9471067590652358,-1.730447451382248,2.5765703496353587,-3.825415546069271,-1.1403601874847096,-5.271647508867991,0.0001576183848628318,-0.0007057385718124881,-6.11350325082326e-05,0.0001914410909018058,0.00018017793936970283,0.00039904370403798765,-0.1396589428186416,-0.7780335545539856,-0.6853978633880615,-0.5777636170387268,-0.0756008327007293,-0.0851393863558769
1749032080.898307,-1.9471071517979084,-1.7304490581264713,2.576569973383153,-3.825414981672938,-1.140357506544847,-5.271647129390896,0.00014428695051598909,-0.0007463943540906094,-7.867332297395425e-05,0.00019640840532021253,0.00018457325535278216,0.00040661016368679026,-0.1727912127971649,-0.7529283165931702,-0.6953061819076538,-0.5635585784912109,-0.0897212699055671,-0.082582451403141
1749032080.8983462,-1.9471075848583936,-1.7304510323694615,2.57656927142789,-3.825414617713076,-1.1403549918563949,-5.271646658519235,0.00013031756750206785,-0.0007947581770902283,-7.504880834359709e-05,0.0002033899223400252,0.0001955953437103532,0.000392370118376929,-0.152172714471817,-0.7604514360427856,-0.6928167343139648,-0.5696213841438293,-0.0749627500772476,-0.072220392525196
1749032080.898401,-1.9471080484941528,-1.7304533146135246,2.57656837436522,-3.825414440405535,-1.140352854645643,-5.271646144599696,0.00011606597486960198,-0.0008511937816554167,-4.399958338260399e-05,0.00021160745374449564,0.00021280273776736142,0.00034820630029661585,-0.161180704832077,-0.7541394233703613,-0.6872122287750244,-0.5680856704711914,-0.0816373378038406,-0.0901190117001533
1749032080.8984604,-1.9471085142717104,-1.7304558398287415,2.576567442011315,-3.8254144221396302,-1.140351285329157,-5.2716456591371115,0.00010202199354212591,-0.0009163222134078357,1.987352985584805e-05,0.0002196142144326595,0.00023490759019446057,0.00026916807729787635,-0.1361047923564911,-0.715193510055542,-0.6884102821350098,-0.5660902857780457,-0.0846237540245056,-0.0825266912579536
1749032080.8985257,-1.9471089384800948,-1.7304585439118445,2.576566648344965,-3.8254145259901624,-1.14035043164726,-5.271645282290211,8.8783561685497e-05,-0.0009907410917497984,0.00012042715211513725,0.00022531226959240613,0.00025969327056690137,0.00015449992607433402,-0.149172693490982,-0.7117359638214111,-0.675025463104248,-0.5700668692588806,-0.0932334959506988,-0.1005597189068794
1749032080.898585,-1.9471092681061484,-1.7304613674475264,2.5765661648166933,-3.8254147119162907,-1.140350381591163,-5.271645087067662,7.702190840882742e-05,-0.0010746359592943328,0.000259317803312126,0.00022606269028189557,0.0002840137152665115,8.496394207248356e-06,-0.1675863564014434,-0.7362893223762512,-0.6928159594535828,-0.5632921457290649,-0.099080890417099,-0.0913502350449562
1749032080.8986468,-1.9471094484229161,-1.7304642564010593,2.576566144263418,-3.825414943759937,-1.140351153116414,-5.271645124231452,6.743671231130033e-05,-0.0011673492082819056,0.00043544724751584874,0.00021889380611121858,0.0003038956396961102,-0.00015891251098086405,-0.1534443199634552,-0.7274876236915588,-0.6789416074752808,-0.5833505988121033,-0.0956622883677482,-0.0890878811478614
1749032080.8987138,-1.9471094311200499,-1.73046716031865,2.576566707260799,-3.8254151956839846,-1.1403526915029494,-5.271645409700197,6.070052910307704e-05,-0.0012669965314998446,0.0006445985265739207,0.00020080546661053436,0.0003147600090253664,-0.00033194343929543034,-0.1380675137042999,-0.7419782280921936,-0.6594828367233276,-0.5739430785179138,-0.0923647135496139,-0.0877553299069404
1749032080.898777,-1.94710918200669,-1.730470029524951,2.576567932140568,-3.825415456544117,-1.1403548743432836,-5.271645915731884,5.739241090797981e-05,-0.0013702294678550335,0.0008793474957297379,0.00016915812490410882,0.00031177168277918586,-0.0004891989723867928,-0.1500002443790435,-0.7422525882720947,-0.6484562158584595,-0.5763462781906128,-0.1012153849005699,-0.0980783179402351
1749032080.898838,-1.9471086874174595,-1.7304728131780827,2.5765698492495632,-3.8254157309186887,-1.1403575235744559,-5.271646566293841,5.792171788170914e-05,-0.0014722305788480053,0.001129317728809811,0.00012212537857766122,0.00029031601978528294,-0.0006044325699469983,-0.1166871786117553,-0.7654057741165161,-0.6194479465484619,-0.5959265232086182,-0.1130494102835655,-0.0981338992714881
1749032080.8988793,-1.9471079584331545,-1.7304754595982221,2.5765724394857425,-3.825416036121982,-1.14036042358343,-5.271647236147635,6.244470298754896e-05,-0.0015669944924264667,0.001381812123881617,5.917823086311818e-05,0.00024658871108431806,-0.0006478720461586875,-0.1166871786117553,-0.7654057741165161,-0.6194479465484619,-0.5959265232086182,-0.1130494102835655,-0.0981338992714881
1749032080.898917,-1.9471070319681274,-1.7304779193344884,2.576575636810004,-3.825416395434863,-1.1403633438664658,-5.271647752733463,7.077835676413666e-05,-0.0016478953156491044,0.0016227999869089006,-1.844010231002446e-05,0.00017827037135476385,-0.000588084205330415,-0.1302262991666793,-0.7707681655883789,-0.6267678737640381,-0.5962139964103699,-0.1091275364160537,-0.0889502242207527
1749032080.8989544,-1.9471059679855351,-1.730480150539399,2.576579334267365,-3.825416828777082,-1.140366063782557,-5.271647900216059,8.231792511489755e-05,-0.0017084730285133688,0.0018381671083467482,-0.00010729721476311604,8.524077475049995e-05,-0.0003943004889398021,-0.1338137686252594,-0.7487262487411499,-0.6618326902389526,-0.5634933710098267,-0.1107478439807891,-0.0788635537028312
1749032080.8989918,-1.9471048428817066,-1.730482125592977,2.576583392938104,-3.8254173427365887,-1.1403683958948707,-5.271647425891117,9.59661235426982e-05,-0.0017433009990714423,0.002015065611648294,-0.00020146451657616077,-2.972963850138683e-05,-3.905267260667848e-05,-0.105758249759674,-0.7290167808532715,-0.6574586629867554,-0.5857839584350586,-0.1084803938865661,-0.0528614223003387
1749032080.8990293,-1.9471037402720577,-1.7304838374869669,2.5765876530750726,-3.8254179219371527,-1.1403702039410615,-5.271646049845528,0.00011008303301789378,-0.0017487512449968548,0.002143161294931223,-0.00029237203453465156,-0.00016038851068022632,0.0004991038844988828,-0.1140003949403762,-0.763054609298706,-0.6467500925064087,-0.59320467710495,-0.1062262132763862,-0.0528254359960556
1749032080.8990667,-1.9471027412978728,-1.730485304329471,2.5765919464650135,-3.825418523176258,-1.14037141214023,-5.27164347865784,0.00012246565629054317,-0.0017234848588995439,0.0022155934911003705,-0.0003688719367381196,-0.0002965977151398332,0.0012330638839284807,-0.1263333857059478,-0.7430784702301025,-0.6473347544670105,-0.5761843323707581,-0.1142047569155693,-0.0494082644581794
1749032080.899104,-1.9471019164650063,-1.7304865705757246,2.5765961088807794,-3.8254190729585615,-1.1403720042057446,-5.271639423022601,0.00013036486743479676,-0.0016685667079088086,0.002229529863278943,-0.0004175475479099675,-0.0004242050898331625,0.0021651662185067934,-0.1577596366405487,-0.7656364440917969,-0.6449659466743469,-0.5972702503204346,-0.096984639763832,-0.0515209659934043
1749032080.8991404,-1.9471013200334042,-1.7304877040571585,2.5765999914712836,-3.82541946836886,-1.140372012403381,-5.271633618008227,0.0001305448409886325,-0.0015872021055850095,0.002186281697389178,-0.000423288045701718,-0.0005252702086803633,0.0032860328641843525,-0.122237741947174,-0.7570229768753052,-0.6408166289329529,-0.5545338988304138,-0.1032958626747131,-0.0039682239294052
1749032080.8991773,-1.947100986993635,-1.7304887884136138,2.5766034700870484,-3.825419580803707,-1.1403714985864626,-5.271625843742487,0.00011938601280321947,-0.0014841750172618117,0.00209101056943044,-0.0003701253941444608,-0.0005787008606755664,0.004574522292363499,-0.1348104029893875,-0.7476531267166138,-0.6559359431266785,-0.5618869066238403,-0.0840585827827453,-0.0155210122466087
1749032080.8996737,-1.9471009323434019,-1.7304899113235215,2.576606451823728,-3.8254192618234417,-1.140370530156229,-5.271615943924198,9.302743976029521e-05,-0.001365111638376379,0.001952093843205069,-0.00024230010179380747,-0.0005613228844930782,0.0059989456247479655,-0.1614837348461151,-0.7370771169662476,-0.6534914970397949,-0.5370541214942932,-0.0583676695823669,-0.005225334316492
1749032080.901677,-1.9471011524724833,-1.7304911500835594,2.576608878438496,-3.825418350207041,-1.1403691545344414,-5.271603839681713,4.7538597199973235e-05,-0.0012357020380990868,0.0017802333595677827,-2.54884786524994e-05,-0.0004493609776133418,0.007519513805129232,-0.1614837348461151,-0.7370771169662476,-0.6534914970397949,-0.5370541214942932,-0.0583676695823669,-0.005225334316492
1749032080.9422705,-1.9471016284691454,-1.7304925571445857,2.5766107266889255,-3.825416679260282,-1.1403673760617266,-5.271589536785331,-2.0894997939663665e-05,-0.0011009955965026225,0.0015874015719566982,0.00029190972567844206,-0.00022025505288660271,0.009091788174289801,-0.1734929382801056,-0.7271972894668579,-0.6613659262657166,-0.5235493779182434,-0.0428858250379562,-0.0165813416242599
1749032080.9423168,-1.9471023310246656,-1.7304941484669152,2.57661200596883,-3.8254140836742763,-1.140365138984143,-5.271573124864283,-0.00011579228430168735,-0.0009648534716916581,0.0013857267254448115,0.0007175522915514866,0.00014531935081980036,0.010670753829849186,-0.1699326932430267,-0.7188193798065186,-0.6779137253761292,-0.5011841654777527,-0.0244619026780128,0.011320685967803
1749032080.942356,-1.947103226556213,-1.73049589685415,2.5766127538139725,-3.8254104056812763,-1.1403623191618324,-5.271554767927808,-0.00024022494181506862,-0.0008296038085685545,0.001186420250118807,0.001254147519242767,0.0006614100615783213,0.012215057850961168,-0.1836406290531158,-0.7074384689331055,-0.6624965071678162,-0.4837776720523834,-0.0180714577436447,0.0193819664418697
1749032080.9423938,-1.9471042842110695,-1.7304977312864582,2.576613029942389,-3.8254055005821868,-1.140358725591302,-5.271534686168716,-0.0003967131102395208,-0.0006959111445200674,0.0009988411686605513,0.0018987952325073734,0.0013349487715549563,0.013690945502770169,-0.1960786581039428,-0.7002212405204773,-0.6788327097892761,-0.4774385392665863,0.0012942999601364,0.0238950960338115
1749032080.9424367,-1.947105483349332,-1.7304995423137868,2.5766129095189445,-3.825399241695195,-1.1403541113767361,-5.271513129867384,-0.0005871814077311039,-0.0005628443883231302,0.0008297730909021327,0.0026427773192590335,0.0021643493541981646,0.01507546705515269,-0.1951585710048675,-0.70102858543396,-0.6844227313995361,-0.5016492009162903,0.0152514427900314,0.02402282692492
1749032080.9424748,-1.9471068208040188,-1.7305011929135807,2.576612476272173,-3.8253915245399037,-1.1403481928034385,-5.271490347218486,-0.0008129753862031314,-0.0004281081511366571,0.0006829621489787881,0.00347184321000925,0.003138758321215562,0.01635860566754402,-0.2038650810718536,-0.6837687492370605,-0.6891978979110718,-0.4647931158542633,0.0262011438608169,0.0215806253254413
1749032080.9425125,-1.9471083169048198,-1.7305025335732476,2.5766118158850286,-3.8253822699307984,-1.1403406744826012,-5.271466548877938,-0.001074920112258076,-0.00028838895915059894,0.0005589342484857472,0.004366975805633769,0.0042381063634660075,0.017544089702786814,-0.2225333452224731,-0.6566754579544067,-0.7031643986701965,-0.4341077208518982,0.0349908322095871,0.034762218594551
1749032080.9425492,-1.9471100193419626,-1.7305034195176077,2.5766110097842323,-3.82537142570417,-1.1403312777650991,-5.271441872714765,-0.0013733844647057913,-0.00013976031377003323,0.0004550822964965553,0.0053055780170537,0.005434009305858183,0.018648798626670057,-0.2225333452224731,-0.6566754579544067,-0.7031643986701965,-0.4341077208518982,0.0349908322095871,0.034762218594551
1749032080.9425907,-1.9471120045372474,-1.730503727180698,2.576610129284776,-3.825358966922518,-1.1403197688249236,-5.271416352419537,-0.0017083093533851478,2.191066046964214e-05,0.00036599150964272686,0.006262992950106326,0.006691459054595665,0.019700842562238648,-0.219984620809555,-0.6263291835784912,-0.7114489078521729,-0.4439876079559326,0.0580753833055496,0.0254825539886951
1749032080.942628,-1.947114376810916,-1.730503366761954,2.576609230147516,-3.8253448945062356,-1.1403059825323472,-5.271389893150642,-0.0020791740726888103,0.00020060599562612627,0.000283954443511477,0.007214251549131523,0.007971161762701894,0.020736567632337003,-0.2216626107692718,-0.6262192130088806,-0.7207383513450623,-0.4182246327400207,0.0608615577220916,0.0250145904719829
1749032080.9426646,-1.9471172657326763,-1.7305022884706796,2.576608347851567,-3.8253292323864345,-1.1402898388313045,-5.271362256495352,-0.0024849062217578667,0.00039988633530533034,0.00019961717494287022,0.008135920442361342,0.009232331740050212,0.021796874268589433,-0.2599877417087555,-0.6206380724906921,-0.7364389300346375,-0.4288368821144104,0.0886411517858505,0.0703020095825195
1749032080.942701,-1.9471208216418534,-1.730500481740197,2.5766074940369865,-3.825312023503381,-1.1402713495980732,-5.271333056174382,-0.0029237690939453997,0.0006227242030602476,0.00010269399610688525,0.00900790086537722,0.01043572207067332,0.022923299843818568,-0.2456406056880951,-0.5933139324188232,-0.7562572360038757,-0.41262948513031,0.0881912559270858,0.0562092810869216
1749032080.942742,-1.947125208996214,-1.730497968487403,2.5766066545038138,-3.8252933252080714,-1.1402506154670387,-5.271301765427835,-0.0033932712140724865,0.0008714329747723455,-1.7310536080164226e-05,0.009815014824632323,0.011546648353892101,0.024154297900731148,-0.2738787829875946,-0.5934079885482788,-0.7735376358032227,-0.3845857381820678,0.1055166870355606,0.1037452965974807
1749032080.942779,-1.9471305974428634,-1.7304947925495304,2.576605788884626,-3.825273204664543,-1.1402278135762987,-5.271267736649678,-0.0038901340533487026,0.0011476560894643334,-0.00017042716175407407,0.010548213538562822,0.012537735553730044,0.02552206074220483,-0.2738787829875946,-0.5934079885482788,-0.7735376358032227,-0.3845857381820678,0.1055166870355606,0.1037452965974807
1749032080.9428155,-1.9471371511487245,-1.730491007633216,2.5766048318146146,-3.825251734546808,-1.1402031783549278,-5.271230233047403,-0.004410335064583249,0.0014523620919765976,-0.00036563948408666356,0.011205261220925383,0.013391105281949218,0.027050120848539916,-0.2662606239318847,-0.5789864659309387,-0.7975775599479675,-0.3969060182571411,0.0938531905412674,0.0881277099251747
1749032080.9428537,-1.947145017436518,-1.7304866659763138,2.5766036952762628,-3.8252289888134503,-1.1401769780956845,-5.271188470648783,-0.004949224004695214,0.0017857963729562098,-0.0006104224867296704,0.011790791366114278,0.014099748675595769,0.028751866021282407,-0.2632058262825012,-0.5551370978355408,-0.8061694502830505,-0.3846921622753143,0.0948700755834579,0.100418247282505
1749032080.942894,-1.947154315882268,-1.7304818097191426,2.5766022717986723,-3.825205038070067,-1.140149490173461,-5.27114166731024,-0.005501694653792583,0.0021473744680209697,-0.0009104104778856447,0.012315703028988937,0.01466791123245451,0.030630016365264048,-0.2565071582794189,-0.5694590210914612,-0.8120940923690796,-0.3870437443256378,0.0895911902189254,0.1289806067943573
1749032080.9429317,-1.94716512894091,-1.7304764664061938,2.5766004382749563,-3.8251799443299954,-1.1401209776722308,-5.271089094320634,-0.006062381780747384,0.002535546667933799,-0.0012691800522051206,0.012795948640600944,0.015110438268636265,0.03267701760279735,-0.2953420281410217,-0.5272848606109619,-0.8364633917808533,-0.3784100115299225,0.1042500287294387,0.1221805661916732
1749032080.9429684,-1.9471774950677858,-1.7304706488535024,2.5765980602990424,-3.8251537556986572,-1.1400916698832544,-5.271030126065186,-0.006625847301642306,0.002947692528646654,-0.0016881161808275894,0.013250845224776037,0.015451168831770074,0.03487620198017381,-0.2953420281410217,-0.5272848606109619,-0.8364633917808533,-0.3784100115299225,0.1042500287294387,0.1221805661916732
1749032080.9430048,-1.947191405138458,-1.7304643582229777,2.5765949970579705,-3.825126502108582,-1.1400617482838071,-5.270964283525444,-0.0071867236706699075,0.003380102761697507,-0.002166328689592657,0.013701104049556972,0.015720594985215344,0.037203488778952486,-0.2804097533226013,-0.5221988558769226,-0.8593187928199768,-0.3708571791648865,0.0939044505357742,0.1366413533687591
1749032080.9436731,-1.9472068027129206,-1.730457588307312,2.576591106833629,-3.8250981932345924,-1.1400313381957485,-5.270891267546691,-0.007739796845182204,0.00382808079150311,-0.0027006072923335366,0.014166811085824356,0.015953092278964156,0.0396293796693903,-0.2879142463207245,-0.523987889289856,-0.8833316564559937,-0.3727631270885467,0.0892225354909896,0.1593121141195297
1749032080.945645,-1.9472235884435045,-1.7304503291674822,2.5765862530328567,-3.825068819013326,-1.1400005050402378,-5.270810977930923,-0.008280033149837322,0.004286164037893458,-0.0032854354782529665,0.014665597338816982,0.016184054741690875,0.04212104950687884,-0.2980625331401825,-0.5160494446754456,-0.8821707963943481,-0.3423913121223449,0.1282778233289718,0.1597097814083099
1749032080.9862587,-1.9472416286306549,-1.730442569123624,2.576580310472921,-3.8250383521500955,-1.1399692536260797,-5.270723515229205,-0.008802579108570817,0.0047484420997119196,-0.003913104960351093,0.01521121430572984,0.01644723662958505,0.044644401042401645,-0.2913249135017395,-0.4974097609519958,-0.9052739143371582,-0.3310176134109497,0.1301981955766677,0.1477335095405578
1749032080.9863048,-1.9472607673754938,-1.7304342950248823,2.5765731715050895,-3.8250067512408767,-1.1399375292231675,-5.270629164030867,-0.009302779565346649,0.005208940952126737,-0.004573966608671849,0.015812679428760728,0.01677253309682389,0.04716600236528676,-0.3082770109176636,-0.4678381085395813,-0.9013550281524658,-0.3216729760169983,0.1226011663675308,0.1757795214653015
1749032080.9863496,-1.9472808410126974,-1.7304254912361987,2.576564751482258,-3.82497396308711,-1.1399052198092534,-5.270528359211359,-0.009776252874939568,0.005662040674573332,-0.005256822861209016,0.01647408233240003,0.017184341734706506,0.049654844522183,-0.3020747601985931,-0.4920638799667358,-0.904855489730835,-0.2931997179985046,0.1188239008188247,0.1696114689111709
1749032080.986388,-1.9473016929288745,-1.7304161378922618,2.57655499308232,-3.8249399233725776,-1.1398721595385823,-5.270421639267395,-0.01021903030810825,0.006102887550351806,-0.005949429499592286,0.017195045191897847,0.01770055140978414,0.05208385049684065,-0.3029163181781769,-0.4575633406639099,-0.91727614402771,-0.3041516542434692,0.1692025512456894,0.1872044950723648
1749032080.9864256,-1.9473231867532073,-1.7304062089409151,2.5765438691421267,-3.824904555720144,-1.1398381341463009,-5.270309592924777,-0.010627727412305403,0.006527749502470059,-0.006639053896393624,0.017971717643196886,0.018332120924887653,0.054431052316226275,-0.3029163181781769,-0.4575633406639099,-0.91727614402771,-0.3041516542434692,0.1692025512456894,0.1872044950723648
1749032080.9864635,-1.9473452161315932,-1.7303956704784684,2.5765313838747943,-3.8248677698809663,-1.1398028894963539,-5.270192806113275,-0.010999692219453287,0.006934258974046076,-0.007313042464368104,0.018798086625746432,0.01908315355686953,0.05668035214656069,-0.2870291471481323,-0.465657889842987,-0.9140942692756652,-0.3180956244468689,0.1601310223340988,0.1889156103134155
1749032080.9865012,-1.947367709693438,-1.7303844799079462,2.576517572422291,-3.8248294602102773,-1.1397661443583946,-5.27007181581989,-0.011333081640484003,0.007321500393225523,-0.007959372245945742,0.01966733467275075,0.01995134960264139,0.05882181247116274,-0.273959219455719,-0.4486887454986572,-0.9172434210777284,-0.304976224899292,0.1685578376054763,0.1931287497282028
1749032080.986538,-1.947390630459228,-1.7303725865327453,2.576502498614403,-3.824789505597346,-1.1397276075981932,-5.269947075671046,-0.011626847036578658,0.00768992788120116,-0.008567179163088922,0.02057300605227418,0.020928720896861663,0.06085147674643031,-0.2898768782615661,-0.467701256275177,-0.9299750924110411,-0.2870297729969024,0.1814389824867248,0.174962967634201
1749032080.986575,-1.9474139698404542,-1.7303599341797042,2.576486250902343,-3.824747771749837,-1.1396869987458966,-5.269818936282697,-0.01188064432686405,0.008041129917046795,-0.009127254997672155,0.02150981966495338,0.022002469086869543,0.06277078528614431,-0.2628786563873291,-0.4081811010837555,-0.9375842213630676,-0.2922212481498718,0.1893495023250579,0.1920653730630874
1749032080.9866123,-1.9474377372418987,-1.7303464660555978,2.5764689369303677,-3.8247041163075597,-1.1396440700130963,-5.269687641721188,-0.012094706023689365,0.008377479796044545,-0.009632492161793238,0.022474062748607207,0.023155957661436837,0.06458570470012512,-0.2628786563873291,-0.4081811010837555,-0.9375842213630676,-0.2922212481498718,0.1893495023250579,0.1920653730630874
1749032080.9866495,-1.9474619468123433,-1.7303321312195175,2.576450677748394,-3.824658396651233,-1.1395986274097827,-5.269553341176613,-0.012269716777060999,0.008701720055502803,-0.010078244212924548,0.023463584102126754,0.0243697422319644,0.06630572638299291,-0.2771948277950287,-0.4015487134456634,-0.9372946619987488,-0.2788337767124176,0.1880303621292114,0.1842058897018432
1749032080.9866862,-1.9474866032476204,-1.7303168911819113,2.576431602662958,-3.824610479420906,-1.1395505482447867,-5.269416111802591,-0.012406725435186373,0.009016527196871068,-0.010462567402830466,0.024477472192663195,0.025622655509471768,0.06794290218401942,-0.279281884431839,-0.4178612530231476,-0.9298437833786012,-0.256265252828598,0.2180701196193695,0.1849764138460159
1749032080.986724,-1.947511688925012,-1.7303007248331836,2.5764118450457176,-3.8245602498583526,-1.1394997917907352,-5.269275985584937,-0.012507113547279921,0.009324095724008708,-0.010786312264721858,0.025515548931178016,0.026892960494716487,0.06951106279012736,-0.279281884431839,-0.4178612530231476,-0.9298437833786012,-0.256265252828598,0.2180701196193695,0.1849764138460159
1749032080.9867604,-1.9475371548850813,-1.7302836304752742,2.576391538568018,-3.824507618613432,-1.139446399925023,-5.269132971845589,-0.01257262777165567,0.00962577550709633,-0.011053044030379829,0.026577825746857027,0.028159578201997746,0.0710253093671873,-0.2945621311664581,-0.380771666765213,-0.9487830996513368,-0.2639118432998657,0.199589192867279,0.1700033247470855
1749032080.9867969,-1.9475629180088019,-1.7302656248958461,2.5763708129710197,-3.8244525240772616,-1.1393904860022979,-5.268987068776968,-0.01260547098838647,0.009921795858488876,-0.01126878759616311,0.027664048203391634,0.029403361158956604,0.07250179982095625,-0.3011915981769562,-0.3583936393260956,-0.9636878371238708,-0.2278206944465637,0.2144233882427215,0.1911412924528122
1749032080.9868329,-1.9475888659598666,-1.7302467405548294,2.5763497888787152,-3.8243949296841104,-1.1393322130282928,-5.26883826190325,-0.012608430447262365,0.010211107673290663,-0.011441612806703283,0.028773404319134104,0.03060832873945454,0.07395777875103927,-0.2919375896453857,-0.373639315366745,-0.9621842503547668,-0.2487078011035919,0.2095802873373031,0.19545279443264
1749032080.986869,-1.9476148698241555,-1.730227022495038,2.5763285719727866,-3.8243348173746337,-1.1392717652451025,-5.268686512711786,-0.012585002143647559,0.0104913676323823,-0.011581093542544083,0.02990440869964234,0.0317627313096081,0.07541172089289759,-0.2982169389724731,-0.3555842041969299,-0.9854506254196168,-0.2350687235593795,0.2135867625474929,0.1643808484077453
1749032080.986905,-1.947640801979778,-1.7302065263217905,2.576307247445053,-3.824272179628591,-1.139209319090883,-5.268531744496885,-0.012539457213972885,0.010759079108390145,-0.011697688062479658,0.03105492332407309,0.03285979839949954,0.07688338011230414,-0.2982169389724731,-0.3555842041969299,-0.9854506254196168,-0.2350687235593795,0.2135867625474929,0.1643808484077453
1749032080.9869409,-1.9476665546241565,-1.7301853176993172,2.5762858756754317,-3.8242070125897585,-1.139145019357036,-5.268373833071247,-0.012476798525294612,0.011009895329626686,-0.011802096480494576,0.0322222535234155,0.03389806051881976,0.07839350268693447,-0.2859103679656982,-0.3612580895423889,-0.9581312537193298,-0.2306714802980423,0.2233345806598663,0.1714968681335449
1749032080.9869769,-1.947692054011713,-1.7301634727659276,2.5762644896738496,-3.824139311942345,-1.1390789643805606,-5.268212607272569,-0.012402578223508487,0.011239075922694814,-0.011904648809860124,0.03340326409253533,0.034881195975631,0.07996302366844535,-0.2691937088966369,-0.3522503972053528,-0.9807748198509216,-0.2302664965391159,0.2428697049617767,0.2064285278320312
1749032080.987694,-1.9477172671401595,-1.7301410782488411,2.5762430942897336,-3.824069072027408,-1.139011201229303,-5.268047859671535,-0.012322584442648688,0.01144206108953036,-0.012014762876403838,0.03459447605257919,0.035817415387050994,0.08161171544201898,-0.288001149892807,-0.360872209072113,-0.9773018956184388,-0.1996488571166992,0.2276623398065567,0.2045744657516479
1749032080.989638,-1.9477422001620661,-1.730118230216956,2.576221666796061,-3.8239962879037166,-1.1389417292811252,-5.2678793641179125,-0.012242444244199123,0.011615092196614574,-0.012140495132212279,0.03579210738807156,0.03671843839500577,0.08335642637867084,-0.2975005507469177,-0.3413171768188476,-0.9841368198394777,-0.2402627021074295,0.2444649785757064,0.2142234444618225
1749032081.0302584,-1.9477668897604634,-1.730095031154365,2.5762001583793666,-3.823920959811197,-1.1388705092125724,-5.2677068954701065,-0.012167216224586178,0.011755780741032926,-0.012288198612772507,0.03699201057663598,0.037598137938981514,0.08520915122488923,-0.2775567173957824,-0.3384036421775818,-0.99431711435318,-0.2121804058551788,0.2463171184062957,0.220595121383667
1749032081.0303044,-1.94779138969004,-1.7300715857546853,2.5761784963342262,-3.8238430994414383,-1.1387974743633746,-5.267530247834654,-0.012101051476257408,0.01186352616157149,-0.012462298718675865,0.03818945846014521,0.038470944792910966,0.0871751880202656,-0.2803818583488464,-0.3253684043884277,-0.9777573347091676,-0.2348115742206573,0.2387176305055618,0.2233135253190994
1749032081.030347,-1.9478157551092317,-1.7300479961245132,2.5761565871465044,-3.823762737242867,-1.1387225422563843,-5.267349249517161,-0.01204698364234858,0.011939708374764591,-0.012665191178681676,0.039378760656096704,0.03935014055390348,0.08925159743337621,-0.2638847529888153,-0.3268604278564453,-0.9949603080749512,-0.2118803113698959,0.249342992901802,0.1957928836345672
1749032081.0303864,-1.947840027639147,-1.7300243570617753,2.5761343208539955,-3.8236799296625708,-1.1386456250139165,-5.267163774417773,-0.012006874441562426,0.011987623737533362,-0.012897256997122604,0.04055275725089888,0.040246219862941975,0.09142614004719067,-0.3123278319835663,-0.3320649266242981,-1.0108156204223633,-0.2372130453586578,0.2801178395748138,0.2182049751281738
1749032081.0304248,-1.9478642241487547,-1.7300007519703915,2.5761115769621945,-3.8235947649615465,-1.138566638167112,-5.266973750286164,-0.01198150551377239,0.012012182933818848,-0.013156982185888762,0.04170231238000458,0.041165539677642214,0.09367684272847684,-0.2979254424571991,-0.3501550555229187,-0.994350016117096,-0.2075451910495758,0.2982866466045379,0.2097228169441223
1749032081.0304673,-1.947888331690803,-1.7299772497739352,2.5760882318372276,-3.8235073663174832,-1.1384855079395895,-5.266779164232952,-0.011970783723009028,0.012019434028872785,-0.01344116747612535,0.04281597918108374,0.0421094555119611,0.09597232164249028,-0.2650060355663299,-0.3101978302001953,-1.0068494081497192,-0.2097790539264679,0.2831114530563354,0.2100593745708465
1749032081.0305057,-1.9479123097096245,-1.7299539028690405,2.576064167071882,-3.823417891414148,-1.1384021773922812,-5.266580065630732,-0.011974015616473474,0.012016000232565882,-0.01374521209994691,0.04387999523304534,0.04307406074645042,0.09827294610232107,-0.2901805937290191,-0.3239224255084991,-1.0107409954071045,-0.2248524278402328,0.2887831330299377,0.2182505577802658
1749032081.030543,-1.9479360989992869,-1.7299307459085516,2.576039277990293,-3.823326528350232,-1.1383166116463888,-5.266376566390724,-0.011990201293586107,0.012008523676593823,-0.014063455023763691,0.04487869017619053,0.0440505256809758,0.10053285702684425,-0.286736249923706,-0.299757182598114,-1.013179063796997,-0.2349360585212707,0.303397387266159,0.2296520769596099
1749032081.0305798,-1.9479596355135584,-1.7299077952003226,2.5760134813247872,-3.8232334882544814,-1.138228802027343,-5.266168838674543,-0.012018297393879666,0.012003187354256258,-0.014389557709448511,0.045795281120782814,0.04502592846494418,0.10270276265234861,-0.2445729970932006,-0.3073392510414123,-1.0255472660064695,-0.2436888068914413,0.2918674945831299,0.2174960821866989
1749032081.0306163,-1.947982866371404,-1.7298850486611175,2.575986721238733,-3.823138995581301,-1.1381387689856928,-5.265957110429544,-0.01205740682916023,0.012005354440776134,-0.014716912355779259,0.04661294710222187,0.045984412255770296,0.10473333299928632,-0.2841299474239349,-0.309323787689209,-1.041674256324768,-0.2383466362953186,0.2856156826019287,0.2121674865484237
1749032081.030655,-1.9480057651655383,-1.7298624864382053,2.575958973288494,-3.823043277827225,-1.1380465642495707,-5.265741659790566,-0.012106869196674305,0.01201932701668437,-0.01503905350226043,0.047316036761383566,0.046908489119988475,0.10657891313960403,-0.2942222654819488,-0.3332551419734955,-1.020155668258667,-0.253190815448761,0.2914040684700012,0.2169946581125259
1749032081.030692,-1.9480283437813808,-1.7298400725012912,2.575930246376137,-3.822946557009196,-1.137952273376882,-5.26552281006054,-0.012166245935131942,0.012048199275622165,-0.015350039185818674,0.047891265438436005,0.04778032889025487,0.10820118730520498,-0.2942222654819488,-0.3332551419734955,-1.020155668258667,-0.253190815448761,0.2914040684700012,0.2169946581125259
1749032081.0307283,-1.9480506584936275,-1.7298177576301743,2.5759005828352857,-3.8228490450029997,-1.1378560198605425,-5.265300926736065,-0.012235215174745233,0.012093777044831038,-0.015644761188303893,0.04832878096396529,0.04858292093233053,0.1095723755513649,-0.3026033639907837,-0.300236701965332,-1.0416018962860107,-0.2644721567630768,0.3055813908576965,0.1968977153301239
1749032081.0307658,-1.9480728093231205,-1.729795484056648,2.5758700564383785,-3.822750943567518,-1.1377579706789482,-5.265076416332748,-0.012313412713095034,0.012156555359501966,-0.015919154104784724,0.04862301163657495,0.049301073460164276,0.11067756071308658,-0.2939331829547882,-0.2885436415672302,-1.038099765777588,-0.2565060257911682,0.3353340327739715,0.1869573891162872
1749032081.030803,-1.9480949331854094,-1.7297731915080072,2.5758387677775803,-3.8226524482825988,-1.1376583412464005,-5.264849724603071,-0.012400273438192595,0.012235770922913494,-0.0161702982117978,0.0487732469915487,0.04992228380233331,0.11151584363542201,-0.2972719073295593,-0.278828501701355,-1.0380812883377075,-0.2554234862327575,0.3196228742599487,0.1892378479242324
1749032081.0308402,-1.9481171924316698,-1.7297508237374748,2.5758068366422813,-3.822553754604671,-1.1375573965250307,-5.264621330838718,-0.012494931273727103,0.01232955434566411,-0.016396435813886907,0.04878393003990624,0.05043752828579319,0.11210020037549914,-0.2950374186038971,-0.2649036049842834,-1.0443195104599,-0.258116751909256,0.2985850572586059,0.1993951648473739
1749032081.0308769,-1.9481397605194,-1.7297283340864238,2.5757743917016107,-3.8224550639819617,-1.1374554455130557,-5.26439173574849,-0.012596219392267332,0.012435189745685542,-0.016596930779556728,0.04866465363792996,0.05084197127643109,0.11245611865057686,-0.3053998351097107,-0.2931177914142608,-1.0615051984786987,-0.2708617448806762,0.2923977375030517,0.1930358856916427
1749032081.030914,-1.9481628061790406,-1.729705688543216,2.575741558622805,-3.822356588034414,-1.137352828014292,-5.264161441975572,-0.012702783114466092,0.0125494575646011,-0.0167721946014541,0.048429861388134016,0.05113551988884198,0.11261925206323097,-0.2911038398742676,-0.2672068476676941,-1.0398820638656616,-0.2691524028778076,0.2939082980155945,0.1909582614898681
1749032081.030951,-1.948186477261347,-1.7296828654208847,2.5757084482888346,-3.822258548917827,-1.1372498945052778,-5.263930927910859,-0.012813287738584879,0.012669009998228127,-0.0169235875202457,0.048098264990543996,0.051323111390451676,0.11263241035762059,-0.3120840191841125,-0.2799999415874481,-1.0422674417495728,-0.2760157883167267,0.3129036128520965,0.2045039236545562
1749032081.0309875,-1.948210885649281,-1.7296598519758017,2.575675146820527,-3.822161174410904,-1.1371469814363349,-5.263700617125777,-0.012926679568603543,0.012790720991328408,-0.017053290791231107,0.04769200820000081,0.051414638993954216,0.11254221962166533,-0.2798621356487274,-0.2911228835582733,-1.0469956398010254,-0.2743148803710937,0.2990153729915619,0.2078797072172165
1749032081.0317345,-1.9482360949440978,-1.729636639349912,2.5756417088108736,-3.8220646873823796,-1.1370443853825385,-5.263470847649148,-0.013042443835360516,0.012911964736339054,-0.017164144117201997,0.04723563118552327,0.05142447766840668,0.11239576955539561,-0.2932110726833343,-0.2550954222679138,-1.061179280281067,-0.2493937909603119,0.3009186685085296,0.1967001408338546
1749032081.0337036,-1.9482621128226347,-1.7296132175735242,2.57560815479326,-3.821969290953505,-1.1369423401104513,-5.263241846893945,-0.013160801370425943,0.013030798341308249,-0.01725945060075022,0.04675491516912179,0.051370628825973576,0.11223752348143531,-0.2932110726833343,-0.2550954222679138,-1.061179280281067,-0.2493937909603119,0.3009186685085296,0.1967001408338546
1749032081.0782938,-1.9482888897879582,-1.7295895720020977,2.5755744734720034,-3.821875151922354,-1.136841000473338,-5.263013717949889,-0.013282798393031108,0.013146045843664935,-0.0173427612245911,0.046275707374406436,0.051273543330804874,0.11210670536341052,-0.3047132194042206,-0.2489745616912841,-1.0653176307678225,-0.2608194947242737,0.3034371137619018,0.2078726142644882
1749032081.0783398,-1.948316325244195,-1.7295656818708123,2.575540628487906,-3.821782384984854,-1.136740435657487,-5.262786440317178,-0.013410267257990577,0.013257297573512692,-0.01741765299536483,0.045822828131593746,0.051154711120730265,0.11203531859017435,-0.2983119785785675,-0.2481551170349121,-1.0472900867462158,-0.2601966559886932,0.2971925139427185,0.2270387560129165
1749032081.07838,-1.948344280395638,-1.7295415210630454,2.575506568602593,-3.8216910393221517,-1.1366406320764941,-5.262559884204943,-0.013545662554134136,0.013364848792343644,-0.017487511201480704,0.04541914022918046,0.051035132162193485,0.11204690852719774,-0.3095843195915222,-0.239664152264595,-1.0592643022537231,-0.2428697645664215,0.3138974606990814,0.2197928130626678
1749032081.0784192,-1.9483725958962101,-1.7295170608745989,2.5754722395444163,-3.8216010884781935,-1.1365415043594966,-5.262333834883119,-0.013691797924867783,0.013469602055492188,-0.01755532598265512,0.04508482329411763,0.05093380505237121,0.11215614216642238,-0.319319486618042,-0.2414774000644683,-1.0738521814346311,-0.2431981265544891,0.3167167603969574,0.2382073402404785
1749032081.0784566,-1.9484011112289543,-1.7294922743206347,2.575437595593936,-3.821512424657385,-1.1364429121083204,-5.262108023297955,-0.013851520036637324,0.013572949639313209,-0.017623520522036782,0.04483685787448626,0.05086637578674821,0.11236922404996631,-0.319319486618042,-0.2414774000644683,-1.0738521814346311,-0.2431981265544891,0.3167167603969574,0.2382073402404785
1749032081.0784943,-1.9484296829203742,-1.7294671411139444,2.575402609203388,-3.8214248588075184,-1.1363446799389962,-5.26188215953855,-0.014027358414546267,0.013676641558906086,-0.01769383554517796,0.0446887001681186,0.05084407582106538,0.11268509516599935,-0.2939766049385071,-0.262818843126297,-1.0740879774093628,-0.2437587529420852,0.3200685083866119,0.2332424521446228
1749032081.078532,-1.9484581996560206,-1.7294416519760845,2.5753672773038208,-3.8213381271628974,-1.136246618134749,-5.261655964853459,-0.01422118706929743,0.013782638382623969,-0.017767292109954553,0.04465013085660811,0.050873052015110214,0.11309727639735408,-0.2803817689418793,-0.2554282248020172,-1.0598894357681274,-0.2336900234222412,0.3016255795955658,0.2395355254411697
1749032081.0785694,-1.9484865934264586,-1.7294158108635782,2.5753316233476933,-3.8212519034686565,-1.1361485411972796,-5.261429196377639,-0.014433929901886336,0.013892949889894361,-0.017844239884738922,0.04472728691504027,0.05095416018614138,0.11359612581302807,-0.2837862074375152,-0.2181790769100189,-1.061916708946228,-0.2166746407747268,0.3338919579982757,0.2103938907384872
1749032081.0786066,-1.94851484634504,-1.7293896341372348,2.5752956946648515,-3.8211658148316134,-1.1360502821747858,-5.261201658833576,-0.014665340141746802,0.014009468814472289,-0.017924480321754744,0.044922906125054375,0.05108326221960598,0.11417120210540024,-0.3060968220233917,-0.2532715797424316,-1.0777045488357544,-0.2193187475204467,0.3143637478351593,0.2322507202625274
1749032081.078643,-1.9485429927049371,-1.7293631463931776,2.5752595554496,-3.8210794586764742,-1.1359517017145675,-5.260973200171639,-0.014913884237335888,0.014133817119927719,-0.018007444713438285,0.04523679634539515,0.05125202995359337,0.1148134048383873,-0.3134317398071289,-0.2206973880529403,-1.089848279953003,-0.2113809883594513,0.323097288608551,0.212245762348175
1749032081.0786798,-1.9485711157398942,-1.729336373418056,2.575223276502613,-3.820992418653672,-1.1358526917357128,-5.260743692310607,-0.015176756677996618,0.014267223240161992,-0.018092408197997525,0.04566647870065546,0.0514492094065747,0.1155166125245724,-0.2932396233081817,-0.2266236543655395,-1.0712276697158811,-0.2197364568710327,0.3293597400188446,0.2554607987403869
1749032081.0787165,-1.9485993389634726,-1.7293093335705965,2.5751869235424456,-3.8209042783409766,-1.135753174189522,-5.260513002387253,-0.015450037042055732,0.014410440288084168,-0.01817872375357812,0.04620787693680469,0.05166223425952838,0.1162786335438877,-0.3263366222381592,-0.2261686623096466,-1.065085768699646,-0.1996662318706512,0.3111699819564819,0.2273611724376678
1749032081.078753,-1.9486278128424803,-1.7292820296508316,2.575150546414667,-3.8208146328502064,-1.135653095724757,-5.26028096311405,-0.015728973866434095,0.014563703634037587,-0.01826605659004894,0.04685587749591098,0.05187901045093081,0.11710138582743217,-0.3263366222381592,-0.2261686623096466,-1.065085768699646,-0.1996662318706512,0.3111699819564819,0.2273611724376678
1749032081.0787892,-1.9486566984304226,-1.7292544434699477,2.5751141716756227,-3.82072309935698,-1.1355524193156972,-5.260047351555895,-0.016008351245564014,0.014726721551827653,-0.018354590657860437,0.04760459169819412,0.052089647551173256,0.117990319921619,-0.3242990672588348,-0.2036478519439697,-1.0666691064834597,-0.2139845192432403,0.3092877268791199,0.2403700947761535
1749032081.0788257,-1.948686150106659,-1.7292265345689473,2.575077800410708,-3.820629327601591,-1.1354511141057113,-5.259811882879013,-0.016282876858968547,0.014898698572385136,-0.0184451739327981,0.048447214998277546,0.05228790587540845,0.11895320113146834,-0.3164862096309662,-0.2071719765663147,-1.0751293897628784,-0.2031888514757156,0.3110962510108948,0.2464623004198074
1749032081.0788617,-1.9487162997146663,-1.7291982432349147,2.5750414116897353,-3.8205330108068796,-1.13534914503811,-5.259574220550285,-0.01654753285525884,0.015078399958103617,-0.018539373292734248,0.04937548682746175,0.052472164453715386,0.11999845981452072,-0.2992703318595886,-0.2082095146179199,-1.0749223232269287,-0.1878354996442794,0.2869958877563476,0.2344846725463867
1749032081.078898,-1.948747244192704,-1.7291694968811673,2.5750049703739952,-3.820433896932779,-1.1352464642249602,-5.259333999807829,-0.016797852741541407,0.015264265099831776,-0.018639422008541653,0.05037888422330229,0.05264578530431123,0.12113338012775007,-0.3141992092132568,-0.2220633029937744,-1.0735044479370115,-0.1851528882980346,0.3128312826156616,0.2479059547185897
1749032081.0789354,-1.9487790381687113,-1.7291402184160243,2.574968436825348,-3.8203317999496114,-1.1351430059479963,-5.259090858751767,-0.01703011825623437,0.01545456392631519,-0.018748059900246163,0.05144379267274163,0.052816840820781835,0.12236240859379287,-0.3077730536460876,-0.2100556790828704,-1.0673199892044067,-0.1804679334163665,0.2898494005203247,0.2326424717903137
1749032081.0789714,-1.9488116920181584,-1.7291103352834516,2.5749317757371397,-3.820226610500568,-1.1350386864151156,-5.258844470982674,-0.017241494964992422,0.015647572003238186,-0.018868285751418537,0.052552938552941714,0.05299726728082173,0.12368582520779377,-0.3267498612403869,-0.2113400101661682,-1.0885010957717896,-0.1695321798324585,0.3214879035949707,0.2551659345626831
1749032081.0790076,-1.9488451749818545,-1.7290797880567448,2.5748949617740435,-3.8201183048013903,-1.134933408307866,-5.258594574524735,-0.017430131408083843,0.01584172841160328,-0.01900306005881399,0.05368531090513703,0.05320158913462756,0.12509894491687326,-0.330452024936676,-0.2115334123373031,-1.0933842658996582,-0.1738702058792114,0.3089727759361267,0.2544568479061126
1749032081.079044,-1.9488794224693073,-1.729048537611963,2.5748579808154024,-3.8200069502384277,-1.1348270692212672,-5.258340993290804,-0.017595232694737225,0.016035740770470264,-0.019155007646681245,0.054816668243007,0.0534454092464427,0.12659192242099518,-0.3009784519672394,-0.2207707017660141,-1.0915759801864624,-0.2021383941173553,0.3317264318466186,0.255957543849945
1749032081.07908,-1.9489143464394822,-1.729016570032215,2.574820826981193,-3.8198927061878845,-1.1347195722736796,-5.258083649236512,-0.01773709785366014,0.016228612148376,-0.019326168831416333,0.055920580714586485,0.05374387143656426,0.12815013514768092,-0.295477956533432,-0.1800632029771804,-1.0824224948883057,-0.2110167890787124,0.3330236971378326,0.2251769006252288
1749032081.079653,-1.9489498474432678,-1.728983898613438,2.5747834967202956,-3.8197758190415216,-1.1346108363156457,-5.257822565081396,-0.017857099366623615,0.016419581936735806,-0.01951783407448997,0.056969856228638344,0.05411027166749816,0.12975503962535256,-0.3062143623828888,-0.2166962921619415,-1.0970091819763184,-0.2173199653625488,0.324352353811264,0.2245241403579712
1749032081.0816765,-1.9489858266996865,-1.7289505627623853,2.574745981646303,-3.819656611070862,-1.1345008026914671,-5.257557858441702,-0.017957592443980475,0.016607994497224877,-0.019730474774423853,0.05793816077025727,0.05455492825166002,0.13138535885692088,-0.3121857047080993,-0.1920753717422485,-1.09875750541687,-0.2260257452726364,0.3291743099689483,0.2218406647443771
1749032081.1222892,-1.9490221967543155,-1.7289166241806828,2.5747082615829413,-3.8195354634620147,-1.1343894360773752,-5.25728972826034,-0.01804176220183698,0.01679313124309296,-0.019963758819933886,0.058801654367199155,0.05508434344876485,0.13301846746946608,-0.3209203481674194,-0.2123067677021026,-1.0949171781539917,-0.2370584607124328,0.3213863372802734,0.2491320967674255
1749032081.1223347,-1.9490588896994296,-1.7288821612818315,2.574670298866153,-3.8194127945771648,-1.1342767186610394,-5.257018434076533,-0.01811343190336642,0.016974056665094175,-0.020216622060448858,0.059540499443376485,0.05570063990820348,0.13463186951069275,-0.2956193089485168,-0.207029789686203,-1.0938352346420288,-0.2191319167613983,0.3516548275947571,0.2347042858600616
1749032081.122376,-1.949095862263194,-1.7288472629903782,2.5746320346795075,-3.819289035176394,-1.1341626391258675,-5.256744268799816,-0.018176856367529866,0.017149529528787604,-0.020487364402637993,0.06014013538041614,0.0564012586182645,0.13620467672412367,-0.3127950429916382,-0.1940898895263672,-1.1055816411972046,-0.2536092400550842,0.3405216634273529,0.2384296804666519
1749032081.1224146,-1.9491330971834948,-1.7288120228231463,2.574593388025942,-3.81916460280696,-1.1340471796005267,-5.2564675267145535,-0.01823651631902536,0.01731801451121275,-0.020773753300211965,0.06059223920740173,0.05717893566595777,0.13771898758826154,-0.2939389944076538,-0.2023455202579498,-1.1033598184585571,-0.2473723739385604,0.3484078645706177,0.2600344121456146
1749032081.122453,-1.9491706003910654,-1.7287765336454692,2.5745542576937415,-3.81903987778647,-1.133930304481314,-5.2561884702859905,-0.018296921082952028,0.017477801413274683,-0.02107313621223197,0.06089530746721225,0.058021985554654563,0.13916105214961336,-0.2907121181488037,-0.1915218830108642,-1.106115698814392,-0.2521663904190063,0.3407490253448486,0.2458591312170028
1749032081.1224916,-1.9492083940079445,-1.728740883096931,2.574514527304712,-3.8189151833361983,-1.1338119549189207,-5.255907301382029,-0.018362423767358416,0.017627207879359248,-0.0213825692865271,0.06105481072506071,0.058914888523857775,0.1405220914623793,-0.3214616775512695,-0.1899143010377884,-1.0766468048095703,-0.2827810943126678,0.327474296092987,0.1931142807006836
1749032081.1225288,-1.9492465062027735,-1.7287051496140058,2.574474073318649,-3.818790772424757,-1.1336920517918674,-5.255624143677643,-0.01843705409571538,0.017764816999984563,-0.02169895580337093,0.06108290363388432,0.05983912957338042,0.14179863693529957,-0.3214616775512695,-0.1899143010377884,-1.0766468048095703,-0.2827810943126678,0.327474296092987,0.1931142807006836
1749032081.1225655,-1.949284960126026,-1.7286693990704864,2.574432775527432,-3.8186668231475265,-1.1335705079153402,-5.255339041635519,-0.01852437495672229,0.017889691568663397,-0.022019169706451715,0.06099772026198763,0.06077420660467165,0.14299230103075136,-0.3153684735298157,-0.186378613114357,-1.0903031826019287,-0.2724148035049438,0.3447717428207397,0.2539574205875397
1749032081.1226025,-1.9493237646090367,-1.7286336819916335,2.57439052890503,-3.8185434425148084,-1.133447247243433,-5.255051976789995,-0.01862736604337196,0.018001516284051583,-0.022340140139419307,0.06082233189691062,0.061698737725859015,0.1441090143842318,-0.3082382082939148,-0.1834446638822555,-1.1156375408172607,-0.2801549434661865,0.3354361951351166,0.2570399940013885
1749032081.12264,-1.949362908650527,-1.728598031088042,2.5743472549131634,-3.8184206760734534,-1.1333222260920062,-5.254762895992878,-0.018748333247234815,0.018100644266577072,-0.022658897516978777,0.060583478059572114,0.06259163919135799,0.14515792877717174,-0.3203252553939819,-0.1968261450529098,-1.0982953310012815,-0.2657797932624817,0.3427324295043945,0.2576392292976379
1749032081.1226776,-1.9494023605628281,-1.728562458859722,2.574302910027569,-3.8182985192969356,-1.133195450444059,-5.254471742240582,-0.018888841332093786,0.018188054030470753,-0.02297260709177571,0.06031019781217126,0.06343337090891267,0.1461502946097357,-0.3105032444000244,-0.2083252519369125,-1.0978206396102903,-0.2646202743053436,0.3665125370025635,0.2598938643932342
1749032081.1227188,-1.949442071848696,-1.7285269554911744,2.5742574896462043,-3.8181769267945453,-1.1330669847594717,-5.254178478452242,-0.019049671549366754,0.018265245029441463,-0.023278614368483053,0.060032489680252064,0.06420722000434165,0.14709860625720836,-0.3388798832893371,-0.2071313560009002,-1.0903300046920776,-0.260242760181427,0.3330250978469848,0.2671634554862976
1749032081.122757,-1.9494819854167116,-1.7284914879453834,2.5742110265206004,-3.8180558166286653,-1.1329369505544173,-5.253883097323375,-0.01923080905641171,0.01833410677395337,-0.023574499589498525,0.05978010940730369,0.06490052376045435,0.14801618525165827,-0.3226243257522583,-0.2125745117664337,-1.104047417640686,-0.2536195516586303,0.3435194492340088,0.2704259753227234
1749032081.1227937,-1.9495220470450534,-1.7284560014187293,2.574163584082161,-3.8179350687797795,-1.132805515838839,-5.253585614670958,-0.01943146141675019,0.01839678959431487,-0.023858116866197963,0.05958156595564052,0.06550567087660134,0.14891720129618363,-0.3068985939025879,-0.2025500386953354,-1.0907235145568848,-0.2573577761650085,0.3248671889305115,0.2437653392553329
1749032081.1228302,-1.9495622179879721,-1.7284204237600158,2.574115246255991,-3.817814518857066,-1.1326728782680875,-5.253286048588971,-0.019650102319187325,0.018455592299442783,-0.024127599491109302,0.05946330183790762,0.06602071330867623,0.1498169655255589,-0.3127556443214416,-0.198027104139328,-1.09803569316864,-0.2646460831165313,0.3230406045913696,0.2463575601577758
1749032081.122867,-1.949602485852255,-1.728384672478631,2.574066106314151,-3.8176939502826017,-1.1325392455851253,-5.252984391438412,-0.01988453153876569,0.018512871690316603,-0.024381333803484853,0.059448970198122154,0.06644948031992745,0.1507322102193324,-0.3013151884078979,-0.1704144924879074,-1.0871999263763428,-0.2782425582408905,0.3146916031837463,0.2458222806453704
1749032081.1229038,-1.9496428708641949,-1.7283486632808167,2.574016257637126,-3.8175730896426887,-1.132404817149927,-5.252680584762619,-0.020131945428219625,0.018570973981676026,-0.02461791349691468,0.05955868568556875,0.06680118180705384,0.15168103568888477,-0.3013151884078979,-0.1704144924879074,-1.0871999263763428,-0.2782425582408905,0.3146916031837463,0.2458222806453704
1749032081.1229398,-1.9496834255352506,-1.728312318896636,2.5739657885681675,-3.8174516097012754,-1.1322697700357454,-5.2523745066769925,-0.02038901846883521,0.01863218540145285,-0.02483608015894109,0.05980815845101177,0.06708957722750059,0.15268228118327287,-0.3006501793861389,-0.1989230513572693,-1.0711606740951538,-0.2550490498542785,0.3269546627998352,0.2303836047649383
1749032081.1229758,-1.9497242273917237,-1.7282755769778073,2.5739147819314563,-3.8173291423766944,-1.1321342516478183,-5.252065976358108,-0.020652002535076406,0.01869869512055184,-0.025034652624372353,0.06020771871535279,0.06733184045421026,0.15375424766359277,-0.3381024897098541,-0.1985024958848953,-1.1027013063430786,-0.2269311249256134,0.3196836113929748,0.2490501850843429
1749032081.123012,-1.9497653663742414,-1.7282383958206073,2.5738633179740655,-3.8172053007925117,-1.1319983782663594,-5.251754773309529,-0.020916855572121296,0.018772559889900058,-0.025212460247562997,0.06076135629976784,0.06754726013189176,0.1549129127116971,-0.3047434985637665,-0.1975550055503845,-1.0959893465042114,-0.2163180559873581,0.3107765316963196,0.2602371275424957
1749032081.1236646,-1.9498069299043357,-1.7282007567593751,2.5738114784533237,-3.817079706955579,-1.1318622368523539,-5.25144066423218,-0.021179412506498532,0.01885566155350435,-0.02536831393873425,0.06146596607228768,0.06775588966885222,0.15616995719676352,-0.3015324175357818,-0.1559305489063263,-1.076427936553955,-0.2414331883192062,0.2976438105106354,0.2740919589996338
1749032081.1257534,-1.9498489888543202,-1.728162662577545,2.5737593497227516,-3.8169520205919207,-1.131725887097836,-5.251123429636672,-0.021435603470044823,0.01894965741023025,-0.025501054612396608,0.06231097120488898,0.06797723112808984,0.15753100783962468,-0.3162280023097992,-0.1654401570558548,-1.074013113975525,-0.2436054050922393,0.3056283593177795,0.2846126854419708
1749032081.1662776,-1.9498915868551763,-1.7281241322452074,2.5737070235839647,-3.8168219650732214,-1.1315893618223547,-5.250802884776987,-0.02168170821450274,0.019055932424982085,-0.02560970312627755,0.06327841993667248,0.06822903650460309,0.15899446733527428,-0.3099234402179718,-0.1677820831537246,-1.075510025024414,-0.2449477612972259,0.3239675164222717,0.292671799659729
1749032081.1663234,-1.9499347341518483,-1.7280851934487114,2.57365459575036,-3.8166893477303945,-1.1314526654506798,-5.250478893207527,-0.02191461928009135,0.019175563015639777,-0.025693705368213318,0.06434357643733592,0.06852633664528836,0.1605511742269407,-0.314315527677536,-0.1624675393104553,-1.07197904586792,-0.2386919111013412,0.3316948413848877,0.2723483145236969
1749032081.166365,-1.9499784061429426,-1.7280458752512686,2.5736021625710372,-3.8165540735443413,-1.1313157715395,-5.250151374700448,-0.022132077146664694,0.01930929434200851,-0.025753233752171853,0.06547598659254122,0.06888081433137347,0.16218495694706622,-0.314315527677536,-0.1624675393104553,-1.07197904586792,-0.2386919111013412,0.3316948413848877,0.2723483145236969
1749032081.1664028,-1.9500225460806213,-1.7280062032300099,2.5735498169008637,-3.816416152254218,-1.13117862051441,-5.249820310500866,-0.022332838540388127,0.019457524617869506,-0.025789484172532653,0.0666409875547044,0.06930058048394712,0.16387398012225346,-0.3009600043296814,-0.1619338095188141,-1.0759756565093994,-0.2335174232721328,0.3096842169761657,0.2842617928981781
1749032081.1664436,-1.9500670711414676,-1.727966198270023,2.573497643636291,-3.8162756986909594,-1.1310411180889755,-5.249485746798829,-0.02251674505080869,0.019620288573141784,-0.02580490384088718,0.0678016142259792,0.06979030822392666,0.16559267396917154,-0.2821756601333618,-0.1702963858842849,-1.0578421354293823,-0.248320460319519,0.300381600856781,0.2560292482376098
1749032081.166482,-1.9501118810258042,-1.7279258784058336,2.5734457148875665,-3.816132925323979,-1.1309031343545275,-5.249147793840972,-0.02268467797889839,0.019797238747446384,-0.02580330189232909,0.0689208126288702,0.07035159148022602,0.16731399752731413,-0.3143588900566101,-0.1491487324237823,-1.073755979537964,-0.2588798105716705,0.2987655997276306,0.253089964389801
1749032081.1665196,-1.9501568681505659,-1.7278852618629263,2.5733940846283527,-3.8159881261237505,-1.1307645040826344,-5.248806617291877,-0.022838415564777483,0.01998763235621718,-0.025789824204641293,0.06996380906113704,0.0709833721888269,0.1690117842338059,-0.301427960395813,-0.1558228880167007,-1.074731469154358,-0.26709845662117,0.3295637369155884,0.2307438999414444
1749032081.1665566,-1.9502019282774532,-1.7278443694745258,2.5733427831004256,-3.8158416524787473,-1.1306250297868259,-5.248462421646368,-0.02298043609246532,0.02019033675706224,-0.025770804101490633,0.07090044095907326,0.07168232469753968,0.17066293409296895,-0.301427960395813,-0.1558228880167007,-1.074731469154358,-0.26709845662117,0.3295637369155884,0.2307438999414444
1749032081.1665933,-1.9502469703446033,-1.7278032256039608,2.5732918117716417,-3.81569388404639,-1.130484489189273,-5.24811542957611,-0.023113718703256635,0.02040386490048683,-0.02575351962755716,0.0717072540873925,0.07244315924507634,0.17224926730012965,-0.3301466107368469,-0.1478714644908905,-1.075284719467163,-0.2551307678222656,0.311552345752716,0.2628665864467621
1749032081.1666293,-1.950291924725505,-1.727761857794828,2.573241139743495,-3.815545198713626,-1.1303426475315919,-5.247765862412724,-0.023241581338516434,0.020626443129427997,-0.025745890188143574,0.07236919967318743,0.07325885933295982,0.17375895137482586,-0.3282022476196289,-0.1468317657709121,-1.0660254955291748,-0.2908749878406524,0.3169430196285248,0.2596663236618042
1749032081.1666665,-1.950336749947462,-1.7277202959989815,2.5731907022625506,-3.815395945908577,-1.1301992736797462,-5.247413925388595,-0.023367573266735744,0.020856100539831376,-0.025756133896148576,0.0728807993701636,0.07412087778293219,0.17518751866762705,-0.3282022476196289,-0.1468317657709121,-1.0660254955291748,-0.2908749878406524,0.3169430196285248,0.2596663236618042
1749032081.1667037,-1.9503814383739213,-1.727678572086185,2.5731404017557957,-3.81524642651582,-1.1300541580789278,-5.247059798731826,-0.02349541742167584,0.02109076029552111,-0.025792392739486216,0.07324667887572778,0.0750193025930795,0.17653853847617257,-0.307522177696228,-0.165368840098381,-1.0821433067321775,-0.2788374722003937,0.3211955726146698,0.2677745223045349
1749032081.1667404,-1.9504260211331221,-1.7276367194931102,2.573090111528272,-3.815096880612499,-1.1299071299927004,-5.246703633117932,-0.02362897706541354,0.021328317356892793,-0.025862327345498478,0.07348141370465,0.07594300211356995,0.17782396648633325,-0.3231682181358337,-0.1435497254133224,-1.0920318365097046,-0.2865486145019531,0.3262720704078674,0.2557967603206634
1749032081.1667776,-1.9504705719220405,-1.7275947719975884,2.573039681749678,-3.8149474817690368,-1.129758070972621,-5.246345545931721,-0.023772204162989488,0.021566703752530905,-0.025972690611511647,0.07360868562644465,0.0768797803618213,0.17906408623100037,-0.3168082535266876,-0.1236888766288757,-1.1054887771606443,-0.2808862328529358,0.3369931578636169,0.2649726569652557
1749032081.1668146,-1.950515208616545,-1.7275527605370777,2.5729889469359706,-3.81479833532732,-1.1296069221650429,-5.24598561499685,-0.023929022430782158,0.021803959443001977,-0.026128903094357357,0.07365979971458901,0.07781659550159005,0.1802868374653737,-0.3512797951698303,-0.165648877620697,-1.1023503541946411,-0.2998157143592834,0.3324163556098938,0.2232375741004943
1749032081.1668508,-1.950560091198663,-1.7275107078181866,2.572937734238496,-3.8146494786728575,-1.1294536852399657,-5.245623869264374,-0.02410311693999536,0.02203832734975654,-0.026334662498806914,0.07367164465707857,0.07873989501428516,0.1815262617266483,-0.3512797951698303,-0.165648877620697,-1.1023503541946411,-0.2998157143592834,0.3324163556098938,0.2232375741004943
1749032081.166888,-1.9506054147480665,-1.7274686214541586,2.572885872242624,-3.814500882817676,-1.1292984187953041,-5.245260278754911,-0.02429764158806592,0.022268371274843955,-0.02659161910245529,0.07368420021320267,0.07963610198815574,0.18281985118844968,-0.3568412661552429,-0.1381109654903412,-1.1106098890304563,-0.2974447011947632,0.3286475837230682,0.2442017346620559
1749032081.1669245,-1.9506513972902044,-1.727426486850248,2.5728331999700687,-3.8143524549340033,-1.1291412322729482,-5.24489474618831,-0.024514893384046464,0.022493092286056827,-0.026899138732978074,0.07373773153385141,0.0804922629970699,0.18420479571687068,-0.3308633267879486,-0.1367139518260955,-1.0930616855621338,-0.2796317338943481,0.3212575614452362,0.2390214800834655
1749032081.1669612,-1.950698263711509,-1.7273842611099588,2.5727795752595872,-3.814204040944823,-1.1289822780406247,-5.2445271010964305,-0.024756013909524487,0.022712012762949402,-0.027254160804310753,0.07386987262223738,0.08129684345718388,0.18571344587327762,-0.3331486284732818,-0.1692359894514084,-1.087385892868042,-0.2546635866165161,0.3182588815689087,0.2399768382310867
1749032081.1669974,-1.9507462279555021,-1.7273418693078342,2.5727248813770647,-3.8140554274554392,-1.1288217411102663,-5.244157096798115,-0.025020761123821688,0.022925206784741834,-0.027651151548531077,0.07411285964924237,0.0820406243839106,0.18736863434461162,-0.3241899907588959,-0.1750325560569763,-1.121851086616516,-0.2379378080368042,0.3329735994338989,0.310629665851593
1749032081.1676483,-1.9507954758258024,-1.7272992044914863,2.572669031195262,-3.813906343822384,-1.128659825913436,-5.243784412213521,-0.025307369336119726,0.02313326472875831,-0.02808215895381548,0.07449117559655953,0.08271761351897222,0.189179690015789,-0.3241899907588959,-0.1750325560569763,-1.121851086616516,-0.2379378080368042,0.3329735994338989,0.310629665851593
1749032081.169782,-1.9508461501638719,-1.7272561321587638,2.5726119692650515,-3.81375646665399,-1.1284967400140722,-5.2434086615472975,-0.02561250168873796,0.023337183685993412,-0.028536988678591686,0.07501979327199843,0.08332584617289722,0.19113994656628608,-0.3233683705329895,-0.1622400134801864,-1.098876714706421,-0.2560094892978668,0.3220980167388916,0.3050418794155121
1749032081.2143002,-1.950898339536677,-1.727212498711869,2.5725536726884974,-3.813605428963368,-1.1283326748379943,-5.243029413021991,-0.025931299382315778,0.023538186028519356,-0.029003522549646603,0.07570309844771474,0.0838679356541438,0.1932262856888012,-0.3176620006561279,-0.1416592299938202,-1.091173529624939,-0.2641022801399231,0.3151149153709411,0.3016993403434753
1749032081.2143466,-1.9509520711160386,-1.727168142461964,2.5724941515452726,-3.8134528348196497,-1.128167783922129,-5.2426462144714545,-0.026257534377630242,0.023737493966835003,-0.029468186571387417,0.07653450332416807,0.08435124844046701,0.1954008444444854,-0.3239692449569702,-0.1368235647678375,-1.1000497341156006,-0.2363119125366211,0.3293149769306183,0.2990753054618835
1749032081.214389,-1.9510073079242491,-1.72712290584373,2.5724334492241825,-3.8132982792742336,-1.128002160867562,-5.242258622364706,-0.026583871017631114,0.023936112701911264,-0.029916555355593972,0.07749674672826908,0.08478761540982864,0.19761458480202193,-0.3432806730270386,-0.1565718948841095,-1.084849238395691,-0.2441090643405914,0.3219785988330841,0.2421796917915344
1749032081.2144291,-1.9510639499921165,-1.7270766481003423,2.5723716429024406,-3.8131413732653727,-1.1278358216482345,-5.241866232748859,-0.026902238642399174,0.024134673454369534,-0.030334068659735498,0.0785628885005193,0.08519253365604955,0.19981209521832205,-0.3432806730270386,-0.1565718948841095,-1.084849238395691,-0.2441090643405914,0.3219785988330841,0.2421796917915344
1749032081.214469,-1.951121838659736,-1.727029257838212,2.572308844354531,-3.8129817730339566,-1.1276686969167908,-5.24146871447032,-0.027204313271220422,0.024333356435186266,-0.030706833232142555,0.07969799422331225,0.08558386909741553,0.20193685397301234,-0.3414480686187744,-0.1390864849090576,-1.0927402973175049,-0.2219820618629455,0.3125886917114258,0.2219557762145996
1749032081.214507,-1.95118076355503,-1.7269806643144254,2.572245200624277,-3.8128192121084425,-1.127500637809174,-5.241065843648318,-0.027482098137384517,0.024531877499934258,-0.031022478473852585,0.08086146277686541,0.08598015804626147,0.20393625147284142,-0.3362255990505218,-0.1367048621177673,-1.0740984678268433,-0.2464247345924377,0.3414131700992584,0.240701362490654
1749032081.2145452,-1.9512404723284977,-1.7269308457487036,2.5721808929534804,-3.8126535316842842,-1.1273314344887095,-5.240657534774821,-0.02772857536546498,0.024729505582225576,-0.031271018936785064,0.08200989705549643,0.0863987198750505,0.2057658829616991,-0.3297030925750732,-0.1386220306158065,-1.0774028301239014,-0.2264587432146072,0.3443275690078735,0.2355931252241134
1749032081.2145832,-1.9513006834033182,-1.7268798330195927,2.5721161317901986,-3.8124847040188463,-1.127160842956386,-5.240243861718205,-0.027938375033653488,0.02492508244155527,-0.03144565235497619,0.08310037223045816,0.08685387743787883,0.20739286898427256,-0.2974075973033905,-0.1431583017110824,-1.0637959241867063,-0.2526276111602783,0.3376080691814422,0.2598032355308532
1749032081.2146206,-1.9513611017199652,-1.726827707977809,2.572051146531699,-3.8123128442530216,-1.1269886143418681,-5.239825063151778,-0.028108382901377255,0.02511703028341432,-0.03154340290341164,0.0840939070623217,0.08735557231921633,0.20879813404292727,-0.3178878724575043,-0.1362002193927765,-1.063363552093506,-0.233365848660469,0.3241501748561859,0.2732387185096741
1749032081.2146585,-1.9514214369658014,-1.7267745969720412,2.571986170493978,-3.812138208316509,-1.126814522099892,-5.239401530573842,-0.028238198013314474,0.025303349420614324,-0.03156552355412156,0.08495888241330922,0.08790854935960331,0.20997763017439047,-0.3245429992675781,-0.1514357179403305,-1.0622737407684326,-0.2477648109197616,0.3188533782958984,0.2406712174415588
1749032081.2146957,-1.9514814231271846,-1.7267206614115258,2.571921423327576,-3.811961177256861,-1.1266383851946842,-5.23897378174024,-0.028330363274970367,0.02548162320005851,-0.03151760253898987,0.08567408749053122,0.08851213251159433,0.21094245647248286,-0.3080285787582397,-0.1292690336704254,-1.060189962387085,-0.2563413381576538,0.3596639037132263,0.2039373517036438
1749032081.214733,-1.951540837328744,-1.7266660876019753,2.5718570939574796,-3.811782230577351,-1.1264600876757496,-5.238542426572639,-0.028390321134443407,0.025649054463524758,-0.03140936009656596,0.0862310374004673,0.08916050602588285,0.21171777363005811,-0.3080285787582397,-0.1292690336704254,-1.060189962387085,-0.2563413381576538,0.3596639037132263,0.2039373517036438
1749032081.2147696,-1.951599515242328,-1.7266110773976082,2.5717933269660653,-3.811601912098484,-1.126279595360017,-5.238108133942012,-0.028426082775594,0.025802554127686488,-0.03125415307104152,0.08663522781785658,0.08984338606620759,0.21234043700791488,-0.3079395592212677,-0.1413638293743133,-1.071488380432129,-0.2777096629142761,0.3354048728942871,0.2029382884502411
1749032081.214807,-1.95165736061937,-1.7265558398756224,2.571730214338699,-3.811420791172235,-1.1260969686192004,-5.237671604386691,-0.02844763587579196,0.025938892743733646,-0.031068223773475546,0.08690608863150835,0.09054698542204574,0.21285542867994828,-0.3208290338516235,-0.1409768164157867,-1.0654553174972534,-0.2459465563297271,0.33863365650177,0.2230282127857208
1749032081.2148442,-1.9517143478836396,-1.726500583189949,2.5716677930836918,-3.81123942093469,-1.1259123685159431,-5.237233547999431,-0.02846614953260245,0.026054914173402412,-0.03086974557749886,0.08707555126321728,0.09125518740637792,0.21331142924680052,-0.2974547147750854,-0.1355436742305755,-1.0628504753112793,-0.2654350996017456,0.3314781188964844,0.2253386229276657
1749032081.2148812,-1.951770518388678,-1.7264455056046608,2.571606048002235,-3.81105829539127,-1.1257260536444977,-5.236794663195687,-0.02849306199241614,0.026147795578690455,-0.030677735375544943,0.08718531470340428,0.09195083926724605,0.21375612388742993,-0.3234627544879913,-0.1627432852983474,-1.0711098909378052,-0.2750112414360046,0.3403476774692535,0.2737762629985809
1749032081.2149255,-1.951825972012687,-1.7263907853222822,2.571544918120272,-3.8108778086101474,-1.1255383666921637,-5.236355612759389,-0.028539152859463655,0.02621532231363926,-0.030510915594979697,0.08728304731628188,0.09261707036125308,0.21423195822460986,-0.3234627544879913,-0.1627432852983474,-1.0711098909378052,-0.2750112414360046,0.3403476774692535,0.2737762629985809
1749032081.2149923,-1.9518808561259167,-1.7263365695840118,2.571484304883419,-3.8106982203663695,-1.1253497111119652,-5.235916995555657,-0.028613701910002683,0.026256142031123142,-0.03038660709550437,0.08741787657135243,0.09323855201118282,0.21477298145782692,-0.3308308720588684,-0.176377922296524,-1.0810413360595703,-0.257972776889801,0.35634645819664,0.2723813652992248
1749032081.21506,-1.9519353539023223,-1.7262829641777075,2.5714240800418193,-3.8105196317717094,-1.125160518572934,-5.2354793124556025,-0.028723819113329403,0.02626997771643226,-0.030319718094901107,0.08763559041461405,0.09380263447577597,0.2154031602671977,-0.3046335577964782,-0.1512602865695953,-1.0810959339141846,-0.2571462392807007,0.3401183187961578,0.264983057975769
1749032081.2151272,-1.95198967351735,-1.726230024773294,2.5713640914312195,-3.8103419725361625,-1.1249712082217802,-5.235042924590646,-0.028873998732376106,0.02625780307319581,-0.030321873556715517,0.08797400357519641,0.09430030363808321,0.2161362083329212,-0.3009921908378601,-0.1636860966682434,-1.0850435495376587,-0.2412531524896621,0.3224855363368988,0.2495741844177246
1749032081.2151964,-1.9520440389130216,-1.726177751469721,2.571304165887248,-3.8101650005702807,-1.1247821407235956,-5.234608004819774,-0.02906591467561905,0.02622199159276239,-0.03040071846154701,0.08845894282221,0.0947268979226358,0.2169766685873196,-0.3373910188674927,-0.1645712554454803,-1.0971307754516602,-0.2058583498001098,0.3210348486900329,0.2367029041051864
1749032081.215263,-1.9520986816634298,-1.7261260876693751,2.5712441101672363,-3.8099883152696115,-1.1245935731725525,-5.234174489729879,-0.029298444575608144,0.02616643182598888,-0.030559431855018814,0.08910128772016118,0.09508253423001364,0.21792180867201244,-0.3373910188674927,-0.1645712554454803,-1.0971307754516602,-0.2058583498001098,0.3210348486900329,0.2367029041051864
1749032081.216171,-1.9521538325535719,-1.7260749238880717,2.5711837122327674,-3.809811386477744,-1.1244056231074115,-5.2337420452131145,-0.029567890026542473,0.026096570646086496,-0.030796495088022444,0.0898954489417209,0.09537221544977753,0.21896388739806022,-0.3211702704429626,-0.1687453389167785,-1.1121366024017334,-0.2273513078689575,0.3060197830200195,0.2494595944881439
1749032081.217702,-1.952209711522373,-1.7260241063562032,2.5711227456636117,-3.809633599964168,-1.1242182491122326,-5.233310058925824,-0.029868348989050574,0.026019328030783672,-0.031105750306583024,0.0908195397193649,0.09560560928849679,0.22009247791159733,-0.3211702704429626,-0.1687453389167785,-1.1121366024017334,-0.2273513078689575,0.3060197830200195,0.2494595944881439
1749032081.2582946,-1.95226651579112,-1.7259734494313124,2.5710609790569894,-3.8094543169601183,-1.1240312518236548,-5.232877666958842,-0.030192191853260553,0.02594283490981191,-0.03147676101096521,0.091837303174034,0.09579648547604724,0.22129668488305573,-0.2782004475593567,-0.1602466106414795,-1.0977513790130615,-0.2360871136188507,0.2779156565666199,0.2580674290657043
1749032081.2583454,-1.9523244074411754,-1.7259227502462482,2.5709981905628765,-3.809272941155536,-1.123844294358635,-5.232443812998641,-0.030530594975508103,0.02587598017412974,-0.031895459679467046,0.09290165715342029,0.09596180401157023,0.22256716702773346,-0.3076026439666748,-0.1584323793649673,-1.1065781116485596,-0.214236781001091,0.2953544855117798,0.2675618827342987
1749032081.258386,-1.9523835024166272,-1.7258718039356196,2.5709341860214754,-3.8090889835551405,-1.123656937385905,-5.232007330593669,-0.030874097913316547,0.025827803435350818,-0.03234505085184773,0.09395955394209102,0.0961204967468457,0.2238978387174052,-0.3413927853107452,-0.1595721244812011,-1.106830358505249,-0.2222907394170761,0.3092900514602661,0.2305461466312408
1749032081.2584248,-1.952443862788577,-1.7258204182228347,2.570868818026602,-3.808902115264837,-1.1234686824834161,-5.231567035919306,-0.031213173422582723,0.025806815302049948,-0.03280712917832796,0.09495771179869264,0.09629206524935915,0.2252870270896029,-0.343341052532196,-0.1475011557340622,-1.0987030267715454,-0.2462224066257476,0.318814754486084,0.2286515533924102
1749032081.258463,-1.9525054935438595,-1.7257684267565292,2.5708020028024614,-3.808712200719128,-1.123279017755967,-5.231121819604475,-0.031538817736665635,0.025820344639470205,-0.033262961116477564,0.09584863356450732,0.09649517522820975,0.22673780826956125,-0.3187672793865204,-0.1434840559959411,-1.0983527898788452,-0.2703849077224731,0.329204797744751,0.2303697168827057
1749032081.2585015,-1.9525683443342314,-1.7257157008495545,2.570733731981975,-3.8085193077448527,-1.123087460908215,-5.230670729292393,-0.03184316007918237,0.025873997114344283,-0.03369486128975182,0.09659621235988843,0.09674642481220613,0.228257322149751,-0.3112354278564453,-0.1574834138154983,-1.1075618267059326,-0.2722830474376678,0.3281854391098022,0.2255313396453857
1749032081.2585397,-1.9526323155973948,-1.7256621590575072,2.57066407708601,-3.808323694644096,-1.1228935963741502,-5.2302130374297695,-0.032120053243032715,0.02597127690372844,-0.034087570700206425,0.09718020437420671,0.09705940906888728,0.22985507128366756,-0.2960387170314789,-0.1241494789719581,-1.0995087623596191,-0.2871672511100769,0.3287656009197235,0.2749040722846985
1749032081.258577,-1.9526972676033467,-1.7256077737821836,2.5705931856517514,-3.8081257773639865,-1.1226971044334995,-5.229748290739058,-0.03236556930778216,0.02611339430375267,-0.034429519280639975,0.09759896403876202,0.09744412720211104,0.23154046896362485,-0.2949271500110626,-0.1167583018541336,-1.1036211252212524,-0.2740805745124817,0.3279531598091125,0.249777466058731
1749032081.2586143,-1.9527630307895627,-1.725552574230648,2.5705212693530592,-3.8079260817545952,-1.1224977813520798,-5.229276339250331,-0.03257831695793118,0.026299264168029912,-0.034713839730322535,0.09787006249694519,0.09790670879993248,0.23332011250065376,-0.2803018689155578,-0.1350842863321304,-1.0860897302627563,-0.2802618741989136,0.326573371887207,0.2771700024604797
1749032081.2586522,-1.9528294162889286,-1.725496645428613,2.5704485856460044,-3.8077251870955426,-1.1222955503974834,-5.228797343834606,-0.03275952941334193,0.026525688700651223,-0.034939002718667005,0.09802868532399167,0.0984493899217979,0.23519534211472046,-0.3359892070293426,-0.109674222767353,-1.0833725929260254,-0.2773707211017608,0.331581562757492,0.3003786504268646
1749032081.2586896,-1.9528962263439307,-1.72544012313982,2.5703754151033618,-3.8075236674895745,-1.1220904641167129,-5.22831176187358,-0.03291292972252641,0.0267877069880577,-0.035108970053315654,0.09812398050783952,0.09907065864856998,0.2371605793869071,-0.2997217774391174,-0.1089220866560936,-1.076169490814209,-0.2657197713851928,0.3466508388519287,0.281787246465683
1749032081.2587268,-1.952963264840783,-1.7253831844597436,2.5703020367682394,-3.8073220372282908,-1.1218826984541344,-5.227820311154747,-0.03304442747063089,0.02707908195182274,-0.035232814730516045,0.09821378065204228,0.09976551025218523,0.23920275945290487,-0.3110284805297851,-0.1449463069438934,-1.1179614067077637,-0.2524561285972595,0.3598498404026031,0.2850117087364197
1749032081.258764,-1.953030348309629,-1.725326033878198,2.5702287038624747,-3.8071207049330504,-1.1216725389952282,-5.227323912581682,-0.033161706152165064,0.027392883934561924,-0.03532383052499968,0.09835833639285146,0.10052578961984801,0.24130195173983757,-0.2987438440322876,-0.1215131506323814,-1.0976544618606567,-0.2319858968257904,0.3549558520317077,0.2661636769771576
1749032081.258802,-1.9530973174299378,-1.7252688849465467,2.5701556221397968,-3.806919939606367,-1.1214603590547174,-5.22682361321539,-0.033273731098735035,0.027722118676666945,-0.03539822702441418,0.09861383217537989,0.10134063141107298,0.24343307147083657,-0.3070684373378753,-0.1097326129674911,-1.100878357887268,-0.2253736555576324,0.3276636600494385,0.2954319715499878
1749032081.2588394,-1.953164048503893,-1.7252119383263778,2.570082933006283,-3.8067198502215494,-1.1212465893454044,-5.226320493121587,-0.033390181791623404,0.028060337321032573,-0.03547355125526653,0.09902646779338697,0.10219701830689465,0.2455684469630592,-0.3285173177719116,-0.1095085218548774,-1.111090064048767,-0.2344736009836197,0.3534578382968902,0.2832202613353729
1749032081.258876,-1.953230463824098,-1.7251553578802392,2.5700107031907287,-3.8065203794696103,-1.1210316803610871,-5.225815562991829,-0.033520810294557286,0.028402159955576465,-0.03556699089575852,0.0996277796380346,0.10308046346975877,0.24768091215093752,-0.3009533882141113,-0.114258274435997,-1.106443166732788,-0.1927442550659179,0.3431561589241028,0.3026148676872253
1749032081.2589135,-1.953296539612512,-1.7250992473408688,2.5699389221903632,-3.806321311608008,-1.1208160608965931,-5.225309663580223,-0.03367474014982053,0.028743644326101887,-0.03569371876392333,0.10043169569838568,0.10397580284157674,0.24974701138528915,-0.3009533882141113,-0.114258274435997,-1.106443166732788,-0.1927442550659179,0.3431561589241028,0.3026148676872253
1749032081.2589502,-1.9533623103353095,-1.7250436304657986,2.5698675077836475,-3.8061222932286647,-1.1206000975313644,-5.224803379560879,-0.033859737387887875,0.02908244216549313,-0.03586544824736186,0.10143361708718293,0.10486807626022598,0.2517498390400076,-0.3256652355194092,-0.1211196333169937,-1.1251856088638306,-0.199436753988266,0.3518632054328918,0.283437967300415
1749032081.258987,-1.9534278687355635,-1.7249884372230762,2.5697963185410146,-3.805922863713212,-1.1203840591545207,-5.224296977085206,-0.034081508050979516,0.029417712712488865,-0.036089369499909124,0.10261160103454474,0.10574348643489101,0.2536810388839848,-0.3192203640937805,-0.1264224648475647,-1.131462574005127,-0.1967740654945373,0.3523785173892975,0.2545068860054016
1749032081.2590234,-1.953493361678766,-1.7249334978463102,2.5697251709527684,-3.805722490287824,-1.1201680886604835,-5.223790368520523,-0.0343430999167526,0.02974980417621946,-0.03636759918312183,0.10392947431238486,0.10659042899971631,0.2555415982503138,-0.3376694321632385,-0.1074254810810089,-1.1110919713974,-0.1867657452821731,0.3597882986068725,0.2446392178535461
1749032081.2596576,-1.9535589823293211,-1.7248785460562788,2.5696538582695676,-3.8055206028120265,-1.119952183037925,-5.223283105018279,-0.03464449453333973,0.03007975587598023,-0.036697197160161545,0.10534145217781393,0.10740055285857152,0.2573412779161465,-0.3410878479480743,-0.1200906410813331,-1.123022437095642,-0.1955703347921371,0.347612053155899,0.2724485099315643
1749032081.26175,-1.9536249589363894,-1.7248232324243784,2.5695821685319946,-3.805316625863868,-1.1197361839292979,-5.222774399146348,-0.03498245995450004,0.03040870256824254,-0.03707071169365687,0.1067976266532999,0.10816973718677979,0.259096775580555,-0.3410878479480743,-0.1200906410813331,-1.123022437095642,-0.1955703347921371,0.347612053155899,0.2724485099315643
1749032081.3022892,-1.9536915401463495,-1.7247671483588576,2.5695098999126875,-3.8051100081115057,-1.1195197815418645,-5.222263181067243,-0.035350701826009225,0.03073727400969936,-0.037477148717756995,0.10824956764288068,0.10889880760682737,0.26082897423197526,-0.3186892867088318,-0.1025583297014236,-1.1284970045089722,-0.2167792320251464,0.3340457081794739,0.31064173579216
1749032081.3023355,-1.953758977215355,-1.7247098600607944,2.569436871957576,-3.8049002493682993,-1.1193025335361517,-5.221748187895389,-0.03574031369453793,0.03106508180444477,-0.03790323131313378,0.10965527882681561,0.10959380785008954,0.26255980508211346,-0.3423191010951996,-0.1490936577320099,-1.1175020933151243,-0.2211556881666183,0.3355962038040161,0.3016798198223114
1749032081.3023822,-1.9538275047979154,-1.7246509498951743,2.5693629318998785,-3.804686924571554,-1.1190838976304294,-5.221228078258657,-0.03614049228488218,0.03139037665144853,-0.038334805215768326,0.11098286848620548,0.11026569478746022,0.2643092935905807,-0.3323216140270233,-0.1026966422796249,-1.105210304260254,-0.2303382456302642,0.3216311931610107,0.3001168370246887
1749032081.302423,-1.9538973230215886,-1.7245900604422677,2.5692879563205553,-3.8044697031773085,-1.1188632743258087,-5.22070155808205,-0.03653945063986591,0.03170994129776815,-0.03875824020021668,0.11221250939828956,0.11092940536741856,0.2660932517330101,-0.3391036689281463,-0.1043984666466713,-1.1063027381896973,-0.2361136972904205,0.3259876370429992,0.2865459620952606
1749032081.3024616,-1.9539685834309763,-1.7245269349697168,2.5692118496884926,-3.804248363016958,-1.118640055487866,-5.220167502175823,-0.03692543549050954,0.03201925361928258,-0.03916167894309379,0.11333653601662959,0.11160233857102222,0.2679218889519573,-0.3286957144737243,-0.1185162365436554,-1.1122350692749023,-0.2243074178695678,0.3506200313568115,0.2956988215446472
1749032081.3025002,-1.954041380358606,-1.7244614480058738,2.5691345419476384,-3.804022798726616,-1.1184136747087,-5.21962505817029,-0.03728774134386757,0.03231291010116932,-0.03953600441866821,0.11435782155827913,0.11230239733285505,0.26979940896430477,-0.3339745700359344,-0.0879124402999877,-1.1017584800720217,-0.2119183540344238,0.3505272269248962,0.2929275631904602
1749032081.3025382,-1.9541157480690197,-1.7243936212684783,2.569055987030535,-3.8037930254277317,-1.1181836553752231,-5.219073722579533,-0.03761761328941345,0.03258525232564112,-0.039875437009804636,0.11528684487955208,0.11304582141910773,0.27172448297798973,-0.3256305456161499,-0.0922107249498367,-1.11430025100708,-0.2076970636844635,0.3502592146396637,0.303226888179779
1749032081.3025756,-1.9541916629283824,-1.724323622872752,2.568976163330212,-3.8035591781545937,-1.1179496521555072,-5.218513382342807,-0.03790893870106603,0.03283110323493209,-0.04017772749662539,0.11613804545622385,0.11384508256023493,0.2736913601471586,-0.3150150775909424,-0.1056676506996154,-1.1173251867294312,-0.1808543801307678,0.3558681011199951,0.315387099981308
1749032081.3026135,-1.9542690489536265,-1.7242517506336283,2.568895076179094,-3.8033215069260224,-1.1177114817417149,-5.21794431886509,-0.03815864475148035,0.03304650444293548,-0.04044397062455674,0.11692613753465318,0.11470710016639815,0.2756913035929271,-0.3362833857536316,-0.1221148371696472,-1.1097896099090576,-0.2054363340139389,0.3498109877109527,0.2887568175792694
1749032081.3026512,-1.9543477846862058,-1.7241784025865368,2.568812761479891,-3.8030803668878312,-1.117469139502185,-5.217367175367041,-0.03836675239278263,0.03322934863346777,-0.040678113637693136,0.11766301022806284,0.1156319904603954,0.2777140313416272,-0.3481286764144897,-0.120118036866188,-1.1050070524215698,-0.1762700080871582,0.3835194706916809,0.2896908819675445
1749032081.3026888,-1.9544277097338225,-1.7241040391891893,2.5687292890558044,-3.802836203123801,-1.1172228002608193,-5.216782892522509,-0.03853609159105367,0.03337981717284912,-0.04088626526850213,0.11835570791808667,0.11661250873498982,0.2797488939973652,-0.333624392747879,-0.1119710505008697,-1.1119675636291504,-0.1487971097230911,0.3572995066642761,0.2676342725753784
1749032081.302725,-1.9545086303456447,-1.7240291422321539,2.5686447642900525,-3.8025895307948723,-1.1169728037567266,-5.216192622108373,-0.03867174114405353,0.03350055947252067,-0.04107591962897707,0.11900578788595093,0.11763428426359372,0.28178562320870804,-0.3079758286476135,-0.1405340880155563,-1.1391397714614868,-0.2096276134252548,0.3629686832427978,0.2920921742916107
1749032081.3027618,-1.9545903243382021,-1.72395417564985,2.568559327131725,-3.8023409128322365,-1.1167196280990255,-5.2155976328315035,-0.0387802947760918,0.033596584333671825,-0.04125520087157201,0.11961009411893848,0.11867686011511969,0.28381461518874157,-0.3079758286476135,-0.1405340880155563,-1.1391397714614868,-0.2096276134252548,0.3629686832427978,0.2920921742916107
1749032081.3027985,-1.9546725460867855,-1.7238795530370936,2.568473148143597,-3.8020909383035746,-1.1164638565848888,-5.214999224002007,-0.03886906617409966,0.0336748706001559,-0.04143221443303534,0.12016269709865522,0.11971543566328391,0.2858268386878167,-0.340841680765152,-0.1322880685329437,-1.118338942527771,-0.2040077745914459,0.3619966804981231,0.2996479868888855
1749032081.3028357,-1.9547550323395495,-1.723805615243225,2.5683864215832624,-3.8018402036644288,-1.1162061432874824,-5.214398658713039,-0.038945341737844495,0.03374374137079231,-0.04161455694376915,0.12065750949531334,0.12072310618538713,0.2878135392111361,-0.340841680765152,-0.1322880685329437,-1.118338942527771,-0.2040077745914459,0.3619966804981231,0.2996479868888855
1749032081.3028731,-1.9548375096690584,-1.7237326190156501,2.568299355491341,-3.8015892966576854,-1.1159471806662733,-5.213797119444775,-0.039015778233624,0.03381207863847958,-0.041808988268084595,0.12109097687680147,0.12167333763424903,0.2897659269176738,-0.3624422252178192,-0.1447916030883789,-1.103064775466919,-0.2333726435899734,0.3412765860557556,0.2969115674495697
1749032081.30291,-1.9549197043485036,-1.7236607352341742,2.5682121587135414,-3.801338780395192,-1.115687669460989,-5.213195680203165,-0.03908601351299301,0.03388847832091045,-0.04202122401742327,0.12146427933996745,0.12254240273078136,0.29167498730448976,-0.2955838441848755,-0.106097400188446,-1.1369978189468384,-0.2310410141944885,0.3424755930900574,0.2989579737186432
1749032081.3029504,-1.9550013549676672,-1.7235900538508835,2.5681250251687495,-3.801089174866046,-1.1154282892350194,-5.212595285339141,-0.039160506025978474,0.03398045536741231,-0.04225579291934119,0.12178462569749374,0.12331151875352991,0.2935314639393577,-0.2955838441848755,-0.106097400188446,-1.1369978189468384,-0.2310410141944885,0.3424755930900574,0.2989579737186432
1749032081.3029878,-1.955082227235273,-1.7235205925076766,2.5680381166206514,-3.800840934726637,-1.1151696680213001,-5.211996726874792,-0.03924256155759534,0.03409380145164085,-0.04251592315377345,0.12206542034625123,0.12396846948189476,0.2953259688304059,-0.3482994735240936,-0.1227681785821914,-1.1210129261016846,-0.2377601712942123,0.3315668404102325,0.278674453496933
1749032081.303025,-1.9551621296963735,-1.7234523063997802,2.567951546171562,-3.8005944240249807,-1.1149123506986702,-5.211400615955732,-0.03933447425770906,0.034232169165117836,-0.04280344584308156,0.12232528818246377,0.12450857408293727,0.2970491300550578,-0.3482994735240936,-0.1227681785821914,-1.1210129261016846,-0.2377601712942123,0.3315668404102325,0.278674453496933
1749032081.3036945,-1.95524092891634,-1.723385097597085,2.567865364944073,-3.8003498892232517,-1.1146567667004237,-5.210807346726564,-0.03943771466875111,0.0343969115523505,-0.04311870908539756,0.12258612931366411,0.12493497035205225,0.2986917166070893,-0.3221234381198883,-0.1184686049818992,-1.1273881196975708,-0.2053820192813873,0.3284471035003662,0.2600859999656677
1749032081.3056452,-1.9553185628242604,-1.7233188225633418,2.5677795538457997,-3.8001074322199,-1.1144031984988554,-5.210217053364176,-0.03955312160384066,0.03458716444860678,-0.0434604943769246,0.12287053300402914,0.1252582699831349,0.3002447538468362,-0.3336147964000702,-0.1037988141179084,-1.1148916482925415,-0.2013815939426422,0.3300115168094635,0.2727883160114288
1749032081.3462887,-1.955395050921538,-1.7232532973784311,2.5676940214858535,-3.79986698653783,-1.1141517538564245,-5.209629565991733,-0.039681073852480216,0.03480013613235209,-0.04382594217825395,0.12319899800436297,0.12549568842860342,0.301699696749746,-0.329836905002594,-0.1080732196569442,-1.121341586112976,-0.1799889206886291,0.3176849484443664,0.2849060595035553
1749032081.346336,-1.9554704999407349,-1.7231883013294973,2.567608608689376,-3.799628302159892,-1.1139023466362492,-5.209044377923233,-0.039821625942188014,0.035031555904783976,-0.04421052132177452,0.12358745999105902,0.1256697526043726,0.3030487369220565,-0.329836905002594,-0.1080732196569442,-1.121341586112976,-0.1799889206886291,0.3176849484443664,0.2849060595035553
1749032081.346377,-1.9555451036856255,-1.723123580551426,2.5675230995249008,-3.799390945226154,-1.113654691249764,-5.208460639774794,-0.039974596236375434,0.03527621530048648,-0.04460809335662265,0.12404558704179267,0.12580667663721973,0.30428530078850974,-0.3318997323513031,-0.1415025442838668,-1.1237634420394895,-0.1869740188121795,0.3348117768764496,0.2715851664543152
1749032081.3464153,-1.955619136292857,-1.7230588536204687,2.5674372381066184,-3.799154316387276,-1.113408314012478,-5.207877191897742,-0.04013960083607455,0.03552851485994677,-0.045011113178112065,0.12457615729077855,0.12593450284631486,0.30540476180188786,-0.3318997323513031,-0.1415025442838668,-1.1237634420394895,-0.1869740188121795,0.3348117768764496,0.2715851664543152
1749032081.3464537,-1.9556929386698632,-1.7229938205257402,2.5673507498273285,-3.7989176874878883,-1.113162582297387,-5.2072926382176075,-0.040316035429875545,0.03578292636789008,-0.04541097884110311,0.12517560169614864,0.12608113644153526,0.30640532780546054,-0.339057981967926,-0.1297368258237838,-1.1119307279586792,-0.17249396443367,0.3119464814662933,0.2380786538124084
1749032081.3464918,-1.955766898282567,-1.7229281757575927,2.5672633652736163,-3.798680252784482,-1.1129167505241504,-5.2067054565360795,-0.04050302075361734,0.03603431557299426,-0.04579851467559923,0.12583554052852605,0.12627242737966443,0.30728898035437163,-0.339057981967926,-0.1297368258237838,-1.1119307279586792,-0.17249396443367,0.3119464814662933,0.2380786538124084
1749032081.34653,-1.9558414231481236,-1.7228616254592553,2.5671748446970426,-3.7984411886177774,-1.1126700199035926,-5.206114133642522,-0.040699342012615936,0.036278136332939,-0.046164555916778635,0.12654493768499775,0.1265304423251832,0.3080622779158144,-0.3198137879371643,-0.0778819844126701,-1.1382278203964231,-0.1980373114347458,0.3324550986289978,0.2531329393386841
1749032081.3465676,-1.9559169119805926,-1.7227939074997056,2.567085000504059,-3.798199713831541,-1.112421605754403,-5.205517307573078,-0.04090341886272702,0.03651056212900652,-0.046500599299782425,0.12729239077169774,0.1268720289426664,0.30873683661092355,-0.3461931347846985,-0.1016126945614814,-1.1193443536758425,-0.1990524232387542,0.3406502604484558,0.2703834772109985
1749032081.3466053,-1.9559937235717415,-1.722724812097763,2.5669937151244455,-3.7979551426949603,-1.1121708034103768,-5.20491389575233,-0.04111333398970435,0.03672862631829503,-0.046799480285466565,0.12806807698553332,0.12730773338745094,0.30932937736947186,-0.3301723301410675,-0.1159146204590797,-1.0913554430007937,-0.1894066929817199,0.3419801294803619,0.2798398733139038
1749032081.3466432,-1.9560721491599593,-1.722654199808725,2.5669009521106902,-3.797706923772593,-1.1119170433938161,-5.204303189315652,-0.041326930241903564,0.03693040269097244,-0.047056021924968924,0.1288649675123948,0.12784111480089727,0.3098613341886745,-0.3357098400592804,-0.1216386556625366,-1.076061129570007,-0.1898029744625091,0.3550893664360046,0.269761174917221
1749032081.3466809,-1.9561523914122212,-1.7225820137056573,2.5668067592239696,-3.7974546620218215,-1.111659929166944,-5.20368490078621,-0.0415419700915557,0.03711520881547698,-0.047267575194326346,0.1296790806147974,0.12846851241810786,0.31035809693952277,-0.3454257845878601,-0.1183535158634185,-1.076238751411438,-0.1909848153591156,0.3546591997146606,0.2644154131412506
1749032081.3467183,-1.9562345525805607,-1.7225082834894816,2.5667112632461513,-3.7971981257457994,-1.1113992549324652,-5.203059161919353,-0.04175634103261644,0.037283783549166644,-0.04743435508400497,0.13050874118503814,0.12917934194492303,0.31084798405686875,-0.3700559139251709,-0.0965081602334976,-1.0802713632583618,-0.1913245171308517,0.3511563539505005,0.2783471941947937
1749032081.346756,-1.956318632572853,-1.7224331207947097,2.566614657331093,-3.796937243252814,-1.1111350050430084,-5.202426478371832,-0.04196828009352476,0.03743838077602855,-0.047559490292352354,0.1313530236303773,0.1299569906059355,0.31136101360349094,-0.3350328207015991,-0.0983268022537231,-1.0884276628494265,-0.1598745286464691,0.3721511363983154,0.2449811100959777
1749032081.3467932,-1.9564045357539221,-1.7223567066031704,2.5665171829171913,-3.7966720953207713,-1.1108673396529478,-5.20178765568288,-0.04217657643955017,0.0375827266946889,-0.04764874749674169,0.13220973704421715,0.1307803146064867,0.31192749526646174,-0.3350328207015991,-0.0983268022537231,-1.0884276628494265,-0.1598745286464691,0.3721511363983154,0.2449811100959777
1749032081.3468306,-1.9564920842134181,-1.7222792727621268,2.566419109073974,-3.7964029082051716,-1.110596572192056,-5.201143713652797,-0.04238070229097095,0.037721800869025844,-0.04770994635588424,0.13307342576147174,0.13162562863226437,0.3125764394788154,-0.3510411381721496,-0.1490578800439834,-1.0813037157058716,-0.1959734708070755,0.333157479763031,0.2564374506473541
1749032081.3468685,-1.9565810355149897,-1.722201079831271,2.56632071203526,-3.796130048012547,-1.110323142353106,-5.200495801627922,-0.04258082981764479,0.03786142139484903,-0.04775213076268136,0.13393387862690637,0.13246896740965164,0.3133338072329208,-0.3310103416442871,-0.1192502602934837,-1.0776965618133545,-0.1672389805316925,0.3585075139999389,0.2511545419692993
1749032081.3469052,-1.9566711039079587,-1.7221223933284684,2.566222256781276,-3.795854012886296,-1.1100475851641063,-5.199845118967261,-0.04277771237544412,0.03800764931136252,-0.0477845976650604,0.134775565610801,0.1332883495406935,0.31422070618422066,-0.3369140923023224,-0.0735856890678405,-1.0499932765960691,-0.1311789155006408,0.3821545839309692,0.2544150650501251
1749032081.3469424,-1.9567619842152053,-1.72204346060417,2.5661239817214323,-3.7955754177614303,-1.1097704954606165,-5.19919284008071,-0.0429724333847368,0.038166076312923396,-0.04781590704929265,0.13557826280180058,0.13406579443345795,0.3152517328832886,-0.345859557390213,-0.0978241860866546,-1.0984729528427124,-0.1731104105710983,0.3471253514289856,0.3141872882843017
