nimar13/UR3e_dataset_trayectorias/trayectorias_ejecutadas_filtradas/quintic/trayectoria_133_result_filtrado.csv
timestamp,q1,q2,q3,q4,q5,q6,qd1,qd2,qd3,qd4,qd5,qd6,tau1,tau2,tau3,tau4,tau5,tau6
1749035103.674307,0.5481186949732539,-1.433424894525024,2.1780780405399347,-2.6977797289744836,0.695747990698566,-0.849638766648123,0.0008619888757107054,0.00014706096325735563,0.0007293296431009188,8.382141602800771e-05,-3.25969727861086e-05,-9.006567128307695e-06,0.2338069081306457,-0.5082210898399353,-0.6315568685531616,-0.3398630023002624,0.1611914336681366,-0.1146118119359016
1749035103.6743622,0.5481198707253195,-1.4334195185430165,2.178077919009985,-2.6977834321043073,0.6957463859076098,-0.8496416856585667,0.0007892155679429792,0.0001491857052046062,0.0006938667710881847,8.25151181454137e-05,-3.203088150073303e-05,-4.358309869901199e-06,0.2153759002685547,-0.5019362568855286,-0.6318771839141846,-0.3284638822078705,0.1532517075538635,-0.1295294165611267
1749035103.6744182,0.5481210828162744,-1.4334142990812295,2.178077785788626,-2.6977869833097623,0.6957447704225586,-0.8496444619123154,0.0007175032944691979,0.00015116026923748488,0.0006591925207804683,8.13045072559272e-05,-3.083991093362454e-05,1.0265785690711107e-06,0.2558765113353729,-0.5298458933830261,-0.6436576843261719,-0.3413969278335571,0.1604674607515335,-0.1287924349308014
1749035103.674461,0.5481223534806714,-1.433409468485612,2.1780776368808725,-2.697790240387907,0.6957431894066523,-0.8496470336481632,0.0006476888393223304,0.00015269883835297883,0.0006259958121446386,8.019494898794318e-05,-2.920357355883327e-05,6.6565506373703375e-06,0.2300502657890319,-0.561539351940155,-0.6395354270935059,-0.3535328507423401,0.163612425327301,-0.1384908556938171
1749035103.6745024,0.5481237084438704,-1.4334052198007454,2.1780774847319915,-2.697793085397928,0.6957417153255415,-0.8496493514397279,0.0005805084911743327,0.00015353284291091043,0.000594913099323683,7.918279155623924e-05,-2.7410091350525502e-05,1.1950084438191552e-05,0.2300502657890319,-0.561539351940155,-0.6395354270935059,-0.3535328507423401,0.163612425327301,-0.1384908556938171
1749035103.6745417,0.5481251736863068,-1.433401687916595,2.17807736115502,-2.6977954326932037,0.6957404471674475,-0.849651378796359,0.000516588076846775,0.00015343148941018365,0.0005665082853065875,7.825395190853106e-05,-2.5848863307554845e-05,1.6234479328712678e-05,0.2138255536556244,-0.5159613490104675,-0.6315881013870239,-0.3388920426368713,0.1519228368997573,-0.1183567270636558
1749035103.6745818,0.5481267699971031,-1.4333989405679546,2.1780773153905932,-2.6977972330320945,0.6957395032469246,-0.8496530914827102,0.0004564365370504544,0.00015221925358056116,0.000541253086208959,7.738315017240189e-05,-2.498849955263132e-05,1.8752863997419002e-05,0.220750093460083,-0.5408477187156677,-0.6342692375183105,-0.336934745311737,0.1343228667974472,-0.1131110116839408
1749035103.674636,0.5481285065255254,-1.4333969797642039,2.178077407890413,-2.6977984737142044,0.6957390077522507,-0.8496544770386203,0.00040044702463468796,0.00014979007377147272,0.0005195074326277945,7.653406859541239e-05,-2.533987162389427e-05,1.8682023408518184e-05,0.220750093460083,-0.5408477187156677,-0.6342692375183105,-0.336934745311737,0.1343228667974472,-0.1131110116839408
1749035103.6746938,0.5481303747806588,-1.433395751956628,2.178077701139821,-2.6977991752613075,0.6957390726265044,-0.8496555359283396,0.00034891133869579757,0.00014611839041140284,0.0005015004404910718,7.566069048857892e-05,-2.7405280211771907e-05,1.5162544972637201e-05,0.2504937052726745,-0.5627873539924622,-0.6302217245101929,-0.3446647524833679,0.1450086534023285,-0.1317815482616424
1749035103.6747365,0.5481323444714352,-1.4333951637002287,2.178078249235028,-2.697799385512211,0.695739777678031,-0.8496562848145709,0.00030205077395702656,0.00014126719252921546,0.00048731380009298,7.471001594961906e-05,-3.161658731902759e-05,7.341319975499599e-06,0.2473466992378235,-0.517437219619751,-0.6239234209060669,-0.3387816548347473,0.147451564669609,-0.1399522721767425
1749035103.6747751,0.5481343623050691,-1.433395099170197,2.178079088114656,-2.6977991722088484,0.6957411525155976,-0.8496567611017112,0.0002600603306850372,0.00013539295586968597,0.000476870547771296,7.362625042825233e-05,-3.826688948111523e-05,-5.5752010288881356e-06,0.2007453441619873,-0.5365604758262634,-0.6393316984176636,-0.3352353572845459,0.1512988656759262,-0.1295276284217834
1749035103.6748126,0.5481363542995572,-1.4333954363537005,2.178080228260185,-2.697798615198466,0.6957431636690703,-0.8496570267907168,0.00022315735399879122,0.0001287469191496025,0.00046993257692086855,7.235642007083604e-05,-4.7441914048314416e-05,-2.4260158721404643e-05,0.2368899285793304,-0.5345356464385986,-0.6079051494598389,-0.3298313319683075,0.1577230989933014,-0.130323052406311
1749035103.6748502,0.5481382314482676,-1.4333960595713955,2.178081651218984,-2.697797799162785,0.6957457092366593,-0.8496571693613283,0.0001916225862672869,0.00012167166482847437,0.0004661096359858891,7.08571851895938e-05,-5.895870485517845e-05,-4.9202230113865294e-05,0.2368899285793304,-0.5345356464385986,-0.6079051494598389,-0.3298313319683075,0.1577230989933014,-0.130323052406311
1749035103.6748924,0.5481398980357296,-1.4333968670160824,2.178083310527314,-2.6977968074002505,0.695748622110906,-0.8496572979778786,0.0001658214678917445,0.00011459157410819045,0.0004648810368817168,6.910241107419412e-05,-7.232024599931869e-05,-8.064353058577034e-05,0.2134731411933899,-0.5526033639907837,-0.637721061706543,-0.3414658308029175,0.1395780146121978,-0.1392304599285125
1749035103.674932,0.5481412616510023,-1.4333977731991518,2.1780851367367235,-2.6977957168933244,0.6957516816621361,-0.8496575345647673,0.00014619545244446975,0.0001079955541777218,0.00046562915273537,6.709084072676756e-05,-8.669532820255785e-05,-0.00011852503087610702,0.2084015607833862,-0.5574280619621277,-0.6341720819473267,-0.3229056000709533,0.1372542679309845,-0.122787170112133
1749035103.6749694,0.5481422437768502,-1.4333987073654308,2.178087045488197,-2.6977945947921627,0.6957546327303523,-0.8496580007721017,0.00013321647217407005,0.00010241060399896321,0.00046768143834545635,6.48530283181792e-05,-0.00010093295524875361,-0.00016244529630836,0.1990308165550232,-0.5316691398620605,-0.6341572999954224,-0.3339506387710571,0.1333205699920654,-0.1370371878147125
1749035103.6750066,0.5481427896449524,-1.4333996097345547,2.178088947089974,-2.69779349640118,0.6957572098226015,-0.8496588030121299,0.0001273020665011322,9.836533630328799e-05,0.00047035581119980876,6.24565572379862e-05,-0.00011361960914132578,-0.0002116386526223804,0.2168967127799987,-0.5358977317810059,-0.6476629972457886,-0.3321325778961181,0.1350646615028381,-0.1481707096099853
1749035103.675044,0.548142876007138,-1.4334004276011465,2.1780907559588663,-2.6977924646496962,0.6957591636074218,-0.849660018170234,0.0001286935916653701,9.634348531992896e-05,0.00047300349513862194,6.000849821602147e-05,-0.0001231854962732338,-0.0002649790240952274,0.2168967127799987,-0.5358977317810059,-0.6476629972457886,-0.3321325778961181,0.1350646615028381,-0.1481707096099853
1749035103.6750813,0.5481425157162846,-1.4334011128977493,2.178092398607443,-2.6977915308804077,0.6957602863284313,-0.8496616822733133,0.00013730493354793732,9.672865164125299e-05,0.00047504413466104435,5.7654083398487213e-05,-0.00012806241809224005,-0.00032101478084606326,0.2285883426666259,-0.5293853878974915,-0.6441085338592529,-0.3398494720458984,0.1353464126586914,-0.1489028036594391
1749035103.6751237,0.5481417584226721,-1.433401622101492,2.1780938194566497,-2.6977907166200565,0.6957604328128597,-0.8496637837257478,0.00015255393259569095,9.974299949824698e-05,0.00047598973864511926,5.557071192074439e-05,-0.0001268912756169035,-0.0003780367094119282,0.235291838645935,-0.529680073261261,-0.6264181137084961,-0.3394805788993835,0.1163784563541412,-0.1302511096000671
1749035103.6753883,0.5481406870771518,-1.4334019186559752,2.1780949843711386,-2.697790035819067,0.6957595344338746,-0.8496662620567578,0.00017319293083409694,0.00010538421101592544,0.0004754560536642091,5.395668498794112e-05,-0.00011877166999946313,-0.0004341752653306616,0.220382809638977,-0.5448648929595947,-0.635530948638916,-0.3401755690574646,0.1184034794569015,-0.1413596868515014
1749035103.677405,0.5481394102747572,-1.4334019774327322,2.178095882221152,-2.697789496960107,0.6957576045622396,-0.8496690124576681,0.00019715790615293448,0.00011336652734018298,0.0004731617675829581,5.3014495794020386e-05,-0.00010353989506409282,-0.00048751638692344826,0.220382809638977,-0.5448648929595947,-0.635530948638916,-0.3401755690574646,0.1184034794569015,-0.1413596868515014
1749035103.7222965,0.5481380509436035,-1.4334017901412355,2.1780965248423314,-2.6977891045515774,0.6957547353051762,-0.8496718955723573,0.00022145692281054613,0.00012307293045197095,0.0004689173804759979,5.292905431541691e-05,-8.20552267676797e-05,-0.0005362209856435693,0.2405165433883667,-0.5646461248397827,-0.6392735242843628,-0.3434081673622131,0.1392876207828521,-0.1376951336860656
1749035103.722343,0.5481367325716084,-1.4334013701483983,2.1780969455221086,-2.697788859835281,0.6957510863365552,-0.8496747511552053,0.00024211758786023765,0.00013352620940733587,0.0004626066164301586,5.384188328698832e-05,-5.646850070124126e-05,-0.0005786342753778268,0.2207918167114257,-0.5512839555740356,-0.6217975616455078,-0.3299125432968139,0.1300840377807617,-0.1332301199436187
1749035103.7223833,0.5481355648504194,-1.4334007550768555,2.178097195816036,-2.6977887609167603,0.6957468673480998,-0.8496774136592636,0.0002542095696872592,0.00014338660661011981,0.000454163689729265,5.5823044109050116e-05,-3.0442781908618765e-05,-0.0006133762072484044,0.2207918167114257,-0.5512839555740356,-0.6217975616455078,-0.3299125432968139,0.1300840377807617,-0.1332301199436187
1749035103.7224226,0.5481346309856325,-1.4334000058976561,2.1780973404147366,-2.6977888027766825,0.6957423161468209,-0.8496797277215222,0.00025195188514498166,0.000150982769819107,0.00044354939878544407,5.884328102966535e-05,-9.295090393143495e-06,-0.000639409890138155,0.2191435694694519,-0.5436781644821167,-0.6233590841293335,-0.3306002616882324,0.1466598361730575,-0.1466276943683624
1749035103.7225144,0.5481339788535282,-1.4333992019993458,2.1780974501042842,-2.697788977578222,0.6957376746146061,-0.8496815617607423,0.0002289056905195996,0.00015438069822295195,0.0004307280313996345,6.274952281684692e-05,-3.183147830390236e-08,-0.0006560882343477893,0.2229756116867065,-0.542777419090271,-0.6263190507888794,-0.3435975313186645,0.1254330724477768,-0.1302790939807891
1749035103.7225547,0.5481336175940813,-1.43339843274715,2.1780975934458446,-2.6977892753667794,0.695733164669937,-0.8496828183212501,0.00017824227277660616,0.0001514922159252326,0.00041564584268182663,6.724735456062583e-05,-1.1258842518899305e-05,-0.0006631795492015341,0.2312270700931549,-0.5341167449951172,-0.6387783288955688,-0.3270957469940185,0.1253359317779541,-0.1377871930599212
1749035103.722593,0.5481335199503639,-1.4333977870181225,2.1780978283349124,-2.6977896849032224,0.6957289662528854,-0.8496834403058413,9.306407720542855e-05,0.00014022032391916995,0.0003982107651257609,7.189426820047577e-05,-5.29588787353071e-05,-0.0006608715164172339,0.223093181848526,-0.5562630295753479,-0.648863673210144,-0.3272610902786255,0.1206021308898925,-0.1094263717532157
1749035103.722631,0.5481336289416912,-1.4333973427770765,2.1780981948230838,-2.697790194214909,0.6957251992195311,-0.8496834128749932,-3.325416644582556e-05,0.00011863382079352005,0.00037827216503300123,7.610732227031198e-05,-0.00013614354136454166,-0.0006497517431912592,0.223093181848526,-0.5562630295753479,-0.648863673210144,-0.3272610902786255,0.1206021308898925,-0.1094263717532157
1749035103.7226858,0.5481338661827713,-1.4333971587720524,2.1780987103918767,-2.6977907905039324,0.6957219106344172,-0.8496827615039637,-0.00020674451402259976,8.515827872919898e-05,0.00035559903301618056,7.918821068213815e-05,-0.0002724013969903038,-0.0006307635783551877,0.1857669353485107,-0.5744807124137878,-0.6530300378799438,-0.329641580581665,0.1126174479722976,-0.1265324354171753
1749035103.722727,0.5481341390293814,-1.4333972698567685,2.178099368358475,-2.6977914592365555,0.6957190682189683,-0.8496815471976582,-0.0004325866957180085,3.876545992341842e-05,0.00032985527737891995,8.036761902337151e-05,-0.0004733771203125592,-0.0006051383518704157,0.1599795222282409,-0.612031102180481,-0.695621132850647,-0.3275337219238281,0.1270879805088043,-0.1048928126692771
1749035103.7227652,0.5481343445305801,-1.4333976864385216,2.1781001394726696,-2.6977921825576847,0.6957165598876649,-0.849679859903791,-0.0007149449206847227,-2.086065507334617e-05,0.00030057186400346124,7.886914718258396e-05,-0.0007502251593061799,-0.0005743087695402878,0.1465847790241241,-0.6473650932312012,-0.7042698860168457,-0.3265198469161987,0.097957968711853,-0.0929908379912376
1749035103.722803,0.5481343693189692,-1.4333983974788918,2.1781009761631402,-2.6977929375689595,0.6957141986192243,-0.8496778108699613,-0.0010569160522294683,-9.320512811464254e-05,0.00026711699904219285,7.39910597988442e-05,-0.0011130828082516818,-0.000539811527019146,0.1234981939196586,-0.6372944712638855,-0.7162642478942871,-0.318117082118988,0.0803660750389099,-0.1078806743025779
1749035103.7228403,0.5481340858505637,-1.4333993757419559,2.178101818408201,-2.697793695199289,0.6957117315280761,-0.8496755244261806,-0.0014605759098197412,-0.00017687417061561014,0.00022866661661133999,6.520180490035016e-05,-0.0015705992964842946,-0.0005031890504848567,0.1384930610656738,-0.644769012928009,-0.7331281900405884,-0.3146414756774902,0.0901790037751197,-0.0891401395201683
1749035103.7228775,0.5481333466875087,-1.4334005837373667,2.1781026000512465,-2.697794420177113,0.6957088520394297,-0.8496731296482632,-0.0019270802552148944,-0.0002696384846355401,0.00018417754484874763,5.22427998414551e-05,-0.0021295390714191962,-0.0004658999327584976,0.1052943095564842,-0.6675980091094971,-0.7133502960205078,-0.3152722120285034,0.0848014205694198,-0.097519464790821
1749035103.7229152,0.5481319793268674,-1.4334019790127408,2.1781032546755354,-2.6977950721484953,0.6957052143623299,-0.849670752530538,-0.002456760969743606,-0.0003685817734636062,0.00013236499775256608,3.52296870769888e-05,-0.0027944536876766527,-0.00042924538902125014,0.1094429418444633,-0.6730926036834717,-0.7445698976516724,-0.3143414855003357,0.0502690598368644,-0.0915413126349449
1749035103.722952,0.548129783968185,-1.4334035180533278,2.1781037206251987,-2.697795607586498,0.6957004495557146,-0.8496685094695676,-0.0030491677870271433,-0.0004703577790986798,7.168523364992198e-05,1.4741452550802315e-05,-0.0035673987365428266,-0.0003943158903478281,0.1094429418444633,-0.6730926036834717,-0.7445698976516724,-0.3143414855003357,0.0502690598368644,-0.0915413126349449
1749035103.722989,0.5481265357348601,-1.4334051588199517,2.178103944980863,-2.6977959819610646,0.6956941822298276,-0.8496665027601393,-0.0037030355277013496,-0.0005715433785356644,3.2427795024233895e-07,-8.11413572827807e-06,-0.004447668996777438,-0.0003619590697518177,0.0462531372904777,-0.661752462387085,-0.7500689029693604,-0.3109924793243408,0.0651502013206482,-0.1056449636816978
1749035103.7230268,0.5481219918022833,-1.433406862477524,2.178103886216717,-2.6977961517337765,0.6956860467159138,-0.8496648182744585,-0.0044161833213418175,-0.0006690546004498922,-8.380481866032565e-05,-3.1670062454275855e-05,-0.005431533184650478,-0.00033276771919035715,0.0565539374947547,-0.6759535074234009,-0.756044864654541,-0.3270826339721679,0.056891705840826,-0.0855475291609764
1749035103.7230637,0.5481159030199219,-1.433408594904581,2.178103515203533,-2.697796076070577,0.6956757017642924,-0.8496635247229994,-0.0051853581706560025,-0.0007605717888234543,-0.00018305086929629126,-5.371440416617923e-05,-0.006511959746845757,-0.00030708541890874387,0.0565539374947547,-0.6759535074234009,-0.756044864654541,-0.3270826339721679,0.056891705840826,-0.0855475291609764
1749035103.7231078,0.5481080289506942,-1.433410328338571,2.1781028143927954,-2.697795718471203,0.6956628433115019,-0.8496626733920303,-0.00600602774711341,-0.0008449084697868765,-0.0002999915336043076,-7.155688235922978e-05,-0.007678335606994978,-0.0002850267586315117,0.0387135073542594,-0.6544821262359619,-0.7784851789474487,-0.3107461333274841,0.0629899874329567,-0.0854958221316337
1749035103.723147,0.5480981547591004,-1.4334120433517412,2.1781017753360805,-2.6977950484976434,0.6956472151601772,-0.8496622974332279,-0.006872130410828641,-0.0009222625021214976,-0.00043736895729606923,-8.215184218325447e-05,-0.00891619668713974,-0.0002665087283673749,0.0387135073542594,-0.6544821262359619,-0.7784851789474487,-0.3107461333274841,0.0629899874329567,-0.0854958221316337
1749035103.7231865,0.5480861081218631,-1.4334137313202386,2.1781003950055173,-2.697794043473153,0.6956286175560925,-0.8496624104919089,-0.007775815996000717,-0.0009943069143218514,-0.0005979841370869112,-8.22777174838038e-05,-0.010207015041708447,-0.0002512894994047438,0.0167879834771156,-0.7025811672210693,-0.7620333433151245,-0.3141789734363556,0.0483051314949989,-0.0921065434813499
1749035103.723374,0.5480717742739482,-1.4334153973971073,2.1780986715996073,-2.6977926897683076,0.6956069140319256,-0.8496630051001554,-0.008707246429558302,-0.001064104892812133,-0.0007845398238704685,-6.876763613699615e-05,-0.011528119443184597,-0.0002390106767459896,0.015534870326519,-0.6843981742858887,-0.7955389022827148,-0.3039279580116272,0.0493373163044452,-0.0974008664488792
1749035103.7253373,0.548055107347175,-1.4334170635768468,2.178096600555726,-2.6977909833961466,0.6955820375557198,-0.8496640514281276,-0.00965454993503507,-0.0011358614487577026,-0.000999424643097351,-3.8779188475155834e-05,-0.012852856458784714,-0.00022923936619860435,0.0039626210927963,-0.7238569259643555,-0.797370433807373,-0.3034053444862366,0.051846656948328,-0.0781181082129478
1749035103.7662578,0.5480361363902527,-1.4334187709359085,2.178094171285859,-2.6977889300629077,0.6955539973241449,-0.8496654968067807,-0.0106040243674975,-0.0012145473364503876,-0.0012444425047141632,9.91592083827951e-06,-0.014151112716109852,-0.0002215070211015182,-0.0006718635559082,-0.7100925445556641,-0.8131221532821655,-0.2925756871700287,0.0409960560500621,-0.0958787128329277
1749035103.7663045,0.5480149650103712,-1.4334205799075461,2.1780913648394877,-2.697786545204836,0.6955228868386304,-0.8496672662425623,-0.011540660805848207,-0.0013054444449323256,-0.0015205116832279104,7.864859951502349e-05,-0.015390298909399205,-0.0002153428498245164,-0.0452495813369751,-0.7397191524505615,-0.811474084854126,-0.2986242175102234,0.0508955642580986,-0.073491983115673
1749035103.7663448,0.5479917643377683,-1.4334225677514416,2.1780881525488733,-2.6977838545422244,0.6954888923892727,-0.8496692641125212,-0.012449008890221602,-0.001413664737035878,-0.0018273787240311772,0.00016760708315704948,-0.016536835885434965,-0.0002103004349885406,-0.0306247919797897,-0.7259311676025391,-0.8211579322814941,-0.2934457659721374,0.042445421218872,-0.0639139041304588
1749035103.766384,0.547966759767562,-1.4334248232273994,2.1780844958218437,-2.6977808952776132,0.6954522995780947,-0.8496713773151517,-0.013314338081078325,-0.0015436893634912005,-0.0021634033961948186,0.00027566339934960465,-0.017558096605382097,-0.00020597705660557855,-0.0598655566573143,-0.7264329195022583,-0.8300526142120361,-0.2894518375396728,0.0436980985105037,-0.0839371308684349
1749035103.7664225,0.5479402126578558,-1.4334274395682767,2.1780803474032266,-2.6977777175336044,0.6954134946647444,-0.8496734802066935,-0.014123979415275384,-0.001698966374756841,-0.002525469234713266,0.00040030251399880674,-0.01842467064678338,-0.00020202596212667175,-0.0598655566573143,-0.7264329195022583,-0.8300526142120361,-0.2894518375396728,0.0436980985105037,-0.0839371308684349
1749035103.766461,0.5479123988758475,-1.4334305075485267,2.1780756543247684,-2.6977743852795726,0.6953729574784534,-0.84967544154589,-0.014868677907590565,-0.0018815999109507418,-0.0029090629406105886,0.0005376756234687953,-0.019112748121075926,-0.00019816243342830124,-0.0733397901058197,-0.7446503639221191,-0.8453482389450073,-0.293397307395935,0.0464302636682987,-0.0856267884373664
1749035103.7664983,0.5478835865665644,-1.4334341102251855,2.178070362296129,-2.697770975949543,0.695331243515568,-0.849677133355418,-0.015543759061852076,-0.0020921615973166327,-0.003308546776111304,0.0006827829941444096,-0.01960636982455957,-0.00019416494162695293,-0.0741949900984764,-0.7652305364608765,-0.8503810167312622,-0.2840101420879364,0.0451667942106723,-0.0801880285143852
1749035103.7665565,0.547854015556622,-1.4334383198935783,2.1780644206761304,-2.6977675781207466,0.6952889546958146,-0.8496784410910869,-0.01614992077178204,-0.002329650476165879,-0.003717619338960259,0.0008297734374511264,-0.01989926359574972,-0.00018987294886513677,-0.0768186226487159,-0.7537747621536255,-0.8543583750724792,-0.282163143157959,0.0691374391317367,-0.0795481875538826
1749035103.7666235,0.5478238804350373,-1.4334431967211605,2.178057786814729,-2.6977642869145755,0.6952467006661458,-0.8496792739072055,-0.01669350770460022,-0.0025916138224170767,-0.004129923042141584,0.0009723348491131627,-0.01999600317005878,-0.00018518297754676298,-0.091541439294815,-0.7716536521911621,-0.846612274646759,-0.2826077938079834,0.075528085231781,-0.0690590068697929
1749035103.7666917,0.5477933186577834,-1.4334487881038422,2.178050428714791,-2.6977611971988695,0.6952050546815135,-0.849679573415804,-0.01718620595631331,-0.002874416308999361,-0.00453972113084445,0.0011041480760096813,-0.019912304976775128,-0.00018004437735713553,-0.091541439294815,-0.7716536521911621,-0.846612274646759,-0.2826077938079834,0.075528085231781,-0.0690590068697929
1749035103.7667625,0.5477624040195167,-1.4334551280163175,2.1780423254993333,-2.697758395187306,0.695164509300623,-0.849679319462622,-0.017644194915831107,-0.003173617210664486,-0.004942546474223537,0.0012193807117304965,-0.019674408505977417,-0.00017445579929821134,-0.1091190576553344,-0.7954039573669434,-0.8735958337783813,-0.2837480306625366,0.0613811090588569,-0.0757113620638847
1749035103.766832,0.5477311447517809,-1.4334622360137654,2.178033465781444,-2.6977559495200967,0.695125437284189,-0.8496785320910369,-0.018086884062246077,-0.0034843967515968926,-0.00533572383855532,0.0013131986322546232,-0.019317624058675053,-0.0001684628387002665,-0.1343691796064376,-0.7853045463562012,-0.8614417910575867,-0.2946651577949524,0.0908024907112121,-0.0548656955361366
1749035103.7669003,0.5476994848558677,-1.4334701157978214,2.1780238445485627,-2.6977539032250273,0.6950880623827315,-0.849677269692409,-0.018535419890149975,-0.0038019708470678074,-0.005718680580807317,0.001382264477763036,-0.01888423661083259,-0.00016215675184243482,-0.1448254734277725,-0.8195432424545288,-0.8558579087257385,-0.2923691272735595,0.0803466439247131,-0.060270220041275
1749035103.7669687,0.5476673074130021,-1.433478753463447,2.178013459555969,-2.6977522680095265,0.6950524432725331,-0.8496756239313727,-0.01901116000875802,-0.004121947311722854,-0.006092981386971263,0.0014251753183582704,-0.018421009386106642,-0.0001556736415301884,-0.1517515778541565,-0.7967444062232971,-0.87882000207901,-0.2963218092918396,0.0657258406281471,-0.0848733112215995
1749035103.767037,0.5476344393171493,-1.4334881158137145,2.1780023083647158,-2.6977510220541396,0.6950184717458293,-0.8496737122173502,-0.019534283009342138,-0.004440598130125227,-0.006462054488322756,0.0014427755500839637,-0.017976538906907844,-0.00014919306321746432,-0.1517515778541565,-0.7967444062232971,-0.87882000207901,-0.2963218092918396,0.0657258406281471,-0.0848733112215995
1749035103.7671063,0.5476006575475667,-1.4334981493853425,2.1779903868682755,-2.697750111825495,0.6949858838165818,-0.8496716684325839,-0.02012265304160396,-0.004755041598014473,-0.006830624599673841,0.0014382775811376956,-0.017598687862202343,-0.00014293466785962077,-0.163660854101181,-0.7989709377288818,-0.8883907794952393,-0.2856236100196838,0.0541965588927269,-0.0831760391592979
1749035103.7671776,0.5475656972886441,-1.4335087808469174,2.1779776894639724,-2.6977494575195733,0.694954280676113,-0.8496696326158769,-0.020791006677227573,-0.005063339621003188,-0.007203922314630189,0.0014171392258733471,-0.01733227928321286,-0.0001371513554569963,-0.1803607046604156,-0.8151412010192871,-0.8948551416397095,-0.2879828810691833,0.0509546995162963,-0.0929397270083427
1749035103.7672453,0.5475292619271345,-1.4335199191359598,2.177964210292303,-2.6977489609187515,0.6949231561334195,-0.8496677404329351,-0.021550485817179034,-0.005364521463687247,-0.00758678060210109,0.001386680732052863,-0.017217185906619137,-0.00013211753722704742,-0.1803607046604156,-0.8151412010192871,-0.8948551416397095,-0.2879828810691833,0.0509546995162963,-0.0929397270083427
1749035103.7673116,0.5474910345948665,-1.4335314593747002,2.177949944567185,-2.6977485140596005,0.6948919279134425,-0.8496661133607037,-0.022408505234502947,-0.005658550559853562,-0.007982744610260595,0.0013554669146639505,-0.01728689415266635,-0.0001281115083537808,-0.2036630809307098,-0.8362746238708496,-0.898507833480835,-0.2640036344528198,0.057458646595478,-0.0780618414282798
1749035103.7673757,0.5474506908355242,-1.4335432885954555,2.1779348891337316,-2.69774800725214,0.6948599709268309,-0.8496648504083228,-0.023368916220712858,-0.005946255290695606,-0.008393316534597127,0.001332520167099666,-0.017567565268491136,-0.0001253915867417344,-0.2026437371969223,-0.8119996190071106,-0.9050973057746888,-0.2675105929374695,0.0309185460209846,-0.090036503970623
1749035103.7675605,0.5474079120677267,-1.4335552935276854,2.177919041980475,-2.6977473354422714,0.6948266507502561,-0.8496640219277277,-0.024432408705223306,-0.006229243008463857,-0.008817442864127188,0.0013264589807709466,-0.01807756639435898,-0.00012416653350608563,-0.2026437371969223,-0.8119996190071106,-0.9050973057746888,-0.2675105929374695,0.0309185460209846,-0.090036503970623
1749035103.7693863,0.54736239926179,-1.4335673707256296,2.1779024011968064,-2.6977464024199795,0.6947913551956273,-0.849663665764142,-0.025597083493187088,-0.006509807171693512,-0.009251327226005067,0.0013446683878688592,-0.018827411728593178,-0.00012456177933164113,-0.2045515775680542,-0.8277748823165894,-0.9050946831703186,-0.2627772092819214,0.0375018119812011,-0.0824944600462913
1749035103.8102615,0.5473138853830942,-1.433579438884194,2.1778849643545177,-2.697745122894243,0.6947535214454897,-0.8496637857595694,-0.02685912093599792,-0.006790824137226316,-0.009688611411263112,0.0013926029175487871,-0.01982004144009587,-0.00012658405549591676,-0.2314843833446502,-0.8096303343772888,-0.8989214897155762,-0.2625622749328613,0.0373242124915123,-0.0981543883681297
1749035103.810308,0.5472621443928308,-1.433591452350769,2.1778667292813494,-2.6977434229817923,0.6947126562182546,-0.8496643524702353,-0.02821346467302387,-0.007075624001216079,-0.010120910289296865,0.0014733029048018345,-0.021051369094347374,-0.00013008807807587074,-0.2428623139858245,-0.8593036532402039,-0.926158845424652,-0.2583787441253662,0.01923194155097,-0.0892448052763938
1749035103.810349,0.5472069950073071,-1.4336034138141134,2.1778476967979103,-2.697741240030633,0.6946683470598083,-0.8496653058454389,-0.029654427856702463,-0.007367812560024656,-0.010538627695792927,0.00158717545158992,-0.022511040664628994,-0.00013474984667578388,-0.2551733553409576,-0.8531527519226074,-0.9175570607185364,-0.2637505531311035,0.0185120366513729,-0.0847238823771476
1749035103.8103878,0.5471482989487698,-1.4336153833420338,2.177827875371664,-2.697738522704592,0.6946202640422802,-0.8496665595627801,-0.031176128841995655,-0.0076710224014802245,-0.010931939017433164,0.0017320548415199475,-0.024183365098526328,-0.00014005173380388135,-0.2551733553409576,-0.8531527519226074,-0.9175570607185364,-0.2637505531311035,0.0185120366513729,-0.0847238823771476
1749035103.8104267,0.5470859548204897,-1.4336274809036824,2.177807286887868,-2.6977352318926986,0.6945681525407282,-0.8496680068245983,-0.032772688735969675,-0.007988583619260888,-0.011291811660283582,0.0019035183534998588,-0.026048389599385872,-0.00014528467174273593,-0.2612107396125793,-0.8464469909667969,-0.9204241037368774,-0.2479506283998489,0.0106690488755702,-0.0921884700655937
1749035103.81047,0.5470198891804793,-1.43363988052998,2.177785972059741,-2.6977313425145693,0.6945118191395906,-0.8496695276126829,-0.03443817022895073,-0.008323128934260534,-0.01161094408875916,0.0020954006333860978,-0.028083084616771947,-0.00014957224648699826,-0.2796510756015777,-0.8651781678199768,-0.9223517775535583,-0.2414806336164474,-0.0109498724341392,-0.0779662355780601
1749035103.8105092,0.5469500462798902,-1.433652795992985,2.1777639937681976,-2.6977268458824906,0.6944511139728292,-0.8496709973623107,-0.03616628925304508,-0.008676176597102635,-0.011884528985547019,0.002300431375994546,-0.030262565403948213,-0.00015192031175842902,-0.2796510756015777,-0.8651781678199768,-0.9223517775535583,-0.2414806336164474,-0.0109498724341392,-0.0779662355780601
1749035103.8105474,0.546876377955234,-1.4336664597080204,2.1777414369881543,-2.6977217520025376,0.6943859135087745,-0.8496722965918165,-0.0379499793747091,-0.009047752334883146,-0.012110777196224227,0.0025109196574667823,-0.03256123254739691,-0.00015129382465877808,-0.3164023756980896,-0.8590219616889954,-0.9346476793289183,-0.2486672848463058,-0.0181973837316036,-0.0928906723856926
1749035103.810585,0.546798835450172,-1.4336810980852737,2.1777184046565656,-2.6977160910798847,0.6943161074302907,-0.8496733204520964,-0.0397809291634841,-0.009436107913360862,-0.012291168336548594,0.002719418595098748,-0.03495369958645468,-0.00014672001690906053,-0.3164023756980896,-0.8590219616889954,-0.9346476793289183,-0.2486672848463058,-0.0181973837316036,-0.0928906723856926
1749035103.8106215,0.546717365166266,-1.4336969074658201,2.177695009545119,-2.6977099135969373,0.6942415918358135,-0.8496739868812201,-0.04164923015504724,-0.00983757376195327,-0.01243041593137405,0.00291931503846775,-0.03741540069898135,-0.0001374138726466761,-0.3142189383506775,-0.8789257407188416,-0.9461094737052916,-0.2449234575033188,-0.0124827697873115,-0.0906737670302391
1749035103.8106637,0.5466319099346547,-1.433714034635649,2.1776713629108353,-2.6977032886077157,0.6941622690783081,-0.849674242365156,-0.04354325135338453,-0.01024656261615646,-0.012536150913293975,0.0031052916589116627,-0.039922817503078196,-0.00012291840003762801,-0.3244282007217407,-0.8906957507133484,-0.9498273730278016,-0.2590090036392212,-0.0138041973114013,-0.0810958817601203
1749035103.8107104,0.5465424159857051,-1.4337325645979713,2.1776475614973627,-2.6976963002091217,0.6940780528647948,-0.8496740651613269,-0.04544980282444237,-0.01065572967126146,-0.012618344620689378,0.0032736071684764073,-0.042453318470264484,-0.00010324865718738581,-0.3244282007217407,-0.8906957507133484,-0.9498273730278016,-0.2590090036392212,-0.0138041973114013,-0.0810958817601203
1749035103.8107488,0.5464488437690876,-1.4337525163718665,2.1776236751052296,-2.697689042440963,0.6939888762715085,-0.8496734667133355,-0.04735459300084907,-0.011056287595568093,-0.012688517417224926,0.0034221527105665066,-0.04498467001786841,-7.902529809882268e-05,-0.3403750360012054,-0.8983275294303894,-0.9508586525917052,-0.2391028404235839,-0.0188624262809753,-0.1153386458754539
1749035103.810786,0.5463511792047426,-1.4337738458920586,2.177599736985431,-2.697681613082127,0.6938947003328766,-0.8496724921423382,-0.04924293733266358,-0.011438463885512172,-0.012758809135836074,0.003550283208510776,-0.04749435326836613,-5.15809905438704e-05,-0.3403750360012054,-0.8983275294303894,-0.9508586525917052,-0.2391028404235839,-0.0188624262809753,-0.1153386458754539
1749035103.810824,0.5462494418144204,-1.433796454027497,2.1775757386290273,-2.6976741068866086,0.693795521772707,-0.8496712199479419,-0.05110063376536393,-0.011792074352137107,-0.012841010881793942,0.003658481707401792,-0.04995888142070987,-2.3021919193559713e-05,-0.291182279586792,-0.9133508205413818,-0.9619784355163574,-0.2261114716529846,-0.0156434923410415,-0.0974214747548103
1749035103.8108606,0.5461436876897751,-1.433820197343896,2.17755162954647,-2.697666608800577,0.6936913798120159,-0.8496697600960714,-0.052914882593556624,-0.012107177340358733,-0.012945661661554978,0.003747961368671186,-0.052353330016225975,3.772795646598069e-06,-0.3701716065406799,-0.918901026248932,-0.979973077774048,-0.2363679707050323,-0.0174781680107116,-0.1035233363509178
1749035103.8108976,0.5460340074806169,-1.4338448994714137,2.177527321837046,-2.6976591877888887,0.693582362951368,-0.8496682494022537,-0.05467511441372186,-0.012374770654878506,-0.013081294910252289,0.0038203169578306527,-0.05465126207980304,2.5228166677055197e-05,-0.3701716065406799,-0.918901026248932,-0.979973077774048,-0.2363679707050323,-0.0174781680107116,-0.1035233363509178
1749035103.810935,0.545920521122205,-1.4338703616918014,2.177502698839168,-2.69765189204923,0.6934686164283903,-0.8496668436746591,-0.05637361420106564,-0.012587490366203736,-0.013253888823654105,0.003877302180157642,-0.05682517616819898,3.723613693840798e-05,-0.3342055976390838,-0.916426956653595,-0.9927188158035278,-0.231156051158905,-0.0067486017942428,-0.1130628809332847
1749035103.81099,0.5458033713099897,-1.433896372262284,2.177477626775385,-2.6976447462871813,0.6933503499197681,-0.8496657069065838,-0.05800587452483727,-0.01274026148007907,-0.013466544911262169,0.003920749548435663,-0.05884754396646202,3.5405751899269325e-05,-0.3567731082439422,-0.9362100958824158,-0.9959460496902466,-0.2336103320121765,-0.015522301197052,-0.1154673025012016
1749035103.8110535,0.5456827174237895,-1.4339227145893958,2.1774519680401467,-2.6976377512111087,0.6932278441059552,-0.8496649984175437,-0.059570648714551644,-0.01283083768302314,-0.013719400870560169,0.003952593259787325,-0.060692423013232175,1.539256002005441e-05,-0.3733507096767425,-0.9271831512451172,-1.007830262184143,-0.2360111474990844,-0.0112388432025909,-0.1235951408743858
1749035103.8114543,0.545558731240028,-1.433949174539947,2.177425594715961,-2.6976308848285027,0.693101454563411,-0.8496648592187195,-0.06106970493167631,-0.012860160547664434,-0.014009777191043226,0.003974926917997583,-0.06233751960331634,-2.6712311435881354e-05,-0.3487275242805481,-0.9127876162528992,-1.0108163356781006,-0.2313608527183532,0.0057446211576461,-0.1347512304782867
1749035103.813402,0.5454315950397592,-1.433975547213613,2.1773984009810494,-2.697624104921153,0.6929716115850668,-0.8496653991880703,-0.0625073229463181,-0.012832476086334503,-0.014332554415702954,0.003990035851151215,-0.06376646435735601,-9.396502034892015e-05,-0.3487275242805481,-0.9127876162528992,-1.0108163356781006,-0.2313608527183532,0.0057446211576461,-0.1347512304782867
1749035103.8582802,0.5453015014908487,-1.434001643616311,2.1773703131340714,-2.697617352263538,0.6928388144701171,-0.8496666868084711,-0.06388962462437582,-0.012755171243085256,-0.014680768679240204,0.004000377058531869,-0.06497099500843224,-0.00018816682773419358,-0.3622071146965027,-0.9329462051391602,-1.0164635181427002,-0.2251074016094207,0.0211417600512504,-0.1466334760189056
1749035103.8583274,0.5451686537546544,-1.4340272976659687,2.1773412960563703,-2.69761055447415,0.6927036190482888,-0.8496687429525964,-0.06522386065353905,-0.012638332434803223,-0.015046389978991444,0.004008515081187326,-0.06595274155429193,-0.0003095289471970953,-0.4174024760723114,-0.9164586067199708,-1.0313661098480225,-0.2250689566135406,0.018524132668972,-0.1235947236418724
1749035103.8583698,0.5450332644445544,-1.4340523735160042,2.177311355270088,-2.6976036306792195,0.6925666182647734,-0.8496715394332924,-0.0665177721004656,-0.012494074353947542,-0.015421214248471354,0.004017038468759032,-0.06672437042721625,-0.00045646113132393097,-0.3955102264881134,-0.946849286556244,-1.0204405784606934,-0.2182021141052246,0.0123821459710598,-0.1309402287006378
1749035103.8584092,0.5448955529846843,-1.4340767724340042,2.177280534354787,-2.697596497331318,0.6924284168981829,-0.849675002227991,-0.06777911185842064,-0.012335725220752422,-0.015797769652645042,0.004028471411364378,-0.06730994257868844,-0.0006255383194893496,-0.3941406011581421,-0.9434964060783386,-1.020784854888916,-0.2354926764965057,0.0063366927206516,-0.1400715112686157
1749035103.8584478,0.544755741373395,-1.434100438063408,2.1772489080751614,-2.69758907544555,0.6922896016699144,-0.8496790189262261,-0.06901536553759362,-0.012176970867082122,-0.016170123681736998,0.0040451687783048815,-0.06774444062742774,-0.000811687374865927,-0.3941406011581421,-0.9434964060783386,-1.020784854888916,-0.2354926764965057,0.0063366927206516,-0.1400715112686157
1749035103.8584864,0.5446140477448063,-1.4341233592939344,2.1772165719057335,-2.6975812991155954,0.6921507071572625,-0.8496834498784677,-0.07023366770942117,-0.012031052069058289,-0.01653448815416516,0.004069164894698479,-0.0680724885800363,-0.0010086110101623874,-0.3933500349521637,-0.9496329426765442,-1.0207042694091797,-0.2353915274143219,0.0264469161629676,-0.1408087313175201
1749035103.8585246,0.5444706762638171,-1.434145570872434,2.177183628837942,-2.6975731245358565,0.6920121776022735,-0.8496881420893765,-0.07144087234991982,-0.011910084711324704,-0.01688955217691713,0.004101959656486591,-0.06834631829541747,-0.0012094272809851751,-0.3914252519607544,-0.9614723324775696,-1.0397188663482666,-0.213154137134552,0.0201081186532974,-0.1250179708003997
1749035103.8585625,0.544325802178546,-1.4341671525201491,2.1771501746947606,-2.6975645381230806,0.6918743260581388,-0.8496929440023604,-0.07264370695451973,-0.011824538753068747,-0.017236518204152236,0.004144270621903562,-0.0686230571428937,-0.0014074537664313042,-0.4088641703128814,-0.9533318281173706,-1.0487343072891235,-0.2122412174940109,-0.0058244168758392,-0.1244119927287101
1749035103.8586,0.5441795526274842,-1.4341882272383015,2.177116283627387,-2.6975555619651495,0.6917372946263439,-0.8496977188222126,-0.07384892390010117,-0.011782878115958456,-0.01757885981865309,0.004195830375356005,-0.0689614510047344,-0.0015970167951818502,-0.3949316442012787,-0.9801335334777832,-1.0501301288604736,-0.194890946149826,0.0030789971351623,-0.1317482590675354
1749035103.858637,0.5440319859271572,-1.4342089588712994,2.177081995693966,-2.697546254935257,0.6916010212236962,-0.8497023546665164,-0.07506336820892737,-0.011791341389059035,-0.017921850619939613,0.004255329059578431,-0.06941820058545475,-0.001774136072844094,-0.4310779869556427,-0.9603202939033508,-1.0432254076004028,-0.2055273652076721,-0.0027485936880111,-0.1438792645931244
1749035103.8586743,0.5438830732764005,-1.434229548316714,2.177047308201153,-2.697536708481239,0.691465218650203,-0.8497067712213074,-0.07629390733900199,-0.011853839074670533,-0.018271927468545075,0.004320571808213734,-0.07004415684101717,-0.0019369409917375058,-0.4319924116134643,-1.009881854057312,-1.0465251207351685,-0.2045947313308715,-0.0157970339059829,-0.1399956047534942
1749035103.858711,0.5437326868274747,-1.4342502273902467,2.1770121719167235,-2.697527037165755,0.6913293709793287,-0.8497109236201432,-0.07754720408265102,-0.011971949458058698,-0.01863595186481771,0.004388848549135314,-0.07088066682305255,-0.002085721654437952,-0.39496049284935,-0.9868057370185852,-1.0585403442382812,-0.2176785916090011,-0.0390225052833557,-0.1397538483142852
1749035103.858748,0.5435805972766232,-1.4342712494293177,2.1769764925691626,-2.697517365131691,0.6911927507950306,-0.8497148043811562,-0.0788293437857267,-0.012145000359014268,-0.019020428876122538,0.004457433836220273,-0.071956369562397,-0.002222594502088615,-0.4386436641216278,-0.998482584953308,-1.0495314598083496,-0.2223196327686309,-0.0369774848222732,-0.1415480524301529
1749035103.858785,0.5434264828221611,-1.4342928761916631,2.1769401374166995,-2.6975078105053254,0.6910544585832263,-0.8497184437173274,-0.08014534660246796,-0.012370225609164977,-0.019430741244383598,0.004524087459943729,-0.07328471534384923,-0.0023508492208844057,-0.4244264364242553,-1.012807011604309,-1.056030035018921,-0.2114857137203216,-0.0425634384155273,-0.1515028178691864
1749035103.8588262,0.5432699496611485,-1.4343153613339514,2.176902946164496,-2.6974984701784592,0.6909134826807866,-0.8497219080314746,-0.08149861159763536,-0.012642987578093191,-0.019870458627591275,0.004587433625085049,-0.07486243507646381,-0.0024741177531276775,-0.408324271440506,-1.0035791397094729,-1.0671056509017944,-0.2196453958749771,-0.0615409910678863,-0.1518694162368774
1749035103.8588643,0.5431105623295045,-1.4343389316765207,2.1768647451403007,-2.6974894073054987,0.6907687749409505,-0.8497252962629819,-0.08289036329028342,-0.012957062088807451,-0.020340785258559882,0.004647147113284506,-0.07666913497240936,-0.002595547602436878,-0.4370405077934265,-0.9935514330863952,-1.0796750783920288,-0.2156986594200134,-0.0619655027985572,-0.1462176740169525
1749035103.8589015,0.5429478803335402,-1.434363768482916,2.176825363361571,-2.6974806431724274,0.690619334288659,-0.8497287338614149,-0.08431920600277533,-0.013304986053755954,-0.020840210290308508,0.004703938225532791,-0.07866814144329395,-0.002717157763941996,-0.4370405077934265,-0.9935514330863952,-1.0796750783920288,-0.2156986594200134,-0.0619655027985572,-0.1462176740169525
1749035103.858939,0.542781495894364,-1.4343899917355862,2.1767846488558606,-2.697472154079471,0.6904642882488804,-0.8497323643486923,-0.08578092488976762,-0.013678466543620347,-0.021364419067253837,0.004759375174795075,-0.0808086613594266,-0.0028395058447549157,-0.4473519325256347,-1.0248852968215942,-1.0800193548202517,-0.2084714621305465,-0.0401788726449012,-0.1622565686702728
1749035103.8589754,0.5426110669565162,-1.4344176503162926,2.1767424834050875,-2.697463873006724,0.69030296221524,-0.8497363387037765,-0.0872686757344136,-0.014068840896728172,-0.021906502381522263,0.004815600237057753,-0.08302923044507207,-0.002961710215634577,-0.4532902240753174,-1.034056544303894,-1.083579659461975,-0.2128352224826812,-0.0297102071344852,-0.140959620475769
1749035103.859012,0.5424363410380878,-1.4344467198913053,2.176698794107374,-2.6974556954723052,0.6901349286676053,-0.8497408031521082,-0.08877364992732666,-0.014467563057470581,-0.022457459768427238,0.004874990263078665,-0.08526228508102987,-0.0030817732037384084,-0.4139904677867889,-0.9930495619773864,-1.0752357244491575,-0.2001863270998001,-0.0493953227996826,-0.156683087348938
1749035103.8590488,0.5422571689383501,-1.4344771086243748,2.1766535608922037,-2.6974474890548543,0.689960033379899,-0.8497458861942517,-0.0902861867949194,-0.014866678133133446,-0.023006940336879042,0.004939801095384105,-0.08743953288519976,-0.003197071800570618,-0.4803463816642761,-1.0102858543395996,-1.0892252922058103,-0.2048220187425613,-0.0604360550642013,-0.1564123630523681
1749035103.8590865,0.5420735105014025,-1.4345086693911433,2.176606819832094,-2.6974391060733574,0.689778400381082,-0.849751685763565,-0.09179716699018808,-0.015259243483609651,-0.023544119715306115,0.005011836164529932,-0.08949766096809886,-0.003304851455293383,-0.3417485356330871,-1.004263401031494,-1.0741336345672607,-0.1951815634965896,-0.0385546386241912,-0.1468468010425567
1749035103.859414,0.5418854351157493,-1.434541216428411,2.17655866215582,-2.697430398573252,0.6895904193930537,-0.8497582574430123,-0.09329940749221362,-0.01563966415850955,-0.024058593247814248,0.00509219245827335,-0.0913838389912614,-0.0034025873022380635,-0.3417485356330871,-1.004263401031494,-1.0741336345672607,-0.1951815634965896,-0.0385546386241912,-0.1468468010425567
1749035103.8613777,0.5416931175048854,-1.434574544232172,2.176509228523634,-2.697421234170681,0.6893967184679064,-0.8497656049254415,-0.09478874359149042,-0.016003927644142442,-0.02454118307902937,0.0051811413354860975,-0.09306045691101003,-0.0034881506107264735,-0.3981309831142425,-1.0184260606765747,-1.084149956703186,-0.1961308121681213,-0.0078232660889625,-0.147637665271759
1749035103.9022732,0.5414968271596455,-1.4346084466573898,2.176458698240548,-2.6974115107874903,0.6891981227129935,-0.8497736742449418,-0.09626456358451015,-0.01634973634125342,-0.024984604588461745,0.005278174518645368,-0.09450859215263314,-0.003559806646473896,-0.4110167622566223,-1.0061839818954468,-1.0728037357330322,-0.211516872048378,-0.0011606141924858,-0.1679458022117614
1749035103.9023209,0.5412969096561235,-1.434642734393314,2.176407274015528,-2.6974011681315058,0.6889955993235115,-0.849782353351726,-0.09772973511643733,-0.016676538935435525,-0.02538399176498116,0.005382190416790601,-0.09572982975276881,-0.003616141404916252,-0.4110167622566223,-1.0061839818954468,-1.0728037357330322,-0.211516872048378,-0.0011606141924858,-0.1679458022117614
1749035103.9023616,0.5410937598171343,-1.4346772494183675,2.1763551639899648,-2.6973901940883565,0.6887901899649155,-0.849791478160068,-0.09919003562377747,-0.01698545819352675,-0.02573730900137238,0.005491745549077702,-0.09674624035099488,-0.003656040207267994,-0.4096410274505615,-1.0282347202301023,-1.0659372806549072,-0.1937784999608993,0.0080323899164795,-0.1506237387657165
1749035103.9024007,0.5408877886420935,-1.434711875739614,2.1763025632619843,-2.6973786250281195,0.6885829335091421,-0.8498008453509317,-0.1006532827991483,-0.017279112840633173,-0.02604566122563046,0.005605283350030746,-0.09759851451204483,-0.0036788067354664006,-0.4021837115287781,-1.024266004562378,-1.0770275592803955,-0.2008311301469802,0.0049510970711708,-0.1411078870296478
1749035103.9024389,0.5406793874602851,-1.4347465463637925,2.1762496369382145,-2.6973665402329026,0.6883747850392363,-0.8498102310561517,-0.10212834278326505,-0.01756133885321354,-0.026313469209318503,0.005721282112476393,-0.09834242188416585,-0.00368442956255133,-0.4231385886669159,-1.025737166404724,-1.0613499879837036,-0.1719562858343124,0.0113084726035594,-0.1276991814374923
1749035103.9024775,0.5404688936471521,-1.4347812466405039,2.176196506235719,-2.6973540518293815,0.6881665396989691,-0.8498194132459217,-0.10362413381523096,-0.0178368256855782,-0.026548437964766892,0.005838310923285012,-0.09904389858287903,-0.0036739114449966122,-0.4169844686985016,-1.0241131782531738,-1.0780857801437378,-0.1976098269224167,0.0089820995926857,-0.1176553070545196
1749035103.9025185,0.5402565617089409,-1.4348160139750332,2.1761432385676054,-2.6973412922994076,0.6879587702256823,-0.8498281946090467,-0.10514870464706857,-0.018110690472816746,-0.026761244849031175,0.005955018133107662,-0.09977317576940242,-0.0036495168487075576,-0.4169844686985016,-1.0241131782531738,-1.0780857801437378,-0.1976098269224167,0.0089820995926857,-0.1176553070545196
1749035103.9025562,0.5400425415476278,-1.4348509338847344,2.176089841969832,-2.697328401625115,0.6877517843498212,-0.8498364224642573,-0.10670846544535774,-0.018388019313068812,-0.026964916578801894,0.006070089161464464,-0.10059845588561336,-0.003614793722691728,-0.4227501153945923,-1.0480848550796509,-1.1009526252746582,-0.1981925517320633,0.0140288285911083,-0.1479271352291107
1749035103.9025936,0.5398268640906924,-1.4348861325950462,2.1760362638651762,-2.6973155156035844,0.6875456047361096,-0.8498440028871987,-0.10830765603639528,-0.01867341286376374,-0.027173929712969825,0.006182207805727792,-0.10157971495664715,-0.003574289245556652,-0.45675128698349,-1.0346646308898926,-1.0966675281524658,-0.1880190223455429,-0.0151078477501869,-0.1457513272762298
1749035103.9026308,0.53960943496351,-1.434921766557316,2.1759823941821184,-2.6973027562057874,0.6873399719656458,-0.8498509073786386,-0.10994811905006538,-0.018970582162919126,-0.02740312492274081,0.006290052152238561,-0.10276324291269878,-0.003532982319540719,-0.3857133984565735,-1.0486856698989868,-1.0972862243652344,-0.1847343295812606,-0.0307132229208946,-0.1397995352745056
1749035103.9026716,0.5393900386672232,-1.4349580093110623,2.1759280730741963,-2.6972902242401555,0.6871343702282261,-0.849857171567688,-0.11162939380973949,-0.019282042906153787,-0.027666550200335857,0.0063923552317809215,-0.10417750805670199,-0.0034955575827675446,-0.4416748285293579,-1.0562149286270142,-1.128659725189209,-0.1799523383378982,-0.0387699306011199,-0.1606649756431579
1749035103.9027095,0.5391683562224359,-1.4349950362242683,2.1758731034309773,-2.6972779940912965,0.6869280744328928,-0.849862886516324,-0.11334907559284196,-0.019608946023452138,-0.027976343590694487,0.006488049540392361,-0.1058308286112426,-0.003465707077486156,-0.4184340834617615,-1.0418527126312256,-1.1218290328979492,-0.1495147347450256,-0.0511741712689399,-0.1470911651849746
1749035103.9027472,0.5389439972160263,-1.435033007924355,2.1758172677073055,-2.6972661101065234,0.6867202155348249,-0.8498681842259854,-0.11510332259255134,-0.019951058650904577,-0.028341747823928443,0.006576482950475313,-0.10771114888834156,-0.0034456440220047998,-0.4280820488929748,-1.058969259262085,-1.1040780544281006,-0.1719821393489837,-0.0289650857448577,-0.1755533516407013
1749035103.9027848,0.5387165436893884,-1.4350720535725994,2.1757603475387883,-2.6972545843620934,0.6865098584216713,-0.8498732198413639,-0.11688736859413254,-0.020306880250517925,-0.02876833014640872,0.006657651194338851,-0.10978796977966795,-0.0034359504642837006,-0.4406579732894897,-1.0416704416275024,-1.1202200651168823,-0.1854753941297531,-0.0434707999229431,-0.1440155655145645
1749035103.9028225,0.5384855998806112,-1.4351122555692408,2.175702143723483,-2.697243395828478,0.6862960842945979,-0.8498781535301154,-0.11869592720357795,-0.02067385760686423,-0.029257465936696085,0.006732366600657097,-0.11201621914476982,-0.0034357802500318284,-0.4406579732894897,-1.0416704416275024,-1.1202200651168823,-0.1854753941297531,-0.0434707999229431,-0.1440155655145645
1749035103.902859,0.5382508394963565,-1.4351536378701524,2.175642493847386,-2.697232491104621,0.6860780676822559,-0.849883134845107,-0.12052344051556714,-0.021048659690203572,-0.02980613582702572,0.006802295129146346,-0.11434161609676315,-0.0034433353371275915,-0.4325093924999237,-1.0511059761047363,-1.155305027961731,-0.1705467998981475,-0.0516735911369323,-0.145852580666542
1749035103.9028962,0.538012041875557,-1.4351961604954773,2.1755812852096854,-2.6972217868884476,0.6858551381841945,-0.8498882914857855,-0.12236419863862034,-0.021427486395237425,-0.03040707691737871,0.0068698387338771445,-0.11670690224499719,-0.003456460495235479,-0.4801076352596283,-1.056571364402771,-1.1461154222488403,-0.1943459212779998,-0.0088907741010189,-0.1199380755424499
1749035103.9029324,0.5377691105471233,-1.4352397224242912,2.1755184616461904,-2.6972111743079106,0.6856268196516401,-0.8498937230321512,-0.12421240903501414,-0.021806401227854884,-0.03104930494401963,0.006937891224321199,-0.11905818261087049,-0.003473181104501564,-0.4801076352596283,-1.056571364402771,-1.1461154222488403,-0.1943459212779998,-0.0088907741010189,-0.1199380755424499
1749035103.902969,0.537522071305533,-1.4352841736987683,2.175454024016208,-2.697200525170341,0.6853928439125221,-0.849899499008269,-0.1260623169534362,-0.022181682696170567,-0.03171897914053212,0.00700952718402589,-0.12135056980893773,-0.0034920477598827677,-0.4861208796501159,-1.0363574028015137,-1.118991136550903,-0.1689569354057312,-0.0152511075139045,-0.1579334884881973
1749035103.9030054,0.5372710507485102,-1.4353293355223404,2.175388025082498,-2.6971897000435607,0.6851531405507656,-0.849905660035327,-0.127908465937869,-0.02255017599702456,-0.03240052804584331,0.007087686405122067,-0.12355240842757013,-0.003512237251693984,-0.4513313472270965,-1.046500563621521,-1.1196671724319458,-0.1754989326000213,-0.0094128549098968,-0.1583835482597351
1749035103.903373,0.5370162399352095,-1.4353750250368909,2.1753205601331334,-2.6971785578533076,0.6849078078017957,-0.8499122208329913,-0.12974613287762357,-0.022909605872844487,-0.033077915207772327,0.007174898542255176,-0.12564757401788232,-0.003533457862011673,-0.4753487110137939,-1.0543702840805054,-1.129006266593933,-0.1695649027824401,-0.0175036340951919,-0.1702703833580017
1749035103.9053752,0.5367578508086764,-1.4354210801588068,2.175251755035631,-2.6971669663753746,0.684657071846757,-0.849919174023211,-0.13157188368451003,-0.02325880537604166,-0.033735911815513116,0.007273067464741351,-0.12763563221111188,-0.0035557722111615384,-0.4278377592563629,-1.063064455986023,-1.116917848587036,-0.1738490462303161,-0.0247058570384979,-0.1703191250562667
1749035103.9462738,0.5364960735557527,-1.4354673800577429,2.175181753370501,-2.69715481261163,0.684401241681914,-0.8499264938317616,-0.1333841123141551,-0.023597833470555288,-0.03436125591405792,0.007383313123650051,-0.12952994742644483,-0.0035794528000527037,-0.4278377592563629,-1.063064455986023,-1.116917848587036,-0.1738490462303161,-0.0247058570384979,-0.1703191250562667
1749035103.946323,0.5362310406508524,-1.435513858418508,2.175110703775276,-2.697142011688079,0.6841406644011144,-0.8499341389873468,-0.13518339575801025,-0.023927979839810654,-0.03494360236831127,0.007505859445251968,-0.13135411736506236,-0.003604928529486512,-0.4640806317329407,-1.068830490112305,-1.1298375129699707,-0.170954018831253,-0.038892924785614,-0.1348354667425155
1749035103.9463642,0.5359628001021866,-1.435560508561515,2.17503874800528,-2.6971285128727143,0.6838756833472697,-0.8499420546124524,-0.136972539505591,-0.024251665491919858,-0.035476192135311696,0.0076399644101293185,-0.13313735189844997,-0.0036327993318350585,-0.4439001381397247,-1.0696191787719729,-1.1001471281051636,-0.166640043258667,-0.0376871526241302,-0.1143588945269584
1749035103.9464023,0.5356912987792917,-1.4356073809458616,2.1749660099847192,-2.697114301723304,0.6836066010234478,-0.8499501736264502,-0.13875627586020298,-0.02457224446538738,-0.03595619066763414,0.007783907396810709,-0.13490956843694205,-0.0036638354981462784,-0.4439001381397247,-1.0696191787719729,-1.1001471281051636,-0.166640043258667,-0.0376871526241302,-0.1143588945269584
1749035103.9464405,0.5354163766759338,-1.435654574370673,2.1748925863015374,-2.697099398095926,0.6833336491934956,-0.8499584187181717,-0.14054066605491466,-0.024893715139249456,-0.036384671789936845,0.007935064341644189,-0.13669699507508362,-0.003698873818282002,-0.4598750472068786,-1.0931473970413208,-1.110507607460022,-0.1490691751241684,-0.082089863717556,-0.1294833719730377
1749035103.9464786,0.5351377732092586,-1.4357022225809268,2.1748185388821386,-2.6970838505618775,0.6830569687007105,-0.8499667059000418,-0.14233231598339582,-0.025220366474565062,-0.036766264499108525,0.00809010068031236,-0.13851893796895812,-0.003738581089696532,-0.4475452303886413,-1.0833241939544678,-1.141751408576965,-0.1617344468832016,-0.0750633776187896,-0.1717137396335601
1749035103.946521,0.5348551465070368,-1.4357504781818653,2.174743890781709,-2.6970677285073643,0.6827766011522544,-0.8499749500697266,-0.14413753896040052,-0.025556399808095386,-0.03710852794869341,0.008245292145904325,-0.14038609932015453,-0.00378314513966168,-0.4637839496135711,-1.0478781461715698,-1.1220921277999878,-0.1443361341953277,-0.0364012122154235,-0.1497803330421447
1749035103.9465597,0.5345681056352747,-1.4357994958278504,2.174668625951632,-2.6970511135255557,0.6824924940031333,-0.8499830722476359,-0.14596159665325,-0.02590556650613212,-0.03742115098432635,0.00839694909078116,-0.1423004894055263,-0.003832020344396136,-0.479156881570816,-1.0725127458572388,-1.1170514822006226,-0.1537822782993316,-0.0465156286954879,-0.1707561314105987
1749035103.946597,0.5342762530942329,-1.4358494165957836,2.1745926932463937,-2.697034091446137,0.682204518828038,-0.8499910075372371,-0.14780813033679566,-0.0262708512093809,-0.03771507531814595,0.008541883115861367,-0.14425665973672405,-0.0038838577239106733,-0.479156881570816,-1.0725127458572388,-1.1170514822006226,-0.1537822782993316,-0.0465156286954879,-0.1707561314105987
1749035103.9466343,0.5339792313753682,-1.4359003552711693,2.1745160139974824,-2.6970167457147816,0.6819124994948093,-0.8499987124745295,-0.14967885758981844,-0.02665422294091311,-0.03800162855307006,0.00867783278856828,-0.14624378662953885,-0.003936684802562536,-0.4776425063610077,-1.1069122552871704,-1.1104546785354614,-0.1590253412723541,-0.0474580526351928,-0.1486326903104782
1749035103.9466712,0.5336767656188792,-1.4359523918886983,2.1744384918679156,-2.6969991522683485,0.6816162444994478,-0.8500061703231687,-0.1515735507252985,-0.027056474393585602,-0.038291742109928244,0.008803769441281716,-0.14824807914633098,-0.003988298036581833,-0.4427989721298218,-1.112281322479248,-1.1439540386199951,-0.1342795938253402,-0.0210739262402057,-0.1592355072498321
1749035103.9467213,0.5333686960466201,-1.4360055682321176,2.1743600237208063,-2.6969813757424363,0.6813155777959051,-0.8500133930807678,-0.15349024503675,-0.027477164895410026,-0.03859532114437139,0.008920029254001989,-0.15025503168690987,-0.0040367392482255,-0.4427989721298218,-1.112281322479248,-1.1439540386199951,-0.1342795938253402,-0.0210739262402057,-0.1592355072498321
1749035103.9467883,0.533054997327305,-1.4360598892191285,2.17428051047953,-2.6969634667821567,0.6810103645804242,-0.8500204195250198,-0.15542557657805342,-0.027914668714906266,-0.03892081379200334,0.009028248570567622,-0.15225114845626125,-0.004080692868486169,-0.4732294082641601,-1.080552339553833,-1.126536250114441,-0.1411357372999191,-0.0190693102777004,-0.1511673629283905
1749035103.946854,0.5327357851804787,-1.4361153282964612,2.1741998670641944,-2.6969454603995944,0.6807005311560562,-0.8500273094470768,-0.1573751426315787,-0.02836631031756061,-0.03927497933186652,0.009131105735185054,-0.15422492000139848,-0.0041196813018324705,-0.4864063560962677,-1.106630802154541,-1.1139919757843018,-0.1355739682912826,-0.0248767249286174,-0.1573911011219024
1749035103.9469235,0.5324113130598234,-1.4361718351730135,2.1741180307408325,-2.6969273756224497,0.6803860806352351,-0.8500341349866923,-0.15933380954651488,-0.028828551977786682,-0.03966278944612017,0.009231895646558352,-0.1561670139760922,-0.004154027978051856,-0.4926849007606506,-1.1222485303878784,-1.1380939483642578,-0.1482787877321243,-0.0122319459915161,-0.1464405953884124
1749035103.9469917,0.532081963488393,-1.4362293436833626,2.1740349678571382,-2.6969092167690434,0.680067107990606,-0.8500409704409473,-0.16129594272249165,-0.029297198308458564,-0.04008735921604603,0.00933398674162023,-0.1580698228049249,-0.004184650768530169,-0.5027116537094116,-1.1174770593643188,-1.1338999271392822,-0.1536182910203933,-0.0274024009704589,-0.156192809343338
1749035103.9470575,0.5317482378967577,-1.4362877778427856,2.173950679467616,-2.696890976348021,0.6797438169014769,-0.8500478821565154,-0.16325558356388117,-0.02976759946432809,-0.040549832073723396,0.009440232674690754,-0.15992665857234656,-0.004212797528207963,-0.5027116537094116,-1.1174770593643188,-1.1338999271392822,-0.1536182910203933,-0.0274024009704589,-0.156192809343338
1749035103.9471269,0.5314107451667158,-1.436347055320405,2.173865206116559,-2.6968726390940767,0.6794165366915619,-0.8500549202631738,-0.16520663257965268,-0.03023485700214325,-0.04104921702353918,0.009552424413904593,-0.16173096641234647,-0.004239824998769766,-0.5089114308357239,-1.1248034238815308,-1.1341947317123413,-0.1467405408620834,-0.0386292189359664,-0.1167821884155273
1749035103.9471948,0.5310701852014053,-1.4364070888616867,2.173778631144791,-2.6968541864646554,0.6790857333774124,-0.8500621138066781,-0.16714310200472843,-0.030694044393033883,-0.04158224133707434,0.009670865213739542,-0.163475907976132,-0.004267067769449545,-0.4762493371963501,-1.0847983360290527,-1.1190601587295532,-0.1482652872800827,-0.053628109395504,-0.1495995819568634
1749035103.947244,0.5307273227908258,-1.436467786838122,2.1736910810687067,-2.6968356010888335,0.6787520074760253,-0.8500694700130539,-0.16905946929676888,-0.03114044199688608,-0.04214330394914819,0.009794132845067745,-0.16515453966335902,-0.004295780993091804,-0.4716892540454864,-1.1064655780792236,-1.1572085618972778,-0.1297589689493179,-0.0149027947336435,-0.1079324930906295
1749035103.9475331,0.530382948650827,-1.43652905414388,2.1736027213573013,-2.696816870857547,0.678416072453913,-0.8500769772553584,-0.17095110949386558,-0.03156976808475153,-0.04272460376518699,0.009919071045755967,-0.16676061792494676,-0.004327106162493088,-0.4716892540454864,-1.1064655780792236,-1.1572085618972778,-0.1297589689493179,-0.0149027947336435,-0.1079324930906295
1749035103.949375,0.5300378265153377,-1.436590794570273,2.173513746214479,-2.696797992343604,0.6780787096525329,-0.8500846104887378,-0.17281474366211252,-0.03197838134431674,-0.04331649543895259,0.010041031783907948,-0.1682898770661883,-0.004362020118631283,-0.5117125511169434,-1.0913814306259155,-1.1375951766967771,-0.1529069691896438,-0.0305059254169464,-0.1537148356437683
1749035103.990283,0.5296926271847486,-1.436652915518246,2.173424361689739,-2.6967789731359564,0.6777406986353873,-0.8500923378699832,-0.17464883695395436,-0.0323634381561934,-0.043908097747156906,0.010154366888580528,-0.1697415003848697,-0.0044012687914861985,-0.5130999088287354,-1.100728988647461,-1.16461443901062,-0.141102060675621,-0.0116210728883743,-0.1802335977554321
1749035103.9903295,0.5293478539373124,-1.4367153351415187,2.173334762757073,-2.6967598326778335,0.6774027277563273,-0.8501001277491204,-0.17645390381238105,-0.032722997803818085,-0.04448814059491936,0.010253135416227471,-0.17111946163207944,-0.004445323672270465,-0.4752983152866363,-1.084064483642578,-1.1420377492904663,-0.1454444378614425,-0.0091121643781661,-0.1461680084466934
1749035103.9903698,0.5290037679976294,-1.4367779910419076,2.1732451066194303,-2.696740601318862,0.6770652965584266,-0.8501079556608808,-0.17823269761442498,-0.033056072971484426,-0.045045989232396506,0.010331954796762244,-0.1724334433524079,-0.004494399605143214,-0.4494660198688507,-1.1132034063339231,-1.1345449686050415,-0.1444419175386428,-0.0147487074136734,-0.1687032878398895
1749035103.990408,0.5286603246547276,-1.4368408491099278,2.1731554855716912,-2.6967213173816202,0.6767286249547022,-0.8501158110191378,-0.17999025276656633,-0.0333626240955424,-0.045572740682794065,0.010386889668656807,-0.17369912675934088,-0.0045485331407475755,-0.4494660198688507,-1.1132034063339231,-1.1345449686050415,-0.1444419175386428,-0.0147487074136734,-0.1687032878398895
1749035103.9904456,0.5283171290009437,-1.4369039111312731,2.1730659029255466,-2.69670202216298,0.6763925824927424,-0.850123702970862,-0.18173371409703298,-0.03364349876728706,-0.04606225664097229,0.010416250128002374,-0.17493776782288575,-0.004607670113866395,-0.4305253326892853,-1.0785620212554932,-1.113408446311951,-0.1457267254590988,-0.0118387639522552,-0.1298522800207138
1749035103.9904842,0.5279734179492794,-1.4369672199366748,2.1729762553591083,-2.6966827532160638,0.6760566474332463,-0.8501316645113518,-0.18347186744183205,-0.03390032264608002,-0.046511982586262005,0.010421163180353155,-0.17617508300606893,-0.004671690137251174,-0.45024174451828,-1.100583791732788,-1.1148369312286377,-0.161134734749794,0.0215094536542892,-0.1608555316925048
1749035103.9905226,0.5276280749021125,-1.4370308608730822,2.1728863252245216,-2.6966635369955307,0.6757199031672719,-0.8501397537313695,-0.18521431739252703,-0.03413535602460901,-0.04692340931658046,0.01040579201320729,-0.17743953038673285,-0.0047403258180998544,-0.470138669013977,-1.1047313213348389,-1.1130316257476809,-0.1557458788156509,-0.0030504763126373,-0.1486381441354751
1749035103.990561,0.5272796835536199,-1.4370949584268553,2.1727957863990053,-2.696644382486233,0.6753810779603361,-0.8501480511906933,-0.18697035609399848,-0.03435133666053538,-0.04730206836404289,0.01037711835697873,-0.17876009507213528,-0.004813002055405518,-0.4923935532569885,-1.0925511121749878,-1.1197707653045654,-0.1618507802486419,-0.0179981924593448,-0.1913214921951294
1749035103.9905984,0.5269266236373886,-1.4371596673520375,2.1727042260591443,-2.6966252772435815,0.6750386297299371,-0.8501566530096929,-0.18874769885906556,-0.03455132656788045,-0.04765701775092914,0.010344278815702636,-0.18016371666528747,-0.004888684900140976,-0.4923935532569885,-1.0925511121749878,-1.1197707653045654,-0.1618507802486419,-0.0179981924593448,-0.1913214921951294
1749035103.9906356,0.5265672028642376,-1.4372251587432143,2.172611181877317,-2.696606186419859,0.6746908694384322,-0.8501656602079201,-0.1905513583955694,-0.034738567045339896,-0.0479998555741319,0.01031754035456112,-0.18167256247846567,-0.004965846826021254,-0.4734265506267547,-1.088154435157776,-1.1170531511306765,-0.1476348340511322,-0.0267505943775177,-0.161374494433403
1749035103.9906726,0.526199809873314,-1.4372916027196565,2.1725161905883374,-2.6965870543947412,0.6743361083676713,-0.8501751657886087,-0.19238292271188864,-0.034916336378292286,-0.0483433755448411,0.010307081022405462,-0.18330143473201577,-0.005042608672081648,-0.5063887238502502,-1.0885910987854004,-1.1208244562149048,-0.1279826164245605,-0.0242862179875373,-0.1522978246212005
1749035103.9907105,0.5258230680639085,-1.4373591501387142,2.1724188412420675,-2.696567808061753,0.6739728109366976,-0.8501852417549877,-0.19424038502609386,-0.035087810990329205,-0.04870003574666316,0.010321781965895406,-0.1850556552888966,-0.0051170300293554094,-0.5063887238502502,-1.0885910987854004,-1.1208244562149048,-0.1279826164245605,-0.0242862179875373,-0.1522978246212005
1749035103.990747,0.5254359710768862,-1.4374279157665626,2.1723188255888304,-2.6965483608186704,0.6735997365507014,-0.8501959283888534,-0.19611851366694305,-0.0352559470802172,-0.049080441382397866,0.010368224544585155,-0.18692976289186486,-0.005187439288441719,-0.5065613985061646,-1.1135663986206057,-1.117043375968933,-0.1328303813934326,-0.0134174060076475,-0.1471827328205108
1749035103.9907837,0.5250379846611096,-1.4374979648541408,2.1722159787154474,-2.6965286168304243,0.6732160576301445,-0.850207227617931,-0.19800963060891155,-0.03542341008292248,-0.0494920406615068,0.010450027652165957,-0.18890728032861168,-0.005252670228269764,-0.4845091104507446,-1.1038751602172852,-1.1178616285324097,-0.1354115307331085,-0.0315095335245132,-0.1459010690450668
1749035103.9908197,0.5246291040581145,-1.4375693044497344,2.172110304680866,-2.6965084759024935,0.6728214436238822,-0.8502191013360021,-0.19990462366486503,-0.03559257396381541,-0.04993820186332393,0.010567577634352303,-0.19096167893894175,-0.005312117941869409,-0.4845091104507446,-1.1038751602172852,-1.1178616285324097,-0.1354115307331085,-0.0315095335245132,-0.1459010690450668
1749035103.990856,0.5242098603159534,-1.4376418802314153,2.1720019839906306,-2.6964878397123564,0.6724161026459432,-0.8502314745149477,-0.20179402878558356,-0.035765592017496,-0.05041778515145141,0.010718128152333976,-0.1930585142747505,-0.005365611683173108,-0.4498556554317474,-1.1178197860717771,-1.0930962562561035,-0.1450844705104828,-0.0259118378162384,-0.1386215984821319
1749035103.990893,0.5237812732692436,-1.4377155792806617,2.1718913618822184,-2.6964666196679246,0.6720007746112988,-0.8502442421505597,-0.2036690507489882,-0.0359445167110503,-0.05092525394858861,0.010896202541119084,-0.19515856023452502,-0.005413174602986208,-0.5071474313735962,-1.084731936454773,-1.1202352046966553,-0.1403464376926422,-0.0568144768476486,-0.135298952460289
1749035103.9909291,0.5233447544394507,-1.4377902388347632,2.1717789185607517,-2.6964447455739746,0.671576674024793,-0.8502572785632401,-0.20552241625086623,-0.036131433674506205,-0.051451299820415894,0.011094217260342463,-0.1972216434671967,-0.005454767963594374,-0.4706941246986389,-1.119568109512329,-1.1276586055755615,-0.1378789693117141,-0.032369889318943,-0.1615616381168365
1749035103.9909663,0.5229019713979269,-1.4378656601792283,2.1716652250058495,-2.6964221735810012,0.6711453883753766,-0.8502704473559723,-0.2073489618592937,-0.036328581143586405,-0.0519838937848331,0.011303247078671018,-0.19921077064935375,-0.0054901028156984395,-0.4462269246578216,-1.1221253871917725,-1.0975288152694702,-0.1512161046266555,-0.0532821118831634,-0.1503082364797592
1749035103.9910028,0.522454694220309,-1.4379416256381499,2.171550890381556,-2.6963988921520348,0.6707087473372141,-0.850283610567677,-0.20914587299025542,-0.03653844551377041,-0.052509631271986,0.011513856761686158,-0.2010960570026919,-0.005518569587572151,-0.5071321725845337,-1.1462912559509275,-1.0932697057724,-0.130320519208908,-0.023948311805725,-0.1595374941825866
1749035103.9913862,0.5220046485736249,-1.438017916118687,2.171436508271228,-2.696374925520987,0.6702686828841987,-0.8502966362812592,-0.21091254970125176,-0.03676384269763523,-0.05301521134084152,0.011716926715084577,-0.20285794690081363,-0.005539307449067805,-0.5414666533470154,-1.15532648563385,-1.1199767589569092,-0.1358202993869781,-0.0390705317258834,-0.1625166684389114
1749035103.9934154,0.5215533949141774,-1.4380943275022227,2.1713226082035715,-2.6963503345041944,0.6698270972539476,-0.850309404816891,-0.2126501783034397,-0.03700799829602524,-0.053488890122089565,0.011904405086281836,-0.2044893063178793,-0.00555141387420391,-0.5414666533470154,-1.15532648563385,-1.1199767589569092,-0.1358202993869781,-0.0390705317258834,-0.1625166684389114
1749035104.0342815,0.5211022421929163,-1.4381706855963032,2.171209616734701,-2.6963252144605554,0.6693857471643858,-0.8503218141715748,-0.21436117196602283,-0.037274620716102075,-0.053921769417454135,0.012069927995042154,-0.20599614896744067,-0.005554269042809023,-0.489339530467987,-1.1301761865615845,-1.0838537216186523,-0.1460786908864975,-0.0049482062458992,-0.1541479974985122
1749035104.0343285,0.5206521944051147,-1.4382468599357718,2.1710978300104173,-2.6962996902155005,0.6689461455194491,-0.8503337853046722,-0.2160486494711561,-0.0375679298421308,-0.05430880169943698,0.012209259025778569,-0.20739696891118065,-0.005547913526975122,-0.5041357278823853,-1.1356830596923828,-1.0778740644454956,-0.1499465256929397,0.0067825615406036,-0.14417365193367
1749035104.03437,0.5202039240083809,-1.4383227759458554,2.1709873983038546,-2.6962739081796,0.6685094804352039,-0.8503452673337647,-0.21771605193599627,-0.03789257869360625,-0.0546494012360877,0.012320507244351886,-0.2087208273922008,-0.005533384881256901,-0.4908153712749481,-1.1195212602615356,-1.0815564393997192,-0.1491968035697937,-0.0154282599687576,-0.1413415670394897
1749035104.0344095,0.5197577664899727,-1.4383984239333458,2.170878322421335,-2.6962480264309345,0.6680765539242235,-0.8503562420771054,-0.21936690772107803,-0.03825340404173724,-0.054947568190682285,0.012404097180721179,-0.21000445558083786,-0.005512914389440458,-0.4493933916091919,-1.1063611507415771,-1.080061912536621,-0.1441906094551086,-0.0152275003492832,-0.1490912288427353
1749035104.0344477,0.51931373085957,-1.4384738634938532,2.1707704611763132,-2.6962222037880124,0.6676477437225337,-0.8503667270860255,-0.22100470259338467,-0.03865497196935021,-0.05521148219238779,0.012462493889571049,-0.21128870128048396,-0.005489920341892037,-0.4493933916091919,-1.1063611507415771,-1.080061912536621,-0.1441906094551086,-0.0152275003492832,-0.1490912288427353
1749035104.034492,0.5188715199458056,-1.4385492232182282,2.1706635480140415,-2.696196588793745,0.6672229893421051,-0.8503767764804864,-0.22263281158405265,-0.0391009383575994,-0.055452598357559245,0.012499729849216766,-0.21261469195875826,-0.005468790408328408,-0.4782157838344574,-1.141505002975464,-1.0594496726989746,-0.1612573862075805,-0.0217470973730087,-0.1581843942403793
1749035104.0345526,0.51843055477698,-1.43862469656378,2.170557214173583,-2.696171309285333,0.6668018004989541,-0.8503864792140783,-0.2242544722835621,-0.039593301938562094,-0.055684358500268746,0.012520822327395788,-0.21402011935461493,-0.00545449087773695,-0.5464920997619629,-1.1318022012710571,-1.096219539642334,-0.1525737941265106,-0.0230560004711151,-0.1551036387681961
1749035104.0346107,0.5179900015472378,-1.438700534317846,2.1704510162562904,-2.6961464631429983,0.666383286212995,-0.8503959545019415,-0.2258727879520156,-0.04013166769559339,-0.05592069725296517,0.012531188357180006,-0.2155360560640121,-0.005452059717499389,-0.4855177104473114,-1.1641592979431152,-1.109371304512024,-0.150550901889801,-0.0175028070807456,-0.1629973500967025
1749035104.0346518,0.517548805691253,-1.4387770328741856,2.1703444671328724,-2.6961221110095055,0.6659662053853443,-0.8504053441567506,-0.22749073346036708,-0.04071264854801407,-0.056174562834246704,0.012536146284563385,-0.21718466088180746,-0.005466043739184653,-0.4588677883148193,-1.1678845882415771,-1.1044939756393433,-0.1709684431552887,-0.0493076592683792,-0.160457044839859
1749035104.0346892,0.5171057405024118,-1.438854517182109,2.170237069476774,-2.6960982719999698,0.6655490404885087,-0.8504148018992375,-0.22911112374678705,-0.04132951177427109,-0.05645666304121259,0.012540546345666008,-0.21897799919100186,-0.005499943113912947,-0.4592916369438171,-1.1484194993972778,-1.0776124000549316,-0.1637216806411743,-0.037612110376358,-0.1512285023927688
1749035104.0347269,0.5166594748594947,-1.438933318497982,2.1701283503631656,-2.6960749232586334,0.6651300927051667,-0.8504244804648855,-0.2307365239625317,-0.04197213265961961,-0.056774584240010216,0.012548526577116855,-0.2209180113925403,-0.005555731472640255,-0.4592916369438171,-1.1484194993972778,-1.0776124000549316,-0.1637216806411743,-0.037612110376358,-0.1512285023927688
1749035104.0347688,0.5162086576879125,-1.4390137491671842,2.170017893917734,-2.6960520035278517,0.6647075910608452,-0.8504345181568477,-0.2323691342722202,-0.04262726778483416,-0.0571323495130929,0.012563370734735973,-0.22299745444385932,-0.005633518646148339,-0.5099962949752808,-1.1478915214538574,-1.1302616596221924,-0.1491682529449463,-0.0564862005412578,-0.1451503038406372
1749035104.034807,0.5157520100315257,-1.43909607799255,2.1699053679959124,-2.6960294199507513,0.6642798038213729,-0.8504450268871696,-0.23401073623332602,-0.04327911965579828,-0.05753042186025934,0.012587454125847584,-0.2252014876795385,-0.005731409610112785,-0.5099962949752808,-1.1478915214538574,-1.1302616596221924,-0.1491682529449463,-0.0564862005412578,-0.1451503038406372
1749035104.0348442,0.5152884128487607,-1.439180509385935,2.169790541204316,-2.6960070565952483,0.6638451406102234,-0.8504560834536666,-0.23566279288795455,-0.04391014303543177,-0.05796612057634168,0.012622282705320658,-0.22750952983495595,-0.0058455897735386906,-0.4683181643486023,-1.1425392627716064,-1.1095924377441406,-0.1427464783191681,-0.0375206917524337,-0.1571040153503418
1749035104.0348814,0.5148169808220969,-1.4392671679688114,2.1696732884226555,-2.695984783047727,0.6634022379131627,-0.8504677249472614,-0.23732672509637226,-0.044502043865169656,-0.05843437770528022,0.012668638407664088,-0.2298970854124264,-0.005970640682629369,-0.4683181643486023,-1.1425392627716064,-1.1095924377441406,-0.1427464783191681,-0.0375206917524337,-0.1571040153503418
1749035104.034918,0.5143371176460374,-1.4393560887418433,2.1695535857482016,-2.6959624619824964,0.6629500260688989,-0.8504799481471229,-0.23900427752970138,-0.04503693099055252,-0.05892870804802861,0.012726826521915747,-0.23233737372732424,-0.006100066147336257,-0.4889670014381408,-1.1279239654541016,-1.0987920761108398,-0.1702306270599365,-0.0554716475307941,-0.172190323472023
1749035104.0349553,0.5138485536912444,-1.4394472120262995,2.169431498513001,-2.6959399555844796,0.662487780099753,-0.8504927119451428,-0.2406978226744506,-0.04549857227966447,-0.05944222235505723,0.012796981174570931,-0.23480271660273172,-0.006226984674827312,-0.5117530226707458,-1.1051815748214722,-1.102974534034729,-0.1845075488090515,-0.0465262234210968,-0.1743721067905426
1749035104.034992,0.5133513700641232,-1.439540382223504,2.1693071675791797,-2.6959171315079002,0.6620151583483334,-0.8505059415451983,-0.2424104798884398,-0.045873668066819,-0.05996850594410495,0.012879344297853671,-0.23726570492546206,-0.006344914999990126,-0.508981466293335,-1.084060549736023,-1.100395441055298,-0.1780215203762054,-0.0674212276935577,-0.1604850739240646
1749035104.0350282,0.5128460111720454,-1.4396353501909722,2.169180798288407,-2.695893869114763,0.6615322300725559,-0.8505195335458209,-0.24414601350085044,-0.04615301135232456,-0.06050222134621236,0.012974423701605097,-0.23970018854005426,-0.006448549727019655,-0.508981466293335,-1.084060549736023,-1.100395441055298,-0.1780215203762054,-0.0674212276935577,-0.1604850739240646
1749035104.0350857,0.5123332802499174,-1.4397317805629013,2.1690526530077014,-2.69587006593109,0.6610394854710394,-0.8505333618912941,-0.24590855123933955,-0.04633239522007575,-0.061039361051672195,0.013082971733703644,-0.2420821636750746,-0.006534392977916506,-0.508981466293335,-1.084060549736023,-1.100395441055298,-0.1780215203762054,-0.0674212276935577,-0.1604850739240646
1749035104.035392,0.5118143043251745,-1.439829266527013,2.1689230441785625,-2.6958456431946893,0.660537814100964,-0.8505472854794666,-0.24770220050350072,-0.046413164790320274,-0.06157715421679979,0.013205789314487444,-0.24439066583317887,-0.006601149872117146,-0.4363816976547241,-1.1155855655670166,-1.1118078231811523,-0.1436737775802612,-0.0547499619424343,-0.1577973067760467
1749035104.037365,0.5112904565120924,-1.4399273538252417,2.168792323361023,-2.695820548985171,0.6600284393764567,-0.850561158225809,-0.24953064089754326,-0.046402370904223944,-0.0621136993196376,0.013343417808039949,-0.24660876036414453,-0.006649801697254931,-0.5285685062408447,-1.1007035970687866,-1.101985216140747,-0.1589206457138061,-0.0660421773791313,-0.1507475078105926
1749035104.0782826,0.5107632377027773,-1.4400255728972493,2.168660864193946,-2.6957947581396153,0.6595128108101139,-0.850574841469795,-0.25139675536796546,-0.04631253723276923,-0.0626474397834072,0.013495809974165385,-0.2487246326581041,-0.006683364452620783,-0.5221422910690308,-1.1119903326034546,-1.1168911457061768,-0.1515056490898132,-0.0809847712516784,-0.1729563474655151
1749035104.0783286,0.5102341372155175,-1.4401234750754413,2.1685290411434153,-2.6957682694766807,0.6589924725981982,-0.8505882174263286,-0.2533023442742588,-0.046161086533342444,-0.06317661777668364,0.01366206316279269,-0.25073266232454167,-0.006706388589948001,-0.5762785077095032,-1.080112099647522,-1.1384212970733645,-0.169139876961708,-0.1101769208908081,-0.1621658056974411
1749035104.0783727,0.509704499767482,-1.4402206676287066,2.1683972080473177,-2.695741101885578,0.6584689344016565,-0.8506012017242411,-0.25524794105371207,-0.04596948132964055,-0.06369883683816734,0.013840260131328387,-0.2526342806348298,-0.006724300387798386,-0.3751631379127502,-1.0915935039520264,-1.103378176689148,-0.1705678552389145,-0.0626972913742065,-0.1637483537197113
1749035104.078415,0.5091754208647136,-1.440316843359134,2.1682656797594455,-2.6957132910067045,0.6579435646128343,-0.8506137532017092,-0.2572327085671219,-0.045762124311248306,-0.0642108429939623,0.014027419720948973,-0.25443836956187554,-0.006742703843781379,-0.5045638084411621,-1.1192796230316162,-1.121778130531311,-0.1732159554958343,-0.0459513925015926,-0.1565639227628708
1749035104.078453,0.5086476804407631,-1.4404118021423316,2.1681347179462906,-2.6956848875014776,0.6574175143804016,-0.8506258797575496,-0.25925437530441037,-0.045565049749877046,-0.064708600636151,0.01421954118046473,-0.2561609584094916,-0.006766752557638467,-0.5045638084411621,-1.1192796230316162,-1.121778130531311,-0.1732159554958343,-0.0459513925015926,-0.1565639227628708
1749035104.0784914,0.5081217126957761,-1.4405054632909928,2.168004519910067,-2.69565595667423,0.6568916697152763,-0.8506376396963106,-0.2613092031741387,-0.045404437654103125,-0.06518769433392456,0.01441174314987271,-0.25782403745484317,-0.006800665650227493,-0.5440058708190918,-1.102400541305542,-1.1306140422821045,-0.1584532856941223,-0.0748848021030426,-0.1711596548557281
1749035104.0785291,0.5075976036547859,-1.4405978685560865,2.1678752083060693,-2.6956265781733366,0.6563666239461435,-0.8506491382926405,-0.26339202319459293,-0.04530500586300025,-0.0656440299667975,0.014598529449546803,-0.25945346818234816,-0.006847413100654682,-0.458524078130722,-1.1223875284194946,-1.0981621742248535,-0.1494814455509185,-0.0762677043676376,-0.1518164277076721
1749035104.0785666,0.5070751088084621,-1.4406891759392086,2.167746820385543,-2.695596844306892,0.6558426650654662,-0.850660519279045,-0.265496366638311,-0.04528837578221826,-0.06607474190648922,0.014774218745057188,-0.26107619420241174,-0.0069085549996409125,-0.4875921905040741,-1.1591126918792725,-1.1281816959381104,-0.1571792364120483,-0.0714023411273956,-0.1765288859605789
1749035104.0786035,0.5065536879300302,-1.4407796446800964,2.167619297477393,-2.695566856181988,0.655319778476027,-0.8506719511223699,-0.2676146721522,-0.04537154637441459,-0.06647915371217913,0.014933529133935686,-0.26271715002516155,-0.006984202956233808,-0.4708911180496216,-1.138078689575195,-1.1294403076171875,-0.1782419383525848,-0.091455265879631,-0.1695548295974731
1749035104.0786405,0.5060325564300711,-1.4408696124734177,2.1674924772753745,-2.6955367177818554,0.6547976686913146,-0.8506836087888793,-0.2697385389235299,-0.04556562456367939,-0.06685960704155693,0.015072228219863868,-0.26439634359185366,-0.007073080535852583,-0.517576277256012,-1.137534260749817,-1.1060019731521606,-0.1690577417612075,-0.0760753005743026,-0.1855817437171936
1749035104.0786772,0.5055107495470214,-1.4409594673377164,2.1673660917500874,-2.6955065285950366,0.6542758002778774,-0.850695653100373,-0.27185904394782734,-0.04587493710642691,-0.06722197117394031,0.015187694039107394,-0.2661265438987322,-0.007172676913589771,-0.517576277256012,-1.137534260749817,-1.1060019731521606,-0.1690577417612075,-0.0760753005743026,-0.1855817437171936
1749035104.078714,0.504987190206884,-1.4410496179244179,2.1672397721515777,-2.695476375434662,0.6537534512940244,-0.8507082110504288,-0.2739671857079631,-0.046296603005276896,-0.0675756725976924,0.015279227368413634,-0.26791188454072323,-0.007279495870066462,-0.5050936937332153,-1.176530122756958,-1.1250203847885132,-0.1790604293346405,-0.0626654922962188,-0.1662948429584503
1749035104.0787504,0.5044607487117827,-1.4411404664013474,2.16711306081124,-2.6954463240420794,0.6532297672402511,-0.8507213608608379,-0.2760544897528289,-0.0468206013390611,-0.06793315269367674,0.015348019533563845,-0.2697475447170019,-0.00738939475624582,-0.5050936937332153,-1.176530122756958,-1.1250203847885132,-0.1790604293346405,-0.0626654922962188,-0.1662948429584503
1749035104.0787868,0.5039302857850123,-1.4412323868996166,2.166985428613472,-2.6954164113373373,0.6527038046406115,-0.8507351248160757,-0.27811371890981074,-0.047430338090979275,-0.06830877493239368,0.015396781603604998,-0.2716205181302103,-0.0074979893715710335,-0.4913640916347503,-1.179814696311951,-1.120997190475464,-0.1631794273853302,-0.0656361877918243,-0.1654025465250015
1749035104.0788312,0.5033946792969545,-1.441325710342521,2.166856297537404,-2.6953866397474617,0.6521745615144368,-0.8507494711665656,-0.2801395430590346,-0.04810368994221806,-0.06871732648629836,0.015429134400658687,-0.2735113498439125,-0.007601077879782477,-0.5072380900382996,-1.163949966430664,-1.1574684381484983,-0.1486584693193435,-0.0874462723731994,-0.1770322024822235
1749035104.078874,0.5028528452049866,-1.4414207142618578,2.166725068912406,-2.69535697552308,0.6516410031753034,-0.8507643241812841,-0.2821290021426733,-0.04881446860723848,-0.06917234109755784,0.015448907277670652,-0.2753966238022521,-0.007695020147171799,-0.5517979860305786,-1.1584129333496094,-1.1475740671157837,-0.1638320088386535,-0.0846110135316848,-0.1740106493234634
1749035104.0789127,0.502303769406176,-1.4415176148256406,2.1665911587242386,-2.6953273528219364,0.6511020993294415,-0.850779579555771,-0.28408163777832485,-0.049534200775551346,-0.06968448360268839,0.015459486327519456,-0.27725190100192787,-0.007777011290408193,-0.5867217779159546,-1.1115778684616089,-1.1642978191375732,-0.1682644784450531,-0.069764956831932,-0.1824932396411895
1749035104.0789504,0.5017465650098829,-1.4416165583393323,2.166454040414489,-2.6952976842711664,0.6505568870202836,-0.8507951214657551,-0.28599922834526254,-0.050234074766147094,-0.0702601919629482,0.015463307100614127,-0.27905471753189665,-0.007845214382214203,-0.5066595077514648,-1.1510605812072754,-1.1420128345489502,-0.166334718465805,-0.046425312757492,-0.1789347678422927
1749035104.0789878,0.5011805583757345,-1.4417176111185088,2.166313293026957,-2.6952678768994773,0.6500045629435842,-0.850810837724911,-0.2878851169999098,-0.05088689615511879,-0.07090070516720168,0.015461536770081273,-0.2807871824694756,-0.007898755719216392,-0.5066595077514648,-1.1510605812072754,-1.1420128345489502,-0.166334718465805,-0.046425312757492,-0.1789347678422927
1749035104.0790246,0.5006053912183707,-1.4418207493066404,2.1661686491807157,-2.6952378504526826,0.6494445924534379,-0.850826630550792,-0.28974319001530824,-0.051468922351330215,-0.07160155171058802,0.015453964661330455,-0.2824377445462238,-0.00793761869968032,-0.5376946330070496,-1.1051623821258545,-1.1562719345092771,-0.1694332659244537,-0.0284172594547271,-0.1754701286554336
1749035104.079423,0.5000211127316698,-1.4419258525772085,2.1660200347533176,-2.69520755400012,0.6488768090240846,-0.8508424220210197,-0.29157665456986154,-0.05196147070786261,-0.0723525427083987,0.015439123427413427,-0.2840018629161329,-0.007962487659184227,-0.5404717326164246,-1.116111159324646,-1.155827283859253,-0.1401456296443939,-0.0435258038341999,-0.1856970191001892
1749035104.0813558,0.49942823276137255,-1.4420327061747693,2.1658675919786874,-2.6951769768948806,0.6483014751046166,-0.8508581548740082,-0.2933868412219993,-0.05235218490568051,-0.07313828256161146,0.01541467301163038,-0.28548156844437655,-0.00797458839409508,-0.518905520439148,-1.1126219034194946,-1.1476573944091797,-0.1609169542789459,-0.0510613322257995,-0.1813045740127563
1749035104.1222703,0.49882771678395077,-1.4421410138557331,2.165711680482013,-2.6951461515293285,0.6477192855924899,-0.850873790306428,-0.2951722624219265,-0.05263582304055904,-0.07393915636554736,0.015378058600604238,-0.2868841355976105,-0.007975551439418017,-0.4802536368370056,-1.1158322095870972,-1.1327990293502808,-0.1572640538215637,-0.0742649808526039,-0.1876553297042846
1749035104.122316,0.498220919084413,-1.4422504212150862,2.165552855133803,-2.695115147427953,0.6471313113229409,-0.8508893046705103,-0.2969280942759039,-0.05281444886606122,-0.0747326874528127,0.015327381892398396,-0.28822022136984543,-0.007967297871190224,-0.4802536368370056,-1.1158322095870972,-1.1327990293502808,-0.1572640538215637,-0.0742649808526039,-0.1876553297042846
1749035104.122356,0.4976094619307333,-1.4423605467175744,2.1653918230517855,-2.6950840582575393,0.6465388911359,-0.8509046867167002,-0.29864616823181656,-0.05289698240880146,-0.07549511046789666,0.015262325535577282,-0.2895018406041936,-0.007951929244005248,-0.5818689465522766,-1.1192315816879272,-1.1218072175979614,-0.1679668724536895,-0.0451925657689571,-0.1743325889110565
1749035104.1223946,0.4969950730314297,-1.442471017208947,2.1652293837898218,-2.6950529846489326,0.6459434843779338,-0.8509199364430764,-0.3003154932200679,-0.052898168140464524,-0.07620299164027566,0.015184898849441917,-0.29074046647450486,-0.007931601194541704,-0.4288775622844696,-1.141496181488037,-1.1023529767990112,-0.1780517399311065,-0.0096168592572212,-0.1966405510902404
1749035104.122433,0.4963793976193263,-1.442581504437588,2.1650663582703316,-2.695022016175739,0.6453464982849038,-0.8509350656880224,-0.3019232500338635,-0.05283710730988019,-0.07683474492931067,0.015099775917559753,-0.2919454393735776,-0.007908371461172348,-0.4768908619880676,-1.1568886041641235,-1.109769344329834,-0.1790643781423568,-0.0583771914243698,-0.172895461320877
1749035104.122472,0.49576380959291755,-1.4426917579638896,2.164903514551051,-2.6949912156424825,0.6447491120883956,-0.8509500995623445,-0.3034560936761653,-0.052735551080842824,-0.07737193135674346,0.015014085666664765,-0.2931228001290782,-0.007884029194934939,-0.5227975249290466,-1.1690728664398191,-1.1152942180633545,-0.1704359203577041,-0.0699961706995964,-0.1820068657398224
1749035104.1225092,0.49514925297392837,-1.4428016286529937,2.1647415007101305,-2.694960608165961,0.644152127209391,-0.8509650772370553,-0.30490151788778186,-0.052616154367367725,-0.07780027803602166,0.014936658643877148,-0.29427463784433505,-0.00785992701051086,-0.5371577143669128,-1.1526708602905271,-1.103651762008667,-0.1515663713216781,-0.0815613865852356,-0.1720361560583114
1749035104.122547,0.4945361426715933,-1.4429110775801766,2.164580794726509,-2.694930176513453,0.6435558723116874,-0.8509800507939171,-0.30624903310076446,-0.05250085303996953,-0.07811039612361856,0.014876879718666696,-0.29539899412289344,-0.007836848155853974,-0.4560756385326385,-1.1611149311065674,-1.082639217376709,-0.1616542339324951,-0.0471710711717605,-0.1710840612649917
1749035104.1225846,0.4939243415935302,-1.4430201681393795,2.164421677827306,-2.6948998629884766,0.6429601816448233,-0.8509950815321994,-0.30749096951854726,-0.05240947006028376,-0.07829819946834579,0.014843384826077588,-0.2964902442429508,-0.007814947552505832,-0.4418497681617737,-1.15656840801239,-1.0797533988952637,-0.1459458917379379,-0.032144695520401,-0.1897976696491241
1749035104.1226225,0.49331321502705006,-1.4431290432527686,2.1642642328804134,-2.6948695769885243,0.6423644497888432,-0.8510102339202195,-0.3086227982299059,-0.05235860108980537,-0.07836503015135418,0.014842855181043873,-0.29753974091358915,-0.007793803035518774,-0.4418497681617737,-1.15656840801239,-1.0797533988952637,-0.1459458917379379,-0.032144695520401,-0.1897976696491241
1749035104.1226602,0.4927017485884112,-1.44323789307615,2.1641083648810193,-2.6948392063787554,0.6417677511757915,-0.8510255680840968,-0.30964295840938916,-0.052360787958802744,-0.07831749623501945,0.014879124773182551,-0.29853648303804575,-0.007772595314382585,-0.5686838626861572,-1.132243037223816,-1.0721423625946045,-0.1377763897180557,-0.0409227088093757,-0.1859191358089447
1749035104.1226969,0.4920887068458056,-1.4433469200079105,2.1639538377726857,-2.6948086303647454,0.6411690026024331,-0.8510411321209641,-0.3105522910261819,-0.0524239633498017,-0.07816703244643271,0.014952752329153832,-0.29946770511534704,-0.007750401030207643,-0.4994832277297973,-1.1825895309448242,-1.074470281600952,-0.118827223777771,-0.0544876605272293,-0.1735210716724395
1749035104.1227338,0.49147280748257777,-1.4434563067329182,2.1638003211146395,-2.6947777317940074,0.640567142976395,-0.8510569554680235,-0.3113532748250517,-0.052551148013974085,-0.07792921349963312,0.01506112419389002,-0.30031947144806637,-0.007726543754234015,-0.4994832277297973,-1.1825895309448242,-1.074470281600952,-0.118827223777771,-0.0544876605272293,-0.1735210716724395
1749035104.122771,0.4908528881967165,-1.4435661906999881,2.163647440428915,-2.6947464074858787,0.6399613049273936,-0.8510730442556714,-0.31204929058354763,-0.0527404013596597,-0.07762288144071122,0.01519904811545665,-0.3010774500694453,-0.007700920938968622,-0.4747856855392456,-1.1477184295654297,-1.1004198789596558,-0.1352718025445938,-0.0323135443031787,-0.1807295531034469
1749035104.122808,0.4902280469187261,-1.443676646620043,2.163494825156451,-2.694714575840423,0.6393509550472907,-0.8510893792935492,-0.3126440949578281,-0.05298504853884081,-0.07726917553381152,0.015359683750266868,-0.3017279741451376,-0.007674223331912298,-0.4747856855392456,-1.1477184295654297,-1.1004198789596558,-0.1352718025445938,-0.0323135443031787,-0.1807295531034469
1749035104.1228456,0.4895977402151573,-1.4437876777860823,2.163342148247021,-2.6946821815129414,0.6387359837890192,-0.8511059170650962,-0.31314159438026107,-0.053274211929733195,-0.07689055209609778,0.015535568319600925,-0.3022593582310046,-0.007647987356804157,-0.5032529830932617,-1.174953818321228,-1.0839548110961914,-0.1416185349225998,-0.0284289419651031,-0.1783338487148285
1749035104.1228824,0.4889618315341602,-1.4438992165271058,2.1631891527675235,-2.6946491975072924,0.6381167339902576,-0.8511225937445299,-0.3135459043195794,-0.05359366104827676,-0.0765098489431946,0.015719471224378435,-0.3026633597950755,-0.00762446163590285,-0.6003313660621643,-1.2094857692718506,-1.1289454698562622,-0.1596328616142273,-0.0702974498271942,-0.1831318140029907
1749035104.122919,0.4883205891686861,-1.444011133393611,2.163035663749897,-2.694615625566255,0.6374939670850117,-0.8511393318727609,-0.3138615863455758,-0.053926968896670605,-0.07614940754076477,0.01590486597673804,-0.30293670240083403,-0.00760631386649554,-0.6003313660621643,-1.2094857692718506,-1.1289454698562622,-0.1596328616142273,-0.0702974498271942,-0.1831318140029907
1749035104.1229565,0.4876746403957818,-1.4441232538697608,2.1628815865462463,-2.69458149591096,0.6368687748121173,-0.851156048971869,-0.3140939106564143,-0.054256919687878755,-0.0758302378212718,0.016085931709247537,-0.30308260652295965,-0.007596241104123075,-0.4606000483036041,-1.14044988155365,-1.091094970703125,-0.1533440500497818,-0.0425962284207344,-0.1954813599586486
1749035104.122993,0.4870248923699788,-1.4442353806226722,2.162726895101433,-2.694546867091416,0.6362424505259778,-0.8511726669142494,-0.3142490230222009,-0.0545670501028025,-0.07557119751057087,0.01625715803075214,-0.3031121927428901,-0.007596566507090861,-0.5028775930404663,-1.1573323011398315,-1.075831174850464,-0.1265814155340194,-0.0139282792806625,-0.1911756992340088
1749035104.1233723,0.4863724336974195,-1.4443473184007987,2.1625716146954184,-2.6945118261686822,0.6356163395036875,-0.8511891203538352,-0.31433398002652024,-0.05484314417049545,-0.07538815808883148,0.016412778790500307,-0.30304544989671084,-0.007608905962515463,-0.4774341881275177,-1.1418126821517944,-1.1038086414337158,-0.1134693324565887,0.0212749987840652,-0.1864348948001861
1749035104.1253448,0.48571843278321986,-1.4444588979574549,2.162415803785587,-2.694476488813297,0.6349916911070005,-0.8512053624473461,-0.31435668663413885,-0.05507447346900177,-0.07529315758926113,0.0165463485814826,-0.30291134748286586,-0.007633968657628241,-0.4127372503280639,-1.1117899417877195,-1.1411558389663696,-0.1161021068692207,0.0151970013976097,-0.1851200759410858
1749035104.166313,0.4850640466184462,-1.4445699955328224,2.1622595381830307,-2.6944409981650645,0.6343695335197755,-0.8512213668236465,-0.31432577956773716,-0.05525459830858333,-0.0752936021047371,0.016650757376464112,-0.30274674498972043,-0.00767151971341443,-0.4127372503280639,-1.1117899417877195,-1.1411558389663696,-0.1161021068692207,0.0151970013976097,-0.1851200759410858
1749035104.1663604,0.4844103463597301,-1.4446805456543104,2.1621028984008763,-2.6944055207104234,0.6337505835588492,-0.8512371260202783,-0.3142504714376639,-0.055381616345416725,-0.0753916402030588,0.01671884237352435,-0.30259399400515663,-0.007720491957230701,-0.4850976467132568,-1.102728009223938,-1.1272709369659424,-0.1095789521932601,-0.0220284163951873,-0.1767957210540771
1749035104.1664014,0.4837582596327782,-1.4447905464760085,2.16194595932355,-2.6943702376150735,0.6331351953947262,-0.8512526477152822,-0.3141403554322485,-0.05545784295358032,-0.07558385062609589,0.01674453724934572,-0.3024974151003765,-0.007779203973674474,-0.4587674140930176,-1.1310722827911377,-1.1607381105422974,-0.1697303205728531,-0.0192191042006015,-0.1871828287839889
1749035104.1664405,0.48310852936351506,-1.4449000577000453,2.1617887816165506,-2.6943353312216134,0.6325233484644301,-0.8512679505536952,-0.3140051817042176,-0.055489011194094544,-0.07586134088893548,0.016724277517514024,-0.3024990473846022,-0.007845630768856176,-0.4164912700653076,-1.1532355546951294,-1.1149957180023191,-0.1623250246047973,-0.0133996792137622,-0.191520869731903
1749035104.166479,0.48246169313562703,-1.44500919144471,2.1616314058714856,-2.6943009682342973,0.6319146753589225,-0.8512830610860462,-0.3138546275431814,-0.05548316775735424,-0.07621028115252217,0.016658253108667108,-0.30263418612759774,-0.00791767655657027,-0.4135067462921142,-1.1789729595184326,-1.1577613353729248,-0.16545931994915,-0.0231513679027557,-0.1892695724964141
1749035104.166517,0.4818180888038947,-1.4451180969949042,2.1614738515711935,-2.694267282430515,0.6313085296065505,-0.8512980124573921,-0.31369807897978075,-0.05544949139479949,-0.07661283414579242,0.01655112640063253,-0.30292727415677595,-0.007993406364238247,-0.4432937800884247,-1.162812113761902,-1.1549023389816284,-0.1651780009269714,-0.0688972473144531,-0.1917557716369629
1749035104.166555,0.481177887899448,-1.4452269413460537,2.1613161225071806,-2.6942343599423326,0.6307040882684938,-0.8513128443975302,-0.3135444338730434,-0.055397250751900384,-0.07704840875496984,0.016412000166746616,-0.3033887167472921,-0.0080711991986326,-0.4496442973613739,-1.163050413131714,-1.1559171676635742,-0.1443661004304886,-0.095255821943283,-0.2072057127952575
1749035104.1665926,0.4805411504909322,-1.4453358882775187,2.1611582185207276,-2.6942022293965056,0.6301004769223781,-0.8513276033020449,-0.3134019313298073,-0.05533504815694213,-0.07749515149980092,0.0162536438613534,-0.3040131208918308,-0.008149791882877334,-0.434011310338974,-1.1424663066864014,-1.1343399286270142,-0.1479449123144149,-0.0934239327907562,-0.2086621671915054
1749035104.1666298,0.47990788743203916,-1.445445079024768,2.1610001511443,-2.694170858040373,0.6294968980118959,-0.8513423411760703,-0.3132779998796105,-0.05527039479693175,-0.07793157296864964,0.01609117297486938,-0.3047792805588374,-0.008228194806080204,-0.434011310338974,-1.1424663066864014,-1.1343399286270142,-0.1479449123144149,-0.0934239327907562,-0.2086621671915054
1749035104.1666677,0.479278111477348,-1.4455546175302394,2.1608419588521133,-2.694140153916297,0.6288927402926968,-0.8513571129244666,-0.3131791018413071,-0.05520957286360484,-0.07833817913102518,0.015940466275939376,-0.3056519545241823,-0.008305485563136412,-0.4835149049758911,-1.1730728149414062,-1.1479780673980713,-0.1300163269042968,-0.0422040969133377,-0.1825122535228729
1749035104.1667051,0.47865186090808015,-1.4456645625310418,2.1606837173645093,-2.6941099734718055,0.6282876498928086,-0.8513719724340263,-0.3131105548577437,-0.0551576838763836,-0.07869895383863115,0.015816596359347568,-0.3065851939347561,-0.008380526035358207,-0.4507026374340057,-1.1896291971206665,-1.126708745956421,-0.1275499314069748,-0.0659000724554061,-0.20187409222126
1749035104.1667418,0.47802918937354505,-1.4457749270391178,2.1605255422896095,-2.6940801337006786,0.6276815531888211,-0.8513869684705921,-0.31307633872936624,-0.05511875868829754,-0.07900253281352541,0.01573247551124874,-0.3075267748049861,-0.008451690168276496,-0.4028462171554565,-1.1129735708236694,-1.1075422763824463,-0.1372145414352417,-0.0948713049292564,-0.2121822535991668
1749035104.1667786,0.47741012889953965,-1.4458856836211962,2.160367584133715,-2.694050427690799,0.6270746342630935,-0.8514021412708396,-0.3130789277307466,-0.05509581540796907,-0.07924292812016788,0.01569782594205476,-0.30842322464760474,-0.008516707255187168,-0.433885246515274,-1.17899751663208,-1.1010019779205322,-0.126461774110794,-0.0958587750792503,-0.221370443701744
1749035104.1668217,0.4767946414672481,-1.445996772574704,2.160210017483293,-2.6940206420510733,0.6264672786653283,-0.8514175200810676,-0.31311920827825074,-0.05509080351491521,-0.07941970973674982,0.01571850571629873,-0.30922495140145273,-0.008572700917468264,-0.4923871755599975,-1.1506288051605225,-1.113170146942139,-0.1286761462688446,-0.0746623054146766,-0.2104436755180359
1749035104.166867,0.4761825748189684,-1.4461081102706121,2.1600530263679034,-2.693990574255815,0.6258599977530198,-0.8514331213564651,-0.31319654026957244,-0.055104447747730066,-0.07953762566402035,0.0157961787175045,-0.3098909908383204,-0.008616445516528275,-0.4568251371383667,-1.1550312042236328,-1.123097538948059,-0.1353834569454193,-0.0621298924088478,-0.1977520287036895
