nimar13/UR3e_dataset_trayectorias/trayectorias_ejecutadas_filtradas/quintic/trayectoria_232_result_filtrado.csv
timestamp,q1,q2,q3,q4,q5,q6,qd1,qd2,qd3,qd4,qd5,qd6,tau1,tau2,tau3,tau4,tau5,tau6
1749037530.1343496,-4.3917153660727495,0.08838474011972776,-0.688137962316395,3.626616244277743,-3.142969462920027,5.610385505429382,-0.02106917230779216,0.005042615351071711,-0.009514056087974603,0.016708110537340806,-0.022095141178736066,0.025093807730486962,-0.1539597511291504,-1.3613457679748535,-0.986226499080658,0.1817009598016739,-0.1683672219514846,0.137126088142395
1749037530.134396,-4.391744152986947,0.088394158053559,-0.688141811138705,3.626640615760695,-3.142995112049399,5.61043007362503,-0.01928802090270262,0.004298173414760347,-0.008001458461472133,0.01497922840909573,-0.019967138870548566,0.022848665687773478,-0.1842715740203857,-1.376978874206543,-0.955339252948761,0.1727523207664489,-0.1513233929872512,0.1007371470332145
1749037530.134436,-4.391772442982518,0.08840326139307855,-0.6881454400496445,3.626664441881652,-3.143020155284903,5.610473471559538,-0.017508521506341482,0.003582345654794843,-0.0065350692411407915,0.013274823648287316,-0.017853519616587762,0.02062716378674267,-0.2058897018432617,-1.4049686193466189,-0.951823890209198,0.1681375801563263,-0.1416321694850921,0.1233264058828353
1749037530.1344748,-4.391799548858871,0.08841167192676398,-0.6881486970368692,3.6266870526685344,-3.1430439399987558,5.6105145263693785,-0.01572553721628258,0.0029148375134754392,-0.0051572276765973445,0.011610294340966835,-0.01576592376808683,0.018440692845106715,-0.1766298860311508,-1.3777096271514893,-0.959622085094452,0.1811226308345794,-0.1467341482639312,0.1134927123785018
1749037530.134513,-4.391824819354403,0.08841906391075016,-0.6881514626522214,3.626707839954053,-3.1430658736912593,5.6105522006836805,-0.013936401073371664,0.0023108308494631607,-0.0039040024306985837,0.009999389620840075,-0.013716965189185562,0.016300849590534034,-0.1990428417921066,-1.392263889312744,-0.9680642485618592,0.1720281243324279,-0.1484705507755279,0.1329189091920852
1749037530.1345506,-4.3918476636602914,0.0884251879630425,-0.6881536582428384,3.626726288295858,-3.1430854547695346,5.610585649382475,-0.012142165195731133,0.0017798236793318259,-0.002802867847821346,0.008454220017990963,-0.01172070617123296,0.014219851848528132,-0.1886928528547287,-1.426924705505371,-0.958544671535492,0.1648218333721161,-0.1259239315986633,0.1240149289369583
1749037530.1345873,-4.391867573965578,0.08842988327357826,-0.6881552496291428,3.6267419986752794,-3.1431022980170638,5.610614259288639,-0.010348432314747654,0.001325123125933636,-0.0018712399679919002,0.0069852646425588,-0.009792817356776888,0.012210666674912777,-0.1676397770643234,-1.4437172412872314,-0.951559841632843,0.1389855444431305,-0.1345686018466949,0.1024581789970398
1749037530.134624,-4.391884144768635,0.08843307848599885,-0.6881562464069018,3.6267547035751933,-3.143116151575826,5.610637670082179,-0.008565637609761935,0.0009440245087794842,-0.0011159905020724865,0.0056013651730669484,-0.007950330313528854,0.01028682123530402,-0.1192274242639541,-1.4459795951843262,-0.9417360424995422,0.1366863548755645,-0.1095124557614326,0.1265952438116073
1749037530.134661,-4.391897087612161,0.08843478358133015,-0.6881566975687857,3.626764272758722,-3.1431269033710265,5.61065577632538,-0.006808707965627679,0.0006286188776325834,-0.0005339216522725341,0.0043097143347365875,-0.006210952254299015,0.008461909839747393,-0.1061069369316101,-1.4432525634765625,-0.9296972155570984,0.1247139573097229,-0.1181726679205894,0.1076478362083435
1749037530.1346977,-4.391906240032989,0.08843507617928242,-0.6881566844380212,3.626770709936684,-3.1431345766869914,5.610668711862096,-0.005096124591436653,0.00036709981280568286,-0.00011306236489511756,0.0031158637015616516,-0.00459201160243428,0.006748857056938772,-0.135589987039566,-1.4671618938446045,-0.9212998151779176,0.1327635943889618,-0.0946695581078529,0.0907758921384811
1749037530.1347344,-4.39191156797798,0.08843408580793131,-0.6881563120266723,3.626774141407169,-3.1431393162057293,5.610676819312949,-0.003448528776444669,0.0001453933395643461,0.00016543720839022597,0.0020237881924969614,-0.0031092067040922196,0.0051590462077397556,-0.116107702255249,-1.4783551692962646,-0.905832290649414,0.1106624081730842,-0.0922873392701149,0.0756713151931762
1749037530.1347718,-4.391913161626193,0.08843197898189299,-0.6881556997834882,3.62677479847832,-3.1431413668759727,5.610680608746973,-0.001887096487121978,-5.1087499143246755e-05,0.00032507422063727956,0.0010360428097700941,-0.0017753913119189482,0.0037014648214705407,-0.0961906909942627,-1.4956400394439695,-0.8913710713386536,0.0917705371975898,-0.0854788199067115,0.0690834447741508
1749037530.1348128,-4.391911225162202,0.08842894659937686,-0.6881549723191753,3.6267729958985147,-3.1431410485286184,5.610680710346208,-0.00043193026707295524,-0.00023576186274307123,0.00039168351308849854,0.00015402241769963985,-0.0005996187029014511,0.0023820368969907453,-0.0850659608840942,-1.5094183683395386,-0.8850353360176086,0.0933834239840507,-0.0628004446625709,0.0578987151384353
1749037530.134851,-4.391906061372536,0.08842519365070993,-0.6881542503442563,3.626769108617505,-3.1431387292302744,5.610677825628306,0.000899325556241899,-0.00041945352850806205,0.00039127662246451204,-0.0006217099171375567,0.0004134140239888191,0.00120329030802617,-0.0691567510366439,-1.5236278772354126,-0.8799464702606201,0.07464549690485,-0.0222046300768852,0.060436338186264
1749037530.1348882,-4.391898052070779,0.08842093013825778,-0.6881536419690226,3.6267635490080226,-3.1431347999316452,5.610672680683421,0.002092517784432674,-0.0006093609100298776,0.0003482044378694574,-0.0012911092030249995,0.0012634912420707808,0.00016444102689694412,-0.0909043103456497,-1.5718960762023926,-0.8577126264572144,0.0781167596578598,-0.013422317802906,0.0416743457317352
1749037530.134925,-4.391887635514361,0.08841636194237991,-0.6881532347342934,3.6267567460915924,-3.14312965215676,5.610665983534949,0.003137611347962781,-0.0008085202325810969,0.00028375642487461766,-0.0018544592558622953,0.0019546365963232035,-0.0007381236564684007,-0.0925287008285522,-1.589311599731445,-0.8735111355781555,0.0584194622933864,-0.0232067480683326,0.0323686227202415
1749037530.1349614,-4.391875282261025,0.08841168115089683,-0.68815308906992,3.6267491273700743,-3.143123659672342,5.610658386900041,0.004028909940612531,-0.0010157960599377928,0.0002152453506226057,-0.0023124013721658163,0.0024946085266023235,-0.0015100831011350463,-0.0699413567781448,-1.6056355237960815,-0.8537520170211792,0.0675814971327781,-0.0240048989653587,0.0289647206664085
1749037530.134998,-4.391861471189474,0.08840705659546542,-0.6881532340104674,3.626741102973868,-3.143117164585592,5.61065045760709,0.004764910920781806,-0.001226362793048459,0.00015556870538055618,-0.002666211059281617,0.002894233058093846,-0.0021583312154598465,-0.0549319572746753,-1.5980976819992063,-0.8411738276481628,0.0717165246605873,-0.008336529135704,0.0013344809412956
1749037530.135035,-4.3918466674757966,0.08840262630658736,-0.6881536657673214,3.626733051456086,-3.143110468057927,5.610642654253144,0.0053478751804917676,-0.0014325715878247829,0.00011319349415193565,-0.002918263566279164,0.003166652360346557,-0.002690231119352346,-0.0570997036993503,-1.6038650274276731,-0.8516607284545898,0.0608830787241458,0.0061685144901275,0.0061452873051166
1749037530.1350718,-4.391831304128756,0.08839849373909633,-0.6881543492762277,3.6267253067487357,-3.143103825457465,5.610635314551737,0.005783223286762257,-0.0016250502727303848,9.248344551092785e-05,-0.003072555149504088,0.0033265613172366645,-0.003113117585887611,-0.068152368068695,-1.6632627248764038,-0.8307529091835022,0.0791964530944824,0.0240533873438835,0.0091163944453001
1749037530.13542,-4.391815768297943,0.08839472875255269,-0.688155222392644,3.6267181462771205,-3.143097445186433,5.610628652949777,0.006078873978773185,-0.0017938792475094669,9.427591761554816e-05,-0.0031351258215335928,0.0033895107910772598,-0.003434093167727,-0.0474244356155395,-1.6692397594451904,-0.8318743109703064,0.0485927462577819,0.0145247653126716,0.0173814985901117
1749037530.13736,-4.391800393028679,0.08839137288732726,-0.6881562022235478,3.626711780756683,-3.1430914898711633,5.610622767933538,0.006244619937005983,-0.001929720525553259,0.00011661570025283444,-0.003114265278032199,0.003371348124738682,-0.0036600731907982403,-0.050187699496746,-1.6914421319961548,-0.8426101803779602,0.053903728723526,0.0247956067323684,0.0093605555593967
1749037530.1782708,-4.391785454504923,0.08838844724542616,-0.6881571931357331,3.626706346693548,-3.14308607848584,5.610617657514178,0.006291602559373532,-0.0020248190873951347,0.00015556010054134492,-0.003020449065207549,0.0032878251625581435,-0.003797986874560159,-0.0650603324174881,-1.6822690963745115,-0.8199509978294373,0.0560082867741584,0.0338606089353561,0.0104570090770721
1749037530.1783173,-4.3917711741601035,0.0883859607722801,-0.6881580959802089,3.626701902979541,-3.1430812884703596,5.610613240730358,0.0062319129483454135,-0.0020738153914385024,0.0002059808341402757,-0.002866013372949141,0.0031543449152518985,-0.0038550450726733175,-0.0652531087398529,-1.6469998359680176,-0.8260641694068909,0.0629666298627853,0.0353293307125568,0.005736656486988
1749037530.1783576,-4.391757724442343,0.08838391695149228,-0.6881588178172697,3.6266984329539063,-3.143077157692801,5.610609382514111,0.006078313758065128,-0.0020743047369767066,0.0002623012300442213,-0.002664616538601845,0.0029857717937341165,-0.003839015452844926,-0.0557103529572486,-1.6727476119995115,-0.8175377249717712,0.045100525021553,0.0304827876389026,-0.0021390542387962
1749037530.1783967,-4.3917452366833265,0.08838231764320685,-0.6881592810975872,3.62669585269654,-3.1430736866026474,5.610605919114936,0.005844048572733478,-0.0020270795478777993,0.000319121551868249,-0.0024305539302521377,0.0027962204105271135,-0.0037584690942909357,-0.0868216231465339,-1.680544137954712,-0.8177348971366882,0.0572403371334075,0.0398141629993915,-0.0068414509296417
1749037530.178436,-4.391733809546297,0.0883811637036129,-0.6881594311825185,3.626694025273108,-3.1430708408623667,5.610602681701747,0.0055426863746530245,-0.0019360195819128627,0.0003717013760487775,-0.0021779996184565285,0.0025987636328536853,-0.0036229603594759296,-0.0601030215620994,-1.6921916007995603,-0.8214096426963806,0.0533379316329956,0.0441118627786636,-0.0025278590619564
1749037530.178475,-4.391723516725015,0.08838045279102637,-0.6881592413372531,3.6266927795363832,-3.143068554484827,5.61059951655606,0.00518794245702093,-0.0018076513177112858,0.0004162855468008911,-0.001920250493818668,0.002405043287820838,-0.003443083166068772,-0.0601030215620994,-1.6921916007995603,-0.8214096426963806,0.0533379316329956,0.0441118627786636,-0.0025278590619564
1749037530.1785126,-4.39171441265518,0.08838017526224935,-0.6881587147265369,3.6266919311828785,-3.143066733554316,5.610596300921092,0.004793426867855807,-0.0016504557348774713,0.00045027688311911646,-0.0016690465684377446,0.0022248071593836925,-0.0032303373947727173,-0.0703027918934822,-1.6958881616592407,-0.8268079161643982,0.0211264938116073,0.0502682626247406,0.003478392958641
1749037530.1785505,-4.391706535075974,0.08838030936125355,-0.6881578833641933,3.626691303275353,-3.1430652610652574,5.610592953839049,0.004372297472713508,-0.0014740384011249442,0.00047227193616870567,-0.001434031787060974,0.0020654242937676835,-0.0029967613209579,-0.0689880177378654,-1.6717064380645752,-0.8138538002967834,0.051006831228733,0.0488181859254837,-0.0085949413478374
1749037530.1785886,-4.391699903822203,0.08838081702498138,-0.6881568043812469,3.626690743556167,-3.1430640038349655,5.610589441419617,0.003936830006566708,-0.001288280901985137,0.00048198468972566333,-0.0012224020261519314,0.0019314462455611238,-0.002754340578732102,-0.0457890853285789,-1.696149468421936,-0.8087908625602722,0.0478668436408042,0.0521381348371505,-0.0293710008263587
1749037530.1786263,-4.391694516521835,0.08838164148675723,-0.688155554272781,3.6266901365933553,-3.143062822268052,5.610585776297557,0.0034979482775331695,-0.0011025759343356637,0.0004800874758715074,-0.0010387641614152808,0.0018242852859615738,-0.002514269709864569,-0.0625831559300422,-1.6892483234405518,-0.8135195374488831,0.0525578334927558,0.0630345419049263,-0.0274536907672882
1749037530.1786633,-4.391690343413455,0.08838270740537325,-0.6881542218322273,3.6266894098416733,-3.143061582886952,5.61058201166129,0.003064774533412341,-0.0009252195627546608,0.0004679991945052424,-0.0008852059940233742,0.001742071984370909,-0.0022861899512217243,-0.071402408182621,-1.6793873310089111,-0.8084104657173157,0.0484060943126678,0.058016650378704,-0.0080100446939468
1749037530.1787002,-4.391687324198662,0.08838392362037624,-0.6881529003268818,3.626688533709771,-3.1430601724915714,5.610578230983522,0.0026442653266460646,-0.0007630006582846515,0.0004476489771751899,-0.0007615542455386301,0.001679737328414278,-0.0020775383251890323,-0.0666017010807991,-1.6664047241210938,-0.8142542243003845,0.0472702085971832,0.0632655918598175,-0.024345725774765
1749037530.178737,-4.391685369064165,0.0883851880953198,-0.688151679320633,3.6266875165110073,-3.143058512063363,5.61057453521675,0.0022409977645026884,-0.0006209953570588602,0.0004212396365645426,-0.0006657790263280401,0.0016293451415974555,-0.0018931182778649705,-0.0490341857075691,-1.6810030937194824,-0.8149092793464661,0.0546573624014854,0.0623047202825546,-0.0107831433415412
1749037530.1787734,-4.391684364214062,0.08838639437289139,-0.6881506366192015,3.6266863956997697,-3.1430565682034723,5.6105710295348,0.0018571632804400048,-0.0005025478645679796,0.0003910303507214093,-0.0005944904746004627,0.0015806837344571752,-0.0017349546647553228,-0.0596421435475349,-1.664565086364746,-0.8120083212852478,0.0420025959610939,0.06363295763731,-0.0295549482107162
1749037530.1788106,-4.3916841805584275,0.08838743890978798,-0.6881498311072979,3.626685227028029,-3.1430543599831773,5.61056781155273,0.001492805518597527,-0.0004094003663722971,0.000359152598510656,-0.0005434686123092329,0.001522111722017341,-0.0016024429651005179,-0.0286872237920761,-1.6634981632232666,-0.8027090430259705,0.0584976226091384,0.0425721034407615,-0.0188910476863384
1749037530.1788473,-4.391684683439812,0.08838822876956173,-0.688149297478232,3.626684073192578,-3.1430519596510686,5.610564962337988,0.001146304997569637,-0.0003419247348698563,0.000327467906909773,-0.0005081714470383743,0.001441639278926697,-0.0014927568885497447,-0.0672138109803199,-1.656831979751587,-0.7969558835029602,0.0564745813608169,0.0637785941362381,-0.0183652453124523
1749037530.178884,-4.391685741512632,0.0883886891392821,-0.6881490436961302,3.6266829932876887,-3.1430494866673384,5.610562540678966,0.0008150718267175575,-0.00029940660252502786,0.00029747096902353365,-0.0004841774735996256,0.0013282102363545462,-0.0014014459546191841,-0.0600097998976707,-1.630538821220398,-0.8131504654884338,0.0459864288568496,0.0551226660609245,-0.0123797915875911
1749037530.1789205,-4.391687233655344,0.08838876997151389,-0.6881490514911388,3.626682034066703,-3.143047095781328,5.610560580411575,0.0004963673783565005,-0.00028033697666453723,0.000270237445699341,-0.0004675337154061137,0.0011731307547157349,-0.0013231363579628772,-0.0763264521956443,-1.6236563920974731,-0.8174691796302795,0.037293579429388,0.0342822670936584,-0.0251574479043483
1749037530.1789565,-4.391689053626123,0.08838845082293345,-0.6881492795964871,3.6266812237082178,-3.1430449609204016,5.61055909039133,0.0001881441483620826,-0.00028267624244347923,0.0002464124025766996,-0.00045499546156131546,0.0009715663294917631,-0.0012522437395506394,-0.0590477213263511,-1.623139262199402,-0.8102820515632629,0.0613893792033195,0.0379684455692768,-0.0111345909535884
1749037530.1789927,-4.391691112765799,0.08838774284516886,-0.6881496691180851,3.6266805685053547,-3.143043257077533,5.6105580567389195,-0.0001102243015442932,-0.0003040682527201038,0.00022623292180896646,-0.0004441561330179874,0.000724001672768081,-0.0011836143769369297,-0.0613040402531623,-1.6159762144088743,-0.8331958651542664,0.0587512552738189,0.054718941450119,-0.0118851475417613
1749037530.1794093,-4.391693341174917,0.08838668713909748,-0.6881501504797678,3.626680052661334,-3.1430421419282,5.61055744684676,-0.00039745059731074794,-0.0003419962741117326,0.00020957699772364768,-0.00043347450166342027,0.0004375308131500608,-0.0011130303718998676,-0.0583059564232826,-1.6196891069412231,-0.8080982565879822,0.0428708083927631,0.0356354340910911,0.0054117627441883
1749037530.1813731,-4.391695687532004,0.08838534940611996,-0.6881506515413328,3.6266796411193813,-3.143041737829941,5.6105572143040705,-0.0006701836925217028,-0.0003938859220321932,0.00019603034878848104,-0.00042221260741518536,0.00012682274378288656,-0.0010375412543402883,-0.0956419929862022,-1.6451566219329834,-0.8278554677963257,0.0662408992648124,0.0326857008039951,-0.0094833187758922
1749037530.222286,-4.391698117590517,0.08838381175533563,-0.6881511062779052,3.626679285026497,-3.143042113966572,5.6105573037812775,-0.0009232638135409167,-0.0004571710649614463,0.000184963144509389,-0.0004103021666753805,-0.00018540285525597423,-0.0009556129749023016,-0.1147477105259895,-1.6972277164459229,-0.8389492630958557,0.0611617341637611,0.0269504189491271,-0.0141084380447864
1749037530.2223325,-4.391700611700494,0.08838216323097839,-0.6881514627929659,3.626678929108082,-3.143043268459742,5.610557655173184,-0.0011503782524238187,-0.0005293453311501052,0.00017560968837925997,-0.00039816027016265516,-0.00046854903910391993,-0.0008671088855100418,-0.173976719379425,-1.7277584075927734,-0.859109103679657,0.0423639863729476,0.0226156786084175,0.0106900557875633
1749037530.2223723,-4.391703162066493,0.08838049079539644,-0.6881516889957454,3.6266785200438045,-3.143045111269566,5.610558206731073,-0.0013450294929858945,-0.0006080226145974072,0.00016714561716274796,-0.0003864764138684257,-0.000685095383365117,-0.0007731322564179838,-0.1708526015281677,-1.7320290803909302,-0.8781270384788513,0.0458899959921836,0.0167944282293319,0.0227979533374309
1749037530.222411,-4.391705770354555,0.08837887201669521,-0.688151774564832,3.626678014884539,-3.143047449875383,5.610558897319568,-0.0015016374020666592,-0.0006910229819382948,0.00015875890783157058,-0.0003759922293133707,-0.0007924111773791584,-0.0006757666585347388,-0.0888421609997749,-1.7240631580352783,-0.8778429627418518,0.0496127977967262,0.0241050273180007,0.0033842585980892
1749037530.2224488,-4.391708445774584,0.08837736976381882,-0.6881517288185789,3.626677388517288,-3.143049980299588,5.610559668166645,-0.001616534458997382,-0.0007764844959026689,0.00014971252522511414,-0.00036729297063686816,-0.000745431188151998,-0.0005777520934772343,-0.0973629727959632,-1.7192530632019043,-0.8882771134376526,0.0392879396677017,0.0299392603337764,0.0153962112963199
1749037530.2224865,-4.391711203334759,0.08837602834775014,-0.6881515753439337,3.6266766391392293,-3.143052285848196,5.610560464371904,-0.0016886192561083463,-0.0008629796373173907,0.0001393974341663801,-0.0003606265605833589,-0.0005001010640228634,-0.0004821339202569603,-0.1434584259986877,-1.7077821493148804,-0.8778237104415894,0.0482516884803772,0.0278399214148521,0.0120315514504909
1749037530.2225237,-4.391714061768771,0.08837487030132567,-0.6881513451192994,3.6266757907894176,-3.1430538453732764,5.610561236074651,-0.0017195245578058129,-0.0009495974917528927,0.00012737472273880316,-0.00035576268164879023,-1.738998355611688e-05,-0.0003919199299389825,-0.1429065763950348,-1.7157679796218872,-0.895395040512085,0.0571860000491142,0.0481461286544799,0.0263398699462413
1749037530.2225611,-4.391717040619721,0.08837389347510259,-0.6881510700169937,3.62667489236104,-3.1430540523302306,5.610561938938645,-0.0017132951503773441,-0.001035953040818997,0.0001134049819620309,-0.0003519017642540557,0.0007324439382946936,-0.0003097781637711444,-0.1337898969650268,-1.7057085037231443,-0.889985978603363,0.05842275172472,0.0633998662233352,0.0085920989513397
1749037530.222598,-4.391720156132307,0.08837306894274757,-0.6881507780565391,3.6266740131685937,-3.1430522453331013,5.610562533769835,-0.0016756928131327737,-0.0011221071522469893,9.746238949051698e-05,-0.00034764192398419557,0.001765749742177571,-0.00023780261353663178,-0.1463062167167663,-1.724042892456055,-0.9083655476570128,0.0573882833123207,0.0836024284362793,0.0319206714630126
1749037530.222635,-4.391723415913171,0.08837234072433896,-0.6881504910414351,3.6266732358817273,-3.143047749782623,5.6105629855544805,-0.0016133091524786862,-0.0012084143672462567,7.973063752824333e-05,-0.0003410102367766578,0.003082023897980981,-0.00017736451202121073,-0.1469439566135406,-1.7516169548034668,-0.911811590194702,0.0699354857206344,0.0897698774933815,0.0075296871364116
1749037530.2226758,-4.391726812648137,0.08837162816289887,-0.6881502246120138,3.626672648140314,-3.1430399282261363,5.610563262671128,-0.0015326714462325485,-0.0012953427021694579,6.057824594587014e-05,-0.00032956194177368977,0.004661592569291256,-0.00012905462352871174,-0.1489395797252655,-1.735323429107666,-0.8900108337402344,0.0545341297984123,0.118802323937416,0.0106868408620357
1749037530.222713,-4.391730317553156,0.08837083107327173,-0.6881499903236119,3.626672334154996,-3.1430282349404943,5.610563337181815,-0.0014394928085916722,-0.0013833182500523052,4.051207726138316e-05,-0.0003105462305611712,0.006464874926439409,-9.270985972184711e-05,-0.1687726080417633,-1.7340823411941528,-0.9089884161949158,0.0718899220228195,0.1206329390406608,0.0059897601604461
1749037530.2227497,-4.3917338747408925,0.08836983705635104,-0.6881497989972747,3.6266723671119236,-3.143012268660753,5.610563186758411,-0.0013381645771824646,-0.0014726348810141952,2.011002306332138e-05,-0.00028113020326099174,0.008433524760369453,-6.75084391921399e-05,-0.1454916000366211,-1.7314013242721558,-0.9165523648262024,0.076003111898899,0.1245151683688163,0.0240568406879901
1749037530.2227871,-4.391737398066032,0.08836853010604866,-0.6881496642738459,3.6266728026453503,-3.1429918169447335,5.610562798058191,-0.0012315277753411364,-0.0015634416835908693,-6.328952715350694e-08,-0.0002386641823211143,0.010493536586205162,-5.211274072789671e-05,-0.1360094845294952,-1.7587544918060305,-0.9352375864982604,0.088104136288166,0.1446002274751663,0.0322261787950992
1749037530.2228236,-4.391740771916837,0.08836679981187955,-0.6881496051807575,3.626673673458648,-3.1429668863851115,5.610562170670217,-0.0011209034706977652,-0.0016557907475446437,-1.9550641125747202e-05,-0.00018096299016328,0.012560159809192867,-4.4837660244853444e-05,-0.128410518169403,-1.7538418769836426,-0.9248453974723816,0.080500528216362,0.1436674892902374,0.0349900647997856
1749037530.222861,-4.391743856764955,0.08836455064114415,-0.6881496467835627,3.6266749854302156,-3.1429377143664246,5.610561320485708,-0.001006322059014847,-0.0017497106871711971,-3.8096130954867395e-05,-0.00010657013770622578,0.014544234760241598,-4.3823810873252e-05,-0.1351951360702514,-1.7566535472869873,-0.9382333159446716,0.1001968458294868,0.1466409713029861,0.0303031876683235
1749037530.222897,-4.391746499277576,0.08836171068276419,-0.6881498186776173,3.62667671586692,-3.142904759883428,5.610560281473802,-0.0008868762297998023,-0.0018452751352227735,-5.572731002275169e-05,-1.4966303287349198e-05,0.01635937583240794,-4.7198362328692316e-05,-0.0905015543103218,-1.7577499151229858,-0.933073341846466,0.1047069430351257,0.1919182240962982,0.0325830020010471
1749037530.2229335,-4.39174854577519,0.08835823900923481,-0.6881501519203507,3.6266788145520548,-3.142868673034871,5.610559105198542,-0.0007611270562517946,-0.001942654572313638,-7.281482134452383e-05,9.331876206398695e-05,0.01792928881132146,-5.32108342724514e-05,-0.0987286940217018,-1.7830586433410645,-0.942480742931366,0.1081409081816673,0.1552087217569351,0.0167515650391578
1749037530.2229705,-4.391749857118488,0.08835413075722731,-0.6881506755059291,3.6266812078419224,-3.1428302453630974,5.610557857958738,-0.0006275058915897673,-0.002042159026290269,-9.010161671764089e-05,0.00021672943081657193,0.019194433781689554,-6.033600859969175e-05,-0.1358126997947693,-1.7925362586975098,-0.9417478442192078,0.1108804866671562,0.1469924300909042,0.0245209727436304
1749037530.2230065,-4.391750322874833,0.08834941917782271,-0.6881514132907147,3.6266838055880455,-3.142790345971489,5.610556616053596,-0.00048466759482801767,-0.0021442858266400894,-0.00010869743474352055,0.00035287282550662324,0.020117263505120487,-6.734073733269093e-05,-0.0773567929863929,-1.7855441570281982,-0.9528986811637878,0.1123542115092277,0.1219465732574462,0.0361563861370086
1749037530.2233434,-4.391749872769922,0.08834417412090381,-0.6881523816433929,3.626686510334414,-3.142749850447305,5.610555460053839,-0.0003317602875047229,-0.0022497792307467476,-0.00013003769631388644,0.0004988879687554023,0.020685414719647594,-7.331539274324202e-05,-0.1052701845765113,-1.7686052322387695,-0.9524936079978944,0.1273989379405975,0.1366349011659622,0.0339410305023193
1749037530.225309,-4.391748483883092,0.08833849670500951,-0.6881535876721552,3.6266892280612755,-3.14270957030523,5.610554468916058,-0.00016858504640507375,-0.0023596953254226703,-0.00015580880211041767,0.0006519877433477652,0.020912504623402186,-7.767379071856735e-05,-0.0785370245575904,-1.7975322008132937,-0.9514946341514589,0.1291138529777526,0.1435833424329757,0.0195419490337371
1749037530.2662706,-4.3917461827747,0.08833251040792844,-0.688155027983929,3.6266918796497967,-3.1426701900095955,5.61055371449306,4.371458337764499e-06,-0.0024754562496103155,-0.000187843730299343,0.000810136122240738,0.020836526703754958,-8.012751507829302e-05,-0.061985857784748,-1.7906837463378906,-0.9542878270149232,0.1263981163501739,0.1550375819206237,0.0255666114389896
1749037530.266317,-4.391743042617513,0.08832634938118442,-0.6881566882427499,3.6266944121903637,-3.142632217238085,5.610553256727582,0.00018603623710310694,-0.0025988780000630227,-0.00022799266501040806,0.0009727876934452668,0.02051615467283625,-8.064169398315046e-05,-0.0528631880879402,-1.8038833141326904,-0.9524912238121032,0.1477322578430175,0.1468281894922256,0.032122116535902
1749037530.2663631,-4.391739176165913,0.08832014512942733,-0.688158543853289,3.626696809170625,-3.142595950407811,5.610553139671455,0.0003749724721217404,-0.0027321635396499394,-0.00027797346605517036,0.001141578511470768,0.02002547686936044,-7.937953194243923e-05,-0.0805446878075599,-1.803650379180908,-0.9553589224815368,0.1427509486675262,0.1492272317409515,0.0333660319447517
1749037530.2664015,-4.39173472583013,0.0883140127236528,-0.6881605618057998,3.626699098426102,-3.142561465701128,5.610553388428142,0.0005697020772666537,-0.0028778595801770904,-0.0003392075152889055,0.001320825236188236,0.019447779270510054,-7.664244262425165e-05,-0.0562883093953132,-1.8036543130874636,-0.963245689868927,0.1319561898708343,0.1408135294914245,0.0346264019608497
1749037530.2664397,-4.391729852223846,0.08830803771175245,-0.6881627033639065,3.6267013567133413,-3.1425286238266605,5.610554007097545,0.0007690873767785398,-0.0030387752487490596,-0.00041264976590107917,0.0015176797212803949,0.018869001825910076,-7.281164953559983e-05,-0.0448779314756393,-1.7989652156829834,-0.9738051295280457,0.1398994028568267,0.1403759717941284,0.0275128483772277
1749037530.2664776,-4.391724722353438,0.08830226508346675,-0.688164927141498,3.6267037100723907,-3.14249709462778,5.610554977712312,0.0009727075608002235,-0.0032178566765314197,-0.0004986280748079954,0.0017418161174020106,0.018371448704029285,-6.829582084363548e-05,-0.0494177713990211,-1.7972726821899414,-0.9777087569236756,0.1534420251846313,0.1877463459968567,0.0363347828388214
1749037530.266515,-4.391719498117756,0.08829669186987561,-0.6881671921800319,3.6267063296440547,-3.142466395741078,5.610556260053439,0.0011811428844030402,-0.0034180128439386093,-0.0005967137856165331,0.002004602288906571,0.0180282611872797,-6.348786543768924e-05,-0.072566919028759,-1.825120210647583,-0.9651085734367372,0.1569651663303375,0.1544388830661773,0.0468135401606559
1749037530.2665522,-4.391714325231183,0.08829126481610042,-0.6881694607071609,3.626709423038257,-3.1424359401029647,5.610557792359946,0.0013960761698527033,-0.003641900588704452,-0.0007056494959402445,0.0023178126812246833,0.01789906351072017,-5.873259736946174e-05,-0.0378306731581687,-1.823614239692688,-0.9752656817436218,0.1709131002426147,0.1854281574487686,0.0194310583174228
1749037530.266589,-4.3917093225138535,0.08828588389204162,-0.6881717002897905,3.626713221745706,-3.142405086332556,5.610559493327255,0.0016201550447386868,-0.0038916944094931536,-0.0008233585885922032,0.0026920472855961218,0.018027059344211126,-5.4305697544342995e-05,-0.0568882301449775,-1.827584981918335,-0.980664074420929,0.1766141206026077,0.2064883112907409,0.037871066480875
1749037530.2666266,-4.391704571858013,0.088280411393121,-0.6881738852253093,3.6267179656330093,-3.1423731860095203,5.610561265989369,0.0018566251245325117,-0.0041688759266753535,-0.0009470540237807045,0.0031350996400673955,0.018437695193406507,-5.040334891734765e-05,-0.013186402618885,-1.817038416862488,-0.9906246066093444,0.1923949122428894,0.2068114429712295,0.0451830476522445
1749037530.2666633,-4.3917001098234,0.08827468536867598,-0.6881759972824967,3.6267238861795157,-3.142339622756973,5.610563003709294,0.0021088141814385474,-0.0044740714138630676,-0.0010734519821597012,0.003650541915993364,0.0191388406323134,-4.71411406000139e-05,-0.0058456137776374,-1.8210132122039795,-0.974587619304657,0.1911364644765854,0.1730539351701736,0.0392226204276084
1749037530.2666996,-4.391695922413084,0.08826853536768403,-0.688178026112521,3.6267311904681487,-3.1423038398109195,5.610564597801979,0.0023795875709067224,-0.004806949433556217,-0.001199080302599878,0.004236757778849679,0.0201222931566992,-4.456033944060229e-05,0.002151072025299,-1.8554205894470213,-0.9731692671775818,0.2124930620193481,0.2238440513610839,0.0307708010077476
1749037530.2667356,-4.391691944778737,0.08826179812456568,-0.6881799695980211,3.6267400477981493,-3.1422653551129014,5.610565945859368,0.0026708917809360687,-0.00516617453343089,-0.0013206533262899852,0.004886563183100775,0.021366318854350825,-4.263939921870187e-05,-0.0107095018029212,-1.8368730545043943,-0.9846850037574768,0.1952160596847534,0.221878319978714,0.0376959405839443
1749037530.266774,-4.391688066984657,0.08825433084198477,-0.6881818341808467,3.6267505801637014,-3.1422237653235365,5.610566959808204,0.0029834629360227637,-0.0055494028950781185,-0.0014354663409650872,0.0055874388933036985,0.02283889496293398,-4.130858145399576e-05,-0.011113129556179,-1.841174602508545,-0.9723865389823914,0.2124122679233551,0.2254100739955902,0.0342333652079105
1749037530.2668135,-4.391684145478712,0.08824602019147508,-0.6881836350687833,3.6267628569608816,-3.1421787418247833,5.610567572865099,0.0033167219473334603,-0.005953304267216924,-0.0015417496706916058,0.006322293293449372,0.024501314881302454,-4.04657487890118e-05,0.010629154741764,-1.8432443141937256,-0.9877737164497375,0.1939475238323211,0.2314931005239486,0.0073380731046199
1749037530.2668595,-4.391680018238644,0.08823678601899165,-0.6881853962344436,3.6267768934896747,-3.142130022343111,5.6105677447174775,0.003668834329729877,-0.006373602869220278,-0.0016389206281977346,0.007070610010136472,0.026311830531425565,-3.999170683945701e-05,0.0133349522948265,-1.8308919668197632,-0.971695840358734,0.1908352673053741,0.2472835183143615,0.0408662855625152
1749037530.2668977,-4.391675520589542,0.08822657984340593,-0.6881871501448983,3.6267926523714933,-3.142077401428998,5.610567464484049,0.0040368955898186076,-0.006805144314131659,-0.001727684175792421,0.0078098206089509785,0.02822902950071081,-3.976385835348284e-05,0.0040516555309295,-1.8796018362045288,-0.988714635372162,0.2067703902721405,0.2625904083251953,0.019061129540205
1749037530.2669342,-4.391670498796925,0.08821537933165645,-0.6881889371681013,3.626810046923726,-3.142020722130427,5.61056675126178,0.004417204929894398,-0.007242005866019238,-0.001809958844046599,0.008516765266314803,0.030214677976109636,-3.9667344508504635e-05,0.0387852601706981,-1.8934786319732664,-0.992103397846222,0.2047784328460693,0.2457895129919052,0.0150034166872501
1749037530.2669709,-4.391664819446435,0.08820318071480969,-0.6881908047007047,3.626828945702877,-3.1419598701494014,5.610565652252578,0.0048055917491777135,-0.007677665199021141,-0.0018886375319155202,0.00916914184783064,0.032235817333044196,-3.960324058204149e-05,0.0318663343787193,-1.875588059425354,-0.9858638644218444,0.2086659669876098,0.261605829000473,0.035954799503088
1749037530.2670078,-4.391658373865855,0.08818999123220879,-0.6881928062250093,3.626849177754743,-3.1418947707614286,5.610564238570123,0.005197752534994119,-0.008105229635770109,-0.0019672242042103553,0.009746876782392009,0.034265993128507734,-3.94937157307997e-05,0.0261824056506156,-1.8858191967010496,-1.0103213787078855,0.1928993165493011,0.2650822401046753,0.0166474394500255
1749037530.2674017,-4.391651078090677,0.08817582313744031,-0.6881950005382489,3.6268705385244475,-3.1418253879317106,5.610562598957088,0.005589549245813675,-0.008517714251333007,-0.002049408004013987,0.01023336872155158,0.03628561616360207,-3.928433912436546e-05,0.0261824056506156,-1.8858191967010496,-1.0103213787078855,0.1928993165493011,0.2650822401046753,0.0166474394500255
1749037530.2693522,-4.391642869830979,0.08816069006814208,-0.6881974512171687,3.6268927967802247,-3.141751724352007,5.610560831894475,0.00597722740148907,-0.008908353976735079,-0.0021386411613031975,0.010616557207804142,0.03828157923860825,-3.89439096082351e-05,0.0477144345641136,-1.899374008178711,-0.9837741255760192,0.2219795137643814,0.2637615799903869,0.0457478389143943
1749037530.31431,-4.391633704294789,0.08814460618837393,-0.6882002261181972,3.626915703127028,-3.141673820578149,5.6105590369357685,0.006357533528050151,-0.009270941120919305,-0.002237777478312915,0.010889757839932795,0.040246338140415686,-3.8462308990370994e-05,0.0510790385305881,-1.926156759262085,-1.0154571533203125,0.1892783194780349,0.2795366048812866,0.0408594608306884
1749037530.3143797,-4.3916235504809045,0.0881275883680738,-0.6882033965601656,3.626939000530064,-3.1415917515178626,5.61055730641019,0.006727735192495605,-0.009600182726546572,-0.0023488088186972627,0.011052188893004048,0.04217668104837122,-3.784694345168226e-05,0.0353255607187747,-1.896864652633667,-1.001925349235535,0.1754838079214096,0.2839025557041168,0.0260640513151884
1749037530.314452,-4.391612388909285,0.0881096612099641,-0.6882070358482237,3.6269624366870055,-3.1415056195904447,5.610555718712711,0.007085562767980219,-0.009892062522898416,-0.002472714180728133,0.01110910352834812,0.044072365136182554,-3.7118353112583396e-05,0.0744208693504333,-1.9352045059204104,-1.0083884000778198,0.1919310837984085,0.2800109386444092,0.0205840654671192
1749037530.3145225,-4.391600211131028,0.08809086374109591,-0.6882112168498365,3.6269857773253964,-3.141415545457833,5.610554334088224,0.007429101436180892,-0.010144175743447162,-0.0026094162361321315,0.011071454247090924,0.04593473528317009,-3.630553728002251e-05,0.0377335846424102,-1.93494176864624,-1.0061153173446655,0.1791530102491378,0.2828432321548462,0.0398039557039737
1749037530.3145914,-4.391587021030323,0.0880712556030374,-0.6882160083038583,3.6270088189407983,-3.1413216582718975,5.610553193208305,0.0077566689073133585,-0.01035599362449372,-0.002757827583035095,0.01095506374203369,0.04776540157615107,-3.54414645219751e-05,0.0578400306403636,-1.90812087059021,-1.000011920928955,0.1844034492969513,0.3046767115592956,0.0267331376671791
1749037530.3146677,-4.3915728378079155,0.0880509203932807,-0.688221469542458,3.6270313993739984,-3.1412240873925983,5.610552318218678,0.008066717786725889,-0.010529012851272081,-0.002915962412096438,0.010779351677295594,0.049565057307926576,-3.455912612782861e-05,0.0407485738396644,-1.910597324371338,-1.0158321857452393,0.1678835749626159,0.3153771758079529,0.045082289725542
1749037530.3147385,-4.39155770029631,0.08802996464292139,-0.6882276435807169,3.6270534049225054,-3.141122956811034,5.610551715533369,0.008357798186231795,-0.01066675341088883,-0.003081086500360855,0.010565746957322972,0.05133255235434996,-3.3688369405988844e-05,0.0814677998423576,-1.9014275074005127,-0.9844821095466614,0.1906371414661407,0.2983241081237793,0.0409636832773685
1749037530.314807,-4.391541671722031,0.08800851228076981,-0.6882345491455435,3.6270747731881134,-3.1410183826214952,5.610551379524533,0.008628605429808868,-0.010774585771998073,-0.003249881055864711,0.010335973340425225,0.05306436002537386,-3.285363090850725e-05,0.0604593679308891,-1.9489591121673584,-0.9863207936286926,0.1994449198246002,0.316924899816513,0.0292375721037387
1749037530.3148751,-4.391524843338429,0.08798669563716624,-0.6882421729640141,3.6270954914393667,-3.140910473201611,5.610551296357798,0.008878119499979695,-0.010859391028505102,-0.0034186076372065147,0.01011041372656743,0.0547545512978162,-3.20725892285521e-05,0.0749067291617393,-1.9561221599578855,-1.011223554611206,0.198786199092865,0.3243717551231384,0.0113590471446514
1749037530.314944,-4.391507334845632,0.08796464462801967,-0.6882504641542001,3.627115590893448,-3.1407993314281244,5.610551447421575,0.00910581656407948,-0.01092907856589891,-0.003583279406846553,0.00990673117004695,0.05639531072846217,-3.135567751432901e-05,0.0777909606695175,-1.947838544845581,-1.0108461380004885,0.175468623638153,0.3257938623428345,0.0449716225266456
1749037530.3150134,-4.391489289671256,0.08794247574721077,-0.6882593325165011,3.627135137900074,-3.14068505826296,5.6105518119303435,0.00931190274049006,-0.010992000261458685,-0.0037398561267989994,0.009738868000053576,0.057977923545783946,-3.070633904221874e-05,0.0575492307543754,-1.947906494140625,-0.9901142716407776,0.195505291223526,0.3182589113712311,0.0098260939121246
1749037530.3150697,-4.391470864409027,0.08792028225109208,-0.6882686518019375,3.6271542233518037,-3.140567757150885,5.610552368302279,0.00949749866037883,-0.01105630752577858,-0.003884475139324468,0.00961648251235939,0.059494078864428854,-3.012187438158079e-05,0.0574636682868003,-1.964505195617676,-0.9738773703575134,0.2084026932716369,0.32819664478302,0.0327845998108387
1749037530.315108,-4.391452213710752,0.08789812671437466,-0.6882782679091698,3.6271729516890026,-3.140447538494448,5.61055309398254,0.009664703669603288,-0.011129301396874597,-0.004013710528639515,0.009544829689762542,0.06093729642027869,-2.9594713292333336e-05,0.0628971308469772,-1.9643030166625977,-0.9962840676307678,0.1949853003025055,0.330474704504013,0.0347174704074859
1749037530.3151455,-4.391433473590771,0.08787603691113455,-0.6882880109341071,3.6271914307502224,-3.1403245229566386,5.6105539637144055,0.009816494240417663,-0.011216833355142555,-0.004124833060039137,0.009525049319252903,0.06230428909707131,-2.9113944761136528e-05,0.0577177554368972,-1.946049928665161,-0.9957880973815918,0.2279025167226791,0.3217865526676178,0.0438382215797901
1749037530.315183,-4.391414746503319,0.08785400555315331,-0.6882977094281573,3.6272097635718374,-3.1401988420249984,5.610554946803697,0.009956453660944341,-0.011322827795051109,-0.004216037119688544,0.009554790608661616,0.06359609957398409,-2.8666950205580658e-05,0.0742799863219261,-1.9510788917541504,-0.992918848991394,0.2007192373275756,0.3236522674560547,0.0315438508987426
1749037530.3152206,-4.391396090800105,0.0878319937718664,-0.6883072051218357,3.627228043015207,-3.1400706347365968,5.610556004326798,0.010088373833482734,-0.011449007333631904,-0.004286605971124173,0.009629078112437173,0.06481887895881544,-2.824100361339142e-05,0.0822394415736198,-1.9708445072174072,-0.995363473892212,0.1986796855926513,0.3133277893066406,0.0385501757264137
1749037530.315258,-4.391377515987015,0.08780993754857432,-0.6883163665123807,3.627246349710003,-3.139940040584733,5.6105570872437465,0.01021580020185542,-0.011594893174578097,-0.004336992670462371,0.009741309453184343,0.06598420320758429,-2.7824724516311325e-05,0.0904308408498764,-2.006291627883911,-0.9889869689941406,0.2089374959468841,0.3194034695625305,0.042691696435213
1749037530.315299,-4.391358984098412,0.08778775590091834,-0.688325099897546,3.627264753321077,-3.139807189680219,5.610558136115924,0.010341600114875026,-0.011758112404281682,-0.00436879696525164,0.009884269933577005,0.06710885569545305,-2.740929236635106e-05,0.0869410708546638,-2.0019240379333496,-0.9905740022659302,0.1915691345930099,0.3264451324939728,0.0338434278964996
1749037530.3153553,-4.391340416687789,0.08776535969711917,-0.688333356631568,3.6272833166525555,-3.139672191689854,5.610559082825483,0.010467625582831206,-0.011934975999960854,-0.004384625270851996,0.010051053559893323,0.06821404919429784,-2.6989352266709782e-05,0.086478017270565,-1.9955382347106931,-0.9829171895980836,0.20741868019104,0.3188111186027527,0.0384658575057983
1749037530.3154006,-4.39132170643881,0.08774266030436903,-0.6883411357032474,3.6273021015638296,-3.1395351249790786,5.610559854394472,0.01059452100678142,-0.012121218714129555,-0.004387838056404447,0.010235797226643629,0.06932411517824683,-2.656356136312393e-05,0.1226878315210342,-2.0133252143859863,-0.9949796199798584,0.2062905132770538,0.3242712616920471,0.0208832509815692
1749037530.315438,-4.391302732142013,0.08771957751509504,-0.6883484813042179,3.6273211752033756,-3.139396027093208,5.6105603786528,0.010721701596013577,-0.012312748027690503,-0.0043822135415756405,0.010434166433769643,0.07046474125429288,-2.6134742738690024e-05,0.1229729875922203,-2.008809328079224,-0.9926044940948486,0.215010792016983,0.3338395357131958,0.0179047845304012
1749037530.315476,-4.391283375565297,0.08769604615122013,-0.6883554757826016,3.6273406149899965,-3.1392548874555493,5.610560591141512,0.010847500501957938,-0.012506256698888963,-0.004371577717702536,0.010643572339605716,0.07166087973458626,-2.5709630329151996e-05,0.1256756782531738,-2.0157103538513184,-1.003937005996704,0.2059802114963531,0.3319423198699951,0.0517150983214378
1749037530.3156016,-4.391263538418632,0.08767202054190845,-0.6883622290142803,3.6273605111993494,-3.139111642978561,5.6105604423890005,0.010969452596419441,-0.012699607006508991,-0.0043594575622970585,0.010863139570380556,0.07293448076725391,-2.529820556527259e-05,0.1085442751646041,-2.009744644165039,-0.9846967458724976,0.2326214611530304,0.3262523710727691,0.0194345936179161
1749037530.3173664,-4.3912431572016155,0.08764747601074024,-0.6883688656178861,3.6273809666762316,-3.138966177149849,5.610559904671793,0.011084657298659328,-0.012891965515109793,-0.0043488020787413526,0.011093470367205998,0.0743022288204738,-2.4912645595589884e-05,0.1116198375821113,-2.0134010314941406,-0.994072198867798,0.2015001475811004,0.3192103207111358,0.0416130237281322
1749037530.3582704,-4.391222213495478,0.08762240688427313,-0.688375511635776,3.6274020937810723,-3.138818323035748,5.610558977526021,0.01119015344822892,-0.013083724550292627,-0.0043417896177738655,0.01133626089832228,0.07577349448585059,-2.4565925172292834e-05,0.1320430785417556,-2.0539236068725586,-0.9857404232025146,0.1934835165739059,0.3672859370708465,0.0300950724631547
1749037530.3583162,-4.391200737612374,0.08759682134243293,-0.688382282328496,3.627424009101836,-3.138667870478464,5.610557691426606,0.011283249617945579,-0.013276276350861973,-0.004339714703133396,0.01159382649487422,0.07734875134417449,-2.4270140052597096e-05,0.1376308053731918,-2.05346155166626,-0.9939602613449096,0.2054840624332428,0.3651241958141327,0.0483465865254402
1749037530.358359,-4.3911788046084865,0.08757073431123807,-0.688389272445216,3.627446826746056,-3.1385145774932264,5.6105561090811875,0.011361774821760194,-0.013471709713787573,-0.004342939150553246,0.011868589754087633,0.079018708559705,-2.4034648579412145e-05,0.1184077560901641,-2.047303438186645,-0.9964039325714112,0.2148989886045456,0.3461165130138397,0.021744180470705
1749037530.3583975,-4.391156523226724,0.08754416018158825,-0.6883965496894439,3.627470651153901,-3.138358185500014,5.610554323777142,0.011424236258786585,-0.013672485329246292,-0.004350904325734722,0.012162577754702978,0.08076432772817524,-2.386415831826318e-05,0.1255587488412857,-2.059131860733032,-0.9884984493255616,0.1860415935516357,0.3327258229255676,0.0427957773208618
1749037530.3584352,-4.391134019871771,0.08751710725766211,-0.68840415139831,3.627495570253545,-3.138198437611116,5.610552454355844,0.011469888683433842,-0.013881124819749572,-0.004362220369366454,0.01247696133201788,0.08255774336701235,-2.3756913409714226e-05,0.1281549036502838,-2.050017833709717,-0.9961372017860411,0.2200572788715362,0.3204883933067322,0.0276914350688457
1749037530.3584723,-4.391111420822518,0.08748957534657348,-0.6884120840717065,3.62752164938334,-3.138035098890692,5.610550636760413,0.011498735069200574,-0.014099929780146559,-0.004374854257493783,0.012811658210912298,0.08436397370364604,-2.3703161731327403e-05,0.1638291627168655,-2.064578056335449,-1.0004944801330566,0.214700773358345,0.3484340310096741,0.0329829305410385
1749037530.3585162,-4.391088836235081,0.0874615567886334,-0.6884203253521032,3.6275489259440157,-3.137867977479169,5.610549012622981,0.011511489224232743,-0.014330738923717987,-0.004386423239006108,0.01316502338821236,0.08614326450846346,-2.368409433406677e-05,0.1245152428746223,-2.073535680770874,-1.0009870529174805,0.2277474701404571,0.3631198406219482,0.0426884181797504
1749037530.3585544,-4.391066348894826,0.08743304000827064,-0.6884288281233736,3.6275774046065266,-3.137696945679811,5.610547715893456,0.011509534709880831,-0.014574735942640686,-0.004394571852181366,0.013533664051893456,0.08785393999582948,-2.3671447871337196e-05,0.1433959305286407,-2.091473340988159,-1.0073843002319336,0.235548198223114,0.3579885363578796,0.0228939093649387
1749037530.358592,-4.391044009274674,0.08740401404559339,-0.6884375263923942,3.627607053240921,-3.1375219601542237,5.610546859001613,0.011494909209827433,-0.014832331630348734,-0.004397383731228766,0.013912427529989866,0.0894556561915331,-2.3627939112037042e-05,0.1399340778589248,-2.104179620742798,-0.9789320826530457,0.2128171920776367,0.3559075593948364,0.0369294434785842
1749037530.3586292,-4.391021836765766,0.08737447264806036,-0.6884463424951234,3.627637800233647,-3.1373430798682445,5.61054652033861,0.011470329464303177,-0.01510314961630313,-0.004393763728509058,0.014294602964600611,0.09091289974792556,-2.3508655415295315e-05,0.1471349895000457,-2.1141905784606934,-0.9828677773475648,0.2156619131565094,0.3386008143424988,0.0275027863681316
1749037530.358666,-4.390999825578395,0.08734441693867583,-0.688455194966951,3.627669534106238,-3.137160479303643,5.610546734721373,0.011439249944524098,-0.015386136997255648,-0.004383726506639964,0.014672348235227024,0.09219847114860243,-2.3263454446159317e-05,0.1236283853650093,-2.1061928272247314,-0.9874629378318788,0.219966858625412,0.3384985029697418,0.0102127082645893
1749037530.358703,-4.390977953065256,0.08731385604881474,-0.6884640063004492,3.6277021062910078,-3.1369744530325945,5.610547488035469,0.011405922990786823,-0.015679798677749563,-0.004368545391495523,0.0150373153711719,0.093296610138232,-2.284033152104321e-05,0.1236283853650093,-2.1061928272247314,-0.9874629378318788,0.219966858625412,0.3384985029697418,0.0102127082645893
1749037530.3587403,-4.390956188080093,0.08728280534419718,-0.6884727099206249,3.6277353377544554,-3.136785406862457,5.6105487167836605,0.011375409387177399,-0.015982523393044654,-0.004350742902307533,0.015381414688907235,0.09420541214048803,-2.2189599009972464e-05,0.155336856842041,-2.093838691711426,-0.9933613538742064,0.229651853442192,0.3576980233192444,0.0250053107738494
1749037530.358781,-4.390934497488159,0.08725128216278738,-0.6884812559169605,3.6277690298712435,-3.136593831699301,5.610550312903199,0.01135348717759083,-0.016292939950387674,-0.004333928526413103,0.015697636138087518,0.09493823821867338,-2.126859942248376e-05,0.1540555357933044,-2.103957176208496,-1.0097910165786743,0.2060324698686599,0.3371399343013763,0.0457645542919635
1749037530.3588195,-4.390912850029004,0.0872192995729415,-0.688489615164776,3.6278029793479307,-3.136400259734164,5.610552133715519,0.011346424778323604,-0.016610226506066573,-0.004322500192541392,0.01598083503791029,0.09552390083160212,-2.004655660100456e-05,0.1805416792631149,-2.112191915512085,-1.001376986503601,0.2023823112249374,0.367753803730011,0.0212634168565273
1749037530.358857,-4.390891217758682,0.08718685950872208,-0.6884977814468828,3.6278369961011414,-3.136205207247572,5.610554016119991,0.011360613409587085,-0.016934303038233123,-0.004321226226235461,0.016228388817118692,0.0960054961808709,-1.8509074823141388e-05,0.1496791094541549,-2.1145966053009038,-0.9919935464859008,0.2011694610118866,0.3585731387138366,0.0242453403770923
1749037530.358894,-4.390869575552193,0.08715394722232545,-0.68850577121881,3.6278709220955956,-3.1360091118998086,5.610555793403828,0.011402083763792942,-0.01726586524277645,-0.004334727568481854,0.016440644277231842,0.09643786113667077,-1.666174365187905e-05,0.1583490818738937,-2.1052029132843018,-1.001923441886902,0.2134149074554443,0.3274424076080322,-0.0038230121135711
1749037530.3589313,-4.390847898853205,0.08712052872274309,-0.6885136208678327,3.627904648533684,-3.135812273705325,5.610557312649921,0.011475959573555988,-0.01760625423990963,-0.004366897942115692,0.016621101136262813,0.09688376039054741,-1.4532322433307976e-05,0.1671057194471359,-2.1059648990631104,-0.9968844652175904,0.2241898328065872,0.3117503225803375,0.0263533014804124
1749037530.358968,-4.390826159872226,0.08708655179738024,-0.6885213817326215,3.627938128691368,-3.1356148084267113,5.610558450691106,0.011585926671894713,-0.01795719119380827,-0.00442033109836595,0.016776311213415832,0.09740903969949277,-1.217109273750358e-05,0.1443132907152176,-2.12024998664856,-0.9912489652633668,0.2022473216056823,0.3120760321617126,0.0160693973302841
1749037530.3590047,-4.390804322959561,0.08705195012637697,-0.6885291137062626,3.6279713842893693,-3.135416620441757,5.610559126680457,0.011733815322403505,-0.01832043895745587,-0.004495852181790145,0.016915503321138087,0.09807710681060179,-9.649205283504791e-06,0.171512171626091,-2.136195421218872,-0.9959592819213868,0.2181814610958099,0.3247972726821899,0.0282827392220497
1749037530.3594007,-4.390782340303405,0.08701664954841633,-0.6885368786992716,3.6280045044928872,-3.1352173994609274,5.610559309625366,0.011919393614223773,-0.018697481776884097,-0.004592254532123723,0.017049961812117514,0.09894323123433042,-7.0551944473497845e-06,0.1771178394556045,-2.1388819217681885,-1.0098059177398682,0.2121396511793136,0.3659759163856506,0.0302767101675272
1749037530.3613863,-4.3907601490083765,0.08698057547613756,-0.6885447352938633,3.6280376380120742,-3.1350166422236283,5.610559019838335,0.012140439694778576,-0.019089324329567916,-0.0047063158217525705,0.017192190163391654,0.10004926716548206,-4.490179557355401e-06,0.1970810890197754,-2.1379270553588867,-0.9955596923828124,0.2058977484703064,0.3541282415390014,0.038452573120594
1749037530.4025493,-4.39073767022443,0.08694366021999021,-0.6885527354866091,3.6280709797873762,-3.1348136970779694,5.610558324152506,0.012393104010847773,-0.019496486438662322,-0.004833115316510463,0.017354890662326632,0.10141943974255933,-2.0624382176863965e-06,0.2024827897548675,-2.1541616916656494,-1.013305425643921,0.2045879960060119,0.3623697757720947,0.014341402798891
1749037530.402601,-4.390714810708474,0.08690584868447296,-0.6885609237026081,3.6281047540909905,-3.1346078264055923,5.61055732568299,0.01267250773220734,-0.019919209708899575,-0.004966613097648028,0.01754980283252995,0.10305774840824357,1.1808361242325319e-07,0.2124936580657959,-2.184771776199341,-1.0127389430999756,0.1920136660337448,0.3710485100746155,0.0404763519763946
1749037530.4026413,-4.390691467064137,0.08686710115114299,-0.6885693375830111,3.628139195669313,-3.1343982792202056,5.610556149709723,0.01297346911068372,-0.020357816919723486,-0.00510040008761879,0.017786475207229518,0.10494734672460292,1.9450875895952757e-06,0.2113079577684402,-2.165200471878052,-1.013258457183838,0.1992124766111374,0.3929972052574157,0.0276980213820934
1749037530.4026804,-4.390667532598801,0.08682739275474552,-0.6885780096167089,3.628174530185327,-3.134184364435006,5.610554927848793,0.01329121734125198,-0.020813102655068066,-0.005228497319856717,0.0180710921032116,0.10705200810809021,3.321169507064946e-06,0.1905535757541656,-2.142203092575073,-1.0063596963882446,0.2072031199932098,0.398215651512146,0.0243362449109554
1749037530.4027188,-4.390642905953442,0.08678671020341511,-0.6885869686323026,3.628210955046223,-3.1339655151622523,5.610553782905542,0.013621951965285437,-0.02128660987642606,-0.005346076447118307,0.018405521110173496,0.1093195341449977,4.163305862652795e-06,0.2046508193016052,-2.1520209312438965,-0.9957848191261292,0.2261594235897064,0.4127292335033417,0.0265547484159469
1749037530.4027572,-4.390617499607726,0.08674504674954173,-0.688596240492309,3.6282486218227348,-3.1337413362528674,5.610552816453918,0.013963139307036587,-0.02178067599630647,-0.005449987517746195,0.01878676544288138,0.11168674400773203,4.408908372869885e-06,0.2288194000720977,-2.1836178302764893,-0.9980300068855286,0.2348193526268005,0.4027819335460663,0.0301892831921577
1749037530.402795,-4.390591245786119,0.08670239642537789,-0.6886058478100555,3.6282876217838558,-3.133511630270256,5.610552100371301,0.014313498198555801,-0.022298206199380277,-0.005539013728779737,0.01920698135472089,0.11408551860999379,4.02262140169199e-06,0.2090514153242111,-2.2009429931640625,-0.998059093952179,0.2377414852380752,0.4215900897979736,0.0138737820088863
1749037530.4028327,-4.390564097863508,0.08665874844643541,-0.6886158088685794,3.6283279763655916,-3.1332764001918343,5.610551672759966,0.014672696462738558,-0.02284222045885952,-0.005613825221594756,0.019654149674985473,0.11644926323780466,3.0037537701658924e-06,0.2064252942800521,-2.1868646144866943,-1.0018481016159058,0.2321736812591552,0.3993325233459472,0.017787117511034
1749037530.402871,-4.390536027012593,0.08661408252744528,-0.6886261361320293,3.628369634369415,-3.1330358300303462,5.6105515382722375,0.015040838377663549,-0.023415285976276075,-0.005676663868985926,0.020113381994532328,0.11871909611808273,1.3938737563755636e-06,0.2155798822641372,-2.214730978012085,-1.0033146142959597,0.2308718264102935,0.3949461579322815,0.027402501553297
1749037530.402908,-4.39050701566248,0.08656836550660381,-0.6886368348700337,3.6284124771310817,-3.1327902473305786,5.610551672668825,0.015417860722764217,-0.024018966412824857,-0.005730838710799181,0.020568720240385408,0.12084907756387554,-7.162881318159445e-07,0.2188468426465988,-2.207388639450073,-1.0165729522705078,0.2365989685058593,0.372763991355896,0.0228971615433692
1749037530.4029453,-4.390477050338872,0.08652154919825089,-0.688647902388306,3.6284563318794674,-3.132540073845442,5.610552030991327,0.015802966572878326,-0.024653394197816265,-0.005780132900585197,0.02100518277563294,0.12280988514209813,-3.1818293044176264e-06,0.2402933537960052,-2.209214448928833,-1.0017119646072388,0.2189041227102279,0.3619040846824646,0.0206850282847881
1749037530.4029825,-4.390446116278146,0.08647356914753376,-0.6886593281096431,3.6285009922975573,-3.132285772031077,5.610552557852589,0.016194210651625095,-0.025317019628856387,-0.0058282176293050795,0.021410743222401572,0.12459052575495408,-5.80200530440739e-06,0.2359581291675567,-2.186889171600342,-1.0040782690048218,0.2052424252033233,0.3577319681644439,0.0013643540441989
1749037530.4030194,-4.3904141952637525,0.08642434426248721,-0.6886710943768951,3.628546244092846,-3.1320277949434296,5.610553197600352,0.01658831214971928,-0.026006535492571047,-0.005878147219649008,0.021777914265050387,0.12619793533365023,-8.323439865383266e-06,0.2283107936382293,-2.1982219219207764,-1.0138875246047974,0.2083662003278732,0.3422005474567413,0.0255765281617641
1749037530.403056,-4.390381267061827,0.08637377802910688,-0.6886831775249813,3.628591892227989,-3.1317665457954678,5.610553902236835,0.016980721863993464,-0.026716941151243873,-0.005931985508611517,0.02210465760547811,0.12765460382648877,-1.0449648036325229e-05,0.2431710660457611,-2.1989874839782715,-1.0164240598678589,0.2161357551813125,0.3694282174110412,0.0192395225167274
1749037530.4030924,-4.390347314006226,0.08632176255030628,-0.6886955486807194,3.6286377855891,-3.1315023513164566,5.610554635980323,0.017365923812605495,-0.02744170310589617,-0.005990594951849819,0.02239445140324786,0.1289946301588284,-1.1857969317805279e-05,0.2086905837059021,-2.1967203617095947,-1.0071710348129272,0.2155672460794448,0.367457240819931,0.0073216147720813
1749037530.4031296,-4.390312327793591,0.0862681863802358,-0.6887081740225335,3.6286838347860204,-3.13123545058014,5.6105553764807015,0.01773791628536688,-0.028172979518562524,-0.00605360671356457,0.022655495782325886,0.13025881888474614,-1.2224431165461065e-05,0.2233781814575195,-2.197565793991089,-1.0061990022659302,0.2165802270174026,0.3751220107078552,0.0168458260595798
1749037530.4031668,-4.390276317325123,0.08621294605088456,-0.6887210147275868,3.6287300198002033,-3.1309659983421536,5.610556113310579,0.01809079647341991,-0.028901888010890525,-0.006119576997608391,0.02289918982116361,0.1314895348712737,-1.1256260422029687e-05,0.2168721854686737,-2.194189071655273,-1.000261664390564,0.2191873788833618,0.3695414662361145,-0.0020885020494461
1749037530.403227,-4.39023931627285,0.08615595991697272,-0.6887340271781984,3.6287763860822935,-3.1306940793678657,5.610556844439064,0.01841936495293346,-0.029618803698279343,-0.006186316875727514,0.023138138363966672,0.13272600998108744,-8.730773662836762e-06,0.2138373851776123,-2.1952555179595947,-1.0112828016281128,0.2171090394258499,0.4039732217788696,0.0003120340406894
1749037530.403297,-4.39020138886426,0.08609718215884114,-0.6887471639598125,3.628823029900942,-3.130419728331453,5.6105575713355735,0.01871966859371384,-0.030313684723588228,-0.006251358674362913,0.023384024794557572,0.134000665586551,-4.538279707165116e-06,0.2235831320285797,-2.207390069961548,-1.0084251165390017,0.2445627003908157,0.4195596873760223,0.011846650391817
1749037530.403353,-4.39016263241123,0.08603661473234506,-0.6887603758976737,3.628870075805448,-3.130142949377709,5.610558293453086,0.018989411127246853,-0.030976439639862414,-0.0063124946782036504,0.023645706840371913,0.13533681436822984,1.274479118365385e-06,0.2123280763626098,-2.2156131267547607,-1.005994200706482,0.2339469790458679,0.4084332585334778,0.0019523836672306
1749037530.403469,-4.390123175633287,0.08597431550252263,-0.6887736151371361,3.6289176506585368,-3.129863730601856,5.610559003075966,0.01922817935990751,-0.03159736329961669,-0.006368299879125193,0.023927853525488194,0.136747858326448,8.46480792820581e-06,0.2097281515598297,-2.1833980083465576,-1.0076974630355835,0.2392860651016235,0.4179104566574096,0.0123342163860797
1749037530.4054337,-4.390083172733542,0.08591040133927084,-0.6887868391596184,3.6289658594144227,-3.129582050994197,5.610559681599131,0.01943745907538278,-0.032167657512976504,-0.006418539141990303,0.024230348260285303,0.1382378396758245,1.656364542829494e-05,0.2112031579017639,-2.18868088722229,-1.0053691864013672,0.2308279871940612,0.367074579000473,0.0082898847758769
1749037530.4462764,-4.390042794050961,0.08584504538835047,-0.6888000154813926,3.629014767318722,-3.129297879930834,5.610560298032123,0.01962044513595918,-0.032680016698768445,-0.00646437067744138,0.024548551637014516,0.139802991793359,2.4859741470340683e-05,0.2226883023977279,-2.176276206970215,-0.9896866083145142,0.2562761008739471,0.3811103403568268,-0.0123647414147853
1749037530.446324,-4.390002214543837,0.08577846819907664,-0.6888131264700921,3.629064391606307,-3.12901117131586,5.610560810011579,0.019781681310564216,-0.0331292140653288,-0.00650829525604093,0.024874369981352937,0.14143384435124515,3.2403651867935066e-05,0.2378988713026046,-2.149043321609497,-1.0009626150131226,0.2460178136825561,0.4130236506462097,-0.0061149634420871
1749037530.4463646,-4.38996160130052,0.08571092311687052,-0.6888261733645261,3.6291147036336,-3.1287218555852645,5.610561167117172,0.01992659177397948,-0.03351259377209615,-0.006553853473275981,0.02519793355865505,0.1431174737006431,3.803583517430802e-05,0.2409366220235824,-2.1471965312957764,-0.9867783188819884,0.2248967289924621,0.3741116523742676,-0.000745739787817
1749037530.4464045,-4.389921101083088,0.0856426772599111,-0.688839178497145,3.6291656403002737,-3.1284298329128135,5.610561315891314,0.020060980509577973,-0.03383037607358975,-0.006605122889647078,0.02550957057169178,0.14483960452060365,4.044144585208683e-05,0.2290570437908172,-2.168699026107788,-0.991287648677826,0.2141124904155731,0.3951131701469421,0.0020561926066875
1749037530.446442,-4.389880828982469,0.08557399013414353,-0.6888521850097631,3.629217121966267,-3.128134970344809,5.610561205623348,0.020190572132950203,-0.03408571736161594,-0.006666100535733878,0.02580169139940535,0.14658639311188293,3.823198212907734e-05,0.248586356639862,-2.15169620513916,-1.0137381553649902,0.2143058478832245,0.405148446559906,0.0005201175808906
1749037530.446479,-4.389840859477088,0.08550509227481642,-0.6888652538073909,3.6292690730016592,-3.127837104625658,5.610560793836175,0.020320650802408656,-0.03428451488400531,-0.006740072866222699,0.026070196926019123,0.14834582407496755,3.0050861384813906e-05,0.2312652468681335,-2.1657841205596924,-1.006110668182373,0.2017210870981216,0.3927881717681885,-0.0162219814956188
1749037530.446517,-4.38980122101813,0.08543616633532244,-0.688878457887192,3.6293214406570713,-3.1275360514350297,5.610560050678304,0.02045582952039534,-0.03443497839977965,-0.006829076449301302,0.026315111553224482,0.15010872432587505,1.4696469698716718e-05,0.2537358403205871,-2.1683623790740967,-1.0125775337219238,0.2146721184253692,0.3898619711399078,-0.007469356060028
1749037530.4465537,-4.389761894540572,0.08536733290348864,-0.6888918745446396,3.6293742082245495,-3.1272316205423056,5.61055896186449,0.020599954951405892,-0.03454700231552537,-0.006933536276484698,0.026540307040292612,0.15186943096119981,-8.747405160394051e-06,0.2552932798862457,-2.1728148460388184,-1.012470841407776,0.2130676656961441,0.4120568633079529,-0.000457040965557
1749037530.446591,-4.389722815483636,0.08529864292860882,-0.6889055763837024,3.6294273996392317,-3.1269236347801095,5.610557530114793,0.020756126109010894,-0.0346313829087904,-0.007052133966476962,0.026752389868508922,0.15362613787285595,-4.078715755982279e-05,0.243458405137062,-2.1689329147338867,-1.0033776760101318,0.2179759740829467,0.4170435070991516,-0.0017005093395709
1749037530.4466271,-4.38968387855519,0.08523007787658692,-0.6889196224394871,3.6294810746413133,-3.1266119490583257,5.610555775244027,0.020926783244708293,-0.03469895229576463,-0.007181914637125002,0.026959017739491407,0.15538090791120307,-8.141681431336722e-05,0.2531399130821228,-2.1842732429504395,-0.9943726062774658,0.2331815361976623,0.4139266014099121,-0.0067048743367195
1749037530.446664,-4.389644944706211,0.08516155765383736,-0.6889340508649214,3.629535315826396,-3.1262964648018103,5.610553733221112,0.021113812180281095,-0.03475973281713574,-0.007318603564620729,0.027167039735158955,0.1571392999122832,-0.00013005413443596133,0.2495173960924148,-2.1932497024536133,-1.0125322341918943,0.2389666885137558,0.4248112440109253,-0.0048720650374889
1749037530.446701,-4.389605850253416,0.0850929551189932,-0.688948874409132,3.6295902106577738,-3.1259771359448014,5.610551454476614,0.02131861443320312,-0.03482222895057854,-0.0074570779861288594,0.02738088896872091,0.15890954656772008,-0.00018553072986057662,0.2681779861450195,-2.2026493549346924,-0.991652488708496,0.244054913520813,0.4192290008068084,-0.0100903324782848
1749037530.446738,-4.389566418272664,0.08502411488756505,-0.6889640793313301,3.629645832370229,-3.1256539648367636,5.610549001492122,0.021542113244247593,-0.0348929588334762,-0.007591920351366613,0.027601589846267104,0.16070125067132626,-0.0002461468793390443,0.2462376803159713,-2.2027459144592285,-0.9685966968536376,0.2487603425979614,0.4005176126956939,-0.0241701118648052
1749037530.4467745,-4.389526471923706,0.08495487350593449,-0.688979627623919,3.6297022236623957,-3.1253269892732303,5.610546445627176,0.021784690266682886,-0.03497629247668538,-0.007717965122404044,0.027826592655138323,0.16252365734028776,-0.00030979293410096566,0.264638751745224,-2.224403142929077,-0.9885820150375366,0.2409882098436355,0.4295576512813568,-0.0199652798473835
1749037530.4468107,-4.3894858484269,0.08488507819608287,-0.6889954617219047,3.6297593863808,-3.124996264383427,5.610543863367972,0.022046068066686377,-0.03507462046178061,-0.00783075152691148,0.028050456247370948,0.16438369782535228,-0.00037412653017100526,0.2731379270553589,-2.2234511375427246,-0.9705873727798462,0.2570936977863312,0.4230985641479492,-0.0050164051353931
1749037530.4468474,-4.389444411647834,0.08481460212885507,-0.689011510488213,3.6298172792254073,-3.124661844500241,5.610541332329851,0.022325169808552547,-0.035188828615052264,-0.007926818036887684,0.02826621386832172,0.16628413867652647,-0.00043678087289278724,0.2757684290409088,-2.215724229812622,-0.9782421588897704,0.2140651047229766,0.4345396161079407,-0.0101338140666484
1749037530.4468846,-4.389402061238091,0.08474335513806115,-0.6890276953537772,3.6298758239616546,-3.1243237699364093,5.610538927093117,0.022620003581452486,-0.03531900085354751,-0.008003814970591243,0.028467117926115264,0.16822223749704013,-0.000495569839479367,0.288640558719635,-2.2020301818847656,-0.98342764377594,0.2257413268089294,0.4387776553630829,-0.0164367966353893
1749037530.4469206,-4.389358737082762,0.08467128953987572,-0.6890439360238358,3.629934918899477,-3.1239820618567813,5.61053671459741,0.022927630667860306,-0.03546522279254583,-0.008060455329491715,0.02864839002104136,0.17018925202953172,-0.0005486561568126061,0.3026384115219116,-2.227743625640869,-0.9916375875473022,0.2185154259204864,0.4305005073547363,-0.0058017559349536
1749037530.446958,-4.389314418992885,0.08459840119355284,-0.6890601557643058,3.6299944568484785,-3.1236367258744715,5.610534748956526,0.023244272566797234,-0.03562833080380274,-0.00809635975874038,0.02880860863459538,0.17217097973437478,-0.0005946598814538941,0.2921016812324524,-2.2165887355804443,-0.9961283206939696,0.2223015129566192,0.4216877818107605,-0.0106315128505229
1749037530.4469948,-4.389269122581396,0.08452472630359625,-0.6890762864740309,3.6300543438183923,-3.1232877625791597,5.610533066235312,0.023565583774231246,-0.03581046027906557,-0.008111870734594394,0.02895044018866819,0.17414928274031588,-0.0006327003630887361,0.2833841443061828,-2.2352452278137207,-0.9960548281669616,0.200031504034996,0.4375205039978027,-0.0303392149507999
1749037530.4474435,-4.389222892721959,0.08445033479536589,-0.6890922734242947,3.6301145147328375,-3.1229351816102975,5.6105316802740814,0.02388707387497197,-0.03601529422071914,-0.00810790506702411,0.02908054620584456,0.17610435348878245,-0.0006623792948832633,0.2954186797142029,-2.246555089950561,-0.9832531809806824,0.2119923233985901,0.4337711632251739,-0.0094739459455013
1749037530.449386,-4.389175795946185,0.08437532130133588,-0.6891080790502817,3.6301749433352093,-3.1225790153454858,5.610530580537778,0.024204620721456224,-0.036247983360029046,-0.008085882236451744,0.029208666879304332,0.17801734834559585,-0.000683721987602193,0.2911289930343628,-2.248070478439331,-1.0016299486160278,0.2244634330272674,0.426838755607605,-0.0336149893701076
1749037530.490265,-4.38912791279178,0.08429979480236972,-0.6891236848743498,3.6302356448896416,-3.122219328744371,5.610529732495462,0.02451498869294816,-0.03651477506889105,-0.008047722545492833,0.029346067590328463,0.17987297469290225,-0.0006970982198250216,0.2728033661842346,-2.2291951179504395,-0.9901039004325868,0.2182202935218811,0.4058539271354675,-0.0160255394876003
1749037530.490312,-4.389079330621369,0.08422386775127422,-0.6891390906607737,3.630296671735893,-3.121856223134856,5.610529080684923,0.02481625386693469,-0.036822428274310794,-0.00799587234728718,0.02950369630482957,0.18166165335254214,-0.0007031434808335125,0.2972615957260132,-2.259719133377075,-0.9624614119529724,0.2557637989521026,0.4244378209114074,-0.0334556736052036
1749037530.4903526,-4.38903013697619,0.08414764514417161,-0.6891543103137956,3.6303581029409058,-3.121489833288617,5.610528554394795,0.025108042947027145,-0.03717750195445127,-0.007933298260703114,0.029690478483983027,0.18338096950112667,-0.0007026968996322925,0.2894743680953979,-2.225227832794189,-0.979613482952118,0.2627396583557129,0.3942898511886596,-0.0388389490544796
1749037530.4903915,-4.388980413367977,0.08407121379626716,-0.6891693648714341,3.630420030125745,-3.1211203185073764,5.610528075554285,0.025391522594204064,-0.03758559675315726,-0.007863405860595633,0.0299121307407591,0.1850362395853505,-0.000696764690026064,0.2970522344112396,-2.2650630474090576,-0.9867799878120422,0.2655533254146576,0.401908665895462,-0.0357174165546894
1749037530.4904292,-4.388930229614858,0.0839946322063193,-0.689184273962597,3.630482542099707,-3.120747849335321,5.610527567874413,0.025669130840528923,-0.038050614828113345,-0.007789875486850829,0.030170710995776853,0.18664013481603645,-0.0006865090008773061,0.3018556833267212,-2.250692367553711,-0.9734846949577332,0.2479431480169296,0.3980075418949127,-0.0458991937339305
1749037530.490467,-4.388879639145723,0.08391792161632103,-0.6891990477459996,3.6305457111776924,-3.1203725918283953,5.610526965732268,0.025944103635188946,-0.03857409027861557,-0.0077164475196775375,0.03046490045299689,0.18821141057936006,-0.0006732535571342502,0.2845623195171356,-2.2345640659332275,-0.9820079803466796,0.2426042705774307,0.4245044589042663,-0.0218066088855266
1749037530.4905045,-4.388828675810808,0.08384105893976454,-0.6892136812888373,3.6306095837266716,-3.1199946910981926,5.610526221115951,0.02621988996989986,-0.03915463718599143,-0.0076467101782413185,0.030790816861647252,0.18977289688695112,-0.0006584915870716116,0.2771316170692444,-2.242796897888184,-0.9851124286651612,0.251991868019104,0.4230720698833465,-0.0271508656442165
1749037530.490542,-4.388777352554097,0.08376397230139444,-0.689228152760049,3.6306741764183155,-3.119614255349924,5.610525307389107,0.026499556061950643,-0.039787565533796934,-0.007583939858455574,0.03114305751096747,0.1913489895466176,-0.000643879957988474,0.2884526550769806,-2.258361577987671,-1.0012773275375366,0.2379564493894577,0.4203418791294098,-0.0287809632718563
1749037530.4905796,-4.3887256620021935,0.08368654015826285,-0.6892424261111747,3.630739478239408,-3.1192313411879717,5.610524219521838,0.026785263602778258,-0.040464719522945905,-0.007531024938297058,0.031515683727642865,0.1929629221346783,-0.0006312063929251852,0.3034932911396026,-2.272249460220337,-0.9913394451141356,0.2367584109306335,0.4265690445899963,-0.0365083180367946
1749037530.4906182,-4.388673578808175,0.08360859502313822,-0.6892564581896313,3.630805457192967,-3.118845940796551,5.610522971355431,0.027077887120197784,-0.04117458681994151,-0.0074904759445746346,0.03190295685019453,0.1946340972047488,-0.0006223226140284386,0.295084148645401,-2.2559525966644287,-0.9748213291168212,0.2568513751029968,0.4213595390319824,-0.0223124735057353
1749037530.490656,-4.388621063472359,0.08352993223896131,-0.6892702093639343,3.63087207009232,-3.118457971771381,5.610521591031302,0.027376816987731364,-0.04190270696911785,-0.007464495768132808,0.03229976315052279,0.19637573324439497,-0.0006190430879169796,0.3141466379165649,-2.249345541000366,-0.9771976470947266,0.2716698348522186,0.4273085296154022,-0.0362129621207714
1749037530.4906936,-4.388568067204743,0.083450323187047,-0.6892836559162455,3.6309392737107546,-3.1180672707987265,5.610520115733273,0.027679972472954107,-0.042632376880729086,-0.007455066397587224,0.0327017678345816,0.19819305679232588,-0.0006230150963249095,0.3161574900150299,-2.269444942474365,-0.9898395538330078,0.2626940310001373,0.4262687265872955,-0.0465627647936344
1749037530.490731,-4.388514537105569,0.0833695314240838,-0.6892968020737332,3.631007035566573,-3.117673592858567,5.6105185865616125,0.027984021354511966,-0.043345614850384774,-0.00746401171905846,0.03310538545718538,0.20008223672711803,-0.0006355704018928054,0.3150453865528106,-2.2220847606658936,-0.9959049224853516,0.2612816393375397,0.4406346678733825,-0.024702038615942
1749037530.4907682,-4.388460420676704,0.08328733000835371,-0.6893096897145239,3.631075342754223,-3.117276617922178,5.6105170440824645,0.028284775075609107,-0.0440243047152506,-0.007493012409663448,0.033507647211285095,0.20203021054449002,-0.0006575718878940231,0.3033265173435211,-2.2235267162323,-0.9898588061332704,0.2500718235969543,0.4236015975475311,-0.0326598845422267
1749037530.4908051,-4.38840566876758,0.08320351847769296,-0.6893224042506362,3.6311442074830285,-3.116875966964921,5.610515524948206,0.028577708953502683,-0.044651410322646745,-0.007543566592634842,0.0339060091675869,0.204015476456305,-0.0006892707560845851,0.3174226880073547,-2.2434959411621094,-1.00113844871521,0.2592993378639221,0.4160488843917846,-0.0430129282176494
1749037530.4908423,-4.388350236626357,0.08311793807838964,-0.6893350757342809,3.6312136683199574,-3.116471228315583,5.610514059687372,0.028858548896865073,-0.04521214498411332,-0.007616906143775743,0.034298111199266186,0.20600981384954056,-0.0007301916087439531,0.3224683701992035,-2.232630491256714,-1.017105221748352,0.2470777779817581,0.4129912853240967,-0.0320931263267993
1749037530.4908795,-4.388294083494914,0.08303048387778218,-0.6893478748000487,3.6312837865373147,-3.116061993929171,5.610512671339147,0.029123866562409412,-0.045695000755016014,-0.007713895699068018,0.03468148981535335,0.20798076716989364,-0.0007790638403271145,0.3214108049869537,-2.2217226028442383,-1.0200759172439575,0.2631807923316955,0.4181151688098907,-0.0285040996968746
1749037530.4909165,-4.3882371717303155,0.08294111271384538,-0.6893610036198682,3.6313546374627186,-3.1156479033816025,5.610511374461946,0.029371627191313324,-0.046092565366141286,-0.007834951936206539,0.035053279486468136,0.20989462795012964,-0.0008338174685614771,0.3068371415138244,-2.1906211376190186,-1.0149351358413696,0.2527051568031311,0.4043202400207519,-0.0274304635822772
1749037530.4909532,-4.388179466470576,0.08284984664485537,-0.6893746825240907,3.631426297368014,-3.1152286915684213,5.610510174281583,0.02960163295772935,-0.04640206720886466,-0.007980010450103528,0.0354099934899514,0.21171961496417585,-0.0008916589583909155,0.3067434430122375,-2.2117629051208496,-1.0173150300979614,0.2898638844490051,0.4125989079475403,-0.0404466241598129
1749037530.4909892,-4.388120936401037,0.08275677225250842,-0.6893891332589587,3.631498827301261,-3.1148042344551556,5.6105090660019945,0.029815799513494796,-0.04662560611811788,-0.008148535790551215,0.035747523307740836,0.21342898834830554,-0.0009492368822683414,0.3006359040737152,-2.2671899795532227,-1.0176056623458862,0.2956951558589935,0.4324188232421875,-0.0184451788663864
1749037530.491371,-4.388061555569098,0.08266203637349351,-0.6894045600984291,3.6315722563701556,-3.1143745857988248,5.610508034385727,0.030018201009206612,-0.04677006346850752,-0.008339536311553389,0.03606149448838146,0.21500390710053233,-0.0010028975662040097,0.3014774322509765,-2.2184150218963623,-1.0134377479553225,0.2765892446041107,0.4138934314250946,-0.0261155515909194
1749037530.4933531,-4.3880013058192775,0.08256583850543164,-0.6894211303940391,3.6316465680721595,-3.1139399964876255,5.610507053799338,0.030214830453224522,-0.04684672213793885,-0.008551532471277006,0.03634804095396359,0.21643589744152272,-0.001049016831781703,0.3014774322509765,-2.2184150218963623,-1.0134377479553225,0.2765892446041107,0.4138934314250946,-0.0261155515909194
1749037530.5344045,-4.387940179284196,0.08246841960540131,-0.689438956615484,3.6317216937327323,-3.113500907823624,5.6105060890592835,0.030413057014458986,-0.046870639561612616,-0.00878244455232568,0.03660491919180012,0.21772879885992139,-0.0010843766331309788,0.3291657865047455,-2.251702070236206,-1.0064201354980469,0.2289752066135406,0.4052552580833435,-0.0315206348896026
1749037530.534468,-4.38787818027328,0.08237004690359581,-0.6894580822095692,3.6317975162427976,-3.11305791296585,5.610505097382899,0.030620816669716805,-0.0468598080629925,-0.009029405479841785,0.036832727461884915,0.2188999912479292,-0.001106538107778983,0.3130415380001068,-2.2264370918273926,-1.016615390777588,0.2363877296447754,0.4078148901462555,-0.0340320691466331
1749037530.5345328,-4.3878153259030634,0.08227099514008342,-0.6894784733907967,3.631873884927029,-3.1126116882195345,5.610504031495086,0.03084563080181964,-0.046834128198146946,-0.0092885456280092,0.037035891535354644,0.2199806230970457,-0.0011141512685820306,0.3265662491321563,-2.2585721015930176,-1.0146763324737549,0.2291518896818161,0.4034274220466614,-0.0418790876865386
1749037530.5345898,-4.387751645142277,0.08217152603167154,-0.6895000182239979,3.6319506393977714,-3.112162905019876,5.610502843704282,0.031093589541102033,-0.04681422262928894,-0.009554816348580589,0.03722308449661648,0.22101452563008583,-0.0011071435134530417,0.3532454669475555,-2.240165948867798,-1.0071053504943848,0.2444571554660797,0.3906324505805969,-0.0391548424959182
1749037530.5346482,-4.387687176607531,0.08207186888616115,-0.6895225332431094,3.632027637980598,-3.111712138961909,5.610501490651993,0.03136844946595419,-0.04682012695859407,-0.009821909411024432,0.03740687465959205,0.22205556819381309,-0.001086748024497813,0.3493694365024566,-2.2375950813293457,-1.012151837348938,0.254014253616333,0.3824818730354309,-0.0431131720542907
1749037530.5346882,-4.387621966079904,0.08197220532420042,-0.6895457766686498,3.6321047854619737,-3.111259791764093,5.6104999382713,0.03167097474838095,-0.04686991563721773,-0.010082304121516956,0.037602593614156445,0.2231634063837619,-0.0010553643095753567,0.297322928905487,-2.222339391708374,-0.9829484820365906,0.2723702788352966,0.3298457264900207,-0.0379121080040931
1749037530.5347269,-4.387556064818961,0.08187266001071908,-0.6895694663919842,3.632182055345985,-3.1108060376378766,5.610498166154036,0.03199860947075854,-0.04697836621771568,-0.010327454218864385,0.03782660709515332,0.22439787862443614,-0.0010162753562407262,0.3196254372596741,-2.2182939052581787,-0.9871740341186525,0.2625768184661865,0.3810050785541534,-0.025915652513504
1749037530.5347643,-4.387489529146182,0.08177329776252147,-0.6895933005421822,3.632259502979933,-3.110350799962811,5.610496170298727,0.03234553461737909,-0.0471558210749841,-0.010548124629025967,0.03809429409384444,0.22581266318150703,-0.0009732688501515329,0.3126020133495331,-2.217113494873047,-0.9874942302703856,0.2833044528961181,0.390955775976181,-0.0335912257432937
1749037530.5348015,-4.387422420795115,0.08167412609823266,-0.6896169786143602,3.6323372673834355,-3.1098937588344917,5.610493963478229,0.03270314894222589,-0.04740742942695169,-0.010734898156139204,0.038418073126246524,0.22744910841922128,-0.0009302198118493654,0.3419938087463379,-2.240085363388061,-0.9882931709289552,0.2549624741077423,0.4148676991462707,-0.0370957404375076
1749037530.534839,-4.387354806740877,0.08157510162000002,-0.6896402215236911,3.6324155611632993,-3.109434385596812,5.6104915732205844,0.033060988825525196,-0.04773290836755933,-0.010878873224114143,0.038805770073742814,0.2293312550474476,-0.0008906906812429081,0.3558508455753326,-2.2851481437683105,-1.010289430618286,0.2675782442092895,0.4646920561790466,-0.0269632786512374
1749037530.5348763,-4.38728675707487,0.08147613864535426,-0.6896627892654804,3.6324946494093266,-3.108971997398352,5.610489038172822,0.03340802760090068,-0.04812685870294313,-0.010972543133787739,0.039259529424514564,0.23146288443441385,-0.0008575962086474769,0.3512013852596283,-2.2900631427764893,-0.986697256565094,0.2701574563980102,0.4238984286785126,-0.0327634364366531
1749037530.5349135,-4.387218340152555,0.08137711907308681,-0.6896844951031138,3.632574819890508,-3.1085058234137057,5.610486403955712,0.033734177444675176,-0.048579553886289574,-0.011010782112334085,0.03977536601752056,0.23382698328624862,-0.0008329678423655577,0.318640798330307,-2.274476766586304,-0.9845923781394958,0.2646536231040954,0.3977316617965698,-0.0296523794531822
1749037530.5349505,-4.387149615451325,0.08127790308612469,-0.6897052155905591,3.632656348152173,-3.1080350746658505,5.610483719442381,0.034031718481314435,-0.0490780315511406,-0.010991790880060687,0.040343366703788755,0.23638748762516257,-0.0008178377386505572,0.3231723606586456,-2.2660670280456543,-0.9992552399635316,0.2778515815734863,0.4106424748897552,-0.0296673327684402
1749037530.534987,-4.387080625724244,0.08117834043980746,-0.689724896306698,3.6327394620847584,-3.107559011044787,5.610481033918616,0.03429636398171924,-0.04960728291216238,-0.01091781468385082,0.04094849274999045,0.23909278659498154,-0.0008122471458262303,0.3103940188884735,-2.243697166442871,-0.9758792519569396,0.2718997001647949,0.4236404597759247,-0.0499278157949447
1749037530.5350275,-4.387011390536576,0.08107828173916543,-0.6897435536337676,3.6328243108923908,-3.1070770012744595,5.610478395071979,0.03452775596969236,-0.05015136525671559,-0.010795461927915705,0.04157189856577971,0.24188035426737953,-0.0008153684822615297,0.3343361616134643,-2.2611899375915527,-0.9725551009178162,0.2736887335777282,0.4298477470874786,-0.0402409881353378
1749037530.5350654,-4.3869419028909675,0.08097758879341019,-0.6897612729608379,3.632910942894666,-3.106588573135388,5.6104758474275345,0.034729335210527776,-0.05069434326829533,-0.01063551368527427,0.04219265430770777,0.24468197181914395,-0.0008257162354194816,0.3237999379634857,-2.2663116455078125,-0.9547669291496276,0.3122689723968506,0.4446476399898529,-0.0407721996307373
1749037530.5351024,-4.386872129690324,0.08087614324949984,-0.6897782034251547,3.632999295279398,-3.1060934516796332,5.610473430810597,0.03490767651735791,-0.051221056477856665,-0.010452201578145312,0.04278972073158051,0.24742913359547133,-0.0008414111981558266,0.3300470411777496,-2.25645112991333,-0.969510018825531,0.2640769183635711,0.4088240563869476,-0.0487398654222488
1749037530.535139,-4.386802015894182,0.08077385313156632,-0.689794549104975,3.633089197079786,-3.105591582953487,5.610471178617807,0.035071473633712595,-0.05171776992298391,-0.010262025763771495,0.04334396721379219,0.25005828449427575,-0.0008604582556206216,0.3536271750926971,-2.2555370330810547,-0.994160294532776,0.2561553120613098,0.4118531942367553,-0.0367506965994834
1749037530.5351765,-4.386731491722145,0.08067065731470481,-0.6898105567308797,3.6331803846444566,-3.105083140870452,5.61046911595058,0.03523038716914914,-0.05217277298246442,-0.010082269979691761,0.04383997147606846,0.2525155251714915,-0.0008810011358277508,0.3539178371429443,-2.271995306015014,-1.0001345872879028,0.2485690265893936,0.4001849293708801,-0.0555154234170913
1749037530.535213,-4.386660481976553,0.080566528181322,-0.6898265003698022,3.6332725270473953,-3.104568515980627,5.610467257850207,0.035393947559647115,-0.05257695403784058,-0.009929424717167843,0.04426734263948156,0.2547604243174263,-0.0009015264694934588,0.3431983888149261,-2.247840404510498,-1.009222149848938,0.2395927608013153,0.3746057152748108,-0.0294051095843315
1749037530.5354044,-4.38658891634878,0.08046147276825961,-0.6898426637912922,3.633365257618249,-3.1040482867755546,5.610465607906164,0.035570649792253016,-0.05292432242418969,-0.009817732597270994,0.04462140135218674,0.2567686449687103,-0.0009210004688301171,0.3401686549186706,-2.241713047027588,-1.010511875152588,0.2501812577247619,0.3927350044250488,-0.0416541919112205
1749037530.537367,-4.386516739475663,0.08035553258378922,-0.6898593212433377,3.633458207384296,-3.1035231761580717,5.610464157438315,0.035767308596002516,-0.053212410150322076,-0.009758021946653902,0.044903205041009406,0.25853321580058775,-0.0009389314227646022,0.3319568634033203,-2.2150120735168457,-0.9983196258544922,0.2739001214504242,0.4136177599430084,-0.0469221025705337
1749037530.5823174,-4.386443919458955,0.08024878184868574,-0.6898767174564157,3.633551036699589,-3.1029939971472134,5.610462885379593,0.035988683376725755,-0.053442488002194075,-0.0097569193082991,0.045119047628386824,0.2600644168079625,-0.000955358794506976,0.3281406164169311,-2.2548694610595703,-0.9890521764755248,0.2720603346824646,0.3827943503856659,-0.0497089102864265
1749037530.582365,-4.386370453520527,0.08014132333867485,-0.6898950481306502,3.633643462296569,-3.1024615924387513,5.610461758953296,0.03623734048785785,-0.05361956411365755,-0.009816461501094402,0.04527962597864078,0.2613883594635575,-0.0009707751476247977,0.3260656595230102,-2.2421505451202397,-1.0114152431488037,0.2504794597625732,0.3835519254207611,-0.0357491821050643
1749037530.5824096,-4.386296369651984,0.08003328078477852,-0.689914442805273,3.63373527797484,-3.101926772155858,5.610460735231157,0.03651369531861532,-0.053752164921152805,-0.009934084746519072,0.045399037943535156,0.2625444033516486,-0.0009859911669053921,0.3368012309074402,-2.248442411422729,-1.0119900703430176,0.2472533285617828,0.3915347456932068,-0.0159893184900283
1749037530.58245,-4.3862217236755106,0.07992478733320024,-0.6899349524719499,3.6338263679579508,-3.1013902535049915,5.61045976365523,0.036816169672663365,-0.05385190922800261,-0.01010295416130184,0.04549369611110837,0.26358158542489674,-0.0010019576829243526,0.3415199518203735,-2.2621634006500244,-1.0050992965698242,0.2301538586616516,0.3368855714797973,-0.0362048149108886
1749037530.5824876,-4.386146591938156,0.07981597071826262,-0.6899565442286708,3.6339167126643352,-3.1008526057742825,5.610458789586237,0.037141414869229734,-0.05393288707760334,-0.010312597317036792,0.04558116292522817,0.2645543008633997,-0.0010195626128681418,0.342174619436264,-2.264310598373413,-1.0172463655471802,0.2332819551229477,0.4086470007896423,-0.0390183851122856
1749037530.5825255,-4.386071060711941,0.07970693691100582,-0.6899791045296901,3.6340063873210426,-3.1003142043917356,5.610457758857728,0.03748458134777085,-0.05401086578981279,-0.010549802859709403,0.04567888633582581,0.26551760343449643,-0.0010394249492146775,0.342098593711853,-2.2696897983551025,-1.0089434385299685,0.2257463932037353,0.3989947438240051,-0.0406481698155403
1749037530.582567,-4.385995214050729,0.07959775447730404,-0.6900024512685684,3.634095554422412,-3.099775198135891,5.610456623142875,0.03783964123846066,-0.054102366828548354,-0.0107997279519485,0.045802864084920104,0.26652264888297234,-0.0010617113233183754,0.3337856531143188,-2.2570838928222656,-1.0109487771987915,0.2414935827255249,0.4450830519199371,-0.0443404018878936
1749037530.5826054,-4.385919122112494,0.07948844170492392,-0.6900263533433294,3.63418445132898,-3.099235493476051,5.610455345721495,0.038199774597636675,-0.054223674599159825,-0.011047127240206922,0.04596636500969381,0.2676128771980669,-0.001086002025156679,0.346461534500122,-2.308091640472412,-0.9996891617774964,0.2838498651981354,0.4546915292739868,-0.0439826101064682
1749037530.5826428,-4.385842831727484,0.07937895821776449,-0.6900505549275419,3.634273374222597,-3.0986947592277554,5.610453907035725,0.03855781607595728,-0.05438984212385689,-0.011277586991127578,0.04617891507819164,0.2688214230225255,-0.0011112317281671642,0.3293978571891784,-2.2998504638671875,-0.9862595200538636,0.269841581583023,0.4370031058788299,-0.0253181234002113
1749037530.5826805,-4.385766360506797,0.07926920258708951,-0.6900748008810473,3.6343626592916736,-3.0981524533404774,5.610452309251542,0.03890674248419852,-0.054613750289631044,-0.01147864218886819,0.046445740109896,0.27016997056846564,-0.0011357246548354533,0.3331774771213531,-2.296487808227539,-0.9937823414802552,0.2615507245063782,0.4201090335845947,-0.0394695252180099
1749037530.582721,-4.38568969529999,0.07915901716313747,-0.6900988598677034,3.6344526616838113,-3.0976078717818156,5.610450578878039,0.03924017179263811,-0.05490526117938376,-0.011640679373365048,0.04676773579285596,0.2716689534801194,-0.0011573334704088126,0.3288263082504272,-2.2778024673461914,-0.9991981983184814,0.2489514946937561,0.4013210833072662,-0.0457936376333236
1749037530.5827591,-4.385612795338457,0.07904820062248409,-0.6901225426451855,3.6345437327020145,-3.097060217181713,5.610448766396874,0.039552838446845436,-0.05527048725534334,-0.01175757134238846,0.047141877650743014,0.2733187794632719,-0.0011736751798573748,0.36087366938591,-2.279703378677368,-1.003494381904602,0.2576615214347839,0.4338082075119018,-0.0476922318339347
1749037530.5827966,-4.38553559976561,0.07893652748447365,-0.6901457141697713,3.634636196053822,-3.0965086820986474,5.610446942024585,0.03984100428390851,-0.05571119022988067,-0.011827029620920172,0.04756188078763868,0.27511169387943496,-0.0011824370463421347,0.3473505675792694,-2.2973766326904297,-1.007957935333252,0.2553901672363281,0.4511967897415161,-0.0558508485555648
1749037530.582834,-4.385458038358002,0.07882377232208783,-0.6901682992626293,3.6347303246165534,-3.0959525382936794,5.610445187406964,0.040102756900112835,-0.05622434128814201,-0.011850680484801231,0.04801891636771539,0.27703395266093317,-0.0011817058521475052,0.3143588304519653,-2.300295114517212,-0.9650298357009888,0.2673509120941162,0.4524415731430053,-0.0388324558734893
1749037530.5828743,-4.385380043246643,0.07870973489919608,-0.6901902825423534,3.6348263199504096,-3.095391219393942,5.610443584183335,0.04033814115712627,-0.05680191355943653,-0.011833870413616169,0.048502267372049344,0.2790680721745283,-0.0011702623123549488,0.3143588304519653,-2.300295114517212,-0.9650298357009888,0.2673509120941162,0.4524415731430053,-0.0388324558734893
1749037530.5829124,-4.385301558795905,0.07859426154962648,-0.6902117040731808,3.6349242973020495,-3.094824381428335,5.6104422014695485,0.04054907718291725,-0.057431009577741526,-0.011785204729589573,0.048999902302829815,0.28119498900600665,-0.0011477854740881688,0.3417400121688843,-2.288114309310913,-1.0036814212799072,0.2749920487403869,0.4674084782600403,-0.0232399553060531
1749037530.582949,-4.385222547065302,0.07847725865677131,-0.6902326524729208,3.6350242785350204,-3.094251927333879,5.610441084792103,0.040739053015316475,-0.05809442040981841,-0.011715839271060267,0.04949901013456782,0.28339597074000283,-0.0011149298587222768,0.3472149968147278,-2.3247766494750977,-1.0026981830596924,0.2642495036125183,0.4281743168830871,-0.0366347283124923
1749037530.5829856,-4.385142987646142,0.07835869644207104,-0.6902532568958277,3.635126194001522,-3.09367398970584,5.610440248652248,0.04091263231570718,-0.05877166031181432,-0.011638580199047888,0.04998655532681964,0.28565410057512414,-0.0010732646093959712,0.3075920641422272,-2.2746026515960693,-0.9919729828834534,0.2531396448612213,0.4297086000442505,-0.0327425301074981
1749037530.5830262,-4.385062872448468,0.07823860423729777,-0.6902736785511154,3.635229892393028,-3.0930908776055186,5.610439673950711,0.04107485403380655,-0.05944043808299101,-0.011566878279216933,0.05044989587947084,0.2879551713222084,-0.0010250898931503155,0.3187862634658813,-2.2901408672332764,-0.982385277748108,0.2699454426765442,0.4611933529376983,-0.0336154103279113
1749037530.583064,-4.384982197263034,0.07811706016555267,-0.6902941017250569,3.6353351561810823,-3.092503001817744,5.61043931034786,0.04123060345396416,-0.060078445987164886,-0.01151380818573616,0.05087748695111117,0.2902879028218616,-0.0009731644788424089,0.3141924142837524,-2.295745611190796,-0.9862778186798096,0.2656410932540893,0.4517276287078857,-0.0403744131326675
1749037530.583101,-4.3849009523962446,0.07799417811427814,-0.6903147239943651,3.63544171996871,-3.091910795352911,5.610439082631787,0.04138402516546035,-0.06066529753847645,-0.011491103067442535,0.051259674905239604,0.29264352126526477,-0.0009203879218659462,0.2926863431930542,-2.218252658843994,-0.9677408933639526,0.2561451196670532,0.4006882905960083,-0.0414173752069473
1749037530.5831378,-4.384819114639682,0.07787009394877725,-0.6903357454613893,3.6355492896032096,-3.091314643673456,5.6104388996401315,0.04153805952597088,-0.061184432722969015,-0.0115082932183993,0.05158955760268851,0.2950148520655111,-0.0008694829470424968,0.3736765682697296,-2.2756261825561523,-0.9845545291900636,0.2572644054889679,0.4216748476028442,-0.0353722870349884
1749037530.5833523,-4.38473664230972,0.07774495211099633,-0.6903573572656257,3.6356575606699577,-3.0907148346855378,5.6104386643211255,0.0416942060618799,-0.0616248173864675,-0.011571993617340612,0.051863833517398275,0.297395140929807,-0.0008227204112023872,0.376474380493164,-2.300390243530273,-1.0115869045257568,0.2640073895454407,0.4515206515789032,-0.0197736397385597
1749037530.5853243,-4.3846534740627146,0.07761889339939915,-0.6903797301404261,3.6357662356694145,-3.0901115334882743,5.610438283839604,0.04185260111046121,-0.06198227189054837,-0.011685394702509549,0.05208349679636956,0.2997768401582303,-0.0007817210451493037,0.3153007626533508,-2.2749955654144287,-1.0081647634506226,0.2615790963172912,0.4565035402774811,-0.0291187837719917
1749037530.6262786,-4.3845695311403645,0.07749204462699134,-0.6904030040986663,3.635875039627154,-3.089504782016086,5.610437678889223,0.04201241376672869,-0.06226026475522199,-0.01184801384493544,0.052254193163183235,0.3021506060238471,-0.000747355252275503,0.3352417945861816,-2.244967222213745,-1.0147804021835327,0.2212589979171753,0.4338307678699493,-0.0207797512412071
1749037530.6263266,-4.38448472223157,0.07736451070655961,-0.6904272802283957,3.635983733991704,-3.0888945196489135,5.6104367915310345,0.04217245193016304,-0.06247001345667371,-0.012055745024340871,0.052386066661203406,0.3045047463096696,-0.0007197464491880235,0.3632027804851532,-2.2653257846832275,-1.004458785057068,0.2434625327587127,0.4634676575660705,-0.0550376176834106
1749037530.6263676,-4.384398950332607,0.0772363694636416,-0.6904526151550945,3.6360921284756973,-3.08828061806541,5.610435591089468,0.04233180112039897,-0.06262977687780888,-0.012301203136283466,0.0524930094618986,0.3068253000637846,-0.0006983679803525513,0.3399856984615326,-2.310167074203491,-1.0105879306793213,0.2534248530864715,0.4626429975032806,-0.0295114815235137
1749037530.626407,-4.384312121418045,0.0771076693101084,-0.6904790182871701,3.6362000902127907,-3.087662922378696,5.610434077885658,0.0424903258176719,-0.06276332136937349,-0.012574313951882127,0.05259135599541066,0.3090968014801419,-0.000682211528185367,0.3633629083633423,-2.3089044094085693,-1.0107113122940063,0.2614384293556213,0.4403982758522033,-0.042173609137535
1749037530.6264455,-4.3842241548578444,0.07697842980651284,-0.6905064517010483,3.636307549493131,-3.0870412910187435,5.610432284664674,0.04264892264123709,-0.06289767476720728,-0.012863069376250856,0.05269819509994943,0.31130361059270417,-0.0006699980319163459,0.315311074256897,-2.2836647033691406,-0.9801090359687804,0.2541320919990539,0.4397391080856323,-0.0385209396481514
1749037530.626484,-4.384134995088285,0.07684864480416691,-0.6905348324049936,3.6364145015619598,-3.086415628625864,5.610430275373633,0.04280948933407411,-0.06306040281570509,-0.013154360704681577,0.052829561663334475,0.31343156677040546,-0.0006604008970509901,0.3454277217388153,-2.333815813064575,-1.012872576713562,0.2538736164569855,0.4642727077007293,-0.0633263736963272
1749037530.6265223,-4.384044623353177,0.07671828730993331,-0.6905640366351185,3.6365210044763314,-3.085785908611602,5.610428140750115,0.042974642483912466,-0.06327671751588067,-0.013434817384174725,0.05299878652738949,0.3154696940775199,-0.0006522547401848157,0.3595570623874664,-2.3367862701416016,-0.9938016533851624,0.2603447437286377,0.4732080996036529,-0.0440779477357864
1749037530.6265602,-4.383953067890027,0.07658731500698211,-0.6905939057755746,3.6366271735539506,-3.085152184157587,5.610425990406764,0.0431472677673476,-0.06356675027335766,-0.01369160044910424,0.05321524095949286,0.3174117304498637,-0.0006447290711040425,0.3347128629684448,-2.3306009769439697,-0.9789477586746216,0.264570951461792,0.4582588374614715,-0.061106726527214
1749037530.6265984,-4.3838604109578325,0.07645567585243039,-0.6906242535445772,3.6367331732339583,-3.084514587942312,5.610423941761718,0.043330007970112425,-0.06394329586426317,-0.013913114004748648,0.05348363879477483,0.319257280813804,-0.0006374531451639433,0.3212535381317138,-2.310551643371582,-0.963290274143219,0.2768174111843109,0.4249969124794006,-0.0354264974594116
1749037530.6266358,-4.3837667914665515,0.07632331393504518,-0.6906548742714804,3.636839207110634,-3.0838733219762124,5.610422106901533,0.04352478660633446,-0.0644102654820699,-0.01408960685260222,0.053803969895441346,0.32101237451838843,-0.0006305843690191704,0.3198834657669067,-2.3386542797088623,-0.9775344729423524,0.2632617056369781,0.4102112948894501,-0.0444397255778312
1749037530.6266732,-4.383672402490892,0.07619017604437578,-0.6906855522744207,3.6369455066114105,-3.0832286396758852,5.610420579038647,0.04373244356043977,-0.06496200370968888,-0.014213653678305764,0.054172028424662504,0.32268920644281684,-0.000624817463074053,0.3276234269142151,-2.3200137615203857,-0.9811800122261048,0.2476672977209091,0.4045382142066955,-0.072637602686882
1749037530.6267104,-4.383577483459092,0.07605621896322223,-0.6907160723645099,3.6370523185023043,-3.0825808226477704,5.610419420557513,0.04395253719058104,-0.06558354815302431,-0.014280532673730063,0.05458037743768903,0.3243049504429288,-0.0006213350594749537,0.3382989168167114,-2.328898429870605,-0.9839755296707152,0.2433566153049469,0.4115781784057617,-0.0481072217226028
1749037530.6267483,-4.383482307154432,0.07592141687096238,-0.6907462313206281,3.6371598913439964,-3.0819301546239903,5.610418654544449,0.04418334496590188,-0.06625184099417313,-0.014288531344621965,0.05501949978691128,0.32587975941767455,-0.0006217031393915184,0.3618121147155761,-2.3301751613616943,-0.9760615825653076,0.2426348328590393,0.4448834061622619,-0.056190088391304
1749037530.6267858,-4.38338716194144,0.07578576794951138,-0.6907758498840655,3.6372684612740427,-3.0812768947254496,5.610418261050883,0.044422065251967936,-0.06693782483045292,-0.014239190691114904,0.05547887172097714,0.3274343059390494,-0.000627717554246862,0.3325214087963104,-2.316174268722534,-0.9713730216026306,0.2424148619174957,0.4529621303081512,-0.0618970394134521
1749037530.6268232,-4.383292330160782,0.07564929925963651,-0.690804784491572,3.637378237943862,-3.080621251827246,5.610418178355757,0.044665184386173805,-0.06760926574920367,-0.014137445580185577,0.0559477701057599,0.3289873412882946,-0.0006412114147869192,0.2961049675941467,-2.3191967010498047,-0.957295835018158,0.2511009871959686,0.4272681474685669,-0.0412937551736831
1749037530.6268606,-4.383198064540277,0.07551206892789594,-0.6908329376544864,3.637489391830044,-3.079963361503497,5.61041830858001,0.04490893497897118,-0.06823405187898657,-0.013991570972929648,0.05641575492888025,0.33055369974695414,-0.0006638374542173591,0.3557650148868561,-2.2871618270874023,-0.9570692777633668,0.2789787352085113,0.4121587872505188,-0.0604380071163177
1749037530.6268978,-4.3831045652932525,0.07537416467218745,-0.6908602656701328,3.6376020441856727,-3.0793032671028584,5.610418526527288,0.04514975066822317,-0.06878362901047855,-0.01381283525153334,0.05687290517612392,0.3321429972834724,-0.0006968442809480672,0.3275209069252014,-2.269623041152954,-0.9538140296936036,0.2717594504356384,0.4220234155654907,-0.0437219813466072
1749037530.626935,-4.383011960737954,0.07523569793667728,-0.690886782294125,3.6377162605476956,-3.0786409068435527,5.610418690677287,0.04538462865598012,-0.06923617731217237,-0.01361480396494152,0.05730997729033134,0.3337590828955397,-0.0007408699929798392,0.3142619132995605,-2.256332397460937,-0.9499215483665466,0.2833754420280456,0.4470351338386535,-0.0646863281726837
