nimar13/UR3e_dataset_trayectorias/trayectorias_ejecutadas_filtradas/quintic/trayectoria_240_result_filtrado.csv
timestamp,q1,q2,q3,q4,q5,q6,qd1,qd2,qd3,qd4,qd5,qd6,tau1,tau2,tau3,tau4,tau5,tau6
1749037769.7742877,5.779484070457369,0.15722999016379405,-2.300927015115756,5.352290880129944,0.18549204542963185,-4.436153048366464,0.018713921934847538,0.001276038907839142,-0.01162285682058477,0.01768212823142123,-0.0008648013045795114,-0.01442416674101053,0.2179165333509445,-0.5618128180503845,0.3849852085113525,0.2115073502063751,-0.1815163344144821,-0.1310054957866668
1749037769.774335,5.779510705118615,0.15723007561908284,-2.3009346842416503,5.352312257134691,0.18549695866903917,-4.4361775552271085,0.016654180632532715,0.0011231349766540786,-0.010065279369550274,0.015534081854422925,-0.0007836707391582148,-0.012654189186114084,0.2091021537780761,-0.5930463671684265,0.375561773777008,0.2084346413612365,-0.1824372261762619,-0.1350375115871429
1749037769.7743754,5.779536542499277,0.15723016900304862,-2.3009423285151684,5.352332836097947,0.18550170452805287,-4.436201121994277,0.01460321922523515,0.0009651950783116043,-0.008548869771029829,0.01340422048500098,-0.0007040504463303127,-0.010905518730888795,0.2285677194595337,-0.5970972776412964,0.3929674029350281,0.2218825817108154,-0.169575348496437,-0.1334927976131439
1749037769.7744138,5.779560750156868,0.15723025214178976,-2.300949767527761,5.35235185492032,0.185506170264617,-4.43622282759536,0.01256880738209707,0.0008003461879103736,-0.007105937398809352,0.011311653637901646,-0.0006272825233601686,-0.009201245078318971,0.2158675789833068,-0.6035268306732178,0.4010630846023559,0.2407898306846618,-0.1465887278318405,-0.1216269731521606
1749037769.7744515,5.779582601298774,0.15723030314185554,-2.300956816307549,5.352368651449942,0.1855102516324032,-4.43624189250786,0.010560619121111057,0.0006273655399448675,-0.005764329837143557,0.009276628895597432,-0.0005545547254071308,-0.007563237094398368,0.1999281644821167,-0.6217778325080872,0.4045082330703735,0.2197355777025222,-0.1595536321401596,-0.1124858260154724
1749037769.774489,5.779601511883249,0.15723029610854547,-2.3009632916563088,5.352382703353903,0.18551385285356994,-4.436257728529593,0.008590999987109849,0.00044587187621196244,-0.004545915141336507,0.0073207220257351085,-0.00048684590361163855,-0.006011382048834194,0.2062092721462249,-0.6164522171020508,0.4165217876434326,0.2102203369140625,-0.1378255635499954,-0.092877984046936
1749037769.7745268,5.779617064388895,0.15723020199033827,-2.3009690194977144,5.352393657416559,0.1855168884506197,-4.436269967929704,0.006675263132717383,0.00025651092477187935,-0.0034654771488116416,0.005466517191679554,-0.00042489139988887407,-0.004562861754449967,0.13814777135849,-0.6473764777183533,0.4139678478240967,0.1740736365318298,-0.1363714784383773,-0.0646967589855194
1749037769.7745726,5.779629017629707,0.15722999062184662,-2.3009738422449444,5.352401345647697,0.18551928702544598,-4.4362784703811755,0.004831444592413783,6.110600462765737e-05,-0.0025301433403608904,0.003736752242686268,-0.00036916874872459346,-0.003231525662369166,0.1192950755357742,-0.6441222429275513,0.4343044757843017,0.1735839545726776,-0.1404340118169784,-0.0676305890083313
1749037769.7746255,5.779637303530127,0.15722963364669665,-2.300977625357504,5.352405786636146,0.1855209964701398,-4.436283309327015,0.0030795359768903945,-0.0001372646224948796,-0.0017394266023908636,0.002153025343154946,-0.00031990153247704134,-0.0020274470931546788,0.1269110888242721,-0.6593853235244751,0.4484609961509704,0.1652738451957702,-0.1259218901395797,-0.0626787543296814
1749037769.7746673,5.779642012643191,0.15722910781900784,-2.3009802627112754,5.352407172068799,0.18552198968443137,-4.436284742018795,0.0014403050820090725,-0.00033430274121350434,-0.0010858943212014103,0.00073426875195947,-0.00027707793118269115,-0.0009567465073819285,0.1356045752763748,-0.6842068433761597,0.4586018919944763,0.1691024601459503,-0.1187575012445449,-0.0546557307243347
1749037769.7747054,5.77964337046536,0.15722839823856122,-2.3009816808622805,5.352405839972002,0.18552226982318792,-4.436283168719354,-6.611741911601458e-05,-0.0005246675644716016,-0.0005563965913856817,-0.0005047425825077016,-0.0002404800731933473,-2.1722024397998917e-05,0.0948480293154716,-0.6976219415664673,0.4716039896011352,0.1651002466678619,-0.1242964416742324,-0.0489183068275451
1749037769.774762,5.779641706718769,0.15722750112819,-2.3009818425278104,5.352402237662385,0.18552187420988522,-4.436279086512089,-0.001421685200105799,-0.0007023074206359724,-0.0001337129116658503,-0.001554586389865822,-0.00020972030219415915,0.0007787459022668399,0.0948480293154716,-0.6976219415664673,0.4716039896011352,0.1651002466678619,-0.1242964416742324,-0.0489183068275451
1749037769.774827,5.77963742018015,0.157226425676205,-2.300980749551046,5.352396878425111,0.18552087599933487,-4.436273042429622,-0.0026117373742372647,-0.0008609328439066827,0.00020157020061621785,-0.0024119018471502633,-0.0001842807829203804,0.001448619845762901,0.1026207134127616,-0.6980533599853516,0.4927631020545959,0.1336672902107238,-0.1017141044139862,-0.0363709330558776
1749037769.774879,5.779630942338656,0.15722519445289143,-2.3009784453439797,5.352390296515969,0.185519382498708,-4.436265589805386,-0.003626014084236509,-0.0009945896661803855,0.0004691552068352016,-0.0030795309654804977,-0.00016355352407367994,0.0019940995372861527,0.0696808397769928,-0.6923997402191162,0.4927721619606018,0.1187280714511871,-0.1024354249238967,-0.0113739967346191
1749037769.774947,5.779622703754718,0.1572238422048601,-2.3009750164704865,5.3523830051136,0.18551752919895753,-4.436257251032923,-0.004459294329837474,-0.00109826287339859,0.0006872987825646332,-0.0035661244180179713,-0.00014687886796634894,0.0024231023419071917,0.0448193848133087,-0.6766301393508911,0.501700222492218,0.1093304455280304,-0.1084222197532653,-0.0279515087604522
1749037769.7749994,5.779613106984048,0.15722241330179762,-2.300970592733036,5.352375461243467,0.18551546938518296,-4.436248489124294,-0.005111616847098922,-0.0011684230319272436,0.0008714141835513535,-0.0038853262903789537,-0.00013358150252376207,0.0027448780952034164,0.058675929903984,-0.7065396904945374,0.5017708539962769,0.1128678768873214,-0.1008722633123397,-0.0369447767734527
1749037769.7750392,5.779602509007217,0.15722095840412623,-2.300965344928378,5.352368040563253,0.18551336049846712,-4.436239689420625,-0.005588100869659212,-0.0012034270473770244,0.001033137096455762,-0.004054689907823742,-0.0001230036606369986,0.002969723854383908,0.0766528695821762,-0.7073748111724854,0.5110005736351013,0.0945348292589187,-0.0877460688352584,-0.0276756882667541
1749037769.775077,5.7795912143199875,0.15721953087106189,-2.300959479447968,5.352361023492407,0.1855113494365577,-4.436231151546433,-0.005898428566729129,-0.0012037082842916193,0.0011799266618058792,-0.0040944748832695095,-0.00011453514868549472,0.0031087157472999742,0.0766528695821762,-0.7073748111724854,0.5110005736351013,0.0945348292589187,-0.0877460688352584,-0.0276756882667541
1749037769.7751143,5.7795794776867115,0.15721818317344102,-2.3009532292479244,5.352354592695028,0.185509559034881,-4.436223090405993,-0.006056075830963081,-0.0011717314852568352,0.0013152043787072317,-0.0040264500547232225,-0.00010763939326468323,0.0031733857204576782,0.029623981565237,-0.7398027181625366,0.5072222352027893,0.0840735286474227,-0.0932802855968475,-0.0136374831199646
1749037769.7751503,5.779567513707096,0.1572169633696924,-2.3009468414100502,5.352348840529151,0.18550807730116037,-4.436215643984756,-0.00607738933363359,-0.0011117318502700726,0.001438955270271834,-0.0038727934793902703,-0.00010187425106309323,0.0031753242273613006,0.0407074950635433,-0.742875337600708,0.5033462643623352,0.0896307528018951,-0.1060593575239181,-0.0105755925178527
1749037769.7751875,5.779555509302711,0.15721591170290966,-2.300940562323201,5.352343783918043,0.1855069503821825,-4.436208885253532,-0.005980613356050541,-0.0010292916216396962,0.0015486468180091698,-0.0036551473578269244,-9.690618652281869e-05,0.0031257464460897584,0.0390068106353282,-0.7448636889457703,0.5101792216300964,0.0841308236122131,-0.0954346358776092,-0.0108378231525421
1749037769.775224,5.779543635204954,0.15721505757075818,-2.300934622067662,5.352339383374599,0.18550618003693534,-4.436202835685706,-0.0057849663155394295,-0.0009308241245922658,0.0016402882107356114,-0.003393855178768096,-9.251660892921424e-05,0.003035089549827005,0.003725491464138,-0.7451086044311523,0.5060867071151733,0.0746300742030143,-0.0918312817811966,0.0006879270076751
1749037769.7753894,5.779532053447501,0.15721441736795347,-2.3009292196997,5.352335562816425,0.18550572621076603,-4.436197478552644,-0.005509845837318741,-0.0008230346058452602,0.0017094669507919501,-0.0031073828918978543,-8.859955646905094e-05,0.0029127054117097147,0.0345209203660488,-0.7452057600021362,0.5228495597839355,0.0709125846624374,-0.0982503294944763,-0.0126600563526153
1749037769.7773523,5.77952091944496,0.15721399378601952,-2.3009245109239806,5.352332227433965,0.1855055147149755,-4.436192770920168,-0.005174202759570777,-0.0007124152982893413,0.0017522455261463458,-0.002811909596664716,-8.515041732388673e-05,0.002766688117269063,0.0117776803672313,-0.7367333173751831,0.5069797039031982,0.0599765330553054,-0.0960344523191452,0.0064451992511749
1749037769.8182693,5.779510378987155,0.15721377694627972,-2.3009205993130974,5.352329277998386,0.18550544901996327,-4.43618865394456,-0.004796080046129374,-0.000604816297133572,0.0017658498505167216,-0.0025210677139906774,-8.224594849835863e-05,0.0026038448421381163,0.0454214662313461,-0.7335687875747681,0.5070086121559143,0.0696493908762931,-0.091987743973732,-0.0065981447696685
1749037769.8183155,5.779500561779763,0.15721374735363286,-2.300917531859067,5.352326621132968,0.18550542426235606,-4.436185061553079,-0.004392276855602582,-0.0005051188124019689,0.0017491179731056587,-0.002245813870357855,-8.001648035643138e-05,0.0024297925649704112,0.0684110224246978,-0.7394978404045105,0.5127212405204773,0.0789335519075393,-0.096343919634819,-0.0007806122303009
1749037769.818355,5.779491573638273,0.15721388025502364,-2.300915299182944,5.352324175863931,0.18550534127692483,-4.436181927770597,-0.003978080391576417,-0.000417024273215899,0.0017027029119970948,-0.0019944132688208987,-7.861186092916543e-05,0.0022491449185368714,0.0019447766244411,-0.741219162940979,0.4925688207149505,0.0640341341495513,-0.0938476175069809,-0.0171225368976593
1749037769.818394,5.779483489241834,0.15721415056769913,-2.3009138402143776,5.352321877233272,0.18550511878324208,-4.436179192807635,-0.0035670114679357784,-0.000342960867694845,0.0016290437191836642,-0.0017725188835360356,-7.81633702737264e-05,0.0020657436595672377,0.0476477034389972,-0.742740273475647,0.5129150152206421,0.0553930848836898,-0.0955831259489059,-0.0097111463546752
1749037769.818432,5.779476346905158,0.15721453719962736,-2.3009130507235107,5.3523196780034095,0.18550470236008876,-4.436176807735176,-0.0031705509372524933,-0.0002840981239302185,0.00153213774788444,-0.00158332380236561,-7.874448323345655e-05,0.001882888394151739,0.0623056590557098,-0.7474479079246521,0.5018075704574585,0.0738484114408493,-0.1034700572490692,-0.0053646862506866
1749037769.8184695,5.779470146451186,0.15721502565281859,-2.300912794825582,5.352317549393956,0.18550406933803953,-4.436174737381044,-0.002797844597458055,-0.00024045112994453276,0.0014171637938200409,-0.0014277635068749147,-8.033392861177467e-05,0.0017035262326488216,0.0173976086080074,-0.7411190867424011,0.5130828619003296,0.0716262459754943,-0.1127651631832122,-0.0022526979446411
1749037769.818507,5.779464851059504,0.15721560840998508,-2.300912918431054,5.352315481262755,0.18550322935258504,-4.4361729610954335,-0.0024554136591329366,-0.00021105040862195087,0.0012900167855905433,-0.0013047467458706353,-8.27849204525529e-05,0.0015303776672869137,0.01014344394207,-0.7365332841873169,0.5077236294746399,0.051532857120037,-0.0932755321264267,-0.0175801813602447
1749037769.8185449,5.779460393740059,0.1572162833906506,-2.3009132635015472,5.352313481454922,0.18550222096114982,-4.436171471194946,-0.0021469194529517436,-0.00019415185259030813,0.0011568168898033982,-0.0012113993550419528,-8.580464813053136e-05,0.001365991572859614,0.0457479432225227,-0.726118803024292,0.505523145198822,0.0626220554113388,-0.0887471139430999,-0.0057126581668853
1749037769.8185823,5.779456688435038,0.15721705126140306,-2.300913681870876,5.352311573699166,0.18550110515035204,-4.436170269153787,-0.0018730414898203449,-0.00018746293962133023,0.0010234489696175695,-0.001143314343373318,-8.894802630785228e-05,0.0012127355730643342,0.0576474927365779,-0.7303043007850647,0.5136604309082031,0.0511038526892662,-0.0983984321355819,-0.0154607594013214
1749037769.8186193,5.779453644534299,0.15721791246811123,-2.300914047381233,5.3523097936578505,0.18549995669401698,-4.436169359979235,-0.0016315257685073368,-0.00018836564713360367,0.0008951748524405499,-0.0010948123606516974,-9.16292473537009e-05,0.0010727352778542362,0.0510440282523632,-0.729282796382904,0.5136398673057556,0.0736280754208564,-0.0887290686368942,-0.0126173198223114
1749037769.8186555,5.779451182330146,0.15721886464784957,-2.3009142653072243,5.352308183285747,0.18549885444492037,-4.436168745647616,-0.0014174460511016855,-0.00019412196675774716,0.0007763445958787798,-0.001059226850373525,-9.315378706856208e-05,0.000947778322064008,0.0156785249710083,-0.707132875919342,0.5138406157493591,0.077976144850254,-0.1063447743654251,-0.0126141011714935
1749037769.8186922,5.779449246430938,0.15721990067882044,-2.300914278458287,5.352306784117476,0.18549787191166686,-4.436168418829498,-0.0012236981082232854,-0.00020205369476826557,0.0006702170836753499,-0.001029234718344763,-9.277215818587522e-05,0.0008391997772330769,0.0540437847375869,-0.7217330932617188,0.505322277545929,0.0791748985648155,-0.1181735247373581,0.0042852461338043
1749037769.8187292,5.779447814579276,0.15722100714520848,-2.300914069688812,5.352305630331704,0.18549706962613113,-4.4361683582096445,-0.0010417202719959838,-0.0002096934229892988,0.0005788866991885445,-0.0009972536912499718,-8.97548967650552e-05,0.0007477657626562676,0.0256663709878921,-0.7080546021461487,0.5092368721961975,0.0894627273082733,-0.1045962125062942,0.0130715668201446
1749037769.818766,5.77944690017709,0.1572221627103567,-2.3009136606504503,5.3523047425404275,0.18549649047925185,-4.436168526434359,-0.0008624066937110127,-0.00021490777485203512,0.0005033024102101837,-0.0009559210997081064,-8.34860711397568e-05,0.0006735711373538639,0.054665520787239,-0.7174475193023682,0.495731770992279,0.0819832906126976,-0.1029253453016281,0.0050843358039855
1749037769.818812,5.779446547753469,0.15722333608064695,-2.30091310670387,5.352304123307309,0.1854961583900318,-4.436168871169987,-0.0006771546193316317,-0.00021599655621471568,0.00044335882695214633,-0.0008986570863547402,-7.357015268562157e-05,0.0006159642756500595,0.0524272173643112,-0.7009264230728149,0.5012611746788025,0.068608783185482,-0.1279475539922714,-0.0084524154663085
1749037769.8188577,5.779446821735876,0.15722448379171386,-2.300912488274566,5.3523037553040815,0.1854960797178804,-4.43616932905579,-0.0004789652885339869,-0.0002117724913940301,0.0003980358123233628,-0.0008203005406012237,-5.994458128315064e-05,0.0005735079974621329,0.0513710714876651,-0.7064334154129028,0.4920237362384796,0.0621486604213714,-0.1107621639966964,-0.0123914182186126
1749037769.8188956,5.779447790192481,0.1572255485461898,-2.300911899594791,5.352303602594255,0.18549624610448448,-4.436169831628818,-0.00026350166207517997,-0.00020162568486350004,0.00036556377554649254,-0.0007177902342326268,-4.298805900186494e-05,0.0005439823649103904,0.0664205178618431,-0.6892907619476318,0.4899718463420868,0.0748063549399375,-0.1235543936491012,-0.020827442407608
1749037769.8189323,5.77944950626727,0.1572264590265512,-2.300911436394926,5.352303614763678,0.18549663720630005,-4.436170311842248,-2.9997634664205756e-05,-0.00018557517495040746,0.00034359526403421304,-0.000590847725611167,-2.3612827602175122e-05,0.0005244332169012962,0.0687549486756324,-0.6960190534591675,0.497224360704422,0.0911083593964576,-0.1320873349905014,-0.0236677229404449
1749037769.8189692,5.779451990387046,0.1572271320055245,-2.30091118434124,5.352303732736262,0.18549722215943218,-4.436170709869074,0.0002180844726631866,-0.00016430736792766708,0.0003293690829251247,-0.0004426035399286807,-3.328271887459235e-06,0.0005112699539525404,0.1053097173571586,-0.6990833282470703,0.464705228805542,0.0843876451253891,-0.1318714469671249,-0.0192059576511383
1749037769.8190062,5.7794552158857195,0.1572274772165334,-2.300911209770508,5.352303894494736,0.18549795942999261,-4.4361709774595806,0.0004727358142951307,-0.00013919830439243936,0.00031986005084213426,-0.0002800955026550451,1.5736515802198164e-05,0.0005004164606306484,0.1206087470054626,-0.6967402696609497,0.4644681215286255,0.0874482095241546,-0.1463319510221481,-0.0264904201030731
1749037769.8193686,5.779459099756433,0.15722740488855402,-2.300911553719006,5.352304038808676,0.18549879556018056,-4.436171080792089,0.0007214792652823311,-0.00011231420914502374,0.0003119147726123284,-0.00011456031125394485,3.08617524711856e-05,0.0004875190118759353,0.1476280689239502,-0.7046899795532227,0.4465651512145996,0.0972328633069992,-0.1271644681692123,-0.0268509685993194
1749037769.8218596,5.77946349937184,0.15722683529788975,-2.3009122296198017,5.3523041054909095,0.18549966387413513,-4.436171002092682,0.0009478553842679125,-8.638319326301847e-05,0.0003023805791994825,3.856077036157554e-05,3.882446216860825e-05,0.000468213486282805,0.1561506688594818,-0.7237755656242371,0.4376501142978668,0.1099172607064247,-0.1511073261499405,-0.0252890884876251
1749037769.8622646,5.779468215581077,0.15722570932539115,-2.30091322446917,5.35230403160065,0.18550048426961668,-4.436170740225661,0.0011322706744851896,-6.473081796144348e-05,0.0002882401186473105,0.00015997137297085786,3.604568724967106e-05,0.00043845068888321903,0.1201700270175933,-0.7164255380630493,0.4402737021446228,0.1045085787773132,-0.1688592284917831,-0.038021445274353
1749037769.8623111,5.779473002302965,0.1572239987670071,-2.3009145027660343,5.3523037441909045,0.18550116481996193,-4.436170310207522,0.0012531050888849853,-5.117385541079043e-05,0.0002667669555382663,0.0002272724266116584,1.8791012858184024e-05,0.0003948731911493164,0.099308468401432,-0.7209108471870422,0.4289986193180084,0.1185446977615356,-0.1711688488721847,-0.0586227476596832
1749037769.8623514,5.779477581968853,0.1572217148824064,-2.300916012172328,5.352303151271888,0.18550160533774335,-4.43616974143518,0.001287939479165996,-4.987014282455719e-05,0.00023571667319296428,0.00021613178050543727,-1.659104665862462e-05,0.0003352304119085237,0.0890912190079689,-0.7289825677871704,0.4334175288677215,0.0979248508810997,-0.1877800971269607,-0.0384832024574279
1749037769.8623905,5.779481664818807,0.15721891344782746,-2.300917689749284,5.3523021332286875,0.18550170267030588,-4.4361690744494116,0.0012147742785612098,-6.512780032667237e-05,0.0001935621352076524,0.00010184101210489889,-7.341753729397245e-05,0.00025881143959722566,0.0836455076932907,-0.7288822531700134,0.4452625811100006,0.0816230624914169,-0.1935083419084549,-0.048367291688919
1749037769.862429,5.779484968781342,0.1572156946144211,-2.3009194678420006,5.3523005368201115,0.18550135741370646,-4.436168356239221,0.0010131685994290243,-0.00010118382517690433,0.0001397707470391278,-0.00013882249104343533,-0.00015443897688126928,0.00016686778889453226,0.084933690726757,-0.7410182952880859,0.4465340673923492,0.0875172168016433,-0.1962587088346481,-0.044954627752304
1749037769.862467,5.779487236325832,0.1572121962676781,-2.3009212790669205,5.352298173275916,0.18550048173005956,-4.436167634330713,0.0006652964160858074,-0.00016196940813627698,7.5107823356117e-05,-0.0005255641783082142,-0.00026166369264663496,6.299082291755848e-05,0.0728479325771331,-0.7336728572845459,0.4424802362918854,0.0759208500385284,-0.1910881251096725,-0.0421878993511199
1749037769.862505,5.779488245552739,0.15720858036869448,-2.300923060130813,5.352294821276565,0.18549900774302241,-4.436166950076721,0.00015694779888223014,-0.0002508861641840218,1.936730082565919e-06,-0.0010725562251786222,-0.0003962750282904381,-4.6598952436309064e-05,0.0334795787930488,-0.7517324686050415,0.4550416767597198,0.0595979541540145,-0.2011346369981765,-0.048193871974945
1749037769.8625424,5.77948781433217,0.1572050130276013,-2.3009247542439284,5.352290234963353,0.1854968955444925,-4.4361663316208935,-0.0005215155665347574,-0.0003706224312195498,-7.552389324680744e-05,-0.001786653896619624,-0.00055867077726216,-0.00015289967049638813,0.0176963470876216,-0.7432666420936584,0.4618873298168182,0.0541570484638214,-0.2127947956323623,-0.0462227165699005
1749037769.862579,5.779485797673435,0.157201640741711,-2.300926311866174,5.352284156548673,0.18549413949417196,-4.436165787045292,-0.0013742871570376714,-0.0005230400417200985,-0.00015103108177252442,-0.002666066399995796,-0.0007486390475028779,-0.0002441638101106838,-0.0033951699733734,-0.7820537686347961,0.4713134467601776,0.047587975859642,-0.2150166481733322,-0.0395235121250152
1749037769.862617,5.779482079396521,0.15719856674346958,-2.3009276897125392,5.352276332537121,0.18549077145552448,-4.43616529835891,-0.0023993988689986596,-0.0007091572292489849,-0.0002162817150912834,-0.003699670475935705,-0.0009656606908213896,-0.0003061673269055648,-0.0039500892162323,-0.7692114114761353,0.4644753634929657,0.047609731554985,-0.2331196218729019,-0.0223298966884613
1749037769.8626542,5.7794765599083355,0.15719583191608305,-2.300928848330465,5.352266532122695,0.18548685970098025,-4.436164817209343,-0.0035882422031894476,-0.000929239975331059,-0.00026104858268973636,-0.004867082369274516,-0.0012092973873789293,-0.0003227434174562777,-0.0063281208276748,-0.7963770627975464,0.4672558307647705,0.0378373116254806,-0.2271258682012558,-0.0130237638950347
1749037769.862692,5.779469142651038,0.15719340388141056,-2.3009297488406077,5.352254566046988,0.18548250232170066,-4.4361642632258524,-0.00492539213010764,-0.0011829900677344826,-0.0002735144588065698,-0.006139511183536005,-0.0014795934000528866,-0.0002765888909968563,-0.0347636938095092,-0.7632380127906799,0.4766785204410553,0.0282017588615417,-0.2287180870771408,-0.0229747891426086
1749037769.8627331,5.779459722192229,0.15719117599936364,-2.3009303493803013,5.352240303997332,0.18547781446297484,-4.436163525459138,-0.006388786366058407,-0.0014697860382692227,-0.00024081190933836536,-0.0074813360689315305,-0.0017773995030247976,-0.00015032046873910478,-0.0574075579643249,-0.7698043584823608,0.4934906363487243,0.0169131532311439,-0.2382095903158188,-0.0114037990570068
1749037769.8627708,5.779448176540691,0.15718897589249994,-2.3009306015573823,5.352223688441328,0.18547290989335033,-4.436162466579372,-0.007950321784408234,-0.0017889065316576468,-0.00014975319826983843,-0.008852302978531837,-0.00210453075877998,7.227686243104373e-05,-0.087055817246437,-0.7712610363960266,0.5168044567108154,0.0082943141460418,-0.2284219115972519,-0.0085021555423736
1749037769.8628075,5.779434365198068,0.1571865814903587,-2.3009304471296206,5.352204742764307,0.18546787895850847,-4.4361609288049735,-0.009576936410554899,-0.00213966548844728,1.2291941614343356e-05,-0.010210216956758314,-0.0024636973999345693,0.00040490272095529065,-0.0869330316781997,-0.7782376408576965,0.5151293277740479,0.0152087360620498,-0.2414604127407074,-0.0003438889980316
1749037769.8628445,5.779418133154897,0.15718374187271025,-2.300929815209497,5.352183571881308,0.18546276616592478,-4.436158740347509,-0.011232210296904428,-0.0025214232476840725,0.0002564398631179269,-0.0115139871668192,-0.0028581877267695776,0.0008574183112711038,-0.0889066159725189,-0.8083661794662476,0.5245659351348877,0.0002259165048599,-0.2437606155872345,0.0220914781093597
1749037769.862881,5.779399319935223,0.1571802001576148,-2.300928620296804,5.352160354203465,0.18545755114174445,-4.436155721484139,-0.01287843435842621,-0.002933488143513814,0.0005913500752602851,-0.012726844097770513,-0.00329131541451295,0.0014346864147643463,-0.1258054375648498,-0.8254959583282471,0.5470942854881287,-0.0099326521158218,-0.2442992627620697,0.017364278435707
1749037769.8629177,5.779377772080631,0.15717571584702894,-2.300926761256167,5.352135324887157,0.18545213663581775,-4.4361516899640705,-0.014478997642589739,-0.0033749563913653704,0.0010224013404842019,-0.013819490407052918,-0.003765663867403744,0.002135707077858965,-0.1400763988494873,-0.8210324048995972,0.5763063430786133,-0.0240404456853866,-0.2433573007583618,0.0263175666332244
1749037769.862954,5.779353357087761,0.15717008424346965,-2.3009241212233915,5.352108751508147,0.18544634672283353,-4.436146466024033,-0.016000869874150125,-0.003844536735043151,0.0015510890562031284,-0.014772884535168786,-0.004282179938711249,0.002953147842871519,-0.1668067425489425,-0.8116306066513062,0.583512008190155,-0.0172784477472305,-0.2517748773097992,0.0258461236953735
1749037769.8629909,5.779325976695669,0.15716315092106636,-2.300920568586376,5.352080904451209,0.18543993707983142,-4.436139877627017,-0.01741692206413443,-0.004340382215529334,0.0021747197148322206,-0.015580318847494003,-0.004839207271164805,0.003873311867971547,-0.1295992285013198,-0.8077100515365601,0.5747263431549072,-0.0132275372743606,-0.2556259632110595,0.0377762168645858
1749037769.8634017,5.779295577613333,0.15715481987931906,-2.300915959542626,5.352052025234421,0.1854326170295439,-4.436131766600851,-0.018707831723678563,-0.004859931937724907,0.0028864279412061603,-0.01624847643821189,-0.005431604969009485,0.004876531743339157,-0.1164456009864807,-0.8452460169792175,0.5664865374565125,-0.0109427124261856,-0.2608248293399811,0.0541048347949981
1749037769.8653586,5.779262158293522,0.157145054937911,-2.3009101429305567,5.352022296603836,0.18542408043691347,-4.436121996152546,-0.019863360302500466,-0.0053997679254068785,0.0036754822235614023,-0.016797253770544994,-0.006050141622915156,0.005937946530076032,-0.1095602735877037,-0.8469911813735962,0.5930243730545044,0.0005951523780822,-0.271241158246994,0.0526328384876251
1749037769.9062858,5.779225771052568,0.15713387503873225,-2.300902967804012,5.3519918183195765,0.18541404055479602,-4.436110459773617,-0.020882867510177285,-0.005955507419335892,0.004527805277250826,-0.017258307510087743,-0.0066813525973172735,0.007028621024345617,-0.1250495612621307,-0.8743391036987305,0.6087347865104675,-0.0096135288476943,-0.2798060178756714,0.0488753169775009
1749037769.9063315,5.779186519521281,0.15712134510526055,-2.3008942935979975,5.3519605918362405,0.18540226329452422,-4.436097090923119,-0.02177502666302774,-0.006521755910893251,0.005426632340673319,-0.01767247824176208,-0.007307986144455943,0.008116979867182855,-0.1145927160978317,-0.8847145438194275,0.6144428849220276,-0.0170817524194717,-0.2592464983463287,0.0696386694908142
1749037769.9063716,5.779144551929177,0.1571075646566283,-2.3008840019501715,5.351928515590503,0.1853885941901344,-4.436081872287645,-0.02255680280046672,-0.00709213085441691,0.0063532533600573655,-0.018086406311269818,-0.007910057121374542,0.009170527525117133,-0.1421763449907302,-0.8318711519241333,0.61272794008255,-0.035875454545021,-0.2807725667953491,0.0926746428012847
1749037769.9064105,5.779100050990127,0.15709265634615596,-2.3008720085711234,5.351895390761394,0.18537297605083009,-4.436064843022064,-0.023251830691324374,-0.007659347689771596,0.007287805026259739,-0.01854874695868607,-0.008466408998590103,0.010157797084159969,-0.1208613067865371,-0.8641825318336487,0.6181741952896118,-0.0362306088209152,-0.2521248459815979,0.0603375136852264
1749037769.9064486,5.7790532212460475,0.1570767559362767,-2.3008582732257636,5.351860935642497,0.1853554562776695,-4.436046102194819,-0.023888378412599866,-0.008215363302046684,0.00821008570142982,-0.01910640382840559,-0.008956587985440382,0.011050427255950622,-0.1208613067865371,-0.8641825318336487,0.6181741952896118,-0.0362306088209152,-0.2521248459815979,0.0603375136852264
1749037769.906495,5.7790042747558,0.1570600040817998,-2.300842806035096,5.3518248055370226,0.18533618438438754,-4.436025806742933,-0.02449711015187593,-0.008751598220265455,0.009100372724082349,-0.019801147263317314,-0.009362777596507551,0.011825226988293502,-0.1385104656219482,-0.8822762370109558,0.6266272068023682,-0.0505696609616279,-0.2648238837718963,0.0711809396743774
1749037769.9065423,5.778953416031537,0.1570425392872625,-2.3008256689509516,5.3517866147259445,0.18531540107177796,-4.436004162736772,-0.025108871308152658,-0.009259281272310748,0.009940234452802127,-0.02066689000279869,-0.009671534469416406,0.012466058463705635,-0.1571999490261078,-0.9158510565757751,0.6337425112724304,-0.0722885206341743,-0.257701575756073,0.0813996195793151
1749037769.9065824,5.778900827154118,0.15702449120986825,-2.3008069722328277,5.351745957736751,0.18529342044393818,-4.435981409781261,-0.025752702060957575,-0.009729952892509596,0.010713334706799055,-0.02172777748678634,-0.0098751041251348,0.012965347395805253,-0.1548361182212829,-0.9047787189483644,0.6361427903175354,-0.0772376805543899,-0.2381244748830795,0.0623367875814437
1749037769.9066205,5.778846654047873,0.15700597411037545,-2.3007868666988722,5.3517024284428505,0.18527060701712741,-4.435957799809648,-0.026454235832450813,-0.010156123851262076,0.011406211039274533,-0.022997131641296766,-0.009972168593707347,0.01332501687573591,-0.1649211943149566,-0.914990782737732,0.6320655941963196,-0.0745079070329666,-0.2472271770238876,0.0758440494537353
1749037769.906681,5.778790994834698,0.15698708106933884,-2.3007655331000922,5.351655636649033,0.18524734934124365,-4.435933572935717,-0.027234565585872186,-0.010532034504770556,0.012008980183237438,-0.024477189756914583,-0.009967968803942821,0.01355665963547892,-0.1698765158653259,-0.9248431921005248,0.6442742943763733,-0.0820014774799346,-0.2427548915147781,0.0754564404487609
1749037769.9067223,5.778733890915959,0.15696787993086833,-2.3007431701375705,5.351605222283827,0.18522403242118873,-4.4359089339131135,-0.028109587231316114,-0.010854418621497412,0.012515905466070532,-0.02615952506328976,-0.009873832320657618,0.013680837295706906,-0.2008630037307739,-0.9416670799255372,0.6456916928291321,-0.091297261416912,-0.2352144569158554,0.0866270363330841
1749037769.9067638,5.778675321104313,0.15694841161965145,-2.300719982527812,5.351550867274814,0.18520101147185902,-4.435884032774089,-0.02908977638819442,-0.011123157457228328,0.012925759874269218,-0.02802602635142527,-0.009706204689322113,0.01372552004619977,-0.1993845999240875,-0.947343111038208,0.6502147912979126,-0.1078544706106185,-0.2445060759782791,0.0824992507696151
1749037769.9068017,5.778615199020995,0.1569286907946364,-2.3006961701805664,5.351492305046886,0.18517858943720963,-4.435858952360569,-0.030180327185252518,-0.011341713191745052,0.013241929707729375,-0.030050333650267134,-0.00948532216248752,0.013723819194408212,-0.2007146626710891,-0.9613396525382996,0.6440439224243164,-0.1079414784908294,-0.2521805167198181,0.0648336410522461
1749037769.9068384,5.7785533741883395,0.15690870823174713,-2.300671919077022,5.351429327596215,0.18515699998826732,-4.4358337040481866,-0.03138157228793015,-0.01151724980143246,0.013472225051706779,-0.03219964986643599,-0.009233674647181549,0.013711273022181806,-0.2113310992717743,-0.9575082659721376,0.6380759477615356,-0.1070246249437332,-0.2372040748596191,0.1141058206558227
1749037769.9068756,5.778489637572443,0.15688843415114792,-2.300647394038229,5.351361790237047,0.18513639669868254,-4.435808231557576,-0.032689603896351206,-0.01166038119655461,0.01362839555539013,-0.034436853975176374,-0.008974396612779106,0.013722998703016031,-0.2097328901290893,-0.9493853449821472,0.6475272178649902,-0.1155052781105041,-0.2440156042575836,0.0840186476707458
1749037769.906913,5.778423732265959,0.1568678218629682,-2.3006227333715423,5.351289614236971,0.18511684826025998,-4.435782421757905,-0.034097021778331266,-0.011784532302783042,0.01372538863169295,-0.036722823871685066,-0.008729701394910135,0.013791020758365783,-0.2313326597213745,-0.9715577363967896,0.6551862359046936,-0.1253114342689514,-0.2248077690601349,0.1073449924588203
1749037769.9069505,5.778355369195812,0.15684681138149756,-2.300598045238727,5.351212787454212,0.18509833923428487,-4.43575612080686,-0.03559374353729746,-0.011904955761062812,0.01378042202761483,-0.03901884567559359,-0.00851945173413226,0.013942042586700995,-0.2395172864198684,-0.9604226350784302,0.6453096270561218,-0.1370825469493866,-0.2391661405563354,0.1177616640925407
1749037769.9069874,5.778284246593467,0.15682533288827674,-2.300573405364554,5.3511313627275765,0.18508077588783456,-4.4357291536127486,-0.0371678215806905,-0.012037503963858753,0.013811963623283977,-0.041288955435737504,-0.00835994255769272,0.014195855080996968,-0.2354851812124252,-0.9856250882148744,0.6556198596954346,-0.1328203976154327,-0.2306290864944458,0.1171262562274932
1749037769.9070244,5.778210071276289,0.1568033099940249,-2.3005488555589837,5.351045453410321,0.18506399685419664,-4.4357013442746664,-0.0388062195210285,-0.012197299993958638,0.013838711912156451,-0.043502037957936786,-0.008262960958210787,0.014564488328971816,-0.2584638595581054,-1.0041472911834717,0.6538294553756714,-0.1323757767677307,-0.2329886555671692,0.1252180337905883
1749037769.907061,5.778132579711146,0.1567806626338349,-2.3005244027064027,5.350955225429113,0.18504778838354885,-4.435672534901212,-0.04049550865052718,-0.012397472066674377,0.013878652180341705,-0.04563350357534299,-0.008235178480897883,0.015052123087535296,-0.2449629008769989,-1.0228004455566406,0.6588902473449707,-0.1092775985598564,-0.245353877544403,0.1127566397190094
1749037769.9074345,5.778051556807361,0.15675730933004076,-2.300500018278472,5.350860885652504,0.1850319036358969,-4.435642600287458,-0.04222245454652294,-0.012648108817520352,0.013948236119489033,-0.04766638994568315,-0.008277915593964595,0.01565569898132016,-0.263447642326355,-1.0231945514678955,0.6729574203491211,-0.1172857657074928,-0.2287370711565017,0.1260617822408676
1749037769.9093714,5.777966850189158,0.15673316867299072,-2.3004756386878147,5.350762666939609,0.185016084862044,-4.435611456530138,-0.04397447630293295,-0.012955557331268549,0.014061708796533574,-0.04959180046155319,-0.008387293804026147,0.016366091216267753,-0.2689132392406463,-1.0155781507492063,0.680275022983551,-0.1276533007621765,-0.2423495203256607,0.1255316734313964
1749037769.950271,5.777878377882439,0.15670816007510005,-2.300451166765936,5.350660810746137,0.18500008666627307,-4.435579062583122,-0.0457399746291883,-0.013322130056692404,0.01423059302663329,-0.051408680793175864,-0.008554760956533118,0.017169680688100805,-0.2636057734489441,-1.0797919034957886,0.6937812566757202,-0.1165736541152,-0.2400080114603042,0.1400154829025268
1749037769.950317,5.777786128452462,0.15668220393792415,-2.3004264744842344,5.350555548518286,0.18498369805686163,-4.435545414625522,-0.04750853796457559,-0.013746223315194353,0.014463336974831377,-0.053123018906349066,-0.008767947563022113,0.018050117295200917,-0.2969201803207397,-1.045586109161377,0.6798056960105896,-0.1328198909759521,-0.252753734588623,0.1298871487379074
1749037769.9503572,5.777690154331698,0.15665522143483457,-2.3004014069163454,5.35044708344653,0.18496676078381613,-4.435510533881338,-0.04927105157772287,-0.014222791264456204,0.014765131950460537,-0.054746601790814746,-0.009011789130082572,0.018990071349575876,-0.271943598985672,-1.0471179485321045,0.7115511298179626,-0.1269461959600448,-0.2419429421424865,0.1473293006420135
1749037769.950396,5.77759056043693,0.1566271343729255,-2.3003757873794566,5.35033557455573,0.18494918168030128,-4.435474449450256,-0.05101975516464075,-0.014744075849418945,0.01513790667067327,-0.05629546599685972,-0.009269827979926731,0.01997277866575199,-0.3180370628833771,-1.0592156648635864,0.7128520607948303,-0.136810228228569,-0.2363367676734924,0.1387885510921478
1749037769.9504335,5.777487490512286,0.15659786598569825,-2.3003494236729276,5.350221125299291,0.1849309374514513,-4.435437178804566,-0.0527483059365609,-0.015300474784213538,0.015580494444893116,-0.05778815639167427,-0.009525587385299673,0.020983214633065485,-0.3003128170967102,-1.061861872673035,0.7030363082885742,-0.1298508495092392,-0.2458389997482299,0.1569567918777465
1749037769.9504716,5.7773811130456165,0.1565673436246734,-2.30032211538155,5.3501037784606815,0.18491207144145458,-4.4353987093838345,-0.05445189039668495,-0.01588143871785897,0.016088949824842706,-0.059243886997438426,-0.009763896742134388,0.02200879023349398,-0.3171361684799194,-1.0476505756378174,0.7169085144996643,-0.1137893199920654,-0.2378245890140533,0.1284282505512237
1749037769.9505088,5.77727160769089,0.15653550377999398,-2.3002936622736816,5.349983518327468,0.18489268302112602,-4.43535898457921,-0.05612739592483281,-0.016476316785849442,0.016656969783150455,-0.06068070245363835,-0.00997204535152557,0.02303954507253676,-0.3585768938064575,-1.0641926527023315,0.7079008221626282,-0.1323620826005935,-0.2301867604255676,0.1435702741146087
1749037769.950546,5.777159152415898,0.15650229875305913,-2.3002638737574106,5.3498602801454025,0.18487291111342166,-4.435317896262809,-0.057773623008921554,-0.017075100621405496,0.01727636347139768,-0.06211377725818768,-0.010140658538513652,0.024067897619773498,-0.3265835046768188,-1.0649099349975586,0.7133378982543945,-0.1371065080165863,-0.2447006106376648,0.1475244462490081
1749037769.9505827,5.777043911267574,0.1564677032448093,-2.300232579121017,5.349733965914891,0.1848529139776179,-4.4352752844903165,-0.05939149337763349,-0.01766903782535845,0.017937520550952768,-0.06355404480334507,-0.010264226285906394,0.025088076896798043,-0.3291715979576111,-1.0410159826278689,0.7358536720275879,-0.1382180601358413,-0.2464476078748703,0.1622443944215774
1749037769.9506197,5.77692602268073,0.15643171873173417,-2.3001996379373466,5.349604464617105,0.18483284773088954,-4.435230943916117,-0.06098418191953848,-0.018251094824549532,0.01862984811538588,-0.06500736941445145,-0.010341267708418454,0.02609539012290588,-0.3284616470336914,-1.061853528022766,0.7288058996200562,-0.1371205598115921,-0.2385876625776291,0.1551281511783599
1749037769.950656,5.776805588560318,0.15639437395881592,-2.300164949595546,5.349471674114358,0.18481284615266239,-4.435184636166283,-0.06255708480222681,-0.01881625303970246,0.01934217043865918,-0.06647441487013034,-0.0103741695707333,0.027085476469673134,-0.3498868942260742,-1.0574963092803955,0.7392877340316772,-0.1365134418010711,-0.2318192273378372,0.1660566329956054
1749037769.950693,5.776682664761064,0.1563557209623597,-2.3001284605782057,5.349335521589474,0.18479300409636557,-4.435136107523821,-0.06411755446898446,-0.01936162982716494,0.020063103163621022,-0.06795123135861394,-0.010368774814924975,0.02805366601367696,-0.3414950370788574,-1.07450270652771,0.750752329826355,-0.1457975357770919,-0.2425544261932373,0.1664048731327057
1749037769.9507284,5.776557253753157,0.1563158272835333,-2.300090168091368,5.349195979654269,0.18477336638862563,-4.435085111077116,-0.06567437986466555,-0.01988642981586626,0.020781419491815153,-0.0694304431519515,-0.010333808419649005,0.02899452240513738,-0.374932050704956,-1.0627180337905884,0.7451769709587097,-0.1493415087461471,-0.2387896180152893,0.1760098040103912
1749037769.950765,5.776429299969387,0.15627476595824497,-2.30005011908006,5.349053076085277,0.18475392339323898,-4.435031431632279,-0.06723704305238322,-0.02039174940622177,0.02148642481563931,-0.07090282859992374,-0.010280217800924718,0.02990161691268308,-0.3478936553001404,-1.0674961805343628,0.7437795400619507,-0.1243609338998794,-0.2500317096710205,0.170787438750267
1749037769.950801,5.776298687872221,0.15623260526708513,-2.300008404366902,5.34890689626324,0.18473461341605604,-4.434974910547546,-0.06881482769504399,-0.020880270667189123,0.022168353516457566,-0.07235905237349592,-0.0102204854356988,0.0307675636786332,-0.3863424360752105,-1.0944336652755735,0.756397545337677,-0.1273368746042251,-0.2394343018531799,0.1771773546934127
1749037769.9508376,5.776165242836206,0.15618940021212585,-2.299965148414019,5.34875757848367,0.1847153310083334,-4.434915466943658,-0.0704158898969551,-0.021355886392382603,0.02281879590802422,-0.07379131660943963,-0.010167950852878872,0.03158432427425179,-0.416371077299118,-1.0729070901870728,0.7598997950553894,-0.1328214406967163,-0.2461420893669128,0.1784510314464569
1749037769.950874,5.7760287356511375,0.156145187370399,-2.299920495832506,5.348605303142327,0.1846959393250903,-4.434853112009535,-0.07204641980501365,-0.021823297458236256,0.023431150208757377,-0.07519472271257291,-0.010136158161274857,0.03234374948257743,-0.3613750338554382,-1.0780678987503052,0.741878092288971,-0.1253712773323059,-0.2447003722190857,0.1744384467601776
1749037769.9509125,5.775888892067826,0.15609998410579662,-2.299874596118875,5.348450277294389,0.18467628425296836,-4.434787954311107,-0.07371000857690625,-0.022287621491195102,0.024001074986379326,-0.07656817240461262,-0.010138223315516908,0.0330382779347137,-0.3774775862693786,-1.0832161903381348,0.7427232265472412,-0.111483633518219,-0.2400672882795334,0.1686307787895202
1749037769.9509494,5.775745408579716,0.1560537920971781,-2.299827588211189,5.34829271628278,0.18465620810588385,-4.434720195580909,-0.07540729386425626,-0.022754047835310088,0.024526897712331137,-0.07791469523077943,-0.010186200023803643,0.03366168233905351,-0.3966503143310547,-1.106949806213379,0.7418902516365051,-0.1164714097976684,-0.2347785085439682,0.1768768876791
1749037769.950986,5.775597974565363,0.1560066040153079,-2.299779586437846,5.348132824145491,0.18463556122235322,-4.434650117827796,-0.07713591377580288,-0.023227562995832396,0.025009920244082006,-0.07924118633462206,-0.0102904285391054,0.034209761877106164,-0.3879934847354889,-1.0704752206802368,0.7491707801818848,-0.1359543651342392,-0.2422599643468856,0.1753190457820892
1749037769.9513328,5.775446299475067,0.15595841136701194,-2.299730669299713,5.347970774420315,0.18461421057374214,-4.434578063495459,-0.07889076829291244,-0.023712753629543226,0.025454555517549333,-0.08055765837210052,-0.0104588830693909,0.034680914395193704,-0.3942376673221588,-1.0962481498718262,0.7616507411003113,-0.1516167968511581,-0.2518843412399292,0.1772419512271881
1749037769.9534,5.775290142300086,0.1559092113582301,-2.29968087223926,5.347806692790327,0.18459204521785524,-4.4345044108941,-0.08066455848796208,-0.024213679145444807,0.025868235312125443,-0.08187619430404088,-0.010696576922168237,0.035076557478968075,-0.397739052772522,-1.1063441038131714,0.7618364095687866,-0.1206016093492508,-0.240216925740242,0.1774639189243316
1749037769.9942744,5.7751293393848835,0.15585901115753475,-2.2996301851531418,5.347640642818122,0.1845689788749034,-4.434429547400479,-0.08244854287605596,-0.024733798100540855,0.02626105108622268,-0.08320978233043254,-0.011005113853852623,0.03540138308126954,-0.3909344673156738,-1.099562168121338,0.7594862580299377,-0.124164268374443,-0.2495926469564438,0.162101000547409
1749037769.994321,5.774963826103604,0.1558078288271262,-2.299578555000658,5.347472615898058,0.18454495002058824,-4.434353842978477,-0.08423342764130348,-0.025275927008733743,0.02664512852350614,-0.08457114318255318,-0.011382471873046928,0.03566342635553102,-0.3977478742599487,-1.0860459804534912,0.7782701849937439,-0.1282585263252258,-0.2568930685520172,0.1717905551195144
1749037769.994362,5.774793648351539,0.1557556909701621,-2.2995258934038705,5.347302526506682,0.18451991989905914,-4.434277626355377,-0.08601029965910055,-0.02584220291737991,0.027033781987114407,-0.08597159949032585,-0.011823071796010496,0.03587392001728549,-0.437554657459259,-1.0946884155273438,0.7922545075416565,-0.1390606462955474,-0.241915762424469,0.1906830370426178
1749037769.9944012,5.774618961217933,0.15570262766407217,-2.299472088431023,5.347130213679807,0.1844938690395581,-4.4342011658203475,-0.08777151128939943,-0.02643401937369927,0.02744053135657269,-0.0874200347332278,-0.01231812956828538,0.03604690526933781,-0.4187789559364319,-1.0896023511886597,0.7831293344497681,-0.1659282445907592,-0.26027911901474,0.1768602430820465
1749037769.99444,5.774440014281689,0.1556486656090016,-2.2994170188289047,5.34695544915789,0.1844667931909088,-4.434124656259362,-0.08951142524475371,-0.027051918455737685,0.027878079263026392,-0.0889220221603682,-0.012856238584440224,0.036198586367907515,-0.4334978461265564,-1.10706627368927,0.8035501837730408,-0.1329855322837829,-0.2478850781917572,0.162982702255249
1749037769.9944775,5.774257125174919,0.15559382063886976,-2.2993605682804357,5.346777951762949,0.18443869971488194,-4.43404821360074,-0.09122692803446493,-0.027695445404248866,0.028357343388906726,-0.09047921761409282,-0.013424096676569977,0.036346447917246026,-0.4093608558177948,-1.1322160959243774,0.8055159449577332,-0.1319724917411804,-0.2525752186775207,0.1635598540306091
1749037769.994531,5.774070644935777,0.15553809078134573,-2.299302637314214,5.346597406614147,0.18440960517188995,-4.433971877099325,-0.09291763328391818,-0.02836299280935826,0.028886626715971732,-0.09208908493109585,-0.014007291586675182,0.03650819560900409,-0.4201028347015381,-1.106703519821167,0.811267077922821,-0.142646312713623,-0.2533857524394989,0.1487176865339279
1749037769.9945707,5.773880920067203,0.15548145103317967,-2.299243151287785,5.346413487262026,0.18437953428937523,-4.4338956188864795,-0.09458573203980859,-0.02905166943826122,0.02947099525565552,-0.09374498561618598,-0.014591082061925593,0.03670062227602344,-0.3881214261054992,-1.129458785057068,0.8070151209831238,-0.1375987976789474,-0.2661291360855102,0.1552850753068924
1749037769.994608,5.773688256982179,0.15542385103750492,-2.299182063932469,5.346225878925732,0.1843485200754825,-4.4338193592332065,-0.09623550502712139,-0.02975722716217984,0.030111916754868726,-0.09543664552122005,-0.015161144510977437,0.036938530755322586,-0.4220873117446899,-1.1303590536117554,0.8127697110176086,-0.1392448544502258,-0.2520690262317657,0.1633731126785278
1749037769.9946446,5.773492894173023,0.15536521665722802,-2.2991193568572816,5.346034301391162,0.18431660460762975,-4.433742985218774,-0.09787258041830081,-0.030474073403394364,0.030807192307372385,-0.09715100920094744,-0.015704282074004382,0.03723385368323175,-0.4533016085624695,-1.1167813539505005,0.80723637342453,-0.1500811874866485,-0.2539284527301788,0.1734287440776825
1749037769.9946818,5.773294985685089,0.155305455683906,-2.2990550360538653,5.345838530145186,0.1842838398777278,-4.433666370043842,-0.09950308181774652,-0.031195387282470042,0.03155118614302729,-0.09887348251633497,-0.016209101039738365,0.03759509116596645,-0.4482020437717438,-1.1211745738983154,0.8170416355133057,-0.1697769612073898,-0.2587899565696716,0.1666265577077865
1749037769.994719,5.7730945968347385,0.15524446679167048,-2.2989891267823723,5.345638413726832,0.18425028803537474,-4.433589390145138,-0.10113283938401303,-0.0319133476314123,0.0323353287348945,-0.10058952244787393,-0.01666664416511294,0.03802713893456198,-0.4189280867576599,-1.1204036474227903,0.7999309301376343,-0.1694988906383514,-0.2571003139019012,0.1699795573949813
1749037769.9947555,5.772891710656247,0.1551821500563687,-2.2989216681496485,5.3454338845705065,0.18421602057134845,-4.433511937636432,-0.10276681023029477,-0.03261947587364155,0.03314883702765287,-0.10228645753742192,-0.01707094024947085,0.0385315112227139,-0.441567063331604,-1.1273517608642578,0.8016048669815063,-0.1593103259801864,-0.2574860751628876,0.1858803480863571
1749037769.9947922,5.772686242036711,0.15511841735719528,-2.2988527082877304,5.345224960695822,0.1841811164622704,-4.433433926415684,-0.10440877821431775,-0.033305092848952715,0.033979570201396705,-0.10395533403065621,-0.01741940104645975,0.039106893626227844,-0.368039071559906,-1.084875226020813,0.7968605756759644,-0.1595391035079956,-0.2363909035921096,0.18308025598526
1749037769.9948287,5.772478055979431,0.15505320148045765,-2.298782300540672,5.345011736943719,0.18414565984031925,-4.43335529141183,-0.10606131804585996,-0.0339618729654372,0.034814929939063356,-0.10559251452450136,-0.017712986421133656,0.03974991256267961,-0.4363669753074646,-1.0964373350143433,0.820523202419281,-0.1567601561546325,-0.242787703871727,0.1778879463672638
1749037769.994866,5.77226698662473,0.15498646321750964,-2.2987105006154223,5.3447943667247655,0.1841097378821138,-4.43327598165832,-0.10772595668334686,-0.03458245146464748,0.035642723078654896,-0.10720073853707607,-0.017956078158845794,0.04045599017956785,-0.4115721583366394,-1.0898982286453247,0.7980953454971313,-0.15866719186306,-0.2514541745185852,0.1710235774517059
1749037769.994902,5.772052854235321,0.15491819597769793,-2.298637364315463,5.3445730375350164,0.1840734390368473,-4.433195948886394,-0.10940345322808971,-0.03516101913452412,0.03645192346046193,-0.10878940429509784,-0.01815605259881417,0.04122016184904114,-0.4472885727882385,-1.1100287437438965,0.7930499315261841,-0.1500869691371917,-0.2404110729694366,0.191458910703659
1749037769.9949384,5.771835478138249,0.15484842752948186,-2.2985629453772187,5.344347944859267,0.1840368508838215,-4.433115133941659,-0.11109412282624831,-0.03569383574507759,0.03723328920749258,-0.11037394041359563,-0.018322604670440962,0.042037754413088574,-0.432102620601654,-1.0945310592651367,0.8138887882232666,-0.1678782105445861,-0.2491040676832199,0.1864957511425018
1749037769.9949758,5.771614684553273,0.1547772186509025,-2.298487293118121,5.344119268989205,0.18400005664631586,-4.433033453559843,-0.11279813151609407,-0.03617960338453898,0.03797980823411368,-0.1119742762846475,-0.018466924238417493,0.04290484584387931,-0.4386629462242126,-1.097685694694519,0.8126537799835205,-0.1685848087072372,-0.255850613117218,0.1787957549095153
1749037769.9950123,5.771390309307345,0.15470465891055987,-2.298410449932543,5.343887157932245,0.18396312991239777,-4.4329507899656795,-0.11451569208618868,-0.036619655341200534,0.03868695837007129,-0.1136125584471096,-0.01860084334138547,0.043818449201956655,-0.4336371123790741,-1.0965567827224731,0.7977091670036316,-0.1437021940946579,-0.2642126083374023,0.1938103139400482
1749037769.99536,5.771162196543668,0.15463086046505084,-2.29833244894531,5.34365171771507,0.18392612786926532,-4.432866985326122,-0.1162471106875426,-0.03701793465858115,0.03935278076698969,-0.1153103769686257,-0.018736059092746702,0.044776396047207886,-0.4487777054309845,-1.1026654243469238,0.7790118455886841,-0.1985394656658172,-0.2523224949836731,0.1794537454843521
1749037769.997308,5.770930195490259,0.15455595116960832,-2.2982533122730415,5.343413009697085,0.18388908382451383,-4.43278184220497,-0.11799267434087389,-0.037380760422132404,0.03997778256748182,-0.11708585294856053,-0.018883500844209727,0.04577694845300389,-0.4326592087745666,-1.099092960357666,0.808790922164917,-0.2025271505117416,-0.2588444650173187,0.1840780526399612
1749037770.0382884,5.770694157892186,0.15448006794779787,-2.2981730503209823,5.3431710533722585,0.18385200003152294,-4.432695129944547,-0.11975241656837707,-0.037716406480232695,0.04056470935585712,-0.1189509828770283,-0.019052866238430367,0.046818235179846665,-0.4720173180103302,-1.101845145225525,0.796486496925354,-0.1644855737686157,-0.2501457333564758,0.1940747648477554
1749037770.0383344,5.77045393853787,0.15440335045471937,-2.298091662328091,5.342925832703809,0.18381484209453214,-4.432606595745728,-0.1215258304128809,-0.038034541244639855,0.04111824297519438,-0.12090961623773927,-0.019252311858743248,0.04789765075257262,-0.4490844905376434,-1.1221001148223877,0.803149402141571,-0.1925633698701858,-0.2569555044174194,0.2144903838634491
1749037770.0383754,5.770209400238843,0.15432593442965034,-2.2980091380189136,5.342677304289731,0.18377753632696692,-4.432515978586839,-0.12331160125890615,-0.038345593452659206,0.041644663808677165,-0.12295635775525644,-0.019488256234011778,0.04901134387429626,-0.4612903296947479,-1.0931731462478638,0.7802287936210632,-0.2063919454813003,-0.2603840231895447,0.1857112497091293
1749037770.038414,5.769960422856997,0.15424794427922514,-2.297925459851523,5.342425406323651,0.18373997103362288,-4.4324230240980524,-0.12510740904729115,-0.03866011473938207,0.04215147600925998,-0.12507656721715707,-0.019765240581584353,0.05015386000494442,-0.4251053035259247,-1.1204267740249634,0.7696995139122009,-0.207100510597229,-0.2431945353746414,0.206172689795494
1749037770.038453,5.7697069142404604,0.15416948508660636,-2.2978406050763516,5.342170067948383,0.18370200186174676,-4.432327498796285,-0.1269098188054017,-0.038988206112259984,0.04264696841967868,-0.1272475058999281,-0.02008580246790704,0.05131793377131782,-0.4456790089607239,-1.1489609479904177,0.7896824479103088,-0.2009740769863128,-0.2710752785205841,0.2043632119894027
1749037770.0384915,5.769448820153272,0.1540906348222084,-2.297754546771429,5.341911218873214,0.1836634605613791,-4.432229202503129,-0.12871425840536582,-0.03933906283533501,0.04313970059803035,-0.12944054621838058,-0.02045034926170004,0.05249438929226561,-0.46271812915802,-1.1287071704864502,0.7939968109130859,-0.1945483535528183,-0.2649791538715362,0.1924933642148971
1749037770.03853,5.769186130910994,0.1540114377039933,-2.297667253339387,5.341648799007637,0.18362416604875426,-4.432127978359118,-0.13051507779166455,-0.03972067005637433,0.04363794524442036,-0.13162421680793587,-0.020857058825754584,0.053672109896716176,-0.46688112616539,-1.1539605855941772,0.7936996817588806,-0.2093730121850967,-0.2829595506191253,0.1927288323640823
1749037770.0385668,5.768918883945234,0.15393189949571728,-2.2975786865788517,5.34138276751344,0.18358393659159397,-4.432023720459966,-0.13230568969360848,-0.040139651603564565,0.044149144619023854,-0.1337677213636887,-0.021301865310819165,0.05483807141230655,-0.4347720742225647,-1.1254026889801023,0.7858178615570068,-0.1841227412223816,-0.2598186731338501,0.1907678097486496
1749037770.0386038,5.768647162744915,0.15385198528951766,-2.2974887990321293,5.341113110273845,0.18354260202155337,-4.431916379392263,-0.13407880246482537,-0.040601244311094284,0.04467943252608451,-0.1358444769878586,-0.02177859344036697,0.055977479778008,-0.433631956577301,-1.158266305923462,0.7957607507705688,-0.1962476223707199,-0.2761679887771606,0.2174091190099716
1749037770.0386412,5.768371092828167,0.1537716200423749,-2.2973975315732713,5.340839844524184,0.18350001492596113,-4.4318059657565545,-0.13582676414647651,-0.041109348503502764,0.045233252943081816,-0.1378351887868891,-0.02227928005924861,0.05707409344332332,-0.4666174054145813,-1.1746525764465332,0.7807291150093079,-0.1796559393405914,-0.2622078657150268,0.2151646912097931
1749037770.038678,5.768090834979864,0.15369069169743713,-2.2973048121952613,5.340563019539284,0.18345605981648014,-4.431692551551862,-0.1375420359797985,-0.041666597104005686,0.04581309179313216,-0.13973002649151753,-0.02279467288613391,0.05811081484675066,-0.4848228693008423,-1.1464576721191406,0.7923220992088318,-0.1680291295051574,-0.2706084847450256,0.2018077075481414
1749037770.0387146,5.767806575847169,0.15360905620907978,-2.297210556874253,5.340282712944437,0.18341065952986868,-4.431576269436063,-0.13921780028976746,-0.04227439291194412,0.04641933169353883,-0.14152959770939652,-0.023314842435839013,0.05907058541403873,-0.4709429740905761,-1.174305438995361,0.7836935520172119,-0.1743929982185363,-0.272054374217987,0.1961845755577087
1749037770.0387506,5.767518516452278,0.153526543579695,-2.2971146732196943,5.339999023164815,0.18336377857129119,-4.431457310174646,-0.14084868074884396,-0.04293288179226766,0.04705023370847603,-0.1432446073351991,-0.02382981179061101,0.05993753252485612,-0.4162168204784393,-1.152359962463379,0.7855491638183594,-0.1869205236434936,-0.262529581785202,0.195296972990036
1749037770.0387871,5.7672268598309415,0.15344296433196278,-2.2970170672138135,5.339712059280129,0.18331542342223733,-4.431335918521394,-0.14243151266130916,-0.04364085062218204,0.04770204106296121,-0.1448943251963952,-0.024330119565395134,0.06069824054764065,-0.4572870433330536,-1.1363654136657717,0.7641584873199463,-0.1870240867137909,-0.2761681079864502,0.1946995109319687
1749037770.0388231,5.7669317992978755,0.15335811642155361,-2.296917652702118,5.339421929737765,0.18326563984093291,-4.431212387188374,-0.14396605511335264,-0.04439555927139943,0.048369189691936036,-0.14650420199374004,-0.02480727827500968,0.06134298708728775,-0.4543562829494476,-1.1664202213287354,0.7793635725975037,-0.2003302127122879,-0.2754473984241485,0.1915352344512939
1749037770.0388596,5.766633508659884,0.1532717929989448,-2.2968163626450333,5.339128730910325,0.1832145072178646,-4.431087047905374,-0.14545550457521508,-0.04519253718750386,0.0490446079592934,-0.14810311074695465,-0.02525414495828359,0.06186679902803311,-0.409481406211853,-1.1902858018875122,0.7952444553375244,-0.2131078094244003,-0.2912817299365997,0.1925797760486602
1749037770.0388956,5.7663321352864525,0.15318379149999078,-2.2967131607780784,5.3388325356317345,0.1831621305189224,-4.430960258499107,-0.14690667244901948,-0.04602539449654926,0.04972009624472422,-0.1497207057397178,-0.025665251270002958,0.06227021610354178,-0.3919315338134765,-1.1629027128219604,0.7691513299942017,-0.2216255813837051,-0.2785427570343017,0.1878833472728729
1749037770.038932,5.766027796562278,0.1530939243142669,-2.2966080523869237,5.338533381215018,0.1831086311443824,-4.430832385787483,-0.14832973871359656,-0.04688570814991864,0.05038678154398549,-0.15138528454496222,-0.026037130405464844,0.06255968327183453,-0.4260332882404327,-1.1481781005859375,0.7574737071990967,-0.2328192442655563,-0.2597356140613556,0.1802093088626861
1749037770.0389683,5.765720579960625,0.15300203072637455,-2.2965010931987955,5.3382312566030325,0.18305413852887664,-4.430703785552142,-0.14973758346333943,-0.04776304552062462,0.0510356269729336,-0.15312233961999447,-0.026368635333952863,0.06274752464932344,-0.4605370759963989,-1.189995050430298,0.7457456588745117,-0.232777789235115,-0.2677420079708099,0.1812022626399994
1749037770.0390043,5.76541054669071,0.15290798907686004,-2.2963923955748,5.337926089241809,0.18299878396156097,-4.430574782067003,-0.15114479798259253,-0.04864518446244452,0.0516579530193127,-0.15495374062326492,-0.026661189099350294,0.06285148799759434,-0.4229994714260101,-1.1762193441390991,0.7794076800346375,-0.2234019339084625,-0.2562982141971588,0.1660009622573852
1749037770.0393903,5.765097738471714,0.15281172754481043,-2.2962821311589052,5.337617733475206,0.1829426970197936,-4.430445650003254,-0.15256653983556273,-0.049518572284075545,0.05224592166084201,-0.15689726406459603,-0.02691886813838315,0.06289389349040612,-0.4080152511596679,-1.179525375366211,0.7784703969955444,-0.2271110862493515,-0.2414964735507965,0.1650657504796981
1749037770.0413642,5.764782186526906,0.15271323195002287,-2.296170529179878,5.337305963173784,0.18288600386336812,-4.4303166010991015,-0.15401738719843405,-0.05036902587157495,0.052792945709775586,-0.15896606115374773,-0.027148212951701372,0.06290046694913842,-0.4216627776622772,-1.133273959159851,0.7469481229782104,-0.206339031457901,-0.2512639164924621,0.1780020147562027
1749037770.082283,5.764463921568964,0.15261254949421688,-2.296057869979973,5.33699047163058,0.1828288260534674,-4.43018777713685,-0.15551027866708345,-0.051182625677383756,0.05329399322338904,-0.16116768915743898,-0.027357696565240033,0.06289897150737829,-0.412945806980133,-1.164994478225708,0.7401773929595947,-0.1854362785816192,-0.2656401991844177,0.184176355600357
1749037770.0823293,5.764142983459563,0.1525097881077931,-2.295944473960802,5.336670881368908,0.18277127867687254,-4.430059249600803,-0.1570555527428506,-0.051946728121819885,0.05374575766551518,-0.16350253835905035,-0.027556855792865653,0.06291776150924222,-0.4319719076156616,-1.1722564697265625,0.7519438862800598,-0.2203051298856735,-0.2515833377838135,0.1660505533218383
1749037770.082369,5.763819429273768,0.15240511168371088,-2.295830686716234,5.336346765334217,0.18271346721314854,-4.429931024957969,-0.15866007954105207,-0.052651018155168296,0.05414667767276124,-0.1659618075528665,-0.027755183168484025,0.06298436855327755,-0.4373724460601806,-1.1523756980895996,0.7401154637336731,-0.2272825539112091,-0.2667626142501831,0.1678829342126846
1749037770.082409,5.763493338593774,0.15229873169390123,-2.295716861537417,5.3360176790457645,0.18265548355891964,-4.429803053253024,-0.16032651423127434,-0.05328851775852037,0.054496823653880505,-0.1685254997231337,-0.02796095745460151,0.06312420119131341,-0.4472162127494812,-1.14837908744812,0.7415657639503479,-0.2616117596626282,-0.272641658782959,0.177569031715393
1749037770.0824466,5.763164815074068,0.15219089541888262,-2.295603340697734,5.3356832011177655,0.18259740247551948,-4.429675237282304,-0.16205276406277141,-0.05385644059705433,0.05479770439470861,-0.17116110635502993,-0.028180228851782906,0.06335940659307394,-0.4279729425907135,-1.156899094581604,0.7341261506080627,-0.2594932913780212,-0.2814510464668274,0.1724245995283126
1749037770.0824978,5.762833983692404,0.15208187063966805,-2.2954904368689215,5.335342977820722,0.18253927987714597,-4.429547440299765,-0.16383180432046912,-0.05435675854270768,0.05505206300714964,-0.17382365406016054,-0.02841615683729865,0.06370791141629417,-0.4702759981155395,-1.1228532791137695,0.7398179769515991,-0.2877402901649475,-0.2604842782020569,0.1925802826881408
1749037770.0825448,5.762500983436211,0.15197192686770541,-2.295378415692536,5.3349967664162765,0.18248115369166873,-4.429419491593418,-0.16565197082136163,-0.054796352434373856,0.055263722954818205,-0.17645758896981795,-0.028668827482576906,0.06418263763442388,-0.4784923195838928,-1.1130311489105225,0.7462067008018494,-0.2597218155860901,-0.2509448528289795,0.1777403950691223
1749037770.082585,5.762165955310629,0.15186131426642352,-2.2952674801690236,5.334644471706678,0.18242304695248385,-4.429291190447472,-0.16749778679927388,-0.05518666420508031,0.055437522062381235,-0.1790006073394929,-0.028935572285667992,0.0647908849714456,-0.4311338067054748,-1.140602707862854,0.7524123787879944,-0.2866679430007934,-0.2407563477754593,0.1997956931591034
1749037770.0826223,5.7618290256119025,0.15175024260113174,-2.2951577573397377,5.334286170315675,0.1823649717987614,-4.429162309328213,-0.16935126543751516,-0.05554283555055647,0.05557934647521585,-0.18138909225484962,-0.02921170173453626,0.0655338861032366,-0.4039577543735504,-1.1005516052246094,0.7518867254257202,-0.217734545469284,-0.2559190392494201,0.1943428814411163
1749037770.0826595,5.761490284668941,0.15163886294717258,-2.295049287696411,5.33392211767999,0.1823069324131831,-4.429032596770695,-0.1711935074953025,-0.05588239285117514,0.05569625254570508,-0.18356441545866314,-0.02949148520245056,0.06640656332103936,-0.4480467438697815,-1.1468069553375244,0.7444311380386353,-0.2236632406711578,-0.230853646993637,0.2066761553287506
1749037770.082697,5.761149761979884,0.15152725440716522,-2.2949420177574966,5.333552733949736,0.1822489248510024,-4.428901780113464,-0.17300634331327736,-0.05622361068249958,0.05579664500109099,-0.1854791303408644,-0.029769176558814916,0.06739752782332369,-0.4525284469127655,-1.1818236112594604,0.752274751663208,-0.190633937716484,-0.2493061423301696,0.1981496512889862
1749037770.082734,5.760807400010553,0.15141541726496138,-2.2948357962927832,5.333178567449175,0.1821909325098283,-4.428769568394259,-0.1747737906990061,-0.05658374686552457,0.055890465045958244,-0.18710207910228038,-0.030039908732142632,0.06848935508465308,-0.4579821825027466,-1.1637130975723269,0.7786862254142761,-0.2054813653230667,-0.2487367838621139,0.1990962028503418
1749037770.0827706,5.760463030668568,0.1513032732842281,-2.29473037475749,5.332800238157262,0.18213291767783227,-4.428635656201495,-0.17648320410554685,-0.056977367716906785,0.055989328945913935,-0.18842165756706547,-0.030300346905125963,0.06965915402770577,-0.4390336871147156,-1.1272739171981812,0.766875684261322,-0.2031150460243225,-0.2576485872268677,0.2312275767326355
1749037770.0828073,5.760116359901665,0.1511906733378302,-2.2946254125700936,5.3324183682449915,0.18207481159991792,-4.428499729667329,-0.17812611509357132,-0.05741495793514854,0.056106543473104266,-0.18944686111861472,-0.030549064944037314,0.0708794468284481,-0.4846736788749695,-1.1670477390289309,0.7962478399276733,-0.2088374495506286,-0.2539898157119751,0.2121739387512207
1749037770.0828435,5.759766966192554,0.15107741206160238,-2.294520487901929,5.332033510875297,0.1820165067835237,-4.428361475952289,-0.17969884294855207,-0.0579019556692009,0.05625691501770865,-0.19020616423234715,-0.030786655564664544,0.07211938915482055,-0.4835444688796997,-1.166608810424805,0.7833867073059082,-0.1847452521324157,-0.2352780848741531,0.2223239839076995
1749037770.0828805,5.759414317680639,0.15096324859375035,-2.2944151146035536,5.331646090850085,0.18195785508339032,-4.428220597519155,-0.18120295716759835,-0.058438301618044385,0.05645627631208147,-0.19074463910860195,-0.031015590822418497,0.0733463532651337,-0.4542902410030365,-1.152003526687622,0.8036330342292786,-0.2162997871637344,-0.238168403506279,0.2267626971006393
1749037770.0829177,5.75905781045858,0.15084793177618072,-2.2943087656638195,5.331256370057298,0.1818986736214634,-4.428076832086219,-0.18264560849138736,-0.059018542425807625,0.05672068628594055,-0.1911199125520142,-0.03123984168586002,0.07452784039656328,-0.3950036168098449,-1.1579437255859375,0.7722546458244324,-0.1901103258132934,-0.2445648312568664,0.2151857614517212
1749037770.0829537,5.758696827345169,0.15073122768761238,-2.29420090301479,5.330864446366479,0.1818387586035227,-4.427929978150777,-0.18403964806351986,-0.0596324664588959,0.05706531322542198,-0.19139758012317767,-0.03146427924776886,0.07563360260052517,-0.4576249122619629,-1.140637755393982,0.8034221529960632,-0.1756122708320617,-0.246448665857315,0.1905027031898498
1749037770.082991,5.758330811906525,0.15061294700905967,-2.294091012404949,5.330470286953672,0.1817779052383178,-4.427779924190227,-0.18540338437833764,-0.0602661801027896,0.05750308498941497,-0.191646581468324,-0.03169392479194667,0.07663779176208535,-0.4842040538787842,-1.133053183555603,0.8460825681686401,-0.1813759356737136,-0.2568691670894623,0.2194283902645111
1749037770.0830276,5.757959346836808,0.15049296915156712,-2.2939786404373788,5.330073787472675,0.18171593046771958,-4.42762667709427,-0.18675983937056376,-0.060903480858469916,0.05804327360550822,-0.1919348639974454,-0.031933167560884705,0.07752095265663374,-0.4842040538787842,-1.133053183555603,0.8460825681686401,-0.1813759356737136,-0.2568691670894623,0.2194283902645111
1749037770.083345,5.757582220539149,0.15037125932714268,-2.293863429041688,5.329674839790031,0.18165269422281802,-4.427470382770347,-0.18813545784595298,-0.061527366921072565,0.0586902469485816,-0.1923255131816244,-0.03218509368196154,0.07827171988544145,-0.4750783443450928,-1.1022909879684448,0.8569350242614746,-0.1743866056203842,-0.2709962129592895,0.2153563946485519
1749037770.085352,5.757199464293413,0.15024787468473366,-2.293745141562126,5.329273387231905,0.1815881148802327,-4.427311330945861,-0.18955833771113623,-0.062121539997002755,0.05944262690479364,-0.19287346716368342,-0.032451047350273196,0.07888811004803395,-0.5169157385826111,-1.1238350868225098,0.8507881760597229,-0.1778537929058075,-0.2478316128253936,0.1970793157815933
1749037770.1262896,5.75681134816401,0.15012295730864952,-2.2936236754921158,5.328869450910177,0.1815221759634832,-4.427149938710932,-0.1910561194612618,-0.06267179351997605,0.06029302531817881,-0.19362294829252083,-0.03273047967374433,0.07937828768690525,-0.5115708112716675,-1.1255416870117188,0.8651873469352722,-0.2070044428110122,-0.2509427368640899,0.2066872864961624
1749037770.1263406,5.756418335779992,0.14999671515459292,-2.2934990598639575,5.328463122492299,0.1814549235993931,-4.426986712972784,-0.19265368805346583,-0.06316720959508035,0.061228412316629885,-0.1946057618700868,-0.033021060291654726,0.07976065057725186,-0.4879863858222961,-1.1069366931915283,0.8445593118667603,-0.2165293991565704,-0.2404095232486724,0.1960345655679702
1749037770.1263828,5.7560210098714455,0.14986939523857612,-2.293371438949006,5.328054531067341,0.18138645660884584,-4.4268221979083835,-0.1943708307667263,-0.0636010978487359,0.062231051688621565,-0.1958405648941436,-0.03331897505988679,0.08006307736828912,-0.5053442120552063,-1.059728980064392,0.8525913953781128,-0.2187581956386566,-0.2629323601722717,0.199873149394989
1749037770.1264217,5.755619985851461,0.14974125485704706,-2.293241046367537,5.327643798105674,0.18131691230388697,-4.426656916774983,-0.19622001413178125,-0.06397160278399616,0.06327985294814835,-0.1973330804672552,-0.03361933574994129,0.08032123577618444,-0.3983226716518402,-1.055833339691162,0.8191708326339722,-0.1941423863172531,-0.2401337623596191,0.1832899451255798
1749037770.12646,5.75521582936979,0.14961253595522903,-2.2931081743131085,5.327230994124319,0.1812464509447473,-4.426491317354681,-0.19820453090554893,-0.06428191078178043,0.06435196287037234,-0.1990770676172206,-0.03391666972281918,0.08057595796248312,-0.4275467991828918,-1.0773396492004397,0.819360077381134,-0.1518880873918533,-0.2427554428577423,0.1865254193544387
1749037770.126498,5.754808989215106,0.14948344586025697,-2.292973141980578,5.326816106856952,0.18117524097218413,-4.4263257281368,-0.20031739502089327,-0.06454002635290268,0.06542445062378421,-0.20105572687088374,-0.0342054982770775,0.0808698336888301,-0.493013858795166,-1.0874425172805786,0.8273413181304932,-0.1709609627723693,-0.2614533603191376,0.1901727318763733
1749037770.126535,5.754399752199563,0.14935414546046802,-2.292836266310834,5.3263990263678815,0.1811034462127561,-4.426160329623662,-0.20254140968573153,-0.06475814892933167,0.06647599396651899,-0.20324320673974117,-0.03448101791658525,0.0812433242919774,-0.6156759262084961,-1.0878891944885254,0.882172167301178,-0.1567165553569793,-0.2748442888259887,0.2137057781219482
1749037770.126572,5.753988222675136,0.14922474414784803,-2.292697837277366,5.325979548618089,0.18103121561102137,-4.425995142651795,-0.2048506734790082,-0.06495173318358775,0.06748849078167721,-0.20560600714872662,-0.03473985538723154,0.08173081906133257,-0.5209059715270996,-1.109984278678894,0.82832932472229,-0.1797820776700973,-0.2563005089759826,0.1966374665498733
1749037770.1266088,5.753574326058321,0.14909529976914884,-2.2925580990976457,5.325557395615831,0.1809586757381409,-4.425830033481562,-0.20721341622879674,-0.06513833907848439,0.06844847169485918,-0.20810430603407085,-0.034980785471842274,0.08235709791422544,-0.5049883127212524,-1.128962159156799,0.8464903831481934,-0.207803338766098,-0.2582048177719116,0.2032491564750671
1749037770.126646,5.753157833018277,0.1489658215234087,-2.292417237796253,5.325132247642969,0.18088592618460098,-4.425664733684185,-0.20959563595489542,-0.06533637992634173,0.06934811550758027,-0.21069345692040262,-0.035205222347536286,0.08313462125558252,-0.455603152513504,-1.0794034004211426,0.8282731771469116,-0.2110420018434524,-0.2634445428848266,0.203067198395729
1749037770.1266837,5.752738398922767,0.1488362740094386,-2.292275374680049,5.324703781437831,0.1808130376862731,-4.425498871766262,-0.21196477104299097,-0.06556387093618664,0.07018564751792547,-0.2133259993176818,-0.035417282845036584,0.08406196879342337,-0.5492178797721863,-1.1597719192504885,0.811238169670105,-0.2258990406990051,-0.2412949353456497,0.2254284620285034
1749037770.1267204,5.752315612131674,0.14870658125346845,-2.2921325649599833,5.324271707763375,0.18074005240614302,-4.425332013129571,-0.21429270965705396,-0.06583727049914925,0.0709649769878193,-0.21595441463765838,-0.03562331294362879,0.0851236228646218,-0.5219172239303589,-1.1357499361038208,0.8440820574760437,-0.2249764651060104,-0.2457295060157776,0.2309350967407226
1749037770.1267571,5.751889044959385,0.14857663040636063,-2.2919888010409166,5.323835802382097,0.18066698550737967,-4.425163705026481,-0.2165577394265634,-0.06617048502015366,0.07169458562660413,-0.21853456292373136,-0.03583094690267831,0.0862911424244244,-0.5033920407295227,-1.1029599905014038,0.8107495903968811,-0.1967469006776809,-0.2878639996051788,0.2213883697986602
1749037770.1267936,5.751458302124662,0.14844627563966872,-2.291844020392926,5.323395925992867,0.1805938272380609,-4.424993522961893,-0.2187453870558392,-0.06657406956451126,0.07238585366146984,-0.22102936623741457,-0.0360479532814762,0.08752560771005825,-0.5249398946762085,-1.1297259330749512,0.831565797328949,-0.1695565581321716,-0.2846630811691284,0.1920626014471054
1749037770.12683,5.7510230625251,0.1483153432723099,-2.291698117848586,5.322952031106368,0.18052054500061027,-4.424821114211517,-0.22084833472505627,-0.0670546147708999,0.07305113735799419,-0.2234120320604562,-0.03628121462535002,0.08878106901158134,-0.566523015499115,-1.143778920173645,0.8640736937522888,-0.1476507633924484,-0.2982616424560547,0.2262797057628631
1749037770.1268663,5.750583110987606,0.14818363922511993,-2.291550961554868,5.322504156738276,0.18044708508052637,-4.424646233417793,-0.2228656854947729,-0.06761429553036433,0.07370194600913489,-0.2256680742844357,-0.03653612027647787,0.0900086461563803,-0.4907377064228058,-1.1475049257278442,0.8276783227920532,-0.110628604888916,-0.2881447076797485,0.2168867290019989
1749037770.1269066,5.750138357644992,0.14805095954771544,-2.291402411037862,5.322052414217757,0.18037337400762912,-4.424468765650286,-0.22480182659723388,-0.0682505808231684,0.07434749917351084,-0.22779562977759324,-0.036816440631179365,0.09116089923018268,-0.5406923890113831,-1.1428446769714355,0.839771032333374,-0.146163523197174,-0.2432310879230499,0.2204362899065017
1749037770.1269438,5.749688844007719,0.1479171039585856,-2.291252335367249,5.321596968385196,0.1802993199956458,-4.424288734176165,-0.2266650736695479,-0.06895614717270411,0.07499381072595648,-0.22980400061202516,-0.0371245090610945,0.09219609199911777,-0.4977931380271911,-1.158389925956726,0.8233134746551514,-0.1730397045612335,-0.2440361231565475,0.2096338719129562
1749037770.12698,5.74923473627999,0.1477818912100266,-2.291100629402781,5.321138017839413,0.18022481522899728,-4.424106292700651,-0.22846622370847353,-0.0697190744132015,0.07564330782532346,-0.23171080619954967,-0.03746141191069162,0.09308197396496164,-0.4776239395141601,-1.209228754043579,0.8150506615638733,-0.1953169703483581,-0.2430733442306518,0.1928661912679672
1749037770.1270163,5.748776307594091,0.1476451740498946,-2.2909472264723094,5.320675776398445,0.18014973966931525,-4.4239217040060135,-0.23021712582754125,-0.07052341432914869,0.07629490339298589,-0.2335384301083941,-0.03782695365413929,0.09379872495596403,-0.5224846601486206,-1.1613363027572632,0.8006160855293274,-0.2060088813304901,-0.2939242124557495,0.1868980079889297
1749037770.1273324,5.748313911608083,0.147506851079594,-2.290792106424122,5.320210456420279,0.18007396665374084,-4.423735308298886,-0.23192938766563911,-0.07135019596889508,0.07694441075311605,-0.23531049158964024,-0.03821936966084278,0.09434076171898448,-0.4991971850395202,-1.201046109199524,0.7898891568183899,-0.1891945600509643,-0.3034099638462066,0.1989611089229583
1749037770.129387,5.7478479503794135,0.14736687314359487,-2.2906352986836374,5.319742253551247,0.17999737009461875,-4.423547485250334,-0.23361333852966434,-0.07217886241311776,0.0775851940433749,-0.2370488846153183,-0.038634962370599484,0.09471720948560855,-0.5092144012451172,-1.18359637260437,0.8023903965950012,-0.2083939909934997,-0.2922380864620209,0.201697289943695
1749037770.1742947,5.747378839398817,0.14722524288383615,-2.290476880536956,5.319271331909521,0.17991983273223752,-4.423358613890195,-0.23527734543462525,-0.07298903884528704,0.07820896173939071,-0.23877164059282086,-0.03906791795977806,0.09495098073539567,-0.5407575368881226,-1.106432318687439,0.7909756302833557,-0.1640463769435882,-0.2952198982238769,0.1789457499980926
1749037770.1743407,5.746906972136962,0.147082007289587,-2.2903169711616025,5.31879780864494,0.17984125477596774,-4.423169034349467,-0.23692753192922805,-0.07376243913379235,0.0788066246909076,-0.24049163987623232,-0.03951049763159791,0.09507655473397675,-0.5465413928031921,-1.173677682876587,0.7930734753608704,-0.1967042982578277,-0.2711563408374786,0.1855303943157196
1749037770.1743815,5.7464326858418975,0.146937244005779,-2.2901557219489845,5.3183217372614795,0.17976156239832913,-4.422979015046821,-0.23856789680308316,-0.0744846586704597,0.07936915657717208,-0.24221609820673554,-0.03995365443001766,0.09513669450383458,-0.5202100872993469,-1.135303258895874,0.7764291763305664,-0.2313165366649627,-0.2940463721752167,0.2010796070098877
1749037770.174421,5.745956230038564,0.14679104276058802,-2.2899933037657214,5.317843090005452,0.17968071563348517,-4.422788728324348,-0.24020077079012717,-0.07514659903682151,0.07988841308866536,-0.24394675586545125,-0.04038798272602833,0.09517845560749595,-0.5093580484390259,-1.1391061544418335,0.7965599298477173,-0.2205241322517395,-0.2783566415309906,0.2020112872123718
1749037770.174459,5.7454777392869625,0.14664348393371993,-2.289829892352361,5.317361740798574,0.17959871494183763,-4.422598236632977,-0.24182748572893523,-0.07574532423738038,0.08035787949390595,-0.2456807087402959,-0.04080480741309563,0.09524891372238066,-0.4817782044410705,-1.1433953046798706,0.7915924191474915,-0.2228477895259857,-0.2576209306716919,0.2169567644596099
1749037770.1745,5.744997212173278,0.1464946173249551,-2.289665653940942,5.316877451389966,0.17951560512377204,-4.422407490072941,-0.24344908768380272,-0.07628423330857016,0.0807733140861267,-0.24741176486599728,-0.04119717788561618,0.09539105040344352,-0.5076051354408264,-1.1580065488815308,0.7409539818763733,-0.207591563463211,-0.2666405141353607,0.229484885931015
1749037770.174538,5.7445144991570265,0.14634444517618067,-2.2895007337206756,5.316389864561375,0.1794314749615801,-4.422216334708768,-0.2450669343924952,-0.07677252533614161,0.08113323257879972,-0.24913208456563657,-0.041560558560638484,0.0956401889544361,-0.5358643531799316,-1.1769124269485474,0.7658563852310181,-0.2022296488285064,-0.2787768542766571,0.232976496219635
1749037770.174576,5.7440293024981806,0.14619291353794736,-2.2893352493975048,5.315898509261146,0.1793464514916464,-4.422024530097735,-0.24668307360216088,-0.07722401785248978,0.08143915313000322,-0.25083375043697187,-0.04189310280566676,0.0960212800435065,-0.5170171856880188,-1.1317402124404907,0.7757277488708496,-0.2069469690322876,-0.2799985408782959,0.1985575556755066
1749037770.1746137,5.74354119151783,0.14603991473510924,-2.2891692908738475,5.315402822856286,0.17926068914629,-4.421831774006893,-0.24830035833193234,-0.07765545091493879,0.08169552792340747,-0.2525099214450402,-0.04219552651540122,0.09654722770440148,-0.4740630984306335,-1.1407339572906494,0.7424955368041992,-0.1835101693868637,-0.3011232912540436,0.2611015141010284
1749037770.1746511,5.743049635402517,0.14588530143160086,-2.2890029256408435,5.314902194240259,0.17917435548955163,-4.4216377320052445,-0.2499222829865742,-0.07808446314563675,0.08190934102149326,-0.2541553902870075,-0.042470702444525214,0.09721835274157588,-0.4429968297481537,-1.1501680612564087,0.753339409828186,-0.1880129873752594,-0.2797307968139648,0.250344455242157
1749037770.1746886,5.742554053374506,0.1457289103659471,-2.288836208302214,5.3143960276732845,0.17908761612911733,-4.421442069242939,-0.25155253653000875,-0.07852746452234749,0.08208943317424494,-0.25576661598874534,-0.042723130736724686,0.09802301619559663,-0.4462642669677734,-1.1750719547271729,0.7674453854560852,-0.2230425775051117,-0.2759234309196472,0.245666041970253
1749037770.1747253,5.742053878284049,0.14557059171678213,-2.2886691917423096,5.313883821310833,0.17900062132666114,-4.421244481325515,-0.2531943105791588,-0.07899765440535347,0.08224568884701676,-0.2573415137505139,-0.04295839971371613,0.09893933539268081,-0.4726365506649017,-1.1812666654586792,0.7988079786300659,-0.2372100949287414,-0.2605301141738891,0.2432841807603836
1749037770.1747625,5.74154862491265,0.14541023855186824,-2.2885019366322434,5.3133652477456055,0.17891349598314288,-4.421044720879531,-0.2548494842811155,-0.07950343458412261,0.08238826318256975,-0.2588793448407747,-0.0431826734640457,0.09993779899217675,-0.4726365506649017,-1.1812666654586792,0.7988079786300659,-0.2372100949287414,-0.2605301141738891,0.2432841807603836
1749037770.1747992,5.741037950147715,0.14524781034595033,-2.2883345154780352,5.312840219074695,0.1788263333603562,-4.420842616380838,-0.2565178881145151,-0.08004743501466305,0.08252701943987223,-0.26038094321096644,-0.04340218917651151,0.10098446510354667,-0.5217183828353882,-1.2037137746810913,0.7949932217597961,-0.2269048690795898,-0.282655656337738,0.2546948194503784
1749037770.1748364,5.740521691916719,0.14508334578985502,-2.288167008146531,5.312308919497259,0.1787391918146008,-4.420638080622981,-0.2581968602206788,-0.0806262999031714,0.08267128373189386,-0.2618493104302862,-0.04362275140858037,0.10204436535422973,-0.4594229161739349,-1.1903138160705566,0.7732150554656982,-0.2220926880836486,-0.268415242433548,0.247983306646347
1749037770.1748736,5.739999879410667,0.1449169631465147,-2.2879994883263484,5.311771795997057,0.1786520937635107,-4.420431108223182,-0.259881232871183,-0.08123127965686015,0.08282991782288553,-0.26329040869135806,-0.04384925200725484,0.1030847482533764,-0.478680282831192,-1.2281947135925293,0.7558896541595459,-0.2181374281644821,-0.2594549357891083,0.2300584614276886
1749037770.1749108,5.739472716028341,0.1447488498166895,-2.2878320036812054,5.31122950901521,0.17856502689508374,-4.420221764037933,-0.2615637682750946,-0.08184955376082927,0.08301160022728064,-0.26471386932973784,-0.04408527569835821,0.10407784729670125,-0.586449921131134,-1.1418503522872925,0.8295947909355164,-0.2584272623062134,-0.2839276194572449,0.2406027764081955
1749037770.1749475,5.738940543088447,0.14457924465002955,-2.2876645546400103,5.310682853981306,0.17847794803985487,-4.4200101658854045,-0.26323595904361885,-0.08246608957369528,0.08322513415413293,-0.2661333394242792,-0.04433285172523052,0.1050029299101446,-0.4719480276107788,-1.1649410724639893,0.7677104473114014,-0.2402863204479217,-0.2695930004119873,0.2468413114547729
1749037770.17499,5.73840379398081,0.14440841653150674,-2.2874970770209195,5.310132668064118,0.17839078947224923,-4.419796465097843,-0.2648890385007819,-0.08306574562631545,0.08347959089942975,-0.26756626573193804,-0.04459239864028504,0.10584747048566333,-0.4883552491664886,-1.1497145891189575,0.7654263377189636,-0.2504702806472778,-0.2853299081325531,0.2367061972618103
1749037770.1750283,5.73786294670339,0.14423664199779035,-2.2873294325586158,5.309579736157469,0.17830346638997407,-4.419580827806815,-0.2665150088597536,-0.08363528202461348,0.08378414796906485,-0.2690329976364659,-0.04486289723805802,0.10660739340567912,-0.5045316815376282,-1.119098424911499,0.7950698137283325,-0.2115274667739868,-0.2766674757003784,0.2271860539913177
1749037770.175065,5.737318480197884,0.1440641839470733,-2.2871614096155235,5.309024708410122,0.17821588399641874,-4.419363419042537,-0.2681075034036073,-0.08416496513156294,0.08414757979937648,-0.2705551674557509,-0.04514230228429862,0.10728643721012159,-0.4630830287933349,-1.148153305053711,0.8113991618156433,-0.240254133939743,-0.2777583003044128,0.2402754724025726
1749037770.1751025,5.736770837654061,0.1438912730229543,-2.286992734313338,5.308468039178654,0.17812794311772231,-4.419144390768362,-0.26966235962275004,-0.08464954695877328,0.08457747913210929,-0.2721534192829366,-0.045428151560696683,0.10789477983525765,-0.4889278411865234,-1.1636905670166016,0.817700207233429,-0.2341797351837158,-0.273525059223175,0.2288044989109039
1749037770.175328,5.736220398188622,0.14371809294057908,-2.2868230904235105,5.307909953743385,0.1780395439923417,-4.41892387404501,-0.27117787013596933,-0.08508853339968399,0.0850793852256104,-0.2738447313153959,-0.04571826520140478,0.10844712481349694,-0.4817251861095428,-1.182940125465393,0.8232166767120361,-0.263869434595108,-0.2576323747634887,0.2046378254890442
1749037770.1773114,5.735667457102455,0.14354477079469247,-2.286652144974797,5.307350444585279,0.17795058836578317,-4.4187019750221905,-0.2726547550311875,-0.08548578759793714,0.08565603303511683,-0.2756397646808539,-0.04601138456688458,0.10896048502389727,-0.4751720130443573,-1.1321202516555786,0.8493619561195374,-0.2556812763214111,-0.278983473777771,0.2454162240028381
1749037770.2183075,5.735112214296775,0.14337137300280503,-2.2864795757617045,5.306789294442877,0.1778609804296624,-4.4184787744636145,-0.27409592642907976,-0.08584861035403304,0.08630690710673793,-0.2775407736526452,-0.04630760107255553,0.10945192928964333,-0.5230345129966736,-1.216775894165039,0.8753817677497864,-0.3066839277744293,-0.2963986396789551,0.2513148188591003
1749037770.2183545,5.734554770293615,0.14319790685950473,-2.286305096722949,5.306226119966072,0.1777706275278844,-4.418254330610453,-0.27550608745730054,-0.08618648815677175,0.0870282012127533,-0.27954054706492176,-0.04660846837567972,0.10993657173528433,-0.4514554142951965,-1.1864047050476074,0.8465390801429749,-0.2747751474380493,-0.2746115028858185,0.2227477878332138
1749037770.218395,5.733995129585794,0.1430243269692248,-2.2861284776182695,5.305660428184141,0.1776794415678702,-4.418028684983489,-0.276891167279253,-0.08650971597398643,0.08781317542484111,-0.28162262195185433,-0.046916759517406606,0.11042605000455008,-0.5235593318939209,-1.158430814743042,0.8743717670440674,-0.2707264125347137,-0.2844322025775909,0.2394050657749176
1749037770.2184348,5.733433211530009,0.1428505454977637,-2.285949555711485,5.30509167794675,0.17758734148857103,-4.417801870232345,-0.27825760088530244,-0.08682810324509155,0.0886528003134763,-0.28376271111378387,-0.047235909070648126,0.11092764215784624,-0.4940204620361328,-1.184007167816162,0.8236105442047119,-0.2674579620361328,-0.2893576920032501,0.2582389414310455
1749037770.2184734,5.732868869107909,0.14267644522822054,-2.2857682390493164,5.304519339282596,0.1774942563628171,-4.4175739186316605,-0.2796115219681891,-0.08714995451077319,0.0895365186883075,-0.2859310451221985,-0.04756925614310339,0.11144405501626985,-0.5108815431594849,-1.1739561557769775,0.8633547425270081,-0.2689899504184723,-0.3030956983566284,0.235782966017723
1749037770.2185173,5.732301915048503,0.14250189434960908,-2.28558450275815,5.303942944800207,0.17740012837390418,-4.417344869547756,-0.2809579943693809,-0.0874814650459522,0.09045295483596875,-0.2880952245468101,-0.047919258567887736,0.11197383013963803,-0.4804833531379699,-1.1813647747039795,0.8066595792770386,-0.2993605732917785,-0.3084360659122467,0.2403417825698852
1749037770.2185578,5.7317321532121985,0.14232676149190016,-2.285398380853741,5.303362128841056,0.17730491507026233,-4.4171147743279695,-0.2823004192694675,-0.0878265838570998,0.09139044791238549,-0.29022318682460463,-0.04828685849101754,0.11251225898233093,-0.5265912413597107,-1.1830116510391235,0.8455020189285278,-0.2768867611885071,-0.3140144944190979,0.2482888400554657
1749037770.218597,5.731159411621582,0.14215092911002847,-2.285209956071449,5.3027766521766,0.17720859059506172,-4.41688369766282,-0.28364023155707596,-0.08818729346703323,0.09233735768804159,-0.2922859367877776,-0.048671133234899244,0.11305264870035446,-0.5113493204116821,-1.1594911813735962,0.8360128998756409,-0.2647082805633545,-0.3208494484424591,0.242211565375328
1749037770.2186368,5.730583572831819,0.1419743034096074,-2.285019349472872,5.3021864123001246,0.177111145852491,-4.416651715328878,-0.28497696286935553,-0.08856417196121005,0.09328216871624526,-0.29425973526511673,-0.0490692793144177,0.11358773240508839,-0.4955016672611236,-1.184367537498474,0.8467116355895996,-0.2488204389810562,-0.3327319025993347,0.2257484793663025
1749037770.218687,5.730004597695785,0.14179681964135696,-2.284826710678557,5.301591441156382,0.17701258789190294,-4.416418908917849,-0.286308694631599,-0.08895706201022259,0.09421348242007155,-0.2961275176345068,-0.049476889991848017,0.11411099589467574,-0.4948552548885345,-1.1440563201904297,0.8404917120933533,-0.216296911239624,-0.3041242361068725,0.2222364842891693
1749037770.2187276,5.729422539715595,0.14161844241903865,-2.2846322089660123,5.300991893095039,0.1769129390760665,-4.416185358512353,-0.2876328386662215,-0.08936567862526769,0.09512001155391848,-0.2978794547399412,-0.04988842983763787,0.11461771392224288,-0.4974048137664795,-1.2013283967971802,0.8496478796005249,-0.2615941762924194,-0.3216903209686279,0.2303937971591949
1749037770.2187655,5.728837548533047,0.14143916146126342,-2.2844360252713747,5.300388026065955,0.17681223662602688,-4.415951134497716,-0.288947086730404,-0.0897900308065061,0.09599066653555174,-0.29951274284368307,-0.05029779064423603,0.11510555204790975,-0.4984628558158874,-1.1795974969863892,0.8328134417533875,-0.2709426879882812,-0.3116699457168579,0.2146308273077011
1749037770.218803,5.728249862367002,0.14125898378266216,-2.2842383452582973,5.29978017890425,0.1767105328649611,-4.415716289957626,-0.2902503101820654,-0.09023059186175993,0.0968147572663716,-0.3010308397155631,-0.05069882184477848,0.11557468196271413,-0.5264360904693604,-1.1940737962722778,0.7969468832015991,-0.297567754983902,-0.2937818169593811,0.2519466578960418
1749037770.218844,5.727659790370171,0.1410779238205506,-2.2840393538890056,5.299168747136085,0.17660789602351853,-4.415480855174661,-0.29154319231263087,-0.09068820795001616,0.09758225466816117,-0.3024423879596347,-0.051085755586373405,0.1160274556354591,-0.4651313722133636,-1.2058345079421997,0.7882480621337891,-0.255372405052185,-0.3078288435935974,0.2277925759553909
1749037770.2188818,5.727067686893386,0.14089599314255527,-2.2838392320692806,5.298554159120249,0.17650441088958824,-4.415244835369849,-0.29282842815331434,-0.09116377167275584,0.09828400710803184,-0.303759992234346,-0.05145348787010093,0.11646775901881459,-0.4793430268764496,-1.1730411052703855,0.7986470460891724,-0.239551842212677,-0.3102748095989227,0.2322350144386291
1749037770.2189195,5.726473920300316,0.1407131912348322,-2.2836381556967704,5.297936853608375,0.17640017810365363,-4.41500821199845,-0.2941104132697426,-0.09165771008799004,0.09891182659870126,-0.30499891779151816,-0.05179772698923775,0.11690020429199463,-0.4247435331344604,-1.2138621807098389,0.8013978004455566,-0.2075952589511871,-0.2938559651374817,0.2305023819208145
1749037770.2189574,5.725878839284632,0.14052949860791744,-2.2834362968755797,5.29731725907693,0.1762953109829813,-4.414770946989686,-0.2953944595293467,-0.09216935936367292,0.09945844458053774,-0.30617572917577446,-0.05211506186077225,0.11732932916314907,-0.4907927215099334,-1.1797386407852173,0.8010498881340027,-0.228810042142868,-0.2915033102035522,0.2399843782186508
1749037770.2189946,5.72528273983595,0.1403448732302854,-2.2832338264964847,5.296695774618908,0.17618992960373853,-4.414532988656107,-0.29668570295331,-0.09269633214025781,0.0999174373021699,-0.30730691131077803,-0.052403011934227715,0.11775896453655707,-0.4952098131179809,-1.2314633131027222,0.7929884195327759,-0.27200448513031,-0.2968600392341614,0.2570296823978424
1749037770.2190323,5.724685836138579,0.14015925107049285,-2.283030917037958,5.296072752066391,0.17608415297751026,-4.41429427785067,-0.29798795315907733,-0.09323401758302163,0.10028327553026405,-0.30840757354225806,-0.052660088333692685,0.11819189620152146,-0.5201988220214844,-1.154396414756775,0.7764852046966553,-0.2543605864048004,-0.2881204485893249,0.2284228801727295
1749037770.219076,5.724088238605638,0.13997255112689075,-2.282827744281155,5.29544847957926,0.1759780908126571,-4.414054753314218,-0.29930272842315764,-0.09377536021356149,0.10055162818352015,-0.3094903670285539,-0.052885842745023684,0.11862986713712667,-0.4735251069068908,-1.238869547843933,0.7752107381820679,-0.2159801572561264,-0.2673267722129822,0.2522526383399963
1749037770.2193694,5.723489941805421,0.13978468461715846,-2.2826244866687238,5.294823167963155,0.1758718363852412,-4.4138143557435425,-0.3006286395329447,-0.09431102561860553,0.10071995311996844,-0.3105647084763987,-0.05308084080113777,0.11907386815684791,-0.5017759203910828,-1.2225266695022583,0.7888730764389038,-0.2498570829629898,-0.268221914768219,0.2583951950073242
1749037770.2213588,5.722890824147368,0.13959556709569235,-2.2824213214560096,5.294196941795949,0.1757654617346639,-4.413573030547727,-0.30196118775566266,-0.09482998930191602,0.10078828555325907,-0.3116363250977496,-0.0532464950640021,0.11952459149866676,-0.500790536403656,-1.2142411470413208,0.751838743686676,-0.2130770534276962,-0.2703237533569336,0.2372598350048065
1749037770.2622764,5.7222906598372605,0.13940513153734058,-2.282218417594674,5.293569837423429,0.17565901590128444,-4.413330729453645,-0.3032929616689662,-0.09532049864034572,0.10076004114119325,-0.31270708099758526,-0.0533847330778899,0.11998289144102244,-0.4971294403076172,-1.188745379447937,0.7620518207550049,-0.216839849948883,-0.2647008895874023,0.2542572021484375
1749037770.2623222,5.721689141927163,0.1392133402045856,-2.28201592608229,5.2929418089108164,0.17555252627670068,-4.413087411255163,-0.3046141514912472,-0.09577127331344694,0.10064262512160822,-0.3137750403924686,-0.053497541092122895,0.12045009904474496,-0.430822342634201,-1.1868479251861572,0.7715892195701599,-0.2295176386833191,-0.2765761613845825,0.2413341253995895
1749037770.2623696,5.72108591362359,0.13902019343688254,-2.2818139689707535,5.292312741509553,0.17544600248919806,-4.4128430421925815,-0.305913256612054,-0.09617274897784368,0.10044768670758239,-0.31483473727400163,-0.05358648244384177,0.12092807428317315,-0.4815605580806732,-1.193289875984192,0.7593358755111694,-0.2513789534568786,-0.2802563905715942,0.2482158541679382
1749037770.26241,5.720480603859144,0.13882573422507247,-2.281612628407138,5.291682470802336,0.17533944174793206,-4.412597596605367,-0.3071778710498742,-0.09651815542728755,0.10019095300830926,-0.3158776227974257,-0.05365231553441314,0.12141894967037559,-0.5353792309761047,-1.1317418813705444,0.7772127985954285,-0.2072841823101043,-0.2945706844329834,0.2411962449550628
1749037770.2624507,5.719872862910091,0.13863004835001053,-2.2814119372043544,5.291050805086182,0.17523283436573947,-4.412351058447754,-0.308395485815549,-0.09680425730997147,0.09989167402802916,-0.3168926547368977,-0.05369482730831095,0.12192460340671833,-0.5349056124687195,-1.2186200618743896,0.7584562301635742,-0.2143645137548446,-0.2986802756786346,0.2568498253822326
1749037770.2624898,5.719262394575225,0.13843326062740963,-2.2812118724787376,5.29041754896751,0.17512616846567913,-4.412103423955572,-0.30955428460440076,-0.0970316550607531,0.09957176829294564,-0.31786699338455665,-0.05371296365544663,0.12244596357643042,-0.4673832654953003,-1.2034437656402588,0.7894330024719238,-0.2084175944328308,-0.2932085990905761,0.2656468152999878
1749037770.2625277,5.718648982620327,0.13823552815825077,-2.2810123536489124,5.289782527085487,0.17501943358150768,-4.411854705417731,-0.3106438841937309,-0.09720462166355025,0.09925476294297617,-0.31878677732237765,-0.053705275857236355,0.1229822719311444,-0.5024724006652832,-1.2008570432662964,0.7793799638748169,-0.233530506491661,-0.3147842288017273,0.2488689869642257
1749037770.2625651,5.7180325103040905,0.13803703155428387,-2.2808132456072223,5.289145607553473,0.1749126235122859,-4.4116049358395255,-0.3116559205340909,-0.09733051747918083,0.09896459333859911,-0.3196379623303135,-0.053670605324631665,0.12353043366737226,-0.4861475229263305,-1.2089524269104004,0.7827685475349426,-0.2272924184799194,-0.2563123404979706,0.2540544867515564
1749037770.2626023,5.71741297267038,0.1378379651720583,-2.280614367435264,5.288506724749754,0.17480573898016366,-4.411354174190765,-0.3125843797189389,-0.09741887473915711,0.09872430198244525,-0.32040720833448083,-0.05360881989986847,0.12408456525564915,-0.5178206562995911,-1.1867254972457886,0.7976588010787964,-0.2148215174674987,-0.2489116340875625,0.2437959760427475
1749037770.2626388,5.7167904819257505,0.13763852754786637,-2.280415506697878,5.287865900712005,0.1746987904520815,-4.411102510766973,-0.3134256353893575,-0.0974802804183346,0.09855467976630998,-0.3210827910095087,-0.05352135178861199,0.12463583586789313,-0.4955350756645202,-1.2106784582138062,0.7926227450370789,-0.2169811725616455,-0.2452662587165832,0.2341150045394897
1749037770.2626762,5.716165266580119,0.13743891332360886,-2.2802164388007164,5.287223263907641,0.1745918012760192,-4.410850072064487,-0.31417823216826213,-0.09752521107347131,0.09847292669626947,-0.32165550663274933,-0.0534113225657493,0.12517267449808608,-0.49502032995224,-1.1912301778793335,0.811165988445282,-0.2076004892587661,-0.2484748363494873,0.2350514531135559
1749037770.2627132,5.715537665095818,0.13723930770860127,-2.2800169499250624,5.286579063618778,0.17448481116625433,-4.410597024575791,-0.31484250648818984,-0.09756297721489741,0.09849145724034411,-0.3221195407910612,-0.05328317803847099,0.1256813762123427,-0.5120614767074585,-1.20060396194458,0.8093804121017456,-0.2168718129396438,-0.2641037404537201,0.2374031990766525
1749037770.2627552,5.714908114557702,0.13703988383817325,-2.279816860975017,5.285933677569316,0.1743778797896685,-4.410343576861074,-0.31542015538176105,-0.09760091311345649,0.09861700756157676,-0.3224732707052257,-0.05314194416134336,0.12614709066528673,-0.515249490737915,-1.1955536603927612,0.865306556224823,-0.2056217193603515,-0.2751761078834533,0.2596417069435119
1749037770.262794,5.714277134318424,0.13684080252297837,-2.279616049365018,5.285287609963692,0.17427108956447676,-4.41008997897433,-0.3159138526441538,-0.09764390508561122,0.09885019102841952,-0.3227199362971791,-0.052992375855840934,0.12655512195877014,-0.4940537810325622,-1.1795010566711426,0.8435653448104858,-0.2065676152706146,-0.2869378328323364,0.248423546552658
1749037770.2628317,5.713645303903665,0.13664221315118788,-2.2794144655871613,5.284641477169519,0.17416454609575643,-4.409836517987623,-0.31632697163119,-0.09769429478339584,0.09918558742816393,-0.3228680433667506,-0.052838327599268556,0.126892413102444,-0.4608704447746277,-1.1915053129196167,0.8427063822746277,-0.1802675127983093,-0.2872914671897888,0.2333674430847168
1749037770.2628694,5.713013234232003,0.13644425403445892,-2.27921214208481,5.283995978985208,0.17405837450504752,-4.40958350824075,-0.3166634223459022,-0.0977521319822612,0.09961235722549999,-0.32293131138150993,-0.052682591606725844,0.12714903863277857,-0.500121533870697,-1.1627763509750366,0.8399968147277832,-0.1768465340137481,-0.2725204229354858,0.2349318712949752
1749037770.2629106,5.712381531809115,0.1362470504080034,-2.2790091926630627,5.283351854717715,0.17395271049684297,-4.409331275118575,-0.31692757330636406,-0.09781569516873512,0.10011527571536442,-0.3229280230706901,-0.052527262322425224,0.12731950483912904,-0.4762564599514007,-1.214116454124451,0.8181841373443604,-0.2039217352867126,-0.2555423378944397,0.2191245704889297
1749037770.2629492,5.711750756785871,0.13605070880650122,-2.278805801396939,5.282709825156478,0.1738476861330348,-4.409080131660838,-0.31712421060364104,-0.09788215969968912,0.10067601197555065,-0.32287977798345757,-0.052374489249540065,0.12740367099513197,-0.4679621160030365,-1.1613095998764038,0.8160783052444458,-0.2269662320613861,-0.2784389853477478,0.2507328391075134
1749037770.2629862,5.711121377055071,0.1358553075695379,-2.2786022009711093,5.282070523888925,0.1737434115833062,-4.408830348359033,-0.3172584743274889,-0.09794827860399137,0.10127445193315217,-0.3228098147632927,-0.05222736097681792,0.12740714932584132,-0.4397389888763428,-1.1953980922698977,0.8095148801803589,-0.2228965759277343,-0.2786116302013397,0.2317111492156982
