nimar13/UR3e_dataset_trayectorias/trayectorias_ejecutadas_filtradas/quintic/trayectoria_288_result_filtrado.csv
timestamp,q1,q2,q3,q4,q5,q6,qd1,qd2,qd3,qd4,qd5,qd6,tau1,tau2,tau3,tau4,tau5,tau6
1749039096.7585003,-2.5186039844351087,-2.0802490536887768,-2.490683238116954,3.8195872321366426,-6.209619568072575,5.761281467079949,0.00021385144931472796,0.0012365401383773022,0.002141383645013131,-0.002207339533847752,0.0011177778428619813,-0.003338822370941656,0.2482616007328033,0.8724350929260254,-0.0544956177473068,-0.3064103722572326,0.2567879557609558,0.0466251969337463
1749039096.7585795,-2.5185998964290346,-2.0802474076278608,-2.4906851905196357,3.8195811567213496,-6.209610035243869,5.761275369982078,0.00020294623180688122,0.0011155711639089599,0.001893403739671156,-0.0022079457725420496,0.0011494228558544517,-0.003266065821122476,0.2340121567249298,0.8582665920257568,-0.0644334778189659,-0.3113048672676086,0.2618716359138489,0.0547875985503196
1749039096.7586496,-2.518595920584807,-2.0802457916903774,-2.4906869436836785,3.819575320347746,-6.209600787614694,5.761269546436894,0.0001942739442115676,0.0009999293237327026,0.001652612321762339,-0.002205246825946208,0.00117563152364285,-0.0031884365940430676,0.2340121567249298,0.8582665920257568,-0.0644334778189659,-0.3113048672676086,0.2618716359138489,0.0547875985503196
1749039096.7587185,-2.5185922500197497,-2.0802441629045374,-2.4906883653134972,3.819569936095835,-6.209592098520864,5.7612641661153186,0.00018855462958592247,0.0008931386197494732,0.0014252284554981704,-0.002195346504613581,0.0011914067710971081,-0.003102589751870327,0.2411625683307647,0.861251711845398,-0.0506327711045742,-0.332394540309906,0.2896485030651092,0.0411796867847442
1749039096.7587852,-2.5185890633866665,-2.0802424672237563,-2.4906893516458415,3.8195651873139584,-6.209584202712394,5.761259362196861,0.00018635841249529117,0.0007981775153849833,0.0012164761433713987,-0.0021746237202418615,0.0011929948456040982,-0.0030055392903833088,0.2411625683307647,0.861251711845398,-0.0506327711045742,-0.332394540309906,0.2896485030651092,0.0411796867847442
1749039096.7588532,-2.518586511482171,-2.080240643794175,-2.490689833177252,3.8195612144784006,-6.20957728407349,5.761255225783232,0.00018801085876789706,0.0007172899199247125,0.0010302600949801876,-0.0021399532791687025,0.0011782401199925481,-0.0028948919960334763,0.2486827075481414,0.878559410572052,-0.0461443252861499,-0.3189007639884949,0.2619749307632446,0.0432333797216415
1749039096.7589328,-2.5185847049141823,-2.080238632786369,-2.4906897768831824,3.8195581065317223,-6.209571466838751,5.761251802728743,0.0001935007144345685,0.0006518450220172563,0.0008689833392267531,-0.002088918220013689,0.0011466945021475136,-0.0027691478548421402,0.234681099653244,0.8654009103775024,-0.0511914640665054,-0.3279451727867126,0.2739366590976715,0.0180193707346916
1749039096.7590003,-2.5185837047418786,-2.080236385529279,-2.490689185606608,3.819555896882584,-6.209566810538182,5.761249092196984,0.00020240033561807463,0.0006022534831528945,0.0007335203428748241,-0.0020200069469849327,0.0010995024076828816,-0.002628009240045378,0.234681099653244,0.8654009103775024,-0.0511914640665054,-0.3279451727867126,0.2739366590976715,0.0180193707346916
1749039096.759066,-2.5185835179612654,-2.080233874617251,-2.4906880956964357,3.819554563674324,-6.209563309662273,5.761247046906219,0.00021381053224511592,0.0005679438434526014,0.0006233370751133363,-0.0019327857098111346,0.0010391156816783856,-0.0024726135489498632,0.2115872204303741,0.8626275062561035,-0.0445665717124938,-0.3191684186458587,0.2998024225234985,0.0522635541856288
1749039096.759132,-2.518584099022742,-2.0802311013118455,-2.4906865737104216,3.8195540337419573,-6.209560899193499,5.761245575988543,0.0002263421521801868,0.0005474016871017829,0.0005367301782305767,-0.0018280299221987,0.0009689055422248723,-0.002305601474434381,0.2115872204303741,0.8626275062561035,-0.0445665717124938,-0.3191684186458587,0.2998024225234985,0.0522635541856288
1749039096.7592072,-2.5185853573614354,-2.0802280982220074,-2.4906847122599056,3.8195541896292826,-6.20955946630215,5.761244551871486,0.0002381461865780117,0.0005382741534879326,0.00047114467917002214,-0.0017077883545970416,0.0008927354809117008,-0.0021309582885963734,0.2574818432331085,0.8850942850112915,-0.0260161384940147,-0.3291177749633789,0.2905068695545196,0.0223131999373435
1749039096.7592747,-2.5185871695059503,-2.0802249267778374,-2.4906826244559426,3.8195548789166276,-6.209558867070403,5.761243822036007,0.00024700222692624447,0.0005375420642239269,0.00042352487772907523,-0.0015753488236740561,0.0008145479872225348,-0.0019536125178305436,0.2715060114860534,0.8767426013946533,-0.0409340038895607,-0.3216556012630462,0.2808560729026794,0.0584965832531452
1749039096.7593424,-2.5185893931721655,-2.0802216707617744,-2.4906804363972888,3.819555924982821,-6.209558945703963,5.761243225029174,0.0002504716102719642,0.0005417594550261389,0.0003906557027873651,-0.0014350797670224418,0.0007380049238578025,-0.0017788325667000464,0.2715060114860534,0.8767426013946533,-0.0409340038895607,-0.3216556012630462,0.2808560729026794,0.0584965832531452
1749039096.75941,-2.5185918803707312,-2.080218428206536,-2.490678277670354,3.8195571384074443,-6.2095595528396075,5.7612426084937605,0.00024611652685104,0.0005473540918279139,0.0003694599017801744,-0.0012921407463414919,0.0006662081770246252,-0.0016115106816462857,0.2522134184837341,0.8876522779464722,-0.0403044745326042,-0.3291522264480591,0.2918333113193512,0.0222272463142871
1749039096.7594757,-2.5185944872838135,-2.080215303759842,-2.4906762705399035,3.8195583285852948,-6.209560559647401,5.7612418460397485,0.000231779854899813,0.0005509723013080062,0.000357226911330742,-0.0011520803264298786,0.0006015139086362097,-0.0014554503842744415,0.2608244717121124,0.8648053407669067,-0.0400818400084972,-0.3203354179859161,0.2854158878326416,0.0276585556566715
1749039096.7595408,-2.518597080261721,-2.08021240246799,-2.4906745191309287,3.819559315502296,-6.209561865484841,5.761240849852635,0.00020591286100419791,0.0005498392094276727,0.0003517594198136402,-0.0010203621191963801,0.0005454414376040927,-0.001312773425806767,0.2608244717121124,0.8648053407669067,-0.0400818400084972,-0.3203354179859161,0.2854158878326416,0.0276585556566715
1749039096.7596056,-2.5185995389401405,-2.08020982474556,-2.4906731002793667,3.8195599415759904,-6.209563398441175,5.761239576937213,0.0001679297279262682,0.0005420955482293918,0.00035143216466935155,-0.000901872007211448,0.000498668106608293,-0.0011835424028227536,0.2874415218830108,0.8632410764694214,-0.0483117662370204,-0.315346896648407,0.2837602794170379,0.0335903130471706
1749039096.7596698,-2.5186017583269504,-2.08020766176519,-2.490672057633466,3.81956008293244,-6.209565109642016,5.761238028557243,0.00011855992290439043,0.0005270690476256847,0.0003551646057057018,-0.0008004601791900387,0.0004610950154447732,-0.0010656659396535934,0.2874415218830108,0.8632410764694214,-0.0483117662370204,-0.315346896648407,0.2837602794170379,0.0335903130471706
1749039096.7597375,-2.5186036514291774,-2.080205990636292,-2.4906713999161725,3.8195596589524032,-6.2095669633809205,5.761236244158617,6.0162655405284777e-05,0.0005054437364139381,0.00036231556731251336,-0.0007185634917862332,0.00043196491958987307,-0.000955120981803152,0.2851446270942688,0.8734618425369263,-0.042107917368412,-0.3256384134292602,0.2803195118904114,0.0320530347526073
1749039096.7598047,-2.5186051528726314,-2.0802048691283566,-2.4906711033179465,3.8195586388618787,-6.20956892595081,5.761234292042573,-3.0368080098036983e-06,0.0004793019636072841,0.00037251417151053885,-0.0006569414300471757,0.00041001274242586077,-0.0008464928803503069,0.2932762205600738,0.8695175051689148,-0.0386501923203468,-0.3277658522129059,0.2828894555568695,0.05516142770648
1749039096.759958,-2.518606222621353,-2.0802043300166777,-2.4906711172576315,3.8195570445459976,-6.209570956301281,5.761232258885652,-6.483026619038819e-05,0.00045202760875720445,0.00038544728075718163,-0.0006145465926642154,0.0003936308933689392,-0.0007337994513809425,0.2932762205600738,0.8695175051689148,-0.0386501923203468,-0.3277658522129059,0.2828894555568695,0.05516142770648
1749039096.7614212,-2.5186068479804375,-2.0802043753949673,-2.4906713724360525,3.8195549492221565,-6.20957300105814,5.761230239340199,-0.00011706706315566651,0.0004280718546959199,0.0004006288788376957,-0.0005885404545411262,0.00038103514058913793,-0.0006115324699000721,0.309887945652008,0.8963469862937927,-0.0423399247229099,-0.3139557242393493,0.277459055185318,0.0346407853066921
1749039096.80251,-2.5186070419865887,-2.080204971625514,-2.490671790110128,3.8195524718494838,-6.2095749950117645,5.761228326239342,-0.00014988129629773942,0.0004125940873080999,0.0004171808026502409,-0.0005744576434802346,0.0003704209202523146,-0.0004758222643249936,0.309887945652008,0.8963469862937927,-0.0423399247229099,-0.3139557242393493,0.277459055185318,0.0346407853066921
1749039096.802591,-2.5186068370339276,-2.080206045949153,-2.490672291640339,3.8195497673467256,-6.209576866456036,5.761226601729904,-0.00015212108697903348,0.0004110004259311253,0.00043365631293481037,-0.0005665163893655953,0.00036010380104496145,-0.0003256106374011729,0.2999870181083679,0.8681203126907349,-0.0503538474440574,-0.3023225665092468,0.2789089381694793,0.046024601906538
1749039096.8026624,-2.518606273776632,-2.080207485984127,-2.4906728074744207,3.819547013173344,-6.209578545448863,5.761225129652692,-0.00011197597713491198,0.00042841202315992307,0.0004479375891074965,-0.0005580680195875369,0.00034864115061545615,-0.00016370573315940777,0.3087945282459259,0.8624616861343384,-0.0644614845514297,-0.3103494048118591,0.2861175835132599,0.0397758297622203
1749039096.802734,-2.5186053866211924,-2.080209143219748,-2.4906732848038002,3.819544393561907,-6.20957997248558,5.761223949345236,-1.7775010935786393e-05,0.00046910499932188346,0.000457234982760034,-0.0005421731238568604,0.0003349348437396162,2.409428451595409e-06,0.3087945282459259,0.8624616861343384,-0.0644614845514297,-0.3103494048118591,0.2861175835132599,0.0397758297622203
1749039096.802805,-2.5186041882158396,-2.0802108410070144,-2.4906736932043065,3.8195420831639546,-6.2095811051318766,5.761223070808549,0.00014109773623557695,0.0005359729030420659,0.00045820944812054057,-0.0005122849266641104,0.0003183168485093979,0.00016013482980789556,0.3203549087047577,0.854101300239563,-0.0706413090229034,-0.2965638041496277,0.2635806202888489,0.0516322068870067
1749039096.8028738,-2.5186026559666645,-2.0802123864768265,-2.4906740276284545,3.8195402316668003,-6.209581920733594,5.7612224709969615,0.0003732484238425349,0.000630069081887466,0.00044722981748067505,-0.0004630105450286633,0.0002986204366965052,0.00029177920130117564,0.3203549087047577,0.854101300239563,-0.0706413090229034,-0.2965638041496277,0.2635806202888489,0.0516322068870067
1749039096.802956,-2.518600723429719,-2.0802135846992527,-2.4906743081527765,3.8195389502775403,-6.209582414363193,5.7612220908591985,0.0006843776094011349,0.0007502880275822611,0.0004207638034529858,-0.00039090842291841966,0.0002762396869194523,0.00037512528710013026,0.3327017426490783,0.8984853625297546,-0.0874700397253036,-0.3095316588878631,0.2682993113994598,0.04719103500247
1749039096.803028,-2.518598278391126,-2.080214252938869,-2.4906745760755484,3.8195383005042043,-6.2095825924700145,5.761221832731747,0.0010765505001773471,0.000893239344141447,0.00037588663444775087,-0.000295266810526288,0.0002521793277909661,0.0003845645732972525,0.3741971552371979,0.908754587173462,-0.0817720368504524,-0.2925318479537964,0.2747300863265991,0.0488497354090213
1749039096.8030982,-2.5185951679797194,-2.0802142333454774,-2.490674886491552,3.819538285727998,-6.209582463881729,5.761221557883575,0.001547732443731967,0.0010533532185926077,0.0003108752766556917,-0.0001787958389812866,0.00022809615080234165,0.0002927782147894183,0.3442544043064117,0.8967334032058716,-0.0983161926269531,-0.2987200319766998,0.2818884253501892,0.0501527301967144
1749039096.8031683,-2.5185912099249386,-2.0802134033284676,-2.490675298234912,3.8195388463303517,-6.209582030532038,5.761221084432425,0.0020916592630530174,0.0012232299063976372,0.0002258406888839142,-4.815683990435776e-05,0.00020633224112664989,7.287866331737808e-05,0.35263791680336,0.9072405099868774,-0.094739593565464,-0.2927508056163788,0.2825128734111786,0.038764614611864
1749039096.8032618,-2.518586208410357,-2.0802116834964357,-2.4906758627385015,3.819539859076213,-6.209581280414945,5.761220186401026,0.0026980642884696054,0.0013942069031317012,0.0001233370764786664,8.575065237202364e-05,0.00018993909355344166,-0.0002991398259505273,0.3487319648265838,0.8828087449073792,-0.1059080734848976,-0.2760112285614013,0.2783587574958801,0.019366692751646
1749039096.803334,-2.5185799726512688,-2.0802090432286953,-2.4906766136164187,3.8195411409418107,-6.209580184723183,5.76121859520916,0.0033532329569448383,0.0015570719580176207,8.877315028663144e-06,0.00020781921077246565,0.00018269050093062424,-0.0008418565536629456,0.3487319648265838,0.8828087449073792,-0.1059080734848976,-0.2760112285614013,0.2783587574958801,0.019366692751646
1749039096.803403,-2.5185723360823884,-2.0802055038759524,-2.490677558525597,3.8195424569678904,-6.2095786999493345,5.761216005084916,0.00404082271589828,0.0017028162716861087,-0.00010872079854740905,0.0002991420772959779,0.0001890812766896816,-0.0015660499318472221,0.3405037224292755,0.8766406178474426,-0.1097035631537437,-0.294667512178421,0.2938165664672851,0.0136341825127601
1749039096.803473,-2.5185631740651386,-2.0802011393962765,-2.490678674212877,3.819543531378901,-6.209576774210544,5.761212083392696,0.004742882048605876,0.0018233230195954873,-0.00021723056758856627,0.0003378363167909643,0.00021430861279651372,-0.0024727815844210127,0.3405037224292755,0.8766406178474426,-0.1097035631537437,-0.294667512178421,0.2938165664672851,0.0136341825127601
1749039096.803548,-2.518552418471398,-2.080196074058376,-2.490679904916138,3.8195440611534033,-6.2095743557808,5.761206485824114,0.005441016647677548,0.0019119248231407983,-0.0003012173992351324,0.0003002817050436818,0.00026423312688128266,-0.0035522118627879986,0.3819883167743683,0.9004330039024353,-0.093682512640953,-0.3139515519142151,0.2879252731800079,-0.0139423683285713
1749039096.8036113,-2.5185400679520487,-2.0801904769342108,-2.490681163748768,3.8195437312457847,-6.209571401298679,5.761198875342172,0.006117656805624537,0.001963813182596351,-0.00034258778556852206,0.00016273205908366514,0.00034531704302403744,-0.004783353620132774,0.3619480729103088,0.905572474002838,-0.0842444598674774,-0.3137120008468628,0.2978736758232116,-0.0128341875970363
1749039096.803676,-2.5185261927189475,-2.0801845532973964,-2.4906823363671347,3.819542230585171,-6.209567881433349,5.7611889431339645,0.006757361248221428,0.0019763111738599595,-0.00032149979317586585,-9.679475066869301e-05,0.00046453658417586717,-0.006134859001444892,0.3619480729103088,0.905572474002838,-0.0842444598674774,-0.3137120008468628,0.2978736758232116,-0.0128341875970363
1749039096.8037388,-2.5185109325667447,-2.0801785334166456,-2.4906832859866888,3.819539267843592,-6.209563782613974,5.761176429550994,0.007348057446531978,0.0019490187952063483,-0.00021761030742878837,-0.0004964929962187596,0.0006292630669177075,-0.007566806608278046,0.3546322286128998,0.8665962815284729,-0.0515723749995231,-0.3450648486614227,0.3107015788555145,-0.0257706232368946
1749039096.8038027,-2.518494487288065,-2.0801726593138814,-2.490683858764138,3.819534585909434,-6.20955910445774,5.761161142903062,0.007882089259325237,0.001883821836293154,-1.15897913914381e-05,-0.0010488005326187173,0.0008471008831106626,-0.00903335599116374,0.3546322286128998,0.8665962815284729,-0.0515723749995231,-0.3450648486614227,0.3107015788555145,-0.0257706232368946
1749039096.803871,-2.518477099719997,-2.0801671700112543,-2.4906838888713887,3.819527974114333,-6.209553853614356,5.761142974080666,0.008356934539785726,0.0017847409209343684,0.0003132109936274212,-0.00175870190583738,0.0011256601638193568,-0.010486080310468689,0.3647222816944122,0.8800199627876282,-0.0355383530259132,-0.3476333916187286,0.3173159062862396,-0.0261660665273666
1749039096.804047,-2.5184590329782783,-2.0801622859757636,-2.490683203104107,3.8195192775110365,-6.20954803564067,5.761121905457123,0.008775470594660696,0.0016576040509854075,0.0007690998083229338,-0.0026225192205600674,0.0014722301927966724,-0.011877753074756782,0.3750351667404175,0.8897092342376709,0.0076542943716049,-0.378899484872818,0.330992728471756,-0.0445840880274772
1749039096.8053906,-2.5184405445542453,-2.0801581939410823,-2.4906816251954504,3.8195084027862083,-6.209541646900563,5.76109801323208,0.00914570305310216,0.001509556052541084,0.0013625742419149905,-0.003627370785297863,0.0018933146453912293,-0.013166316451337135,0.3750351667404175,0.8897092342376709,0.0076542943716049,-0.378899484872818,0.330992728471756,-0.0445840880274772
1749039096.846273,-2.5184218605559026,-2.080155033734504,-2.4906789799503195,3.8194953206321194,-6.2095346681509564,5.761071462971066,0.009479933717915182,0.0013484562872195724,0.0020932395965721487,-0.0047514078624723375,0.002394003000711624,-0.014318691727302041,0.3439208269119262,0.8618354201316833,0.0498208403587341,-0.3775357902050018,0.3353502750396728,-0.0603724680840969
1749039096.8463202,-2.518403153165714,-2.080152888823763,-2.490675097054985,3.8194800645785625,-6.209527060496686,5.7610424984343505,0.009793420889738811,0.001182240577742975,0.0029532829820055942,-0.005964851932481904,0.0029771896917158416,-0.015314040550477317,0.3439208269119262,0.8618354201316833,0.0498208403587341,-0.3775357902050018,0.3353502750396728,-0.0603724680840969
1749039096.846361,-2.518384523429005,-2.0801517818974604,-2.4906698142559716,3.819462726454011,-6.209518763308222,5.761011424131271,0.010102666768818195,0.0010183249065277356,0.003927612726913783,-0.007231769769108553,0.0036427052753761715,-0.016146091549842256,0.3272056579589844,0.8483845591545105,0.0325042605400085,-0.4033636748790741,0.3486150503158569,-0.0438253432512283
1749039096.8464005,-2.518365990491415,-2.0801516759942795,-2.4906629797022455,3.819443448858112,-6.2095096933902685,5.760978582690264,0.010423529672116674,0.0008631121910184147,0.004994681290912825,-0.008512454654020899,0.004386473710234995,-0.016824230779739744,0.3670509159564972,0.8390933871269226,0.0332114994525909,-0.4156582057476043,0.3641127943992615,-0.0366435125470161
1749039096.8464386,-2.518347488041334,-2.0801524807934944,-2.4906544535546953,3.819422415237705,-6.209499745575699,5.760944329006987,0.010769388179299313,0.0007216395557462636,0.006127908916904149,-0.009766229599751859,0.0051998401018192855,-0.01737320456469054,0.3670509159564972,0.8390933871269226,0.0332114994525909,-0.4156582057476043,0.3641127943992615,-0.0366435125470161
1749039096.8464775,-2.5183288687715217,-2.080154063035532,-2.490644109317013,3.8193998382054595,-6.209488796223229,5.760909003643894,0.011149577638126275,0.0005973795529496077,0.007297545779389184,-0.010954450104379919,0.006069214759034914,-0.017831466365945514,0.3744639754295349,0.8417041897773743,0.0572661906480789,-0.4169594347476959,0.3613865375518799,-0.0524811632931232
1749039096.846516,-2.5183099173829726,-2.0801562597595544,-2.490631835588223,3.819375946547275,-6.209476711493231,5.760872907519692,0.011568284052093964,0.0004921884793316817,0.00847277446954976,-0.012043464089215992,0.006976148198864843,-0.018248373967699467,0.405303955078125,0.8165934681892395,0.0661350563168525,-0.4398530721664428,0.3838640749454498,-0.0775526463985443
1749039096.8465536,-2.5182903716572125,-2.0801588929394734,-2.4906175390050125,3.8193509711148477,-6.209463361196421,5.760836278679634,0.01202402309616672,0.00040637998075264946,0.009623855958371782,-0.013007288325013097,0.007897891006645778,-0.01868057328545916,0.405303955078125,0.8165934681892395,0.0661350563168525,-0.4398530721664428,0.3838640749454498,-0.0775526463985443
1749039096.846591,-2.518269949742128,-2.08016178405579,-2.4906011489383544,3.8193251297515585,-6.209448637035757,5.7607992707242,0.01250975750929936,0.0003388933076161576,0.010724138383816115,-0.013829778171571385,0.008808419975855856,-0.019187968943673295,0.3692024350166321,0.8317146897315979,0.0788369104266166,-0.4332370460033417,0.3786795437335968,-0.0963231846690177
1749039096.8466282,-2.5182483805633225,-2.080164767239963,-2.490582623939287,3.819298611589863,-6.209432472242496,5.760761932034686,0.01301362485429999,0.00028752287407945515,0.011751768377309632,-0.014506095346996211,0.00967985564082762,-0.01982967620958262,0.3744619786739349,0.8216028809547424,0.0590454936027526,-0.4249652922153473,0.3726521134376526,-0.104765847325325
1749039096.8466651,-2.518225433593296,-2.0801676999423027,-2.4905619591194386,3.819271561383167,-6.209414858745952,5.760724185479354,0.013520176058511402,0.0002491785602373176,0.012690972439255736,-0.015043317910089775,0.010484171366056406,-0.020660284132134787,0.3748426735401153,0.8090030550956726,0.0967089533805847,-0.4275034666061401,0.3945509493350982,-0.0920687466859817
1749039096.8467026,-2.518200944287019,-2.0801704705445276,-2.4905391930140075,3.8192440649738173,-6.209395858348762,5.760685809724563,0.014011973825383583,0.00022015354328533225,0.01353281301067774,-0.015460094218432172,0.011195089418584308,-0.021726654028201575,0.3727542459964752,0.7840924859046936,0.0863870680332183,-0.4468242526054382,0.4050130546092987,-0.1216631010174751
1749039096.8467398,-2.518174832216131,-2.0801730027940875,-2.4905144123929857,3.8192161375071576,-6.209375605528891,5.760646425195048,0.014471368665522356,0.00019638662908089897,0.014275367386942054,-0.015785327952330216,0.011790052188725062,-0.023065358259280067,0.3727542459964752,0.7840924859046936,0.0863870680332183,-0.4468242526054382,0.4050130546092987,-0.1216631010174751
1749039096.8467772,-2.5181471099776997,-2.080175257132798,-2.4904877539521197,3.819187716291818,-6.209354300842627,5.760605489183861,0.014882257082888699,0.00017371584513952806,0.014923326320803688,-0.016055992516622607,0.012252135143300025,-0.02470076683528806,0.3557472229003906,0.7822449803352356,0.0811958089470863,-0.4354179203510284,0.4027212858200073,-0.1199028119444847
1749039096.846814,-2.5181178821339945,-2.080177228775119,-2.490459402414302,3.8191586598870395,-6.209332195161925,5.760562304607573,0.015231634819105019,0.00014812561765590215,0.015487065374561265,-0.016314282714094294,0.01257173834163278,-0.026643742369507582,0.3557472229003906,0.7822449803352356,0.0811958089470863,-0.4354179203510284,0.4027212858200073,-0.1199028119444847
1749039096.846851,-2.518087334760198,-2.080178942083568,-2.490429584886322,3.819128754005144,-6.209309566193188,5.760516045209641,0.01551079042102516,0.00011598937044867079,0.015981304598389614,-0.01660438472279949,0.012747872115709416,-0.028890912771456178,0.3527190387248993,0.7914372682571411,0.0900711417198181,-0.4477920532226562,0.4264675974845886,-0.1496198326349258
1749039096.8468883,-2.518055717464929,-2.080180441197387,-2.490398561322752,3.8190977235745986,-6.209286689891974,5.760465797318594,0.015716035316452156,7.43043278037702e-05,0.016423528867564405,-0.016969169984952542,0.012788855343473425,-0.031424535148785876,0.3150269389152527,0.7616203427314758,0.1025571376085281,-0.4672049880027771,0.4114004969596863,-0.1559859961271286
1749039096.8469253,-2.518023320583398,-2.0801817783455987,-2.49036661094689,3.81906524934525,-6.209263810313044,5.760410615508891,0.015848927117843185,2.0908533295793573e-05,0.0168323724525717,-0.017447104207102097,0.012712277626162607,-0.034213008730394096,0.3150269389152527,0.7616203427314758,0.1025571376085281,-0.4672049880027771,0.4114004969596863,-0.1559859961271286
1749039096.8469622,-2.517990450344062,-2.080183002838469,-2.4903340147278215,3.8190309869328964,-6.209241111879923,5.760349587244636,0.015916005832263377,-4.5336575542843786e-05,0.017226162046688122,-0.018069620590593284,0.012544137187729055,-0.037212109908604525,0.3464084565639496,0.7524794340133667,0.1027944833040237,-0.4764557480812073,0.4086130261421203,-0.1756132096052169
1749039096.8469994,-2.517957404356637,-2.0801841538487085,-2.4903010346134926,3.8189945861355334,-6.2092186979119655,5.760281899963437,0.015928119629779927,-0.00012442050442230994,0.01762176242707572,-0.018859142641540882,0.012317150892892348,-0.04036699732956737,0.3296350538730621,0.7487801909446716,0.0854280143976211,-0.4832466840744018,0.4037287831306457,-0.1717616766691208
1749039096.8474376,-2.5179244492304775,-2.0801852583996987,-2.4902678911451095,3.81895570868892,-6.209196578576685,5.760206903238017,0.01589945655163056,-0.00021514124554597683,0.018033794786614744,-0.019827862408406026,0.01206833669902868,-0.04361497073622151,0.3296350538730621,0.7487801909446716,0.0854280143976211,-0.4832466840744018,0.4037287831306457,-0.1717616766691208
1749039096.8493445,-2.5178918016949057,-2.080186333694427,-2.490234742016197,3.8189140433215853,-6.209174670284036,5.7601241588614664,0.0158464132942782,-0.000315172240610502,0.01847422560866734,-0.02097729621325513,0.011836077662523136,-0.04688887315170915,0.3427023887634277,0.7370782494544983,0.1193634942173957,-0.5096336007118225,0.4193460047245025,-0.1971589028835296
1749039096.894302,-2.5178596140097937,-2.0801873915344604,-2.4902016645109333,3.818869317726998,-6.209152806794628,5.76003347290404,0.015786423543674703,-0.00042125889051837707,0.01895227487994606,-0.022298568750373553,0.011656965915218132,-0.05012092304989716,0.3427023887634277,0.7370782494544983,0.1193634942173957,-0.5096336007118225,0.4193460047245025,-0.1971589028835296
1749039096.8943532,-2.5178279637342604,-2.0801884425920227,-2.4901686442425897,3.81882130754334,-6.20913076011593,5.759934905734351,0.015736845002615345,-0.0005295509492867828,0.01947456985504293,-0.023773330917161037,0.011562773308204242,-0.05324668115380404,0.3413832485675812,0.7103791832923889,0.1123948916792869,-0.533623993396759,0.4467284083366394,-0.1714361160993576
1749039096.8943944,-2.5177968477174786,-2.0801894992236596,-2.4901355715314257,3.818769842580129,-6.209108267359802,5.759828758613971,0.01571397599951248,-0.000636054863006339,0.020045462618693523,-0.025375195907662216,0.011577893751389033,-0.05620882080794235,0.3352786302566528,0.7043972611427307,0.1195271983742713,-0.5347048044204712,0.4664607644081116,-0.1892861872911453
1749039096.8944333,-2.517766180921908,-2.0801905765333344,-2.490102245699441,3.818714810582968,-6.20908505899184,5.759715538760822,0.015732245888683893,-0.000737161604505526,0.0206674261337146,-0.027071569033929904,0.011717551349966212,-0.058960391388096764,0.3352786302566528,0.7043972611427307,0.1195271983742713,-0.5347048044204712,0.4664607644081116,-0.1892861872911453
1749039096.8944712,-2.5177358016699296,-2.0801916919460894,-2.4900683867714,3.8186561589216295,-6.209060884506467,5.759595908141006,0.015803600749746405,-0.0008301792471414116,0.02134144704851944,-0.02882573761037715,0.011986972550655315,-0.06146733090548526,0.3707078695297241,0.7034201622009277,0.1331055462360382,-0.5079038739204407,0.4571475982666015,-0.1906661242246627
1749039096.8945093,-2.517705484808829,-2.0801928636818046,-2.490033653408984,3.818593894624915,-6.209035532937063,5.759470623437072,0.015937087380991845,-0.0009137879958095366,0.022067351971445524,-0.030599077598114893,0.012381590293069442,-0.06371007172883482,0.3707078695297241,0.7034201622009277,0.1331055462360382,-0.5079038739204407,0.4571475982666015,-0.1906661242246627
1749039096.8945472,-2.5176749626344153,-2.0801941086206837,-2.4899976652809896,3.8185280830209303,-6.209008846959059,5.75934047478333,0.016138625716412582,-0.000988345734963526,0.022844035304242363,-0.0323532348010235,0.01288820825911195,-0.06568416729701737,0.3611356616020202,0.6826285123825073,0.1596424728631973,-0.5087211728096008,0.4642853736877441,-0.16426981985569
1749039096.8945858,-2.517643951061491,-2.080195440252106,-2.489960027742861,3.818458844933009,-6.2089807302114055,5.759206229415393,0.016410955415823537,-0.0010559993328065809,0.023669588163968986,-0.034052161691172936,0.013486937055263068,-0.06739993826437193,0.3721956610679626,0.6858328580856323,0.1491726338863372,-0.5364788770675659,0.4687283635139465,-0.159868836402893
1749039096.894623,-2.51761217688706,-2.0801968674443705,-2.4899203569122195,3.818386352234124,-6.208951147969738,5.759068584700094,0.016753745196198138,-0.0011205889961752788,0.024541347428056696,-0.03566393027125714,0.01415364195506151,-0.06888119760702689,0.3721956610679626,0.6858328580856323,0.1491726338863372,-0.5364788770675659,0.4687283635139465,-0.159868836402893
1749039096.8946602,-2.5175794019220668,-2.080198394514398,-2.489878303771075,3.818310821782818,-6.20892012184901,5.758928133867629,0.0171638554739133,-0.0011873603196860508,0.02545589049276008,-0.03716227194297185,0.01486260906464318,-0.07016316884431445,0.3759346604347229,0.6682822704315186,0.1601657420396804,-0.5097863674163818,0.4614416360855102,-0.1687683761119842
1749039096.8946974,-2.5175454410628295,-2.0802000226802764,-2.4898335762805983,3.818232508099816,-6.208887719880564,5.758785346615585,0.017635738627028663,-0.0012625175768444601,0.02640900275798133,-0.03852779950490814,0.01558912913050292,-0.0712897572231318,0.3759346604347229,0.6682822704315186,0.1601657420396804,-0.5097863674163818,0.4614416360855102,-0.1687683761119842
1749039096.894742,-2.517510173043735,-2.0802017526710217,-2.4897859583977895,3.8181516951726695,-6.208854043761843,5.758640564816834,0.01816194816349242,-0.0013526629520968243,0.02739564725239105,-0.03974885401580605,0.01631171508998368,-0.07231036894952864,0.3663485944271087,0.6666678190231323,0.1688913702964782,-0.5073355436325073,0.4491263031959533,-0.1600583791732788
1749039096.8947806,-2.5174735437357354,-2.0802035881054177,-2.489735324559957,3.8180686875092253,-6.208819215062586,5.758494011210007,0.018733716731476613,-0.001464172476739388,0.028409967332677016,-0.040821915265010285,0.017013724795480932,-0.07327649985271754,0.3832982778549194,0.6322604417800903,0.1807582676410675,-0.5051037073135376,0.474086046218872,-0.1489320397377014
1749039096.8948178,-2.517435562263847,-2.080205539170666,-2.4896816480532724,3.817983800393683,-6.208783361865377,5.758345807225758,0.019341559869894463,-0.0016025625208591788,0.029445349078442404,-0.04175153353326547,0.017684258426502016,-0.07423833233779377,0.3832982778549194,0.6322604417800903,0.1807582676410675,-0.5051037073135376,0.474086046218872,-0.1489320397377014
1749039096.8948543,-2.5173962904178926,-2.080207626048902,-2.489625001863297,3.8178973493456825,-6.208746607018429,5.758195995255081,0.019975868025370422,-0.001771901056526218,0.03049456028611328,-0.04254977914465969,0.018318318676354146,-0.07524158590656657,0.3737120032310486,0.6430208683013916,0.1869148164987564,-0.5048385858535767,0.4860165119171142,-0.188548058271408
1749039096.894895,-2.517355826382945,-2.0802098814298877,-2.4895655510193735,3.817809638710891,-6.208709058872025,5.758044560223771,0.020627459164909327,-0.001974314822369326,0.03154997308295103,-0.04323525461517946,0.01891632563633296,-0.07632485979865324,0.363974779844284,0.6392168998718262,0.1886937618255615,-0.5068116784095764,0.4730916619300842,-0.1752427071332931
1749039096.894933,-2.517314284834424,-2.080212351460882,-2.4895035360996935,3.8177209489842827,-6.20867080485628,5.757891445554529,0.02128807201856224,-0.0022096369476268998,0.03260386835929707,-0.04383176051923332,0.019483144096485924,-0.07751767944904565,0.384345144033432,0.6137241125106812,0.1782059967517852,-0.5168449282646179,0.4839962720870971,-0.1943205893039703
1749039096.8949702,-2.5172717764731587,-2.0802150948497724,-2.4894392486439827,3.8176315223059607,-6.208631907573378,5.757736560417613,0.0219507817855876,-0.0024752305367385357,0.03364880798250646,-0.04436673735091461,0.020026805744686568,-0.078839397874963,0.3817441761493683,0.6267496943473816,0.2081330120563507,-0.5224922299385071,0.4875009655952453,-0.1874443441629409
1749039096.895007,-2.5172283903526567,-2.0802181804579205,-2.489373000634068,3.8175415459937594,-6.208592402562751,5.757579778278958,0.022610317979587378,-0.0027660132705060354,0.034678044369679036,-0.044869611990902815,0.020557102508953946,-0.08029900761927138,0.3817441761493683,0.6267496943473816,0.2081330120563507,-0.5224922299385071,0.4875009655952453,-0.1874443441629409
1749039096.8950436,-2.5171841814446116,-2.0802216840958616,-2.4893050913514236,3.8174511348073996,-6.208552296833364,5.757420929159741,0.0232632635517459,-0.0030746964702585886,0.03568592404184556,-0.045370160348251816,0.02108420330298349,-0.08189581413363889,0.3987366855144501,0.6099109649658203,0.1981618404388427,-0.5221139192581177,0.4914540648460388,-0.2023024559020996
1749039096.895081,-2.5171391641669523,-2.0802256850279925,-2.489235775214198,3.8173603133743277,-6.208511567579895,5.757259788408706,0.02390811949525476,-0.003392237951795189,0.03666823939948369,-0.045896968167687714,0.021617414735539686,-0.08362083764310012,0.3952617347240448,0.5950062870979309,0.2123816460371017,-0.5205990076065063,0.5005534291267395,-0.2030988037586212
1749039096.895118,-2.5170933109258997,-2.0802302621758355,-2.4891652337475145,3.817269000749897,-6.208470160984895,5.7570960641820745,0.024545229546370808,-0.0037084884779364623,0.037622488352104154,-0.04647604378624134,0.022164173145750865,-0.08545875204273784,0.3695140779018402,0.6215870976448059,0.17929707467556,-0.5270052552223206,0.5160635709762573,-0.2046599388122558
1749039096.895346,-2.517046553844554,-2.080235489816672,-2.4890935543457604,3.8171769997219305,-6.208427991574015,5.756929386062878,0.02517657274085936,-0.004012984408818043,0.038548006755778526,-0.047129625356118546,0.02272932667068506,-0.08739012364257047,0.3861513137817383,0.6235970258712769,0.2004137188196182,-0.5422466397285461,0.5062325596809387,-0.1991105526685714
1749039096.897294,-2.5169987880356373,-2.0802414330066004,-2.4890207182796735,3.817083994063481,-6.208384943162825,5.756759298559556,0.02580544572067107,-0.004295806882503537,0.0394459441346711,-0.047875241445153836,0.023314746865349747,-0.08939368292529717,0.3861513137817383,0.6235970258712769,0.2004137188196182,-0.5422466397285461,0.5062325596809387,-0.1991105526685714
1749039096.9382784,-2.516949875656969,-2.080248143572587,-2.4889465999960327,3.8169895567118175,-6.208340872678137,5.756585264046082,0.02643606955022339,-0.004548401759834165,0.04031906775249914,-0.048725114177085124,0.023919295992442448,-0.0914483743269509,0.4222884774208069,0.6078298091888428,0.2087863087654113,-0.5565503835678101,0.5234476327896118,-0.2102247774600982
1749039096.9383264,-2.5168996507920682,-2.0802556575249587,-2.488870978558633,3.8168931703119053,-6.208295617671915,5.756406678651676,0.027073160416822763,-0.004764250691437495,0.04117140687094208,-0.049685996029436665,0.024539155397680534,-0.09353499709582079,0.3762247860431671,0.5904736518859863,0.1946945786476135,-0.5638216733932495,0.5019015073776245,-0.2286996692419052
1749039096.9383671,-2.5168479254990634,-2.080263993877245,-2.4887935602607127,3.8167942592471293,-6.208249007274913,5.75622290204969,0.027721493572089643,-0.004939310050226131,0.04200777798136227,-0.05075947107783605,0.025168482444134402,-0.09563734969295071,0.3758482336997986,0.6080223917961121,0.2015778869390487,-0.5598137378692627,0.5213690996170044,-0.2117031067609787
1749039096.9384055,-2.516794497373349,-2.0802731537761407,-2.488714009777149,3.816692230268535,-6.208200875307195,5.756033299513168,0.028385473300760557,-0.0050721826907715,0.04283325021218433,-0.05194264218726923,0.025800312559987115,-0.09774287780394775,0.386575311422348,0.6045075058937073,0.2025332599878311,-0.560650646686554,0.4980653524398803,-0.2380729168653488
1749039096.9384432,-2.516739158889454,-2.0802831185102906,-2.488631986240802,3.8165865177276697,-6.208151073811805,5.755837292691868,0.029068718057639463,-0.005164038700983549,0.04365261446656406,-0.05322901956585385,0.026427574443802494,-0.09984288503084192,0.4043264091014862,0.5765549540519714,0.2177973687648773,-0.5662072896957397,0.5233599543571472,-0.2441742271184921
1749039096.938481,-2.5166817084901014,-2.0802938457148876,-2.4885471802597,3.8164766290266208,-6.2080994853426965,5.75563441380451,0.029773683400520435,-0.005218337345602579,0.044469914357417616,-0.0546093737636858,0.027044058296360144,-0.1019324027078913,0.3953399956226349,0.5999385714530945,0.2078441977500915,-0.5545012950897217,0.5250242352485657,-0.2460818886756897
1749039096.938519,-2.5166219627839506,-2.080305264375231,-2.488459347828366,3.816362185666363,-6.208046032524921,5.755424355862575,0.030501356285043538,-0.005240413475238225,0.045288087790117074,-0.05607234359920328,0.02764518462837822,-0.10400982704279126,0.3953399956226349,0.5999385714530945,0.2078441977500915,-0.5545012950897217,0.5250242352485657,-0.2460818886756897
1749039096.938557,-2.5165597685378445,-2.080317270289098,-2.488368337094485,3.8162429548957224,-6.207990683468008,5.755207009706373,0.031251049046817095,-0.005236981774996138,0.046108761004315685,-0.05760469613549099,0.028228470456033616,-0.10607640687610857,0.3994319438934326,0.6103489995002747,0.2247158735990524,-0.5643922090530396,0.5419827699661255,-0.2083064764738083
1749039096.938594,-2.5164950128604744,-2.080329724064014,-2.4882741041717025,3.816118866939522,-6.207933451689888,5.754982478659217,0.03202031048946697,-0.005215597598612264,0.04693223185853321,-0.05919128734347496,0.028793666690720532,-0.10813561239374463,0.4042969942092895,0.5612371563911438,0.1991357803344726,-0.6103762984275818,0.5269321799278259,-0.2387613654136657
1749039096.9386318,-2.5164276304957585,-2.0803424534010646,-2.488176715280368,3.8159900142696754,-6.207874389803068,5.754751065193857,0.03280496597342634,-0.0051841093090491345,0.04775766519773717,-0.060814899555926956,0.0293426143131003,-0.11019236042900618,0.393116146326065,0.5529978275299072,0.2352067977190017,-0.5988185405731201,0.533069908618927,-0.2259037643671035
1749039096.938669,-2.5163576083266768,-2.0803552604464985,-2.48807633484059,3.81585663288564,-6.207813577662477,5.754513230938672,0.03359929252914908,-0.005150144044587467,0.04858348918807112,-0.062456169170642846,0.029878908968014727,-0.11225204293429347,0.4038406610488891,0.5481735467910767,0.2182383090257644,-0.5907219052314758,0.5477420091629028,-0.2368775457143783
1749039096.938706,-2.516284988042442,-2.0803679337732146,-2.487973202071001,3.815719069942492,-6.207751107456132,5.754269538718837,0.0343963221835267,-0.005120670643996105,0.04940792966142732,-0.06409375601363702,0.030407466433326914,-0.11431932068664707,0.3806027770042419,0.560849666595459,0.2111397981643676,-0.5824918150901794,0.5727955102920532,-0.2204753309488296
1749039096.9387434,-2.5162098675681586,-2.0803802636520996,-2.4878676008953082,3.815577745242239,-6.207687069247051,5.754020589690764,0.03518825042391753,-0.005101666445292218,0.05022956597858831,-0.06570480149038337,0.030934057375709097,-0.11639670759276191,0.3806027770042419,0.560849666595459,0.2111397981643676,-0.5824918150901794,0.5727955102920532,-0.2204753309488296
1749039096.9387803,-2.516132400669236,-2.0803920589473655,-2.4877598287031284,3.8154331146352263,-6.207621540133747,5.753766968499897,0.03596691214926255,-0.0050978863825114325,0.051047765014542446,-0.06726564885228743,0.03146484683946719,-0.11848306832445342,0.3867396712303161,0.5457397699356079,0.222849816083908,-0.589328408241272,0.5628941655158997,-0.2237045764923095
1749039096.9388208,-2.516052793379856,-2.080403163971959,-2.4876501688073103,3.8152856413098957,-6.20755457887121,5.753509205658553,0.03672427773593757,-0.0051127164195089335,0.05186287839340611,-0.06875278439428575,0.03200594653564009,-0.12057225734562566,0.3914604783058166,0.5322653651237488,0.2266038656234741,-0.575239360332489,0.5612233877182007,-0.2490838468074798
1749039096.9388592,-2.5159712963988636,-2.080413473617111,-2.4875388700000007,3.815135777716077,-6.20748622643889,5.753247761318885,0.037452921397305064,-0.005148101655271028,0.05267616872782299,-0.0701439770509905,0.032562974956872874,-0.12265220672690993,0.3914604783058166,0.5322653651237488,0.2266038656234741,-0.575239360332489,0.5612233877182007,-0.2490838468074798
1749039096.938896,-2.515888194036746,-2.0804229450318066,-2.487426135079589,3.814983958003861,-6.207416512207164,5.752983030216135,0.03814642607704297,-0.0052045595634329245,0.05348951835681988,-0.07141960319427322,0.03314062318052744,-0.12470478772422473,0.3872194290161133,0.5152831673622131,0.2422124147415161,-0.5852963924407959,0.5718945264816284,-0.2409135401248932
1749039096.9389336,-2.5158037915676896,-2.0804316043302697,-2.487312118589845,3.814830598674667,-6.20734546463143,5.752715363791141,0.03879971141170427,-0.005281295668876893,0.054305024974988826,-0.0725641238116949,0.03374223824891048,-0.1267067024202198,0.3872194290161133,0.5152831673622131,0.2422124147415161,-0.5852963924407959,0.5718945264816284,-0.2409135401248932
1749039096.9389703,-2.5157184028883792,-2.0804395473286688,-2.4871969320192657,3.814676103172615,-6.2072731241920325,5.752445101532966,0.039409295075396866,-0.0053764211265299264,0.05512459658385022,-0.07356763747318419,0.03436945281766243,-0.12863151341691845,0.3856123983860016,0.5238599181175232,0.2345605194568634,-0.5820992588996887,0.571609616279602,-0.2501971125602722
1749039096.9390075,-2.5156323389934103,-2.0804469339683056,-2.487080652649521,3.8145208645620303,-6.2071995549350145,5.752172599951361,0.03997351099858106,-0.005487241410718596,0.05594964018200465,-0.07442737508953574,0.035021899856252606,-0.13045272936098729,0.4042789041996002,0.5089579820632935,0.2500488758087158,-0.5686533451080322,0.5850868821144104,-0.2624197006225586
1749039096.939335,-2.5155458959685064,-2.0804539766788785,-2.486963331144173,3.8143652603218823,-6.207124850585965,5.751898246571612,0.04049270234825746,-0.005610564924667196,0.05678090446535307,-0.0751489430956085,0.035697048661566436,-0.13214766256075797,0.435949444770813,0.5224390029907227,0.2410918474197387,-0.5717207193374634,0.5765467882156372,-0.2087866216897964
1749039096.9422925,-2.515459340692468,-2.0804609234741225,-2.486844993954954,3.814209635640585,-6.207049132569447,5.7516224501420385,0.04096938433925334,-0.005742983411845656,0.05761848831296576,-0.07574707982868847,0.036390184856555645,-0.1337015669215596,0.4028841555118561,0.5031264424324036,0.265522837638855,-0.5354022979736328,0.5950307846069336,-0.1889986395835876
1749039096.9863093,-2.515372893990363,-2.080468037167299,-2.4867256397595185,3.814054276073139,-6.206972539950074,5.751345606515114,0.041408342851292905,-0.005881099263341113,0.05846197397327924,-0.07624569045567184,0.037094540470156805,-0.13511137649389335,0.4009895920753479,0.5006412267684937,0.2425460219383239,-0.5599372386932373,0.6015304923057556,-0.1756755709648132
1749039096.986357,-2.51528671345642,-2.080475572707636,-2.4866052327932326,3.813899374976982,-6.206895213933309,5.751068048675653,0.04181661445338659,-0.006021701140109931,0.05931060750293803,-0.07667698758156066,0.03780156983456403,-0.13638828188597568,0.4009895920753479,0.5006412267684937,0.2425460219383239,-0.5599372386932373,0.6015304923057556,-0.1756755709648132
1749039096.9863973,-2.515200879675691,-2.080483755013368,-2.4864836978438456,3.8137450034514586,-6.20681728084813,5.7507899945737035,0.04220329338852233,-0.006161901675356453,0.06016344542428309,-0.07707968617416706,0.038501365087343094,-0.13755849212842167,0.4075974524021148,0.5273955464363098,0.2470408082008361,-0.5612409114837646,0.5937446355819702,-0.1798532903194427
1749039096.9864404,-2.5151153892914517,-2.080492759653476,-2.4863609210529547,3.8135910900497665,-6.206738837348317,5.75051150627606,0.04257913305861227,-0.00629924755151426,0.061019414290077637,-0.0774963517044349,0.03918320283465831,-0.1386618393095132,0.398061603307724,0.5015665292739868,0.2293179631233215,-0.5624909996986389,0.5815029740333557,-0.1835679560899734
1749039096.9864795,-2.5150301568912066,-2.080502698446569,-2.48623675862849,3.813437415497581,-6.206659940736358,5.750232470389548,0.0429559450892165,-0.0064318053040977674,0.06187727122030504,-0.07797013218263056,0.0398362013577133,-0.13974830171484776,0.398061603307724,0.5015665292739868,0.2293179631233215,-0.5624909996986389,0.5815029740333557,-0.1835679560899734
1749039096.986518,-2.51494502594537,-2.080513611628452,-2.4861110534062023,3.813283624903115,-6.206580606383434,5.749952604634833,0.04334583590478532,-0.006558224070300261,0.06273548786548648,-0.07854118709682595,0.04045004933995426,-0.14087292278515842,0.4078529477119446,0.501275897026062,0.2494148463010788,-0.5607889890670776,0.5949487686157227,-0.2302245497703552
1749039096.9865568,-2.514859787411274,-2.0805254675606877,-2.4859836572379783,3.813129256569607,-6.206500812962071,5.749671489351276,0.043760349116429155,-0.006677773670785738,0.06359209870299203,-0.07924316020659025,0.04101575550021315,-0.14208989115884085,0.4078529477119446,0.501275897026062,0.2494148463010788,-0.5607889890670776,0.5949487686157227,-0.2302245497703552
1749039096.986599,-2.514774203191835,-2.0805381699447016,-2.485854455504347,3.81297378310958,-6.2064205143794355,5.749388616592578,0.0442095972348192,-0.006790348005599513,0.06444456160064434,-0.08010004680408242,0.04152636764833596,-0.14344667281024384,0.4156014919281006,0.4936504364013672,0.229833111166954,-0.5887331366539001,0.5910512804985046,-0.2402954399585724
1749039096.9866374,-2.514688030700681,-2.080551571449062,-2.4857233890795234,3.812816658261844,-6.206339655317549,5.749103445421361,0.04470146966099931,-0.006896419736201619,0.06528967987018594,-0.08112379039882799,0.0419776093270933,-0.14497904166816616,0.3804310262203216,0.4735704660415649,0.236073300242424,-0.605314314365387,0.589169442653656,-0.2715541124343872
1749039096.9866748,-2.5146010447534257,-2.0805654918650975,-2.485590469240422,3.8126573623096167,-6.2062581860568695,5.748815451506265,0.04524100058616779,-0.006996944440610203,0.06612362899140492,-0.08231289985121261,0.042368373316090814,-0.1467076645433406,0.3804310262203216,0.4735704660415649,0.236073300242424,-0.605314314365387,0.589169442653656,-0.2715541124343872
1749039096.9867122,-2.5145130539150604,-2.08057973843626,-2.485455782231683,3.812495440080481,-6.206176072450217,5.7485241618809075,0.045829972135317414,-0.007093233902405106,0.06694211438469587,-0.08365228773320922,0.04270100117298004,-0.14863660681962232,0.4454351365566253,0.458600103855133,0.2503579258918762,-0.5963184833526611,0.596503496170044,-0.286649078130722
1749039096.9867537,-2.514423909763673,-2.080594125897733,-2.485319482021836,3.812330527498122,-6.206093298434762,5.748229170320406,0.046466808232535975,-0.007186828764134237,0.06774066114989089,-0.08511439392153645,0.042981285945869786,-0.15075378936150968,0.4254792928695678,0.4807089865207672,0.2321511507034301,-0.6235494613647461,0.5809095501899719,-0.27076455950737
1749039096.9867911,-2.514333508772232,-2.0806084941621803,-2.4851817719163822,3.8121623651388523,-6.206009860768713,5.7479301340768005,0.04714677462839833,-0.007279390445075637,0.06851500882750072,-0.08666150275207596,0.043218169968554765,-0.1530330985903407,0.4254792928695678,0.4807089865207672,0.2321511507034301,-0.6235494613647461,0.5809095501899719,-0.27076455950737
1749039096.986828,-2.5142417875460015,-2.0806227224064946,-2.4850428779324223,3.8119907999152685,-6.205925758128726,5.747626757753714,0.04786244717578617,-0.007372610789668166,0.06926156166971384,-0.08824902492286052,0.04342315595061322,-0.15543760055053085,0.3983011841773987,0.4708546996116638,0.2272213101387024,-0.6166229248046875,0.5875661373138428,-0.2279499322175979
1749039096.9868643,-2.5141487128889324,-2.08063673906947,-2.4849030185318983,3.8118157779014727,-6.205840978438736,5.747318773217893,0.048604369878097645,-0.00746812266794211,0.06997783621125443,-0.08982942186172341,0.04360948332602737,-0.15792320766515536,0.3983011841773987,0.4708546996116638,0.2272213101387024,-0.6166229248046875,0.5875661373138428,-0.2279499322175979
1749039096.986905,-2.5140542684674796,-2.080650527504914,-2.4847623757096327,3.811637331535961,-6.205755488514542,5.747005924310823,0.04936181481905689,-0.007567393556493699,0.07066285583290274,-0.0913564053020969,0.0437911349794326,-0.16044222236654745,0.4449545741081238,0.4552581310272217,0.2346841394901275,-0.6085028648376465,0.5844632983207703,-0.2321675717830658
1749039096.9869602,-2.5139584399506925,-2.0806641267725063,-2.4846210715975685,3.8114555635762315,-6.205669228898009,5.746687962581264,0.05012356618643995,-0.007671592437486728,0.07131745736012163,-0.09278903829613461,0.04398174464398675,-0.1629464002200788,0.4082578122615814,0.469188392162323,0.2145994305610656,-0.6039783954620361,0.592960774898529,-0.2520204782485962
1749039096.9870036,-2.5138612009418817,-2.0806776267507447,-2.48447915347857,3.8112706296909846,-6.205582115083502,5.746364657494137,0.050878658952537015,-0.007781431730763105,0.07194448453318322,-0.09409538109312593,0.044193489735103085,-0.16538945405367994,0.4082578122615814,0.469188392162323,0.2145994305610656,-0.6039783954620361,0.592960774898529,-0.2520204782485962
1749039096.9870462,-2.5137625027579853,-2.0806911569711226,-2.48433658901691,3.8110827218449685,-6.205494045022763,5.746035822476149,0.051617010125379684,-0.0078969989058067,0.07254884294811699,-0.09525535475257092,0.04443608195304305,-0.16772915659117305,0.4053178429603576,0.4367513358592987,0.2219098806381225,-0.5930032134056091,0.5858360528945923,-0.2844865918159485
1749039096.9870846,-2.513662271326522,-2.08070486957992,-2.484193272459185,3.8108920545823564,-6.205404911878916,5.745701355465824,0.05232990329499839,-0.008017605803709695,0.07313738659516664,-0.0962625357247933,0.044715992417949796,-0.16992931020801597,0.4053178429603576,0.4367513358592987,0.2219098806381225,-0.5930032134056091,0.5858360528945923,-0.2844865918159485
1749039096.9871209,-2.513560413258166,-2.080718918352362,-2.4840490409841274,3.810698855019579,-6.2053146201447,5.745361287965657,0.053010327667711646,-0.008141692945750621,0.0737186083481593,-0.09712465982603587,0.04503604251725645,-0.17196181928030727,0.4244644045829773,0.4402789771556854,0.2077413499355316,-0.5874616503715515,0.597514808177948,-0.2846916019916534
1749039096.987158,-2.5134568305000515,-2.0807334369494477,-2.4839036981477896,3.810503355307935,-6.205223102372803,5.745015830795356,0.053653211447980236,-0.008266826853210335,0.0743021256886538,-0.09786272436924785,0.04539543953774413,-0.17380895697371387,0.3964943289756775,0.42507004737854,0.2434582561254501,-0.6032980680465698,0.5941913723945618,-0.2780501842498779
1749039096.9873643,-2.5133514399713026,-2.0807485199662503,-2.4837570392724593,3.8103057848983104,-6.2051303332062195,5.74466540086822,0.05425560538074112,-0.008389819412380928,0.07489798812590027,-0.09850873230973602,0.04579024964908189,-0.17546570182253288,0.4262609481811523,0.4348156154155731,0.230124294757843,-0.5760498642921448,0.5807203650474548,-0.2603960037231445
1749039096.989329,-2.513244192692395,-2.080764209704768,-2.4836088729580084,3.8101063600098115,-6.2050363374858435,5.744310614374526,0.0548168602435923,-0.008506979797644079,0.0755158690990156,-0.09910228839651927,0.04621421653339104,-0.1769417624746441,0.4097477197647095,0.4327333569526672,0.2071882486343383,-0.5547797679901123,0.6014910340309143,-0.233010321855545
1749039097.0302818,-2.513135086892714,-2.0807804903768203,-2.483459034268168,3.8099052689995268,-6.2049411900132405,5.743952238303469,0.05533880983927878,-0.008614483376475057,0.07616422707802477,-0.09968639817334635,0.04665978319560555,-0.17826268794605066,0.4238815903663635,0.4169612526893616,0.2585452198982239,-0.6245332956314087,0.5854988098144531,-0.2162041664123535
1749039097.0303297,-2.51302417118186,-2.0807972900147504,-2.483307387947961,3.8097026541370584,-6.204845005941312,5.743591102085733,0.055825927904694594,-0.008708814508867454,0.07684952622028213,-0.10030292533309097,0.047119160187348956,-0.17946940582957407,0.4103212058544159,0.4203031659126282,0.2523070275783539,-0.6075083017349243,0.5781115889549255,-0.1987171918153762
1749039097.03037,-2.5129115365135175,-2.0808144891136724,-2.483153823131156,3.8094985922882754,-6.20474792262671,5.743227981280073,0.05628538096773779,-0.00878721924540468,0.07757559850288784,-0.10098822045182122,0.04758529391637704,-0.18061573852740945,0.4240554273128509,0.4303578436374664,0.231865108013153,-0.5883402824401855,0.6014209389686584,-0.2584886252880096
1749039097.030412,-2.512797298682018,-2.080831934281546,-2.4829982434008007,3.809293078836055,-6.204650075758216,5.742863473053923,0.056726863818864666,-0.008848094780682578,0.07834320414706948,-0.10176941374652256,0.048052620621230564,-0.1817638821308057,0.4240554273128509,0.4303578436374664,0.231865108013153,-0.5883402824401855,0.6014209389686584,-0.2584886252880096
1749039097.030451,-2.512681575521974,-2.0808494550143735,-2.4828405569102308,3.809086019689624,-6.204551573943947,5.742497886393271,0.05716210553144294,-0.008891248406456836,0.0791498124722717,-0.1026617616142399,0.048517543055340055,-0.1829783270194282,0.4047757983207702,0.4063985645771026,0.2404275238513946,-0.6272485852241516,0.6019790172576904,-0.2737459540367126
1749039097.0304892,-2.5125644640539186,-2.0808668818530345,-2.4826806702771167,3.8088772346024142,-6.204452476158031,5.742131167400059,0.057603992612933946,-0.0089179827029765,0.079989601917232,-0.10366730255264255,0.04897862033681274,-0.184319060766961,0.4359173774719238,0.4041511416435241,0.2319269031286239,-0.639672577381134,0.5900716781616211,-0.3449602127075195
1749039097.0305314,-2.512446022556323,-2.080884064235404,-2.482518488011361,3.808666472077867,-6.204352775809038,5.741762873163184,0.05806536058491032,-0.008931001800697912,0.08085367696712843,-0.10477495981786929,0.04943649451341959,-0.18583502498775625,0.4359173774719238,0.4041511416435241,0.2319269031286239,-0.639672577381134,0.5900716781616211,-0.3449602127075195
1749039097.030573,-2.5123262613188793,-2.080900886265577,-2.482353917477154,3.808453433547885,-6.204252394232371,5.74139219905254,0.058557611605843794,-0.008934170093061133,0.0817305119367811,-0.10596211520026227,0.0498935884026716,-0.1875587230199514,0.3625116944313049,0.4164671301841736,0.1756381839513778,-0.6232848763465881,0.5831272006034851,-0.2569208741188049
1749039097.0306108,-2.5122051437964625,-2.080917278654286,-2.4821868780634104,3.808237802952234,-6.2041511850388895,5.741018055319124,0.0590893814016258,-0.00893217357398379,0.08260664334938053,-0.10719753999951269,0.050353617810762925,-0.1895026654297177,0.4668360948562622,0.4102115631103515,0.247709035873413,-0.6302697062492371,0.5848935842514038,-0.308172732591629
1749039097.0306478,-2.5120825975713768,-2.080933225486139,-2.4820173124049183,3.8080192774345574,-6.204048948928712,5.7406391812701445,0.05966548959202743,-0.008930131872278795,0.08346763220367645,-0.1084454070640533,0.05082098213066867,-0.1916580467778915,0.4714183211326599,0.4299614131450653,0.2723735570907593,-0.6154002547264099,0.613601803779602,-0.3072578608989715
1749039097.0306852,-2.5119585330837766,-2.0809487651724594,-2.481845197827569,3.807797595937405,-6.203945457060086,5.740254281768924,0.060286362169042575,-0.008933194974956383,0.08429928421482401,-0.10966994799516963,0.05130012141154806,-0.19399571733801804,0.3959502279758453,0.4148342311382293,0.1917901337146759,-0.6259123086929321,0.6056296825408936,-0.2793684005737304
1749039097.0307257,-2.511832867938558,-2.0809639856812256,-2.4816705577179334,3.807572564552289,-6.203840480362164,5.739862171794046,0.060948013377591065,-0.008946143529602284,0.08508903436943203,-0.11084019031786624,0.05179493391006329,-0.1964692196834188,0.3959502279758453,0.4148342311382293,0.1917901337146759,-0.6259123086929321,0.6056296825408936,-0.2793684005737304
1749039097.0307631,-2.511705554679196,-2.080979014741555,-2.481493473629633,3.8073440787000057,-6.203733821641324,5.739461916618914,0.061642545265540034,-0.008973002163007233,0.08582730254601832,-0.11193413788138433,0.052308327660811206,-0.19901947404440273,0.4366025924682617,0.3985713720321655,0.2389608919620514,-0.5742694139480591,0.6021174192428589,-0.3085373640060425
1749039097.030801,-2.5115766089834373,-2.080994006274405,-2.4813140979612816,3.8071121412441666,-6.203625346262065,5.739052954300178,0.06235902892931631,-0.009016673715902217,0.08650858250155921,-0.1129417712927896,0.052841943960975135,-0.20158063549821792,0.455915629863739,0.4172549247741699,0.2282228022813797,-0.5609477758407593,0.6033691167831421,-0.3140151500701904
1749039097.0308385,-2.511446133511358,-2.081009124829282,-2.4811326644667306,3.8068768735395686,-6.203515006170383,5.738635184650704,0.06308461057538137,-0.009078608821054539,0.08713207591165277,-0.1138663668066833,0.053396054522219294,-0.2040866519082629,0.4321907758712768,0.4034885764122009,0.2159351259469986,-0.5860607028007507,0.6039606928825378,-0.3191237151622772
1749039097.030879,-2.5113143316103335,-2.08102453004328,-2.4809494919520625,3.8066385154903286,-6.203402852294329,5.738209008890145,0.06380571641668019,-0.009158538585119204,0.08770178799987983,-0.1147238688593772,0.05396960317431962,-0.20647802856556838,0.4263612329959869,0.3874281644821167,0.1881980746984481,-0.6053833365440369,0.6096990704536438,-0.2975590527057647
1749039097.030917,-2.511181505849169,-2.081040362827229,-2.4807649767890783,3.806397411897644,-6.203289032269122,5.737775309132164,0.0645092697838364,-0.009254313788466372,0.08822610179544857,-0.11554037082768244,0.054560339527199006,-0.2087081969295708,0.4338411092758178,0.3858690857887268,0.2170807868242263,-0.5703098177909851,0.6098471283912659,-0.2859871387481689
1749039097.0309532,-2.511048038775758,-2.0810567342948056,-2.480579571991178,3.8061539849678776,-6.203173773228425,5.73733536584786,0.06518385880771743,-0.009361903182911259,0.0887169218395753,-0.11634808622044875,0.05516498222839145,-0.21074872581293128,0.420915424823761,0.3714296817779541,0.2385536730289459,-0.5874277949333191,0.6110544204711914,-0.2569208741188049
1749039097.03099,-2.5109143566523455,-2.0810737178089735,-2.4803937535095053,3.805908695889344,-6.203057352159286,5.736890722212233,0.06582079656707004,-0.009475596966516588,0.08918852553208087,-0.11718045226144165,0.055779360450880916,-0.21259251816783625,0.4104260504245758,0.3656058311462402,0.2131476253271103,-0.6120638847351074,0.6124840974807739,-0.1688250303268432
1749039097.03103,-2.5107808806318834,-2.081091344159212,-2.480207977347781,3.805662001194181,-6.202940058655547,5.73644301449984,0.06641499632226487,-0.009588436712964851,0.08965627515382553,-0.11806715172124119,0.05639851283700372,-0.21425423823910458,0.4104260504245758,0.3656058311462402,0.2131476253271103,-0.6120638847351074,0.6124840974807739,-0.1688250303268432
1749039097.031356,-2.51064797316147,-2.081109599807955,-2.480022633437285,3.805414311265676,-6.20282215665634,5.735993794700075,0.06696555718260504,-0.009692855794170415,0.09013532677492452,-0.11902983863195815,0.057016760048784705,-0.21576759603617834,0.3992919325828552,0.3731043338775635,0.2297071367502212,-0.6425997614860535,0.624962568283081,-0.2514911293983459
1749039097.0337515,-2.510515889124628,-2.0811284282654645,-2.479838003353715,3.8051659580082755,-6.2027038524423554,5.735544372825381,0.06747595064099032,-0.009781474301007181,0.09063944762894612,-0.12007920314147705,0.057627792145739765,-0.217179749104101,0.3913047015666961,0.3818772435188293,0.260830283164978,-0.6328888535499573,0.6285432577133179,-0.3010832965373993
1749039097.0742822,-2.510384740346937,-2.0811477347350174,-2.479654228483294,3.8049171763305907,-6.202585275138353,5.735095701396674,0.06795373705339272,-0.009847958191010404,0.09118004473700256,-0.12121374994974526,0.058224816954241046,-0.21854378341385947,0.3913047015666961,0.3818772435188293,0.260830283164978,-0.6328888535499573,0.6285432577133179,-0.3010832965373993
1749039097.074333,-2.5102544787041974,-2.081167394025551,-2.479471293018857,3.804668100200266,-6.202466473040312,5.73464831458688,0.06840981598904508,-0.00988783048664448,0.09176550804757012,-0.12242037072471114,0.05880080685922139,-0.21991072669120906,0.4190820753574371,0.3520013093948364,0.2495801448822021,-0.6292809247970581,0.6198684573173523,-0.3127670586109161
1749039097.0743744,-2.510124898565622,-2.0811872615111944,-2.4792890226809288,3.804418769586162,-6.2023474249902035,5.734202322140014,0.0688572949149536,-0.009899117755221325,0.09240095211677708,-0.12367653116250796,0.05934886758645041,-0.22132261480948962,0.4190820753574371,0.3520013093948364,0.2495801448822021,-0.6292809247970581,0.6198684573173523,-0.3127670586109161
1749039097.0744145,-2.509995655488891,-2.081207186768108,-2.479107096675659,3.8041691414766925,-6.202228062252583,5.733757447405102,0.06931011507149876,-0.009882729584155496,0.09308838279982393,-0.1249536923223839,0.059862735665376476,-0.22280776846837874,0.390369564294815,0.3774122595787048,0.2560466825962066,-0.6246402859687805,0.6362968683242798,-0.3159756660461426
1749039097.0744534,-2.50986629610262,-2.081227029111532,-2.478925068590252,3.803919098317368,-6.202108294247578,5.733313093345256,0.06978158993946963,-0.009842501025016331,0.09382722882798038,-0.126221436806081,0.06033739306752026,-0.2243788246111164,0.4378308355808258,0.3767698407173157,0.2485095858573913,-0.6007717847824097,0.6344012022018433,-0.263839989900589
1749039097.0744925,-2.509736294104976,-2.081246673323164,-2.4787423923225704,3.803668450963955,-6.20198803155994,5.732868421387115,0.07028300318021503,-0.0097848758436035,0.09461509154016107,-0.12745167253600448,0.0607697702066774,-0.22603343679268983,0.4378308355808258,0.3767698407173157,0.2485095858573913,-0.6007717847824097,0.6344012022018433,-0.263839989900589
1749039097.0745306,-2.5096050886803316,-2.081266042921578,-2.4785584511922707,3.8034169385259857,-6.201867201461265,5.732422433344983,0.07082239928739707,-0.009718265761936053,0.09544851364317562,-0.12862226677944713,0.061159487727327315,-0.22775709164083283,0.461467444896698,0.3768495321273803,0.2460426539182663,-0.5766649842262268,0.6251890063285828,-0.2864797115325928
1749039097.0745687,-2.5094721232356005,-2.0812851082764348,-2.478372590465015,3.803164231002549,-6.20174575370667,5.73197405223732,0.07140368780640063,-0.009652173096726335,0.09632357559891784,-0.12971955572234983,0.06150955753091601,-0.2295272740654971,0.461467444896698,0.3768495321273803,0.2460426539182663,-0.5766649842262268,0.6251890063285828,-0.2864797115325928
1749039097.074607,-2.509336883077107,-2.081303887995165,-2.4781841540291025,3.802909940460977,-6.2016236566392555,5.731522200382205,0.07202616287469675,-0.009596195989701354,0.0972361979357712,-0.1307393845089633,0.061826930754474235,-0.23131821932144603,0.4503687620162964,0.3432306051254272,0.2746425569057464,-0.5473136305809021,0.6161258816719055,-0.2911042869091034
1749039097.0746448,-2.509198930340145,-2.081322443786837,-2.477992524737387,3.8026536435595557,-6.2015008854514715,5.731065872779698,0.07268450746536151,-0.00955904340239086,0.09818213158264955,-0.1316866174276363,0.062122760854429804,-0.23310558574555276,0.4465067982673645,0.3544251918792724,0.2730485796928406,-0.5727134346961975,0.6236040592193604,-0.2614514231681824
1749039097.074683,-2.509057933855341,-2.0813408705397056,-2.4777971661622735,3.8023949147463383,-6.20137740596863,5.730604202821416,0.07336930901270791,-0.009547677084877457,0.09915671388656155,-0.13257334936395462,0.06241225141201784,-0.2348704576421201,0.4465067982673645,0.3544251918792724,0.2730485796928406,-0.5727134346961975,0.6236040592193604,-0.2614514231681824
1749039097.0747209,-2.5089136912417658,-2.081359283979704,-2.4775976621690194,3.8021333666280275,-6.201253158177867,5.730136517051244,0.07406806502162702,-0.009566673789266407,0.10015452336376057,-0.1334162795021424,0.06271397924631189,-0.23660214565203228,0.4526214003562927,0.367399513721466,0.2457289099693298,-0.564201831817627,0.6313957571983337,-0.2588025033473968
1749039097.074758,-2.5087661404593127,-2.081377808005403,-2.477393749821011,3.8018686914785413,-6.2011280433253075,5.729662375109127,0.07476660152087156,-0.009617864592237102,0.10116907463019323,-0.13423382996109595,0.06304862936302304,-0.2382993724759185,0.4633916318416595,0.3494371175765991,0.2636088132858276,-0.5891285538673401,0.6200814247131348,-0.2102010846138
1749039097.0747955,-2.508615358675132,-2.0813965631131337,-2.477185340946397,3.8016006960172515,-6.201001917086511,5.7291815902122005,0.07545075707891048,-0.009700264926831716,0.10219266771891536,-0.1350435901606592,0.0634371600205766,-0.2399696732221489,0.4024992883205414,0.3356097936630249,0.2602917551994324,-0.6058698296546936,0.615871012210846,-0.2237057089805603
1749039097.0748332,-2.5084615481544326,-2.0814156566242987,-2.4769725291824383,3.801329322220088,-6.200874590310096,5.728694227088591,0.07610810775031118,-0.009810270256938584,0.10321645529160946,-0.1358605466208976,0.06389853101591336,-0.24162718503481212,0.4648693203926086,0.3340045809745788,0.2675442993640899,-0.6002371311187744,0.6404798030853271,-0.2979997396469116
1749039097.0748706,-2.5083050116322085,-2.081435174808629,-2.4767555824535163,3.8010546506869987,-6.200745838661942,5.728200579066752,0.0767294580553073,-0.009942070742831412,0.10423072658013602,-0.13669633488946628,0.06444725414512542,-0.24328936210474322,0.4648693203926086,0.3340045809745788,0.2675442993640899,-0.6002371311187744,0.6404798030853271,-0.2979997396469116
1749039097.0749085,-2.5081461218408365,-2.081455176593895,-2.476534923744949,3.800776887853321,-6.200615422217142,5.7277011307629895,0.07730984134777161,-0.010088236296253347,0.10522534527569048,-0.13755947391799497,0.06509112325328295,-0.2449733930542819,0.4317771196365356,0.3397775292396545,0.2649961113929748,-0.5934505462646484,0.6440895199775696,-0.2944850027561188
1749039097.0749457,-2.5079852904606006,-2.081475688581126,-2.476311104002582,3.8004963415483974,-6.200483114525841,5.72719651420164,0.0778488698404135,-0.010240426622344496,0.1061902446729951,-0.13845629334448675,0.06582950429560454,-0.24669309323428038,0.4342028796672821,0.3567084074020386,0.2291853874921798,-0.5566319227218628,0.6375137567520142,-0.2826582491397857
1749039097.0749831,-2.5078229409262356,-2.081496701520835,-2.476084770470692,3.800213390779044,-6.200348738099657,5.726687465035326,0.07835041562382075,-0.010390171954849379,0.10711589378113749,-0.13939210708983155,0.06665248700505627,-0.2484567831286766,0.4342028796672821,0.3567084074020386,0.2291853874921798,-0.5566319227218628,0.6375137567520142,-0.2826582491397857
1749039097.0750206,-2.507659487977551,-2.0815181688903186,-2.4758566331181093,3.799928455934004,-6.200212200878841,5.726174784036121,0.07882173465241123,-0.01052965184874436,0.10799369877252378,-0.14037214614999674,0.06754104820818195,-0.2502662920568356,0.4354147613048553,0.3223955631256103,0.2671006619930267,-0.5788081884384155,0.6528335809707642,-0.2677625119686126
1749039097.075488,-2.507495324783591,-2.081540008385814,-2.4756274310284825,3.799641974370636,-6.200073527007346,5.725659306696938,0.07927222742851942,-0.010652390458241552,0.1088163690281219,-0.14140184113934148,0.0684682204030958,-0.2521169512854936,0.4354147613048553,0.3223955631256103,0.2671006619930267,-0.5788081884384155,0.6528335809707642,-0.2677625119686126
1749039097.0773757,-2.507330816025109,-2.0815621069550505,-2.475397899097902,3.7993543828263983,-6.199932875381734,5.725141879217819,0.07971205618642009,-0.010753797008444334,0.10957831450688248,-0.14248623708363922,0.06940114736492856,-0.2539983678997637,0.4134489893913269,0.3570260405540466,0.2132123410701751,-0.5630191564559937,0.6656597852706909,-0.272311121225357
1749039097.11828,-2.507166293353136,-2.0815843295845218,-2.475168733680926,3.7990661036720814,-6.199790540952825,5.724623334057455,0.0801508216165586,-0.010831501326822668,0.11027611854680025,-0.14362860251877926,0.07030384091180254,-0.2558958396818839,0.4287448525428772,0.3694517314434051,0.2354614287614822,-0.6004062294960022,0.6538350582122803,-0.3241936862468719
1749039097.1183276,-2.507002049181776,-2.081606531453898,-2.4749405554525254,3.7987775293614656,-6.199646936517681,5.724104456250519,0.0805964585246018,-0.010885455297239988,0.11090905992997876,-0.14482859345250856,0.0711404013055289,-0.2577923391262757,0.4287448525428772,0.3694517314434051,0.2354614287614822,-0.6004062294960022,0.6538350582122803,-0.3241936862468719
1749039097.1183703,-2.5068383258352442,-2.081628572317957,-2.4747138691665342,3.7984889997670677,-6.199502556079306,5.723585934062345,0.08105445446403228,-0.010917791800532364,0.11147959315111665,-0.14608054818223717,0.07187840999490107,-0.2596709552321013,0.4366253912448883,0.3475812375545501,0.2374939918518066,-0.603583812713623,0.6542021036148071,-0.3039762377738952
1749039097.118413,-2.5066752988042773,-2.0816503314167667,-2.474489022246445,3.7982007697549744,-6.19935792389842,5.723068292543873,0.08152744249738277,-0.010932458923418488,0.11199367314599006,-0.14737253039269385,0.07249215287777877,-0.261517521465615,0.4389134049415588,0.3596994876861572,0.2299916744232177,-0.6075342297554016,0.613679051399231,-0.2287825644016266
1749039097.1184528,-2.506513054872695,-2.081671721151526,-2.4742661664210277,3.7979129685571382,-6.199213535864185,5.72255181490718,0.08201517663946599,-0.010934677822570318,0.11246082100554118,-0.14868657876163444,0.0729653043917524,-0.26332296036466957,0.4389134049415588,0.3596994876861572,0.2299916744232177,-0.6075342297554016,0.613679051399231,-0.2287825644016266
1749039097.1184912,-2.5063515683557416,-2.081692697986532,-2.474045228645357,3.7976255575809454,-6.1990698017795,5.722036464144389,0.08251486564770114,-0.010930297082467438,0.11289385197302111,-0.1500003123123681,0.07329272165476793,-0.26508478591696233,0.4000199139118194,0.3351958990097046,0.2385486364364624,-0.6008400917053223,0.6022298336029053,-0.2379119545221328
1749039097.1185296,-2.5061906812821166,-2.081713269220997,-2.473825898560462,3.79733829740637,-6.198926997857187,5.721521823808236,0.08302181442491753,-0.010925125057279756,0.11330823056983425,-0.1512896779151751,0.07348108380831803,-0.2668073405565759,0.4379792809486389,0.3472134470939636,0.2327217757701873,-0.5931322574615479,0.5833290219306946,-0.2755480706691742
1749039097.1185677,-2.506030094784331,-2.0817334945384944,-2.4736076385765666,3.7970507354431793,-6.198785237126189,5.72100707824635,0.08353029996831692,-0.010924314779243313,0.11372108617944045,-0.15253231531454112,0.07354826599340496,-0.26850068098671487,0.4379792809486389,0.3472134470939636,0.2327217757701873,-0.5931322574615479,0.5833290219306946,-0.2755480706691742
1749039097.118605,-2.5058693779976946,-2.0817534818507832,-2.473389718997322,3.7967622220925796,-6.198644461581709,5.720491046202502,0.08403458568954332,-0.010931861688825609,0.11414999720279952,-0.15371084686316402,0.07352153514299758,-0.27017840470093324,0.3811098337173462,0.3431688547134399,0.2475542426109314,-0.5845184922218323,0.6098811030387878,-0.3114677369594574
1749039097.118642,-2.5057079973567964,-2.0817733777641556,-2.4731712756907123,3.7964719567896807,-6.1985044553190365,5.7199722694219375,0.08452994870564493,-0.010950260084590716,0.1146116996331993,-0.15481541570575852,0.07343485247235532,-0.2718549586306835,0.3940673470497131,0.3492266237735748,0.2488183975219726,-0.5593193769454956,0.6306225657463074,-0.2908584475517273
1749039097.1186793,-2.505545364727615,-2.081793353623461,-2.4729513838211448,3.79617905906236,-6.198364874553646,5.719449145454503,0.08501356765995186,-0.010980350142263935,0.11512087874044431,-0.1558449685804822,0.07332571044074135,-0.27354302476535497,0.3940673470497131,0.3492266237735748,0.2488183975219726,-0.5593193769454956,0.6306225657463074,-0.2908584475517273
1749039097.1187165,-2.5053808986442565,-2.0818135884441884,-2.472729138959519,3.7958826553651237,-6.1982252888176355,5.718920085238374,0.08548511953625602,-0.011021369556956857,0.11568917171076304,-0.1568070416819798,0.0732319679032014,-0.27525146754390206,0.4270845353603363,0.3491332232952118,0.239888459444046,-0.5547260046005249,0.6241545677185059,-0.2621793150901794
1749039097.1187532,-2.505214089162039,-2.0818342503516463,-2.472503735342973,3.7955819689102976,-6.198085226451676,5.718383670408282,0.0859469795913818,-0.01107120198596103,0.11632446753563741,-0.15771610447471873,0.0731890610955708,-0.2769841388789387,0.4270845353603363,0.3491332232952118,0.239888459444046,-0.5547260046005249,0.6241545677185059,-0.2621793150901794
1749039097.1187909,-2.5050445541665187,-2.081855478480028,-2.472274529896563,3.7952763969230956,-6.197944216389759,5.71783878255853,0.08640399285711997,-0.011126792304829632,0.11703054889240863,-0.15859079953767763,0.07322780397891805,-0.27873964977745774,0.4004249572753906,0.3542742729187011,0.2489765882492065,-0.5647675395011902,0.6226402521133423,-0.2996178865432739
1749039097.1188283,-2.504872075744213,-2.081877367445144,-2.4720410821842633,3.7949655608665327,-6.1978018190483395,5.717284681668009,0.08686285615428084,-0.011184677410216292,0.11780707631872678,-0.15945063168531015,0.0733728242168947,-0.28051206310087284,0.4076579213142395,0.3297004997730255,0.2483415007591247,-0.6198357343673706,0.6448352336883545,-0.3198816776275635
1749039097.1188667,-2.5046966107096966,-2.0818999563400133,-2.4718031664619033,3.794649322577546,-6.197657643331509,5.7167210262711965,0.08733119911535328,-0.011241560766371159,0.1186498669038809,-0.16031276315064438,0.07364156578231375,-0.2822923223066986,0.3745550215244293,0.3364896476268768,0.2560271024703979,-0.6225294470787048,0.6447383165359497,-0.2820848822593689
1749039097.118905,-2.5045182770931738,-2.0819232237145706,-2.4715607601232934,3.794327769857533,-6.1975113525250505,5.716147847004551,0.08781648524610818,-0.011294844921289347,0.11955137863678467,-0.16118954498637958,0.07404373890913714,-0.2840700945437192,0.3745550215244293,0.3364896476268768,0.2560271024703979,-0.6225294470787048,0.6447383165359497,-0.2820848822593689
1749039097.1189473,-2.504337323887872,-2.0819470892374157,-2.471314018130283,3.7940011823683286,-6.197362665507071,5.715565496037067,0.08832487878942784,-0.011343038162631594,0.12050129436466138,-0.1620872512762996,0.07458109797270811,-0.28583561403733787,0.4131229817867279,0.3401547074317932,0.2137859165668487,-0.6297478675842285,0.6222317218780518,-0.2766138911247253
1749039097.1189868,-2.504154092461621,-2.0819714218560756,-2.471063242735869,3.7936699891410903,-6.197211359521412,5.7149745921854045,0.0888602410732541,-0.011385972365963561,0.12148711824292575,-0.16300619262199514,0.0752474610194912,-0.2875811336307355,0.3603226542472839,0.3425219655036926,0.2065459489822387,-0.5773599147796631,0.6253580451011658,-0.2288722991943359
1749039097.1190245,-2.50396897624203,-2.0819960535339184,-2.470808853849813,3.7933347250744207,-6.197057278132044,5.714375971083921,0.08942342055634526,-0.011424802520547133,0.12249475182433164,-0.1639420266277612,0.07602894401252783,-0.2893017526053414,0.472093403339386,0.3533331155776977,0.2635063827037811,-0.602715253829956,0.643181324005127,-0.2923175692558288
1749039097.119363,-2.5037823833434305,-2.0820207970870364,-2.470551361809439,3.792995990384812,-6.196900345059414,5.713770641525327,0.0900119686559361,-0.011461794010530699,0.12350908614264441,-0.16488776590669227,0.0769044596991174,-0.29099562488794206,0.4126936793327331,0.3483046889305115,0.276651918888092,-0.5399328470230103,0.6464593410491943,-0.3185467720031738
1749039097.1213522,-2.503594705811446,-2.082045466046926,-2.4702913429237587,3.7926544159061013,-6.196740582115205,5.713159746618068,0.09062034147845538,-0.011499933453054398,0.12451469007566413,-0.1658358261241317,0.07784659791548798,-0.2926637528176088,0.4126936793327331,0.3483046889305115,0.276651918888092,-0.5399328470230103,0.6464593410491943,-0.3185467720031738
1749039097.1663022,-2.5034062980953915,-2.0820698938799698,-2.4700294174764426,3.792310636222535,-6.196578127080894,5.712544527568093,0.09124054900902243,-0.01154242017763518,0.12549665721264439,-0.1667795202384573,0.0788230205926399,-0.29430964920490815,0.4009555876255035,0.3606165647506714,0.2644452750682831,-0.5685952305793762,0.673337459564209,-0.3178874850273132
1749039097.1663492,-2.503217465039217,-2.082093949825536,-2.469766228181681,3.7919652696606505,-6.196413245288485,5.711926284472838,0.09186312470789888,-0.011592109970121669,0.1264415955947132,-0.1677136671715678,0.07979844617160843,-0.29593908760977344,0.4107550978660583,0.3456206321716308,0.2458398193120956,-0.5683619976043701,0.6462814807891846,-0.275379866361618
1749039097.1663902,-2.503028456710756,-2.082117549404525,-2.4695024152985874,3.791618900476864,-6.196246328001721,5.711306324712992,0.09247824748035989,-0.011650991928374266,0.12733865263021646,-0.1686343477140974,0.08073717719468929,-0.29756001540707305,0.4127739071846008,0.3418078124523163,0.2405758500099182,-0.6008617877960205,0.6417092680931091,-0.3262556791305542
1749039097.1664298,-2.5028394656858937,-2.0821406589350033,-2.4692385850757135,3.7912720574989205,-6.196077872559229,5.710685891073054,0.09307685933454685,-0.011719780804425536,0.12818041550609727,-0.16953817217639114,0.08160598385269853,-0.29918256081361955,0.4100254476070404,0.3410979807376861,0.2462589740753173,-0.6318971514701843,0.6368387937545776,-0.3044679164886474
1749039097.166468,-2.502650622991063,-2.0821632945384168,-2.4689752712794686,3.790925185985784,-6.195908443312453,5.710066069813891,0.09365165822379082,-0.01179769622501985,0.1289635414733726,-0.17042159689301836,0.08237704278417982,-0.3008189767700892,0.4100254476070404,0.3410979807376861,0.2462589740753173,-0.6318971514701843,0.6368387937545776,-0.3044679164886474
1749039097.1665056,-2.502461990930204,-2.0821855168045853,-2.4687128930045814,3.7905786131231505,-6.195738616939542,5.709447688084334,0.09419788101497129,-0.011882474242623547,0.12968903720323358,-0.1712807749670749,0.08303057535055373,-0.30248333830322105,0.4435003995895386,0.3276776373386383,0.2561112642288208,-0.6483888030052185,0.6335362792015076,-0.2788310348987579
1749039097.166543,-2.502273553091818,-2.0822074224922162,-2.468451713859291,3.790232510133183,-6.195568919182079,5.708831214900651,0.09471381789177988,-0.011970619032732832,0.13036217841575282,-0.17211216853246344,0.08355683928345232,-0.3041908368724767,0.4130683839321136,0.3300653994083404,0.2358326166868209,-0.6100836396217346,0.6088647246360779,-0.2802793085575104
1749039097.1665812,-2.5020852035807506,-2.082229134492844,-2.468191808423448,3.789886856092802,-6.195399762145428,5.708216681084527,0.09520101562546988,-0.01205786150509643,0.13099210079355897,-0.17291378028146645,0.08395719255769936,-0.3059565960225187,0.4130683839321136,0.3300653994083404,0.2358326166868209,-0.6100836396217346,0.6088647246360779,-0.2802793085575104
1749039097.166618,-2.5018967392413796,-2.08225079102677,-2.467933042671201,3.7895414115333486,-6.195231392151486,5.707603634320479,0.09566413972899612,-0.012139756277575294,0.13159109701474883,-0.17368653256678926,0.08424405816264362,-0.30779406588492975,0.4555173516273498,0.3401917815208435,0.2363849431276321,-0.5662693977355957,0.6180405616760254,-0.3189950883388519
1749039097.166655,-2.501707859982781,-2.082272534929519,-2.4676750751617247,3.7891957125084876,-6.1950638572698455,5.706991145289531,0.09611049373252875,-0.012212324170485367,0.1321736522309879,-0.17443518570920885,0.0844397620856264,-0.3097132117399776,0.4113343954086303,0.3559878468513489,0.2470693886280059,-0.5781555771827698,0.617743730545044,-0.3261628448963165
1749039097.1666918,-2.5015181821634904,-2.0822945039172933,-2.4674173835057798,3.7888490950249354,-6.1948970005736665,5.706377875678339,0.09654924705496357,-0.012272636237980137,0.1327552681238956,-0.1751683144178649,0.08457436800626725,-0.3117188365260158,0.4113343954086303,0.3559878468513489,0.2470693886280059,-0.5781555771827698,0.617743730545044,-0.3261628448963165
1749039097.166729,-2.5013272673812366,-2.08231682261894,-2.46715931531118,3.788500753703947,-6.194730480183198,5.705762206624056,0.09699047869727724,-0.012319241829138121,0.13335116057577426,-0.1758971992391021,0.08468275255876634,-0.31380940593661005,0.4180995225906372,0.3557744920253753,0.2211061418056488,-0.6099131107330322,0.5934051275253296,-0.3407538533210754
1749039097.1667662,-2.501134664302424,-2.0823395967435974,-2.4669001561554365,3.788149828879197,-6.194563811678772,5.7051424101491115,0.09744416887997007,-0.01235237257405516,0.1339749471906435,-0.1766338953215638,0.08480123483479504,-0.3159766485528214,0.4087722897529602,0.3720294535160064,0.2570350468158722,-0.605987548828125,0.6326466798782349,-0.3105154037475586
1749039097.1668031,-2.500939956689459,-2.082362909122436,-2.4666392025969333,3.7877955079888888,-6.194396424736739,5.704516834591519,0.09791925641338509,-0.012373901938628667,0.13463745745379774,-0.17738905507450703,0.08496410333479419,-0.31820601511073,0.3859321475028991,0.3449913561344147,0.2597031593322754,-0.6532882452011108,0.6519707441329956,-0.3099347949028015
1749039097.1668427,-2.500742809301764,-2.0823868168641084,-2.4663758285363877,3.7874371246374374,-6.194227725453859,5.703884074858477,0.09842284545430126,-0.012387088775781957,0.13534580273019578,-0.17817019160821726,0.08520038175272886,-0.3204778817414308,0.4423875212669372,0.3365974426269531,0.2701910138130188,-0.6671557426452637,0.6347343325614929,-0.3072296977043152
1749039097.1668804,-2.500543005243267,-2.0824113488877134,-2.466109537556368,3.7870742418587775,-6.1940571579738695,5.703243108038136,0.09895961547296699,-0.012396165655703248,0.13610283311326676,-0.17898093606195756,0.0855311295675677,-0.32276924819153857,0.4423875212669372,0.3365974426269531,0.2701910138130188,-0.6671557426452637,0.6347343325614929,-0.3072296977043152
1749039097.166917,-2.500340471210446,-2.0824365037103254,-2.4658399984753303,3.7867067105435264,-6.193884261110076,5.70259338568133,0.0995314711280869,-0.01240584363340341,0.1369070722795841,-0.1798215067773757,0.08596748292336379,-0.3250556398944964,0.4152340888977051,0.3404864072799682,0.2898765206336975,-0.6822784543037415,0.6312931180000305,-0.3203493058681488
1749039097.1669545,-2.5001352885549717,-2.082462248101196,-2.4655670633664246,3.786334696290319,-6.193708715887855,5.701934878678537,0.10013745306841185,-0.01242080163479432,0.13775315824814094,-0.18069019051810326,0.08650954646931698,-0.3273129539817823,0.4342593550682068,0.3433566689491272,0.2962156236171722,-0.6187713742256165,0.6402525901794434,-0.2989861369132995
1749039097.166992,-2.4999276883531025,-2.082488517490075,-2.4652907673093627,3.7859586692577496,-6.1935303790927465,5.701268070482699,0.10077390126740879,-0.012445220729339693,0.13863274061285122,-0.18158528856658795,0.08714619947668646,-0.329519065439032,0.3564745187759399,0.323096752166748,0.2579931616783142,-0.6088588237762451,0.6584019660949707,-0.2828888893127441
1749039097.1670291,-2.4997180298756763,-2.0825152187640166,-2.4650113098569264,3.7855793555034194,-6.193349298293423,5.700593896519029,0.1014348217258711,-0.012482415133064834,0.13953570874777618,-0.18250683151487065,0.08785588134431042,-0.3316551098997584,0.430336058139801,0.3344910740852356,0.2728806734085083,-0.6041007041931152,0.6696110963821411,-0.3317668735980987
1749039097.167067,-2.499506764664029,-2.0825422357262946,-2.464729020689916,3.785197655397326,-6.1931657065330326,5.699913635160126,0.10211237876390512,-0.012534599778588949,0.14045156462424985,-0.18345747202054136,0.0886084144200455,-0.33370646298976364,0.430336058139801,0.3344910740852356,0.2728806734085083,-0.6041007041931152,0.6696110963821411,-0.3317668735980987
1749039097.1671047,-2.4992943909731045,-2.082569437284123,-2.464444314449614,3.7848145411322753,-6.19297999861768,5.699228764181426,0.10279744168949942,-0.012602815225803893,0.14137072678474039,-0.1844422823602107,0.08936784476280922,-0.33566350758938635,0.4212765097618103,0.3269307911396026,0.2666898369789123,-0.6283279657363892,0.6639293432235718,-0.3152415156364441
1749039097.1673644,-2.499081403916006,-2.0825966881319973,-2.464157640402445,3.7844309475249718,-6.192792693467115,5.698540800789363,0.10348015194313642,-0.012687006732387832,0.14228557160803607,-0.1854675851444027,0.09009612772815931,-0.337522277668318,0.4189494848251343,0.3176416754722595,0.2742886841297149,-0.6725676655769348,0.6226682066917419,-0.2622308433055877
1749039097.1693811,-2.4988682459490863,-2.0826238610251386,-2.463869431946512,3.784047668961172,-6.192604387638135,5.69785114351518,0.1041505145313304,-0.012786231510487332,0.14319107609790052,-0.18653927539729337,0.09075730515161122,-0.3392849779330197,0.4189494848251343,0.3176416754722595,0.2742886841297149,-0.6725676655769348,0.6226682066917419,-0.2622308433055877
1749039097.2102826,-2.498655262001969,-2.0826508489973112,-2.4635800605659974,3.783665273255985,-6.192415704786513,5.697160933450347,0.10479903081896114,-0.012898950438049075,0.14408500290373105,-0.18766122979541025,0.09132168285667988,-0.3409602524276498,0.403596818447113,0.3266500532627105,0.2701088786125183,-0.6785060167312622,0.6155164241790771,-0.2872294485569
1749039097.2103293,-2.498442663599264,-2.082677575723522,-2.4632897986017244,3.7832840409002473,-6.192227245146148,5.696470949914208,0.10541737757093593,-0.013023348357983517,0.14496764825393627,-0.18883429965281426,0.09176947184458425,-0.34256299952270125,0.403596818447113,0.3266500532627105,0.2701088786125183,-0.6785060167312622,0.6155164241790771,-0.2872294485569
1749039097.2103703,-2.4982305056406187,-2.0827040028214605,-2.4629987940481444,3.7829039346174675,-6.192039537999195,5.695781549609965,0.1059991093182848,-0.013157621911629839,0.1458412436086496,-0.19005610004251594,0.0920934144174464,-0.3441135532132478,0.4098103642463684,0.3140493929386139,0.2477151453495025,-0.6635391116142273,0.5959685444831848,-0.280343621969223
1749039097.2104092,-2.4980186780058693,-2.0827301336550823,-2.46270705874835,3.7825246000321835,-6.191852998962397,5.695092650532144,0.10654032324343767,-0.013300178942536094,0.14670914466088342,-0.19132146504690004,0.09230005199031384,-0.34563614473978743,0.4128464758396148,0.3147795498371124,0.2921355068683624,-0.6125940084457397,0.6015348434448242,-0.2641520202159881
1749039097.2104473,-2.4978069129168934,-2.082756013543993,-2.4624144702980364,3.782145395703789,-6.19166789372066,5.694403757093152,0.10704018310491428,-0.013449711380355698,0.14757494883213435,-0.19262318055439798,0.09240947154766693,-0.3471566767925256,0.4128464758396148,0.3147795498371124,0.2921355068683624,-0.6125940084457397,0.6015348434448242,-0.2641520202159881
1749039097.2104857,-2.4975948085058817,-2.082781726219558,-2.4621207880999827,3.781765450293526,-6.191484310872777,5.693714022705903,0.1075011691802189,-0.013605133972414151,0.14844166561827274,-0.193952539639044,0.09245356278423277,-0.3486999768869644,0.4327632188796997,0.3000086545944214,0.2685080170631408,-0.6461327075958252,0.6132618188858032,-0.2950202524662018
1749039097.2105234,-2.4973818683076483,-2.0828073864115577,-2.4618256838472945,3.781383743968679,-6.191302147646746,5.693022346670161,0.10792893453670926,-0.013765419976035143,0.14931103932055706,-0.1952994306000116,0.09247298714644074,-0.3502868566755905,0.4327632188796997,0.3000086545944214,0.2685080170631408,-0.6461327075958252,0.6132618188858032,-0.2950202524662018
1749039097.2105615,-2.497167554370324,-2.0828331289444217,-2.4615287848215357,3.78099920827013,-6.191121111955151,5.69232749941919,0.10833172009548861,-0.013929400245625152,0.15018309722448828,-0.19665199420166035,0.09251316792672412,-0.35193145172927304,0.4428001344203949,0.3055386543273926,0.2605386972427368,-0.6734811663627625,0.5757027268409729,-0.328610211610794
1749039097.2106016,-2.4969513489293416,-2.0828590955230832,-2.461229725385235,3.780610834571157,-6.190940742436063,5.691628264351567,0.1087193895206879,-0.014095606894153656,0.15105596808314586,-0.19799620763113687,0.0926196677628107,-0.3536393619252094,0.4099225401878357,0.314670592546463,0.2797307074069977,-0.7212292551994324,0.615465521812439,-0.2764041721820831
1749039097.210639,-2.4967328175667314,-2.082885421075105,-2.460928199795837,3.780217778613655,-6.190760445750863,5.690923579434775,0.10910224039777822,-0.01426222688910839,0.15192598740703894,-0.19931590018011386,0.09283337295594415,-0.35540699640103085,0.4099225401878357,0.314670592546463,0.2797307074069977,-0.7212292551994324,0.615465521812439,-0.2764041721820831
1749039097.210677,-2.4965116659122994,-2.0829122217483977,-2.4606240086947224,3.779819448282995,-6.190579548118213,5.690212659649819,0.10948979404133483,-0.01442719154194134,0.15278807846932893,-0.20059360441393734,0.09318597217124079,-0.3572222861487473,0.4243600368499756,0.3318734169006347,0.2698260843753814,-0.7139071226119995,0.6169342398643494,-0.2925204634666443
1749039097.210714,-2.496287781632774,-2.0829395863396782,-2.4603170915524832,3.779415562524697,-6.190397355606361,5.68949508125133,0.10988976407337799,-0.014588382448451693,0.1536363677977197,-0.2018123339524028,0.09369625960555127,-0.3590666597302757,0.4284988045692444,0.3138794898986816,0.2588618993759155,-0.654760479927063,0.6196067333221436,-0.3291997909545898
1749039097.2107506,-2.4960612539713107,-2.0829675721622842,-2.4600075380324293,3.7790061711748493,-6.190213215396754,5.6887708113328825,0.11030737352462551,-0.014743898141155717,0.15446496067135426,-0.20295797878495675,0.09436775402254412,-0.3609179530240375,0.4561775028705597,0.3214681148529053,0.2789340615272522,-0.6390089392662048,0.6221381425857544,-0.2928081452846527
1749039097.2107904,-2.495832365904097,-2.082996205373886,-2.459695574282517,3.7785916307121576,-6.190026569647937,5.688040174754338,0.11074513783212095,-0.01489230648695266,0.1552687752006947,-0.2040216960992647,0.0951879954222708,-0.36275375688011674,0.5060397982597351,0.318176120519638,0.3144660592079162,-0.6397696733474731,0.65824955701828,-0.2778771817684173
1749039097.210831,-2.4956015593195,-2.0830254848144527,-2.459381525895286,3.778172539830991,-6.189836995670102,5.6873037651361,0.11120315035762915,-0.015032808996758528,0.15604432254391862,-0.20500160711935272,0.09612969306139656,-0.36455461136026107,0.5060397982597351,0.318176120519638,0.3144660592079162,-0.6397696733474731,0.65824955701828,-0.2778771817684173
1749039097.2108676,-2.4953693792165903,-2.0830553877675535,-2.459065765040153,3.7777496474016656,-6.189644229624038,5.686562320524406,0.1116798012221537,-0.015165264813900615,0.1567903207681536,-0.20590333144638648,0.09715368074449757,-0.36630648332861754,0.4039491713047027,0.3329793810844421,0.2436871230602264,-0.6331467628479004,0.645888090133667,-0.2361808568239212
1749039097.2109048,-2.4951364062768424,-2.0830858760577735,-2.4587486523137927,3.7773237498674654,-6.189448173972289,5.685816590672779,0.11217275360228825,-0.015290059928611871,0.15750803326767346,-0.20673929103041352,0.09821339711615866,-0.3680021538692656,0.4195681512355804,0.3074248433113098,0.253180056810379,-0.6866112947463989,0.6398730874061584,-0.3145874738693237
1749039097.210942,-2.49490318819679,-2.083116901401722,-2.4584304842274287,3.7768955954852843,-6.189248890945799,5.685067222023026,0.11267993464176645,-0.01540785077057473,0.1582012462368861,-0.20752711036447785,0.0992603654777714,-0.36964144557850676,0.4313797056674957,0.322783499956131,0.2570501267910003,-0.7037785649299622,0.6219577789306641,-0.3072347640991211
1749039097.2109787,-2.494670179910783,-2.083148409389604,-2.458111455999843,3.7764658106702202,-6.189046585595931,5.684314681668728,0.113200304389413,-0.015519245610821766,0.15887587069603334,-0.20828766463974635,0.10024994606922723,-0.37123051476374974,0.4313797056674957,0.322783499956131,0.2570501267910003,-0.7037785649299622,0.6219577789306641,-0.3072347640991211
1749039097.2110157,-2.494437700902992,-2.0831803416740744,-2.4577916457713864,3.776034858449927,-6.188841582055909,5.683559232053412,0.11373424204562471,-0.015624499360361503,0.1595392580445645,-0.20904329771804958,0.10114654162982678,-0.37278060793211654,0.4023856222629547,0.3079580068588257,0.2990403175354004,-0.6862151026725769,0.5930071473121643,-0.3280667662620544
1749039097.2113402,-2.494205913758805,-2.0832126362007903,-2.4574710203578656,3.7756030306108253,-6.188634295315682,5.682800953807956,0.11428349366329892,-0.01572328506381289,0.1601993897719905,-0.2098164694494825,0.10192749695827587,-0.37430668917468746,0.387210339307785,0.3288285136222839,0.2556676268577575,-0.6156094670295715,0.5707882046699524,-0.3525358438491821
1749039097.21334,-2.4939748236852677,-2.0832452257688003,-2.4571494572394244,3.7751704674428344,-6.188425199694107,5.68203980182642,0.11485071928121639,-0.015814576981047053,0.16086409417614936,-0.2106287363266662,0.10258513024325255,-0.37582619964844916,0.387210339307785,0.3288285136222839,0.2556676268577575,-0.6156094670295715,0.5707882046699524,-0.3525358438491821
1749039097.2542858,-2.493744295886495,-2.0832780356121527,-2.4568267755099735,3.7747371957194664,-6.188214795507235,5.681275675842824,0.11543874950560062,-0.015896648843348217,0.16154037675630412,-0.2114997271601429,0.10312661803936547,-0.37735798027665596,0.4248136281967163,0.3341145813465118,0.2649749517440796,-0.6195471882820129,0.5917031168937683,-0.3143826127052307
1749039097.2543318,-2.4935140862211473,-2.08331098091567,-2.456502769460238,3.7743031757465455,-6.18800357640234,5.680508489752691,0.11604971835298697,-0.015967170218426786,0.1622338882454659,-0.21244580537902152,0.10357177766991554,-0.3789211896926432,0.4269956946372986,0.3174623250961303,0.2732623815536499,-0.6585107445716858,0.5912321209907532,-0.2795525193214416
1749039097.254372,-2.4932838798010986,-2.083343965263209,-2.4561772406022633,3.773868349639008,-6.187792000361382,5.679738229354134,0.11668427637588465,-0.016023382080246545,0.16294853288895625,-0.21347840146387034,0.10394910598528567,-0.3805339966650192,0.4269956946372986,0.3174623250961303,0.2732623815536499,-0.6585107445716858,0.5912321209907532,-0.2795525193214416
1749039097.25441,-2.493053332282739,-2.0833768809208295,-2.4558500262835747,3.773432684755383,-6.187580467271131,5.678964993974232,0.11734108448679959,-0.01606234537555199,0.16368622974978023,-0.21460236065940907,0.10429069792481324,-0.38221196308699434,0.4133743941783905,0.3247730731964111,0.2750943005084991,-0.7027269601821899,0.6136292815208435,-0.3588761985301971
1749039097.2544477,-2.4928221092663008,-2.0834096115524154,-2.455521024241578,3.772996207658255,-6.187369304979354,5.678189021120618,0.11801672811739833,-0.016081268198953336,0.16444685418012567,-0.21581484866829437,0.10462684779736098,-0.38396629539625254,0.4133743941783905,0.3247730731964111,0.2750943005084991,-0.7027269601821899,0.6136292815208435,-0.3588761985301971
1749039097.254486,-2.4925899195787466,-2.0834420375613267,-2.4551902114945876,3.772559024084258,-6.187158763722934,5.677410692618528,0.11870608463881425,-0.01607791242249532,0.16522838753114083,-0.21710528003294066,0.10498120195182924,-0.3858023808240736,0.4440375864505768,0.3211274445056915,0.2801542580127716,-0.7052555680274963,0.6307298541069031,-0.3410969376564026
1749039097.2545233,-2.4923565384400943,-2.083474043818808,-2.4548576542112106,3.772121320326436,-6.186949016601801,5.676630517950418,0.11940305884205979,-0.016051054287879982,0.16602728033387887,-0.21845642946782165,0.10536725174181685,-0.387719090010612,0.428016185760498,0.3298856616020202,0.2760927677154541,-0.6340187788009644,0.6049087643623352,-0.370678186416626
1749039097.2545657,-2.492121817801118,-2.083505529075264,-2.4545235052354695,3.771683343648698,-6.186740162812762,5.6758490909212185,0.12010150581550806,-0.01600093671042364,0.16683898587252646,-0.2198465013622972,0.10578672071374377,-0.3897091632926169,0.428016185760498,0.3298856616020202,0.2760927677154541,-0.6340187788009644,0.6049087643623352,-0.370678186416626
1749039097.2546048,-2.4918856837826384,-2.0835364159738403,-2.454187988367597,3.7712453641142405,-6.186532231055443,5.675067021014291,0.12079611313556252,-0.015929626578438865,0.16765856699195889,-0.2212516465626432,0.1062300588055141,-0.3917606715891768,0.4300296306610107,0.3318232297897339,0.2841370105743408,-0.6121784448623657,0.6245689392089844,-0.3494926989078522
1749039097.2546422,-2.4916481236850236,-2.0835666605101064,-2.4538513712362335,3.7708076245219373,-6.186325181840961,5.674284846898551,0.12148303609739512,-0.015841195877012767,0.1684812523518179,-0.22264837178631372,0.10667890018466838,-0.3938591899314429,0.4300296306610107,0.3318232297897339,0.2841370105743408,-0.6121784448623657,0.6245689392089844,-0.3494926989078522
1749039097.25468,-2.491409165985472,-2.0835962600136613,-2.453513929674252,3.7703702862798103,-6.1861189082174155,5.673502942127464,0.1221601714566003,-0.015741678510765064,0.16930283879310665,-0.2240154919053601,0.10711004093563128,-0.3959900858646862,0.4518388509750366,0.3207691609859466,0.2875048816204071,-0.6279563307762146,0.5971567034721375,-0.2877021133899688
1749039097.2547169,-2.491168856458847,-2.0836252589840476,-2.4531759064792173,3.7699333778016237,-6.185913234726399,5.672721422859474,0.12282707785056125,-0.015638795949756652,0.17011989608612268,-0.2253355745217583,0.10750026846168918,-0.398140318685793,0.4357796311378479,0.3311535716056824,0.2717471718788147,-0.6637163162231445,0.5884674787521362,-0.3300101161003113
1749039097.2547538,-2.490927233554825,-2.0836537521380216,-2.4528374683479734,3.76949675126448,-6.185707915121264,5.67194006849934,0.12348464683914114,-0.015541475942588713,0.17092980096884142,-0.22659602274428584,0.10783123186944334,-0.40029938607071197,0.4357796311378479,0.3311535716056824,0.2717471718788147,-0.6637163162231445,0.5884674787521362,-0.3300101161003113
1749039097.2547903,-2.4906843068681264,-2.0836818838889783,-2.4524986671057127,3.76906005431703,-6.185502630753944,5.671158269480029,0.12413466184236181,-0.01545920502721977,0.171730677611291,-0.22778992926075106,0.10809351265329749,-0.40245941896104953,0.4417272806167602,0.3342853784561157,0.2937192320823669,-0.6132049560546875,0.5771042108535767,-0.3408842980861664
1749039097.2548275,-2.49044004270606,-2.0837098434945838,-2.452159412951714,3.768622723592535,-6.185296992561942,5.670375017577128,0.12477935633663219,-0.015401265366548593,0.17252133330850897,-0.22891664328127406,0.10828917462923619,-0.40461472200969006,0.4417272806167602,0.3342853784561157,0.2937192320823669,-0.6132049560546875,0.5771042108535767,-0.3408842980861664
1749039097.2548645,-2.4901943593489038,-2.083737855495662,-2.451819466115845,3.768184004603136,-6.185090549265156,5.669588948890036,0.12542102732306426,-0.015375918862506237,0.17330125121435994,-0.2299817789974481,0.10843233714482141,-0.4067611628617773,0.4260088801383972,0.3306561708450317,0.2862178087234497,-0.5671214461326599,0.5636391639709473,-0.3243695497512817
1749039097.2549014,-2.4899471323523987,-2.083766165761398,-2.451478449586058,3.767742998390218,-6.18488280306815,5.6687984395431315,0.12606171038032898,-0.015389617233827419,0.17407064692291133,-0.23099636360676454,0.10854767330518547,-0.40889573002110563,0.4454827010631561,0.3207458555698395,0.2867468297481537,-0.5849658250808716,0.6121079921722412,-0.3460314571857452
1749039097.2549388,-2.4896982086372907,-2.083795024202901,-2.451135881743987,3.767298731361975,-6.18467323291617,5.668001744693856,0.12670290109931778,-0.015446327626290418,0.17483053309056207,-0.2319750602694962,0.10866710875852498,-0.4110163800827228,0.4454827010631561,0.3207458555698395,0.2867468297481537,-0.5849658250808716,0.6121079921722412,-0.3460314571857452
1749039097.2549758,-2.4894474272884617,-2.0838246658447455,-2.450791224839262,3.766850241645353,-6.18446132432317,5.667197165044998,0.12734531797783588,-0.01554706039875715,0.17558270027514614,-0.23293377894063982,0.10882530110411605,-0.4131220748960608,0.4532592594623565,0.3122529983520508,0.2839987576007843,-0.6298986077308655,0.6129887104034424,-0.2970315217971802
