nimar13/UR3e_dataset_trayectorias/trayectorias_ejecutadas_filtradas/quintic/trayectoria_247_result_filtrado.csv
timestamp,q1,q2,q3,q4,q5,q6,qd1,qd2,qd3,qd4,qd5,qd6,tau1,tau2,tau3,tau4,tau5,tau6
1749038009.0063038,5.963846107138995,-0.7729501332997536,1.7308693060193558,-2.224224788392077,-5.985669503590347,4.61974708824559,-0.0015558925182518012,-0.00024460003665707607,0.00026809233128206384,-0.0004495152880377533,0.00129966383011677,-0.003722032605470826,0.1014693304896354,-1.802231311798096,-0.6203732490539551,-0.6733735799789429,0.3387333154678345,0.0222422871738672
1749038009.0063505,5.96383978530438,-0.7729532876997005,1.7308662348956727,-2.224224313305622,-5.985670103709133,4.619742403247407,-0.0014946880799747398,-0.0002215733121107738,0.0002597471489366913,-0.00042296734944323374,0.001256554655941166,-0.003480431914583961,0.1014693304896354,-1.802231311798096,-0.6203732490539551,-0.6733735799789429,0.3387333154678345,0.0222422871738672
1749038009.0063915,5.963833528360812,-0.7729563329100911,1.730863183026195,-2.2242238787401143,-5.985670320863981,4.619737754853152,-0.0014350270464602453,-0.0001953849503062535,0.0002512829956418589,-0.000396787024841494,0.0012134638283744414,-0.003245962558363711,0.1008433103561401,-1.8054239749908447,-0.615825355052948,-0.6777099370956421,0.3673943281173706,0.0056010801345109
1749038009.0064306,5.963827438448238,-0.7729591741253454,1.7308601745626722,-2.2242235228535856,-5.985669997214397,4.619733150880874,-0.0013773732028116263,-0.00016736829023722113,0.0002427378683824947,-0.0003712645803979629,0.001169924311811797,-0.003022262368256032,0.0913049131631851,-1.7959587574005127,-0.6061584949493408,-0.6805423498153687,0.3687628507614136,-0.0077421348541975
1749038009.0064688,5.963821613920536,-0.7729617269056007,1.7308572430794327,-2.224223273624603,-5.985669028203838,4.6197285883799974,-0.0013218452388272098,-0.00013942068880019658,0.0002341631773807246,-0.00034669303161363616,0.0011255509734841424,-0.0028125971148701724,0.1032222509384155,-1.8245816230773928,-0.6072908639907837,-0.7014951705932617,0.3713333010673523,-0.009642681106925
1749038009.0065064,5.963816144943718,-0.7729639219124245,1.7308544350986235,-2.2242231460732365,-5.985667371325977,4.619724055611688,-0.0012681541149146037,-0.00011399285468611247,0.00022562847157010476,-0.00032336495227316606,0.001080078647971065,-0.002619707266460517,0.1066511273384094,-1.829972267150879,-0.6046013832092285,-0.6820031404495239,0.3730866909027099,0.0069824922829866
1749038009.0065448,5.9638111100305204,-0.7729657083800299,1.730851810869106,-2.224223141350953,-5.985665048684998,4.619719536775113,-0.0012156242345596456,-9.402590787279595e-05,0.00021722534247882672,-0.0003015627060453193,0.0010333832790053567,-0.0024455950696782836,0.1024442017078399,-1.812673568725586,-0.6105804443359375,-0.6809957027435303,0.3666579723358154,-0.014186025597155
1749038009.006583,5.963806573519259,-0.7729670567848368,1.730849441740457,-2.2242232475923704,-5.9856621438897655,4.619715018919879,-0.0011632959463105633,-8.283035310219366e-05,0.00020906973514807622,-0.00028154247495978995,0.0009854854845959247,-0.0022912921242344074,0.1060370430350303,-1.839195728302002,-0.6235222220420837,-0.6783322095870972,0.369558036327362,0.0144956950098276
1749038009.0066266,5.963802583928432,-0.7729679611375361,1.7308474043248778,-2.224223442230108,-5.985658794618174,4.619710500093751,-0.0011100859543469522,-8.390636268071573e-05,0.00020130175000873137,-0.0002635140526869915,0.0009365378309262099,-0.0021566630175981357,0.1113404110074043,-1.8141103982925413,-0.6129035353660583,-0.6775377988815308,0.3781502246856689,-0.0064685270190238
1749038009.0066676,5.963799173234161,-0.7729684408895636,1.7308457725609738,-2.224223695370957,-5.98565518218633,4.619705997209186,-0.00105496857157264,-0.00010071141738476658,0.00019408196795509482,-0.00024761982799969764,0.0008867989741035064,-0.0020402991798926435,0.1113404110074043,-1.8141103982925413,-0.6129035353660583,-0.6775377988815308,0.3781502246856689,-0.0064685270190238
1749038009.0067058,5.9637963569998504,-0.7729685419327493,1.7308446092958234,-2.224223973746609,-5.985651518884996,4.619701551569999,-0.0009971391188481106,-0.00013638898246319233,0.0001875834375958002,-0.00023391710825830682,0.0008365995485662344,-0.0019395433782189795,0.1105855777859687,-1.8544557094573972,-0.6160093545913696,-0.6930340528488159,0.3763155937194824,-0.0101057644933462
1749038009.006744,5.9637941348682215,-0.7729683359783737,1.7308439589351539,-2.2242242447048444,-5.98564803315065,4.61969723013661,-0.0009361303704360694,-0.0001934797672020717,0.00018197877553871128,-0.00022236753713044752,0.0007863057959094203,-0.0018506647623727553,0.1163837313652038,-1.8462059497833248,-0.5927862524986267,-0.6855055093765259,0.3673884868621826,-0.0003027645871043
1749038009.006781,5.963792490712525,-0.7729679179174123,1.730843842264877,-2.224224479715806,-5.985644952214148,4.619693121710996,-0.0008718686298999827,-0.0002736442997039612,0.00017742236190073266,-0.00021283605243126866,0.0007362869190690454,-0.0017691808305626896,0.1337253451347351,-1.850927472114563,-0.609768271446228,-0.6735800504684448,0.366996169090271,-0.0236172042787075
1749038009.0068192,5.963791392137802,-0.7729674013212232,1.7308442539990159,-2.2242246569044637,-5.985642482108472,4.619689328750129,-0.0008046714745421559,-0.0003774308329679157,0.00017402831007166448,-0.00020510011475213664,0.0006868907573010761,-0.0016902981704104458,0.1340886056423187,-1.8783605098724363,-0.6118434071540833,-0.6810232400894165,0.3673414587974548,0.004035678692162
1749038009.006857,5.963790789806747,-0.7729669125644202,1.730845163135761,-2.224224762207751,-5.985640786068124,4.619685956587372,-0.0007352000577363103,-0.0005041243435084435,0.0001718456474937413,-0.00019886818766317086,0.0006384300944861292,-0.0016094209610699709,0.1274336725473404,-1.864962577819824,-0.6164628267288208,-0.6695982217788696,0.3641643524169922,-0.007519313134253
1749038009.0068946,5.963790617706687,-0.7729665839884711,1.7308465158125164,-2.2242247889795794,-5.985639964043463,4.619683101980613,-0.0006643837516213879,-0.0006517085879988696,0.00017083287163183967,-0.00019380493690304175,0.0005911799348938277,-0.0015226600330166084,0.1228866726160049,-1.872567057609558,-0.6058736443519592,-0.6690187454223633,0.3842309117317199,-0.0034500816836953
1749038009.006932,5.963790795615467,-0.7729665463925904,1.730848239959994,-2.224224736220664,-5.985640037285741,4.6196808423471065,-0.0005933344979220463,-0.0008169617069148333,0.0001708346867407576,-0.00018955967346763038,0.00054538520125454,-0.0014272714849518536,0.1228866726160049,-1.872567057609558,-0.6058736443519592,-0.6690187454223633,0.3842309117317199,-0.0034500816836953
1749038009.0069687,5.963791234564042,-0.7729669212754537,1.7308502506876693,-2.2242246059394066,-5.985640941881342,4.619679226455615,-0.0005232640211751149,-0.000995684864604899,0.00017156423484613714,-0.0001857944453775166,0.0005012781064949942,-0.0013219647201066134,0.1440359801054,-1.8552823066711424,-0.6093567609786987,-0.6679890155792236,0.3684430122375488,-0.0037341145798563
1749038009.0070057,5.963791845161823,-0.7729678135767902,1.7308524552187259,-2.2242244003278104,-5.985642533619913,4.619678267189753,-0.00045541102786179254,-0.0011830338940605157,0.0001725944518127886,-0.00018220882213498978,0.0004591039658927567,-0.001207042432508259,0.1328719854354858,-1.8661421537399288,-0.6010363101959229,-0.6599602699279785,0.3634055256843567,0.0106212487444281
1749038009.0070426,5.9637925476059985,-0.7729693057890957,1.7308547565908428,-2.224224119465657,-5.985644604194608,4.619677937136224,-0.0003909796164256505,-0.001373894828017077,0.00017336223536831632,-0.00017855946774291228,0.00041915291683980725,-0.0010843631292463266,0.1312216073274612,-1.8598793745040891,-0.6073299646377563,-0.6800305843353271,0.3695152401924133,-0.0034364033490419
1749038009.0070796,5.963793281437203,-0.772971453985724,1.7308570561941428,-2.2242237601877552,-5.9856469062825095,4.619678167776459,-0.00033108553425796003,-0.0015632323825136235,0.00017318881435272337,-0.0001746736584026215,0.00038179287585427105,-0.000957142583407599,0.1492926776409149,-1.8660060167312624,-0.5892692804336548,-0.6755422353744507,0.3644929528236389,0.0142967021092772
1749038009.0071163,5.963794012876005,-0.7729742857379716,1.730859256032305,-2.2242233165592777,-5.985649183379726,4.619678852805832,-0.0002767040557094463,-0.0017463579412755217,0.00017131897280679405,-0.00017045669929704896,0.00034749654779338957,-0.0008296281551009356,0.1492926776409149,-1.8660060167312624,-0.5892692804336548,-0.6755422353744507,0.3644929528236389,0.0142967021092772
1749038009.007373,5.963794737943247,-0.7729777995284894,1.7308612617881483,-2.224222782069124,-5.9856511998071475,4.619679855656689,-0.00022861246651533808,-0.0019191035262281257,0.0001669805942126604,-0.00016589366141239872,0.0003168535084430082,-0.0007066875139509111,0.115822359919548,-1.869320511817932,-0.5936101675033569,-0.6708017587661743,0.3684712648391723,-0.0014174208045005
1749038009.0093648,5.963795480395852,-0.7729819653624374,1.7308629872548074,-2.224222153167822,-5.985652766871871,4.619681020733851,-0.00018732186317145706,-0.0020779283174456498,0.00015946443311570235,-0.00016104607356975703,0.000290558504985676,-0.0005933534237777672,0.1300692111253738,-1.8997782468795776,-0.593612790107727,-0.6716452836990356,0.3738381266593933,-0.0104886870831251
1749038009.050275,5.96379628452909,-0.772986726599286,1.730864359926527,-2.2242214332676804,-5.985653762244664,4.619682187243356,-0.00015299707607308385,-0.0022200038930600924,0.00014822222396386673,-0.00015604427511641322,0.00026936948496632826,-0.0004943623790344023,0.1397038847208023,-1.8830198049545288,-0.5927006602287292,-0.6630922555923462,0.3659417629241943,0.0030452450737357
1749038009.0503218,5.963797203938338,-0.7729920031520571,1.7308653270257675,-2.2242206360295413,-5.985654140774482,4.619683203961117,-0.00012536888934057674,-0.0023433163256295735,0.00013297925145491231,-0.00015107611030773638,0.00025403279183839564,-0.0004137189953884528,0.1586946696043014,-1.8660627603530884,-0.57706618309021,-0.6693712472915649,0.3666605353355407,0.0266206339001655
1749038009.0503626,5.963798288354111,-0.7729976960271735,1.730865861052344,-2.2242197868663545,-5.985653935978309,4.619683943034801,-0.00010364792466887338,-0.0024467946767015867,0.00011385518367279935,-0.00014637253020923527,0.00024517752237128925,-0.0003543111002290729,0.158451497554779,-1.8625024557113647,-0.5948878526687622,-0.671823263168335,0.3681047558784485,0.0224024467170238
1749038009.0504022,5.963799571450367,-0.7730036929609602,1.7308659638897277,-2.2242189220984745,-5.985653252266532,4.61968431103876,-8.645382262192732e-05,-0.0025304431322397793,9.148407831268288e-05,-0.00014219048611947008,0.0002431856701849852,-0.00031759386374514953,0.158451497554779,-1.8625024557113647,-0.5948878526687622,-0.671823263168335,0.3681047558784485,0.0224024467170238
1749038009.0504396,5.963801062564696,-0.7730098748407115,1.7308656685609303,-2.224218085898736,-5.9856522488039605,4.619684255997043,-7.177671566511816e-05,-0.0025954360792108393,6.712111639294632e-05,-0.00013879331407947658,0.0002480491837971541,-0.0003033568527159597,0.1695278882980346,-1.8776534795761108,-0.5932290554046631,-0.6613692045211792,0.353373646736145,0.0064436485990881
1749038009.0504775,5.963802744188279,-0.7730161226368268,1.7308650380468442,-2.224217325726395,-5.985651117007615,4.6196837698526725,-5.6990304169283424e-05,-0.002644140078119508,4.272049431000028e-05,-0.00013642869334931214,0.0002592292963363422,-0.00030958646598459167,0.149559274315834,-1.8729530572891235,-0.5825912952423096,-0.6688235998153687,0.3569715023040771,0.0087332548573613
1749038009.0505154,5.963804575291502,-0.7730223245980021,1.7308641611434148,-2.224216687141843,-5.985650054818845,4.619682886672677,-3.893574950605347e-05,-0.0026800465708553115,2.0967037739555436e-05,-0.000135304270298564,0.00027553710663422946,-0.0003324372535293959,0.1379754394292831,-1.8770893812179563,-0.565380334854126,-0.6754584312438965,0.3454904556274414,0.0126686980947852
1749038009.050553,5.963806499059673,-0.7730283834074275,1.7308631458367378,-2.224216208817084,-5.985649241463918,4.619681677445219,-1.4090797159779766e-05,-0.002707617450525647,5.244344693624207e-06,-0.0001355612447089061,0.0002950568475477287,-0.00036632751810104303,0.1462606638669967,-1.8695019483566284,-0.5778109431266785,-0.6663264036178589,0.3547854423522949,0.0140302060171961
1749038009.050591,5.963808453015431,-0.7730342229090628,1.7308621109149929,-2.224215918435928,-5.985648816163324,4.619680242498859,2.1172011549581207e-05,-0.0027320507919349635,-4.749509840009964e-07,-0.00013724672086132733,0.00031513390871838097,-0.0004041753858531429,0.1516244262456894,-1.8667024374008176,-0.581559419631958,-0.6796556711196899,0.3375818133354187,0.0239005424082279
1749038009.0506284,5.9638103795334185,-0.7730397939741297,1.7308611766358266,-2.224215830061306,-5.985648863419381,4.619678702457787,7.02486910162116e-05,-0.0027589689986707738,8.174143469380803e-06,-0.00014028648634316723,0.0003324479539362105,-0.00043778951509400684,0.1585266143083572,-1.8541115522384644,-0.5857188701629639,-0.6696763038635254,0.3462204933166504,0.0287789888679981
1749038009.050666,5.963812234936725,-0.773045079034061,1.7308604553759257,-2.224215943322684,-5.985649406382667,4.619677188425929,0.0001359143944658742,-0.002794027867728852,3.566391476073361e-05,-0.00014446098299818647,0.0003431870885882227,-0.0004584226557287941,0.170925423502922,-1.8731356859207156,-0.5732678174972534,-0.6563345193862915,0.3497820496559143,0.0130740059539675
1749038009.0507028,5.963813995613074,-0.7730500946539294,1.7308600432279795,-2.224216244388529,-5.98565040845563,4.619675831889795,0.00021991957932651388,-0.0028424510393574055,8.620829311862431e-05,-0.00014938829574449552,0.000343331900417628,-0.0004574857874124555,0.1688858270645141,-1.8582215309143064,-0.566191554069519,-0.6597940921783447,0.3587533235549927,0.0291841030120849
1749038009.0507536,5.963815660066795,-0.7730548913973264,1.7308600133513585,-2.224216708255704,-5.985651781946609,4.619674754722349,0.00032261890321034467,-0.002908510572660731,0.00016333434794565523,-0.00015451869828393174,0.00032904843800430717,-0.00042740552057716894,0.16635163128376,-1.8620284795761108,-0.5654032826423645,-0.6574515104293823,0.3487203121185303,0.0194418914616107
1749038009.050795,5.963817246614377,-0.7730595504378256,1.7308604115830755,-2.2242173016208615,-5.98565340163369,4.619674059656407,0.00044268393926032363,-0.00299499571650194,0.0002694183430672456,-0.00015914543846966937,0.00029717720833544225,-0.0003625884955532168,0.1709358990192413,-1.8515113592147827,-0.567255437374115,-0.6840057373046875,0.333990216255188,0.0266237445175647
1749038009.0508337,5.963818787389284,-0.7730641769438861,1.730861254546415,-2.224217985639724,-5.985655120709109,4.619673821588286,0.000576948854021186,-0.003102730779618574,0.0004052229382399047,-0.00016243589518141546,0.00024579181404242015,-0.0002604350936932712,0.1854360252618789,-1.8703974485397337,-0.5728246569633484,-0.6763410568237305,0.3465833663940429,0.0289091318845748
1749038009.050871,5.963820320130139,-0.7730688908555393,1.7308625302922642,-2.2242187182046327,-5.9856567866001305,4.619674080042988,0.0007204294419112997,-0.0032302131373838773,0.0005694809173062855,-0.00016348593764545913,0.00017478702014843826,-0.00012232307848574544,0.1630742996931076,-1.877850651741028,-0.5651532411575317,-0.6646910905838013,0.3490645885467529,0.0270079113543033
1749038009.0509083,5.963821879634911,-0.7730738159539264,1.7308642012430961,-2.224219455789716,-5.985658254517805,4.619674833149485,0.0008665402248308629,-0.0033734413148114976,0.000758578040912346,-0.00016139827326414646,8.644328156398353e-05,4.5537332361998174e-05,0.1774359792470932,-1.8699003458023071,-0.5574725866317749,-0.6632983684539795,0.3555174469947815,0.0217579714953899
1749038009.0509458,5.963823490700195,-0.7730790681940227,1.7308662088691527,-2.2242201551931577,-5.985659397336772,4.619676033562356,0.0010075122142807083,-0.003525990680662007,0.0009663895431204735,-0.00015538285615933058,-1.4095221734356309e-05,0.00023148869365648928,0.2171598374843597,-1.8726392984390257,-0.5649608373641968,-0.6791733503341675,0.3526685833930969,0.0397483147680759
1749038009.050983,5.96382516379483,-0.7730847444102437,1.730868479319351,-2.224220775559031,-5.985660111381314,4.619677586853589,0.0011349852850366228,-0.003679370217556572,0.0011843164100126709,-0.00014487419912575492,-0.00011849736945756712,0.000418167468925904,0.2245154827833175,-1.8611465692520144,-0.5481381416320801,-0.6716485023498535,0.3487017750740051,0.0328289605677127
1749038009.0510209,5.9638268937322465,-0.7730909126503248,1.730870929291172,-2.224221280964345,-5.9856603184137445,4.619679352874053,0.001240713262652798,-0.0038236577338139318,0.0014015451572652272,-0.00012965692300056367,-0.00021514401071850295,0.0005827079856196767,0.2240954637527465,-1.8807328939437864,-0.550529420375824,-0.6750261783599854,0.3544659614562988,0.0289186611771583
1749038009.0513666,5.9638286606815365,-0.7730976052094122,1.73087347162285,-2.22422164366606,-5.985659964283052,4.619681150340591,0.0013172793359555756,-0.003948365786280959,0.001605518230384059,-0.00010998740635592888,-0.0002893073770919146,0.000697492299017667,0.2090286165475845,-1.8883033990859983,-0.5573690533638,-0.6928079128265381,0.3630584478378296,0.0324480757117271
1749038009.053377,5.963830432522866,-0.7731048148998035,1.7308760202069127,-2.2242218477842615,-5.98565901448188,4.619682764466332,0.001358686278001273,-0.00404344498997514,0.0017825578452591462,-8.669634958549922e-05,-0.00032365159452100745,0.0007314887902543922,0.2198391705751419,-1.8749324083328247,-0.5891329646110535,-0.6778881549835205,0.3680920004844665,0.0320289693772792
1749038009.0985205,5.963832167808859,-0.7731124945762372,1.7308784937854933,-2.2242218928123947,-5.9856574468072345,4.619683957052185,0.0013606834812281484,-0.004100297146013341,0.0019185500161637834,-6.125487461169049e-05,-0.0002990681535650082,0.0006521660314636135,0.1848719716072082,-1.904610514640808,-0.5708841681480408,-0.6830710172653198,0.3680797815322876,0.0179575718939304
1749038009.0985973,5.963833819013371,-0.7731205596873506,1.730880818123834,-2.2242217961153505,-5.985655241801384,4.619684478296309,0.0013207421036229613,-0.004112657938143643,0.001999588772938633,-3.578591636698995e-05,-0.00019582557205827017,0.00042789879241891164,0.2208657562732696,-1.885020852088928,-0.5924225449562073,-0.6726282835006714,0.4021984338760376,0.0212046690285205
1749038009.098666,5.9638353359513285,-0.7731288935368056,1.7308829261508478,-2.2242215936493723,-5.985652372473072,4.619684079535457,0.0012376845066794538,-0.004077221917832489,0.0020125133887853946,-1.3003627210247722e-05,5.027522958271505e-06,3.070536899542773e-05,0.2254741638898849,-1.87198805809021,-0.590381920337677,-0.6749956607818604,0.4000241160392761,0.0012850314378738
1749038009.098734,5.963836669106889,-0.773137354855895,1.7308847559527305,-2.2242213384375678,-5.985648795306409,4.6196825259584795,0.001111073900302117,-0.00399391818178471,0.0019453293466486408,3.93322312986663e-06,0.0003201078743157448,-0.000560922027608275,0.2254741638898849,-1.87198805809021,-0.590381920337677,-0.6749956607818604,0.4000241160392761,0.0012850314378738
1749038009.0988,5.963837772270814,-0.7731457871464257,1.7308862469160056,-2.2242210966803793,-5.985644444243281,4.6196796080728415,0.0009405280220452702,-0.003865796757545969,0.0017875555101119162,1.1662042850278174e-05,0.0007621300366659738,-0.0013593979338068353,0.1950186640024185,-1.8423728942871092,-0.620383620262146,-0.6570298671722412,0.412203848361969,0.0061528040096163
1749038009.098866,5.96383860370924,-0.7731540289935096,1.730887334721418,-2.2242209416175482,-5.985639228345544,4.619675150675582,0.000725119594090183,-0.0036985463087196137,0.0015305613598956011,6.9512873176958286e-06,0.001338488063038448,-0.002365979505340743,0.1909663081169128,-1.85792088508606,-0.6358285546302795,-0.6684805154800415,0.4111236333847046,-0.0137561727315187
1749038009.098932,5.963839125307361,-0.7731619242453063,1.7308879461805307,-2.224220945364055,-5.985633032889682,4.619669018471016,0.0004629824587153349,-0.0034997262371602948,0.0011679454056813287,-1.2881068344598736e-05,0.002050151049423695,-0.0035695993341150604,0.1817750632762909,-1.8508412837982176,-0.6588940024375916,-0.6552528142929077,0.434757649898529,-0.0613875687122345
1749038009.0989995,5.963839299695241,-0.7731693308998164,1.7308879949817115,-2.2242211691227918,-5.9856257232349295,4.619661118169504,0.00015118246375317904,-0.0032778497216399923,0.0006959691846489038,-4.9487561389153326e-05,0.0028910102960601723,-0.004946874765684327,0.1719533652067184,-1.8719370365142824,-0.6621747612953186,-0.6328599452972412,0.4423032999038696,-0.0454711243510246
1749038009.0990658,5.963839085958005,-0.7731761279412247,1.7308873792124915,-2.2242216526461305,-5.985617150921378,4.619651397573731,-0.00021414480574863536,-0.003041482460724292,0.00011401427455769117,-0.00010298381198237894,0.0038477600660411543,-0.006463441151830218,0.1293607801198959,-1.8965437412261963,-0.69583660364151,-0.6542971134185791,0.4498971700668335,-0.070473127067089
1749038009.099132,5.963838434814644,-0.7731822200142782,1.7308859810872832,-2.224222404396799,-5.985607161762427,4.619639842452068,-0.0006374318635647513,-0.002798509455584298,-0.0005750138548768899,-0.00017145865142741135,0.004900323379750473,-0.008076567483310624,0.114992618560791,-1.866879940032959,-0.7271600365638733,-0.6318519115447998,0.4565581679344177,-0.0642320588231086
1749038009.0991988,5.963837284043858,-0.7731875401950438,1.7308836688107505,-2.2242233940719625,-5.985595605839467,4.619626471758985,-0.0011231608977451768,-0.0025556665745868185,-0.001364438323055717,-0.00025055545318948335,0.006022771989919942,-0.009738812568723446,0.0605872347950935,-1.884655237197876,-0.7422873973846436,-0.6211894750595093,0.4748918414115906,-0.075176365673542
1749038009.099265,5.963835554712245,-0.7731920509929403,1.7308803001881212,-2.22422454880167,-5.985582349089908,4.619611331260741,-0.0016752589826592298,-0.002318353204528963,-0.002243822066211065,-0.0003331830474505574,0.007184652098719157,-0.011402325846022474,0.0918443500995636,-1.8330531120300293,-0.7722899913787842,-0.6249454021453857,0.472001314163208,-0.0656123161315918
1749038009.0993316,5.963833148721845,-0.7731957435153385,1.730875727543515,-2.2242257536549768,-5.985567285699586,4.619594485338408,-0.0022964559454726405,-0.0020906696750293127,-0.0031993054120770773,-0.0004094139457781086,0.008352615603093569,-0.013023318819410712,0.0997407436370849,-1.868624210357666,-0.7739750742912292,-0.6065772771835327,0.4863098859786987,-0.100880742073059
1749038009.0993972,5.963829948357577,-0.7731986349433806,1.730869803560176,-2.2242268563664345,-5.985550350035712,4.619576006795774,-0.0029876285777174507,-0.0018755858440290775,-0.004214274381721466,-0.00046662028497181405,0.00949226204949045,-0.014566218419315083,0.0671116858720779,-1.847249984741211,-0.7829219102859497,-0.5854759812355042,0.4892644584178924,-0.1035937070846557
1749038009.099462,5.963825818592871,-0.7732007650086924,1.7308623875416023,-2.2242276755132853,-5.985531526557648,4.619555964572315,-0.003747155446172867,-0.001675150918400883,-0.005270298547542563,-0.0004898830867579909,0.010570108993112694,-0.01600703556490907,0.0323740690946579,-1.846542835235596,-0.7974623441696167,-0.5965554714202881,0.4998532235622406,-0.0839046388864517
1749038009.099529,5.963820612522197,-0.7732021925073357,1.7308533512419215,-2.2242280108253953,-5.985510856109257,4.619534409168188,-0.004570345901621607,-0.0014906840600669373,-0.006348245330020557,-0.00046268796061323857,0.011555618817879478,-0.017335537835642005,0.0323740690946579,-1.846542835235596,-0.7974623441696167,-0.5965554714202881,0.4998532235622406,-0.0839046388864517
1749038009.0995944,5.963814179330941,-0.7732029927212649,1.7308425831521348,-2.2242276541452,-5.985488437307467,4.619511355714934,-0.005449057571460369,-0.001322919624224192,-0.007429490016940816,-0.00036789104068470497,0.01242320864791729,-0.018555928287126832,-0.0199532657861709,-1.852413892745972,-0.8422691226005554,-0.5734614133834839,0.5183407068252563,-0.0890847966074943
1749038009.0996606,5.963806373143153,-0.7732032559849702,1.730829990379179,-2.2242263998970904,-5.985464422297965,4.619486765518049,-0.006371631392675753,-0.0011721066587842435,-0.008497163474829062,-0.00018890481459931592,0.013154146676398427,-0.019685917233729422,0.0086786597967147,-1.857811689376831,-0.8509055376052856,-0.5488840341567993,0.5270428657531738,-0.0908003523945808
1749038009.099727,5.963797060673454,-0.7732030868146373,1.7308154979910422,-2.224224054517165,-5.9854390067509975,4.619460528469172,-0.007323229651631966,-0.0010380762269777946,-0.009537365658408825,8.898189744558784e-05,0.013738188811542028,-0.02075430283465979,-0.0073977559804916,-1.8534713983535769,-0.8468375205993652,-0.5272653102874756,0.537903904914856,-0.1079273372888565
1749038009.099793,5.963786126266102,-0.7732026024456368,1.7307990464655432,-2.22422044470917,-5.985412414670802,4.619432450067461,-0.008286582521793349,-0.0009202938749889742,-0.01054021731637003,0.0004772673105336953,0.014174748527087026,-0.021797393380840722,-0.0312555432319641,-1.8371405601501465,-0.8411997556686401,-0.5252139568328857,0.5355883836746216,-0.1072521656751632
1749038009.0998588,5.963773474252061,-0.773201929656344,1.7307805883566294,-2.2242154244268217,-5.985384879582756,4.619402246894254,-0.009243075528151122,-0.0008179111413766477,-0.011500573578032395,0.0009830227570318555,0.014473358069246458,-0.02285476094703972,-0.0584239512681961,-1.84902822971344,-0.8627997636795044,-0.490521639585495,0.5214377045631409,-0.1308696419000625
1749038009.0999243,5.963759029686376,-0.7732011993532949,1.7307600854862442,-2.224208880261919,-5.985356624735112,4.619369552986075,-0.01017406875071448,-0.00072982332902564,-0.01241823718371084,0.0016079450011094597,0.014653214671464236,-0.02396488821331812,-0.0606755167245864,-1.8546974658966064,-0.879889190196991,-0.4810580909252167,0.5332751870155334,-0.129474252462387
1749038009.1000738,5.963742738812865,-0.773200539173848,1.7307375078486984,-2.224200734726278,-5.985327845447605,4.619333937275173,-0.011062319425403448,-0.0006547346760954137,-0.01329759500667784,0.0023477960996808253,0.01474173038089183,-0.025161251373157365,-0.068175122141838,-1.855446457862854,-0.8685990571975708,-0.4762366116046905,0.5292313098907471,-0.1407805532217025
1749038009.1013732,5.963724570164383,-0.7732000649518543,1.730712834828718,-2.224190946974793,-5.985298696171999,4.6192949301330835,-0.011893364128616284,-0.0005912282876456453,-0.014146720002659116,0.0031923000311499237,0.014772191722961625,-0.02646927887591026,-0.0849784463644027,-1.8504538536071775,-0.8858003616333008,-0.4554121196269989,0.5458484888076782,-0.1432725191116333
1749038009.1462948,5.963704516541641,-0.7731998721776882,1.7306860583960832,-2.224179510841211,-5.985269283374909,4.61925205573144,-0.012656704351532403,-0.00053783636358826,-0.014976084280081023,0.004125495839719201,0.01478082178638701,-0.02790445970387963,-0.1075009852647781,-1.8532785177230835,-0.8827173113822937,-0.4588560760021209,0.5524557828903198,-0.1490515768527984
1749038009.1463437,5.963682597509606,-0.7732000286682266,1.7306571871366008,-2.224166450487084,-5.9852396637220115,4.619204866351045,-0.0133466460191016,-0.0004931056124066553,-0.015797090152150226,0.0051264901650715875,0.014803656626846332,-0.029471680623964644,-0.0969312638044357,-1.8435412645339968,-0.8867725133895874,-0.4470312297344208,0.5507360100746155,-0.1449053585529327
1749038009.1463845,5.9636588615813055,-0.7732005695601102,1.7306262497250164,-2.2241518143489176,-5.985209846030515,4.619152974541198,-0.013962680829590011,-0.0004556529394573226,-0.016620638453464488,0.006170533836308617,0.014873664250608126,-0.031165689782598288,-0.0816710963845253,-1.8701661825180051,-0.8995268940925598,-0.4270015954971313,0.5497403740882874,-0.1426988393068313
1749038009.1464243,5.9636333870472855,-0.7732014953083309,1.7305932966719055,-2.2241356683466194,-5.985179795380536,4.6190960791724605,-0.014509361058470407,-0.00042420745415983925,-0.017455925240618706,0.0072303641776977545,0.015018451521430116,-0.03297245031580357,-0.1076865568757057,-1.8603944778442385,-0.9071951508522034,-0.4231634736061096,0.5377166271209717,-0.159567579627037
1749038009.1464634,5.9636062805283165,-0.7732027726798651,1.730558399561251,-2.2241180893794814,-5.985149438195504,4.619033982312378,-0.014995695264014508,-0.00039763644903118847,-0.018309605325417908,0.008277775779712884,0.01525876062457722,-0.03487108365268279,-0.1027447953820228,-1.8621164560317995,-0.91044282913208,-0.4130111634731293,0.5704299211502075,-0.1647026240825653
1749038009.146504,5.963577672627992,-0.7732043382205958,1.7305216474417642,-2.2240991598510966,-5.985118667391074,4.618966595570148,-0.015434162019912993,-0.00037495510887679577,-0.01918539748112773,0.009285376973928523,0.015607808289708402,-0.036836105602739526,-0.1067020371556282,-1.839896321296692,-0.9118587374687196,-0.3951280415058136,0.5725244879722595,-0.1714630126953125
1749038009.146542,5.963547710411131,-0.7732061037193559,1.7304831406060286,-2.2240789634313844,-5.985087346814534,4.618893936587246,-0.015839485111419138,-0.0003553221376871375,-0.02008413755387704,0.010228449263636839,0.016071410501811465,-0.03883970562942059,-0.1282704323530197,-1.8675378561019895,-0.8951666951179504,-0.3922935426235199,0.578747570514679,-0.1550962477922439
1749038009.14658,5.963516546970794,-0.7732079636281618,1.7304429825093117,-2.2240575817948907,-5.985055314527363,4.618816117889617,-0.016227328189948678,-0.0003380260493878728,-0.021004219364136035,0.011086768822884811,0.016648769663626422,-0.04085388192429904,-0.1330529898405075,-1.8640645742416384,-0.9212092161178588,-0.3875912725925445,0.5806037783622742,-0.1764458268880844
1749038009.1466172,5.963484329158161,-0.7732098045821703,1.7304012707208702,-2.2240350918625746,-5.985022385109919,4.61873333077428,-0.016613054192151696,-0.00032246917759176994,-0.021942315785814816,0.011846199958586929,0.017333761085028942,-0.0428523024838688,-0.1347703039646148,-1.8619667291641235,-0.9278037548065186,-0.3893852531909942,0.5856943130493164,-0.1761355102062225
1749038009.1466546,5.963451185237976,-0.7732115166072576,1.730358087561976,-2.2240115631248965,-5.984988351764245,4.618645826249592,-0.017010665008222868,-0.00030815771732621707,-0.022894258393478393,0.012499852939246502,0.018116526496977026,-0.044811809733187775,-0.1347703039646148,-1.8619667291641235,-0.9278037548065186,-0.3893852531909942,0.5856943130493164,-0.1761355102062225
1749038009.1467085,5.963417214248183,-0.7732130045802155,1.730313490816937,-2.223987054918893,-5.984952989196861,4.618553893936081,-0.01743199746684217,-0.0002947053128760362,-0.02385596763175504,0.013048624009670235,0.018985166511286636,-0.04671352822394093,-0.1169694662094116,-1.8624238967895508,-0.9349839091300964,-0.3933093845844269,0.5624196529388428,-0.1809872835874557
1749038009.1467493,5.963382478261028,-0.7732141978605723,1.7302675049138012,-2.223961613986068,-5.9849160579920815,4.618457839348497,-0.01788620885675216,-0.0002818545255138507,-0.024824341697641694,0.013501003102438226,0.019927328443740015,-0.048543576787256994,-0.1464960575103759,-1.848556637763977,-0.9328937530517578,-0.3831852972507477,0.5856528282165527,-0.1899904310703277
1749038009.146787,5.963346998122124,-0.7732150563176319,1.7302201132938777,-2.2239352730054507,-5.984877310693106,4.618357960727001,-0.01837954747447782,-0.0002695158687622974,-0.0257980122150099,0.013872133382552403,0.02093151170625176,-0.05029342304002625,-0.1540929973125457,-1.871001362800598,-0.9280831813812256,-0.3847194612026214,0.5959677696228027,-0.1476072669029235
1749038009.146824,5.963310752760197,-0.7732155720799149,1.730171253095995,-2.223908050787317,-5.984836499427686,4.618254527873586,-0.018915377862019755,-0.000257819477761092,-0.02677786566499961,0.014182216124745264,0.02198796003174963,-0.05195993716931949,-0.1458500027656555,-1.870922327041626,-0.9414790868759156,-0.3794427216053009,0.607212245464325,-0.1694647371768951
1749038009.146861,5.96327368166895,-0.7732157675938327,1.7301208134062591,-2.2238799543301764,-5.984793384740998,4.618147765919919,-0.019494415402991436,-0.0002471708786729706,-0.027767237647135953,0.014454450462249952,0.02308907634329592,-0.05354519955013697,-0.1548731178045272,-1.8697861433029173,-0.93764728307724,-0.3762844204902649,0.6010630130767822,-0.1594461798667907
1749038009.1469162,5.9632356898962655,-0.7732156912969116,1.730068637945237,-2.223850982251533,-5.984747745226996,4.618037846035872,-0.020115116151484907,-0.00023830005043520687,-0.028771730118921285,0.014712759971236082,0.024229369180469987,-0.05505610430197716,-0.1662211269140243,-1.857118368148804,-0.951150119304657,-0.361230731010437,0.6157464385032654,-0.1604744642972946
1749038009.146958,5.96319665513171,-0.7732154120884068,1.7300145322991307,-2.2238211286359446,-5.984699387464086,4.617924883329574,-0.02077416489551762,-0.00023229213446570495,-0.029798671155981882,0.014979577690433189,0.025404999851641876,-0.056503795318355886,-0.1617456078529358,-1.8752228021621704,-0.9635565876960754,-0.3403261303901672,0.6177328824996948,-0.1744461953639984
1749038009.1469955,5.963156436852754,-0.7732150131711789,1.7299582749316775,-2.2237903862542807,-5.9846481555326925,4.617808940431946,-0.02146700874004189,-0.00023058889189084733,-0.030856305670916045,0.015273941110368209,0.026613039206988164,-0.05790297937789169,-0.1617456078529358,-1.8752228021621704,-0.9635565876960754,-0.3403261303901672,0.6177328824996948,-0.1744461953639984
1749038009.147033,5.963114887309226,-0.7732145853795213,1.729899630481342,-2.2237587482520738,-5.98459393902355,4.617690034119186,-0.022188390985256632,-0.0002349523175207569,-0.03195284952220275,0.01561009715880982,0.027850569476069474,-0.05927117260316729,-0.1680748462677002,-1.871955156326294,-0.9738782644271852,-0.3344337046146393,0.618163526058197,-0.1709361523389816
1749038009.1470706,5.963071863495793,-0.7732142200741781,1.729838363535912,-2.223726207758789,-5.984536678322636,4.617568142245915,-0.022932843984836707,-0.00024738536598715706,-0.03309554751872649,0.01599674165439939,0.029113785117685354,-0.06062793391837523,-0.1745267212390899,-1.8725485801696775,-1.0011353492736816,-0.3205463886260986,0.6504003405570984,-0.1746648550033569
1749038009.147108,5.963027238854985,-0.7732140019351292,1.7297742514271424,-2.223692755523088,-5.984476366484704,4.617443209327861,-0.02369509837809773,-0.00027000906918798096,-0.03428985016626045,0.016436927552217363,0.030397251180495764,-0.061994113583262046,-0.1634608805179596,-1.8908480405807493,-0.9958114624023438,-0.3231564462184906,0.6436744928359985,-0.173850804567337
1749038009.1471448,5.962980913515249,-0.7732140023298336,1.729707095394955,-2.2236583764246496,-5.984413047898823,4.6173151506768155,-0.024470367838103746,-0.00030490023424887283,-0.03553877773697235,0.016928587287053768,0.03169346166139478,-0.06339110613672129,-0.1764043867588043,-1.8826020956039429,-1.008245587348938,-0.3112659752368927,0.6715303659439087,-0.1973077356815338
1749038009.147513,5.962932822141231,-0.7732142742577656,1.7296367301291984,-2.223623046124294,-5.984346814469676,4.617183856034534,-0.025254485653535795,-0.0003538994883998892,-0.036842492632652005,0.01746554312429011,0.03299280227380767,-0.06484006481228277,-0.2133619487285614,-1.8902446031570437,-0.9967783093452454,-0.3248711228370666,0.6710913181304932,-0.1952917426824569
1749038009.1493635,5.962882938823303,-0.7732148499862772,1.7295630318414315,-2.223586729042263,-5.9842777999438725,4.617049193769686,-0.02604390344678431,-0.0004184053607101199,-0.038198069461147996,0.018038832669108044,0.03428396221255974,-0.06636102207238452,-0.2170798480510711,-1.9015458822250368,-1.0010443925857544,-0.3168811202049255,0.6634925007820129,-0.1990539729595184
1749038009.1902828,5.962831278856348,-0.7732157421661472,1.7294859247617647,-2.2235493785037566,-5.984206172714606,4.616911016301526,-0.02683559708967131,-0.000499175130039429,-0.03959944554851193,0.0186381521540497,0.035554765020518804,-0.06797187164565383,-0.2074462473392486,-1.9014073610305784,-1.0213041305541992,-0.3163373172283172,0.6545095443725586,-0.1939226537942886
1749038009.1903298,5.9627778975361885,-0.7732169483759416,1.729405385615522,-2.2235109394727828,-5.984132127302752,4.616769167049422,-0.027626941456414655,-0.0005961555481910544,-0.041037548190440525,0.019253217153789273,0.036793318810445154,-0.06968720104360551,-0.2253658473491668,-1.9039698839187624,-1.016997456550598,-0.3149011135101318,0.6754589676856995,-0.2238314896821975
1749038009.1903727,5.962722886044303,-0.7732184579899591,1.7293214455376476,-2.2234713538421826,-5.984055874649752,4.616623489061336,-0.02841560930793034,-0.0007083646738313883,-0.042500611994618624,0.019874864915205986,0.03798934052904544,-0.07151701740121733,-0.2299577444791793,-1.8791197538375852,-1.0188552141189575,-0.3189616203308105,0.6881438493728638,-0.2345884442329406
1749038009.1904116,5.962666364310493,-0.7732202595420821,1.7292341891143785,-2.223430567718035,-5.983977631174596,4.61647383529034,-0.02919952857443273,-0.0008338392594122464,-0.04397470350321091,0.02049577788700692,0.03913549007997756,-0.073465474079057,-0.2212191224098205,-1.8959821462631223,-1.0244914293289185,-0.3042123317718506,0.6879284381866455,-0.2457704395055771
1749038009.19045,5.96260847083192,-0.7732223466834999,1.7291437504764466,-2.2233885395983,-5.983897606335796,4.616320079920501,-0.029976907530861942,-0.0009696516773986632,-0.04544445709396705,0.021110786060614544,0.04022854457388453,-0.07552976114343718,-0.2258449047803878,-1.90037214756012,-1.0158348083496094,-0.3009169399738312,0.6797872185707092,-0.2353197783231735
1749038009.190506,5.9625493498831,-0.7732247212125495,1.7290503063277936,-2.2233452479770563,-5.983815988403653,4.61616212933025,-0.030746319477651805,-0.0011119900026518035,-0.04689400252346442,0.021716788414640437,0.04127024250984862,-0.07769934596103163,-0.2421865761280059,-1.89599883556366,-1.023794174194336,-0.2917657792568207,0.6893845796585083,-0.2359427362680435
1749038009.190546,5.962489137127236,-0.7732273921695708,1.7289540657503841,-2.2233006968158597,-5.9837329283402125,4.615999930796655,-0.03150683410488604,-0.0012562897182503573,-0.04830803611721602,0.022312400135844825,0.04226764252860735,-0.0799557346713373,-0.2505089044570923,-1.8858734369277956,-1.0281141996383667,-0.3091450035572052,0.6860549449920654,-0.237980380654335
1749038009.1905909,5.962427945110654,-0.7732303707224587,1.7288552570167435,-2.2232549175182466,-5.983648522182858,4.615833477181599,-0.032258184043918746,-0.0013974090477435089,-0.04967295667571583,0.022897465736978918,0.043232889372045065,-0.08227289567077596,-0.2166223526000976,-1.896438241004944,-1.0030498504638672,-0.2907427549362182,0.693649411201477,-0.2718288004398346
1749038009.1906302,5.962365850470333,-0.773233661735813,1.7287541123563817,-2.2232079665349276,-5.983562793299746,4.615662806394077,-0.03300094559132393,-0.0015298503164118149,-0.05097795809764462,0.023472573635820546,0.044182364930829436,-0.08461846408463522,-0.2425035983324051,-1.8948456048965452,-1.025230050086975,-0.3046841621398926,0.7154272794723511,-0.272983580827713
1749038009.1906722,5.962302884803767,-0.7732372541547267,1.7286508521154509,-2.22315991846493,-5.98347567715792,4.6154879951591345,-0.0337366915121764,-0.0016480390475932174,-0.05221595201983873,0.024038673683417777,0.0451353027696551,-0.08695580650827096,-0.2472060322761535,-1.901840090751648,-1.0111867189407349,-0.2803401052951813,0.7136966586112976,-0.2567953765392303
1749038009.1907113,5.962239030658255,-0.7732411128634679,1.7285456697850563,-2.2231108552844825,-5.983387012125118,4.615309147478411,-0.034468062417567495,-0.001746670915929985,-0.053384193378299326,0.02459685135256955,0.046112020623715534,-0.0892469205402587,-0.2263672351837158,-1.8869870901107788,-0.9968220591545104,-0.2790488004684448,0.7094477415084839,-0.2306283265352249
1749038009.190749,5.962174222829541,-0.7732451741681916,1.7284387192186184,-2.223060852932542,-5.983296539649908,4.615126379020718,-0.03519871729987473,-0.0018211194047051912,-0.05448450441476437,0.025148264223434424,0.047131949895759646,-0.09145597483088137,-0.2454105764627456,-1.8996518850326536,-1.0192197561264038,-0.2817499041557312,0.7253533601760864,-0.2439473271369934
1749038009.1907918,5.962108353741445,-0.7732493458948475,1.7283301052256193,-2.2230099669544705,-5.9832039159468495,4.614939799349052,-0.03593315414646749,-0.0018678684014975197,-0.05552303956723956,0.025694204001763227,0.04821162648597686,-0.09355312595955798,-0.2778648734092712,-1.89695942401886,-1.0132522583007812,-0.2833410203456878,0.7279524803161621,-0.2497990429401397
1749038009.1908312,5.962041281061658,-0.7732535119888774,1.7282198784611995,-2.222958219417655,-5.983108735659047,4.614749494298559,-0.03667641805605008,-0.001884906639378722,-0.05650959863752425,0.02623621377281578,0.049362794048833855,-0.09551813938272305,-0.2968230843544006,-1.87165105342865,-1.0069706439971924,-0.2839304208755493,0.727886974811554,-0.2314418256282806
1749038009.190868,5.961972836113607,-0.7732575409506908,1.7281080349649558,-2.2229055897987027,-5.983010566357557,4.614555510982927,-0.03743372796445322,-0.001872010128447993,-0.05745656374066642,0.026776173833682193,0.05059078428871157,-0.09734330193174219,-0.2964357435703277,-1.8736103773117063,-1.0273399353027344,-0.2719672620296478,0.7363172769546509,-0.2134414613246917
1749038009.190905,5.961902832456893,-0.7732612973606624,1.7279945200259827,-2.2228520125663973,-5.982908991185147,4.61435784779959,-0.038210058991739904,-0.0018308536202983213,-0.05837759280806519,0.027316281896742053,0.05189336226025731,-0.09903512970262995,-0.3059397935867309,-1.8793115615844729,-1.0429028272628784,-0.2727875113487243,0.7585046291351318,-0.2018727660179138
1749038009.1909428,5.961831074658383,-0.7732646556279872,1.7278792355889405,-2.222797383252813,-5.982803655478246,4.614156451372581,-0.03900972352733851,-0.0017649284392204972,-0.059286240443653944,0.027858896517580917,0.05326021941665107,-0.10061446080523945,-0.3283118307590484,-1.883585810661316,-1.0193209648132324,-0.2744004726409912,0.757156491279602,-0.207159012556076
1749038009.19098,5.961757367616599,-0.773267514674902,1.727762050221996,-2.222741572867294,-5.9826943121563705,4.613951221585552,-0.03983600072560076,-0.001679285614243909,-0.06019468821993451,0.02840626885738252,0.05467324301506898,-0.10211470321515644,-0.3274815678596496,-1.906415581703186,-1.0343316793441772,-0.2605170011520386,0.780120313167572,-0.2111159414052963
1749038009.1910172,5.961681526738709,-0.7732698117632724,1.7276428105633077,-2.222684448171227,-5.982580860323794,4.6137420246701195,-0.04069086278461141,-0.001580152752805179,-0.06111274913997442,0.028960230044048924,0.0561075979362805,-0.10357827474409687,-0.3196877241134643,-1.8948198556900024,-1.0516437292099,-0.2730071544647217,0.7526181936264038,-0.2065623551607132
1749038009.1910546,5.961603388682507,-0.7732715333447304,1.7275213530764217,-2.2226258935538827,-5.982463371717372,4.613528712750682,-0.04157483089227107,-0.0014744821120205695,-0.06204727308917022,0.029521912390670233,0.05753355099676909,-0.10505157240707605,-0.3196877241134643,-1.8948198556900024,-1.0516437292099,-0.2730071544647217,0.7526181936264038,-0.2065623551607132
1749038009.191361,5.961522821551562,-0.7732727208019798,1.727397515013678,-2.2225658297691213,-5.982342100271471,4.613311146788618,-0.04248696924813265,-0.001369478864335138,-0.06300202503371587,0.03009156366028021,0.05891887135856132,-0.10657907808382436,-0.3303726613521576,-1.874972343444824,-1.0353422164916992,-0.2573365867137909,0.7551131844520569,-0.2258220016956329
1749038009.1933348,5.961439733102454,-0.773273469470445,1.727271143936242,-2.222504225768147,-5.982217471707125,4.61308921951327,-0.04342500393345559,-0.0012721423214345942,-0.06397802931508473,0.03066847555227958,0.060231568518178104,-0.10819739484915394,-0.3326408863067627,-1.900943398475647,-1.041597843170166,-0.2716555595397949,0.7500060796737671,-0.2280159890651703
1749038009.2382998,5.961354076101098,-0.7732739204984029,1.7271421060410965,-2.222441101903558,-5.982090053153954,4.6128628761422075,-0.04438554077300046,-0.0011888386641378441,-0.06497428104703484,0.031251005613863826,0.061442687912216826,-0.10993007766010136,-0.3437811732292175,-1.890439510345459,-1.0278546810150146,-0.2719353139400482,0.742906391620636,-0.2522492408752441
1749038009.238347,5.961265850914091,-0.7732742465628386,1.7270102944369667,-2.222376525128212,-5.981960506574569,4.61263213239104,-0.045364350383370756,-0.0011249169602263907,-0.06598865534662422,0.0318366448632401,0.06252887712162394,-0.11178405605688198,-0.3610298037528991,-1.8830610513687132,-1.062397599220276,-0.2520665824413299,0.7504855990409851,-0.2830847501754761
1749038009.238387,5.961175105800046,-0.7732746336152413,1.7268756385381447,-2.222310598626833,-5.98182953251737,4.612397089740649,-0.04635668489226291,-0.0010843807611820723,-0.06701882678202106,0.03242208687950986,0.06347446850724875,-0.11374825518774671,-0.3426185250282287,-1.88516628742218,-1.063862919807434,-0.2567597031593323,0.7264069318771362,-0.2781846523284912
1749038009.2384307,5.96108193488744,-0.7732752613594964,1.7267381145093108,-2.222243449044495,-5.9816978115252395,4.612157946669504,-0.04735758814251912,-0.0010696313311998893,-0.06806303711707723,0.03300328561708197,0.06427289572026527,-0.11579473331796694,-0.3531126379966736,-1.9016958475112915,-1.045888900756836,-0.2664089798927307,0.7321089506149292,-0.2707518935203552
1749038009.2384715,5.960986473054999,-0.7732762851178657,1.7265977546904592,-2.222175214040012,-5.981565949573372,4.611915002481639,-0.04836216314888171,-0.0010813013646228005,-0.0691205902952877,0.033575528624705094,0.06492735499777637,-0.11788229859738635,-0.3531126379966736,-1.9016958475112915,-1.045888900756836,-0.2664089798927307,0.7321089506149292,-0.2707518935203552
1749038009.238509,5.960888886699052,-0.7732778213315037,1.726454652259124,-2.22210603167726,-5.981434431911222,4.611668648878731,-0.04936577150794862,-0.001118198014275703,-0.07019199963928222,0.03413357787469591,0.06545071126155877,-0.11996218316970138,-0.3387639224529266,-1.8925405740737915,-1.0670336484909058,-0.256116509437561,0.721230149269104,-0.2489076256752014
1749038009.2385468,5.96078936018425,-0.7732799383134001,1.726308957331182,-2.2220360319141035,-5.981303587671406,4.611419345050608,-0.05036415698643022,-0.0011773711086994316,-0.071278775757711,0.03467193000554948,0.06586471375438616,-0.12198499960955757,-0.3461752533912658,-1.88973867893219,-1.0596331357955933,-0.270325630903244,0.7413089275360107,-0.2177033275365829
1749038009.238584,5.960688079361437,-0.7732826530743854,1.7261608628787635,-2.2219653298558666,-5.981173566590816,4.611167575627269,-0.051353501479693246,-0.0012543163505333494,-0.07238292352490229,0.03518521873213707,0.06619862414638382,-0.12390795363064808,-0.365714430809021,-1.91378915309906,-1.0883166790008545,-0.2594116926193237,0.732909619808197,-0.1954568028450012
1749038009.2386222,5.960585214845617,-0.7732859341273277,1.7260105822648768,-2.2218940205948035,-5.9810443291439075,4.610913796168079,-0.052330430648227094,-0.001343312907435324,-0.07350628397186729,0.03566873203155568,0.0664873850937347,-0.1257011966914186,-0.3527553081512451,-1.8854907751083372,-1.1028761863708496,-0.2945886552333832,0.7226051688194275,-0.1883384585380554
1749038009.23866,5.960480907821063,-0.7732897092600248,1.7258583228651407,-2.2218221758431183,-5.980915651256245,4.610658375219856,-0.05329198948872184,-0.0014378793594479135,-0.07464988356920557,0.036118966497231716,0.06676947821851739,-0.1273523092855806,-0.3518581986427307,-1.9014745950698853,-1.085771560668945,-0.2802012264728546,0.720838725566864,-0.1634093075990677
1749038009.2386975,5.960375260056307,-0.7732938765537676,1.7257042609440032,-2.2217498427007514,-5.980787143764418,4.610401543383732,-0.05423561068895488,-0.001531313234013194,-0.07581343350187444,0.0365341158957394,0.0670846277999324,-0.12886820848076744,-0.3640713691711426,-1.8811228275299072,-1.0808366537094116,-0.2689501345157623,0.7391327023506165,-0.1744496971368789
1749038009.2387404,5.960268328412465,-0.7732983166179238,1.7255485219160154,-2.2216770446837635,-5.980658285087294,4.610143358263681,-0.055159106133267875,-0.0016172623082481206,-0.07699507001677036,0.036914400725072676,0.06747148499105095,-0.13027421513290988,-0.3514358103275299,-1.884704113006592,-1.0845798254013062,-0.2625936269760132,0.7407797574996948,-0.1932361721992492
1749038009.2387846,5.960160123125844,-0.7733029042021717,1.7253911682945082,-2.2216037846577934,-5.980528463793815,4.609883690649588,-0.05606071435984959,-0.001690266511189524,-0.07819137047540566,0.03726218083978814,0.06796537985265194,-0.13161049900904892,-0.3702397644519806,-1.889484524726868,-1.0899193286895752,-0.2957998514175415,0.737244725227356,-0.198877215385437
1749038009.238824,5.960050608818473,-0.7733075179685941,1.725232195776852,-2.221530048678651,-5.980397026364702,4.609622232872099,-0.05693921424386633,-0.001746211185211272,-0.07939763752362185,0.037581836685916734,0.06859618284385299,-0.13292654091641246,-0.3702397644519806,-1.889484524726868,-1.0899193286895752,-0.2957998514175415,0.737244725227356,-0.198877215385437
1749038009.238861,5.959939707564823,-0.7733120479991994,1.725071536408716,-2.2214558092375785,-5.980263324728558,4.609358526099398,-0.05779407368330295,-0.0017826445645212695,-0.08060840834346364,0.03787944374942583,0.06938631293113721,-0.1342745339749749,-0.3738911747932434,-1.8882516622543333,-1.057243824005127,-0.2826874256134033,0.7609140276908875,-0.2362498193979263
1749038009.238898,5.959827304272717,-0.773316401174125,1.7249090669720364,-2.2213810265837743,-5.9801267585605,4.609092000952472,-0.058625578517801716,-0.0017989299401304727,-0.08181810020785346,0.03816229326815181,0.07034898336696745,-0.13570275673297252,-0.3739348948001861,-1.8823630809783936,-1.0687278509140017,-0.266844242811203,0.7694898843765259,-0.2609972357749939
1749038009.2389345,5.959713255636327,-0.773320504659809,1.724744621065588,-2.221305647941667,-5.979986809283694,4.60882202614585,-0.059434900204942,-0.0017962215726992474,-0.0830216581761973,0.03843832603219959,0.07148685254925438,-0.1372498935878711,-0.3744068443775177,-1.8704015016555784,-1.069944977760315,-0.2825333476066589,0.8017022013664246,-0.2558272182941437
1749038009.238971,5.959597404096481,-0.7733243076511237,1.7245780044725554,-2.221229606003063,-5.9798430655415125,4.608547961720431,-0.060224086000281396,-0.00177727122407057,-0.08421506329166852,0.03871554242984258,0.07279127653117715,-0.1389410763046137,-0.3897762298583984,-1.9035508632659912,-1.077263116836548,-0.2671326696872711,0.7978475093841553,-0.2801722884178161
1749038009.2390077,5.959479596943914,-0.7733277816176563,1.7244090140812558,-2.2211528189141574,-5.9796952417833955,4.6082692141448085,-0.06099596390439074,-0.0017460895908763805,-0.08539560933821222,0.03900143451260334,0.07424230500684077,-0.14078609796230113,-0.3574361801147461,-1.89109206199646,-1.070310115814209,-0.2779858112335205,0.7603567838668823,-0.2623447775840759
1749038009.2390442,5.959359708346548,-0.7733309195943535,1.7242374598108916,-2.2210751934150625,-5.979543191268386,4.607985288792458,-0.06175395358063568,-0.001707503994393072,-0.0865619366304197,0.039302466467617016,0.0758094586641603,-0.14277984961993173,-0.3574361801147461,-1.89109206199646,-1.070310115814209,-0.2779858112335205,0.7603567838668823,-0.2623447775840759
1749038009.239081,5.95923765993358,-0.773333735142472,1.7240631869103957,-2.2209966312519844,-5.979386912880246,4.607695832474047,-0.06250178857042488,-0.0016666681747255097,-0.08771387597705362,0.03962361929672894,0.07745324419500117,-0.14490463240747417,-0.3840052187442779,-1.9020977020263672,-1.0302733182907104,-0.2634711861610412,0.7889093160629272,-0.2365195006132125
1749038009.2391176,5.959113434792314,-0.7733362612603825,1.7238860940302272,-2.220917037559115,-5.979226549562287,4.607400657648278,-0.06324318673762973,-0.001628587697552327,-0.08885217755256061,0.03996801546666078,0.07912734384199269,-0.14713369364943704,-0.3840052187442779,-1.9020977020263672,-1.0302733182907104,-0.2634711861610412,0.7889093160629272,-0.2365195006132125
1749038009.2393963,5.958987080865508,-0.7733385489687448,1.7237061423056335,-2.2208363293997624,-5.979062376375528,4.6070997426600915,-0.06398153053150386,-0.0015977215058361439,-0.08997818059200043,0.040336646056255344,0.0807814288111196,-0.1494351821466633,-0.3537894487380981,-1.8999296426773071,-1.0425809621810913,-0.26610267162323,0.7749882340431213,-0.2160713225603103
1749038009.2413557,5.958858702515625,-0.7733406649869145,1.7235233530875942,-2.220754443070776,-5.978894778153767,4.606793208560067,-0.06471961626541009,-0.001577705274949682,-0.09109344328974268,0.040728235301003175,0.08236451904240301,-0.15177574354144766,-0.424078106880188,-1.8893840312957764,-1.0596554279327393,-0.2753493785858154,0.7728169560432434,-0.229410707950592
1749038009.2822804,5.958728442404626,-0.7733426880914566,1.7233377959093756,-2.2206713395521565,-5.9787242193346755,4.606481280133493,-0.06545950751149197,-0.0015712169278855365,-0.09219932677082701,0.0411392963826947,0.08382871158918724,-0.15412318466761854,-0.4088541865348816,-1.899733066558838,-1.0671714544296265,-0.2428883910179138,0.7629042863845825,-0.2316559106111526
1749038009.282328,5.958596458445355,-0.7733447041958326,1.723149571548601,-2.2205870080109325,-5.978551210416999,4.606164243187229,-0.066202498149285,-0.001579973518583077,-0.09329653075801747,0.041564449125529465,0.08513297219634476,-0.15644797696710405,-0.4121257960796356,-1.896566152572632,-1.0641566514968872,-0.2540186643600464,0.7568074464797974,-0.2609295547008514
1749038009.282376,5.958462901465402,-0.7733468005144275,1.7229587958960464,-2.2205014672889294,-5.978376275682368,4.605842409623097,-0.06694916151412864,-0.0016048205043790505,-0.0943846075270586,0.041997059008514255,0.08624661019020938,-0.15872374128431244,-0.3656415641307831,-1.894294023513794,-1.032096266746521,-0.2525647282600403,0.7483757734298706,-0.2454434931278228
1749038009.2824163,5.958327898301276,-0.7733490592269604,1.7227655888650513,-2.220414765079051,-5.9781999252872895,4.6055160969717805,-0.06769943776365546,-0.0016458600273881244,-0.09546151589505818,0.042430194053208345,0.08715207379815837,-0.16092714539545372,-0.4058716595172882,-1.880083084106445,-1.0399911403656006,-0.2412921488285064,0.7347574830055237,-0.2700864374637604
1749038009.2824605,5.958191542751686,-0.7733515510895647,1.722570070098114,-2.2203269744425675,-5.978022632455754,4.605185622615114,-0.06845270831221047,-0.0017025702451811096,-0.09652330382452735,0.04285779484604295,0.0878467860151107,-0.1630377671530883,-0.3916625678539276,-1.8945133686065676,-1.054906129837036,-0.247774064540863,0.7265355587005615,-0.2657997906208038
1749038009.2824996,5.958053893802374,-0.7733543297423611,1.7223723607352264,-2.220238187496452,-5.977844814371432,4.604851307337074,-0.06920783345573982,-0.001773889345517802,-0.09756402209372181,0.04327586327255135,0.08834383887933367,-0.16503839759442065,-0.3916625678539276,-1.8945133686065676,-1.054906129837036,-0.247774064540863,0.7265355587005615,-0.2657997906208038
1749038009.2825372,5.95791497793568,-0.7733574278861163,1.7221725884567234,-2.2201485063512463,-5.977666814290218,4.604513479497816,-0.06996317088023464,-0.0018582645805615104,-0.09857596539545026,0.04368344091189122,0.08867144440577317,-0.16691601151971708,-0.4059970080852508,-1.9156570434570312,-1.0607258081436155,-0.2455231696367263,0.6937195062637329,-0.2563907504081726
1749038009.282575,5.957774791640683,-0.7733608564686706,1.7219708922380745,-2.2200580318490624,-5.977488882986677,4.604172471386862,-0.0707166232103445,-0.0019536863478885687,-0.0995502982981777,0.04408317241837325,0.08887111008195837,-0.1686633082461892,-0.4118872582912445,-1.916308879852295,-1.0299171209335327,-0.260857880115509,0.7146427631378174,-0.2476114779710769
1749038009.2826166,5.957633301935394,-0.7733646072301983,1.7217674244656602,-2.219966851539012,-5.977311159968976,4.603828603908769,-0.0714657686643033,-0.0020577320530867963,-0.10047804894093315,0.04448131307057621,0.08899459898362692,-0.17028043360586104,-0.4114599823951721,-1.899339199066162,-1.0401227474212646,-0.2415548115968704,0.7373064756393433,-0.1912951618432998
1749038009.282675,5.957490445464536,-0.7733686578336909,1.7215623503127235,-2.2198750292089375,-5.977133657793342,4.603482162598605,-0.07220810859774561,-0.0021676327078268757,-0.10135136349086148,0.04488713198100138,0.08909986745892647,-0.17177632854654956,-0.4287688136100769,-1.8827859163284304,-1.0354223251342771,-0.2659530937671661,0.7380563020706177,-0.2018375992774963
1749038009.2827146,5.957346128599902,-0.7733729780656935,1.72135584559069,-2.219782598347233,-5.976956254522139,4.603133372909407,-0.0729414247752127,-0.002280352984528344,-0.10216484194028375,0.045311780032801084,0.08924631408341832,-0.1731691667767066,-0.4081592857837677,-1.907506227493286,-1.00667405128479,-0.2463112026453018,0.7296810150146484,-0.1962079852819442
1749038009.2827518,5.95720023118155,-0.7733775355181904,1.7211480939955994,-2.2196895608635923,-5.976778698983471,4.602782383253405,-0.07366419030687468,-0.002392656757890224,-0.10291674468680581,0.04576681369731536,0.08948976292958422,-0.17448554422120754,-0.3963263034820556,-1.8935141563415527,-1.0121546983718872,-0.2181043624877929,0.7066580057144165,-0.2087337374687194
1749038009.2827897,5.9570526155245735,-0.773382299563568,1.7209392836268604,-2.219595890724521,-5.976600631227999,4.602429260991333,-0.07437593951841025,-0.002501131558074571,-0.10360987726755043,0.0462626488855409,0.08987762419892972,-0.17575839424331763,-0.4036185443401336,-1.9014806747436523,-1.02371346950531,-0.2181125879287719,0.7378748655319214,-0.2315490841865539
1749038009.2828264,5.95690314058756,-0.7733872430396831,1.7207296016463518,-2.219501540530837,-5.976421617079802,4.602074001375281,-0.07507749130455245,-0.002602172257915229,-0.10425201998661875,0.04680722378233043,0.09044466311793506,-0.17702390986017297,-0.4036185443401336,-1.9014806747436523,-1.02371346950531,-0.2181125879287719,0.7378748655319214,-0.2315490841865539
1749038009.2828631,5.956751679195104,-0.7733923416979477,1.7205192253563628,-2.2194064481309987,-5.976241191897635,4.601716544497916,-0.07577094454309498,-0.0026919620736488674,-0.10485584475313119,0.04740507157456784,0.09120979223771843,-0.17831796375714878,-0.4019660353660583,-1.901209831237793,-1.026423692703247,-0.2336041033267974,0.7678556442260742,-0.2638293206691742
1749038009.2828991,5.956598134812274,-0.7733975719629924,1.7203083085517354,-2.2193105407468092,-5.97605890618831,4.601356793064087,-0.07645941220501938,-0.002766512221929514,-0.10543831928265494,0.048056876922629034,0.09217426009055465,-0.17967258932093438,-0.4143432080745697,-1.900773763656616,-1.043743133544922,-0.2259137630462646,0.7740399837493896,-0.263727068901062
1749038009.282936,5.95644245452482,-0.7734029077278639,1.7200969641924686,-2.21921373585849,-5.975874365934441,4.60099462577936,-0.07714651367607453,-0.0028218128827546154,-0.10601962326878457,0.048759465888274074,0.09332150277505337,-0.1811130229152795,-0.3831155300140381,-1.883111953735352,-1.0053398609161377,-0.2457508593797683,0.7929610013961792,-0.2668676078319549
1749038009.282977,5.956284636489808,-0.7734083167649297,1.719885247020985,-2.2191159402731713,-5.975687263041507,4.600629905667953,-0.07783569014544764,-0.0028541082854195866,-0.10662161313326007,0.04950610218310336,0.09461875042540634,-0.18265563818909578,-0.4713821113109588,-1.877490997314453,-1.0334824323654177,-0.2334791123867035,0.7775148749351501,-0.255823016166687
1749038009.2830172,5.956124731884836,-0.7734137571523256,1.719673140614782,-2.219017049995464,-5.975497394198183,4.6002624859295445,-0.07852944181205447,-0.002860256735170355,-0.10726591175888563,0.05028695014555937,0.09602026663852223,-0.18430688653696398,-0.4141300916671753,-1.875454545021057,-1.0570560693740845,-0.2377219647169113,0.7549790143966675,-0.2554337382316589
1749038009.283054,5.955962842008569,-0.7734191742101328,1.7194605519037798,-2.218916953173542,-5.975304668165327,4.5998922160737665,-0.07922860418922413,-0.002838100921631823,-0.10797178500181588,0.05108960164224559,0.09747188679505603,-0.18606317034205533,-0.4076943695545196,-1.8760716915130613,-1.049402952194214,-0.2344571053981781,0.7749499678611755,-0.2467310428619384
1749038009.2833464,5.955799110594355,-0.7734244988080431,1.7192473136089714,-2.218815536965758,-5.975109102048919,4.599518949019531,-0.07993178123512427,-0.0027867747446022367,-0.10875406930610103,0.051899618966907674,0.09891635530113156,-0.18791147831721702,-0.4169327914714813,-1.8955562114715576,-1.077988624572754,-0.2462203800678253,0.7664035558700562,-0.2556153833866119
1749038009.2853556,5.955633710633797,-0.7734296482154259,1.7190331926944757,-2.2187126973714184,-5.974910807030882,4.5991425471906116,-0.08063504001725491,-0.0027069045006259626,-0.10962148003553432,0.05270109409066305,0.10029887821078275,-0.1898306252894444,-0.4169327914714813,-1.8955562114715576,-1.077988624572754,-0.2462203800678253,0.7664035558700562,-0.2556153833866119
1749038009.326276,5.955466825175157,-0.7734345305250897,1.7188179014853642,-2.218608349588974,-5.974709963875468,4.59876288355104,-0.08133194891984329,-0.0026006987860493014,-0.11057561666930246,0.05347725405524839,0.10157231482362318,-0.19179302591901398,-0.3960574865341186,-1.8958442211151123,-1.0828897953033447,-0.2336319088935852,0.7320223450660706,-0.270722895860672
1749038009.3263223,5.955298623067228,-0.7734390529363332,1.7186011083455879,-2.2185024361429218,-5.974506789271522,4.598379833785084,-0.0820140034772723,-0.0024719400264036208,-0.11161087993185753,0.054211146509088044,0.1027015065322545,-0.19376700721691756,-0.4082657396793365,-1.868739128112793,-1.0760198831558228,-0.2421626597642898,0.7354922294616699,-0.2784977257251739
1749038009.326363,5.95512923306121,-0.7734431330409656,1.7183824471268585,-2.2183949312974542,-5.974301496523734,4.597993259805811,-0.08267142923439552,-0.002325886801940802,-0.1127153512401498,0.05488641904898326,0.10366634748196397,-0.1957196473073338,-0.3931627869606018,-1.8736945390701292,-1.1011321544647217,-0.2302412837743759,0.7246244549751282,-0.2899105548858642
1749038009.326403,5.954958721976763,-0.7734467111913994,1.7181615277305802,-2.2182858423868983,-5.9740942573117355,4.597602990697797,-0.08329429386306504,-0.0021690818879558428,-0.11387250227770455,0.0554881759859297,0.10446331528522415,-0.19762000547129532,-0.4289613366127014,-1.886235356330872,-1.0696767568588257,-0.2477560490369796,0.7309530377388,-0.271732747554779
1749038009.326448,5.954787083484757,-0.7734497614986898,1.717937951781727,-2.218175210123386,-5.973885172849361,4.5972088109478575,-0.08387381630701768,-0.002009053272118806,-0.11506344823991219,0.05600387723327008,0.1051053007421113,-0.1994424393651011,-0.3896088302135467,-1.8832075595855715,-1.075713872909546,-0.2514921724796295,0.7141865491867065,-0.2674229443073272
1749038009.3264885,5.95461424272681,-0.7734522991730186,1.7177113365659713,-2.218063109854079,-5.9736742615304825,4.596810465121943,-0.08440373012016775,-0.0018539054374926078,-0.11626936582245094,0.056424242450798905,0.10561972038707142,-0.20116956734359825,-0.3781614303588867,-1.8921469449996948,-1.052644968032837,-0.2530699372291565,0.7020577788352966,-0.2431080043315887
1749038009.3265266,5.954440078665997,-0.7734543826142065,1.7174813478256068,-2.2179496545550923,-5.97346146675389,4.596407683972878,-0.08488153745601881,-0.0017118234415489462,-0.11747368949833291,0.056744124841999526,0.10604508155091637,-0.20279439049811768,-0.384452223777771,-1.904434084892273,-1.0779067277908323,-0.2254359424114227,0.7352042198181152,-0.2324530333280563
1749038009.326565,5.954264461581708,-0.7734561096462262,1.7172477387996299,-2.2178349989233985,-5.973246684257514,4.596000230995159,-0.08530947977814343,-0.0015905396108820055,-0.11866378156972114,0.056963303481089134,0.10642639110451965,-0.20432118084464743,-0.3666648864746094,-1.9215956926345823,-1.083170771598816,-0.2571457624435425,0.7441026568412781,-0.2499769032001495
1749038009.3266032,5.954087298498492,-0.7734576084244134,1.7170103894043247,-2.21771934257775,-5.97302980353842,4.595587961408141,-0.0856950528289079,-0.0014968286775116722,-0.11983191022627772,0.05708710730912333,0.10681000848312168,-0.2057649657537631,-0.3666648864746094,-1.9215956926345823,-1.083170771598816,-0.2571457624435425,0.7441026568412781,-0.2499769032001495
1749038009.3266406,5.953908575646146,-0.7734590246223402,1.716769336219034,-2.2176029290438914,-5.972810753493957,4.595170878554558,-0.08605091545392712,-0.0014360950344338315,-0.12097550661744721,0.05712675107817005,0.10723865857828835,-0.20714972795373357,-0.4004773795604706,-1.9036840200424197,-1.071078538894653,-0.2882947325706482,0.7655973434448242,-0.2579256594181061
1749038009.326678,5.953728385890834,-0.7734605071874118,1.7165247828163799,-2.2174860364845315,-5.972589540129968,4.594749169086538,-0.08639410389359496,-0.0014120953822813157,-0.122096761786113,0.05709926941681651,0.10774727842941997,-0.20850568997302768,-0.3836374580860138,-1.901963233947754,-1.0916613340377808,-0.2430525124073028,0.7689995169639587,-0.2805676460266113
1749038009.326727,5.953546932153953,-0.7734621950476147,1.7162770832808463,-2.2173689573456787,-5.972366266156645,4.594323202178286,-0.08674456659897971,-0.0014268077559041964,-0.12320165935922746,0.057026993329155624,0.10836018622302364,-0.20986617270082183,-0.4085969030857086,-1.927051424980164,-1.0673768520355225,-0.2357256561517715,0.76148921251297,-0.2799116969108581
1749038009.326768,5.953364504756786,-0.7734642067544875,1.7160266992867925,-2.2172519675234317,-5.972141128302435,4.593893489299208,-0.08712314504361834,-0.0014804255113060741,-0.12429854380984921,0.056936591808073804,0.10908980527211103,-0.2112644803696408,-0.3559810221195221,-1.917014956474304,-1.0292937755584717,-0.2462942600250244,0.7686766386032104,-0.2920678257942199
1749038009.326806,5.953181438118163,-0.7734666342956017,1.7157741389776984,-2.2171352895898475,-5.971914394816469,4.593460613716011,-0.0875492094915202,-0.0015714346024241384,-0.125396338580238,0.05685774550271569,0.10993692177684171,-0.21273111073969483,-0.3615267872810364,-1.920683741569519,-1.066733479499817,-0.2534716129302978,0.7806251645088196,-0.2687054872512817
1749038009.3268435,5.952998056925817,-0.7734695412650491,1.7155198899749995,-2.2170190568854395,-5.9716863693976325,4.593025146059958,-0.08803821883763338,-0.0016967318311351528,-0.12650259139886777,0.056821507476684734,0.11089224724305141,-0.214291413533607,-0.2589520812034607,-1.867064118385315,-0.9934110045433044,-0.2384467273950576,0.7391047477722168,-0.2324571311473846
1749038009.3268802,5.952814623031123,-0.7734729644660362,1.7152643584064606,-2.2169032852373562,-5.97145734830761,4.592587562344473,-0.08859953331787282,-0.0018517610041593896,-0.1276216341228233,0.05685837410795557,0.11193892347894116,-0.2159637193221304,-0.3018260896205902,-1.9021772146224976,-1.024237036705017,-0.2771461606025696,0.7523587942123413,-0.2412104308605194
1749038009.3269167,5.952631292868604,-0.7734769172749321,1.715007822754092,-2.2167878574281787,-5.971227576682955,4.592148176644237,-0.08923486567113861,-0.00203067530808817,-0.12875324166976015,0.05699609747127339,0.11305556270708596,-0.21775797869300345,-0.3817717730998993,-1.906272292137146,-1.071249008178711,-0.2602657675743103,0.7382351160049438,-0.273914635181427
1749038009.3269536,5.952448092075544,-0.7734813930495126,1.7147504073811035,-2.2166725232225875,-5.970997209520572,4.591707095610332,-0.08993775788995541,-0.0022265622151458517,-0.1298921716102152,0.05725734940891125,0.1142194337616097,-0.2196750474977412,-0.4944419264793396,-1.954628586769104,-1.1126346588134766,-0.2441561371088028,0.7789888978004456,-0.3192480802536011
1749038009.3269908,5.952264909959491,-0.7734863674788711,1.7144920768358702,-2.2165569153722435,-5.970766282399289,4.591264197922345,-0.09069433828544818,-0.0024317735153948543,-0.13102880651029225,0.05765747015341571,0.11540943565234082,-0.22170682086893886,-0.4048931300640106,-1.9628187417984009,-1.0514910221099854,-0.2109510749578476,0.7738057374954224,-0.3100515007972717
1749038009.3270276,5.952081512684926,-0.77349179971558,1.7142326491973332,-2.2164405799630535,-5.9705346962137735,4.590819139208794,-0.09148532286097576,-0.002638375570703879,-0.13215083113601844,0.0582026282472906,0.11660850657285808,-0.22383735004851385,-0.405044287443161,-1.9375187158584597,-1.039273977279663,-0.2384908497333526,0.7112584710121155,-0.3058096170425415
1749038009.3273358,5.951897571600349,-0.7734976329949106,1.7139718251608766,-2.2163230178472753,-5.970302218989919,4.590371381603448,-0.09228887538265358,-0.002838677789570923,-0.13324557477308316,0.05888871240904576,0.11780512090346029,-0.22604485475611896,-0.4270248115062713,-1.9032378196716309,-1.0547761917114258,-0.2268879115581512,0.7241212725639343,-0.2618091404438019
1749038009.3293135,5.951712702241162,-0.7735037959369474,1.7137092289610372,-2.216203732626755,-5.9700685063069034,4.589920246032261,-0.09308370606691459,-0.0030257380115052217,-0.13430247852920324,0.05970115838541692,0.11899359852204708,-0.22830427158595681,-0.4097331762313843,-1.898366928100586,-1.08830988407135,-0.2387476563453674,0.7353203296661377,-0.2636082768440246
1749038009.37027,5.9515265095317105,-0.7735102057010464,1.7134444569633238,-2.2160822798332247,-5.969833139727201,4.589464983621068,-0.09385177686751084,-0.003193724491200351,-0.13531516808096516,0.06061574555702428,0.12017314271811604,-0.2305898067788411,-0.3614503145217895,-1.911908745765686,-1.053750991821289,-0.2021982073783874,0.7201385498046875,-0.2531659007072449
1749038009.3703165,5.95133863467702,-0.7735167735738409,1.7131771293561984,-2.2159583118908324,-5.969595679718087,4.58900486010163,-0.09458016173833865,-0.003338061578526077,-0.13628276882660792,0.06160025842554213,0.12134580825364305,-0.23287698577988275,-0.343890905380249,-1.934171199798584,-1.049166560173035,-0.2298299670219421,0.7414613962173462,-0.2596051692962646
1749038009.370356,5.951148798816304,-0.773523412559912,1.7129069396661811,-2.215831614178104,-5.969355726216407,4.5885392442312805,-0.09526187893283718,-0.0034553795965472658,-0.13721029741126067,0.06261683188835616,0.12251388666546559,-0.2351439015617976,-0.3753687739372253,-1.927672028541565,-1.0202271938323977,-0.217837706208229,0.7630154490470886,-0.2734119296073913
1749038009.3704054,5.95095683789925,-0.7735300455422007,1.7126336958939483,-2.215702128629534,-5.969112977163494,4.588067688471717,-0.09589577676531862,-0.0035433721903625403,-0.1381081400954005,0.06362476990384275,0.12367738525893135,-0.23737166104496574,-0.3753687739372253,-1.927672028541565,-1.0202271938323977,-0.217837706208229,0.7630154490470886,-0.2734119296073913
1749038009.3704474,5.950762723066585,-0.7735366121466832,1.712357346540829,-2.2155699624248806,-5.968867274117553,4.587589988402758,-0.09648574732148374,-0.003600687779641516,-0.13899076667516091,0.06458361573459394,0.12483229779201407,-0.23954428782913517,-0.4062159359455108,-1.9208308458328247,-1.0616576671600342,-0.2292101681232452,0.761637806892395,-0.2882606089115143
1749038009.3704855,5.950566562132479,-0.7735430728496183,1.712077986061462,-2.2154353805279405,-5.968618625461332,4.587106208904154,-0.0970396134654541,-0.0036269369460650734,-0.13987492781000768,0.06545624412732554,0.12597018064356455,-0.24164846473292279,-0.430511474609375,-1.9171648025512693,-1.1022541522979736,-0.2338033318519592,0.782929539680481,-0.2944837212562561
1749038009.3705237,5.950368581187855,-0.7735494097893122,1.711795838263108,-2.2152987826204837,-5.968367202073393,4.586616671833735,-0.09756797408116763,-0.003622813479596045,-0.14077763661693313,0.06621174038574548,0.12707919021693098,-0.243673463287521,-0.3366459012031555,-1.89319372177124,-1.0881223678588867,-0.246488481760025,0.7526692748069763,-0.2927699089050293
1749038009.3705616,5.950169089737253,-0.7735556245374655,1.711511221391282,-2.215160667212986,-5.968113306356991,4.586121909411268,-0.09808315531817256,-0.003590247984764625,-0.14171422718234566,0.06682783428154399,0.12814632346208765,-0.24561144918710434,-0.4320992231369018,-1.8979969024658203,-1.1008203029632568,-0.2657587826251983,0.7454738020896912,-0.2853125929832458
1749038009.3705986,5.949968435951403,-0.7735617334292236,1.7112245021392445,-2.2150215874508,-5.967857320900377,4.585622594424793,-0.09859828712486772,-0.0035324772099773025,-0.14269671432350794,0.06729267991655227,0.12916028164038784,-0.24745815048953404,-0.3693360090255737,-1.887173056602478,-1.0752357244491575,-0.2449997812509536,0.7346265912055969,-0.2754868865013122
1749038009.3706355,5.949766959447512,-0.7735677611724283,1.7109360463606644,-2.2148821036272746,-5.967599646196096,4.5851194600091665,-0.0991264637076386,-0.003453934862910362,-0.14373258480498904,0.06760582692614962,0.13011424478252806,-0.2492137053665378,-0.4467963576316833,-1.8968636989593504,-1.1007988452911377,-0.2528204023838043,0.7043783664703369,-0.2643977701663971
1749038009.3706732,5.949564948015302,-0.7735737335913369,1.7106461730389273,-2.2147427368739474,-5.967340637693664,4.584613219986063,-0.09967995942651021,-0.0033599381245458955,-0.1448240747124152,0.06777831115691815,0.1310079137956966,-0.250883415106494,-0.41881063580513,-1.915166020393372,-1.074774146080017,-0.2529963552951813,0.7289786338806152,-0.2512116730213165
1749038009.3707173,5.949362602902171,-0.7735796704400338,1.7103551165433848,-2.2146039276059653,-5.9670805516369425,4.58410449848169,-0.10026952203969827,-0.0032562254562579582,-0.14596795025748563,0.06783188236542571,0.13184839693598285,-0.2524781223727467,-0.4226935505867004,-1.913876175880432,-1.0823712348937988,-0.2679300308227539,0.7321025133132935,-0.2752090394496918
1749038009.370755,5.949160015457186,-0.7735855792332554,1.7100630008409001,-2.214466001530772,-5.966819507263582,4.583593775745332,-0.10090380382480413,-0.0031484586671643743,-0.14715579939367263,0.06779745661009162,0.1326498025764862,-0.2540139908332192,-0.4238477945327759,-1.9208468198776243,-1.10067880153656,-0.2418015301227569,0.7254829406738281,-0.266643762588501
1749038009.3707924,5.948957156570024,-0.7735914511583047,1.7097698279954925,-2.214329145477111,-5.966557470459118,4.583081355354169,-0.10158898424012199,-0.003041811981362469,-0.14837483267806537,0.06771292454994111,0.13343166260349387,-0.2555115545432023,-0.4229430556297302,-1.929935932159424,-1.0928583145141602,-0.2379547506570816,0.7448782920837402,-0.2666443288326263
1749038009.3708289,5.948753879393966,-0.7735972602820527,1.7094754818377464,-2.214193394793475,-5.9662942610819,4.582567355846168,-0.10232858920156312,-0.0029407327405769376,-0.1496091548710231,0.0676204732828009,0.13421648731177496,-0.25699402701386975,-0.4331544935703277,-1.9099167585372925,-1.0945591926574707,-0.2430510222911834,0.758843183517456,-0.248336061835289
1749038009.370866,5.948549934975659,-0.7736029670390928,1.709179746163216,-2.214058633391175,-5.966029583028642,4.582051727259802,-0.10312346055429066,-0.002848893691176008,-0.15084139656486045,0.06756359255075245,0.1350268249223287,-0.2584850119248047,-0.4501306414604187,-1.9179224967956543,-1.076096534729004,-0.2466064244508743,0.7188637852668762,-0.2504265308380127
1749038009.370903,5.948344999403703,-0.7736085260760732,1.7088823353905955,-2.2139246066851355,-5.965763073006065,4.581534290243132,-0.10397181415792715,-0.002769295920255118,-0.15205452053820603,0.06758393388674847,0.13588219617442557,-0.260005919997379,-0.4538737535476684,-1.93833601474762,-1.080122470855713,-0.2414900809526443,0.7505620718002319,-0.2760819494724273
1749038009.3709478,5.948138709924648,-0.7736138971106411,1.7085829343269296,-2.21379094682496,-5.965494361323165,4.581014792355404,-0.10486934972611772,-0.00270444703584874,-0.15323358822238115,0.0677181895575991,0.1367962536658003,-0.2615735184097322,-0.4186907708644867,-1.904532551765442,-1.089963436126709,-0.2323609441518783,0.7543333768844604,-0.2457573860883712
1749038009.3709867,5.947930706229787,-0.7736190562025989,1.708281242331495,-2.2136572084922426,-5.965223135924552,4.580492972894776,-0.10580941218980956,-0.0026565355155894845,-0.15436730170215712,0.06799518814048028,0.1377745121569814,-0.2631980636626477,-0.4649275839328766,-1.9092466831207275,-1.0950641632080078,-0.2138060331344604,0.7648204565048218,-0.2977668642997741
1749038009.3710237,5.9477206718100115,-0.7736240044878202,1.7079770154815022,-2.2135229117622712,-5.964949199301037,4.579968624293892,-0.10678322994433492,-0.0026275390664379696,-0.1554491945575012,0.06843346345958705,0.13881298907870523,-0.2648823733344608,-0.4649275839328766,-1.9092466831207275,-1.0950641632080078,-0.2138060331344604,0.7648204565048218,-0.2977668642997741
1749038009.3713093,5.947508369083818,-0.7736287722413536,1.70767009870597,-2.213387586382897,-5.964672507392131,4.579441635916517,-0.10778026637520302,-0.0026192302102799347,-0.15647838706034006,0.06903958379837033,0.1398980342392241,-0.26662200258315544,-0.442622572183609,-1.9192365407943728,-1.0535941123962402,-0.194105863571167,0.792933464050293,-0.2733951210975647
1749038009.3734038,5.947293661724095,-0.773633417655515,1.707360439680557,-2.2132508106394053,-5.964393181356376,4.578912007149092,-0.10878871357999567,-0.002633069903616733,-0.15745983056899618,0.06980746599328473,0.14100748861602638,-0.2684064627023223,-0.4641181230545044,-1.9303549528121948,-1.075844407081604,-0.2230459004640579,0.7918263673782349,-0.2501595914363861
1749038009.41426,5.947076519170154,-0.7736380212217462,1.7070480788132834,-2.2131122388818385,-5.9641114876325725,4.578379822391759,-0.10979612634357852,-0.002670006776433135,-0.1584039652250251,0.07071875353858637,0.14211310982060985,-0.27022121458268555,-0.4641181230545044,-1.9303549528121948,-1.075844407081604,-0.2230459004640579,0.7918263673782349,-0.2501595914363861
1749038009.4143078,5.946857001523769,-0.773642677571632,1.7067331144740585,-2.2129716144529907,-5.96382778772386,4.5778451891258936,-0.11079015817361883,-0.002730220850221942,-0.1593257479603567,0.07174418917898123,0.1431839785034765,-0.272050051641237,-0.4998566508293152,-1.9484354257583616,-1.1170450448989868,-0.1964035332202911,0.7686611413955688,-0.2549009919166565
1749038009.4143534,5.946635226922831,-0.7736474868109902,1.7064156484705353,-2.212828768050861,-5.963542464844004,4.577308148739168,-0.11175934705605643,-0.002812861239826171,-0.16024309420283314,0.07284583177344625,0.14419040797125451,-0.2738774873742194,-0.4333935379981994,-1.9266047477722168,-1.0972727537155151,-0.1963924020528793,0.720613956451416,-0.2466878890991211
1749038009.4144084,5.946411327508,-0.7736525467999308,1.7060957227797213,-2.2126836047783898,-5.963255839446535,4.576768577398473,-0.11269390354117256,-0.002915826412622508,-0.16117488414748912,0.07397994998804726,0.14510777222272414,-0.27569084540177796,-0.4649321138858795,-1.952080249786377,-1.1155670881271362,-0.2038273811340332,0.7545425295829773,-0.2710134088993072
1749038009.4144497,5.946185403516172,-0.7736579468662992,1.705773263012978,-2.2125360856091536,-5.962968089249467,4.576226100228316,-0.1135864486416812,-0.0030356278752596815,-0.16213875709162817,0.07510041074096863,0.1459196835035838,-0.2774818276124013,-0.5338837504386902,-1.9546823501586916,-1.14051353931427,-0.214719533920288,0.7713903188705444,-0.2876328825950622
1749038009.4144888,5.945957486345647,-0.7736637626209596,1.7054480443532412,-2.2123862097339457,-5.9626791901172975,4.5756800433796805,-0.11443261988581474,-0.0031673705354710994,-0.16314893101956127,0.07616232865736,0.1466200795888312,-0.2792473559586609,-0.4051204621791839,-1.933838129043579,-1.0817502737045288,-0.2173465639352798,0.720991849899292,-0.2279520481824875
1749038009.4145317,5.945727519774503,-0.7736700512154048,1.705119690957616,-2.2122340028648035,-5.962388891046799,4.575129443035351,-0.11523143209150044,-0.003304877852140911,-0.16421426476017636,0.07712567599656957,0.14721396640936155,-0.2809894836390238,-0.3898573219776153,-1.939062237739563,-1.104260802268982,-0.2111066430807113,0.7357016205787659,-0.223111093044281
1749038009.41457,5.94549536444511,-0.7736768465750559,1.7047877120834924,-2.2120795137690834,-5.962096730212244,4.574573119087222,-0.11598528498358669,-0.003440982396895215,-0.16533676713234646,0.07795851793994353,0.14771675697539188,-0.28271424569972287,-0.3898573219776153,-1.939062237739563,-1.104260802268982,-0.2111066430807113,0.7357016205787659,-0.223111093044281
1749038009.4146078,5.945260825412998,-0.773684154644882,1.7044515702088547,-2.2119228182911965,-5.9618020911690675,4.574009807326093,-0.11669957370977542,-0.0035679860970682493,-0.16651075781154465,0.07863955816299104,0.14815234781583647,-0.2844295253320601,-0.4476823806762695,-1.9318962097167969,-1.1108527183532717,-0.2356024384498596,0.758283257484436,-0.2575912177562713
1749038009.414649,5.945023697391505,-0.7736919492200361,1.704110770323402,-2.211764028055183,-5.961504290839386,4.5734383315677825,-0.11738195692957888,-0.0036782691967526342,-0.1677228591446612,0.07915974661464173,0.14855027154230926,-0.2861423062441472,-0.390145868062973,-1.9249259233474727,-1.079994559288025,-0.2341347485780716,0.7690042853355408,-0.2550763189792633
1749038009.414691,5.944783818628354,-0.7737001693711435,1.7037649562885708,-2.211603300389991,-5.961202685350037,4.572857789300078,-0.11804142259002039,-0.003765000038305757,-0.16895291326246234,0.07952279985757682,0.14894241127563657,-0.2878559367059939,-0.390145868062973,-1.9249259233474727,-1.079994559288025,-0.2341347485780716,0.7690042853355408,-0.2550763189792633
1749038009.4147289,5.944541122448779,-0.7737087197657393,1.7034139987208796,-2.211440846043123,-5.960896776301127,4.572267720835951,-0.11868733509220189,-0.003822876462327982,-0.17017579551346235,0.07974459987456643,0.14935980141605956,-0.2895681253103483,-0.4265546798706054,-1.9323947429656985,-1.0937646627426147,-0.2321764230728149,0.7820767760276794,-0.2808365821838379
1749038009.4147658,5.9442956753253435,-0.773717475091824,1.7030580583647426,-2.211276931185358,-5.960586298652463,4.571668231383238,-0.11932864803433527,-0.0038488151061589985,-0.17136397884856086,0.07985155284327973,0.1498299491221054,-0.2912702780978686,-0.4817103147506714,-1.925060510635376,-1.092967867851257,-0.2379306256771087,0.7957683205604553,-0.2519828379154205
1749038009.4148033,5.94404769266579,-0.7737262890327873,1.7026976110633352,-2.211111870674795,-5.960271273754673,4.571060040064258,-0.11997342536422925,-0.0038424937460003034,-0.17249060467377605,0.0798780877506049,0.15037492434618788,-0.29294850646091003,-0.4817103147506714,-1.925060510635376,-1.092967867851257,-0.2379306256771087,0.7957683205604553,-0.2519828379154205
1749038009.41484,5.943797528639715,-0.7737350070392431,1.7023334270083965,-2.2109460114173483,-5.959952018209664,4.570444442061408,-0.1206287266362222,-0.003806644597432377,-0.17353271781976162,0.07986354663165232,0.1510102485797189,-0.29458625872865857,-0.4567486941814422,-1.884145975112915,-1.0633388757705688,-0.2079873234033584,0.7507911920547485,-0.3024546205997467
1749038009.4148817,5.943545642580166,-0.7737434811173997,1.7019665063861142,-2.2107797073949693,-5.9596291092047124,4.569823186973688,-0.12130078970599531,-0.00374700290721222,-0.17447423729162187,0.07984876095250451,0.1517444314319434,-0.29616813589882257,-0.4837733209133148,-1.9420381784439087,-1.087712645530701,-0.2282723784446716,0.8001888394355774,-0.3189353346824646
1749038009.4149194,5.943292549479778,-0.7737515844286607,1.7015979823203955,-2.210613290246976,-5.959303316063447,4.56919829252302,-0.12199532427622767,-0.003671848773251414,-0.17530820891622503,0.07987261873888486,0.15257891187623804,-0.29768411612684337,-0.3765259087085724,-1.891984701156616,-1.0312964916229248,-0.2399917244911193,0.7378491163253784,-0.2667508721351623
1749038009.4149609,5.943038764482545,-0.773759223687221,1.7012290075040657,-2.210447040382202,-5.9589755131151065,4.568571823685202,-0.12271766569187134,-0.0035911466176841863,-0.1760379667145488,0.07996890758217912,0.15350818545519526,-0.2991332050060715,-0.441770076751709,-1.9162235260009768,-1.0554676055908203,-0.1930857598781585,0.7662357091903687,-0.2269673496484756
1749038009.4149983,5.942784750630801,-0.7737663479616447,1.700860641878853,-2.2102811631985175,-5.9586465893529486,4.567945670943296,-0.12347257460520655,-0.003515375262771177,-0.176677014447061,0.08016368909037068,0.15452003128871336,-0.3005255372671891,-0.4355159103870392,-1.932443737983704,-1.041791558265686,-0.1917902380228042,0.7824305891990662,-0.2004205733537674
1749038009.4150348,5.942530876233929,-0.7737729532041003,1.7004937556260473,-2.210115773342118,-5.958317366681263,4.567321357866853,-0.1242636085923517,-0.0034542249490868305,-0.17724766701874517,0.08047343511821434,0.15559593512507977,-0.3018822517649813,-0.4458493590354919,-1.9385154247283936,-1.0626462697982788,-0.1814485788345337,0.8013578057289124,-0.2155093699693679
1749038009.4153812,5.942277384951504,-0.7737790823032101,1.7001289566680782,-2.209950887870439,-5.957988533460918,4.566699900096527,-0.12509218129558927,-0.0034153837655952063,-0.1777786848834937,0.08090411493187004,0.15671194205753147,-0.303233013839666,-0.42869833111763,-1.9569486379623413,-1.04071843624115,-0.1667519211769104,0.7885702848434448,-0.2792680859565735
1749038009.417364,5.942024379511409,-0.7737848206427026,1.69976654708115,-2.209786427526021,-5.957660595871952,4.566081727887228,-0.12595657472223157,-0.0034036247330900926,-0.17830225046205878,0.0814513293806274,0.15784018264664218,-0.30461169283149575,-0.4104824960231781,-1.9447652101516724,-1.066017746925354,-0.2071534395217895,0.8024264574050903,-0.2942981421947479
1749038009.4582791,5.941771818961536,-0.773790287301569,1.6994065092731807,-2.2096222245212997,-5.957333847283897,4.565466674648847,-0.1268512197000105,-0.0034203383998288044,-0.17885067780519093,0.08210144346294669,0.1589511804183704,-0.30605117706526414,-0.4801256358623504,-1.9348020553588867,-1.0975990295410156,-0.1947559267282486,0.8126493096351624,-0.3045586347579956
1749038009.458326,5.941519528724523,-0.7737956223526768,1.699048520402539,-2.209458035342954,-5.957008355320908,4.564854025937951,-0.12776650675618365,-0.0034635558067138755,-0.17945323564037663,0.08283352407817757,0.16001681908150714,-0.3075784575537647,-0.4601179659366607,-1.9490967988967896,-1.090322494506836,-0.1722690463066101,0.7905300855636597,-0.3060246109962463
1749038009.45837,5.941267222013359,-0.773800971236988,1.698691991890137,-2.209293557726555,-5.956683966854932,4.564242617974882,-0.12868926761420704,-0.003528404051730182,-0.18013341426532234,0.08362180448532149,0.16101361020474253,-0.3092109348045028,-0.4320414662361145,-1.9160727262496948,-1.0797618627548218,-0.193923994898796,0.7479106783866882,-0.2883851528167724
1749038009.4584112,5.941014530447787,-0.7738064678412311,1.698336129683106,-2.209128451393946,-5.956360331419529,4.56363097184108,-0.12960390899460958,-0.003607863119043373,-0.18090689064263318,0.08443838117672532,0.16192573741179167,-0.31095453430561115,-0.4319932758808136,-1.9292209148406985,-1.100959300994873,-0.20339997112751,0.7530927062034607,-0.3018832802772522
1749038009.458451,5.940761041198735,-0.7738122184831969,1.6979800098845121,-2.2089623619277288,-5.956036942387312,4.563017448283733,-0.13049402375092622,-0.0036936702703838876,-0.18178035654016175,0.08525586153194431,0.1627473197243401,-0.31280380108132183,-0.4243093430995941,-1.9312779903411863,-1.10224187374115,-0.1908579468727111,0.7532813549041748,-0.3627865314483642
1749038009.4584897,5.94050633764448,-0.7738182892421029,1.6976226631974107,-2.2087949464694443,-5.955713192697338,4.562400407757153,-0.13134420026693858,-0.0037772462360950317,-0.1827512790320333,0.08604968990410605,0.16348345613545628,-0.31474375571579005,-0.404617428779602,-1.9467440843582156,-1.1129426956176758,-0.2147321105003357,0.7287581562995911,-0.3168586492538452
1749038009.4585278,5.940250039981774,-0.7738246988361275,1.6972631602369108,-2.2086258991834744,-5.955388438958022,4.561778360288955,-0.13214173188445338,-0.003850568682855569,-0.18380856329830275,0.08679990412190522,0.16414985276447921,-0.3167529614689035,-0.3982138335704803,-1.9469735622406008,-1.109202265739441,-0.1904633492231369,0.7654855251312256,-0.284227192401886
1749038009.4585657,5.939991841132528,-0.773831418551641,1.6969006883463211,-2.208454973781911,-5.955062065360105,4.561150089569224,-0.13287798384023547,-0.003906957524008257,-0.18493399499247926,0.08749214943455097,0.16477111303489764,-0.3188070264215022,-0.3982138335704803,-1.9469735622406008,-1.109202265739441,-0.1904633492231369,0.7654855251312256,-0.284227192401886
1749038009.4586034,5.93973153210884,-0.7738383795988978,1.6965346099315595,-2.2082820000456427,-5.954733537722336,4.560514736342334,-0.13354927051344123,-0.003941743506981145,-0.18610427488487474,0.0881179031890977,0.16537800299749497,-0.3208817327316452,-0.4320788383483886,-1.9419207572937007,-1.0929570198059082,-0.2031330317258834,0.7798563838005066,-0.2443699240684509
1749038009.4586406,5.93946901146751,-0.7738454868687502,1.6961644941873126,-2.2081068919001745,-5.954402439273396,4.559871830726715,-0.13415719430269996,-0.003952770709338635,-0.18729343210452348,0.088674003642887,0.16600412898186498,-0.32295519820946816,-0.4573515355587005,-1.939296007156372,-1.1088390350341797,-0.2093604505062103,0.8039884567260742,-0.3298004865646362
1749038009.4586782,5.939204276954931,-0.7738526367725918,1.6957901195680707,-2.207929646691886,-5.954068484189972,4.559221273301105,-0.13470847223861143,-0.003940658170516973,-0.18847539886382278,0.08916169003229608,0.16668246724942828,-0.32500887037564613,-0.461539089679718,-1.9234853982925413,-1.0937834978103638,-0.2062666714191436,0.792768657207489,-0.3302316069602966
1749038009.4587228,5.938937402665657,-0.7738597360649597,1.6954114516555374,-2.207750337881151,-5.953731510907776,4.558563276982615,-0.1352143196534882,-0.003908744420353264,-0.1896265289652796,0.08958542540115502,0.1674420974827659,-0.3270275623168475,-0.4723626971244812,-1.920100808143616,-1.1092499494552612,-0.1921896636486053,0.7904836535453796,-0.3213098049163818
1749038009.4587662,5.938668508881626,-0.7738667184652287,1.695028606263912,-2.2075691046599175,-5.9533914616918135,4.557898288910025,-0.13568948158735672,-0.003862678159445748,-0.1907278445267305,0.08995177653787634,0.16830538116414476,-0.32899899312679604,-0.420512855052948,-1.943628430366516,-1.0644811391830444,-0.1843152344226837,0.7993152141571045,-0.3046336770057678
1749038009.458805,5.9383977324075286,-0.7738735564387906,1.694641808551601,-2.2073861414916993,-5.9530483563601875,4.557226910815059,-0.13615101229163462,-0.003809691329312756,-0.19176681574323215,0.09026856246275941,0.169285754166891,-0.3309133244181696,-0.4111697077751159,-1.9529671669006348,-1.0845280885696411,-0.1744786500930786,0.8060029745101929,-0.3113688826560974
1749038009.458843,5.938125203414854,-0.7738802664261096,1.6942513566111739,-2.2072016891833472,-5.952702267222643,4.556549830781757,-0.1366169065789502,-0.00375766826688162,-0.19273852642193517,0.09054436792479906,0.17038628404775216,-0.3327630386650816,-0.4651262164115906,-1.948911547660828,-1.0912628173828125,-0.189124658703804,0.8212493062019348,-0.3173111081123352
1749038009.45888,5.937851032203133,-0.7738869068662978,1.6938575945578351,-2.207016027697311,-5.952353300474346,4.555867773053841,-0.13710469030674338,-0.003714173530889041,-0.1936461418473475,0.0907883849669319,0.17159913857143339,-0.3345432815205312,-0.4874838590621948,-1.9697648286819456,-1.124943494796753,-0.2192478626966476,0.8388012647628784,-0.3649737238883972
1749038009.4589188,5.937575306874876,-0.7738935694270774,1.6934608968409282,-2.2068294697441635,-5.952001587096936,4.555181467546474,-0.13763007992977883,-0.003685603190700633,-0.19450064756232938,0.09101044093557903,0.17290607010373643,-0.3362525516648381,-0.4560047388076782,-1.9564241170883176,-1.0522284507751465,-0.1909738481044769,0.7953086495399475,-0.2919868528842926
1749038009.4589572,5.937298100941046,-0.7739003649348187,1.693061662815938,-2.206642353396698,-5.951647284025123,4.5544916372261035,-0.13820581167786475,-0.003676584552441633,-0.19531985248516104,0.09122104143682082,0.1742799157661899,-0.33789340508258736,-0.46156045794487,-1.981499195098877,-1.0878667831420898,-0.1812310367822647,0.7943098545074463,-0.2361413240432739
1749038009.4589942,5.937019488262088,-0.7739074065403632,1.6926603185384437,-2.2064550317749485,-5.951290584018677,4.553798999364216,-0.1388407223542083,-0.0036896870432402175,-0.19612667099636624,0.09143130834468821,0.17568697360898006,-0.33947271979031174,-0.484404981136322,-1.9635766744613647,-1.0779433250427246,-0.1713212132453918,0.7806148529052734,-0.2392864823341369
1749038009.459031,5.936739561438523,-0.7739147933053533,1.6922573213090637,-2.206267858380692,-5.95093173043998,4.553104275356801,-0.13953915595037614,-0.003725441749459115,-0.19694675820493995,0.091652770079895,0.1770900073844798,-0.34100114748415644,-0.5100415945053101,-1.9498602151870728,-1.1117591857910156,-0.2146823108196258,0.8101373910903931,-0.2868611514568329
1749038009.4593728,5.93645844895064,-0.7739225971655447,1.6918531619669368,-2.206081167766449,-5.950571031441315,4.552408202736596,-0.1403007721716429,-0.003782611337732126,-0.19780567762905601,0.09189700127260961,0.17845160044918087,-0.34249168907471184,-0.5057353973388672,-1.939131736755371,-1.0813021659851074,-0.2187224626541137,0.788580596446991,-0.3093958795070648
1749038009.461342,5.936176326289629,-0.773930855092687,1.6914483604628736,-2.2058952525349245,-5.950208867526543,4.551711542073,-0.1411208121577486,-0.0038586153336686965,-0.19872589346276928,0.09217511902724816,0.17973759535605305,-0.34395773461587753,-0.4675472676753998,-1.9432915449142456,-1.1054534912109375,-0.1876174211502075,0.7909799814224243,-0.3315220177173614
1749038009.502281,5.9358934171473825,-0.7739395668592985,1.6910434516476707,-2.20571033873925,-5.949845687295626,4.55101507115658,-0.14199081302272026,-0.0039500074853377615,-0.19972396255660704,0.09249717575271851,0.18092035496608297,-0.34541116983497444,-0.4606528878211975,-1.9557631015777588,-1.1381624937057495,-0.1858405768871307,0.7617075443267822,-0.3040793240070343
1749038009.5023272,5.935609982320558,-0.7739486977722227,1.690638960034233,-2.2055265623014115,-5.949481988103895,4.5503195598289095,-0.14289967542429324,-0.004052923877206241,-0.20080833620492888,0.09287154643811796,0.18198153888587942,-0.3468611242836646,-0.4454705119132995,-1.965324878692627,-1.1444114446640017,-0.1779204607009887,0.7468921542167664,-0.287533164024353
1749038009.5023673,5.935326296040393,-0.7739581851964361,1.690235364087779,-2.2053439490370406,-5.949118280769408,4.5496257213643245,-0.14383491215231162,-0.004163457452192054,-0.20197814467819028,0.09330443269044648,0.18291405165204475,-0.3483136704977587,-0.4891231656074524,-1.9649789333343504,-1.1252048015594482,-0.1963773816823959,0.7604768872261047,-0.3091775476932525
1749038009.5024097,5.9350426115272885,-0.7739679474086653,1.6898330521878373,-2.205162400386637,-5.9487550398746265,4.548934140383562,-0.14478386499761625,-0.004277941776976171,-0.2032231976468814,0.09379956419595108,0.183722854989286,-0.3497724507220558,-0.4864506125450134,-1.9406949281692505,-1.1190619468688965,-0.1782634258270263,0.7592641711235046,-0.3261730074882507
1749038009.5024486,5.934759119350308,-0.7739778932170008,1.6894322739085534,-2.2049816862106466,-5.948392643653235,4.548245182453049,-0.1457346847896275,-0.004393131740784329,-0.2045252049455364,0.09435810711304211,0.18442446863558523,-0.3512399432781765,-0.419396311044693,-1.955294251441956,-1.1165627241134644,-0.2085207998752594,0.7579878568649292,-0.2937730848789215
1749038009.5024862,5.9344759036113715,-0.7739879310076546,1.689033091779799,-2.2048014452828046,-5.948031310057096,4.54755889596649,-0.14667693051961916,-0.004506264347435585,-0.20585998589277998,0.09497874070561818,0.1850451764969325,-0.35271892116322984,-0.4284604489803314,-1.9453879594802856,-1.1153584718704224,-0.1944683939218521,0.7601423859596252,-0.2500380873680115
1749038009.5025246,5.93419290205502,-0.773997976503935,1.688635340017965,-2.2046211936737623,-5.947671037867133,4.5468749214479365,-0.14760174990648706,-0.00461499375975222,-0.2072002847274258,0.09565785350613491,0.18561815150317817,-0.3542136004758672,-0.4587671458721161,-1.9323009252548216,-1.1108139753341677,-0.1751616150140762,0.7552198171615601,-0.2240535020828247
1749038009.5025675,5.933909876690542,-0.774007959199975,1.6882385974514384,-2.2044403411458275,-5.947311562742182,4.5461924258732545,-0.148501728925185,-0.004717230632287861,-0.2085187765343773,0.09638982234846595,0.18617986846896734,-0.3557300548639469,-0.4700697958469391,-1.9528216123580933,-1.0783621072769165,-0.1483070254325866,0.7824840545654297,-0.2887860536575317
1749038009.5026066,5.933626401239056,-0.7740178275411598,1.6878421817007436,-2.204258215840773,-5.946952337515414,4.5455100793257435,-0.14937059707948752,-0.0048109572109632385,-0.20979089635445006,0.09716734883348749,0.186766256924994,-0.35727570929535085,-0.4918537139892578,-1.9546304941177368,-1.0860214233398438,-0.1438824832439422,0.7679746150970459,-0.3139840066432953
1749038009.5026443,5.933341870713979,-0.7740275523042862,1.687445170508525,-2.2040740976674624,-5.946592544207178,4.5448260883287075,-0.15020300391060512,-0.004894103866994594,-0.21099720263199945,0.09798182016354327,0.18740903860394975,-0.35885805888818983,-0.4635770618915558,-1.9527244567871092,-1.0699588060379028,-0.149258017539978,0.7538607716560364,-0.3083347976207733
1749038009.502682,5.933055536599684,-0.7740371269878215,1.6870464539432017,-2.203887260621508,-5.946231142507997,4.544138294765767,-0.15099452758407866,-0.004964542849896877,-0.21212506868888936,0.09882363324063838,0.18813261146309937,-0.3604830367625908,-0.451202392578125,-1.9304254055023196,-1.085690140724182,-0.1823951601982116,0.7597627639770508,-0.2995121777057647
1749038009.5027246,5.932766568139039,-0.7740465642688733,1.6866448178886997,-2.203697023577511,-5.945866955704005,4.5434443413279295,-0.15174196612095375,-0.005020196906911768,-0.21316957595224784,0.09968239998907832,0.18895172996380488,-0.36215355295168167,-0.523861289024353,-1.9305769205093384,-1.0722678899765017,-0.1705996543169021,0.7416366934776306,-0.3210214376449585
1749038009.5027726,5.93247413608682,-0.7740558888704646,1.6862390544407657,-2.203502807646862,-5.9454987895641755,4.542741893597505,-0.15244383930991992,-0.005059210484084124,-0.21413355462297032,0.10054697965075543,0.18987014026881105,-0.3638686333636534,-0.4314749836921692,-1.9264634847640991,-1.0427286624908447,-0.1901168823242187,0.7578065991401672,-0.3256022334098816
1749038009.502811,5.932177510109165,-0.7740651286813597,1.685828088318979,-2.2033041957348094,-5.945125572316696,4.542028895282408,-0.15310093498435667,-0.005080116831095856,-0.21502678176016507,0.10140536855431842,0.1908802815829069,-0.36562338440745246,-0.4314749836921692,-1.9264634847640991,-1.0427286624908447,-0.1901168823242187,0.7578065991401672,-0.3256022334098816
