nimar13/UR3e_dataset_trayectorias/trayectorias_ejecutadas_filtradas/quintic/trayectoria_034_result_filtrado.csv
timestamp,q1,q2,q3,q4,q5,q6,qd1,qd2,qd3,qd4,qd5,qd6,tau1,tau2,tau3,tau4,tau5,tau6
1749033034.1743622,4.08822636739802,-2.291794405996554,-1.4232151232875008,-0.46907832481120854,-5.014321309209412,-2.6072166576212523,0.03193145126562398,-0.0023532141595277688,-0.022131567163762546,-0.0038603040171509085,-0.046212658364632175,-0.02024560139137217,0.2626575529575348,1.3028911352157593,0.872172474861145,0.4474588930606842,-0.3854926526546478,-0.1935240030288696
1749033034.1744106,4.088283547173535,-2.291794123300125,-1.4232464364768131,-0.469077064286825,-5.01439150566582,-2.607246335978452,0.03047059479678418,-0.002055702926527999,-0.02089717634712689,-0.0034763460076755186,-0.04367753760644911,-0.019238361071784678,0.2553043961524963,1.2898064851760864,0.8652165532112122,0.4399557113647461,-0.3839302659034729,-0.1849203705787658
1749033034.1744502,4.088340275619855,-2.2917937454712085,-1.423277322845385,-0.46907603047353263,-5.014460929727084,-2.607275780513493,0.029040403299609864,-0.0017669041079681996,-0.01966737506752931,-0.0030998615120930145,-0.04119612608447833,-0.018230804897174862,0.2646149098873138,1.2837320566177368,0.8945913314819336,0.4533348381519317,-0.3908401131629944,-0.1767798513174057
1749033034.1744883,4.088396169268252,-2.2917932332980833,-1.4233073974897896,-0.4690753625780878,-5.01452914487819,-2.6073047366239357,0.027639933043834063,-0.001494637381874565,-0.018439361706633375,-0.0027383110022868714,-0.03878925318564145,-0.017216693612014985,0.2547318041324615,1.3006765842437744,0.8732438683509827,0.4525299966335296,-0.3794293701648712,-0.1784499734640121
1749033034.1745262,4.088450855042734,-2.2917925614212415,-1.423336302327961,-0.46907516050317644,-5.014595756498003,-2.6073329497008495,0.026264601339698813,-0.0012455252998711578,-0.017210010055989603,-0.002398254428850858,-0.03647242232128811,-0.016190015275989844,0.2607524693012237,1.2978215217590332,0.8570179343223572,0.4435839056968689,-0.3951976597309112,-0.1741596162319183
1749033034.1745634,4.088503968835971,-2.291791721368778,-1.4233637174081175,-0.46907547713738473,-5.01466041053739,-2.6073601670476974,0.024906305487270224,-0.001024577025102324,-0.01597635452671068,-0.002085032915682547,-0.03425468366700479,-0.015145585752388991,0.2590863704681396,1.2930790185928345,0.8637247681617737,0.4434815943241119,-0.3942922949790954,-0.143393263220787
1749033034.1746006,4.088555154571688,-2.291790723695379,-1.4233893709938958,-0.4690763154165956,-5.014722791315692,-2.6073861400858998,0.023553960830996798,-0.0008349464063574165,-0.014736214175767077,-0.001802562305831152,-0.03213808861132303,-0.01407971715280068,0.2308728396892547,1.3025130033493042,0.8725718259811401,0.4331053793430328,-0.4126022756099701,-0.1592190414667129
1749033034.1746378,4.0886040640278685,-2.2917895983308734,-1.4234130473652358,-0.46907763057928137,-5.014782618365697,-2.6074106272272317,0.02219444886215643,-0.0006778744330695473,-0.013488932565143812,-0.001553259479779517,-0.030117822038331774,-0.0129909163885022,0.2304115742444992,1.2991214990615845,0.8748300075531006,0.4457087218761444,-0.396954208612442,-0.1677246838808059
1749033034.1746745,4.088650357577073,-2.2917883925161813,-1.4234345913702475,-0.46907933728356893,-5.014839641806336,-2.607433398447747,0.020813901070483923,-0.0005528009623527902,-0.01223615430418247,-0.0013381065851381568,-0.028183025010941432,-0.011880546674937757,0.2295263558626175,1.306283950805664,0.8797541856765747,0.4399866163730621,-0.3929410278797149,-0.1683394908905029
1749033034.1747105,4.088693706031783,-2.2917871663383957,-1.423453909310693,-0.46908132058867386,-5.014893635862071,-2.607454242652467,0.01939919735921088,-0.00045761274663780403,-0.010982505264323462,-0.001156837711226722,-0.0263182272933736,-0.010753359634883754,0.2295263558626175,1.306283950805664,0.8797541856765747,0.4399866163730621,-0.3929410278797149,-0.1683394908905029
1749033034.1747472,4.088733794174386,-2.291785986491945,-1.4234709665304206,-0.4690834494686256,-5.01494439110882,-2.6074729782077153,0.017939529416407647,-0.00038898501736385314,-0.009736017602240153,-0.0010082120687483795,-0.024505225187887246,-0.009617790254875394,0.215835839509964,1.3106659650802612,0.8682121634483337,0.4486930072307586,-0.3868764042854309,-0.1631805747747421
1749033034.1747837,4.088770326986067,-2.2917849191504525,-1.4234857826607785,-0.4690855914121994,-5.014991707384863,-2.607489465855356,0.016427867392153312,-0.00034277127249773354,-0.008508160930518316,-0.0008903242622399486,-0.022725189307861694,-0.008485907844958245,0.195260614156723,1.3001914024353027,0.8644675016403198,0.4346024692058563,-0.3891838192939758,-0.1490579098463058
1749033034.17482,4.088803039338246,-2.291784022719508,-1.4234984255436163,-0.4690876265736018,-5.015035390109975,-2.6075036220535193,0.014862173404955228,-0.0003143991483856599,-0.007313405992518754,-0.0008009004720160778,-0.020960781420051363,-0.007372942724564484,0.1950306892395019,1.3084489107131958,0.8747335076332092,0.4442167580127716,-0.382395327091217,-0.1307218372821808
1749033034.174857,4.088831708848511,-2.291783341042624,-1.4235090044951801,-0.4690894599337712,-5.015075252242713,-2.6075154300994248,0.013246225222139921,-0.00029923755240263676,-0.006168333991509971,-0.0007375387099223884,-0.019198089852119543,-0.006296367014396088,0.2013788223266601,1.3061810731887815,0.8787195086479187,0.4398069977760315,-0.3937193155288696,-0.1336426436901092
1749033034.1748931,4.088856170499186,-2.2917828976391452,-1.4235176631453328,-0.46909103015937453,-5.015111122477313,-2.6075249465237764,0.011589942544823036,-0.00029290950494768175,-0.00509038367244078,-0.0006978671316277553,-0.01742823648248064,-0.005274590905679026,0.2091194987297058,1.3101080656051636,0.8812277913093567,0.4434552192687988,-0.387608528137207,-0.1280360370874405
1749033034.1749296,4.0888763311119405,-2.2917826917585433,-1.4235245718325558,-0.46909231423865205,-5.015142858542403,-2.607532301040257,0.009909147015190842,-0.00029153471221162505,-0.004096384094509217,-0.0006796116840380949,-0.015648546773336946,-0.004325420133701999,0.1716746985912323,1.3199466466903689,0.8976843953132629,0.4369348585605621,-0.3895484805107116,-0.1462744921445846
1749033034.1749663,4.088892181702617,-2.291782697129596,-1.4235299194873732,-0.46909332738811355,-5.015170363435121,-2.6075376892991375,0.008224740411453,-0.00029189480835734006,-0.003201054072499599,-0.0006805800837365192,-0.013863201199580153,-0.0034644791862409926,0.1481257975101471,1.333785891532898,0.8931404948234558,0.4383470714092254,-0.3839851021766662,-0.1270186901092529
1749033034.1750028,4.088903805797089,-2.2917828639838933,-1.4235339050595928,-0.4690941182240514,-5.015193602182887,-2.6075413586381564,0.006561355583108711,-0.00029152191632083663,-0.002415659619037963,-0.0006985818006094141,-0.012083302896391347,-0.0027038196789814545,0.1585763692855835,1.3084508180618286,0.898860514163971,0.4353353083133697,-0.3916082382202148,-0.1221204102039337
1749033034.1750388,4.0889113821590914,-2.2917831242846547,-1.4235367288267264,-0.4690947598989753,-5.015212616881281,-2.6075435881344666,0.00494561595965676,-0.0002887172832369675,-0.001747002239836493,-0.000731312198410454,-0.01032630894698446,-0.002050901294330758,0.161479651927948,1.3200215101242063,0.9051929116249084,0.4183767437934875,-0.3664271235466003,-0.1237633228302002
1749033034.175075,4.088915181262519,-2.2917833993592076,-1.423538584289716,-0.4690953386529525,-5.015227537943958,-2.6075446655196055,0.0034042133460570707,-0.000282511036471882,-0.001196861084376611,-0.0007762321208933417,-0.008614797590244565,-0.0015080655835813515,0.133622333407402,1.3302935361862185,0.901544749736786,0.4254995286464691,-0.3356456160545349,-0.0995434671640396
1749033034.1757357,4.088915555818722,-2.2917836085900225,-1.4235396515961185,-0.46909594164812507,-5.015238589681077,-2.6075448644090953,0.00196204971377649,-0.00027257660111386394,-0.0007619403450344616,-0.0008304718071505387,-0.006974604330548379,-0.0010725409430968533,0.1321809887886047,1.3504284620285034,0.9117496013641356,0.4318512082099914,-0.3119273781776428,-0.1157305836677551
1749033034.1777055,4.088912926131886,-2.291783677700313,-1.4235400932828985,-0.46909664585243294,-5.015246088788406,-2.607544425297167,0.0006406645450452663,-0.00025911424320487856,-0.00043429829209534326,-0.0008907815778293556,-0.005432467173657771,-0.000736940044245472,0.131172776222229,1.3561874628067017,0.9260388612747192,0.4264111220836639,-0.3184512853622436,-0.0956200808286666
1749033034.2182891,4.088907761038133,-2.2917835455722693,-1.4235400525786643,-0.4690975092613324,-5.0152504352719385,-2.6075435428839664,-0.0005429085507190021,-0.00024271790458519097,-0.00020217294175453734,-0.0009535441737676657,-0.004013449230822046,-0.000490152436676595,0.0880734473466873,1.3709124326705933,0.9288704991340636,0.4355745315551758,-0.2939220666885376,-0.1029553115367889
1749033034.218337,4.0889005553113815,-2.2917831692339408,-1.423539653830228,-0.4690985651599497,-5.015252096441818,-2.607542360975613,-0.0015768120484517417,-0.00022423831855519573,-5.108022463865033e-05,-0.0010148577739730867,-0.002738498097867815,-0.00031850033396632046,0.084314078092575,1.3879152536392212,0.9479109644889832,0.4413551390171051,-0.2801437973976135,-0.0979013442993164
1749033034.2183838,4.088891805032657,-2.291782527181272,-1.423539004204963,-0.4690998196081691,-5.015251585397395,-2.6075409748754454,-0.002454600458401556,-0.00020465352108510275,3.495572206481294e-05,-0.0010706950675906052,-0.001622503609548206,-0.00020701358391692607,0.0926113724708557,1.3884414434432983,0.9421072006225586,0.4466923475265503,-0.2637748718261719,-0.0816586166620254
1749033034.2184238,4.088881983177519,-2.2917816212594015,-1.4235381958301705,-0.4691012519635952,-5.015249435771278,-2.6075394400896257,-0.00317511862892151,-0.00018495533608349252,7.217712088163895e-05,-0.0011171396331787792,-0.0006731193981141262,-0.00014068600405368306,0.1191638857126236,1.3847838640213013,0.9548233151435852,0.4322474300861358,-0.2307657152414322,-0.0808342844247818
1749033034.2184672,4.088871518016311,-2.291780477031135,-1.4235373077797122,-0.46910281811004845,-5.015246174552666,-2.6075377853070663,-0.0037420936488616616,-0.000166057386292326,7.599027062903078e-05,-0.0011506926371827894,0.00010954323362475918,-0.00010559456298744867,0.0909347832202911,1.3924812078475952,0.9516565203666688,0.4190372228622436,-0.2206546813249588,-0.0878062397241592
1749033034.2185068,4.088860776589684,-2.2917791422571665,-1.423536407545701,-0.4691044561253177,-5.015242294742973,-2.6075360269853576,-0.004163497872816707,-0.0001487271540337975,6.007560382935624e-05,-0.001168629188330695,0.0007324011512751319,-8.979102917416912e-05,0.0860469043254852,1.397530198097229,0.981323540210724,0.4406324326992035,-0.192054346203804,-0.0938208773732185
1749033034.2185447,4.088850054691689,-2.2917776830241094,-1.423535551796183,-0.4691060942227836,-5.01523822969032,-2.6075341826882683,-0.004450751174183784,-0.00013354214921914047,3.576498199260353e-05,-0.0011693671406186707,0.0012082360451809106,-8.390894972679159e-05,0.0702721178531646,1.400681495666504,0.986282765865326,0.4428106248378753,-0.1930471807718277,-0.0766874998807907
1749033034.2185817,4.088839573895457,-2.2917761772384755,-1.4235347864010455,-0.46910766068588805,-5.015234331392033,-2.607532280839272,-0.0046178582522820874,-0.00012086855482529954,1.170640694432037e-05,-0.001152797442336943,0.001554110885470683,-8.146307678130302e-05,0.0793270245194435,1.4033483266830444,0.982438325881958,0.4413495361804962,-0.1873535364866256,-0.0747258961200714
1749033034.2186186,4.088829485495636,-2.29177470567126,-1.4235341458954354,-0.4691090950867187,-5.015230855514386,-2.6075303656947972,-0.004680585928630591,-0.00011085962091842252,-6.195421177964749e-06,-0.001120520550740828,0.0017895950908572102,-7.884899354980813e-05,0.0671695843338966,1.4149030447006226,0.9854701161384584,0.4464881718158722,-0.1853199154138565,-0.0871344655752182
1749033034.2186558,4.08881988065608,-2.2917733414346086,-1.423533652670047,-0.46911035949882474,-5.015227955696352,-2.6075284975675213,-0.004655756406648593,-0.00010347028893116192,-1.4600933825778656e-05,-0.0010759409330713188,0.0019349908339556922,-7.507388954643294e-05,0.0926210060715675,1.412756323814392,0.9848097562789916,0.4258783161640167,-0.1913797408342361,-0.0721126198768615
1749033034.2186923,4.088810805130598,-2.2917721395162896,-1.4235333162306762,-0.46911144801306215,-5.015225688546491,-2.607526749114948,-0.0045606809881501955,-9.848398641355366e-05,-1.2377625393268141e-05,-0.0010241887078857703,0.0020097106406357403,-7.126415870803955e-05,0.0600573346018791,1.392863154411316,0.9934808611869812,0.4386085569858551,-0.1624692231416702,-0.0672082230448722
1749033034.2187295,4.088802275693688,-2.2917711284900903,-1.4235331329026375,-0.46911239295240287,-5.015224028871775,-2.607525198793913,-0.004412713175254964,-9.554735903262676e-05,-1.2962482382690963e-07,-0.0009718581470697063,0.0020309284838729534,-7.00037002480476e-05,0.0641481354832649,1.4109030961990356,1.0015586614608765,0.4273020923137665,-0.1644901484251022,-0.0948589444160461
1749033034.2187674,4.088794294599474,-2.2917703064096706,-1.423533086362789,-0.4691132667737844,-5.01522289270183,-2.6075239226610756,-0.004228876169666751,-9.420897513682267e-05,2.0318329628493698e-05,-0.0009265721950355181,0.002012608530155113,-7.456140465862255e-05,0.0807434543967247,1.39967143535614,1.0022406578063965,0.4330910742282867,-0.1663155704736709,-0.0666197314858436
1749033034.2188077,4.088786858779965,-2.291769642032326,-1.4235331492922325,-0.4691141793904814,-5.015222164204944,-2.6075229857781315,-0.004025517367098384,-9.395866919754088e-05,4.642499704638531e-05,-0.0008963986689410495,0.0019649892457297997,-8.806912846999948e-05,0.0689743384718895,1.403974175453186,1.0068522691726685,0.4298992753028869,-0.1446851044893264,-0.0871308296918869
1749033034.2188458,4.088779962206193,-2.2917690812265055,-1.4235332862171064,-0.4691152711277978,-5.015221722034154,-2.6075224344903,-0.0038179550709108593,-9.426501377689214e-05,7.538112645352537e-05,-0.0008891577263301155,0.0018945550835737018,-0.00011271285110046964,0.0685271024703979,1.4029484987258911,1.005233883857727,0.4348323345184326,-0.1376872807741165,-0.0729391276836395
1749033034.218883,4.088773592204339,-2.2917685572679356,-1.4235334573257985,-0.4691167016578068,-5.015221461066454,-2.6075222905748996,-0.003620104571332315,-9.460925189495822e-05,0.00010447374166525384,-0.0009116720845433204,0.0018044690637284892,-0.00014899929835314148,0.0608950853347778,1.3917070627212524,1.0004228353500366,0.4176759719848633,-0.1384538263082504,-0.0755748748779296
1749033034.2189236,4.088767722523782,-2.2917680030598175,-1.4235336228466742,-0.46911863538013415,-5.015221306647926,-2.6075225476140327,-0.003444098679401801,-9.451474526382207e-05,0.0001313520730404249,-0.0009690214199090106,0.001695383329617099,-0.0001951576968442466,0.0559738427400589,1.3866065740585327,0.9983335733413696,0.4317790567874908,-0.1455922871828079,-0.0680464282631874
1749033034.2189617,4.088762306706113,-2.291767363112001,-1.4235337474553278,-0.4691212241769253,-5.0152212199227195,-2.6075231691916834,-0.003299947712543316,-9.357150770767847e-05,0.00015419360787081798,-0.0010638697915444078,0.0015665079571047878,-0.00024673113073157306,0.0683594942092895,1.3940911293029783,1.0091869831085205,0.4349046647548675,-0.1300475746393203,-0.0748725533485412
1749033034.2190018,4.088757274548817,-2.291766603318414,-1.423533804106726,-0.46912458919589417,-5.015221194339948,-2.6075240881788675,-0.0031953060823626785,-9.145565518738016e-05,0.0001717786546874608,-0.001195938355402845,0.0014168085020330543,-0.00029640369860109054,0.0657973885536193,1.3698188066482544,0.9991915822029114,0.4325309097766876,-0.1286831051111221,-0.0663090124726295
1749033034.2190394,4.088752532739135,-2.291765717163682,-1.4235337767251144,-0.4691288038996557,-5.015221244933727,-2.607525206765255,-0.0031354144299346096,-8.794362057755814e-05,0.00018348855319208585,-0.0013616929757653423,0.0012462137508641817,-0.0003340976223482198,0.0849762558937072,1.3785409927368164,1.0093326568603516,0.4136160910129547,-0.1422647088766098,-0.0681538060307502
1749033034.21967,4.088747968962566,-2.291764727764605,-1.423533661439571,-0.46913388076805523,-5.015221393254993,-2.6075263976776006,-0.003123262374048246,-8.292080382756426e-05,0.0001892461905155461,-0.0015543057768458548,0.001056732943280886,-0.0003473579952924849,0.0558039247989654,1.3769396543502808,1.0077202320098877,0.4042436480522156,-0.1328749805688858,-0.0809550583362579
1749033034.2216723,4.088743457718093,-2.2917636857347503,-1.423533466431705,-0.46913976371578325,-5.01522165144734,-2.60752750742965,-0.0031599741562588725,-7.638404610452998e-05,0.00018941821891202448,-0.0017639301626036156,0.0008533959770497464,-0.000322021663730557,0.0435219705104827,1.3927878141403198,0.983250081539154,0.4221828579902649,-0.1473568826913833,-0.0520313009619712
1749033034.2624922,4.088738866039557,-2.2917626631711245,-1.4235332107184353,-0.469146327554534,-5.015222008639487,-2.6075283620694907,-0.0032453706962449857,-6.843705021219953e-05,0.0001846970722447062,-0.001978300324070252,0.0006449390393957451,-0.00024314107567101922,0.023243635892868,1.4041668176651,0.989416241645813,0.4059586524963379,-0.1651757508516311,-0.0642319098114967
1749033034.2625694,4.088734058116979,-2.2917617444435416,-1.423532922210691,-0.46915338481193514,-5.015222421749298,-2.6075287750660174,-0.003378617922268836,-5.927776024923013e-05,0.00017597848125826352,-0.0021836300981424553,0.00044416570562275695,-9.610494158863357e-05,0.016346275806427,1.396182656288147,0.9802096486091614,0.4193771779537201,-0.164171889424324,-0.0643714293837547
1749033034.2626398,4.0887288987711345,-2.2917610150865264,-1.4235326352652018,-0.46916069918178843,-5.015222811327219,-2.6075285563793993,-0.00355884212564566,-4.917691302619381e-05,0.00016424740383807248,-0.0023657452407445856,0.0002679246663588516,0.0001321322966441422,0.0471191331744194,1.4244285821914673,0.982117772102356,0.4195510745048523,-0.1584376841783523,-0.04202800989151
1749033034.2627082,4.088723256293359,-2.2917605505732017,-1.4235323878157753,-0.4691680041122595,-5.015223061634725,-2.607527521735248,-0.003785591309002127,-3.844762710422171e-05,0.0001504822917356149,-0.002511342651348794,0.00013666316776128317,0.00045182677336920945,0.0410738810896873,1.432220697402954,0.9609951376914978,0.4141296446323395,-0.1600829511880874,-0.0267062857747077
1749033034.262776,4.088717005291396,-2.291760406675593,-1.4235322180892946,-0.4691750245923396,-5.015223023253995,-2.6075255014297225,-0.004059057817125752,-2.740709449551116e-05,0.00013558422475952196,-0.0026092372549066352,7.354152837717774e-05,0.0008693594558342828,0.0067885443568229,1.4497541189193726,0.9688457250595092,0.4269552528858185,-0.1606298834085464,-0.0272897444665431
1749033034.2628424,4.088710030126392,-2.291760612591452,-1.423532160920127,-0.4691814998960988,-5.015222516509922,-2.607522348186923,-0.004380043630262535,-1.6333140414327278e-05,0.00012033363440153291,-0.0026514415502676193,0.00010312899169257003,0.0013864220905978903,0.0108020454645156,1.445714235305786,0.9544564485549928,0.4189043939113617,-0.1398561745882034,-0.0269572958350181
1749033034.2629094,4.0887022292924655,-2.291761167469558,-1.4235322438246891,-0.46918720482954024,-5.015221334731406,-2.607517943531442,-0.004749715040839255,-5.420331417368253e-06,0.00010537350243424172,-0.0026339326369110372,0.00024974345634332285,0.0019995867904836545,0.0047209784388542,1.4708060026168823,0.9531119465827942,0.4025477468967438,-0.1425156444311142,-0.0088253282010555
1749033034.2629762,4.088693520488494,-2.2917620405742225,-1.4235324832334169,-0.46919196709978855,-5.015219247345611,-2.6075122020102683,-0.005169228674452774,5.258164003825947e-06,9.121462274134816e-05,-0.0025569996174474655,0.0005355439295107421,0.00270032287469084,0.0113115683197975,1.4640920162200928,0.9571645855903624,0.4446048438549042,-0.1431591063737869,-0.0235735476016998
1749033034.2630436,4.088683845251327,-2.291763174924707,-1.423532881418604,-0.46919567897139725,-5.015216003562786,-2.607505072572317,-0.005639310828547398,1.5776430036355537e-05,7.825616593638973e-05,-0.002425125332898807,0.00097852875207542,0.0034754590316232225,-0.0083108246326446,1.4645452499389648,0.9587133526802064,0.4278188645839691,-0.1248155981302261,-0.0187525413930416
1749033034.263111,4.088673171415681,-2.291764493720373,-1.4235334246078575,-0.4691983022703236,-5.015211337936589,-2.6074965365524942,-0.00615985225059602,2.6364249772210073e-05,6.681355671906053e-05,-0.002246428305196986,0.0015906255711522876,0.004308029421205851,-0.0288947075605392,1.4741779565811155,0.9607395529747008,0.434683233499527,-0.110600546002388,0.0078998953104019
1749033034.2631783,4.088661491915807,-2.2917659083895554,-1.4235340826684564,-0.4691998667435552,-5.0152049792742375,-2.607486602120134,-0.006729556967765813,3.739597470105137e-05,5.714558096287339e-05,-0.0020317578647131946,0.0023760695000835568,0.005178409716455338,-0.040793091058731,1.4572464227676392,0.945677638053894,0.4254794120788574,-0.0985350757837295,0.0243191346526145
1749033034.263245,4.088648819490589,-2.291767326874043,-1.423534810727107,-0.46920046259944015,-5.015196663809867,-2.6074752958526144,-0.007345664180065848,4.936130965946925e-05,4.947359916739021e-05,-0.0017935820973945036,0.003330245260058626,0.006065642770635643,-0.0348682776093483,1.479990005493164,0.9440237879753112,0.4403951466083526,-0.0887421667575836,0.012929081916809
1749033034.2633114,4.0886351780152905,-2.2917686608423247,-1.4235355530543867,-0.46920022867875294,-5.015186152172389,-2.607462653059368,-0.008003750845167638,6.282295413173077e-05,4.3987545535579896e-05,-0.0015448238852374368,0.004439119915996453,0.006948858500080549,-0.0486002340912818,1.4713703393936155,0.9320722222328186,0.4332754909992218,-0.0980966687202453,0.0119383409619331
1749033034.2633789,4.08862059191064,-2.2917698309507775,-1.4235362492925496,-0.46919933799564784,-5.01517324822389,-2.6074487090055887,-0.008697624595890529,7.836874592415727e-05,4.083570139388065e-05,-0.001297784665962296,0.005679334591720039,0.00780870234292527,-0.0277570262551307,1.4714211225509644,0.933577001094818,0.4361482560634613,-0.0855717808008194,0.0307732373476028
1749033034.2634456,4.088605075372828,-2.29177077001744,-1.4235368425894546,-0.4691979822346253,-5.0151578172289755,-2.607433492863147,-0.009419331591101303,9.656777248101932e-05,4.0097701373492785e-05,-0.0010632589006739962,0.007018982253740839,0.008628706010828676,-0.0406250283122062,1.487064003944397,0.9334516525268556,0.4185951054096222,-0.0799960196018219,0.0505587011575698
1749033034.2635124,4.088588623204327,-2.291771424773354,-1.4235372885722057,-0.4691963564189656,-5.015139801183228,-2.6074170252983038,-0.010159319266520018,0.00011794080162548928,4.174266074896358e-05,-0.0008498991018355521,0.008419082097173528,0.009396557129019711,-0.0794133394956588,1.495822787284851,0.9272599816322328,0.4407058358192444,-0.0556132942438125,0.0440748780965805
1749033034.2635784,4.088571204838941,-2.291771757249855,-1.423537563618324,-0.4691946447444534,-5.015119229854888,-2.6073993196485157,-0.010906792214890387,0.00014295513632289885,4.557666312968587e-05,-0.0006638526344757965,0.00983574698975869,0.010105227939067317,-0.0891295745968818,1.4957088232040403,0.9345527291297911,0.436278223991394,-0.0413119494915008,0.0359697863459587
1749033034.263645,4.088552762721204,-2.291771746531409,-1.4235376707780023,-0.4691930085485877,-5.01509622652143,-2.6073803859014015,-0.01165027408828071,0.00017205225376261608,5.118609298669839e-05,-0.0005086615855009867,0.011222996111333369,0.010753895345142981,-0.0990043133497238,1.4834020137786863,0.9215392470359802,0.4267186820507049,-0.0542871356010437,0.0445854440331459
1749033034.2637112,4.08853321551961,-2.291771390767995,-1.4235376419977543,-0.46919157732639116,-5.015071007335986,-2.6073602361235944,-0.012378350736187635,0.00020571297498255803,5.788526398969276e-05,-0.0003853950342917938,0.012536078749875933,0.011348546146100275,-0.1292713731527328,1.5021430253982544,0.9367149472236632,0.4273340702056885,-0.0345386490225791,0.0608188286423683
1749033034.2637775,4.088512465798377,-2.29177070864698,-1.423537535900711,-0.46919044347685335,-5.01504387303571,-2.607338889617977,-0.01308053718226712,0.0002445592503626566,6.46780991640013e-05,-0.0002929671897740059,0.013735067541358528,0.011902148179845093,-0.1218988597393035,1.505682349205017,0.930447280406952,0.4443758428096771,-0.0316454693675041,0.0529958307743072
1749033034.2639363,4.08849041096889,-2.2917697394126133,-1.4235374311990738,-0.46918966108583393,-5.015015191839062,-2.607316376059068,-0.013748189462691636,0.0002894843893750802,7.024378510362008e-05,-0.00022858465034698137,0.014788386131502218,0.012434296529113705,-0.1254003345966339,1.5275696516036987,0.920436441898346,0.4509783089160919,-0.0131128728389739,0.0609343945980072
1749033034.2657025,4.088466955822692,-2.2917685408563084,-1.4235374167063959,-0.46918924853721494,-5.01498537327468,-2.6072927352434934,-0.014375365092708276,0.00034179636289438393,7.295505271743398e-05,-0.00018826213082197187,0.01567588527468501,0.012970303393036805,-0.1418810337781906,1.530131220817566,0.9065608382225036,0.4558465778827667,-0.033058226108551,0.0551371574401855
1749033034.3105516,4.08844202476161,-2.29176718509424,-1.4235375796353793,-0.4691891941886586,-5.01495483422687,-2.607268012800738,-0.014959521370583206,0.0004033541049625145,7.093505868089876e-05,-0.00016734847130993837,0.01639108480224828,0.01353977161877694,-0.1336465179920196,1.5396455526351929,0.9055678248405457,0.45683553814888,-0.0385118350386619,0.0805198699235916
1749033034.3106294,4.088415571918374,-2.291765752188015,-1.4235379942066024,-0.4691894639388522,-5.01492396006148,-2.6072422519568934,-0.015501942538924797,0.00047667576691220055,6.21549261898623e-05,-0.000161012504141329,0.016942260601424817,0.01417475954767144,-0.1340969651937484,1.5425390005111694,0.9005197882652283,0.4676514863967895,-0.0500528588891029,0.0920710414648056
1749033034.3106997,4.088387587618891,-2.2917643218156063,-1.4235387125274799,-0.46919000931656113,-5.01489306474625,-2.6072154818861897,-0.016007819227873425,0.0005649992303368381,4.45689897734116e-05,-0.00016464964785689598,0.017352175796243454,0.01490769535906093,-0.1489872336387634,1.54345965385437,0.9087324738502502,0.4640673100948334,-0.0305908843874931,0.0934457033872604
1749033034.310769,4.088358100009775,-2.2917629634522108,-1.4235397592665753,-0.4691907747149336,-5.014862354331798,-2.6071877032595525,-0.016485961544657295,0.0006722765725674807,1.627894353988296e-05,-0.00017418312311997177,0.017656421371470797,0.01576922175732525,-0.1293653398752212,1.557247281074524,0.8999624252319336,0.4659357964992523,-0.0350971594452858,0.0888987332582473
1749033034.3108375,4.088327171211439,-2.291761725900144,-1.4235411308406805,-0.4691917026566867,-5.014831898183312,-2.6071588716991663,-0.016948187178429493,0.0008030857217201678,-2.4287951090516974e-05,-0.00018624690748597552,0.017900513423158244,0.01678614440815998,-0.1588168740272522,1.5734281539916992,0.8939300179481506,0.4722490012645721,-0.040376953780651,0.1133456081151962
1749033034.3109057,4.088294888181694,-2.2917606272899724,-1.4235427987917295,-0.46919273655046273,-5.014801611807531,-2.607128880402918,-0.017408465299669492,0.0009624471601755863,-7.820672166895733e-05,-0.00019824978770163884,0.0181360544629107,0.01797962759112527,-0.1422167420387268,1.5841399431228638,0.8770229816436768,0.4675367772579193,-0.0125785954296588,0.1227449923753738
1749033034.3109725,4.088261349516873,-2.2917596466889725,-1.4235447161826564,-0.46919382109722424,-5.014771253718761,-2.607097544108075,-0.01788191074132793,0.0011555434786275512,-0.00014591215048379615,-0.0002083303280630243,0.01841637498762845,0.019363739146123844,-0.1648760437965393,1.589673399925232,0.8932898044586182,0.4786801040172577,-0.0289900042116642,0.1175582855939865
1749033034.3110418,4.08822665029202,-2.291758718296062,-1.4235468255648918,-0.46919490106697587,-5.0147404368002535,-2.6070645872514406,-0.018383722075358315,0.0013873537159654861,-0.00022710981755098096,-0.00021522079856153153,0.018792116026110677,0.020944404023817694,-0.1936936378479004,1.6032792329788208,0.8910424113273621,0.4769781529903412,0.0071979090571403,0.1168823838233947
1749033034.3111084,4.088190867290662,-2.291757729019011,-1.4235490673008258,-0.4691959194586448,-5.014708652822924,-2.6070296392077243,-0.018928153343685514,0.00166222937651938,-0.00032076089661224193,-0.00021804394318917554,0.019307199457589307,0.02271879306170489,-0.1806655973196029,1.6282392740249634,0.8726380467414856,0.5032808184623718,-0.0015887916088104,0.134304866194725
1749033034.3111749,4.088154046469747,-2.2917565199861905,-1.4235513873766397,-0.4691968160670591,-5.014675307692861,-2.606992238827897,-0.01952760387157473,0.0019834513491932444,-0.0004251516468803657,-0.0002160699929879894,0.019995576394131877,0.024675161930040383,-0.1819143146276474,1.6201571226119995,0.8802584409713745,0.4877931773662567,0.0231392532587051,0.152704656124115
1749033034.3112411,4.088116193663945,-2.2917548922149673,-1.4235537440279669,-0.4691975272714233,-5.014639764475293,-2.606951849379133,-0.020191900277586806,0.002352813884287326,-0.0005380432997452989,-0.00020846273911579428,0.02087905606201713,0.026793163252911197,-0.1931098103523254,1.6391493082046509,0.8911840319633484,0.5057235360145569,0.0452117770910263,0.1546603739261627
1749033034.3113086,4.088077269007626,-2.2917526163868125,-1.4235561125142575,-0.46919798749300207,-5.014601390778252,-2.606907883638729,-0.02092782853653173,0.002770281726799687,-0.0006568789071785305,-0.0001940429662971513,0.0219664015854294,0.02904466422742802,-0.2090638577938079,1.6505945920944214,0.8906487822532654,0.520867109298706,0.0529141202569007,0.1421032845973968
1749033034.3113751,4.088037185536293,-2.2917494465025614,-1.4235584874025589,-0.4691981322420825,-5.014559606361384,-2.606859737493208,-0.021738950888050678,0.0032337598974426047,-0.0007790074429832592,-0.0001710952520088837,0.023253739856314244,0.031395091003271085,-0.201321393251419,1.6416088342666626,0.9005888104438782,0.524270236492157,0.0569191128015518,0.1760389506816864
1749033034.3114414,4.087995812473253,-2.291745136839214,-1.4235608819703733,-0.4691979020554353,-5.0145139261771545,-2.606806829109644,-0.022625709170383406,0.0037390048059148724,-0.0009018807564119288,-0.00013724032404152038,0.024726183902653128,0.03380528269223948,-0.2060293406248092,1.653040885925293,0.873079776763916,0.5239161849021912,0.0418527126312255,0.1699589192867279
1749033034.311509,4.087952983348427,-2.291739460929276,-1.4235633248339314,-0.46919724619034364,-5.0144639941128615,-2.6067486398019217,-0.02358577457707161,0.004279692824550541,-0.0010231893657611057,-8.93903227909249e-05,0.02636042669423812,0.03623378017192205,-0.2136602848768234,1.6697942018508911,0.8754785656929016,0.5389183163642883,0.0659921392798423,0.1976903975009918
1749033034.311574,4.08790850833105,-2.291732230566531,-1.4235658543998273,-0.4691961249649274,-5.014409603799613,-2.6066847523622565,-0.024614567032258654,0.004847649037603128,-0.0011409234660080326,-2.3798798140921557e-05,0.028127953467136247,0.03863940822074821,-0.211396113038063,1.6711925268173218,0.8770107626914978,0.5507062673568726,0.0728218108415603,0.1840246021747589
1749033034.3116405,4.087862189272693,-2.291723312610149,-1.4235685119391652,-0.4691945101322581,-5.014350704728067,-2.6066148829662072,-0.02570585099145924,0.0054332250052810055,-0.0012533670624047006,6.37892584817823e-05,0.02999845121710707,0.040983943236932906,-0.2403039336204528,1.6917122602462769,0.8788800239562988,0.5499683022499084,0.0735134780406951,0.2140715569257736
1749033034.311707,4.0878138353382525,-2.2917126417032527,-1.4235713340112655,-0.4691923833934856,-5.014287393939456,-2.606538903599701,-0.026852321351119642,0.006025801302055395,-0.0013590490214312964,0.00017789044380988643,0.031942981841226965,0.043234609009590086,-0.2220086455345153,1.6755872964859009,0.8613117337226868,0.5590375065803528,0.0852979123592376,0.1992508322000503
1749033034.3117726,4.087763277092533,-2.291700227634622,-1.423574344925664,-0.4691897337292455,-5.01421989507741,-2.6064568529783405,-0.028046111882064295,0.00661437917056433,-0.001456681598719789,0.0003229524304392191,0.033936536850749044,0.04536613348462846,-0.2191087305545807,1.6744472980499268,0.8742178082466125,0.5701025128364563,0.0667684823274612,0.2012862712144851
1749033034.3118396,4.087710377426612,-2.2916861566550493,-1.4235775501306411,-0.4691865544346126,-5.0141485272271025,-2.6063689348810657,-0.029279178984947998,0.007188216087479649,-0.0015451142031164705,0.0005029638941572011,0.0359597035850219,0.04736214721354283,-0.2191087305545807,1.6744472980499268,0.8742178082466125,0.5701025128364563,0.0667684823274612,0.2012862712144851
1749033034.3119056,4.087655038323486,-2.29167058651441,-1.4235809316578902,-0.4691828406467919,-5.014073665919542,-2.6062755035811698,-0.030543538043675135,0.007737453921573672,-0.0016233201052271095,0.0007210376078044406,0.03799932612456016,0.04921580118294182,-0.2516041398048401,1.7136574983596802,0.8699026703834534,0.5942405462265015,0.0935902073979377,0.2019693255424499
1749033034.3119712,4.087597203056782,-2.291653735359444,-1.4235844466665357,-0.4691785879556564,-5.013995698618776,-2.606177036769656,-0.03183136393790706,0.00825368748249921,-0.0016904207514074595,0.000979005350289362,0.04004820302243899,0.05092959247846856,-0.2497631013393402,1.72113299369812,0.8739786148071289,0.5832675099372864,0.0943032875657081,0.2016312181949615
1749033034.3121328,4.0875368541396595,-2.291635865044096,-1.4235880296402161,-0.469173792460713,-5.013914977582806,-2.606074097402609,-0.03313500578416431,0.008730425294305295,-0.0017457418173627425,0.001277066581307755,0.04210399162281918,0.05251447334761421,-0.2558816373348236,1.7199654579162598,0.8881937861442566,0.6105149388313293,0.098472736775875,0.2196000814437866
1749033034.3136702,4.08747400794742,-2.2916172599514066,-1.4235915981636587,-0.4691684522843162,-5.013831774163124,-2.6059672873461492,-0.03444699459265193,0.009163403579251744,-0.0017888920416639323,0.0016135335864603372,0.04416756836202276,0.053988372789525875,-0.262783408164978,1.7379833459854126,0.8596574664115906,0.621731698513031,0.1163010746240615,0.218525543808937
1749033034.3585503,4.087408706979975,-2.2915982030936926,-1.4235950616703599,-0.46916257000533157,-5.013746239687419,-2.605857197040521,-0.03576012923456961,0.009550730308773521,-0.0018198597539501999,0.0019847128708053805,0.04624113224128786,0.055374292270347465,-0.3170856535434723,1.7427423000335691,0.8611534833908081,0.6272724270820618,0.1232497692108154,0.2222420573234558
1749033034.3586285,4.087341010304444,-2.2915789518957053,-1.4235983321365417,-0.46915615497402047,-5.0136583782960065,-2.6057443561144042,-0.03706770363355904,0.009892854840632376,-0.0018391252256367337,0.0023849541813569576,0.04832634477347101,0.056698156755633666,-0.2941666543483734,1.74310564994812,0.8732569813728333,0.6230515837669373,0.1194697618484497,0.2074381113052368
1749033034.3587,4.087270982352513,-2.2915597164221175,-1.4236013354012298,-0.46914922439033674,-5.0135680360810815,-2.6056291898798873,-0.0383638877897675,0.010192370542989684,-0.001847781537129085,0.0028068841093686035,0.050422774171074256,0.05798660659153478,-0.2848667204380035,1.735771656036377,0.8628730177879333,0.6349035501480103,0.1296995133161544,0.2185734063386917
1749033034.3587694,4.087198680285775,-2.2915406426447205,-1.42360402167603,-0.4691418024482986,-5.013474908698861,-2.605511986136447,-0.039644215486286064,0.010453661413381988,-0.0018476429609868524,0.003241821884148825,0.05252684945308939,0.05926490476147234,-0.2955968976020813,1.751384735107422,0.8619445562362671,0.6412371397018433,0.1255884021520614,0.2045066356658935
1749033034.358838,4.087124140585972,-2.291521802626245,-1.4236063738723392,-0.46913391752285616,-5.013378566814979,-2.6053928757926106,-0.04090609101899546,0.010682410341236629,-0.001841307146234893,0.0036803516088934635,0.054631433838616864,0.06055511512995519,-0.3156053721904754,1.738292574882507,0.8654317259788513,0.6416534781455994,0.1406052261590957,0.2117311358451843
1749033034.3589065,4.087047366185217,-2.29150319249302,-1.4236084125798794,-0.46912559805584697,-5.0132784960003445,-2.605271829418586,-0.042149221296308555,0.010885004969443909,-0.0018321360034425573,0.004112998362569012,0.05672601265125686,0.061874688541907696,-0.317249447107315,1.7607530355453491,0.8585147261619568,0.6348778605461121,0.132460355758667,0.225148007273674
1749033034.358974,4.0869683160149055,-2.2914847381310643,-1.4236101969027988,-0.46911686823749865,-5.013174145655167,-2.6051486700745747,-0.0433758981977568,0.011067901597700628,-0.0018241334058409428,0.004530929943794998,0.05879738776263164,0.063235574541521,-0.3212791085243225,1.7716797590255735,0.8545721173286438,0.6465911865234375,0.1536301970481872,0.2487010806798935
1749033034.3590448,4.08688689902259,-2.2914663078458286,-1.4236118209044566,-0.4691077445414337,-5.013064980758853,-2.605023100954888,-0.044591079108291305,0.01123702611950698,-0.0018217197652059711,0.004926593194903992,0.060830707621159594,0.06464394482515741,-0.3610056340694427,1.7803364992141724,0.8506333231925964,0.6479542851448059,0.1617240011692047,0.2444700300693512
1749033034.3591127,4.086802974395187,-2.291447730730339,-1.4236134060018888,-0.4690982337365185,-5.012950530937086,-2.6048947447856494,-0.045802230837326215,0.011397295307210379,-0.0018294242790481232,0.0052942052996204835,0.06281065194204064,0.0661005558416031,-0.3457802236080169,1.7783406972885132,0.8609508275985718,0.6552954316139221,0.1611646711826324,0.2368508577346801
1749033034.35918,4.086716359010209,-2.2914288189886998,-1.4236150901529336,-0.4690883325451441,-5.012830432929264,-2.604763190555179,-0.047018916525210445,0.011552328663906087,-0.001851528646981741,0.005630054161068221,0.06472262249770125,0.06760169136883927,-0.3430045843124389,1.7607802152633667,0.8481709957122803,0.6695784330368042,0.1813893020153045,0.2322362959384918
1749033034.3592465,4.086626841994605,-2.2914093917329157,-1.423617015114523,-0.46907802885403865,-5.012704463915706,-2.604628042162146,-0.04825212494950501,0.01170439028049049,-0.0018917011666326853,0.005932599857448314,0.0665538415604125,0.0691405322859541,-0.3155484497547149,1.8101712465286253,0.8472102284431458,0.6755062937736511,0.1687097549438476,0.2419108003377914
1749033034.359314,4.086534204610701,-2.2913892969115297,-1.4236193134536048,-0.46906730420546416,-5.0125725635835865,-2.6044889630444903,-0.04951337347271995,0.01185455530693193,-0.0019526603970958544,0.0062023926948923756,0.06829430378461401,0.07070873379985419,-0.3155484497547149,1.8101712465286253,0.8472102284431458,0.6755062937736511,0.1687097549438476,0.2419108003377914
1749033034.3593802,4.086438241848255,-2.2913684276941706,-1.4236220971803148,-0.46905613710147864,-5.012434842453016,-2.6043457107427543,-0.050813658628704815,0.012003047231268686,-0.0020359050031313907,0.006441829894294293,0.06993754973212309,0.07229797430183696,-0.397597074508667,1.7911574840545654,0.8442527651786804,0.6584892272949219,0.1843442767858505,0.2207229733467102
1749033034.359447,4.0863387811985294,-2.291346730531358,-1.4236254495673546,-0.4690445065433033,-5.012291573911734,-2.604198156049673,-0.052162369540728504,0.012149656307551984,-0.002141540774785346,0.006654774037090899,0.071481220871183,0.07390127244595716,-0.3628126978874206,1.7991716861724854,0.8340529203414917,0.6749290823936462,0.154111236333847,0.2208515703678131
1749033034.3595128,4.086235695202659,-2.291324204128539,-1.4236294209276357,-0.46903239532080804,-5.012143168994908,-2.604046283886443,-0.05356630038865041,0.012294140871683014,-0.002268226168911405,0.0068460634976774785,0.07292732151762396,0.07551392762635807,-0.3850811123847961,1.820099711418152,0.8256366848945618,0.6794090270996094,0.1551088690757751,0.2255797684192657
1749033034.3595788,4.086128907015424,-2.291300890736652,-1.4236340282430446,-0.46901979277019945,-5.011990136485538,-2.6038901773199887,-0.05502888942348305,0.01243653621904586,-0.002413244065103085,0.007020959634148201,0.07428208695363432,0.07713400185002822,-0.3766254484653473,1.8231064081192017,0.8457955121994019,0.6764317750930786,0.1571376174688339,0.2313555479049682
1749033034.359645,4.086018390404665,-2.291276862527602,-1.4236392579726869,-0.46900669682791907,-5.011833034673785,-2.6037299902330657,-0.05654978333269529,0.01257733870465847,-0.002572691912093185,0.0071845896828496465,0.07555538879973368,0.07876231579849227,-0.4241065382957458,1.8357754945755005,0.8518222570419312,0.6890155673027039,0.1525243520736694,0.2290548831224441
1749033034.359712,4.085904165945027,-2.291252206181705,-1.4236450711480555,-0.4689931151740875,-5.011672422775783,-2.603565915925586,-0.05812479537440718,0.012717574021675879,-0.002741768691511842,0.007341449308362896,0.07675970961537762,0.08040197615134205,-0.323736310005188,1.8223100900650024,0.8512316942214966,0.6957440972328186,0.1527063995599746,0.1860469579696655
1749033034.3597784,4.085786294291009,-2.291227008442764,-1.4236514097812956,-0.4689790651964039,-5.0115088189236605,-2.603398158073717,-0.059746296732438385,0.012858781861788671,-0.002915127853709614,0.007495022863624833,0.07790883774114292,0.08205749634497404,-0.4368113875389099,1.854296326637268,0.8330269455909729,0.6975784301757812,0.142892986536026,0.2300102561712265
1749033034.3598444,4.085664866809032,-2.291201344605371,-1.4236582036152428,-0.46896457253906265,-5.011342668995597,-2.6032269082041766,-0.06140403463630183,0.013002952292115929,-0.0030872606442304174,0.007647566039699886,0.07901651066502582,0.08373363682737564,-0.4060679376125335,1.8609049320220947,0.8375570774078369,0.7034176588058472,0.1564252227544784,0.2610055208206177
1749033034.3599107,4.085539994092534,-2.2911752709590525,-1.4236653764395135,-0.46894966817925543,-5.011174327846791,-2.6030523313361744,-0.06308629315844441,0.013152438494277609,-0.003252873146939148,0.007800075074404456,0.08009525523120861,0.08543416722923945,-0.4545222520828247,1.8678808212280276,0.835369348526001,0.7136529684066772,0.1518841236829757,0.2476553618907928
1749033034.3599792,4.08541179342931,-2.2911488213703817,-1.4236728515505364,-0.4689343842625482,-5.011004052430936,-2.602874559348897,-0.06478121944021574,0.01330985363288839,-0.003407224124651776,0.007952437163251098,0.08115565053005243,0.08716079578950162,-0.3742431402206421,1.8691786527633667,0.8526080250740051,0.7138649821281433,0.1761439740657806,0.2262793630361557
1749033034.3601408,4.085280376480443,-2.2911220075610523,-1.4236805562061945,-0.4689187492853718,-5.010832004816608,-2.6026936903225257,-0.0664780719311223,0.01347794605711313,-0.003546401093732035,0.008103723404495874,0.08220617647317757,0.08891247652989916,-0.397144466638565,1.882373809814453,0.8379918336868286,0.7190804481506348,0.1609712690114975,0.2279025018215179
1749033034.3616955,4.08514583826066,-2.291094822211416,-1.4236884249827821,-0.4689027836350793,-5.010658262015009,-2.6025097917422855,-0.06816814973501853,0.01365944688029296,-0.0036675259057356137,0.008252561099573778,0.08325369454652844,0.09068520416911345,-0.4039098024368286,1.8781603574752808,0.8298263549804688,0.7232537865638733,0.1759278625249862,0.2488831579685211
1749033034.402501,4.085008248342088,-2.2910672437422743,-1.4236964019287437,-0.46888649683770034,-5.0104828290474375,-2.6023229058031117,-0.06984524912230103,0.013856898747419601,-0.003768890269417042,0.008397514795963516,0.08430444781324828,0.09247229922289783,-0.4264894127845764,1.89347505569458,0.8405843377113342,0.7226305603981018,0.1701605767011642,0.2302695363759994
1749033034.402581,4.084867645150264,-2.291039241574073,-1.423704441541256,-0.46886988774288757,-5.010305652185125,-2.602133055504881,-0.07150563717646648,0.014072492625915853,-0.003850020836558046,0.008537413283098061,0.08536532042000584,0.0942651146653016,-0.4209417104721069,1.9007936716079712,0.8495299220085144,0.7204394340515137,0.153137981891632,0.2346703559160232
1749033034.4026527,4.0847240340951005,-2.2910107809038442,-1.4237125088644622,-0.4688529480603122,-5.010126630677759,-2.6019402503583278,-0.07314766878506589,0.014307946597783335,-0.003911666771272691,0.008671578196876558,0.08644502634206074,0.09605406017820958,-0.4696177244186401,1.9268414974212649,0.8417678475379944,0.7113717794418335,0.1644742339849472,0.2376710921525955
1749033034.4027236,4.0845773899107485,-2.290981826436606,-1.4237205791971301,-0.4688356684156322,-5.009945626784527,-2.601744490514877,-0.07477124062039017,0.01456445263632721,-0.003955700068907106,0.008799936387907725,0.08755492418395855,0.09782982056617755,-0.4693832695484161,1.9242194890975952,0.8432016372680664,0.7496190667152405,0.1767827868461609,0.2356171607971191
1749033034.4028044,4.084427662993875,-2.2909523448201448,-1.423728637814902,-0.4688180450313967,-5.009762474767025,-2.6015457684338843,-0.07637725468539296,0.014842698212073702,-0.0039849259773628125,0.008923027001742695,0.08870925115745604,0.09958462935938191,-0.4526447653770447,1.9264795780181885,0.8523542284965515,0.7414973974227905,0.166005790233612,0.2327822744846344
1749033034.402874,4.084274788901662,-2.290922305730204,-1.4237366798042543,-0.4688000847992196,-5.009576989555774,-2.6013440678233035,-0.07796717992623006,0.015142945570998562,-0.004002814087125494,0.00904193453068326,0.0899246882803489,0.10131344381266823,-0.3844480812549591,1.9247815608978271,0.8470932245254517,0.745207667350769,0.1679734587669372,0.2259198427200317
1749033034.402942,4.08411869963749,-2.290891681768789,-1.4237447097817282,-0.4687818070217127,-5.009388975468309,-2.601139360163745,-0.07954270765157608,0.015465132213241193,-0.004013172653039726,0.009158182883083421,0.09121927917632193,0.10301485552075137,-0.4495329558849334,1.9579713344573972,0.8487364649772644,0.7399386167526245,0.1537927389144897,0.1736778169870376
1749033034.4030104,4.083959334966596,-2.2908604475266703,-1.4237527410990363,-0.4687632411691342,-5.009198235015494,-2.600931599505773,-0.08110545121377044,0.015808952325933583,-0.004019796125660608,0.009273613673563155,0.09261082448893712,0.10469157466246344,-0.4410393536090851,1.9479351043701167,0.8484187126159668,0.7506178617477417,0.1973652839660644,0.2296483963727951
1749033034.4030786,4.0837966518882345,-2.2908285780946716,-1.4237607941476425,-0.4687444212182826,-5.009004577512035,-2.6007207165962436,-0.08265666473063378,0.01617389274251186,-0.004026119657490102,0.009390253602358348,0.09411497152474642,0.10635036769641373,-0.4173540472984314,1.970513105392456,0.8395518660545349,0.740052342414856,0.2091820687055587,0.2383540570735931
1749033034.4031453,4.083630630740565,-2.2907960469829387,-1.423768893548426,-0.4687253782139727,-5.0088078268235225,-2.600506613792138,-0.08419702136690566,0.01655921839857043,-0.004034915477099587,0.009510163557462021,0.09574329459204366,0.1080014145633188,-0.4694323241710663,1.9574711322784424,0.8371517062187195,0.748593807220459,0.196837767958641,0.2384295910596847
1749033034.403213,4.083461277201898,-2.290762823224373,-1.4237770643023966,-0.4687061332827606,-5.008607827257144,-2.6002891623940596,-0.08572654299009494,0.016963919856095532,-0.004048063530242689,0.009635263490844759,0.09750166398005093,0.10965715127925087,-0.4482002854347229,1.978495478630066,0.838666558265686,0.7613458037376404,0.1947120428085327,0.2047686576843261
1749033034.4032807,4.083288620328557,-2.2907288677923647,-1.4237853273206622,-0.46868669313825734,-5.008404446626949,-2.600068203667126,-0.08724476515180868,0.017386646411584918,-0.004066421065903652,0.009767138241909086,0.09938910972088014,0.11133073744355822,-0.4450886249542236,1.9702156782150269,0.8457192182540894,0.7601878643035889,0.1871684789657592,0.237683355808258
1749033034.403345,4.083112707395806,-2.290694130220156,-1.4237936950572974,-0.46866704922579305,-5.0081975760317805,-2.599843553932229,-0.08875114752152691,0.01782565513683748,-0.0040898028926648735,0.009906839747176613,0.10139726074649227,0.11303433214469684,-0.441911369562149,1.9967721700668333,0.8471361398696899,0.7655212879180908,0.2282696515321731,0.2567411363124847
1749033034.4034166,4.082933596598606,-2.2906585468634435,-1.4238021681193702,-0.4686471805364272,-5.007987126664278,-2.599615013202052,-0.0902456354251001,0.018278808703274096,-0.004117069136597048,0.010054704182608034,0.1035103702342666,0.11477739332439113,-0.4075387716293335,1.9883134365081787,0.8507370948791504,0.7501641511917114,0.2080136388540268,0.2348483949899673
1749033034.403483,4.082751348755623,-2.2906220420925543,-1.4238107335860883,-0.468627059258087,-5.007773024711441,-2.5993823765104156,-0.09172919923104068,0.0187436498685697,-0.004146305931189154,0.010210200348625449,0.10570593971762064,0.11656522747653678,-0.4301571846008301,1.997816801071167,0.8500898480415344,0.7732335329055786,0.2114997655153274,0.2561760246753692
1749033034.403546,4.082566019299131,-2.290584532862873,-1.423819365309971,-0.46860665801077467,-5.007555205965475,-2.5991454473752675,-0.09320416828456156,0.019217567513429706,-0.004175079499654287,0.010371824107459827,0.10795595880597564,0.11839798881894588,-0.4372246265411377,2.012416362762451,0.84682297706604,0.7690317630767822,0.2084722518920898,0.2623371481895447
1749033034.4036143,4.082377652098451,-2.290545936055916,-1.423828025925635,-0.4685859573289427,-5.007333612032777,-2.5989040530968426,-0.09467424154583758,0.01969805042533634,-0.004200742890708336,0.010537056822588372,0.11022872386466281,0.12027026797556956,-0.4604842364788055,2.017106294631958,0.8367589712142944,0.7726608514785767,0.1987835019826889,0.2564124464988708
1749033034.4036808,4.082186276649932,-2.290506177156547,-1.4238366700121676,-0.46856495212701216,-5.0071081897930325,-2.5986580611808225,-0.09614416446318813,0.020183002928695824,-0.004220772207458126,0.01070240954412672,0.11249110063743845,0.12217134586951388,-0.4738640785217285,2.023621797561645,0.824493408203125,0.7629754543304443,0.2059918940067291,0.2403190582990646
1749033034.4037457,4.081991909401656,-2.2904651984090565,-1.4238452479766004,-0.4685436560807596,-5.006878894846085,-2.598407395094103,-0.09761915615799671,0.020671074742782302,-0.004233104145680412,0.010863570434825555,0.11471100428827086,0.12408612726984874,-0.4296498000621795,2.0029702186584477,0.8502699136734009,0.7893044948577881,0.1952268481254577,0.2791396081447601
1749033034.403812,4.081794558619468,-2.290422964667495,-1.4238537104869342,-0.4685221032408066,-5.006645698258477,-2.5981520464687593,-0.09910421183891337,0.02116194251060932,-0.004236442461195141,0.011015659211914665,0.11685982231172198,0.12599669967457433,-0.4975647032260895,2.026918172836304,0.8287451267242432,0.7806687355041504,0.1846916079521179,0.2632743418216705
1749033034.403981,4.081594230975362,-2.290379465814795,-1.423862013308073,-0.46850034670993557,-5.006408594632102,-2.5978920806240775,-0.1006033894935384,0.02165647826912434,-0.004230501432611499,0.011153577664825469,0.11891451320808044,0.12788438001271038,-0.4347801506519317,2.0386104583740234,0.8427004814147949,0.7844278216362,0.1925285756587982,0.2632809579372406
1749033034.4056711,4.08139093764046,-2.2903347156564067,-1.4238701221224608,-0.4684784547008926,-5.006167609110135,-2.5976276332916175,-0.10211914607881506,0.022156754429043222,-0.004216159507520883,0.011272435744419296,0.12085917134930758,0.12973202105141393,-0.48542320728302,2.0544114112854004,0.8506737947463989,0.7885504961013794,0.1828306764364242,0.2493684440851211
1749033034.4464965,4.081184698283877,-2.290288748050459,-1.423878016649194,-0.46845650462109223,-5.005922801544294,-2.597358898356042,-0.10365175537475366,0.022665865731991117,-0.004195503029691243,0.011368025177303422,0.1226859348908155,0.13152626992803365,-0.4276008009910583,2.044581890106201,0.845023512840271,0.7916609644889832,0.1868790537118911,0.2297483086585998
1749033034.4465735,4.080975542628961,-2.290241611325224,-1.4238856934227193,-0.4684345759747452,-5.005674267074114,-2.597086108472962,-0.10519884605404733,0.023187589324462715,-0.004171746204372925,0.011437302425503214,0.12439520293398204,0.1332594311271384,-0.4763051867485046,2.0352087020874023,0.8420639038085938,0.7856901288032532,0.1885028928518295,0.2373620569705963
1749033034.4466438,4.080763510360716,-2.290193361834325,-1.4238931669606714,-0.46841274289226914,-5.0054221331312725,-2.5968095119027255,-0.1067551432916463,0.023725940919269398,-0.004149021130407602,0.011478831761826553,0.12599520374763282,0.1349306176594302,-0.4709580838680267,2.034926414489746,0.837019681930542,0.785225510597229,0.2079133540391922,0.2145692110061645
1749033034.44671,4.080548650549409,-2.290144057171341,-1.423900469458834,-0.4683910670498095,-5.005166553133628,-2.5965293494729957,-0.10831254052795096,0.02428470443510621,-0.004132044818923063,0.011493133222841912,0.1275010084007074,0.13654598905004156,-0.4937551915645599,2.07010817527771,0.830750584602356,0.7938457131385803,0.1766426861286163,0.2395907193422317
1749033034.4467807,4.080331021212045,-2.2900937494059086,-1.423907649348996,-0.4683695916093467,-5.0049076970113315,-2.5962458352357,-0.10986061659702671,0.024867008839709596,-0.004125689469913817,0.011482883558914088,0.12893310838375877,0.13811804121043578,-0.4445827305316925,2.030302047729492,0.830670952796936,0.7871404886245728,0.1915585100650787,0.2277039885520935
1749033034.446851,4.0801106886761875,-2.2900424787586022,-1.4239147690466505,-0.4683483366183041,-5.0046457385458964,-2.5959591432486815,-0.11138762917043077,0.02547500446839461,-0.004134501980411709,0.011452930639670953,0.1303156810231769,0.13966407737527434,-0.4391812682151794,2.062562704086304,0.8391677141189575,0.7910208702087402,0.2169813513755798,0.2271781265735626
1749033034.446919,4.079887725772763,-2.289990268243972,-1.4239219021116736,-0.46832729615588226,-5.004380839733845,-2.595669401240013,-0.1128818950571335,0.02610966394856162,-0.004162229698420002,0.011410099893726822,0.13167467354336987,0.14120411909737782,-0.4767793715000152,2.056352376937866,0.8229185342788696,0.787479043006897,0.2024004608392715,0.2391178607940673
1749033034.4469926,4.0796622079168445,-2.289937119829634,-1.4239291298745294,-0.46830643736658906,-5.004113133263623,-2.595376690238556,-0.11433336792647118,0.026770709753336903,-0.004211407793729935,0.0113627934706317,0.13303585126559705,0.14275860121755538,-0.4126306474208832,2.066826820373535,0.8189681172370911,0.7974830269813538,0.1784570068120956,0.2760432362556457
1749033034.4470615,4.079434206642553,-2.2898830125496525,-1.4239365373919672,-0.4682857012456306,-5.003842705425685,-2.5950810482737596,-0.11573517338124496,0.027456653642010026,-0.004283052484256219,0.011320408503502532,0.1344229646330686,0.14434621826213714,-0.4292010068893432,2.0498125553131104,0.8111549019813538,0.8049458861351013,0.2102610915899276,0.2579867541790008
1749033034.4471288,4.0792037808011985,-2.2898279027877226,-1.4239442085585254,-0.4682650047286872,-5.003569582581789,-2.5947824762114764,-0.1170848577416178,0.028164921552995183,-0.004376488902692091,0.01129262710635289,0.13585618745645628,0.14598223694703846,-0.4572561383247375,2.059239387512207,0.8297576308250427,0.7916072010993958,0.2064775973558426,0.2523938715457916
1749033034.4471946,4.078970966276896,-2.289771726676965,-1.4239522203981825,-0.468244243614943,-5.003293724021689,-2.594480944264426,-0.11838514445144444,0.028892030327937877,-0.004489326845814202,0.011288651852306689,0.13735096500971078,0.1476774699140178,-0.4292939305305481,2.030184030532837,0.8297268152236938,0.8020944595336914,0.2132227420806884,0.2857280969619751
1749033034.4472609,4.078735765665422,-2.2897144043954936,-1.4239606368337752,-0.468223296255149,-5.003015022631926,-2.5941763981402506,-0.11964406760254231,0.029633779588526282,-0.00461758613502907,0.011316471897080845,0.1389173720015703,0.1494379514555091,-0.5005835890769958,2.0563201904296875,0.8132676482200623,0.8083133697509766,0.2121070325374603,0.2357417792081833
1749033034.4473288,4.078498139724708,-2.289655846130614,-1.4239695024001169,-0.46820202844720826,-5.002733313036192,-2.593868763988436,-0.12087445211898462,0.03038542335918984,-0.004755966478903166,0.01138224388937251,0.1405600076444376,0.15126520761485512,-0.4401617646217346,2.058114767074585,0.8064729571342468,0.7966564297676086,0.2095532417297363,0.2541057467460632
1749033034.4473977,4.078258002357225,-2.2895959594761863,-1.423978836481729,-0.4681803000793312,-5.00244838568088,-2.593557951400591,-0.12209281007230803,0.03114179362954443,-0.0048982479417531664,0.011489855776202302,0.14227836796163057,0.15315690918383892,-0.4811639487743377,2.041845321655273,0.8122574687004089,0.8156592845916748,0.2091323435306549,0.2550542652606964
1749033034.4474633,4.078015220387043,-2.2895346578111004,-1.4239886288465609,-0.46815797356328925,-5.002160005080734,-2.5932438539832527,-0.12331779833489058,0.03189736288154929,-0.005037790024891099,0.011640710739297259,0.1440675663170168,0.15510765850305452,-0.4578754901885986,2.0394933223724365,0.8162820935249329,0.8346661925315857,0.2099273800849914,0.2487132847309112
1749033034.4475296,4.077769618568626,-2.289471868818044,-1.4239988374251291,-0.46813492336734874,-5.001867930618546,-2.592926347745737,-0.12456842069050597,0.03264625147458861,-0.005168073400540843,0.011833730424086026,0.14591924066740494,0.15710968829961855,-0.4979463517665863,2.040199518203736,0.8213877081871033,0.826444149017334,0.2275028824806213,0.2604353129863739
1749033034.4475958,4.077520989462787,-2.28940754202503,-1.4240093891845562,-0.46811104549533383,-5.001571938208059,-2.592605288670945,-0.12586216170220055,0.033382203028287497,-0.005283213137818532,0.012065544612165986,0.1478224936561294,0.15915332997678633,-0.4315281808376312,2.023427248001098,0.8321527242660522,0.8244022130966187,0.2062428295612335,0.2508157789707184
1749033034.4476628,4.07726910747252,-2.289341654325182,-1.4240201844408586,-0.4680862657441348,-5.001271840654584,-2.5922805118448418,-0.1272132288532254,0.03409856093679293,-0.005378378461202901,0.012330818856502446,0.14976475127916067,0.1612272214998496,-0.471012145280838,2.03189468383789,0.8176566958427429,0.8231085538864136,0.2221096158027649,0.2479655742645263
1749033034.4477286,4.077013746362119,-2.289274212831361,-1.4240311042235407,-0.4680605458289564,-5.000967504201458,-2.591951834804458,-0.1286310695873222,0.03478827784456525,-0.005450079921577525,0.012622673917415743,0.15173248377616186,0.16331834118773328,-0.4711331129074096,2.016385793685913,0.820798933506012,0.8345558047294617,0.2226932346820831,0.2536158263683319
1749033034.447795,4.076754699284821,-2.2892052549803585,-1.424042019688415,-0.4680338867272372,-5.0006588590591905,-2.5916190670724113,-0.1301193200531311,0.035443979052913376,-0.005496315461619797,0.012933164009955775,0.15371179709473826,0.16541203748684036,-0.5090199112892151,1.993132472038269,0.8285664916038513,0.828808069229126,0.2369185239076614,0.2647293210029602
1749033034.447965,4.076491799392888,-2.2891348463396994,-1.4240528022825663,-0.4680063287332338,-5.0003459027069335,-2.5912820263712013,-0.13167531897987755,0.03605809108850271,-0.005516587544500346,0.013253791370150675,0.15568895786401696,0.16749225394782272,-0.4812885224819183,2.010082244873047,0.826115071773529,0.8287898898124695,0.2427288293838501,0.2512939870357513
1749033034.449685,4.076224938180422,-2.2890630768844953,-1.424063333391999,-0.46797794783115054,-5.000028696085151,-2.590940560157058,-0.13329026896340163,0.03662304791762147,-0.0055118117674011835,0.013576030717222767,0.15765093214326303,0.16954211960881915,-0.5094270706176758,2.030137538909912,0.8317225575447083,0.8241711854934692,0.2194664925336837,0.2641237676143646
1749033034.490503,4.075954078681039,-2.2889900564790975,-1.4240735124208204,-0.46794884831777567,-4.999707354050676,-2.590594569332184,-0.13495004305787803,0.037131590953435024,-0.005484141409823087,0.013891822584911341,0.15958598288841588,0.17154499378856464,-0.4887607097625732,1.9857133626937864,0.819042980670929,0.8355392217636108,0.2229243963956833,0.27168869972229
1749033034.4905803,4.0756792615982285,-2.288915910078267,-1.4240832625913755,-0.4679191522574346,-4.999382032243101,-2.5902440298575815,-0.13663652745798555,0.037577162714514896,-0.005436738298144414,0.01419398806158074,0.16148429995587213,0.1734859330838311,-0.4898288547992706,1.985406517982483,0.8254454135894775,0.839695930480957,0.2239589095115661,0.2426100075244903
1749033034.4906502,4.075400603815763,-2.2888407730208913,-1.4240925342341904,-0.46788898712104654,-4.99905291256247,-2.589889008023318,-0.13832929373147257,0.03795435376897668,-0.005373523500069105,0.014476531278906898,0.16333856778562977,0.17535341398115123,-0.4476597309112549,1.9480136632919312,0.8106675744056702,0.8333688974380493,0.2090942561626434,0.2564686834812164
1749033034.4907205,4.075118289962337,-2.288764786727482,-1.4241013058741345,-0.46785847344320275,-4.998720188957576,-2.589529666313067,-0.14000734930706168,0.038259326745614955,-0.005298933155757233,0.014734820625504639,0.16514434343809417,0.17714104233492906,-0.4707013368606567,1.9782052040100095,0.824585497379303,0.8419387340545654,0.2255832552909851,0.2814990878105163
1749033034.4907904,4.074832558593832,-2.2886880949655644,-1.424109583749189,-0.4678277143213886,-4.99838405473459,-2.5891662584744437,-0.14165073881713927,0.038490141470889014,-0.005217687278651687,0.014965657557403669,0.16690013478281326,0.178848949949652,-0.4761924147605896,1.9883149862289429,0.8212049603462219,0.8381410837173462,0.2198937535285949,0.2523049116134643
1749033034.4908595,4.074543685100702,-2.2886108406615207,-1.4241174003123582,-0.4677967881761568,-4.998044692537396,-2.5887991139303916,-0.14324183376336896,0.038646943558232526,-0.005134567419500839,0.015167246900686465,0.1686071285981186,0.18048461593650658,-0.4488160014152527,1.9858101606369016,0.8118587136268616,0.8100816011428833,0.1891636550426483,0.2819715440273285
1749033034.49093,4.074251963555785,-2.288533163209286,-1.4241248118966316,-0.4677657455885844,-4.9977022683392756,-2.5884286128961165,-0.14476621885918411,0.0387320264644,-0.005054204660549979,0.015339080679397514,0.17026860539998168,0.18206292284796932,-0.3902745544910431,1.9645216464996336,0.807685375213623,0.8324453234672546,0.2056212276220321,0.2834146916866302
1749033034.4909987,4.073957689339023,-2.288455196343438,-1.4241318954421176,-0.46773461041112296,-4.997356930583635,-2.588055154675983,-0.14621315585334754,0.03874980339416809,-0.004980896444239879,0.015481746015335897,0.17188917481167038,0.18360534621206553,-0.4926561415195465,1.9763118028640747,0.7995970249176025,0.8172998428344727,0.2471367865800857,0.2710919976234436
1749033034.4910672,4.073661143743164,-2.288377066711757,-1.4241387442293805,-0.4677033848045687,-4.9970088145713945,-2.5876791226641878,-0.1475756889300142,0.03870672428909858,-0.004918480003657005,0.015596670342636343,0.17347404352837695,0.1851382867606899,-0.4380746483802795,1.9547163248062132,0.8057103157043457,0.8362522721290588,0.2116706818342209,0.2746844887733459
1749033034.4911342,4.073362581213068,-2.288298893204482,-1.4241454628362167,-0.46767205734505407,-4.996658050569791,-2.5873008503195787,-0.14885053241467744,0.03861115823236186,-0.0048702797940607155,0.01568582566612415,0.17502853956446002,0.1866906861830655,-0.406189888715744,1.9947800636291504,0.7832933664321899,0.8247079253196716,0.2232867032289505,0.2489761859178543
1749033034.4911966,4.073062219469939,-2.2882207869041715,-1.4241521618014998,-0.46764061283218,-4.996304772715044,-2.5869205924028993,-0.15003791021739807,0.038473243632174976,-0.004839123751138743,0.015751425862419788,0.17655802735042422,0.1882911952741125,-0.4533495306968689,1.955986738204956,0.8067058324813843,0.8246862292289734,0.2323761880397796,0.2791682481765747
1749033034.4912674,4.072760232351192,-2.2881428512674664,-1.4241589526447684,-0.467609042053544,-4.995949125242205,-2.5865385048166543,-0.15114147780273365,0.03830469081362509,-0.0048274050796228,0.015795659086554906,0.17806818421705764,0.18996525436801184,-0.456722617149353,1.9509596824646,0.7835327386856079,0.8228821754455566,0.2271409332752227,0.272308886051178
1749033034.491337,4.072456744730037,-2.288065181933686,-1.4241659439753396,-0.4675773497645716,-4.995591262904072,-2.586154634784225,-0.15216836888363897,0.038118508893560187,-0.004837161051173559,0.015820492131976532,0.1795654470375916,0.19173247526493423,-0.4544568657875061,2.0127789974212646,0.7884788513183594,0.8310492038726807,0.1986685991287231,0.307711511850357
1749033034.4914048,4.0721518286263425,-2.287987865499574,-1.424173239342849,-0.46754555962740674,-4.995231343251775,-2.5857689214835786,-0.15312929450369828,0.037928625016842556,-0.004870143961071035,0.015827564638434405,0.1810573549917172,0.19360467227798914,-0.4284439980983734,1.9695652723312376,0.7962952256202698,0.8314001560211182,0.2376399934291839,0.2934752702713012
1749033034.4914715,4.071845499766334,-2.2879109767887336,-1.4241809370656995,-0.46751371564266353,-4.99486950955878,-2.585381205948717,-0.15403850881331294,0.03774936988405604,-0.004927864558462754,0.015818169064455347,0.18255255172600915,0.19558478399788698,-0.3495775163173675,1.9658550024032595,0.7872087955474854,0.8009501695632935,0.2434872686862945,0.3152956664562225
1749033034.491537,4.071537714239141,-2.2878345745635404,-1.4241891315827917,-0.4674818803570384,-4.994505864804139,-2.584991248005775,-0.15491339861611117,0.03759482418095946,-0.005011591924610803,0.01579330165559087,0.1840603570199268,0.19766677917700506,-0.4097528755664825,2.0128188133239746,0.784977912902832,0.810382604598999,0.2361324578523636,0.3110359907150268
1749033034.4916036,4.071228365385903,-2.2877586961429888,-1.4241979152642017,-0.467450130555305,-4.994140439491182,-2.5845987472402627,-0.15577351281530946,0.0374780624017951,-0.00512229709839508,0.015753777417375676,0.18559000533757108,0.19983648565391235,-0.4455118179321289,2.005514621734619,0.7789276838302612,0.8296394348144531,0.249732106924057,0.3254338800907135
1749033034.4916694,4.070917281782888,-2.2876833518135458,-1.4242073794261119,-0.4674185511595496,-4.9937731587562615,-2.584203364772825,-0.15663902419780087,0.03741038086071329,-0.005260533303611545,0.015700420017084805,0.18714977907680005,0.20207315868762132,-0.4526944458484649,2.0159220695495605,0.7796759605407715,0.8247280716896057,0.2567302882671356,0.2952188849449157
1749033034.4917362,4.070604228155684,-2.2876085200998975,-1.4242176135817917,-0.4673872278129359,-4.993403816127191,-2.583804743142014,-0.15752882921823477,0.037400621989093136,-0.005426256340761482,0.015634343691550718,0.18874627340936095,0.20435153762709088,-0.4312876760959625,2.028670310974121,0.7662253379821777,0.814150869846344,0.2392620146274566,0.3155237734317779
1749033034.491803,4.07028891180353,-2.2875341448486832,-1.4242287025591596,-0.4673562384801633,-4.993032061332299,-2.5834025227120088,-0.15845863426653795,0.03745468608943406,-0.005618605386076712,0.015557321515017411,0.19038392368778853,0.2066441277976293,-0.477107435464859,2.0125856399536133,0.7659936547279358,0.8301693797111511,0.2425217032432556,0.3037568926811218
1749033034.4919653,4.069970997022854,-2.2874601347618007,-1.4242407217669182,-0.4673256446136332,-4.992657407573133,-2.5829963543724843,-0.15943939082350966,0.03757527090449873,-0.005835681668439199,0.015472189985683176,0.19206477024462382,0.20892347157564162,-0.4960516989231109,2.0219602584838867,0.7824985980987549,0.8059232234954834,0.2253016531467437,0.2837656438350677
1749033034.4936807,4.06965012882497,-2.2873863656389384,-1.424253731323756,-0.4672954828401592,-4.992279260418191,-2.5825859094555583,-0.16047634125832233,0.03776183596093395,-0.006074370473970079,0.015383202281553104,0.19378830927012192,0.21116421605266186,-0.4568851590156555,2.054748058319092,0.7838776707649231,0.824116587638855,0.2029908895492553,0.3072908520698547
1749033034.5342803,4.069325964918736,-2.287312685201762,-1.4242677698682453,-0.4672657583019494,-4.991896966575536,-2.58217088830548,-0.16156877998615532,0.038010772919795814,-0.006330245884922126,0.01529623769573271,0.19555124025855997,0.21334482611299407,-0.4633028209209442,2.032690048217773,0.7645884156227112,0.8269367814064026,0.2055521011352539,0.2883439660072326
1749033034.5343273,4.0689982117080215,-2.2872389199770815,-1.4242828487846773,-0.46723644053822905,-4.991509876357939,-2.5817510283340166,-0.16271048938128252,0.03831576247731514,-0.006597582865165491,0.015218805189870675,0.1973469901807901,0.2154488264488425,-0.4633028209209442,2.032690048217773,0.7645884156227112,0.8269367814064026,0.2055521011352539,0.2883439660072326
1749033034.5343676,4.068666657049858,-2.2871648834048157,-1.424298947488016,-0.4672074622605037,-4.991117409575392,-2.5813261108917462,-0.163890723989306,0.03866829053657359,-0.006869486121408565,0.015159823190031478,0.19916505105700077,0.21746549124144127,-0.4552241265773773,2.057008981704712,0.7766743302345276,0.831909716129303,0.2103677093982696,0.2937968671321869
1749033034.534406,4.068331191962644,-2.2870903842791943,-1.4243160102897985,-0.4671787208777315,-4.990719113467941,-2.5808959656206993,-0.1650955911405089,0.03905827957997897,-0.007138132290190473,0.015129190296387854,0.20099035315761765,0.21938994650004687,-0.5043473243713379,2.0616915225982666,0.7825515866279602,0.834092915058136,0.2447223663330078,0.2967646718025207
1749033034.534444,4.067991816935521,-2.287015234949734,-1.4243339451573542,-0.4671500824247359,-4.990314705002524,-2.5804604728441554,-0.16630967945037356,0.03947477964050256,-0.00739511031136982,0.015137175738125761,0.2028030343240634,0.2212227161470597,-0.472434401512146,2.042977333068848,0.7868074774742126,0.8236514925956726,0.2221667170524597,0.2409022748470306
1749033034.5344822,4.067648634399471,-2.2869392592972013,-1.4243526244978397,-0.4671213876002876,-4.989904096268577,-2.5800195675726627,-0.16751779772409128,0.039906664282506804,-0.007631836417309326,0.015193668400808134,0.20457899113809955,0.22296883244044577,-0.4595997929573059,2.04906964302063,0.7855682969093323,0.842519998550415,0.2776104807853699,0.2920343279838562
1749033034.5345204,4.067301833350189,-2.2868623009294597,-1.4243718880534828,-0.46709245968885826,-4.989487406055972,-2.5795732490931544,-0.1687066998882758,0.04034328700326481,-0.007840018357055781,0.015307344440553096,0.20629148173516423,0.22463673195299994,-0.4345142245292663,2.0737993717193604,0.7784315347671509,0.8362821340560913,0.2583031952381134,0.3071678876876831
1749033034.5345583,4.066951672455874,-2.286784231757373,-1.424391547970365,-0.4670631140411456,-4.989064960438507,-2.579121596343526,-0.16986667522042784,0.040775067742972036,-0.008012145027187627,0.015484842744105986,0.2079138167722883,0.22623723003783391,-0.4897103905677795,2.060760021209717,0.7972690463066101,0.8602354526519775,0.2492101192474365,0.3421914279460907
1749033034.5345962,4.066598464647526,-2.286704959925534,-1.4244113959640294,-0.4670331684566116,-4.988637281622095,-2.578664783657055,-0.17099287088465717,0.04119399346564759,-0.008141974483454283,0.01573005574406529,0.2094228922084738,0.2277828534989476,-0.4897103905677795,2.060760021209717,0.7972690463066101,0.8602354526519775,0.2492101192474365,0.3421914279460907
1749033034.534633,4.066242561623036,-2.2866244346752342,-1.424431212287351,-0.46700245333674456,-4.988205060633433,-2.5782030876289523,-0.17208620123448803,0.04159402425915418,-0.008224983445704097,0.016043635553309094,0.21080306594600476,0.22928767939912095,-0.4622005820274353,2.0617921352386475,0.7997870445251465,0.8694526553153992,0.2063229978084564,0.3433999121189117
1749033034.5346704,4.065884334252708,-2.286542645485557,-1.4244507759785072,-0.4669708202035933,-4.98776910907684,-2.5777368767622293,-0.17315370089507767,0.04197139058562413,-0.008258732344870682,0.016422783688006464,0.21204972089819837,0.23076759862931281,-0.4874804019927978,2.0652108192443848,0.8077896237373352,0.8657098412513733,0.1967021226882934,0.2858951389789581
1749033034.534708,4.065524146660145,-2.28645961455271,-1.4244698756529255,-0.466938147439369,-4.9873302899315215,-2.577266581794733,-0.17420819493978942,0.04232474922799103,-0.008243099787806187,0.016861348048769577,0.21317182341986027,0.2322406796077055,-0.5005142688751221,2.066067934036255,0.8220202922821045,0.8929521441459656,0.2062765955924987,0.2976696789264679
1749033034.534745,4.065162326058853,-2.286375384428906,-1.4244883199816627,-0.4669043427911063,-4.986889434741797,-2.5767926527150484,-0.17526719460869342,0.042655148062961744,-0.008180351074859149,0.017350204034692677,0.21419289575646455,0.2337271732596363,-0.4455697238445282,2.0560290813446045,0.8109328150749207,0.855490505695343,0.2047566324472427,0.2878090143203735
1749033034.5347826,4.064799133348914,-2.2862900045946204,-1.424505947052342,-0.4668693428332749,-4.986447259514961,-2.5763155131324322,-0.17635100492145794,0.042965752893014166,-0.008075024627767076,0.01787785665036942,0.21515006504663142,0.23524876939511608,-0.4183110892772674,2.053621530532837,0.8116984963417053,0.8861971497535706,0.2083348333835601,0.2990122735500335
1749033034.5348196,4.064434739438859,-2.2862035207503344,-1.4245226319812516,-0.466833109933795,-4.986004291728578,-2.5758355218163254,-0.17748017357993898,0.04326132863248026,-0.007933643346697232,0.018431174965476037,0.2160911707217154,0.23682697743661318,-0.3247030377388,2.01611065864563,0.7983365058898926,0.8526641130447388,0.2034725993871688,0.2794662117958069
1749033034.534857,4.064069210664398,-2.286115968977596,-1.4245382923068866,-0.4667956275285138,-4.985560817788179,-2.575352946972998,-0.17867261904934206,0.043547542622940805,-0.007764279568522253,0.018996163693809024,0.21707022003988147,0.238480847954523,-0.375720202922821,2.0654900074005127,0.8006903529167175,0.8743979930877686,0.2036704272031784,0.3202887177467346
1749033034.5348942,4.0637025049592435,-2.286027374820518,-1.4245528908191658,-0.4667568949273431,-4.9851168567147415,-2.57486795412649,-0.17994100352990394,0.04383024496192777,-0.007576019109232129,0.01955869060011372,0.2181417199397226,0.24022453253138668,-0.4534022510051727,2.072489023208618,0.8143389225006104,0.8520281314849854,0.188545823097229,0.3143050074577331
1749033034.5349314,4.063334478842881,-2.28593775592289,-1.4245664356682148,-0.4667169232536221,-4.984672162749953,-2.574380605069883,-0.18129104297758658,0.044114927854713444,-0.007378381744626814,0.020105120528948715,0.21935457446685544,0.24206529562396345,-0.6551478505134583,2.125875949859619,0.8166887760162354,0.8732513785362244,0.2203681766986847,0.3538452088832855
1749033034.5349689,4.062964903855303,-2.285847126476706,-1.4245789779395128,-0.4666757339342986,-4.984226256582987,-2.573890863944678,-0.1827213172162314,0.04440652255460194,-0.007180761493141666,0.02062284321298833,0.22074633027950383,0.24400250638862753,-0.5808647871017456,2.0970263481140137,0.8106969594955444,0.8534360527992249,0.2187749445438385,0.3880921304225921
1749033034.535006,4.062593489977739,-2.2857555019485765,-1.4245906072946752,-0.4666333602291757,-4.9837784816149755,-2.573398606954539,-0.18422470813232256,0.044709556415286976,-0.006991946632810486,0.0211007004456506,0.2223385677380176,0.24602787827166286,-0.4854583740234375,2.072991132736206,0.7950639724731445,0.8616026043891907,0.2356159389019012,0.3151904344558716
1749033034.535709,4.062219912866512,-2.285662902846614,-1.4246014465250565,-0.4665898511174434,-4.983328078336807,-2.572903633722149,-0.18579101283226254,0.04502852838558619,-0.006819765175029816,0.02152930994143348,0.22413414034686638,0.24812687819730786,-0.5070062875747681,2.0890510082244877,0.79012531042099,0.8489227294921875,0.2206765115261078,0.2944272756576538
1749033034.537663,4.061843841436582,-2.2855693566414375,-1.4246116457810458,-0.46654527617293134,-4.982874267333355,-2.572405679814271,-0.1874098479708183,0.04536825921718161,-0.006670880204145363,0.021901264772704643,0.22611673866314227,0.2502809257872242,-0.5085171461105347,2.09929633140564,0.8012086153030396,0.8532373309135437,0.263073205947876,0.3207436501979828
1749033034.5782893,4.061464962758284,-2.2854748975234394,-1.4246213769197418,-0.4664997301161491,-4.982416330442663,-2.571904430699682,-0.18907289884191328,0.04573398336808808,-0.006550734889713179,0.022211181841168715,0.22825291251129562,0.2524698556413563,-0.4336264133453369,2.0771429538726807,0.787436842918396,0.8437994718551636,0.2678976953029632,0.3083800077438354
1749033034.578346,4.061083002413699,-2.285379564323834,-1.4246308281134752,-0.46645333622311136,-4.98195368036853,-2.571399537222487,-0.1907748679957885,0.046131056037930704,-0.006463620049609438,0.022455588075262975,0.2304962869530331,0.25467413895157365,-0.4636079967021942,2.088937759399414,0.7901872992515564,0.8342241048812866,0.2839492857456207,0.3104927837848663
1749033034.5783906,4.060697739698472,-2.2852833972713773,-1.4246401986731752,-0.4664062482127936,-4.981485911131256,-2.5708906320786884,-0.19251297370562714,0.04656429401196419,-0.006412811566132532,0.02263266380864982,0.2327933367034914,0.2568764801098699,-0.5106005668640137,2.10448694229126,0.794929027557373,0.8269756436347961,0.2173902988433838,0.2933327555656433
1749033034.578431,4.060309017575661,-2.2851864342005825,-1.4246496938594853,-0.4663586503423463,-4.98101282464633,-2.5703773464586113,-0.19428534248917134,0.0470370959817083,-0.006400711113362945,0.0227419024485471,0.23508982412125207,0.2590625423297622,-0.607690691947937,2.138195514678955,0.7834210991859436,0.8309733271598816,0.203195571899414,0.2540752291679382
1749033034.5784695,4.059916747172872,-2.285088706734574,-1.4246595192891538,-0.4663107552740103,-4.9805344321383185,-2.5698593263148983,-0.19608897202384276,0.047550555031709685,-0.006428930563387441,0.022783782403585195,0.23733692329825215,0.2612207075460191,-0.5787814855575562,2.1380724906921387,0.7674345374107361,0.847058117389679,0.1908728331327438,0.2750676870346069
1749033034.578508,4.0595209065960125,-2.2849902371494477,-1.4246698745606832,-0.46626279912598284,-4.980050932592621,-2.569336248458567,-0.1979180007503458,0.04810276345551977,-0.006498284556092883,0.02275956103030196,0.2394961728892661,0.2633409757318895,-0.5947127938270569,2.104133367538452,0.7773781418800354,0.8374808430671692,0.2088924050331115,0.2870248854160309
1749033034.5785456,4.0591215343745315,-2.284891036826726,-1.4246809459598817,-0.46621503321520885,-4.979562673408543,-2.568807837259494,-0.19976279964894628,0.04868843518455088,-0.006608683676624562,0.02267127709891884,0.2415426834216518,0.2654133494257466,-0.4986937046051025,2.1335768699646,0.7783780694007874,0.8160632252693176,0.1889467537403106,0.3299882411956787
1749033034.5785837,4.058718718776094,-2.284791106910078,-1.4246928984173453,-0.46616771238998483,-4.979070100440231,-2.5682738825827705,-0.2016100329242804,0.049298883470948934,-0.006758943913852876,0.02252199490723022,0.24346637348939057,0.26742624654258773,-0.5498254299163818,2.108193874359131,0.7792649865150452,0.838263213634491,0.2100224494934082,0.3398004174232483
1749033034.5786211,4.058312585071936,-2.2846904410304156,-1.4247058671513064,-0.4661210804412117,-4.978573705509349,-2.567734258782889,-0.20344351641781455,0.049922332417784224,-0.006946548484555823,0.022316259272343094,0.24527132008892727,0.2693655275486983,-0.529868483543396,2.099417924880981,0.7782123684883118,0.8109833002090454,0.1906440109014511,0.3430749773979187
1749033034.5786586,4.057903283216869,-2.284589029331392,-1.4247199496019625,-0.46607535369089975,-4.9780739789833595,-2.5671889435621513,-0.20524555658506669,0.05054451182507314,-0.007167417091715604,0.02206067114446696,0.2469735257507531,0.2712145552213321,-0.4953519105911255,2.0616345405578613,0.7612183690071106,0.8230096697807312,0.1950743347406387,0.3062023222446441
1749033034.5786958,4.057490978083867,-2.284486862895732,-1.4247351983406673,-0.4660307043165009,-4.977571373033671,-2.5666380345782778,-0.20699846731365032,0.0511494681155689,-0.007415746847492362,0.021764447014997995,0.24859753629241033,0.2729553793469762,-0.4146665632724762,2.079383373260498,0.7631664276123047,0.8067588806152344,0.2182323336601257,0.2682840526103973
1749033034.5787327,4.057075843292154,-2.284383937909316,-1.424751615659703,-0.4659872452554289,-4.977066278213949,-2.566081761022633,-0.2086860635989081,0.05172051945557946,-0.007683979778876491,0.021439802263634178,0.25017242759148894,0.27457080225870495,-0.5335170030593872,2.1067793369293213,0.7618763446807861,0.8026126623153687,0.2286345958709716,0.2798023819923401
1749033034.5787735,4.0566580580779785,-2.284280259246849,-1.4247691505649283,-0.46594501864887505,-4.976559012942672,-2.565520487263941,-0.21029505456474343,0.05224129796434878,-0.007962930928535573,0.021102011223361566,0.25172773650120295,0.2760468832182097,-0.5260973572731018,2.0802950859069824,0.7883614301681519,0.7938162684440613,0.2192073315382003,0.2915388643741607
1749033034.5788116,4.056237805288988,-2.2841758434828834,-1.4247876988474777,-0.4659039895479639,-4.976049823172084,-2.564954706239565,-0.21181634028143476,0.05269684091141359,-0.00824209546370724,0.020769048669067182,0.25328990859046263,0.2773754260512995,-0.4999445378780365,2.077489852905273,0.7552891969680786,0.8109351396560669,0.2630669474601745,0.3128061294555664
1749033034.5788488,4.0558152682068105,-2.2840707215027987,-1.4248071067033372,-0.4658640458366472,-4.9755388884485265,-2.5643850214128827,-0.21324619993116092,0.05307469008795293,-0.008510145330874122,0.02046079637700324,0.25487972325007935,0.2785560869766804,-0.4741304218769073,2.0591604709625244,0.7675103545188904,0.8195278644561768,0.2453899383544922,0.2897638082504272
1749033034.578885,4.055390624665574,-2.2839649407850597,-1.4248271780387605,-0.46582500423443,-4.975026330586524,-2.5638121175283617,-0.21458725016564634,0.053365934414372665,-0.008755608493949685,0.020197878118662905,0.25651092887571914,0.2795978246437779,-0.4881089925765991,2.095053672790528,0.7758588194847107,0.8122276067733765,0.2453802525997162,0.3058988451957702
1749033034.5789218,4.054964038101491,-2.2838585670738056,-1.4248476852546992,-0.4657866213739213,-4.9745122217323345,-2.563236721913983,-0.21584894276327,0.05356610962255547,-0.008967686880116742,0.020000240121351313,0.25819004072358576,0.28051945329355943,-0.5059652328491211,2.0723321437835693,0.7818300127983093,0.8161318302154541,0.2365447282791137,0.2756760120391845
1749033034.5789585,4.054535645875784,-2.2837516847902353,-1.4248683829444784,-0.4657486086633144,-4.973996589372658,-2.5626595594261996,-0.21704735936594352,0.05367586538858449,-0.00913712945590378,0.019885611334095877,0.2599170193058729,0.28134911135190094,-0.5189103484153748,2.034108161926269,0.7679613828659058,0.8096626996994019,0.2198418825864792,0.2804812788963318
1749033034.5789948,4.054105545436974,-2.2836443953808336,-1.4248890235487761,-0.4657106497936264,-4.9734794168606795,-2.5620813048247144,-0.21820417352775073,0.05370132296425031,-0.009257058283427148,0.019867970558303624,0.26168643823175397,0.2821226000339558,-0.4519340693950653,2.058547258377075,0.7763463854789734,0.8141366243362427,0.1984429657459259,0.2791158854961395
1749033034.579031,4.053673779267376,-2.283536812910897,-1.4249093737251388,-0.465672419933053,-4.972960639082239,-2.5615025361214934,-0.21934483226549173,0.0536540738046358,-0.009323652640669722,0.019956137635910486,0.26348879199228076,0.2828807816325138,-0.4681835472583771,2.0732176303863525,0.791619598865509,0.8230240941047668,0.2145994901657104,0.2932783663272857
1749033034.5796893,4.053240320324063,-2.2834290565291777,-1.424929230135375,-0.46563360567850565,-4.9724401337428015,-2.560923691618543,-0.22049618044878191,0.05355080756275847,-0.009336616397938835,0.020152606262920172,0.265311743125513,0.28366645535716295,-0.5209259986877441,2.053687572479248,0.7960109114646912,0.8493194580078125,0.2582242786884308,0.3257032334804535
1749033034.581676,4.052805060325249,-2.283321239990137,-1.4249484334556854,-0.4655939248072778,-4.971917709683995,-2.5603450328309463,-0.2216838568014385,0.05341258806454764,-0.009299374943429342,0.020452741083235384,0.26714128143191235,0.28452122420552745,-0.5179951190948486,2.042210817337036,0.8024595379829407,0.8411612510681152,0.2671937644481659,0.3242295980453491
1749033034.6230085,4.052367803263217,-2.283213459195228,-1.4249668795519204,-0.4655531448423373,-4.971393094969034,-2.559766616029485,-0.2229298149051278,0.05326380741895456,-0.009218968842704888,0.02084445641104719,0.26896288765484383,0.2854827867665133,-0.5033657550811768,2.1061596870422363,0.7846875786781311,0.833297073841095,0.2408812046051025,0.2987951636314392
1749033034.623063,4.05192826604871,-2.2831057793681695,-1.424984526988077,-0.46551109929337187,-4.970865928888816,-2.5591882763962928,-0.22425027668337616,0.05313085619388339,-0.009105636910640414,0.021308468874005823,0.2707628135727896,0.28658290333648956,-0.5306628942489624,2.0902438163757324,0.7853870987892151,0.8364686965942383,0.2552835345268249,0.2906752526760101
1749033034.6231077,4.051486087579532,-2.2829982236260036,-1.4250014004187699,-0.46546770020032524,-4.9703357627303975,-2.5586096293486413,-0.22565432790941936,0.05304056549117766,-0.008972112273978818,0.021819174886018613,0.2725295067717864,0.2878461079393647,-0.5418313145637512,2.102365255355835,0.7880905270576477,0.8372520208358765,0.2524161040782928,0.2902237474918365
1749033034.6231475,4.051040846974048,-2.2828907644220746,-1.4250175898125812,-0.46542294563425257,-4.969802073513782,-2.5580300922961356,-0.2271432364456009,0.0530184941869806,-0.008832685316897789,0.022346156860042553,0.2742550683454896,0.2892891321507203,-0.4960741400718689,2.1176459789276123,0.7800700664520264,0.8450813889503479,0.1905698627233505,0.3153157532215118
1749033034.6231866,4.05059209125451,-2.2827833190745626,-1.4250332456159538,-0.4653769213096374,-4.969264292905719,-2.557448927205441,-0.2287104471517174,0.053087142937672985,-0.008702111708730571,0.022856273873696962,0.27593650915903917,0.29092096084197844,-0.4962776005268097,2.1239254474639893,0.7847387194633484,0.8455759286880493,0.2254072576761245,0.3452403545379638
1749033034.6232257,4.050139372294012,-2.2826757505662947,-1.425048569842838,-0.4653297961310095,-4.968721850688498,-2.5568653010415705,-0.23034213246156954,0.05326418991397633,-0.008594460607148366,0.023316233244408763,0.2775765218283668,0.29274339481129386,-0.4904505610466003,2.122694969177246,0.7785302400588989,0.8448397517204285,0.2057395726442337,0.3045795559883117
1749033034.6232648,4.049682291859813,-2.282567874686282,-1.4250638029289604,-0.46528181189946766,-4.968174229188326,-2.556278358325709,-0.23201819018957848,0.053560873783280304,-0.008522004919591285,0.023695457781717725,0.27918352973726956,0.2947519106129779,-0.4922233819961548,2.126310110092163,0.788703203201294,0.8389942646026611,0.2340970486402511,0.2992117702960968
1749033034.6233034,4.049220551313706,-2.2824594738768877,-1.4250792064041267,-0.46523326750762334,-4.9676210221159325,-2.555687297720382,-0.23371365823758683,0.053980685330035263,-0.008494248561839123,0.02396897176664552,0.2807708970211232,0.2969365178100379,-0.507976233959198,2.142343521118164,0.771894633769989,0.822002649307251,0.2361951768398285,0.3011250495910644
1749033034.6233425,4.048753998771362,-2.282350316687826,-1.425095042112682,-0.4651844980295148,-4.96706198810869,-2.5550914423703865,-0.2354005858539338,0.05451854609453491,-0.008517167426777324,0.02411996792758865,0.282355345703005,0.29928231074382394,-0.507976233959198,2.142343521118164,0.771894633769989,0.822002649307251,0.2361951768398285,0.3011250495910644
1749033034.6233804,4.048282662913879,-2.282240179981927,-1.4251115495312956,-0.46513584938636177,-4.966497086844503,-2.5544902923512027,-0.23705039075985063,0.055160632925233086,-0.008592718520082613,0.024141726399464825,0.2839547837075062,0.3017695605124803,-0.544236958026886,2.150944948196411,0.7757899761199951,0.8202994465827942,0.235927328467369,0.3313870429992676
1749033034.6234193,4.047806762592491,-2.2821288699448194,-1.425128923312748,-0.46508764985667833,-4.965926486880257,-2.5538835494696115,-0.23863661407418124,0.0558849470339918,-0.008718649824379612,0.024038636880623646,0.285585873090479,0.30437345781360114,-0.4976797699928283,2.1664905548095703,0.776040256023407,0.8370572328567505,0.2575987875461578,0.3674637675285339
1749033034.623457,4.047326686964858,-2.2820162382807,-1.4251472934331355,-0.4650401806030065,-4.965350541307589,-2.5532711115674585,-0.2401377950753022,0.05666263439836662,-0.008888622910235778,0.023826194442254714,0.28726173976966934,0.307063870546863,-0.45314621925354,2.106323719024658,0.7758998274803162,0.8213582634925842,0.2811243534088135,0.3383795320987701
1749033034.6235218,4.046842949615599,-2.281902191553661,-1.4251667103165706,-0.4649936482882307,-4.964769736947291,-2.552653042578471,-0.24154001465862307,0.057459962723833594,-0.009092642497863337,0.023529960616980365,0.28899020682388965,0.30980558252321005,-0.6623980402946472,2.1650848388671875,0.7794590592384338,0.8421527147293091,0.293788343667984,0.3746388554573059
1749033034.623592,4.046356126710861,-2.2817866935545976,-1.4251871370262246,-0.4649481631589282,-4.964184629308683,-2.5520295301421267,-0.24283859870091823,0.058240774186791244,-0.009317772148804597,0.023183584716129687,0.29077280090460056,0.31255938040450926,-0.4417256712913513,2.1116743087768555,0.7722533941268921,0.8246405720710754,0.2642973065376282,0.3586366772651672
1749033034.6236496,4.0458667910586925,-2.2816697620924526,-1.425208449905295,-0.46490372531512014,-4.963595776395476,-2.551400842127967,-0.24403857380925004,0.058969180090619154,-0.009549098825345381,0.02282606326121547,0.2926045800863213,0.31528412017564866,-0.4275658726692199,2.101492404937744,0.7791016101837158,0.8326252698898315,0.2447543740272522,0.343765527009964
1749033034.6237018,4.045375452193875,-2.2815514624363917,-1.42523044791032,-0.4648602205341716,-4.963003681581045,-2.550767289425034,-0.24515370020369884,0.05961224912107223,-0.009770886520742062,0.02249848102606503,0.29447465753817803,0.3179396387624862,-0.4465140998363495,2.083144426345825,0.7834954261779785,0.8421934843063354,0.2527745366096496,0.3401794135570526
1749033034.6237428,4.044882509431042,-2.2814318996491947,-1.4252528695651017,-0.46481742567358864,-4.962408751806884,-2.5501291980802057,-0.24620420688804423,0.06014246404302111,-0.009967831815846536,0.022240524248610376,0.2963672191132376,0.320490147211038,-0.4801499843597412,2.0816001892089844,0.7888386845588684,0.8656546473503113,0.2730743885040283,0.356177270412445
1749033034.6237814,4.0443882215689095,-2.2813112112901535,-1.4252754153892144,-0.46477502286817346,-4.961811273591172,-2.549486890709611,-0.24721364414097985,0.060539772827472076,-0.01012631054775707,0.022087079318207883,0.298262850079081,0.3229075756243564,-0.5198971033096313,2.0867228507995605,0.7856729626655579,0.8646608591079712,0.284523606300354,0.3352118134498596
1749033034.6238196,4.043892694293542,-2.281189560819443,-1.4252977731041296,-0.4647326214524496,-4.96121140637826,-2.5488406752285315,-0.24820545733356125,0.06079311808249611,-0.010235495578016267,0.02206522525620314,0.3001400399518009,0.32517426780602976,-0.445881575345993,2.0600128173828125,0.7925732731819153,0.871921718120575,0.2938679456710815,0.300082266330719
1749033034.6238573,4.043395884488842,-2.281067131097797,-1.425319642920045,-0.4646897863847141,-4.960609190817585,-2.5481908381906018,-0.24919991307610456,0.06090137240409963,-0.010288236352642817,0.022191897069602753,0.301976767095159,0.3272844880215646,-0.5306148529052734,2.100944995880127,0.8004540205001831,0.8948772549629211,0.2603156566619873,0.3201178610324859
1749033034.6239743,4.042897619251118,-2.2809441170481297,-1.4253407605894401,-0.4646460715002501,-4.960004568523823,-2.547537640002592,-0.2502118836029592,0.06087363252311293,-0.01028161776352586,0.022472440015926035,0.30375205192083515,0.32924441931198584,-0.5311411023139954,2.0916411876678467,0.790282130241394,0.9012333154678344,0.2608192563056946,0.3202198445796966
1749033034.6256592,4.042397626041395,-2.2808207168232886,-1.4253609164615495,-0.46460105505525984,-4.959397409602425,-2.5468813095933407,-0.25124977771049184,0.06072884255476714,-0.010217150650803955,0.022900188862365736,0.3054473293077349,0.33107065139153324,-0.4219422936439514,2.0866591930389404,0.808853268623352,0.9018692374229432,0.2437810003757476,0.3340356647968292
1749033034.671142,4.041895569200303,-2.280697121399082,-1.425379969376592,-0.46455437411000544,-4.958787544431258,-2.546222036772158,-0.252315659765186,0.06049473919415007,-0.010100584818910465,0.023457094545847948,0.30704748059576464,0.332787463874141,-0.4807536005973816,2.11635971069336,0.8038803339004517,0.9087474942207336,0.2543213367462158,0.3400727212429046
1749033034.6711895,4.041391087524749,-2.2805735030636414,-1.425397854878237,-0.46450575401115196,-4.958174796377455,-2.5455599617711657,-0.2534063794669718,0.06020614619054394,-0.009941377837190925,0.024115302119698076,0.3085414259235977,0.33442339897754314,-0.5107167959213257,2.12005615234375,0.7895272970199585,0.9093475937843324,0.2578470706939697,0.3247995674610138
1749033034.6712306,4.040883828163419,-2.280450003645468,-1.4254145877960165,-0.4644550299605485,-4.957559012130266,-2.544895163173081,-0.25451539047850447,0.0599026881477558,-0.009751895361615245,0.024839485602773072,0.3099222958698248,0.33600765424567963,-0.4968088269233703,2.117194175720215,0.7870919704437256,0.8811159729957581,0.2661730945110321,0.3400393724441528
1749033034.67127,4.040373473557457,-2.2803267234743285,-1.425430259618377,-0.4644021591147154,-4.956940086432871,-2.5442276468216787,-0.25563487019981157,0.059626036022195544,-0.009546447744445687,0.02558968560175381,0.3111873176571648,0.33756675456231283,-0.5690862536430359,2.163796186447144,0.7856216430664062,0.8993839621543884,0.2582487165927887,0.351045548915863
1749033034.671311,4.039859759990554,-2.280203712049832,-1.4254450312680207,-0.46434722316199556,-4.956317978344406,-2.5435573387387844,-0.256757733268325,0.059416840177873916,-0.009340269281862698,0.026324376517359308,0.3123376115373328,0.33912184313471483,-0.5003100633621216,2.133030414581299,0.7920595407485962,0.8941202163696289,0.2601586878299713,0.3585597574710846
1749033034.6713493,4.039342488055066,-2.2800809613588635,-1.4254591220373936,-0.46429042233804396,-4.955692716640001,-2.5428840846146357,-0.257879150831961,0.05931155829219362,-0.009148522090505672,0.027003504271823797,0.31337808110711396,0.34068679437198457,-0.516740083694458,2.137517213821411,0.7780823707580566,0.8863023519515991,0.2606237530708313,0.3358639776706695
1749033034.6713872,4.038821526630542,-2.279958402823075,-1.42547279556804,-0.4642320621815256,-4.955064392843943,-2.5422076575876424,-0.25899728720975557,0.05933943653302443,-0.008985374718557444,0.027591274117987532,0.3143175073384604,0.3422672176990564,-0.4774681329727173,2.1655192375183105,0.7857906818389893,0.8870853185653687,0.2706098258495331,0.3194463849067688
1749033034.6714242,4.0382968124925585,-2.279835908802369,-1.4254863438095038,-0.4641725341393356,-4.954433142349387,-2.5415277749402603,-0.2601131656098418,0.05951993406767587,-0.008863184528935017,0.02805852175178609,0.31516883485158553,0.343860325724037,-0.5522676110267639,2.1985230445861816,0.7836853861808777,0.8913009762763977,0.2458946853876114,0.3300293385982513
1749033034.6714616,4.037768347435649,-2.2797132992074296,-1.425500069871882,-0.46411229081906985,-4.953799117011964,-2.540844122858016,-0.2612298120436411,0.0598608785156798,-0.008791805153101873,0.02838455559359273,0.3159494917345206,0.34545561008339337,-0.6050620079040527,2.1935875415802,0.791802704334259,0.8895663022994995,0.2317810207605362,0.3300185799598694
1749033034.6714993,4.037236194204164,-2.2795903531382273,-1.4255142705877968,-0.46405181669085754,-4.953162455205378,-2.540156386734824,-0.2623509926833095,0.06035759084160486,-0.008778035682899196,0.02855839981508466,0.3166814569844611,0.34703627729760556,-0.5171163082122803,2.174018859863281,0.7790355682373047,0.8764338493347168,0.2201527655124664,0.3561717271804809
1749033034.6715367,4.036700471876687,-2.2794668248438983,-1.4255292194233224,-0.4639915954714605,-4.952523256161114,-2.5394642833494263,-0.2634798989952841,0.06099311700497133,-0.008825220439473697,0.0285793955486272,0.3173907518077692,0.34858137403181844,-0.4813700318336487,2.1600000858306885,0.7690610289573669,0.8744421601295471,0.2168909311294555,0.3311082720756531
1749033034.6715777,4.036161350630357,-2.279342462885153,-1.4255451502885352,-0.4639320760597805,-4.951881564113474,-2.53876759111912,-0.26461808486482974,0.061739572806156266,-0.008933002906299973,0.028457145233112137,0.3181061376760909,0.35006843205249155,-0.5756922364234924,2.1892213821411133,0.7690784931182861,0.8598134517669678,0.230722039937973,0.287848949432373
1749033034.6716297,4.035619045167848,-2.2792170311466586,-1.425562242994926,-0.4638736394484826,-4.9512373650808605,-2.538066175464734,-0.26576488447674484,0.06256048770788994,-0.009097243063485323,0.028210822595238442,0.31885704265886394,0.35147632505232285,-0.6228044629096985,2.1946263313293457,0.7686558365821838,0.8780293464660645,0.2766937613487243,0.3291522264480591
1749033034.671675,4.035073806047335,-2.279090330158298,-1.425580611446717,-0.4638165693335312,-4.9505905961806045,-2.5373600075002996,-0.2669174466681202,0.06341394027488514,-0.009310122934704118,0.02786791051343605,0.31967100781825225,0.35278794468352637,-0.477261871099472,2.109919786453247,0.7647036910057068,0.859151303768158,0.2474197447299957,0.3386593759059906
1749033034.6717138,4.0345259089558585,-2.278962216933849,-1.4256002957397882,-0.4637610291335908,-4.949941165092248,-2.5366491750947313,-0.2680713835303882,0.06425620229414138,-0.009560479549692275,0.02746245314757634,0.3205711143474884,0.3539923369414812,-0.4805091619491577,2.122042655944824,0.7560808062553406,0.8490493893623352,0.2702839374542236,0.3340095281600952
1749033034.6717513,4.033975642980908,-2.2788326211709875,-1.425621259032086,-0.4637070478203699,-4.949288975969609,-2.535933885509479,-0.2692218704890589,0.06504555111089312,-0.009834403019588479,0.027032912282917945,0.3215738527387099,0.35508607358943345,-0.5530815720558167,2.156070709228516,0.7573579549789429,0.8662691712379456,0.2775241136550903,0.3334865570068359
1749033034.671788,4.033423299255631,-2.2787015552582384,-1.4256433895703338,-0.463654516306844,-4.948633957487868,-2.5352144586181056,-0.2703649244008115,0.06574588867744803,-0.010116110734428179,0.026619718065771913,0.32268776986214104,0.35607378631058817,-0.6080160737037659,2.107567071914673,0.7589316368103027,0.871162474155426,0.2601420879364013,0.3384023606777191
1749033034.6718245,4.032869160840007,-2.2785691155128722,-1.4256665078364161,-0.46360319514594844,-4.947976088364299,-2.5344913098939537,-0.27149855839413956,0.0663298248507107,-0.010389061015183297,0.026262623004709305,0.3239130704915326,0.3569678970059218,-0.5155596733093262,2.1298341751098637,0.7629687190055847,0.878654420375824,0.2911476492881775,0.3145951628684997
1749033034.6718612,4.03231349401361,-2.2784354730155316,-1.4256903784305666,-0.46355273315840545,-4.947315415622664,-2.5337649234360775,-0.2726235367262914,0.06678092805098822,-0.010637217235023373,0.025998008063534188,0.32524221164529293,0.3577876291705254,-0.4123939871788025,2.075460195541382,0.7727253437042236,0.8857101202011108,0.3056204319000244,0.3046076595783233
1749033034.6718984,4.031756540850318,-2.278300854412159,-1.4257147259639715,-0.46350269554424683,-4.946652061607051,-2.533035817172268,-0.2737435182226041,0.067094917766236,-0.010846334754855158,0.025856331919024228,0.326661411008226,0.3585574181617443,-0.4795962274074554,2.092165470123291,0.7782853841781616,0.9075063467025756,0.2911549806594848,0.3170619904994964
