nimar13/UR3e_dataset_trayectorias/trayectorias_ejecutadas_filtradas/quintic/trayectoria_246_result_filtrado.csv
timestamp,q1,q2,q3,q4,q5,q6,qd1,qd2,qd3,qd4,qd5,qd6,tau1,tau2,tau3,tau4,tau5,tau6
1749037962.7662933,2.990626740688401,-0.6030611762841128,-2.4037680032140702,-2.63136324680895,-0.4942740773766698,-0.658440596932318,-0.0037771654396536116,-0.0005257135768109747,0.0019319164301798458,0.0013411385876858396,0.0007644103086235656,-0.00015601190983264565,0.0691747665405273,-0.04667529463768,1.094228982925415,0.406729131937027,-0.3356727659702301,-0.1343645304441452
1749037962.7663386,2.990623804516949,-0.6030669757319351,-2.4037722221081457,-2.631360899294413,-0.4942794272682261,-0.6584490008951479,-0.0034200581953501247,-0.0004984624948708765,0.0017396853220452626,0.0013171194944997509,0.0006970618649037387,-0.00013393194579969822,0.0407565012574195,-0.0394102931022644,1.111061692237854,0.4063907265663147,-0.3271758258342743,-0.1312823444604873
1749037962.76638,2.990620852083053,-0.6030724700068648,-2.4037763341624707,-2.63135858880818,-0.4942844318585995,-0.6584570179066772,-0.0030683406821215347,-0.0004710304557222122,0.0015509325829744425,0.001290019333278805,0.0006318155186501798,-0.00010889012354955485,0.0560309439897537,-0.037505954504013,1.1097084283828735,0.4074952304363251,-0.3305089175701141,-0.1559944003820419
1749037962.7664175,2.9906178988726486,-0.60307743982482,-2.403780209288625,-2.6313564194799546,-0.4942888621278774,-0.6584643511045706,-0.0027270190064573223,-0.0004436429740707473,0.0013695000815368143,0.0012569558644181808,0.0005704370245362266,-8.284873970496388e-05,0.0368668287992477,-0.0225298702716827,1.1263302564620972,0.3911522924900055,-0.3345329463481903,-0.140893667936325
1749037962.7664535,2.9906149599995753,-0.6030817228139422,-2.4037837240414093,-2.631354481905823,-0.49429253487730385,-0.6584707719685295,-0.0024007473003108,-0.0004165218408270057,0.0011988945038024026,0.0012158527393724776,0.000514385077042172,-5.843523161032415e-05,0.0370995663106441,-0.0152966231107711,1.1238679885864258,0.410408616065979,-0.3260555565357208,-0.1177175939083099
1749037962.7664905,2.9906120521102597,-0.6030852234411687,-2.4037867670457493,-2.6313528446585415,-0.4942953238978713,-0.6584761406727137,-0.002093692100310542,-0.0003898956397063686,0.0010421375120874983,0.0011656718589466673,0.0004647109211145988,-3.8865372556302365e-05,0.0405210256576538,-0.0294742733240127,1.1290817260742188,0.4041539430618286,-0.333830863237381,-0.1484903395175933
1749037962.766527,2.9906091965888804,-0.6030879129849336,-2.4037892446614015,-2.6313515491080772,-0.4942971677131389,-0.658480414223457,-0.00180940517974527,-0.0003640148916069296,0.0009016508348456231,0.0011064987965831022,0.00042200390957204746,-2.7792333791949804e-05,0.0313192196190357,-0.0339485853910446,1.1459133625030518,0.4038562178611755,-0.3265971541404724,-0.1253365278244018
1749037962.7665637,2.9906064229787765,-0.6030898216088978,-2.403791086499934,-2.6313506083727978,-0.4942980729433083,-0.6584836429677909,-0.0015507117330913946,-0.0003391690499643908,0.0007791788803794176,0.0010394729246831008,0.0003863868263575931,-2.9079316135713545e-05,0.0281199999153614,-0.034564733505249,1.125093936920166,0.410041332244873,-0.3254648447036743,-0.139413982629776
1749037962.7665997,2.9906037713081166,-0.6030910255847185,-2.4037922502657967,-2.6313500104643484,-0.49429811231411536,-0.6584859574933949,-0.001319624491266111,-0.00031570139279186895,0.0006757496792700917,0.0009665798605953855,0.0003575572894619442,-4.6501232585841545e-05,0.0353070981800556,-0.0254271924495697,1.13434100151062,0.4077931642532348,-0.3392564952373504,-0.1563914716243744
1749037962.7666364,2.990601292341015,-0.603091632556202,-2.4037927253916007,-2.631349724778062,-0.4942974164671712,-0.6584875486270773,-0.0011172954552137475,-0.00029401714916687144,0.0005916739554344513,0.0008903454453331388,0.00033486565074636207,-8.339042299826504e-05,0.0285273324698209,-0.0322891771793365,1.1320140361785889,0.4164260029792785,-0.3444029986858368,-0.1284587532281875
1749037962.7666764,2.9905990454203577,-0.6030917671566606,-2.4037925349745852,-2.631349710309609,-0.4942961593486295,-0.6584886436376226,-0.0009440139385712709,-0.0002745801056095142,0.0005265801291920399,0.0008134828294782859,0.0003174163631039704,-0.00014225195465596163,0.0322950556874275,0.0086533725261688,1.141094207763672,0.4008793234825134,-0.331951767206192,-0.1558024436235427
1749037962.766714,2.9905970941458113,-0.6030915587411074,-2.4037917355028027,-2.6313499236000664,-0.4942945383262897,-0.6584894819620316,-0.0007992529785521799,-0.0002578935433971393,0.00047947983861385224,0.0007385462182218223,0.0003041786612989672,-0.00022438457165260435,0.0592816472053527,-0.0068819373846054,1.145084023475647,0.4095134437084198,-0.3548139631748199,-0.1794430315494537
1749037962.7667506,2.9905955005015104,-0.6030911323298418,-2.4037904138717976,-2.6313503245797443,-0.4942927517997274,-0.6584902934682084,-0.0006817580550767429,-0.0002444626813276517,0.00044885552663763743,0.0006676383053463417,0.0002940932739392242,-0.00032955228712555303,0.0351988710463047,-0.0012005269527435,1.141005277633667,0.4093136787414551,-0.3297763466835022,-0.1664731651544571
1749037962.7667868,2.990594318253463,-0.6030906028263487,-2.403788681484861,-2.631350879199428,-0.49429097788908616,-0.6584912812244681,-0.0005896650378065865,-0.00023473779706692803,0.00043276047782559455,0.0006022065163487745,0.00028616438935090107,-0.00045575708808899497,0.0524745322763919,0.0036700814962387,1.138596534729004,0.3987958431243896,-0.3388364613056183,-0.164797693490982
1749037962.7668228,2.990593586459584,-0.60309007153829,-2.4037866659005496,-2.6313515587466427,-0.4942893573922577,-0.658492609350041,-0.0005206302257793093,-0.0002290397680078752,0.00042892296829174343,0.0005429487856049323,0.00027952959396912273,-0.0005991628384151668,0.0491377860307693,0.0216242969036102,1.1473608016967771,0.4016394019126892,-0.3413412272930145,-0.1577481031417846
1749037962.7668598,2.990593323806257,-0.6030896237372514,-2.4037845012030847,-2.631352336660121,-0.4942879831720689,-0.6584943955103294,-0.0004719549329089364,-0.00022747274104803163,0.000434849040137198,0.0004898347991476315,0.0002735041719522735,-0.0007542114416476704,0.0546133518218994,0.0179794654250144,1.1278526782989502,0.4029641449451446,-0.34380903840065,-0.1484643816947937
1749037962.766896,2.990593524372927,-0.6030893265512232,-2.4037823185262805,-2.631353184275332,-0.4942868971911704,-0.658496707365149,-0.00044069001437945703,-0.00022983177113343996,0.0004479215250767229,0.0004422347359001969,0.00026759938805266957,-0.0009139524654107126,0.0356814414262771,0.0222635120153427,1.1174159049987793,0.4019739031791687,-0.348216712474823,-0.1326797753572464
1749037962.7669318,2.990594155405308,-0.6030892271742175,-2.403780237859235,-2.6313540671917015,-0.49428609554032155,-0.6584995624709642,-0.0004237111903882169,-0.00023551620226554368,0.00046549561615562437,0.0003991353465252868,0.00026151690399326603,-0.0010705770507218669,0.0594358369708061,0.0274821296334266,1.1371111869812012,0.4063410758972168,-0.3583374917507171,-0.17095348238945
1749037962.7669675,2.990595157615815,-0.6030893515772591,-2.403778361731509,-2.6313549437321884,-0.4942855405296157,-0.6585029312834232,-0.0004177629407409595,-0.00024346175848390797,0.0004849932632987861,0.0003594134088841055,0.0002551232543822167,-0.0012161108998514148,0.0635978877544403,0.0142726302146911,1.1264841556549072,0.3979343175888061,-0.356267511844635,-0.1454966962337494
1749037962.7670033,2.9905964482586604,-0.603089703744066,-2.4037767709145785,-2.631355766248855,-0.4942851772265214,-0.6585067428768949,-0.00041947601227799975,-0.0002521051245427013,0.000503999394397215,0.00032212987535545483,0.00024840937786240727,-0.0013431881221083756,0.0666525065898895,0.0116148293018341,1.1409204006195068,0.4068858623504638,-0.3510046303272247,-0.1556661576032638
1749037962.7673423,2.9905979267082072,-0.6030902653984827,-2.403775521938342,-2.631356485065837,-0.49428495051127713,-0.6585108929299248,-0.00042537017769417925,-0.00025939378166402627,0.0005203615186450951,0.00028680483632157925,0.00024144064943632096,-0.0014458057661035587,0.0715645998716354,0.0256434082984924,1.1319444179534912,0.398039311170578,-0.3556666374206543,-0.1545176357030868
1749037962.7693253,2.990599481685829,-0.6030909963940707,-2.4037746460015916,-2.631357054030007,-0.4942848186035295,-0.6585152534184466,-0.0004318589550572833,-0.00026285097774779144,0.0005322901683296114,0.00025363384947299825,0.0002343027998333665,-0.0015199525125816065,0.0715645998716354,0.0256434082984924,1.1319444179534912,0.398039311170578,-0.3556666374206543,-0.1545176357030868
1749037962.8102849,2.990600999002758,-0.6030918362097132,-2.403774148832166,-2.6313574362577428,-0.4942847601887086,-0.6585196832240303,-0.00043527595402149467,-0.00025970118868705484,0.0005384515924613958,0.00022361012712766187,0.00022704867082208363,-0.0015640169509250235,0.0456617623567581,0.0379037111997604,1.1266231536865234,0.4099675416946411,-0.3608876764774322,-0.1514332294464111
1749037962.810332,2.990602368949854,-0.6030927070887256,-2.403774011303149,-2.6313576088011685,-0.4942847742350342,-0.6585240386472015,-0.00043194310483967796,-0.00024705557554298587,0.0005380381417758365,0.00019852438395088313,0.00021965010792429043,-0.0015789125795266576,0.0569239482283592,0.0452572256326675,1.1176986694335938,0.4047276973724365,-0.3571738302707672,-0.1642019003629684
1749037962.8103728,2.9906034930334546,-0.6030935191377766,-2.4037741910383597,-2.631357565428467,-0.49428487372982166,-0.6585281828861455,-0.00041829919429228334,-0.00022215010699654054,0.0005307988837311032,0.00018082444480541286,0.00021195859512371885,-0.0015679043812754654,0.0978153049945831,0.0312419980764389,1.112376689910889,0.3988151252269745,-0.3686085641384125,-0.1459641605615615
1749037962.8104112,2.990604290093271,-0.6030941772494325,-2.403774625529308,-2.6313573172394658,-0.4942850762512204,-0.6585319939298662,-0.00039110269670839914,-0.00018262164689798703,0.0005170160376488811,0.0001733292365835607,0.00020367755332789295,-0.0015361739502847635,0.0720877721905708,-0.0004054307937622,1.122619867324829,0.3994598388671875,-0.3614180386066437,-0.146029382944107
1749037962.810449,2.990604701681312,-0.6030945893005364,-2.4037752371550405,-2.63135689126606,-0.494285394929107,-0.6585353707925812,-0.0003477155875880503,-0.00012680002576832318,0.0004974222064148279,0.00017880555973375387,0.00019434849975190086,-0.001490201593856667,0.0788554400205612,0.0513366311788558,1.1268231868743896,0.3983816802501678,-0.3763396143913269,-0.1523867398500442
1749037962.8104863,2.9906046961521247,-0.6030946748974847,-2.4037759399906973,-2.631356327519567,-0.49428583270565785,-0.6585382382969928,-0.0002864649287654013,-5.398777188360221e-05,0.00047306576477493343,0.00019943015630969252,0.00018335244722207701,-0.0014370640698119631,0.0819968804717063,0.0446556434035301,1.1097908020019531,0.384161502122879,-0.3829317986965179,-0.1514362543821334
1749037962.8105235,2.9906042705485683,-0.6030943738828434,-2.403776647711757,-2.6313556751517155,-0.49428638123160484,-0.6585405505481217,-0.00020706746044311928,3.5305306473577285e-05,0.0004451424236623855,0.0002361733407431644,0.00016992708520252678,-0.0013837439322406976,0.1173290386795997,0.0694686323404312,1.0967119932174685,0.3840433359146118,-0.3842706978321075,-0.1602950245141983
1749037962.8105605,2.9906034492537477,-0.603093653676582,-2.4037772815116742,-2.6313549885007563,-0.4942870239440688,-0.6585422930012544,-0.00011108999777834964,0.00013920748160248456,0.00041481720877285805,0.0002881530929446784,0.00015319959781256531,-0.0013365253782043303,0.0878562703728675,0.0929460525512695,1.0724222660064695,0.3814224302768707,-0.3885026276111603,-0.1497775763273239
1749037962.8105974,2.9906022787266378,-0.6030925143354694,-2.40377777687271,-2.631354323793413,-0.49428774157244426,-0.6585434829521509,-2.405385145719687e-06,0.00025444424950540743,0.0003830627794101674,0.0003520190336052982,0.00013223453295170028,-0.001300518330268486,0.0693876966834068,0.0966269820928573,1.063298583030701,0.3634901046752929,-0.4001503884792328,-0.1669852286577224
1749037962.810634,2.990600818608484,-0.603090990246384,-2.4037780883133046,-2.6313537371555507,-0.4942885179017723,-0.658544168373842,0.00011240889059432168,0.0003764401803796243,0.00035053804106746736,0.0004214328508260847,0.00010609572344174436,-0.0012793141910672973,0.1140158176422119,0.1222825497388839,1.0761780738830566,0.3535237312316894,-0.3895751535892486,-0.1763897836208343
1749037962.810671,2.9905991307341653,-0.6030891478048216,-2.4037781918188044,-2.6313532844006384,-0.4942893440297425,-0.6585444249946483,0.00022379197431283106,0.0004995815392084871,0.0003175260245450064,0.0004867141771892925,7.392024358184355e-05,-0.0012747418787058056,0.084650881588459,0.1050097569823265,1.0681254863739014,0.3523382842540741,-0.4139340817928314,-0.1527265459299087
1749037962.8107083,2.990597268296152,-0.6030870791604674,-2.4037780852549226,-2.6313530229033426,-0.49429022020546504,-0.6585443513049454,0.0003191067805831229,0.0006176387227447631,0.0002839426393344578,0.0005347174108401385,3.500007490463304e-05,-0.001286671626292693,0.0723138749599456,0.1191992834210395,1.0672515630722046,0.3338552117347717,-0.4315883815288543,-0.1435429006814956
1749037962.810745,2.9905952670700575,-0.6030848928323347,-2.403777787291938,-2.631353015737798,-0.4942911552380451,-0.6585440611120704,0.00038279382833986613,0.0007243193843889021,0.00024941923214141326,0.0005489946887468902,-1.113651081724102e-05,-0.0013128155263975312,0.0749399811029434,0.1040175408124923,1.0773975849151611,0.3287012875080108,-0.4515333473682403,-0.153742030262947
1749037962.8107817,2.9905931394452456,-0.6030827024662558,-2.4037773351778036,-2.6313533380606775,-0.49429216418700883,-0.6585436735604668,0.00039681780697332594,0.0008138889410262214,0.00021345322748752145,0.0005102828939112611,-6.465602253745179e-05,-0.0013485002821701994,0.0463743321597576,0.130571499466896,1.076033115386963,0.3175495266914367,-0.4421136677265167,-0.1470695286989212
1749037962.8108215,2.9905908707240343,-0.6030806152202631,-2.403776781426544,-2.631354085311348,-0.49429326545878083,-0.6585433010701435,0.00034142860281641756,0.0008817663308646359,0.00017561348647656224,0.0003973286060669835,-0.00012537876415408413,-0.0013864312766623012,0.0612374693155288,0.1075348556041717,1.070765256881714,0.3023673892021179,-0.4432345330715179,-0.1526299118995666
1749037962.810859,2.990588416494947,-0.6030787213059953,-2.4037761894143124,-2.631355382178569,-0.49429447834787404,-0.6585430361465231,0.00019622623714270782,0.0009249962457549115,0.00013578072329833822,0.0001880353530490959,-0.0001927822957609344,-0.0014165122786924408,0.0215660855174064,0.1061805784702301,1.0710560083389282,0.2824482023715973,-0.44827601313591,-0.1355137526988983
1749037962.8108962,2.9905857001734635,-0.6030770860440167,-2.4037756279309677,-2.631357390633863,-0.49429582143801937,-0.658542938316148,-5.8518035924607335e-05,0.0009425231239567209,9.439826829372524e-05,-0.0001391154552313164,-0.0002660632013667067,-0.0014258158392087804,0.014807567000389,0.1206967234611511,1.0694968700408936,0.2816924154758453,-0.4609164893627167,-0.1266360878944397
1749037962.8109326,2.9905826107559252,-0.603075745325686,-2.4037751647821963,-2.631360314948841,-0.49429731150697753,-0.6585430225241782,-0.0004403697806266611,0.0009352369117945954,5.2704673627170004e-05,-0.0006034505776308098,-0.00034426349064316643,-0.001398805903219364,0.0305323861539363,0.1172729358077049,1.073786973953247,0.2683047652244568,-0.4557782113552093,-0.1192647889256477
1749037962.8109696,2.990579001825358,-0.6030747047375633,-2.403774859665799,-2.6313644017622986,-0.4942989622481544,-0.6585432502739765,-0.0009631856731369696,0.000905805399186275,1.2917609466803983e-05,-0.0012204028984307254,-0.00042645478101622386,-0.0013178946353691516,0.0026689451187849,0.1117140650749206,1.08130145072937,0.2455710768699646,-0.459463506937027,-0.1450392454862594
1749037962.8110063,2.9905746933188317,-0.603073942080052,-2.403774756867495,-2.63136993401021,-0.4943007824673631,-0.6585435247433578,-0.0016356501968311555,0.0008583379271696148,-2.1660975354738333e-05,-0.001999837389045031,-0.0005119557124323919,-0.0011643740437033833,0.0289679523557424,0.1156036108732223,1.0839855670928955,0.2836466133594513,-0.4809676706790924,-0.119414247572422
1749037962.8113732,2.9905694772405482,-0.6030734127538333,-2.4037748786584254,-2.631377218618598,-0.49430277412768353,-0.6585436911013434,-0.0024600330078116605,0.0007979375203091092,-4.664454132682126e-05,-0.002944523904108761,-0.0006005411851101008,-0.0009197065596518575,0.0058340691030025,0.1170265078544616,1.0723249912261963,0.248932659626007,-0.4652946293354034,-0.1043692007660865
1749037962.8132825,2.9905631275239486,-0.6030730573706881,-2.403775220320754,-2.631386568871449,-0.49430493114247476,-0.6585435430703551,-0.0034312937554151304,0.0007301975762169171,-5.668474914000634e-05,-0.004048885285626965,-0.0006925949766218465,-0.0005670951177514387,-0.029693990945816,0.1211413890123367,1.0856473445892334,0.2407294362783432,-0.4711408913135528,-0.0927040129899978
1749037962.8542783,2.9905554131144694,-0.6030728107577735,-2.4037757474404153,-2.6313982830886906,-0.49430723978351876,-0.6585428362364891,-0.004536644385110457,0.0006606913658116714,-4.572370425399722e-05,-0.005298175449481594,-0.0007891665134646701,-9.319087191771015e-05,-0.0360126122832298,0.108615830540657,1.091594934463501,0.2378947138786316,-0.4727313220500946,-0.0805854126811027
1749037962.8543236,2.990546112592705,-0.6030726112595179,-2.4037763957474074,-2.631412621719902,-0.49430968103929807,-0.658541307721804,-0.005755657675771208,0.0005944924682110079,-7.366666677300304e-06,-0.00666827036694978,-0.00089191578378665,0.00051025537646643,-0.0278116092085838,0.1095151603221893,1.0953996181488037,0.2114694416522979,-0.4654196202754974,-0.0626956149935722
1749037962.8543675,2.9905350285121415,-0.6030724090732502,-2.403777073574547,-2.631429785210897,-0.4943122345927247,-0.6585387007113493,-0.007060974370458008,0.0005357542898364782,6.465117696784939e-05,-0.008126251570934434,-0.0010029584489256555,0.001245023768505856,-0.0698546543717384,0.1064743995666503,1.0952515602111816,0.2211256921291351,-0.4846671521663666,-0.0417779758572578
1749037962.854408,2.9905219999834536,-0.6030721724325981,-2.403777666892495,-2.6314498949965706,-0.494314883621332,-0.6585347911169133,-0.008419604486670337,0.00048736789106793406,0.00017594785203901386,-0.009631900566035906,-0.0011246471071670473,0.002105564805456065,-0.0588519386947155,0.1005073338747024,1.115259885787964,0.2032023221254348,-0.4873689115047455,-0.0165795981884002
1749037962.854446,2.990506912607785,-0.6030718908678305,-2.403778046622639,-2.6314729797813023,-0.49431761948198727,-0.6585294126758313,-0.009794754283793502,0.00045070989433977307,0.0003309869814913099,-0.011140103677807645,-0.001259339191260427,0.0030788350579173535,-0.0773779451847076,0.1001348346471786,1.129109025001526,0.1826508194208145,-0.4910413920879364,-0.0343489237129688
1749037962.854483,2.9904897052977812,-0.6030715754976118,-2.403778077396129,-2.6314989689957065,-0.49432044551380566,-0.6585224764739245,-0.01114805719673936,0.0004254865569825658,0.0005326489396869017,-0.012604015465057487,-0.0014092049138038725,0.0041449335136791755,-0.0605488009750843,0.0811483561992645,1.1446731090545654,0.1860290318727493,-0.4929929673671722,-0.0261190645396709
1749037962.85452,2.990470373603162,-0.6030712570481815,-2.4037776263459554,-2.631527694843181,-0.4943233796085678,-0.6585139814534392,-0.012442049559751953,0.0004096761403571438,0.0007819514546311421,-0.013978680278271894,-0.0015761193731597145,0.005278528965054853,-0.1006629019975662,0.0536065399646759,1.1541523933410645,0.2032175660133361,-0.4866198003292084,0.0043917149305343
1749037962.8545566,2.9904489689785336,-0.6030709826464474,-2.4037765703424587,-2.631558903410724,-0.49432645569338857,-0.6585040136818966,-0.013642703681355327,0.00039956912046848605,0.0010779779190250077,-0.015224701353225649,-0.0017616623446485703,0.006450955276233003,-0.1274679899215698,0.0481137335300445,1.1670336723327637,0.2092891633510589,-0.5089198350906372,0.0223128460347652
1749037962.8545935,2.9904255934081,-0.6030708122148055,-2.403774800502932,-2.631592273975741,-0.4943297246462769,-0.6584927336481454,-0.014721808258042562,0.00038990395616107576,0.0014180416989687,-0.01631150608105735,-0.0019672207060972896,0.007632768562300616,-0.1089574843645095,0.066754326224327,1.1805977821350098,0.2200610637664795,-0.4996298253536224,0.0301512330770492
1749037962.8546343,2.9904003892736086,-0.603070814688797,-2.403772223586827,-2.631627444372618,-0.49433325535169387,-0.6584803524579801,-0.015658973832708506,0.0003740943342126062,0.0017980673331423939,-0.01721980350036586,-0.002194158395159026,0.008796512315440968,-0.121075727045536,0.0090289413928985,1.1767524480819702,0.2078781723976135,-0.4896717965602875,0.0302107334136962
1749037962.854672,2.9903735252083328,-0.603071063727639,-2.403768760713256,-2.63166403952141,-0.49433713650688577,-0.6584670993922702,-0.016443049130041656,0.0003445412805114735,0.0022131150104121445,-0.017942959413757596,-0.00244399601510863,0.009919403546116565,-0.1076113805174827,0.0072279572486877,1.1883529424667358,0.224551647901535,-0.5075452923774719,0.0575064718723297
1749037962.8547082,2.990345179541787,-0.6030716325228651,-2.4037643445448573,-2.631701700016265,-0.4943414791243029,-0.6584531845635194,-0.017072776048026005,0.00029301966248586396,0.0026579361665304813,-0.01848719182300603,-0.002718533209133028,0.010985624840037162,-0.0920618772506713,-0.0243424177169799,1.1939598321914673,0.2217492908239364,-0.5090263485908508,0.0374172180891037
1749037962.854745,2.990315523573652,-0.6030725877996058,-2.4037589165126474,-2.631740107876273,-0.4943464184413184,-0.6584387611791505,-0.017556596727515087,0.0002111233605742153,0.0031274493021187276,-0.018870666858493517,-0.0030198519100347525,0.011987906643667823,-0.10346220433712,-0.0041146874427795,1.2013951539993286,0.2143028229475021,-0.517556369304657,0.0405451506376266
1749037962.8547816,2.9902847071692675,-0.6030739837786836,-2.4037524255710045,-2.6317790071150147,-0.4943521128883492,-0.658423892278729,-0.017911647990791108,9.074730729720502e-05,0.003617068174726505,-0.01912171152779719,-0.003350153657566289,0.012928148762426516,-0.0964549928903579,-0.0166677832603454,1.2176501750946045,0.2336800396442413,-0.5205532908439636,0.0496564917266368
1749037962.854818,2.990252848753446,-0.6030758572590803,-2.4037448292716985,-2.6318182176814053,-0.494358737821673,-0.6584085267516357,-0.018162105624389406,-7.54217450809054e-05,0.0041228720679432245,-0.019276432260458005,-0.0037114078793272997,0.013816971574483125,-0.1278877854347229,-0.0257809460163116,1.2091832160949707,0.2119623720645904,-0.517340362071991,0.0483263991773128
1749037962.8548546,2.9902200306011353,-0.6030782249475769,-2.4037360968886703,-2.631857642415186,-0.49436647310617593,-0.6583924886760513,-0.01833713246581172,-0.00029343995881122187,0.004641645733240112,-0.019376037859466337,-0.004104823206975843,0.014672271070843125,-0.1178048700094223,-0.0516674816608428,1.2264529466629028,0.2141810655593872,-0.5270195007324219,0.0618240609765052
1749037962.8548908,2.990186298895045,-0.6030810838957167,-2.403726213435901,-2.6318972676532986,-0.49437548561843014,-0.658375482285269,-0.018468711795787743,-0.0005677049132817499,0.005170822823392604,-0.019464129351972843,-0.004530201401747134,0.015517016533456463,-0.1325471103191375,-0.0612589120864868,1.224696159362793,0.2385939359664917,-0.5312631726264954,0.0766309276223182
1749037962.8549304,2.990151667113324,-0.6030844155184513,-2.4037151831404984,-2.6319371587955103,-0.4943859093246209,-0.6583571122635535,-0.018589609482846128,-0.00090065394138565,0.005708355384291953,-0.019584159512161175,-0.004985284594720531,0.016376627737168834,-0.1144604980945587,-0.0599518120288848,1.2493813037872314,0.2050068080425262,-0.5291069149971008,0.0733601972460746
1749037962.8549683,2.9901161211995166,-0.6030881930407628,-2.4037030312771996,-2.6319774524676074,-0.49439782625767376,-0.658336916158715,-0.018731627245613242,-0.0012925860048887783,0.006252523208674841,-0.019777198298574387,-0.0054652436589814925,0.017276287769051886,-0.1065110489726066,-0.0494727492332458,1.2299771308898926,0.2068139612674713,-0.5472691655158997,0.0819934085011482
1749037962.8550048,2.9900796252388613,-0.6030923913508719,-2.4036898038236822,-2.632018346996118,-0.49441125163668725,-0.6583144033153149,-0.018924218393261014,-0.0017416112407168502,0.006801697952282791,-0.020080076802485563,-0.005962460745392847,0.018238503733690674,-0.1065110489726066,-0.0494727492332458,1.2299771308898926,0.2068139612674713,-0.5472691655158997,0.0819934085011482
1749037962.8553452,2.990042126543902,-0.6030969975042204,-2.403675564763091,-2.6320600927292164,-0.49442612584626056,-0.6582890936961043,-0.019193463786800053,-0.002243718393879666,0.007354083172354261,-0.02052392826240697,-0.006466722831183188,0.019281146576370697,-0.1435881853103637,-0.0831474512815475,1.239759087562561,0.1909945905208587,-0.5467491745948792,0.0945040732622146
1749037962.857344,2.990003559184475,-0.6031020199323068,-2.4036603910782004,-2.6321029831588336,-0.49444231503606445,-0.6582605507132707,-0.019561360807499886,-0.0027929543583268923,0.007907456570691439,-0.021133105305421472,-0.006965868396269251,0.020416106848507785,-0.131884828209877,-0.1070834249258041,1.2348071336746216,0.1901795864105224,-0.538892924785614,0.1077953726053237
1749037962.8982823,2.9899638453751964,-0.6031074947791676,-2.403644365821852,-2.632147346794321,-0.4944596206753771,-0.6582284044588012,-0.020045357841499252,-0.003381725844930344,0.008458943076806773,-0.021924429700271805,-0.007446832740343611,0.02164861188103172,-0.1507487446069717,-0.1326710283756256,1.23839008808136,0.2058074921369552,-0.5335004925727844,0.121580496430397
1749037962.898332,2.989922894761273,-0.603113488409293,-2.4036275701538035,-2.632193538692036,-0.49447779681706283,-0.6581923645259031,-0.02065806250911039,-0.004001235099423055,0.009004850257577949,-0.02290672536053838,-0.007896946472052987,0.022977170765107184,-0.1867022961378097,-0.1254177987575531,1.277088284492493,0.1951207220554351,-0.5353583097457886,0.112926110625267
1749037962.8983898,2.9898806023222706,-0.6031200957832036,-2.4036100756773857,-2.632241930047594,-0.49449657262882357,-0.6581522239190047,-0.021407060721980918,-0.004642028806897738,0.009540603495173265,-0.024080599300672644,-0.008305281922165677,0.024394053105312133,-0.1701308786869049,-0.0858796238899231,1.268489956855774,0.1903992444276809,-0.5239548087120056,0.1149375885725021
1749037962.89843,2.9898368461845566,-0.6031274350325956,-2.4035919385330105,-2.632292894606425,-0.49451567722526724,-0.6581078568551846,-0.022294807436526183,-0.005294582941369599,0.010060820874462004,-0.025438468381575728,-0.008663824545360393,0.025886171355069983,-0.152919664978981,-0.115235835313797,1.2476245164871216,0.2016226947307586,-0.5263192653656006,0.1328930109739303
1749037962.8984685,2.9897914868719173,-0.6031356390800385,-2.4035731963684492,-2.632346791678965,-0.49453486383211526,-0.6580592134815924,-0.023318586908039163,-0.005949807989020966,0.010559554076107149,-0.026964872805802297,-0.008968269650786181,0.027436228206672165,-0.1853438764810562,-0.1041807681322097,1.2550355195999146,0.1882736533880233,-0.5069102048873901,0.1416722685098648
1749037962.8985064,2.9897443691929726,-0.6031448453952929,-2.403553868607876,-2.632403946811986,-0.49455393054470875,-0.6580063137547625,-0.024470582020311476,-0.006599374713329128,0.011030689403941758,-0.028637150947764218,-0.00921830590319204,0.029024007854315057,-0.2415538877248764,-0.1335809230804443,1.2744200229644775,0.1802475899457931,-0.5259761214256287,0.1646794229745865
1749037962.898548,2.989695327108833,-0.6031551849905701,-2.40353395971152,-2.632464632189608,-0.4945727353527249,-0.6579492413104192,-0.025738123812437882,-0.007235823698745585,0.011468466292888307,-0.030426550764044772,-0.009417339203488407,0.030627720902039773,-0.2339966595172882,-0.1513338685035705,1.278228998184204,0.1722658276557922,-0.5141029357910156,0.1626481115818023
1749037962.898588,2.989644190896812,-0.6031667716508665,-2.4035134645876814,-2.6325290493476223,-0.49459120386921485,-0.6578881367876167,-0.027104193401170613,-0.007852489775169858,0.011868044928648734,-0.032299806509474734,-0.009571715675834251,0.03222533748176931,-0.2157494276762008,-0.12825708091259,1.2944660186767578,0.1959924846887588,-0.514862060546875,0.1629318296909332
1749037962.898626,2.9895907952067278,-0.603179692209547,-2.403492374963544,-2.6325973167463457,-0.49460932938553015,-0.6578231894434624,-0.028548209080172818,-0.008443310719471193,0.012226044401715413,-0.03422112314669913,-0.009689594527497208,0.03379584730790367,-0.2119117975234985,-0.1729023903608322,1.2929564714431765,0.2093207985162735,-0.5049936771392822,0.1739101707935333
1749037962.8986633,2.989534986621768,-0.6031939984580327,-2.4034706853488963,-2.6326694641723805,-0.49462716615636093,-0.6577546262687661,-0.030047070953618686,-0.009002597525328991,0.012540974438388334,-0.03615441397185327,-0.00977967788338856,0.03532037232223409,-0.2331540733575821,-0.1790272444486618,1.2835278511047363,0.1914770603179931,-0.5216391086578369,0.1734974980354309
1749037962.8987038,2.989476630087812,-0.603209701121819,-2.403448397432776,-2.6327454348882497,-0.4946448177122336,-0.6576826988682334,-0.03157639221164765,-0.009524837255839882,0.012813493690803975,-0.038065567127086516,-0.009850013242670961,0.0367830465012871,-0.2465205490589141,-0.1918004602193832,1.2764018774032593,0.1938415765762329,-0.5204921364784241,0.1859380602836609
1749037962.8987422,2.9894156144287782,-0.6032267662552347,-2.403425522383171,-2.632825095166658,-0.49466242229185864,-0.6576076694046862,-0.03311183819300412,-0.010004587656293702,0.013046446126377434,-0.03992450153993038,-0.009907047379981462,0.03817158857125712,-0.2537072598934173,-0.2015984058380127,1.2912532091140747,0.2011800855398178,-0.5099121332168579,0.1881055533885955
1749037962.898779,2.9893518574034132,-0.603245114338348,-2.403402081207965,-2.6329082497081457,-0.49468013729611016,-0.6575297973827934,-0.03463050260409945,-0.010436504205845914,0.01324465749646397,-0.04170681806546307,-0.009955045556911504,0.03947753454660979,-0.2491451203823089,-0.2021651864051818,1.297844648361206,0.2001887559890747,-0.508525013923645,0.1838056743144989
1749037962.8988156,2.9892853103304433,-0.6032646222467034,-2.4033781036353115,-2.6329946607993207,-0.49469812412665426,-0.6574493289190222,-0.03611224574964925,-0.010815515558796408,0.013414516347166592,-0.04339493821334594,-0.009995918266843335,0.040696158495223324,-0.2721576392650604,-0.2025210857391357,1.3055603504180908,0.1614899188280105,-0.5059903860092163,0.2000923454761505
1749037962.8988562,2.9892159617230893,-0.6032851280408329,-2.403353625877973,-2.6330840691140622,-0.49471653408510613,-0.6573664896314048,-0.037540896909565,-0.011137137863864058,0.01356340927446857,-0.044978715051009845,-0.010029432730338074,0.04182616752498007,-0.2698888182640075,-0.2295481860637664,1.3146063089370728,0.1764219552278518,-0.5100494623184204,0.193507432937622
1749037962.898894,2.9891438390345653,-0.6033064382016701,-2.4033286875240316,-2.633176214628733,-0.4947354955618667,-0.6572814815157954,-0.038905201073553684,-0.011397897370360587,0.013699112510244504,-0.046455561773623956,-0.010053734089605169,0.042869284809929395,-0.2673110961914062,-0.2186428308486938,1.3184458017349243,0.1666458994150161,-0.5170607566833496,0.1981156766414642
1749037962.8989315,2.98906900761005,-0.6033283367265555,-2.4033033278442164,-2.633270856708465,-0.49475510275431306,-0.6571944832753527,-0.04019939227265874,-0.01159581427607636,0.013829249049266086,-0.04783015307898152,-0.010066065701017323,0.04382982346164356,-0.2622146308422088,-0.21205735206604,1.3051865100860596,0.1859536319971084,-0.4899866878986358,0.1993738710880279
1749037962.8989675,2.988991566261254,-0.6033505955708403,-2.403277581903639,-2.6333677925788788,-0.49477540641468803,-0.6571056528316153,-0.041423312485454666,-0.011730885345650255,0.013960898430847808,-0.049113724213801654,-0.01006355838484527,0.044714316575606455,-0.2836585342884063,-0.2494778931140899,1.3300063610076904,0.1944984942674636,-0.5038225650787354,0.2209777235984802
1749037962.899008,2.988911639472968,-0.6033729861635968,-2.4032514768945887,-2.6334668731279263,-0.49479640735010105,-0.657015130456311,-0.042582056885977236,-0.011805487946759497,0.014100399841155848,-0.0503229599888948,-0.010043950811483246,0.045531223807646425,-0.2936785221099853,-0.2539774775505066,1.316981554031372,0.1751448959112167,-0.5034177303314209,0.2009433805942535
1749037962.8990457,2.988829366913519,-0.60339529192211,-2.4032250290636448,-2.6335680146511575,-0.4948180534596346,-0.6569230411575976,-0.04368518821740799,-0.011824622652167173,0.01425333177262844,-0.05147846548829898,-0.010006110345229345,0.04629069541557311,-0.2880095243453979,-0.2322244197130203,1.3117307424545288,0.1902264207601547,-0.4905485212802887,0.1946452558040619
1749037962.8994508,2.9887448914125723,-0.6034173217246368,-2.40319824144738,-2.6336712050650175,-0.4948402409394509,-0.6568294954496847,-0.0447456075090239,-0.011795927230970716,0.0144246027630778,-0.05260285052662601,-0.00995025720612137,0.04700434954746248,-0.2773402035236358,-0.2620105743408203,1.3161602020263672,0.1852549463510513,-0.4747394323348999,0.2080613076686859
1749037962.9013786,2.9886583468046632,-0.6034389240544279,-2.403171102343571,-2.63377650331727,-0.4948628199370076,-0.6567345881822998,-0.045778197697636976,-0.011729432070027041,0.014618566502777743,-0.05371853385133919,-0.00987786036853879,0.04768501312214728,-0.3079467117786407,-0.2551628351211548,1.3411964178085327,0.1591604351997375,-0.4794181585311889,0.2025086879730224
1749037962.9463172,2.988569847023241,-0.6034600008460064,-2.4031435842162727,-2.633884031256941,-0.49488560452923497,-0.6566383955398337,-0.04679837910425271,-0.011637071832302608,0.014839087190858588,-0.054845466840941014,-0.009791258589532623,0.0483463875189338,-0.3172067999839782,-0.259274423122406,1.3394490480422974,0.1784657388925552,-0.4941654205322265,0.2081376612186432
1749037962.946364,2.988479477482368,-0.6034805190872072,-2.403115642780071,-2.6339939582090044,-0.49490838649108315,-0.6565409706691561,-0.047820728686961286,-0.011532003853613039,0.01508951610228589,-0.0559990576310468,-0.009693136925969074,0.049002616029502434,-0.3146315813064575,-0.2561186552047729,1.3412225246429443,0.1473804712295532,-0.4995483756065368,0.2068032026290893
1749037962.9464035,2.988387289052192,-0.603500517551497,-2.403087216309414,-2.6341064797762774,-0.4949309517945089,-0.6564423387605987,-0.048857809939631625,-0.011427802708703413,0.015372579003950806,-0.057188597352397605,-0.009586029432330981,0.04966774145857322,-0.3218593001365661,-0.2596066296100616,1.3420538902282717,0.1813571751117706,-0.5016630291938782,0.2000704705715179
1749037962.946443,2.988293294176441,-0.6035201063095549,-2.403058225576746,-2.6342217934023604,-0.49495309812777416,-0.6563424927118628,-0.04991933303246745,-0.011337606387201262,0.015690204272054573,-0.05841642651450664,-0.009472006440708123,0.05035505057435295,-0.3354431986808777,-0.2650716602802276,1.3446309566497805,0.1580779701471328,-0.4814404249191284,0.2036512196063995
1749037962.946481,2.9881974645239215,-0.6035394580355683,-2.403028575067989,-2.6343400735554994,-0.4949746512613209,-0.6562413905688108,-0.05101171823407896,-0.011273291918530692,0.01604334006913197,-0.05967795813533132,-0.009352644646386151,0.05107631816082974,-0.3230568766593933,-0.2910540401935577,1.3516801595687866,0.1721093654632568,-0.4954313039779663,0.1884962916374206
1749037962.946518,2.988099730185745,-0.6035587920003472,-2.402998156144707,-2.6344614492072402,-0.49499547821023043,-0.6561389557250304,-0.052138077766527124,-0.011244761393965226,0.016431814579066107,-0.06096254585102984,-0.0092292940245828,0.051840997464814305,-0.331206202507019,-0.2719476521015167,1.3617101907730105,0.1709848940372467,-0.4803051352500915,0.206155851483345
1749037962.9465551,2.9879999812348563,-0.6035783531198236,-2.402966852557764,-2.634585986015419,-0.4950154959779105,-0.6560350804464095,-0.053298572230351095,-0.011259417873468023,0.0168542840553226,-0.06225508097638007,-0.009103577569719884,0.05265545022514929,-0.3354969024658203,-0.2815006077289581,1.3550409078598022,0.1805285513401031,-0.4966723322868347,0.2196771949529647
1749037962.9465966,2.987898072677641,-0.6035983889972264,-2.4029345481876745,-2.6347136753732054,-0.49503467589725036,-0.6559296327189041,-0.05449104811747418,-0.011321896078598293,0.01730828990377046,-0.06353812429691352,-0.008978007520952793,0.053522344343684664,-0.3621262907981872,-0.2684343755245209,1.3489031791687012,0.165454477071762,-0.4704190492630005,0.2094610035419464
1749037962.946634,2.98779383321691,-0.6036191277893034,-2.402901136180468,-2.6348444319871334,-0.4950530445376833,-0.6558224658239891,-0.05571183166509172,-0.011434081606168073,0.017790416261720576,-0.0647943207228986,-0.008856577310887515,0.054440348165979424,-0.3311370611190796,-0.3359911441802978,1.337144136428833,0.1725202798843383,-0.4929878115653991,0.2124878019094467
1749037962.9466708,2.9876870772229958,-0.6036407593891409,-2.4028665279637273,-2.6349781007382935,-0.49507068220454875,-0.6557134296632732,-0.05695654638352686,-0.01159540785844768,0.018296517626754095,-0.06600881051108343,-0.008745185195137485,0.055404215545669905,-0.3470450937747955,-0.2945818305015564,1.356436252593994,0.1855104118585586,-0.4910063743591308,0.2282414585351944
1749037962.946707,2.987577618434404,-0.6036634218839942,-2.402830660323682,-2.635114472415304,-0.4950877193029864,-0.6556023827913218,-0.05822083721034135,-0.011803370883997818,0.018821981674354518,-0.06717134779015208,-0.008651759796959542,0.056405300241290306,-0.3446060419082641,-0.3285619914531708,1.3691517114639282,0.1705142259597778,-0.4821951389312744,0.2151561677455902
1749037962.9467435,2.9874652834579583,-0.6036871943406432,-2.402793499077585,-2.635253306694803,-0.4951043300753482,-0.6554892042042119,-0.05950091949629461,-0.01205416417664406,0.019362001430772373,-0.06827787115306261,-0.008585993226826351,0.057432476229765904,-0.354703277349472,-0.31633260846138,1.3608111143112185,0.177280768752098,-0.4737508893013,0.2347131371498108
1749037962.9467804,2.9873499231701266,-0.6037120959129687,-2.4027550387517143,-2.6353943595999385,-0.4951207231421943,-0.6553738039171161,-0.060793917640584144,-0.012343323475410966,0.01991184000723918,-0.06933134092260376,-0.008558649072131564,0.058473379724638896,-0.3580654561519623,-0.3330234885215759,1.3564684391021729,0.1657130718231201,-0.4713256955146789,0.2061032950878143
1749037962.946817,2.987231420655993,-0.6037380905539661,-2.4027152986355786,-2.6355374117909194,-0.4951371288500709,-0.6552561311839817,-0.06209800329756231,-0.012666287377943139,0.020467071945544865,-0.07034175472296374,-0.008580496466099602,0.05951583595000561,-0.3544851839542389,-0.3163805902004242,1.3637882471084597,0.1988830864429474,-0.4850526452064514,0.2166281342506408
1749037962.9468536,2.987109695173348,-0.6037650963525979,-2.4026743162894775,-2.6356822937915436,-0.49515378417643247,-0.6551361790135833,-0.0634123735826464,-0.013018809774053574,0.02102378158747538,-0.07132536192735515,-0.008661008679441263,0.06054929939939742,-0.3882018327713012,-0.349725991487503,1.3678685426712036,0.1959163546562194,-0.4801192879676819,0.2242254167795181
1749037962.9468896,2.9869847022999982,-0.6037929983315837,-2.4026321399398993,-2.6358289048762615,-0.49517091647957384,-0.6550139836449613,-0.06473712043930673,-0.013397191460008622,0.021578697979384363,-0.07230320116738909,-0.008807027710349614,0.06156612858436988,-0.3610414564609527,-0.3408257067203522,1.3643465042114258,0.1928876787424087,-0.4953591227531433,0.187598705291748
1749037962.9469256,2.986856430585574,-0.6038216632041054,-2.4025888212105366,-2.6359772237244115,-0.4951887276074388,-0.6548896180810192,-0.06607303760920163,-0.01379832737488567,0.02212925086847388,-0.07329917225437105,-0.009021614865681841,0.06256253482127033,-0.3744523525238037,-0.3386773467063904,1.3624554872512815,0.1681584566831588,-0.4821842312812805,0.2017177045345306
1749037962.946962,2.9867248949879235,-0.6038509543743515,-2.4025444093383777,-2.6361273106773835,-0.4952073799135628,-0.6547631797306886,-0.06742139786636243,-0.014219593378857018,0.022673543711682936,-0.07433791910669342,-0.00930327944410782,0.06353908344058398,-0.3294526934623718,-0.3506484627723694,1.354750394821167,0.1474207043647766,-0.4826862215995788,0.2055391669273376
1749037962.9469976,2.9865901276553437,-0.603880745779653,-2.4024989474884078,-2.6362793029662335,-0.49522698574189483,-0.6546347734722666,-0.06878371618706755,-0.014658619429405394,0.02321025329895534,-0.07544282834261619,-0.009645716750139444,0.06450068225052026,-0.4073933660984039,-0.330626368522644,1.35490620136261,0.1598075181245803,-0.4852703809738159,0.2129683941602707
1749037962.947034,2.986452167217173,-0.6039109339012132,-2.402452471129472,-2.636433405130353,-0.4952476018867272,-0.6545044925524846,-0.0701615032271792,-0.01511300897245973,0.023738473014257355,-0.07663440873847642,-0.010038109768525334,0.06545606623138334,-0.3736084699630737,-0.3649082779884338,1.320337176322937,0.1584745049476623,-0.4856880307197571,0.2240467667579651
1749037962.9470708,2.9863110481714736,-0.6039414477743922,-2.4024050078770744,-2.636589876807771,-0.4952692300999614,-0.6543724002124791,-0.07155601428337831,-0.01558006469143488,0.024257517410746082,-0.07792919432945132,-0.010465969732184298,0.0664168667890744,-0.3525459468364715,-0.3684061169624328,1.341888189315796,0.1814194768667221,-0.4880805015563965,0.2206227034330368
1749037962.947108,2.9861667919340475,-0.6039722566493413,-2.402356577995702,-2.636749019296113,-0.49529182375254976,-0.6542385146447153,-0.07296800792615774,-0.016056570172649613,0.024766713476259795,-0.07933914425388994,-0.010912421071417088,0.06739640832142735,-0.4119462966918945,-0.3640708923339844,1.3576545715332031,0.1799531579017639,-0.4964727163314819,0.2332148253917694
1749037962.9473846,2.9860194008551937,-0.6040033743399302,-2.402307194981419,-2.63691116123962,-0.49531529956300246,-0.6541027991142375,-0.07439753928688911,-0.016538660309259406,0.025265226201834915,-0.08087137418251089,-0.011359784979544084,0.06840838083137776,-0.3851539492607116,-0.3730719983577728,1.3714044094085691,0.1874539703130722,-0.4838645458221435,0.1903822124004364
1749037962.9493508,2.9858688562238975,-0.6040348588890158,-2.4022568661636288,-2.6370766431100523,-0.49533955232708254,-0.6539651582236805,-0.07584382311117605,-0.017021797587393892,0.025751983421928488,-0.0825280144230895,-0.011791286855999932,0.06946550548173701,-0.4011721611022949,-0.3387265503406524,1.3547651767730713,0.1672586798667907,-0.478285551071167,0.1953640282154083
1749037962.9942975,2.9857151207980004,-0.6040668064002506,-2.4022055937679982,-2.6372458001643437,-0.49536447006482315,-0.65382544054774,-0.07730520317338307,-0.017500863873286646,0.026225748668652033,-0.08430605225064819,-0.012192705248152719,0.0705782816264275,-0.3802773356437683,-0.3764429688453674,1.3386809825897217,0.1596807837486267,-0.4695505499839782,0.2100348621606826
1749037962.9943438,2.9855581455878166,-0.6040993388117829,-2.402153377064661,-2.6374189440572575,-0.49538994710141915,-0.6536834472510309,-0.0787792463550271,-0.017970378027658582,0.026685340358039055,-0.0861971242633779,-0.01255379121908678,0.07175391450368632,-0.4105837345123291,-0.3612732887268066,1.340888738632202,0.1545467376708984,-0.4624853134155273,0.2520243227481842
1749037962.994384,2.9853978797658547,-0.6041325868259216,-2.4021002159493703,-2.637596343774042,-0.4954158934444733,-0.6535389459173977,-0.08026294662115997,-0.01842484800140242,0.027129942602330495,-0.08818731863208061,-0.012869313670242357,0.07299556081331454,-0.3681292533874511,-0.3640583753585815,1.3532317876815796,0.1743453741073608,-0.4568916857242584,0.228474348783493
1749037962.9944232,2.9852342820606212,-0.604166670709418,-2.402046115722386,-2.637778206838898,-0.4954422402190714,-0.653391688641351,-0.08175299602505216,-0.01885924858615951,0.027559427154734393,-0.0902571087302339,-0.013139621339567505,0.07430203832204661,-0.4056604206562042,-0.3708809614181518,1.3385711908340454,0.1875320971012115,-0.4684481918811798,0.2162085920572281
1749037962.9944606,2.9850673318686667,-0.6042016825881218,-2.4019910922854315,-2.6379646619879074,-0.4954689422126248,-0.6532414332375966,-0.08324606797801268,-0.01926958093005676,0.02797461137411394,-0.09238158059073194,-0.013370648261960731,0.07566808417878575,-0.3592709302902221,-0.3489081263542175,1.3397231101989746,0.1480314582586288,-0.4601378142833709,0.2377315163612365
1749037962.9944985,2.984897038444459,-0.6042376737052927,-2.4019351767394697,-2.6381557447153203,-0.49549597902617415,-0.6530879660279287,-0.08473905877021438,-0.019653432464677788,0.028377400755634354,-0.09453113916403637,-0.013573325817942291,0.07708513666694401,-0.4133535623550415,-0.3848934173583984,1.3388546705245972,0.1471682786941528,-0.4560289680957794,0.2422291487455368
1749037962.9945412,2.984723446891427,-0.6042746489974091,-2.4018784184480415,-2.6383513871949624,-0.4955233557668742,-0.6529311241059292,-0.08622924517076076,-0.020010436584212785,0.028770793991271096,-0.09667285991130638,-0.013762412173371178,0.07854251339561329,-0.416046142578125,-0.3555033504962921,1.3319982290267944,0.1646861284971237,-0.483702689409256,0.2266977429389953
1749037962.9945812,2.9845466403441576,-0.6043125697764272,-2.401820885846547,-2.6385514140502866,-0.4955511032318361,-0.6527708144155515,-0.08771434315920178,-0.020342539915323036,0.02915875605870585,-0.09877256712442208,-0.013954819345226922,0.0800287976013076,-0.4239720702171325,-0.364649087190628,1.3309966325759888,0.1491157561540603,-0.4590382874011993,0.2429250180721283
1749037962.9946492,2.9843667385635957,-0.6043513637214556,-2.4017626644677037,-2.6387555454088374,-0.4955792768322677,-0.6526070266207624,-0.08919248780897612,-0.02065401536980544,0.029545986139714524,-0.10079756892600197,-0.014167601027671402,0.08153321851556752,-0.4039781987667084,-0.3844377696514129,1.365601658821106,0.1648594439029693,-0.4598014652729034,0.2340287864208221
1749037962.9946918,2.9841838937656866,-0.6043909399972963,-2.401703851835806,-2.638963408550477,-0.4956079533124194,-0.6524398369143295,-0.09066217766077889,-0.020951197962216308,0.029937619892693845,-0.10271979572676058,-0.014415836758541151,0.08304680881540155,-0.4214024543762207,-0.362834095954895,1.3468797206878662,0.1951346397399902,-0.4779339134693146,0.2260619401931762
1749037962.99473,2.9839982844842874,-0.6044312063435762,-2.4016445491431315,-2.639174558943464,-0.4956372245845291,-0.6522694008869679,-0.09212222944100824,-0.021241957848703027,0.030338907032954512,-0.10451892964661909,-0.01471069011352002,0.08456314160865508,-0.4174298048019409,-0.389699786901474,1.3456960916519165,0.2027111053466797,-0.4773830473423004,0.2122398912906646
1749037962.9947674,2.983810107628311,-0.6044720846732412,-2.4015848499822474,-2.6393885103497947,-0.49566718875937654,-0.652095935233886,-0.0935717747464012,-0.021534959244253877,0.030754894108871986,-0.10618503148430626,-0.015057920313158068,0.08607850482233825,-0.3964986801147461,-0.3688866198062897,1.371423840522766,0.1966616362333297,-0.4858712255954742,0.2348109036684036
1749037962.9948044,2.9836195681035016,-0.6045135222494548,-2.401524826886677,-2.6396047721389078,-0.49569793952798413,-0.6519196899516707,-0.09501030371654007,-0.021838784548997122,0.031190125459488852,-0.10772019669460357,-0.015457079212358497,0.08759147657325517,-0.3769476413726806,-0.3977321982383728,1.3594274520874023,0.225196972489357,-0.4934914410114288,0.2346039116382599
1749037962.994841,2.9834268650617073,-0.6045554967937262,-2.4014645170223803,-2.6398228905068013,-0.4957295558743778,-0.6517409143582323,-0.09643772803466293,-0.022161025366139932,0.03164836380163617,-0.1091388912191238,-0.015901526197727608,0.08910200483084467,-0.4343458116054535,-0.4103490114212036,1.3587050437927246,0.2351301908493042,-0.4916756153106689,0.2323622852563858
1749037962.994877,2.983232174383881,-0.6045980155309382,-2.401403908882846,-2.6400424895229064,-0.49576209417112055,-0.651559821459288,-0.09785441116342464,-0.022507450153230774,0.032132329185971004,-0.11046680179750663,-0.016379259925258443,0.0906102096919246,-0.3819843530654907,-0.4056325852870941,1.357923984527588,0.2172518968582153,-0.4950571656227112,0.2364711314439773
1749037962.9949143,2.983035628291534,-0.6046411096500889,-2.401342932012127,-2.640263308041746,-0.49579558403880375,-0.6513765555993808,-0.09926111219379845,-0.02288134996948117,0.032643456192525816,-0.11173825722519924,-0.016874432991125756,0.09211516206378308,-0.4027077555656433,-0.4056018888950348,1.3482019901275637,0.2119295299053192,-0.4922716617584228,0.2097883373498916
1749037962.994951,2.9828372944637147,-0.6046848264900019,-2.4012814515983165,-2.640485229298562,-0.4958300283579999,-0.6511911678501902,-0.10065881410360884,-0.02328314010672765,0.03318167250634528,-0.11299250495947075,-0.017369312867649707,0.09361385399610549,-0.4173208475112915,-0.4211228489875793,1.3669620752334597,0.2372332662343979,-0.495602399110794,0.2392475605010986
1749037962.994987,2.9826371580542865,-0.6047292217567438,-2.401219269453871,-2.640708300968161,-0.4958654069382023,-0.6510036023825915,-0.10204844613974197,-0.023710260429314015,0.033745211853638254,-0.11426931617530414,-0.01784639259771305,0.09510051877393143,-0.3673195540904999,-0.4125009179115295,1.3656185865402222,0.1862074583768844,-0.4729258716106415,0.2552064061164856
1749037962.9950233,2.9824351102485807,-0.6047743534058181,-2.401156132509527,-2.6409327440682535,-0.4959016827475892,-0.6508136955147742,-0.10343054513363711,-0.024157380193803098,0.034330490956934044,-0.11560450815812785,-0.018290342592357282,0.09656642156978257,-0.4065622091293335,-0.4094107151031494,1.3583205938339231,0.1869861632585525,-0.4717322587966919,0.2530763447284698
1749037962.9950602,2.9822309465483174,-0.6048202778816814,-2.4010917493090833,-2.641158949083446,-0.4959388092688597,-0.6506211876701985,-0.1048049205709744,-0.024616882422427523,0.03493209405215909,-0.1170260047852512,-0.01868953275360145,0.09800020647735157,-0.3807798624038696,-0.4383492767810821,1.3643276691436768,0.1717297434806823,-0.4678326845169067,0.2587830722332001
1749037962.9950993,2.9820243769736026,-0.6048670485207681,-2.401025813934415,-2.6413874574805107,-0.49597673744128323,-0.6504257474180235,-0.10617039660092455,-0.0250795784122079,0.03554290775276218,-0.11855099228131151,-0.019036937413184987,0.099388817396828,-0.4347842335700989,-0.4173198640346527,1.3636715412139893,0.1789361238479614,-0.4724335372447967,0.257357507944107
1749037962.9951365,2.981815048914311,-0.6049147151852153,-2.4009580354821702,-2.6416189272308155,-0.4960154207873486,-0.6502270060211258,-0.1075247098782931,-0.025535580303479626,0.03615443106781632,-0.12018455742438199,-0.01933035012821373,0.10071891158024937,-0.4263832569122314,-0.3883434534072876,1.3416329622268677,0.177743598818779,-0.4815825819969177,0.2517184317111969
1749037962.9954128,2.9816025816212606,-0.6049633237307261,-2.40088817008779,-2.641854082555394,-0.4960548177093667,-0.6500246001396758,-0.10886464427584093,-0.02597524087889253,0.03675726041401423,-0.1219199438201132,-0.019571959060973882,0.10197859573335981,-0.4317374229431152,-0.4258495271205902,1.3567272424697876,0.1744917780160904,-0.4730651378631592,0.2306042909622192
1749037962.9974046,2.981386609539312,-0.6050129139882958,-2.4008160518348234,-2.642093650652717,-0.4960948905676322,-0.6498182192572495,-0.11018646751532608,-0.02639006344756985,0.03734173075484286,-0.1237402950465103,-0.01976743916286056,0.10315926724424694,-0.4460042715072632,-0.4247877895832062,1.358152151107788,0.1847228109836578,-0.4883394837379455,0.2431554347276687
1749037963.0423195,2.981166829881957,-0.6050635156299771,-2.4007416185932087,-2.6423382911929125,-0.49613560193548184,-0.6496076528878834,-0.11148668708662789,-0.026773496061915536,0.03789868085289272,-0.12562153992046174,-0.019924781088314636,0.10425733748625333,-0.408014565706253,-0.4372234940528869,1.3587772846221924,0.1708818227052688,-0.4868322312831878,0.2425370812416076
1749037963.0423667,2.9809430477696353,-0.6051151423752545,-2.4006649286984523,-2.6425885275543544,-0.4961769091524476,-0.6493928307430885,-0.11276307055511393,-0.027121549295901295,0.03842028785003088,-0.12753595253063169,-0.02005308873619923,0.1052756330028328,-0.408014565706253,-0.4372234940528869,1.3587772846221924,0.1708818227052688,-0.4868322312831878,0.2425370812416076
1749037963.0424068,2.980715210117472,-0.6051677861711218,-2.400586164645321,-2.6428446914555073,-0.496218758778762,-0.6491738474479657,-0.11401580148717064,-0.027433203963859176,0.038900878967179,-0.1294558901408891,-0.02016154209687716,0.10622430034122277,-0.4365169405937195,-0.4235857725143432,1.3436909914016724,0.1602813005447387,-0.4680496454238891,0.2557779848575592
1749037963.042446,2.980483418945314,-0.6052214137690102,-2.400505621323726,-2.6431068928444525,-0.4962610827691787,-0.6489509638046596,-0.11524858016463534,-0.027710593538561024,0.03933759596691855,-0.13135724816134098,-0.020258653984183347,0.10712107592252851,-0.448182463645935,-0.4435108304023742,1.3364558219909668,0.1631744503974914,-0.4875519275665283,0.278805136680603
1749037963.0424838,2.9802479181144967,-0.6052759679223186,-2.400423679152148,-2.6433750223832297,-0.49630379801550045,-0.648724580787645,-0.11646942979079895,-0.027958953742351154,0.0397307868477543,-0.13322223319961735,-0.020351867792725676,0.10799082273129804,-0.4264601469039917,-0.4495712518692016,1.363532304763794,0.1551317274570465,-0.4858216047286987,0.2381086349487304
1749037963.0425217,2.980009054481958,-0.6053313741610684,-2.400340765942914,-2.643648785160632,-0.4963468101273406,-0.6484951897251406,-0.11769094900612025,-0.0281863355326225,0.040084036470859466,-0.13504112540656438,-0.020447467955959024,0.10886428754392191,-0.3696163892745971,-0.458236813545227,1.3554491996765137,0.1922579258680343,-0.4792042970657348,0.2397574782371521
1749037963.042559,2.979767221543713,-0.6053875524624114,-2.400257313763942,-2.6439277558127694,-0.49639002111341723,-0.6482633086378659,-0.11892979228788753,-0.028403082979280216,0.04040380974926112,-0.13681280460479955,-0.02055071957971915,0.10977610743039644,-0.3812573850154876,-0.4561442732810974,1.3467729091644287,0.1522424221038818,-0.4955915808677673,0.2624872922897339
1749037963.042596,2.9795227971983245,-0.6054444318417442,-2.4001737173725477,-2.64421144151675,-0.4964333395710868,-0.6480294169093082,-0.12020528229488465,-0.028621085504116753,0.04069874478079222,-0.1385439860599811,-0.020666126314070415,0.11076219264062877,-0.3363388776779175,-0.4496132135391235,1.3237792253494265,0.1678215861320495,-0.5076274871826172,0.2687683701515198
1749037963.042633,2.979276086898997,-0.6055019650464165,-2.400090299398849,-2.6444993408949213,-0.4964766913901602,-0.6477938984286152,-0.12153725074692419,-0.02885282817563276,0.040978685795563206,-0.14024734134659456,-0.020797695058376864,0.11185671573806642,-0.4033124446868896,-0.4702005982398987,1.3400615453720093,0.1674203723669052,-0.4955424070358276,0.2444974780082702
1749037963.04267,2.9790272810207377,-0.6055601400385637,-2.4000072854758447,-2.6447909910899536,-0.49652002880207546,-0.6475569997134886,-0.12294342119253111,-0.02911028962439183,0.04125359163822248,-0.14193889835931628,-0.020949113049320144,0.11308901745281962,-0.4178045392036438,-0.4710042476654053,1.358147382736206,0.1692421734333038,-0.4922541081905365,0.2568662762641907
1749037963.0427065,2.9787764320550805,-0.6056189851182662,-2.3999247906840786,-2.6450859996071387,-0.4965633359664798,-0.6473188062825166,-0.12443681446965732,-0.029403772398197723,0.04153249555384486,-0.1436352400442161,-0.021123768575590812,0.11448077973124716,-0.4227226078510284,-0.4746306538581848,1.3551223278045654,0.1522233933210373,-0.5045133829116821,0.2885358333587646
1749037963.0427425,2.9785234535026874,-0.6056785658261653,-2.3998428171663084,-2.645384060959655,-0.4966066302660271,-0.6470792380172896,-0.12602369973883404,-0.029740783814159472,0.04182270373673504,-0.14535101451959143,-0.02132458601517821,0.11604380710153335,-0.390518307685852,-0.4923218786716461,1.3562021255493164,0.161009281873703,-0.5036370158195496,0.2646227478981018
1749037963.042778,2.978268138448932,-0.6057389739302413,-2.399761261592999,-2.645684960573819,-0.49664995968747805,-0.6468380621497323,-0.12770250322217055,-0.030125104587596135,0.04212937880372387,-0.14709714530275167,-0.021553709581866847,0.11777869190461793,-0.4516927599906921,-0.4863699376583099,1.3567638397216797,0.1618521958589553,-0.5085625052452087,0.2392134070396423
1749037963.0428152,2.9780101927031013,-0.6058003108131338,-2.399679930385829,-2.645988569801174,-0.496693397493341,-0.6465949208153392,-0.1294638706421749,-0.030556180647236076,0.04245556644319896,-0.14887993782988748,-0.02181214762088086,0.11967451858084598,-0.4753516316413879,-0.4995791614055633,1.3800033330917358,0.1203874349594116,-0.5095995664596558,0.2884024977684021
1749037963.042851,2.9777492757794244,-0.6058626685929498,-2.3995985602320493,-2.6462948362071446,-0.4967370356173289,-0.6463493689706932,-0.13129183656736193,-0.03102894795242308,0.04280262213342275,-0.15070107346362174,-0.022099542678956235,0.12170961396896836,-0.4670086503028869,-0.4971360862255096,1.368791103363037,0.1379013210535049,-0.5219975113868713,0.2860817909240722
1749037963.0428872,2.977485042955603,-0.6059261123603176,-2.399516841371965,-2.64660377269275,-0.49678097808788546,-0.6461009179334786,-0.13316583790632308,-0.0315341525568726,0.043170910773406984,-0.15255830957259778,-0.022414222558860743,0.12385321549092558,-0.4443261921405792,-0.5182304978370667,1.3702677488327026,0.1506672948598861,-0.5183930993080139,0.2734613120555877
1749037963.0429237,2.97721718282489,-0.6059906665023701,-2.399434441359322,-2.6469154477896333,-0.4968253355618534,-0.6458490798771018,-0.13506315691153498,-0.03205916544864496,0.04356060127519332,-0.1544465933816818,-0.022753602780139437,0.12606782843939396,-0.4381025433540344,-0.4974450767040252,1.3701422214508057,0.1398339569568634,-0.5255730748176575,0.2787319719791412
1749037963.0429604,2.9769454466764738,-0.606056307508878,-2.399351027413014,-2.6472299780092947,-0.4968702217644347,-0.6455934092425663,-0.13696133939167635,-0.03258922381011699,0.043972369063363194,-0.15635926424344293,-0.023114878241064563,0.12831197789698254,-0.4299288392066955,-0.4774665534496307,1.3863248825073242,0.1746282279491424,-0.5163931250572205,0.2542000114917755
1749037963.0429966,2.976669668052668,-0.6061229648157749,-2.3992662859797607,-2.647547521740793,-0.4969157521277965,-0.6453335379959935,-0.1388402264073557,-0.033108967734538315,0.04440785492945394,-0.15828906004062493,-0.023495815208467018,0.13054303738603923,-0.4721267223358154,-0.4803369045257568,1.3966585397720337,0.1766243875026703,-0.5010963678359985,0.2367555201053619
1749037963.0430331,2.9763897723250716,-0.6061905299020635,-2.3991799386462622,-2.647868273220926,-0.49696204412265566,-0.6450692027422061,-0.14068340896487344,-0.03360409417519223,0.044869798623387386,-0.16022873749126956,-0.023895388760840793,0.13271985218524646,-0.4568873643875122,-0.4935744106769562,1.4001727104187012,0.1543298065662384,-0.5034831762313843,0.2540195286273956
1749037963.043069,2.976105776893708,-0.6062588720865725,-2.3990917540793717,-2.6481924548286035,-0.49700921800105974,-0.6448002627790155,-0.1424790777567045,-0.034062926327457894,0.04536184672146168,-0.16217124062726035,-0.024314035599547083,0.13480497516629208,-0.4390447735786438,-0.467147946357727,1.4210021495819092,0.1621702760457992,-0.5151752233505249,0.2571150660514831
1749037963.0431054,2.9758177828582952,-0.6063278578606571,-2.399001556149031,-2.6485203064104437,-0.49705739643514774,-0.6445267090200094,-0.1442203406401097,-0.03447770082994676,0.04588810222756474,-0.164109482315508,-0.024753400347323595,0.1367664724991759,-0.4353810548782348,-0.4648868441581726,1.4175357818603516,0.1622168719768524,-0.5315653085708618,0.250151664018631
1749037963.0433507,2.9755259590653838,-0.6063973699105943,-2.3989092286354703,-2.6488520712720525,-0.4971067019412728,-0.644248664045644,-0.14590511138668524,-0.03484540686684219,0.04645252244365441,-0.1660359091588862,-0.0252156043954525,0.13857938061283945,-0.4296419620513916,-0.4191954135894775,1.4160484075546265,0.1556330919265747,-0.529733419418335,0.236568808555603
1749037963.0453317,2.9752305196065594,-0.6064673225315966,-2.3988147169013363,-2.649187979433443,-0.4971572516268202,-0.6439663734132606,-0.14753565397330448,-0.0351680692794873,0.047058278273919035,-0.16794207679131204,-0.025702206179240735,0.14022694715305753,-0.4515475034713745,-0.4431560635566711,1.4285250902175903,0.1252419650554657,-0.5545032024383545,0.2719556093215942
1749037963.0863128,2.9749316963996897,-0.6065376715005666,-2.3987180267485173,-2.6495282293910587,-0.49720914940183497,-0.6436801882414276,-0.14911783539326615,-0.0354524499351064,0.04770717027549288,-0.169818463204513,-0.026213107410257286,0.14170174964615992,-0.4419144988059997,-0.4966982007026672,1.437035322189331,0.1330735981464386,-0.5692604780197144,0.2512468695640564
1749037963.0863626,2.9746297094289935,-0.6066084179238244,-2.3986192205045196,-2.6498729699625647,-0.4972624764328878,-0.6433905394287659,-0.15066013383787968,-0.03570923491161168,0.048399166565275396,-0.1716546939351249,-0.026745671844608767,0.14300668049078108,-0.4252273738384247,-0.5150725245475769,1.425328254699707,0.1661982238292694,-0.5581519603729248,0.2461505532264709
1749037963.086408,2.9743247381788236,-0.6066796065789232,-2.3985184102818873,-2.650222284043881,-0.4973172813455719,-0.6430979046685682,-0.15217247959978303,-0.035951849712170414,0.049132091990834,-0.17344025515002545,-0.027294266119873824,0.14415565350771084,-0.4281003475189209,-0.4610778391361236,1.436249017715454,0.1142439767718315,-0.5619879961013794,0.2452526241540908
1749037963.086459,2.974016898291938,-0.6067513196804684,-2.39841574845507,-2.650576176304332,-0.4973735722456603,-0.6428027703688197,-0.15366505429685365,-0.036195071515287836,0.04990146440517158,-0.17516565174128804,-0.027850330277072597,0.1451737686165681,-0.4435416460037231,-0.4748149812221527,1.414332628250122,0.1459201872348785,-0.5445157885551453,0.2438295781612396
1749037963.086503,2.9737062271935595,-0.6068236669991955,-2.3983114157634944,-2.6509345667933286,-0.4974313126200381,-0.6425055914465374,-0.15514720568181714,-0.036453585513090664,0.0507004613148456,-0.17682385550371105,-0.02840297429507777,0.14609661772066262,-0.4645597338676452,-0.4596603512763977,1.4513933658599854,0.1368341594934463,-0.5541979074478149,0.2158006876707077
1749037963.086542,2.973392681217748,-0.6068967732254671,-2.398205607914575,-2.651297292031466,-0.4974904224385966,-0.6422067526485001,-0.15662662457143217,-0.03674059154798526,0.051520022866533774,-0.17841180973594012,-0.028940006763552226,0.14696846619769627,-0.432185411453247,-0.478335440158844,1.4526240825653076,0.1452136933803558,-0.552029550075531,0.2146687507629394
1749037963.0865867,2.9730761447814262,-0.6069707636919578,-2.3980985218597795,-2.651664114439488,-0.49755078459049373,-0.6419065354650682,-0.1581088768605156,-0.037066542985580854,0.05234913737784371,-0.17993173145823246,-0.029449243893984425,0.1478392093574055,-0.4324550628662109,-0.5154297947883606,1.4571716785430908,0.1361631155014038,-0.5517308712005615,0.2051444798707962
1749037963.0866294,2.9727564499133896,-0.6070457499896176,-2.3979903429112728,-2.652034739948931,-0.49761225568111445,-0.6416050946522773,-0.15959730495253321,-0.037438106025010735,0.05317537179319414,-0.1813919810338899,-0.02991991623888163,0.1487602544162339,-0.4178672432899475,-0.5093923211097717,1.4519281387329102,0.1351992487907409,-0.5572086572647095,0.2291738837957382
1749037963.0866687,2.9724334027154518,-0.6071218172627862,-2.39788123361856,-2.652408842444626,-0.4976746795341588,-0.6413024475978849,-0.161093229855708,-0.037857445089103395,0.0539856779998316,-0.18280732741698189,-0.030343980206423607,0.14977975265996865,-0.4478823542594909,-0.4724079966545105,1.4562649726867676,0.142444908618927,-0.5517508387565613,0.2530811131000519
1749037963.086712,2.9721068125237857,-0.6071990148312807,-2.3977713250153663,-2.6527860926055538,-0.49773790147197033,-0.64099847811785,-0.16259632144536582,-0.038321933036850775,0.054767441783402745,-0.1841985020888524,-0.03071715167433388,0.15093781868993014,-0.4315577149391174,-0.5048861503601074,1.443950653076172,0.1421131640672683,-0.5548532009124756,0.2656775712966919
1749037963.0867553,2.9717765195381656,-0.6072773513723226,-2.397660710588538,-2.653166188018092,-0.4978017814615369,-0.6406929539511201,-0.16410498881431557,-0.03882434041145893,0.05550967338985344,-0.18559100367185843,-0.031039511640887724,0.15226245239167274,-0.4588804543018341,-0.5266464948654175,1.4279837608337402,0.1199273690581321,-0.5360580086708069,0.2598555386066437
1749037963.0867963,2.971442417231618,-0.6073567953493986,-2.3975494430904383,-2.653548881104894,-0.49786620448057045,-0.6403855548350798,-0.16561668815662517,-0.03935349645606395,0.05620418413251673,-0.18701319687776624,-0.0313155865527332,0.15376679683784925,-0.4750596880912781,-0.5029461979866028,1.4332362413406372,0.1493589580059051,-0.5461423993110657,0.2945552766323089
1749037963.0868354,2.971104466788612,-0.6074372806835033,-2.3974375341345384,-2.6539340012924146,-0.49793108695482835,-0.6400759063555416,-0.16712812493658347,-0.03989535952647352,0.05684656098034767,-0.18849384501409552,-0.031553872668284126,0.15544814321479147,-0.4456337690353393,-0.501469075679779,1.4213265180587769,0.1144173592329025,-0.5492372512817383,0.2781392335891723
1749037963.0868726,2.9707627020503327,-0.6075187168323293,-2.397324956472826,-2.654321468147604,-0.4979963787349052,-0.6397636142828498,-0.16863538897237104,-0.040434388561751175,0.05743675210945936,-0.1900593148882975,-0.03176584891622405,0.15728878778262123,-0.4652964770793915,-0.4953872561454773,1.4158819913864136,0.1255173832178115,-0.540075957775116,0.2674587070941925
1749037963.0869138,2.970417224902483,-0.6076010016146746,-2.3972116489003867,-2.6547112933988224,-0.49806206067383807,-0.6394482948965051,-0.17013407802963015,-0.04095506662349775,0.05797912047899617,-0.19173078111803182,-0.03196459911544796,0.1592585263188361,-0.4714231789112091,-0.508827269077301,1.4145622253417969,0.1285106986761093,-0.5526626706123352,0.2814133167266845
1749037963.0869513,2.9700681926003605,-0.6076840345095764,-2.3970975236679397,-2.6551035717734752,-0.498128138382113,-0.6391295985859231,-0.17161945211593355,-0.04144339881886958,0.05848190649949737,-0.19352181556672304,-0.032163228264742466,0.16131830881745227,-0.4472591280937195,-0.4596577882766723,1.438831448554993,0.1101920083165168,-0.5417038202285767,0.2335233837366104
1749037963.0869875,2.969715799839368,-0.6077677280432879,-2.3969824759997387,-2.6554984627113156,-0.49819463323583485,-0.6388072261962758,-0.17308664390418793,-0.0418882023790979,0.05895614687744486,-0.19543675575449854,-0.032373292841397144,0.1634244273990948,-0.4295796453952789,-0.4709404706954956,1.437387466430664,0.0913158655166626,-0.535366415977478,0.2405097484588623
1749037963.0870247,2.9693602590166055,-0.6078520154128236,-2.3968663948941873,-2.6558961665088057,-0.49826157221794676,-0.6384809393808755,-0.1745309372499688,-0.04228203381679052,0.059414198913049235,-0.1974701786135585,-0.03260346451415376,0.16553260082218274,-0.425625741481781,-0.4992085695266723,1.417624592781067,0.072979912161827,-0.5517610311508179,0.2361764907836914
1749037963.0870898,2.969001781917627,-0.6079368534958339,-2.396749174033124,-2.656296899112101,-0.49832897854112945,-0.6381505671413246,-0.17594810576363418,-0.04262165480250861,0.05986809529093038,-0.19960764455138602,-0.03285861307155237,0.1676014436307077,-0.4228885471820831,-0.4566906988620758,1.4435206651687622,0.0660333037376403,-0.5649921894073486,0.210872009396553
1749037963.0871367,2.9686405651204235,-0.6080222214242056,-2.3966307215752893,-2.6567008697290024,-0.49839686500536734,-0.6378160107678397,-0.17733477917467702,-0.042908008155180435,0.06032799256771213,-0.20182763453433022,-0.03313943263909276,0.1695950297985079,-0.4251919388771057,-0.4476705193519592,1.4752740859985352,0.1006765589118003,-0.5334441065788269,0.2478883415460586
1749037963.087418,2.968276780060594,-0.6081081156399469,-2.3965109679402965,-2.6571082647043474,-0.4984652314827701,-0.6374772485777381,-0.17868879749210326,-0.043145735502769525,0.0608009728745492,-0.20410433904164468,-0.033442650585399906,0.1714845173874872,-0.4664907455444336,-0.461831271648407,1.4596192836761477,0.0709865763783454,-0.5426392555236816,0.2484988570213318
1749037963.0894127,2.9679105675042035,-0.6081945427793279,-2.3963898711385174,-2.6575192396385168,-0.49853406679502205,-0.6371343402253369,-0.1800095306808216,-0.04334231420748967,0.061290404430211796,-0.20641076212872755,-0.033761761389834555,0.17324901790817282,-0.4488654136657715,-0.4578663408756256,1.4250447750091553,0.1276672929525375,-0.5305795669555664,0.2573023438453674
1749037963.1343212,2.9675420356229467,-0.6082815119188358,-2.396267419334352,-2.657933919659703,-0.49860335395697447,-0.6367874283985361,-0.18129816180803862,-0.04350693865089506,0.06179595940110708,-0.20872155507573834,-0.034088136565809966,0.1748760047243966,-0.433311402797699,-0.5095483660697937,1.4598443508148191,0.1143580973148346,-0.5099060535430908,0.2732110619544983
1749037963.1343677,2.9671712608928313,-0.6083690276963772,-2.3961436301057146,-2.658352405599136,-0.4986730768841227,-0.6364367344194283,-0.18255792329105297,-0.043649321557334836,0.06231425297031795,-0.21101511350946187,-0.034412298861566035,0.17636152261913124,-0.4248226284980774,-0.4873219728469848,1.4533077478408811,0.1087169051170349,-0.5268359184265137,0.2669424414634704
1749037963.1344128,2.9667982911439363,-0.6084570855867504,-2.3960185458219194,-2.6587747823553016,-0.498743226410967,-0.6360825445870469,-0.18379423808823395,-0.04377861362843699,0.06283994816775362,-0.21327470780532487,-0.03472513327987435,0.1777103020999572,-0.3951508998870849,-0.5010368824005127,1.4171113967895508,0.1105192676186561,-0.5226484537124634,0.2513755559921264
1749037963.1344562,2.966423149949999,-0.6085456700638185,-2.3958922251629104,-2.6592011255882695,-0.49881380369409145,-0.6357251862533415,-0.1850146858047115,-0.043902604296986524,0.0633670917980295,-0.2154886739242666,-0.03501884453861664,0.17893566934757868,-0.4571338593959808,-0.4983875751495361,1.4184091091156006,0.0881188213825225,-0.5016587972640991,0.2321479171514511
1749037963.1344943,2.966045841210892,-0.6086347554639131,-2.3957647318109183,-2.6596315040314953,-0.4988848197247895,-0.6353649957303683,-0.18622872553245834,-0.044027285757124536,0.06389041250368342,-0.21764988423258794,-0.03528754600888642,0.18005897737708082,-0.404720664024353,-0.4886444509029388,1.4152240753173828,0.0948460400104522,-0.5070596933364868,0.2319785058498382
1749037963.1345327,2.965666352567104,-0.608724308451767,-2.3956361221625095,-2.660065976539074,-0.49895629074060693,-0.63500228272629,-0.18744716431615885,-0.04415678128004405,0.06440633044554574,-0.2197548055278465,-0.03552745205904863,0.18110825170884795,-0.4375917911529541,-0.4781164824962616,1.4117060899734497,0.0872814655303955,-0.5007469654083252,0.2027247548103332
1749037963.13457,2.965284656665996,-0.6088142907716537,-2.395506434199239,-2.6605045848227187,-0.4990282305041885,-0.634637297113693,-0.1886814247294012,-0.04429358654589776,0.06491350442662316,-0.2218024433015735,-0.03573672046336619,0.1821158746158958,-0.4469088912010193,-0.5006440877914429,1.4326248168945312,0.0828817784786224,-0.4972544312477112,0.2264146655797958
1749037963.1346076,2.964900710406386,-0.6089046616101509,-2.395375679426516,-2.66094734421423,-0.4991006412605476,-0.6342702033991247,-0.18994269649394302,-0.04443904441393057,0.06541285690101122,-0.22379340146343668,-0.03591504160363908,0.18311538922629209,-0.4196220636367798,-0.4748404920101166,1.4217643737792969,0.0692570507526397,-0.5037398338317871,0.2470074892044067
1749037963.1346445,2.964514453531093,-0.6089953797335528,-2.395243839195397,-2.6613942354150306,-0.49917350544998845,-0.6339010667319958,-0.19124105038278613,-0.04459395226324763,0.06590713115179551,-0.22572919209114078,-0.036063095739325805,0.184137801810778,-0.4553191661834717,-0.4699719548225403,1.4179362058639526,0.0832965895533561,-0.4903613328933716,0.2481316328048706
1749037963.134681,2.964125808575369,-0.6090864059011157,-2.3951108659617417,-2.6618451999382415,-0.4992467799738567,-0.633529852151624,-0.19258457984279653,-0.04475918219588866,0.06640011586290666,-0.22761183634540408,-0.036182005447862,0.18520798887273351,-0.4297239184379577,-0.475504606962204,1.4410234689712524,0.0983137041330337,-0.5059829950332642,0.2765040397644043
1749037963.134718,2.9637346840041223,-0.6091777059101721,-2.3949766892758424,-2.6623001410003604,-0.4993203941480599,-0.6331564365817172,-0.19397864726867603,-0.04493618766474256,0.0668957092820892,-0.2294437181586132,-0.03627290212096716,0.18634188149197445,-0.4551941454410553,-0.4435779452323913,1.4331107139587402,0.0720832347869873,-0.5039628148078918,0.2646501958370209
1749037963.1347556,2.963340981524511,-0.6092692543864142,-2.3948412256438596,-2.6627589303764507,-0.49939425168928553,-0.632780631413863,-0.1954253404005584,-0.045127286715162744,0.06739699367017707,-0.23122759310839627,-0.03633670122669408,0.1875449655300532,-0.4648372232913971,-0.4768528640270233,1.4433279037475586,0.1089775338768959,-0.4953199625015259,0.2800041139125824
1749037963.1347933,2.9629446072176915,-0.6093610392051215,-2.394704390964936,-2.6632214204644185,-0.4994682364914212,-0.6324022126203672,-0.19692325217986067,-0.04533565484435099,0.06790546271158053,-0.23296662330445453,-0.03637414048613056,0.18881234634763663,-0.4979639649391174,-0.4821330308914184,1.4133244752883911,0.0836111381649971,-0.5003964304924011,0.2628411054611206
1749037963.134831,2.9625454847000836,-0.6094530660842956,-2.3945661140454733,-2.6636874595740876,-0.49954222175400137,-0.632020955029783,-0.19846765429616012,-0.04556502267071887,0.06842050069884037,-0.23466431393157935,-0.03638608481009039,0.19013028658942732,-0.467272400856018,-0.4826689958572387,1.4138281345367432,0.0697741210460662,-0.5056741237640381,0.2536039650440216
1749037963.134868,2.9621435676561503,-0.6095453624839363,-2.3944263496430764,-2.6641569074410425,-0.4996160820086402,-0.631636667299618,-0.20005104606905233,-0.04581914122787197,0.06893916131750379,-0.23632427405693857,-0.03637404967015115,0.191478845102657,-0.4785656332969665,-0.4807827472686767,1.434148192405701,0.1129262596368789,-0.5031781196594238,0.2413247525691986
1749037963.1349049,2.9617388491425762,-0.6096379797697593,-2.3942850895689816,-2.6646296476325606,-0.4996897073100361,-0.6312492238519718,-0.2016639677148916,-0.04610113269452393,0.06945624579574387,-0.23794980608893523,-0.036340846858766124,0.1928350891396038,-0.4823401868343353,-0.487584114074707,1.4233883619308472,0.0992812067270279,-0.4973057508468628,0.2310359179973602
1749037963.1349409,2.9613313657561817,-0.609730992793611,-2.39414237059243,-2.6651055942377386,-0.499763018170776,-0.630858589610692,-0.20329592106015124,-0.046412870179646314,0.06996464277798096,-0.23954341968400653,-0.036291222768180295,0.19417633976476814,-0.474756121635437,-0.4866378605365753,1.3861867189407349,0.0920865163207054,-0.4950316548347473,0.247914656996727
1749037963.1349812,2.9609211955465993,-0.6098244964399557,-2.3939982781672393,-2.6655846917944994,-0.49983597909688116,-0.6304648334053392,-0.20493626236320975,-0.04675451946530707,0.07045586807027993,-0.2411064337966952,-0.036232348451634415,0.1954830265758304,-0.4503501653671264,-0.5005214810371399,1.4410778284072876,0.0780003294348716,-0.5086069703102112,0.2791663408279419
1749037963.1350176,2.960508449312971,-0.6099185991542585,-2.3938529452940718,-2.666066909112735,-0.4999086083758851,-0.6300681270326539,-0.2065749955314442,-0.04712433386017635,0.07092073401882919,-0.2426388471756853,-0.03617403206495739,0.196740916447295,-0.4910668432712555,-0.467138260602951,1.407776951789856,0.0928206965327262,-0.4847309589385986,0.2692997753620147
1749037963.135054,2.9600932558889728,-0.6100134140688672,-2.3937065462640312,-2.6665522289341235,-0.49998098233295707,-0.629668729137987,-0.20820345004982088,-0.0475187346908581,0.07135008446142337,-0.2441396106806974,-0.03612855163231401,0.1979426561860688,-0.4799079596996307,-0.4908974468708038,1.3930654525756836,0.0779056698083877,-0.4942258596420288,0.2743013501167297
1749037963.1350908,2.9596757431555223,-0.6101090490037848,-2.393559285709676,-2.6670406360541206,-0.5000532333442701,-0.6292669556513294,-0.20981484133723396,-0.04793265022754872,0.07173554050544875,-0.24560733486824038,-0.036110051811552864,0.199088661223928,-0.4784505069255829,-0.4830244481563568,1.3858642578125,0.0935657769441604,-0.497289091348648,0.2752173542976379
1749037963.1351273,2.9592560174302083,-0.6102055969930452,-2.3934113842057214,-2.6675321066656217,-0.5001255419353294,-0.6288631408445938,-0.21140468588972267,-0.0483600382263491,0.07207020767246633,-0.24704134338672404,-0.03613352163629956,0.20018737758728083,-0.4419619143009186,-0.5074046850204468,1.3868541717529297,0.1200572922825813,-0.5047576427459717,0.2581047713756561
1749037963.1353774,2.958834144294657,-0.6103031288413989,-2.393263062340352,-2.6680266013376177,-0.5001981239484662,-0.6284575947392455,-0.21297101841725927,-0.04879449066457673,0.0723493036071462,-0.24844287571490675,-0.03621346549868174,0.20125488454050888,-0.4377606809139251,-0.4946267306804657,1.383965253829956,0.0922406166791915,-0.5306459069252014,0.2323948740959167
1749037963.1373398,2.958410133724703,-0.6104016887105134,-2.3931145254711925,-2.6685240633228773,-0.5002712141078707,-0.628050563222005,-0.21451437125333497,-0.0492298164366047,0.07257068284765876,-0.24981618747269393,-0.03636246364212288,0.2023137615335004,-0.4453394412994385,-0.4489012360572815,1.3899449110031128,0.122856967151165,-0.4976898431777954,0.232480764389038
1749037963.1823225,2.9579839314786547,-0.6105012931355664,-2.3929659511603574,-2.669024422917257,-0.5003450475682535,-0.6276421966006593,-0.2160375234789233,-0.04966051504085397,0.07273525181209621,-0.2511693062778902,-0.03658984932300358,0.20339117466522644,-0.478736937046051,-0.4742886424064636,1.3968188762664795,0.103616751730442,-0.4976381659507751,0.2467904537916183
1749037963.18237,2.9575554173132264,-0.6106019332638427,-2.3928174805548923,-2.6695276074192082,-0.500419841270729,-0.6272325306420412,-0.21754506871792642,-0.05008208573537926,0.0728472699563092,-0.25251425573990693,-0.03690069263485731,0.20451625563587197,-0.4557547569274902,-0.5038084983825684,1.396806716918945,0.113582007586956,-0.5090938210487366,0.2349970787763595
1749037963.18241,2.9571244094451683,-0.6107035795299618,-2.392669213954301,-2.670033554971453,-0.5004957770334217,-0.6268214819378504,-0.21904286086959937,-0.05049115880446212,0.07291451752130558,-0.25386663069958904,-0.03729520189410566,0.20571700684778335,-0.499625027179718,-0.5121066570281982,1.362929105758667,0.1063314825296402,-0.5189779996871948,0.263525128364563
1749037963.1824486,2.9566906743032404,-0.6108061876121305,-2.392521209922669,-2.6705422296039867,-0.5005729881373169,-0.6264088572548542,-0.22053738795092248,-0.05088548097143059,0.07294828479196307,-0.2552444890390495,-0.03776857642485501,0.20701710456805114,-0.4767287373542785,-0.5012627840042114,1.4094326496124268,0.0883352681994438,-0.5369027853012085,0.3134094476699829
1749037963.182486,2.956253940828362,-0.6109097044915965,-2.392373486905759,-2.6710536346500473,-0.5006515507172462,-0.625994374525116,-0.22203511966997627,-0.05126381546005469,0.07296312108008485,-0.2566666294278368,-0.03831129553090324,0.20843303641195218,-0.4663747251033783,-0.5067546963691711,1.3968441486358645,0.1075232028961181,-0.5414540767669678,0.310558557510376
1749037963.1825292,2.955813918720802,-0.6110140736836726,-2.3922260263520125,-2.671567822456353,-0.5007314806895214,-0.6255776913904085,-0.22354188444922668,-0.051625811190210286,0.0729762884961697,-0.2581504380747954,-0.03890980346391369,0.20997197468844028,-0.465518593788147,-0.4804402589797973,1.3663263320922852,0.1035322397947311,-0.5216419100761414,0.311038076877594
1749037963.1825788,2.9553703196652354,-0.6111192390080594,-2.3920787765464846,-2.6720848993675146,-0.5008127364172072,-0.6251584361254611,-0.22506234878109002,-0.05197186739894273,0.07300689389207501,-0.25970957668047445,-0.0395475308697361,0.2116306584498888,-0.4647819697856903,-0.4979907870292663,1.4215573072433472,0.0891543179750442,-0.538021445274353,0.3017129302024841
1749037963.1826174,2.9549228797987466,-0.6112251465351135,-2.3919316566247866,-2.672605025587264,-0.5008952268302148,-0.6247362359588474,-0.22659967436354414,-0.052303003005099526,0.07307471411603476,-0.26135182647436705,-0.04020616690446604,0.21339537489297244,-0.5141893625259399,-0.5046637654304504,1.423070788383484,0.1048998534679412,-0.5129861235618591,0.309858500957489
1749037963.182655,2.9544713809685073,-0.6113317447598166,-2.391784560552676,-2.6731284095811163,-0.5009788241576644,-0.6243107394840538,-0.228155393779989,-0.05262074633237244,0.07319878421621175,-0.26307740041899297,-0.04086706702003703,0.21524295742949587,-0.4818065464496612,-0.5147132873535156,1.4141050577163696,0.0760072395205497,-0.5234403014183044,0.2874816060066223
1749037963.1826923,2.954015668064647,-0.6114389837386945,-2.3916373611441757,-2.673655296765862,-0.5010633797986088,-0.6238816323416134,-0.22972947600361643,-0.052927068309375026,0.0733958793504381,-0.26487799164707027,-0.041512665210352614,0.21714260558633594,-0.4743632674217224,-0.4889934957027435,1.4622408151626587,0.0809603706002235,-0.5172393918037415,0.2884304523468017
1749037963.182731,2.9535556601039064,-0.6115468145544255,-2.391489914238701,-2.6741859528363547,-0.5011487413556794,-0.6234486475127127,-0.2313204886012165,-0.0532243701829779,0.07367906685281374,-0.2667367422790565,-0.04212776533477105,0.2190582988616598,-0.502138078212738,-0.5005938410758972,1.4216551780700684,0.0821887850761413,-0.5256083011627197,0.3227061033248901
1749037963.182768,2.9530913537210393,-0.6116551905471584,-2.391342062939396,-2.6747206430060593,-0.501234768719835,-0.6230115725297396,-0.23292575413923686,-0.053515511506967886,0.07405651472626988,-0.26862920129785106,-0.04270060558498664,0.22095160285233592,-0.5362679958343506,-0.4998342096805572,1.430526614189148,0.0967114716768264,-0.5194531679153442,0.2985803186893463
1749037963.1828058,2.9526228189977597,-0.611764071176637,-2.39119364161102,-2.6752596091565173,-0.5013213474286679,-0.6225702555712611,-0.234541454244929,-0.053803843247091705,0.0745307169157516,-0.2705252103718774,-0.04322360848330375,0.2227847068549826,-0.4970803260803222,-0.4994963109493255,1.4478566646575928,0.0882421731948852,-0.5158361792564392,0.3147501349449157
1749037963.1828463,2.9521501887547195,-0.6118734284614633,-2.39104447940727,-2.6758030472981797,-0.5014083981798082,-0.6221246113016279,-0.236162709553778,-0.05409320050433136,0.07509825021484565,-0.27239153486951806,-0.04369374063314678,0.22452354116188097,-0.5047882795333862,-0.4967947900295257,1.4769248962402344,0.0925333797931671,-0.4840445816516876,0.3052911758422851
1749037963.182884,2.9516736433021866,-0.6119832550035136,-2.3908944033785877,-2.676351088037058,-0.5014958819974631,-0.6216746260426641,-0.2377836986686483,-0.054387807193992846,0.07575012508469528,-0.27419496635019974,-0.04411241989947179,0.22614077585975959,-0.4828041493892669,-0.4700872600078583,1.4729034900665283,0.0804817751049995,-0.4902679324150085,0.2930057644844055
1749037963.1829207,2.951193393080217,-0.6120935718946942,-2.390743241436185,-2.6769037827318605,-0.5015838008863922,-0.6212203607817822,-0.23939786052252238,-0.05469205495710495,0.07647273031997717,-0.27590556996349297,-0.044484939227225316,0.2276184193075795,-0.4704135656356811,-0.5112450122833252,1.4682655334472656,0.0647301971912384,-0.4881898760795593,0.2906340062618255
1749037963.1829576,2.950709661683809,-0.6122044345267901,-2.390590825448124,-2.6774610972329684,-0.5016721939960266,-0.6207619499849767,-0.24099818582717894,-0.05501014904722988,0.07724929176394725,-0.27749972205723533,-0.04481943755546056,0.22894967079211345,-0.4755712449550628,-0.51044100522995,1.479944348335266,0.0694828033447265,-0.4914509654045105,0.2970062792301178
1749037963.182994,2.9502226716540414,-0.6123159345220998,-2.390436994570538,-2.678022913486355,-0.5017611295724518,-0.6202995946256464,-0.24257758061893253,-0.05534565619473582,0.07806167330416156,-0.27896257327803514,-0.04512552862211437,0.23013970056684482,-0.5267960429191589,-0.4950275123119354,1.4712014198303225,0.1253553032875061,-0.5011539459228516,0.2624057829380035
1749037963.1830304,2.949732635104151,-0.6124281964957033,-2.390281598787981,-2.6785890374432757,-0.5018506932906968,-0.6198335492915185,-0.24412928207374227,-0.05570101612244489,0.07889226693319346,-0.2802896044181509,-0.04541276405295495,0.2312051555799114,-0.4841057658195495,-0.4580167531967163,1.4438377618789673,0.1289715617895126,-0.4782628417015075,0.2907109260559082
1749037963.183066,2.949239750427148,-0.6125413689565317,-2.3901245027480997,-2.6791592103298014,-0.5019409738462566,-0.6193641050813249,-0.24564730136570737,-0.05607707925836878,0.07972568029488498,-0.2814870464976668,-0.04568912922184147,0.23217239048874116,-0.4849140048027038,-0.5052525401115417,1.4560405015945437,0.1268478631973266,-0.4903770685195923,0.296377032995224
1749037963.1831024,2.948744204886325,-0.6126556093729786,-2.38996559025959,-2.679733119872351,-0.5020320469848591,-0.618891571393044,-0.24712684613630634,-0.056472729588691546,0.08054995926343608,-0.2825711090394267,-0.04595975421578226,0.23307463721137064,-0.4353518784046173,-0.4943671226501465,1.4326719045639038,0.1279310137033462,-0.4871827661991119,0.2936868667602539
1749037963.1831388,2.9482461813091922,-0.6127710644064623,-2.3898047699485825,-2.6803104087321663,-0.5021239595519,-0.618416260037248,-0.24856465539270875,-0.056884657430955846,0.08135717715400684,-0.28356615602806223,-0.046225996292219115,0.2339484883484347,-0.4647188782691955,-0.4934326708316803,1.4520207643508911,0.1225740909576416,-0.4734292030334472,0.2965152859687805
1749037963.1833684,2.9477458661724967,-0.6128878474445412,-2.3896419822737673,-2.6808906789458287,-0.5022167155452713,-0.6179384742849031,-0.24995919637296,-0.05730734509959091,0.08214335546818688,-0.2845021295732705,-0.0464850278013605,0.2348301453082838,-0.4897586703300476,-0.4692466259002685,1.4558078050613403,0.092273972928524,-0.480403333902359,0.2883987426757812
1749037963.1853254,2.947243456391073,-0.6130060164463415,-2.3894772074066317,-2.6814734930459094,-0.5023102662574597,-0.6174585038448832,-0.2513107275782564,-0.05773330331096229,0.08290782080459283,-0.2854116110097511,-0.0467300297250494,0.23575187812674503,-0.4841795861721039,-0.5014967918395996,1.4550330638885498,0.0849929600954055,-0.5157450437545776,0.3056223094463348
1749037963.2263107,2.9467391625997243,-0.6131255554780654,-2.3893104726139445,-2.6820583742743964,-0.5024045062310009,-0.6169766249216969,-0.2526212801294756,-0.058153558560137354,0.0836522095713659,-0.2863269275562275,-0.04695102555049894,0.23673909153040665,-0.4731721878051758,-0.4998410642147064,1.4559504985809326,0.1092741787433624,-0.4816518425941467,0.2865749001502991
1749037963.2263577,2.9462332069866206,-0.6132463631925448,-2.3891418570747973,-2.6826448096932936,-0.502499276046969,-0.616493102950351,-0.2538946058733037,-0.058558357944826785,0.08437936936685748,-0.2872776781371666,-0.04713628956983814,0.23780830784062693,-0.515525221824646,-0.4787605702877044,1.4757020473480225,0.102455660700798,-0.487086147069931,0.3055260777473449
1749037963.2264023,2.945725813836509,-0.6133682509097007,-2.388971491909595,-2.6832322608097328,-0.5025943720706736,-0.6160081947671334,-0.2551360927470371,-0.05893803039158157,0.08509236634634554,-0.28828897663025754,-0.047274145963107146,0.23896625850401354,-0.4528532326221466,-0.4812909960746765,1.4380491971969604,0.077233076095581,-0.4601440727710724,0.2889844179153442
1749037963.2264428,2.9452171914491125,-0.613490951771915,-2.388799553787805,-2.683820186113377,-0.5026895622847287,-0.6155221470745864,-0.25635261083990224,-0.05928392082759458,0.0857937198177883,-0.2893805900354502,-0.04735487925668617,0.24021012927516305,-0.4528384804725647,-0.4806743264198303,1.4292473793029783,0.0344269126653671,-0.4591634273529053,0.3289018869400024
1749037963.2264822,2.9447075053272864,-0.6136141407422638,-2.388626251662019,-2.6844080782987705,-0.5027846064504446,-0.6150351889779297,-0.2575522672388845,-0.05958930188303831,0.0864848883966386,-0.29056697694415806,-0.0473724486998552,0.24152886044837107,-0.4900195002555847,-0.4714344143867492,1.4147528409957886,0.076881393790245,-0.4838042557239532,0.3148664236068725
1749037963.226524,2.944196844249834,-0.6137374634198761,-2.3884518075951626,-2.6849955160131596,-0.5028792783097628,-0.6145475177331997,-0.2587440900303699,-0.05985017063971934,0.0871659603985004,-0.2918580290249572,-0.0473257553662129,0.2429052925890564,-0.5520384311676025,-0.4911695718765259,1.4451823234558103,0.0784562230110168,-0.4952695071697235,0.3089799582958221
1749037963.2265625,2.9436851826215245,-0.6138605703298528,-2.3882764339394713,-2.6855822262845006,-0.5029733874576701,-0.6140592782902803,-0.2599376690541703,-0.060065852131194086,0.08783547585167184,-0.29326014605649275,-0.04721931703785399,0.24431887583541217,-0.4355069398880005,-0.4722335636615753,1.4362083673477173,0.0995397865772247,-0.4624786376953125,0.2959173619747162
1749037963.2266,2.943172344002297,-0.6139831527617793,-2.388100309954597,-2.686168150137694,-0.5030667987446439,-0.6135705385192065,-0.2611427357072212,-0.060239348741088675,0.08849032768843593,-0.2947772179771356,-0.047063306093940535,0.2457486197839445,-0.4456954896450043,-0.4648306369781494,1.3854385614395142,0.0841343402862548,-0.4540578424930572,0.2784641981124878
1749037963.2266374,2.942657971782324,-0.6141049762060712,-2.3879235611055067,-2.6867535012041,-0.503159447387549,-0.6130812630268264,-0.26236862681275125,-0.06037739044373818,0.08912573378547385,-0.29641119975366254,-0.04687297291970544,0.24717595141688328,-0.5010999441146851,-0.480329692363739,1.4298497438430786,0.0747030675411224,-0.4645013213157654,0.3185284733772278
1749037963.2266772,2.9421415134661357,-0.6142259077152552,-2.3877462438414105,-2.6873388061716494,-0.5032513482639601,-0.6125912891277415,-0.26362361077385643,-0.060490156779285646,0.08973531448329006,-0.2981622058477486,-0.046667525946263826,0.24858717832683394,-0.5177873373031616,-0.4483144283294678,1.4230608940124512,0.0269140750169754,-0.4690976440906524,0.3018107414245605
1749037963.226715,2.941622224769839,-0.6143459341075052,-2.3875683379593,-2.687924917067315,-0.5033425981863835,-0.6121003089542871,-0.26491413496152083,-0.06059066345046411,0.0903113360599818,-0.3000282872387911,-0.046468590031588326,0.2499753188100329,-0.5046243667602539,-0.4691939949989319,1.4088584184646606,0.0071898624300956,-0.470272958278656,0.3154609203338623
1749037963.2267523,2.941099198494034,-0.6144651689302941,-2.3873897479844284,-2.6885129882857535,-0.5034333703754008,-0.6116078620780936,-0.2662441005289422,-0.06069383769757582,0.09084517955436447,-0.3020051521710197,-0.046298416018505345,0.25134113319138573,-0.4703957438468933,-0.4689822793006897,1.4153255224227903,0.0401984453201293,-0.4784728288650512,0.3118658363819122
1749037963.2267897,2.940571420820491,-0.6145838473114569,-2.3872103143732817,-2.689104415109617,-0.5035239009633116,-0.6111133432771335,-0.26761425172601677,-0.06081534268864243,0.09132806031093522,-0.30408601676875974,-0.046178050524242856,0.25269324959585787,-0.510236382484436,-0.4966271519660949,1.4056321382522583,0.0689993798732757,-0.4883760213851928,0.2965100109577179
1749037963.226827,2.940037854408023,-0.6147023088826308,-2.3870298345637635,-2.6897007345151174,-0.5036144682917589,-0.6106160297333006,-0.26902173113484046,-0.06097024259699152,0.0917519596246394,-0.30626160612165393,-0.04612568565790435,0.2540473283414912,-0.5443313121795654,-0.4385147392749786,1.39371919631958,0.0739590600132942,-0.4942253232002258,0.2899821400642395
1749037963.2268634,2.9394975435868376,-0.614820969849899,-2.3868480927524685,-2.6903034935417915,-0.5037053670286693,-0.6101151303741172,-0.270459853236153,-0.06117162218205984,0.09211065016523072,-0.30852020682394166,-0.046155388427263196,0.2554242743337941,-0.4729574620723724,-0.4872143864631653,1.38092303276062,0.044266790151596,-0.4932520389556885,0.2776016592979431
1749037963.2269003,2.9389497319996214,-0.6149402864039454,-2.3866648957189187,-2.69091409634909,-0.5037968804886208,-0.6096098565821639,-0.2719181734979209,-0.06142929277659007,0.09240062692971644,-0.31084768178539196,-0.04627635576087582,0.25684759642391436,-0.5105277299880981,-0.4885402917861938,1.3467661142349243,0.0141805261373519,-0.5075541138648987,0.2643375396728515
1749037963.2269397,2.9383939770591376,-0.6150607133185935,-2.386480110139201,-2.6915336487252883,-0.5038892555971184,-0.6090995073980713,-0.27338293351622744,-0.061748733041304654,0.09262172967344329,-0.31322746511555777,-0.04649275832310535,0.25834012125235456,-0.5105277299880981,-0.4885402917861938,1.3467661142349243,0.0141805261373519,-0.5075541138648987,0.2643375396728515
1749037963.2269764,2.9378302397498874,-0.6151826633889865,-2.3862936949997344,-2.6921628264376714,-0.5039826852101296,-0.6085835544790129,-0.2748379317151264,-0.06213041210349109,0.09277728971386975,-0.3156406584012986,-0.04680414218089461,0.2599203930304909,-0.4905710220336914,-0.5107424855232239,1.3600869178771973,0.0072899013757705,-0.4978534579277038,0.2952364087104797
1749037963.2270129,2.9372589267957343,-0.6153064740307996,-2.3861057220349315,-2.6928017960629607,-0.5040773014619397,-0.6080617068235769,-0.2762658204882904,-0.06256960566561817,0.09287375456323119,-0.31806637540114474,-0.047206272264271674,0.26159922359013604,-0.516424298286438,-0.5241554975509644,1.3644917011260986,0.0527058504521846,-0.5090787410736084,0.3009674549102783
1749037963.2270486,2.93668087015483,-0.61543238568379,-2.3859163790328246,-2.6934502079316736,-0.5041731812760178,-0.6075339383697934,-0.2776497691460726,-0.0630567479059117,0.09291990102168678,-0.3204824179505781,-0.04769223796146785,0.2633769548949344,-0.5545524954795837,-0.4687497615814209,1.4277186393737793,0.057005651295185,-0.5005590915679932,0.3322605490684509
1749037963.22735,2.9360972454999814,-0.6155605330447231,-2.3857259553040957,-2.694107261634358,-0.5042703619218643,-0.6070004733415334,-0.27897534451349204,-0.06357828820568336,0.0929258764907635,-0.32286624928120716,-0.048253605307044256,0.2652419776359842,-0.4956535995006561,-0.4930071532726288,1.403233289718628,0.0095222815871238,-0.5164624452590942,0.3523186147212982
1749037963.229385,2.93550944796422,-0.6156909466887605,-2.3855348131790195,-2.6947718252384054,-0.5043688620696333,-0.6064617373281708,-0.28023235163411336,-0.06411795835750615,0.09290234659034922,-0.3251961278093883,-0.048881395346058926,0.26717086189529005,-0.448590874671936,-0.5026222467422485,1.4297385215759275,-0.0057147592306137,-0.5276016592979431,0.3076972961425781
1749037963.2702851,2.9349189509669396,-0.6158235611396484,-2.385343351618404,-2.695442579853998,-0.5044687030694037,-0.6059182888922624,-0.28141629838363436,-0.06465830673786242,0.09285995355221116,-0.32745222099832627,-0.04956669094586944,0.26913013406248265,-0.3820348083972931,-0.5019092559814453,1.40161395072937,0.0592840313911438,-0.5222665667533875,0.3136975169181824
1749037963.2703314,2.9343271714798926,-0.6159582260134034,-2.385151967711404,-2.696118162579708,-0.504569925711801,-0.6053707461978686,-0.2825291777968485,-0.06518232536868394,0.09280914378690822,-0.32961752767803265,-0.05030072038289051,0.27107938917207347,-0.4661985039710998,-0.4811102747917175,1.3832861185073853,0.089154228568077,-0.497925192117691,0.312397837638855
1749037963.2703717,2.9337353578889465,-0.6160947185088597,-2.384961020404412,-2.6967972880685527,-0.5046725987545193,-0.6048197196861074,-0.28357942140464115,-0.06567499095295323,0.0927602783940354,-0.3316784763963399,-0.051074349196405175,0.27297518490855155,-0.4648607671260834,-0.5371955633163452,1.392004370689392,0.0653102919459343,-0.4931444227695465,0.2973781824111938
1749037963.2704115,2.933144509285135,-0.6162327572710881,-2.3847707993798504,-2.697478837535553,-0.5047768170049535,-0.6042657582433606,-0.28458108323870235,-0.06612456296329496,0.09272385936137029,-0.3336251424779286,-0.051877056856656216,0.2747750932663888,-0.4524807631969452,-0.4692300856113434,1.4042978286743164,0.0334435403347015,-0.5442767143249512,0.2915728986263275
1749037963.2704504,2.932555329172764,-0.6163720186971591,-2.384581500847705,-2.6981619119787275,-0.504882689012351,-0.6037093133079842,-0.2855524540808861,-0.06652352146284078,0.09271071035757639,-0.3354511340967321,-0.05269567074683556,0.27644137203416974,-0.4012886583805084,-0.5407076478004456,1.4193650484085083,0.0267632901668548,-0.5429880619049072,0.2837764024734497
1749037963.2704885,2.931968212193965,-0.6165121565670586,-2.384393211100636,-2.6988458526562162,-0.5049903170301316,-0.6031507227675517,-0.2865143451270191,-0.06686907237317032,0.09273202666184219,-0.3371532857962768,-0.053513298998729586,0.27794389066974334,-0.4653714299201965,-0.5125086307525635,1.4293454885482788,0.0596304386854171,-0.5651512145996094,0.2709982693195343
1749037963.2705307,2.9313832592070965,-0.6166528246865868,-2.3842058980795287,-2.6995302357556645,-0.5050997737672382,-0.6025902140709244,-0.28748826791871307,-0.06716319131671704,0.0927993062679819,-0.33873131280484586,-0.05430894110424976,0.2792621367835555,-0.5059356689453125,-0.4570406377315521,1.467572808265686,0.0743895918130874,-0.5442532896995544,0.2595819234848022
1749037963.2705698,2.930800313787263,-0.6167937008647156,-2.3840194108922566,-2.7002148496450227,-0.505211080747157,-0.6020279235469307,-0.2884947109442503,-0.06741221543555598,0.0929242371620299,-0.34018753385488415,-0.055058111544009525,0.2803862993760331,-0.4656758308410644,-0.4965282380580902,1.4369497299194336,0.0682357549667358,-0.5493980050086975,0.3001708984375
1749037963.2706068,2.9302190121674805,-0.6169345097483221,-2.3838334869920983,-2.700899662606667,-0.5053241919443269,-0.6014639266855264,-0.289551659168749,-0.06762602682316805,0.09311860598773104,-0.34152672001750123,-0.055734534088515086,0.2813175483040589,-0.4498882293701172,-0.4740335047245025,1.477626919746399,0.0520573556423187,-0.5358805060386658,0.2839851677417755
1749037963.2706437,2.929638839041316,-0.6170750419487618,-2.3836477663556184,-2.701584787210374,-0.5054389845679998,-0.6008982727307763,-0.2906734184739169,-0.06781690717265558,0.09339421557216183,-0.3427560902602244,-0.0563126621464752,0.282067688290459,-0.4507030546665191,-0.470990926027298,1.4613291025161743,0.0452349036931991,-0.50422203540802,0.2834391891956329
1749037963.270681,2.9290591831874386,-0.6172151672083674,-2.3834618115698625,-2.702270445171304,-0.505555257314827,-0.6003310168806206,-0.2918697420444013,-0.06799817791531224,0.09376270175939423,-0.343885414439267,-0.0567705619002233,0.2826583523364543,-0.4972719550132751,-0.4757432341575622,1.449657320976257,0.1044100224971771,-0.5160537362098694,0.2971740067005157
