nimar13/UR3e_dataset_trayectorias/trayectorias_ejecutadas/trapezoidal/trayectoria_137_result.csv
timestamp,q1,q2,q3,q4,q5,q6,qd1,qd2,qd3,qd4,qd5,qd6,tau1,tau2,tau3,tau4,tau5,tau6
1749050310.378277,-1.8288562933551233,-2.0441509685912074,0.7520926634417933,-1.6541077099242152,-0.6167014280902308,-4.7038191000567835,0.0014138906262814999,9.611676068743691e-05,-0.0001809436216717586,0.00033621274633333087,0.001329278340563178,0.0025254387874156237,-0.08464322239160538,0.047946251928806305,-0.5256204009056091,-0.3886823058128357,0.0026199445128440857,-0.04965391755104065
1749050310.3783252,-1.828836743031637,-2.0441161594786585,0.752120319996969,-1.6541077099242152,-0.6167286078082483,-4.7038121859179896,0.001795635325834155,9.28124354686588e-05,-0.00017392793961334974,0.0004379629099275917,0.0012289393926039338,0.002860166598111391,-0.08165625482797623,0.02862788736820221,-0.5358297824859619,-0.3928470015525818,0.01240839809179306,-0.04046671465039253
1749050310.3783653,-1.8288129011737269,-2.0441390476622523,0.7521012465106409,-1.6541201076903285,-0.6166856924640101,-4.703810636197225,0.001674618455581367,6.929694791324437e-05,-0.0001674719387665391,0.0004208176687825471,0.0012196390889585018,0.0032865842804312706,-0.07472104579210281,0.04044046998023987,-0.5309218168258667,-0.3909006118774414,0.007847778499126434,-0.03847625106573105
1749050310.378413,-1.8288081328021448,-2.0441390476622523,0.7521088759051722,-1.6541077099242152,-0.616732422505514,-4.703829471264974,0.0015164404176175594,5.798713391413912e-05,-0.000161463234690018,0.00038865115493535995,0.0011520563857629895,0.003622237127274275,-0.08706407248973846,0.035078175365924835,-0.5307073593139648,-0.3906370997428894,0.01720566302537918,-0.044626593589782715
1749050310.3784533,-1.8288596312152308,-2.0441891155638636,0.7521236578570765,-1.6540881596007289,-0.6166856924640101,-4.703814093266622,0.0012677913764491677,5.609146683127619e-05,-0.0001558534277137369,0.00039869052125141025,0.001119551481679082,0.0036842545960098505,-0.07635504007339478,0.030781008303165436,-0.5281590223312378,-0.409656822681427,0.0257716104388237,-0.062128134071826935
1749050310.378491,-1.8288400808917444,-2.0441423855223597,0.7521050612079065,-1.6541201076903285,-0.6166904608355921,-4.70376426378359,0.001025045057758689,5.439556480268948e-05,-0.00015064957551658154,0.0003928660589735955,0.001187958987429738,0.0033489831257611513,-0.07998670637607574,0.013650074601173401,-0.5317772626876831,-0.3990490436553955,0.019468113780021667,-0.049479350447654724
1749050310.3785286,-1.8288973013507288,-2.0441581211485804,0.7520926634417933,-1.6541077099242152,-0.6167052427874964,-4.70379871526827,0.0008349299314431846,5.279990364215337e-05,-0.00014576996909454465,0.0003700376255437732,0.001297007198445499,0.0028990795835852623,-0.058956485241651535,0.003996431827545166,-0.5339096188545227,-0.40328603982925415,0.020972229540348053,-0.03532081097364426
1749050310.3785665,-1.828850571309225,-2.0441318951048792,0.752120319996969,-1.6540762386717738,-0.6166775862323206,-4.703779641781942,0.0008399762446060777,5.1295235607540235e-05,-0.00014118249237071723,0.0003469584626145661,0.001301806652918458,0.002616155194118619,-0.0805429071187973,0.01577020436525345,-0.5290142893791199,-0.3941461443901062,0.003741420805454254,-0.028007926419377327
1749050310.3786035,-1.8289044539081019,-2.0441423855223597,0.7520702520953577,-1.6540729008116664,-0.6167133490191858,-4.703786555920736,0.0008393073221668601,4.9873975513037294e-05,-0.00013689884508494288,0.00032610000926069915,0.0012557122390717268,0.0025909487158060074,-0.07798658311367035,0.007209151983261108,-0.5422036647796631,-0.4109659194946289,0.019217729568481445,-0.02307765930891037
1749050310.3786411,-1.8288009802447718,-2.0441118679442347,0.7520964781390589,-1.6541077099242152,-0.6166775862323206,-4.703748528157369,0.0008229946834035218,4.852927304455079e-05,-0.0001328576181549579,0.0003075319982599467,0.0011846910929307342,0.0024717310443520546,-0.0958544909954071,0.01257111132144928,-0.5498620867729187,-0.3859279155731201,0.03283024579286575,-0.03286294639110565
1749050310.3786788,-1.8288386503802698,-2.04412378887319,0.7520926634417933,-1.6540881596007289,-0.6166904608355921,-4.703771177922384,0.0007661522831767797,4.725527833215892e-05,-0.00012903624156024307,0.0002909490140154958,0.0010547629790380597,0.0023495578207075596,-0.09614036232233047,-0.01530793309211731,-0.531345784664154,-0.4097548723220825,0.03166426718235016,-0.04897303879261017
1749050310.3787162,-1.8287923971759241,-2.0441390476622523,0.7521050612079065,-1.6541077099242152,-0.6166823546039026,-4.703778211270468,0.000648867804557085,4.604638525051996e-05,-0.00012544883065856993,0.00027605684590525925,0.0008840420632623136,0.0021191961131989956,-0.08311732113361359,0.005076192319393158,-0.551771879196167,-0.41187387704849243,0.021888896822929382,-0.03384005278348923
1749050310.3787534,-1.8288267294513147,-2.0441776714720667,0.7521050612079065,-1.6541201076903285,-0.6166775862323206,-4.703755442296163,0.0005642747273668647,2.3159100237535313e-05,-0.00012204667291371152,0.0002626215573400259,0.0007431184058077633,0.001805035164579749,-0.07884453237056732,-0.0013576224446296692,-0.5398696064949036,-0.4242147207260132,0.04288151115179062,-0.030416641384363174
1749050310.3787909,-1.8288200537311,-2.0441423855223597,0.7520964781390589,-1.6541162929930628,-0.6167123953448694,-4.70375901857485,0.0005013390327803791,2.1909534552833065e-05,-0.00011881443060701713,0.0002504335716366768,0.0007265108870342374,0.001561746932566166,-0.08255423605442047,-0.017476171255111694,-0.5460566282272339,-0.41362935304641724,0.024477258324623108,-0.0382160060107708
1749050310.3788278,-1.828857723866598,-2.0441390476622523,0.7521122137652796,-1.6541038952269496,-0.6166895071612757,-4.703762475644247,0.0004510631551966071,2.1382329578045756e-05,-0.00011576627002796158,0.00023932319891173393,0.0006630438147112727,0.0014067413285374641,-0.10257278382778168,-0.00032360851764678955,-0.5360414385795593,-0.40619927644729614,0.03188356012105942,-0.03919520229101181
1749050310.3788645,-1.8288009802447718,-2.0441352329649867,0.7520888487445276,-1.6541077099242152,-0.6166847387896937,-4.70375901857485,0.0004099526267964393,2.086189709871178e-07,-0.00011286305380053818,0.00022916219313628972,0.0005943847936578095,0.0012830247869715095,-0.11998020857572556,-0.021751053631305695,-0.5466950535774231,-0.4186689257621765,0.022142797708511353,-0.04264805465936661
1749050310.3789015,-1.8288081328021448,-2.0441600284972132,0.7521122137652796,-1.654100080529684,-0.6167133490191858,-4.703778092061178,0.00037571322172880173,2.0354131713418155e-09,-0.00011009337322320789,0.00021982801263220608,0.0005359657807275653,0.0011378187919035554,-0.09230466932058334,-0.019595175981521606,-0.5383628010749817,-0.4163835048675537,0.03549771010875702,-0.040157973766326904
1749050310.378938,-1.8288233915912073,-2.0441509685912074,0.7520926634417933,-1.6541201076903285,-0.6166666189776819,-4.703740183507101,0.0003467551723588258,1.9858724040200393e-11,-0.00010747129272203892,0.0002112220536218956,0.0005330211133696139,0.0009483526227995753,-0.09121377766132355,-0.03561563789844513,-0.5475353002548218,-0.4144470691680908,0.03461466729640961,-0.051418486982584
1749050310.378974,-1.8288424650775355,-2.044127126733297,0.7521236578570765,-1.6541038952269496,-0.6167243162738245,-4.703778092061178,0.0003219418867956847,1.937537586968463e-13,-0.00010496479080757126,0.00020326906815171242,0.0005152692319825292,0.0007800638559274375,-0.10528241097927094,-0.00887085497379303,-0.5471062064170837,-0.42582637071609497,0.01503562182188034,-0.030448319390416145
1749050310.3790102,-1.8288386503802698,-2.0441633663573207,0.7520926634417933,-1.6540919742979945,-0.6166856924640101,-4.703766051922933,0.00030044346931390464,-0.00010895414743572474,-0.00010256530367769301,0.0001958925131475553,0.0004805033968295902,0.0006633125594817102,-0.12089195102453232,-0.006708063185214996,-0.5651882290840149,-0.42022740840911865,0.01532919704914093,-0.04316588118672371
1749050310.3794553,-1.8288667837726038,-2.044166704217428,0.7520774046527308,-1.6540881596007289,-0.6167157332049769,-4.703771177922384,0.0002816366613842547,-0.0014799479395151138,-0.0001002858261927031,0.00016329438949469477,0.00044715224066749215,0.0006154367583803833,-0.13374604284763336,-0.020688846707344055,-0.5443254113197327,-0.4197419285774231,0.0071608275175094604,-0.05240534991025925
1749050310.3813543,-1.8288386503802698,-2.044217725793356,0.7520926634417933,-1.6540881596007289,-0.6167038122760218,-4.70375901857485,0.0002650472742971033,-0.0019204802811145782,-9.809993207454681e-05,0.0001532161986688152,0.00046015309635549784,0.0005998567212373018,-0.11895741522312164,-0.005553513765335083,-0.5528415441513062,-0.44772088527679443,0.017155565321445465,-0.03868996351957321
1749050310.4222794,-1.8288353125201624,-2.0441976986327113,0.7520578543292444,-1.6541077099242152,-0.6166580359088343,-4.703778211270468,0.00025030248798429966,-0.0019944242667406797,-9.600080375093967e-05,0.00014739634934812784,0.0004445534141268581,0.0005482186679728329,-0.12159892916679382,-0.0012133121490478516,-0.5594707131385803,-0.41989779472351074,0.025462403893470764,-0.05779051035642624
1749050310.4223251,-1.828824822102682,-2.0441905460753382,0.7520812193499964,-1.6541038952269496,-0.6167052427874964,-4.703774634991781,0.00023711191897746176,-0.001575097325257957,-0.00011033224291168153,0.00014258162991609424,0.0004208185418974608,0.0004990639863535762,-0.09223613142967224,-0.009952709078788757,-0.5577473640441895,-0.44244879484176636,0.007302030920982361,-0.032410845160484314
1749050310.4223652,-1.8288543860064905,-2.0441600284972132,0.7520650068866175,-1.6541038952269496,-0.6166704336749476,-4.7037816683398646,0.0002252421691082418,-0.0014378780033439398,-0.00011033216287614778,0.00013817785657010972,0.00039793842006474733,0.00045699728070758283,-0.11272740364074707,-0.015422359108924866,-0.5730719566345215,-0.4256231188774109,0.02365974336862564,-0.04164306819438934
1749050310.4224036,-1.8288472334491175,-2.0442220173277796,0.7520688215838831,-1.6540881596007289,-0.6166742483722132,-4.703755561505453,0.00021450550411827862,-0.001075497828423977,-0.00010826072684722021,0.00011868591536767781,0.00037714323843829334,0.0004213013162370771,-0.10262832045555115,-0.023731157183647156,-0.5690213441848755,-0.4436725974082947,0.018858209252357483,-0.04652807116508484
1749050310.4224417,-1.8288353125201624,-2.0441438160338343,0.7520812193499964,-1.6541201076903285,-0.6166666189776819,-4.703743640576498,0.00020474490884225816,-0.0010272932704538107,-0.0001061481234501116,0.0001061617731465958,0.0003583664365578443,0.00039075507083907723,-0.1266723871231079,-0.0056703537702560425,-0.5671114325523376,-0.4457029104232788,0.01837390661239624,-0.07479079067707062
1749050310.4224803,-1.828831974660055,-2.044199605981344,0.7520774046527308,-1.654123445550436,-0.6166742483722132,-4.7037816683398646,0.0001958340872079134,-0.0011071934131905437,-0.00010410271352156997,0.00010156934149563313,0.0003413636877667159,0.00036434261710383,-0.1219828799366951,-0.030409902334213257,-0.574770987033844,-0.446979820728302,0.009661078453063965,-0.05730641633272171
1749050310.4225183,-1.828831974660055,-2.0442034206786097,0.752085034047262,-1.6541201076903285,-0.6166399160968226,-4.703762475644247,0.00018766647554002702,-0.0014617189299315214,-0.00011691716645145789,8.438505756203085e-05,0.00032590082264505327,0.0003412787045817822,-0.12935933470726013,-0.04628878831863403,-0.5726366639137268,-0.43705153465270996,0.030781477689743042,-0.047036588191986084
1749050310.4225557,-1.8288386503802698,-2.0441905460753382,0.7520578543292444,-1.6541077099242152,-0.616734806691305,-4.703743640576498,0.00018015260866377503,-0.0015667825937271118,-0.00011679801536956802,7.373149128397927e-05,0.00031177891651168466,0.0003209652495570481,-0.12571528553962708,-0.05504871904850006,-0.5709362030029297,-0.45832860469818115,0.023036547005176544,-0.06265076249837875
1749050310.422593,-1.8288267294513147,-2.044187208215231,0.7521036306964319,-1.654100080529684,-0.6166742483722132,-4.703747097645895,0.00017321771883871406,-0.0019423023331910372,-0.00012905527546536177,-4.2011006371467374e-06,0.0002988306514453143,0.00030293635791167617,-0.14139324426651,-0.016192883253097534,-0.584153950214386,-0.4338778257369995,0.0058829933404922485,-0.0480169914662838
1749050310.4226298,-1.8288281599627894,-2.0442034206786097,0.7521002928363245,-1.6541201076903285,-0.6167085806476038,-4.703728024159567,0.00013450307596940547,-0.0017711060354486108,-0.00012871838407590985,-4.8221798351733014e-05,0.0002869158051908016,0.0002868280280381441,-0.14012353122234344,-0.03125980496406555,-0.5796492695808411,-0.4583268165588379,0.03315730392932892,-0.0450969859957695
1749050310.4226673,-1.8288701216327112,-2.044234415093893,0.7520650068866175,-1.6541129551329554,-0.6166895071612757,-4.703731481228964,0.0001286789629375562,-0.0016374054830521345,-8.847343269735575e-05,-7.4808944191318e-05,0.00022472474665846676,0.00027234797016717494,-0.14921507239341736,-0.03443175554275513,-0.5726481080055237,-0.4540504217147827,0.008855313062667847,-0.0454859659075737
1749050310.422704,-1.8288386503802698,-2.0441676578917445,0.7521274725543421,-1.654100080529684,-0.6167238394366663,-4.703774754201071,0.00012422834697645158,-0.001423074514605105,-9.367058373754844e-05,-8.014962077140808e-05,0.00019962963415309787,0.00025926061789505184,-0.17498883605003357,-0.027125686407089233,-0.5860406756401062,-0.45913851261138916,0.012372344732284546,-0.054415009915828705
1749050310.42274,-1.828850571309225,-2.0441600284972132,0.7520812193499964,-1.6541310749449671,-0.6167014280902308,-4.70375901857485,0.00012008443445665762,-0.0013525009853765368,-9.550237155053765e-05,-7.913713488960639e-05,0.00018857716349884868,0.0002473742060828954,-0.12246207892894745,-0.034837573766708374,-0.5854184031486511,-0.4535856246948242,0.01971796154975891,-0.06359807401895523
1749050310.4227803,-1.8288386503802698,-2.044211050073141,0.7520964781390589,-1.6541038952269496,-0.6166895071612757,-4.70375901857485,0.00011620799341471866,-0.0012835426023229957,-0.0001087106647901237,-7.711239595664665e-05,0.00018053239909932017,0.0002365314430790022,-0.15126898884773254,-0.04418689012527466,-0.5971336960792542,-0.46841686964035034,0.000564873218536377,-0.047516509890556335
1749050310.4228177,-1.8288233915912073,-2.0441962681212367,0.7520926634417933,-1.6541201076903285,-0.6166823546039026,-4.703743640576498,0.00011257417645538226,-0.0012415811652317643,-0.0001212145434692502,-7.501168147427961e-05,0.000173484644619748,0.00022659941168967634,-0.15709379315376282,-0.07119977474212646,-0.5856039524078369,-0.4595959186553955,0.01663833111524582,-0.053294818848371506
1749050310.422854,-1.8288386503802698,-2.0442077122130335,0.7520964781390589,-1.6541038952269496,-0.6166580359088343,-4.70372444788088,9.05122360563837e-05,-0.0013466262025758624,-0.000611001334618777,-8.695340511621907e-05,0.00016702726134099066,0.00021746809943579137,-0.16394323110580444,-0.03989177942276001,-0.5851960778236389,-0.47006189823150635,0.013002254068851471,-0.05774937942624092
1749050310.4228902,-1.8288353125201624,-2.0442143879332484,0.7520774046527308,-1.6541201076903285,-0.6166580359088343,-4.703740183507101,7.954529428388923e-05,-0.0018140904139727354,-0.0007876399904489517,-9.292801405536011e-05,0.00016104429960250854,0.00020904495613649487,-0.15072870254516602,-0.048560574650764465,-0.5690011382102966,-0.46072447299957275,0.025730416178703308,-0.04607706516981125
1749050310.4229262,-1.82884389558901,-2.044211050073141,0.7520774046527308,-1.6541077099242152,-0.6166928450213831,-4.703731481228964,7.719002314843237e-05,-0.0018535394920036197,-0.0007098048808984458,-0.00010525931429583579,0.00015547755174338818,0.00020125028095208108,-0.16826266050338745,-0.034794881939888,-0.581809937953949,-0.47615790367126465,0.008629590272903442,-0.056268807500600815
1749050310.4229622,-1.828824822102682,-2.0442453823485316,0.7520383040057581,-1.6541162929930628,-0.6166895071612757,-4.703774634991781,7.5043790275231e-05,-0.0017255626153200865,-0.0007255016826093197,-0.00011079530668212101,0.0001502829691162333,0.0001940165093401447,-0.17753437161445618,-0.036720141768455505,-0.5871649980545044,-0.4666856527328491,0.007636368274688721,-0.051884621381759644
1749050310.422998,-1.8287976423846644,-2.044199605981344,0.7520812193499964,-1.6541348896422328,-0.6166895071612757,-4.703728024159567,-5.486487498274073e-05,-0.0015627386746928096,-0.0006564608193002641,-0.00037413998506963253,0.00014542466669809073,0.00018728480790741742,-0.1406049132347107,-0.045313477516174316,-0.5796734690666199,-0.47466301918029785,0.010555200278759003,-0.05094116926193237
1749050310.4233556,-1.8288081328021448,-2.0441891155638636,0.7521002928363245,-1.6541310749449671,-0.6166856924640101,-4.703747097645895,-5.715155930374749e-05,-0.0015987184597179294,-0.000673682545311749,-0.0004520729125943035,0.000140870688483119,0.0001810048270272091,-0.1839759349822998,-0.01530536264181137,-0.5822128653526306,-0.4625648856163025,0.006435945630073547,-0.056359097361564636
1749050310.4253552,-1.8288472334491175,-2.044242044488424,0.7520740667926233,-1.6540967426695765,-0.6167052427874964,-4.70375901857485,-8.036598592298105e-05,-0.0016086630057543516,-0.0006790305487811565,-0.0005079116090200841,0.00013659340038429946,0.00017513209604658186,-0.18527796864509583,-0.05208510160446167,-0.5922451615333557,-0.4646139144897461,0.028764814138412476,-0.058265917003154755
1749050310.46628,-1.8288787047015589,-2.0442267856993617,0.7521002928363245,-1.6541129551329554,-0.6166465918170374,-4.703762475644247,-8.063577843131498e-05,-0.0016556372866034508,-0.0007159629021771252,-0.0009516021818853915,0.00013256822421681136,0.00016962914378382266,-0.165672168135643,-0.05221700668334961,-0.5775439143180847,-0.4767196774482727,0.03282053768634796,-0.06413935869932175
1749050310.4663286,-1.8288162390338343,-2.0442234478392542,0.7520650068866175,-1.6541162929930628,-0.6167119185077112,-4.703774754201071,-0.00010181341349380091,-0.0022135302424430847,-0.0007385059725493193,-0.001197858015075326,0.0001287736522499472,0.00016446133668068796,-0.19749358296394348,-0.038506120443344116,-0.5839526057243347,-0.48139530420303345,0.008847653865814209,-0.07379783689975739
1749050310.4663723,-1.828850571309225,-2.0442234478392542,0.7520774046527308,-1.6541277370848597,-0.6167052427874964,-4.703762475644247,-0.000126183673273772,-0.002650663023814559,-0.0007431785925291479,-0.001411927049048245,0.00012519030133262277,0.00015959914890117943,-0.20603713393211365,-0.03852882981300354,-0.5760419964790344,-0.4800729751586914,0.027236521244049072,-0.08122178912162781
1749050310.466411,-1.8288596312152308,-2.044216295281881,0.752085034047262,-1.654123922387594,-0.6166303793536585,-4.703774634991781,-0.0008912196499295533,-0.0025450563989579678,-0.0006941465544514358,-0.00188934407196939,0.00012180094927316532,0.00015501635789405555,-0.22296613454818726,-0.05391567945480347,-0.5696942210197449,-0.47639501094818115,0.02691604197025299,-0.07967160642147064
1749050310.4664493,-1.8288868109332483,-2.044262548486227,0.7520726362811487,-1.654123922387594,-0.6166341940509241,-4.703755561505453,-0.0028303004801273346,-0.0028193260077387094,-0.0006344047142192721,-0.002725888043642044,0.00012682826491072774,0.00015068943321239203,-0.23624499142169952,-0.04072609543800354,-0.5778768658638,-0.5045091509819031,0.026256129145622253,-0.08263693749904633
1749050310.4664867,-1.8288734594928187,-2.0442472896971644,0.7520688215838831,-1.6541515789427699,-0.6166928450213831,-4.703743640576498,-0.0031224556732922792,-0.00263378769159317,-0.0005829362198710442,-0.00385680771432817,0.00013591819151770324,0.00012896217231173068,-0.2660498023033142,-0.040721356868743896,-0.5747536420822144,-0.49541884660720825,0.03906486928462982,-0.08260765671730042
1749050310.4665244,-1.8288748900042933,-2.044212957421774,0.7520340124713343,-1.6541677914061488,-0.6167052427874964,-4.703755561505453,-0.003125149058178067,-0.002717212773859501,-0.000588484457693994,-0.005773358978331089,0.00014763762010261416,0.00012013642844976857,-0.27339625358581543,-0.020771056413650513,-0.5702308416366577,-0.5217901468276978,0.05323707312345505,-0.09239545464515686
1749050310.4665616,-1.8288973013507288,-2.0442310772337855,0.7520888487445276,-1.65417542080068,-0.6166613737689417,-4.703743640576498,-0.0040072184056043625,-0.0028878054581582546,-0.0005380817456170917,-0.006957323756068945,0.00016470529953949153,9.935037815012038e-05,-0.30560216307640076,-0.05555945634841919,-0.5507693290710449,-0.5219282507896423,0.06690506637096405,-0.1085166484117508
1749050310.466598,-1.8288562933551233,-2.0442401371397914,0.7520688215838831,-1.65417542080068,-0.6167014280902308,-4.703755561505453,-0.005437501706182957,-0.003406423842534423,-0.0004815536376554519,-0.008294014260172844,0.00021218501206021756,7.530920265708119e-05,-0.2935776114463806,-0.035336077213287354,-0.5562031865119934,-0.5322009325027466,0.04435849189758301,-0.1274879425764084
1749050310.4666348,-1.828902546559469,-2.0442711315550746,0.7520812193499964,-1.654234071771139,-0.6166999975787562,-4.70379871526827,-0.006755283568054438,-0.00371632631868124,-0.0004351321258582175,-0.00963329616934061,0.00029791734414175153,-5.415302439359948e-05,-0.2889362573623657,-0.020552068948745728,-0.5549052953720093,-0.53668212890625,0.08112917840480804,-0.12313789129257202
1749050310.4666717,-1.8288715521441858,-2.044260164300436,0.7520602385150355,-1.6542426548399867,-0.6167038122760218,-4.703752104436056,-0.008131220005452633,-0.0035336690489202738,-0.0003967344237025827,-0.011470568366348743,0.0021029028575867414,-0.0009554490097798407,-0.31128162145614624,-0.03647643327713013,-0.5490233898162842,-0.5319051146507263,0.08998920023441315,-0.1548980325460434
1749050310.4667077,-1.8289449850665491,-2.044321676293844,0.7520602385150355,-1.6542355022826136,-0.6166775862323206,-4.703774634991781,-0.008680041879415512,-0.003419888438656926,-0.0003644746611826122,-0.013090289197862148,0.003295662347227335,-0.002681386424228549,-0.2915968894958496,-0.02429947257041931,-0.5600325465202332,-0.5245950222015381,0.06810430437326431,-0.136779323220253
1749050310.4667437,-1.8289383093463343,-2.0443226299681605,0.7520921866046351,-1.6542870006956996,-0.6166742483722132,-4.703786555920736,-0.010258764028549194,-0.0031640378292649984,-0.0003372131322976202,-0.015847137197852135,0.003747429233044386,-0.0035349801182746887,-0.3075476884841919,-0.015046104788780212,-0.5557070970535278,-0.5363661646842957,0.07928704470396042,-0.13585041463375092
1749050310.46678,-1.8289974371539515,-2.0443302593626917,0.7520487944232386,-1.654323240319723,-0.6166113058673304,-4.703814212475912,-0.011563286185264587,-0.0031005197670310736,-0.0003136950545012951,-0.016740497201681137,0.004660391714423895,-0.003827048698440194,-0.30298370122909546,-0.03167611360549927,-0.5481812953948975,-0.5569939613342285,0.07958122342824936,-0.14509010314941406
1749050310.4668157,-1.8289554754840296,-2.0443111858763636,0.7520888487445276,-1.6543470821776332,-0.6166613737689417,-4.70379871526827,-0.012990400195121765,-0.002807609038427472,-0.00029318404267542064,-0.018083423376083374,0.0052637746557593346,-0.003875280963256955,-0.29862067103385925,-0.02262149751186371,-0.5573218464851379,-0.5422962307929993,0.0986558273434639,-0.15838129818439484
1749050310.466853,-1.829017464314596,-2.044326444665426,0.7520650068866175,-1.654398103753561,-0.6166794935809534,-4.703795258198873,-0.013267574831843376,-0.0029710421804338694,-0.0002752878062892705,-0.01986716315150261,0.005570553708821535,-0.004237264394760132,-0.3084254860877991,-0.020474910736083984,-0.544725775718689,-0.5417373180389404,0.10953161120414734,-0.1639651209115982
1749050310.4668925,-1.8290155569659632,-2.044342180291647,0.7520526091205042,-1.6544424496092738,-0.6166256109820765,-4.7038191000567835,-0.013750986196100712,-0.0026056072674691677,-0.0002594134712126106,-0.020818989723920822,0.006520417518913746,-0.004900455009192228,-0.3177570104598999,-0.011240266263484955,-0.5480664372444153,-0.5205175876617432,0.09121371805667877,-0.16275107860565186
1749050310.4669292,-1.8290546576129358,-2.0443040333189906,0.7520726362811487,-1.6544705830016078,-0.6166446844684046,-4.703810636197225,-0.015045654959976673,-0.0021424205042421818,-0.0002452285843901336,-0.02029859460890293,0.007298422511667013,-0.005796282552182674,-0.31158846616744995,-0.019524112343788147,-0.5466247200965881,-0.5294781923294067,0.098173588514328,-0.17070305347442627
1749050310.4669654,-1.8290789763080042,-2.0443622074522914,0.7520812193499964,-1.6545101604857386,-0.6166070143329065,-4.703850094472067,-0.01550984289497137,-0.0017887572757899761,-0.00023258414876181632,-0.019630733877420425,0.008734043687582016,-0.006518964655697346,-0.3065530061721802,-0.027404233813285828,-0.5472142100334167,-0.5225638151168823,0.1022859513759613,-0.18655338883399963
1749050310.467002,-1.8291147390948694,-2.044338365594381,0.7520759741412562,-1.654581209222311,-0.6165950934039515,-4.703827563916342,-0.01621418632566929,-0.0015115278074517846,-0.00022115233878139406,-0.019025662913918495,0.00855833850800991,-0.006881781853735447,-0.2913743853569031,-0.0036178231239318848,-0.5428673624992371,-0.513299286365509,0.09955711662769318,-0.17307943105697632
1749050310.4674294,-1.8291509787188929,-2.0443507633604945,0.7520602385150355,-1.654597898522848,-0.616617504750387,-4.703867260609762,-0.016819262877106667,-0.0011978455586358905,-0.00021076065604574978,-0.018636129796504974,0.009057173505425453,-0.007819877937436104,-0.31171977519989014,-0.0018616095185279846,-0.5453117489814758,-0.534955620765686,0.1238488033413887,-0.18826693296432495
1749050310.4693801,-1.829191033040182,-2.044319292108053,0.7520411650287073,-1.6546679935851039,-0.6165745894061487,-4.703882638608114,-0.017327455803751945,-0.0009801891865208745,-0.00020134588703513145,-0.018393831327557564,0.010465642437338829,-0.00860463548451662,-0.29110509157180786,-0.013547539710998535,-0.541193425655365,-0.5150707364082336,0.11109675467014313,-0.18168911337852478
1749050310.5102756,-1.8292387167560022,-2.044366022149557,0.7520726362811487,-1.654684682885641,-0.6165455023394983,-4.703940931950704,-0.01742004230618477,-0.0008294322178699076,-0.00019272929057478905,-0.01775665394961834,0.011984989047050476,-0.009609369561076164,-0.287751704454422,-0.0109596848487854,-0.5612130165100098,-0.5239948034286499,0.12912869453430176,-0.1632082462310791
1749050310.5103207,-1.8292315641986292,-2.044346948663229,0.7520759741412562,-1.654705663720602,-0.6165345350848597,-4.703891340886251,-0.016464747488498688,-0.0007189030293375254,-0.00018479004211258143,-0.017398536205291748,0.013122831471264362,-0.009840115904808044,-0.2796412706375122,0.02695091813802719,-0.5393655300140381,-0.5388110876083374,0.11078061163425446,-0.18605785071849823
1749050310.5103598,-1.8293021360980433,-2.044324060479635,0.752044979725973,-1.6547442875304164,-0.6165216604815882,-4.7039271036731165,-0.016372891142964363,-0.0006343874265439808,-0.00017751904670149088,-0.01680840738117695,0.013610556721687317,-0.010048896074295044,-0.32242244482040405,0.052858542650938034,-0.543123722076416,-0.5441285371780396,0.12361335754394531,-0.19090932607650757
1749050310.5103984,-1.8292883078204554,-2.0443226299681605,0.752044979725973,-1.6547805271544398,-0.6165097395526331,-4.703954879437582,-0.015445321798324585,-0.0005676594446413219,-0.0001707820629235357,-0.016570040956139565,0.01261699479073286,-0.010409112088382244,-0.29739418625831604,0.03363365679979324,-0.5484350919723511,-0.5535488724708557,0.11386687308549881,-0.19276776909828186
1749050310.5104358,-1.82933217683901,-2.0443273983397425,0.7520411650287073,-1.654797216454977,-0.616493050252096,-4.703978959714071,-0.015403314493596554,-0.0005136406398378313,-0.00016451867122668773,-0.017104174941778183,0.011902478523552418,-0.010541217401623726,-0.30399906635284424,0.05483509600162506,-0.5581564903259277,-0.5388298630714417,0.13733817636966705,-0.19760863482952118
1749050310.510474,-1.8293550650226038,-2.044340272943014,0.7520564238177698,-1.6548487148680628,-0.6164825598346155,-4.703990880643026,-0.015474650077521801,-0.0004690154455602169,-0.00015871274808887392,-0.01818530447781086,0.012087566778063774,-0.011145162396132946,-0.2972668707370758,0.061856742948293686,-0.5589909553527832,-0.5460785627365112,0.15116830170154572,-0.19698980450630188
1749050310.5105162,-1.8294065634356897,-2.0443622074522914,0.7520888487445276,-1.6548687420287074,-0.6164029280291956,-4.704004232083456,-0.01556331291794777,-0.0003619787166826427,-0.00015332175826188177,-0.018981534987688065,0.013150518760085106,-0.012004628777503967,-0.2926809787750244,0.06530126929283142,-0.5645637512207031,-0.5499635338783264,0.15441474318504333,-0.17284131050109863
1749050310.5105546,-1.829430882130758,-2.0443507633604945,0.7520759741412562,-1.6549397907652796,-0.6163948217975062,-4.704073373471395,-0.01556263118982315,-0.00028773420490324497,-0.00014825171092525125,-0.019176147878170013,0.013467611744999886,-0.012786508537828922,-0.30833297967910767,0.06289537996053696,-0.5514274835586548,-0.5570793151855469,0.17088377475738525,-0.17865896224975586
1749050310.510592,-1.8294475714312952,-2.044300218621725,0.7520564238177698,-1.6549684009947718,-0.6163585821734827,-4.704086963330404,-0.01572360098361969,-0.00020605944155249745,-0.0001435393060091883,-0.019922789186239243,0.013595429249107838,-0.01286864373832941,-0.30589762330055237,0.06463269144296646,-0.566719114780426,-0.5617668628692627,0.16078317165374756,-0.17157140374183655
1749050310.5106323,-1.8295095602618616,-2.044338365594381,0.7520759741412562,-1.6550075016417445,-0.616378132496969,-4.704095665608541,-0.01633271388709545,3.6869594623567536e-05,-0.00013908874825574458,-0.02063012309372425,0.013588812202215195,-0.012482821010053158,-0.29431453347206116,0.10390464216470718,-0.5519341230392456,-0.572199285030365,0.18657180666923523,-0.18640552461147308
1749050310.5106702,-1.8295510450946253,-2.044319292108053,0.7520526091205042,-1.6550399265685023,-0.6163418928729456,-4.704119745885031,-0.01661575213074684,0.0002459940151311457,-0.00015488584176637232,-0.021829240024089813,0.014318416826426983,-0.012942181900143623,-0.27188771963119507,0.07332143187522888,-0.5601022243499756,-0.5895634293556213,0.17413030564785004,-0.1833556443452835
1749050310.510707,-1.8295663038836878,-2.044319292108053,0.7520564238177698,-1.6550952396788539,-0.6163142363177698,-4.704155747090475,-0.017412841320037842,0.0014033395564183593,-0.000156744645209983,-0.02333856374025345,0.013787753880023956,-0.013277238234877586,-0.28833597898483276,0.09640436619520187,-0.5669156312942505,-0.5802433490753174,0.15867483615875244,-0.19492749869823456
1749050310.5107436,-1.829623047505514,-2.0443436108031214,0.7520564238177698,-1.6551586590208949,-0.6162942091571253,-4.704195205365316,-0.017967715859413147,0.001909067970700562,-0.00015270846779458225,-0.023944057524204254,0.013468309305608273,-0.013153553009033203,-0.2828705906867981,0.10441415011882782,-0.5718455910682678,-0.5894278883934021,0.16463182866573334,-0.1832282990217209
1749050310.5107799,-1.8296311537372034,-2.044326444665426,0.7520812193499964,-1.6552335224547328,-0.6162079016314905,-4.704195205365316,-0.01769687794148922,0.0018984475173056126,-0.00014853838365525007,-0.027223801240324974,0.012632121331989765,-0.012311043217778206,-0.28224802017211914,0.11301908642053604,-0.5781835317611694,-0.5916125774383545,0.15519094467163086,-0.17610657215118408
1749050310.5108159,-1.8296831289874476,-2.044307371179098,0.7520487944232386,-1.6552583179869593,-0.6162651220904749,-4.7042123715030115,-0.018272755667567253,0.0018569210078567266,-0.0001445718517061323,-0.029810139909386635,0.012151416391134262,-0.011965044774115086,-0.2968151867389679,0.12181799113750458,-0.5833114981651306,-0.5990357398986816,0.16119472682476044,-0.18997786939144135
1749050310.510852,-1.8297308127032679,-2.0442878208556117,0.7520526091205042,-1.6553336582579554,-0.6161993185626429,-4.7042710224734705,-0.018940402194857597,0.0016802928876131773,-0.00014080567052587867,-0.03233057260513306,0.012453404255211353,-0.01328639592975378,-0.31815671920776367,0.17457999289035797,-0.5850737690925598,-0.5909815430641174,0.17638859152793884,-0.1888502687215805
1749050310.5108879,-1.8297465483294886,-2.0443111858763636,0.7520564238177698,-1.6554247341551722,-0.6161707083331507,-4.704294745122091,-0.020317798480391502,0.0017705232603475451,-0.00015705836995039135,-0.03411570191383362,0.01174868643283844,-0.013267748057842255,-0.29397639632225037,0.17638391256332397,-0.5800385475158691,-0.5977917313575745,0.18442034721374512,-0.18520750105381012
1749050310.5109243,-1.8297718206988733,-2.044307371179098,0.7520726362811487,-1.6554581127562464,-0.6161583105670374,-4.704365674649374,-0.021229201927781105,0.0038496090564876795,-0.00015591645205859095,-0.03675549104809761,0.01197823230177164,-0.012526281177997589,-0.29947879910469055,0.14323166012763977,-0.5949651598930359,-0.5984910130500793,0.18682080507278442,-0.19360485672950745
1749050310.5109606,-1.8298853079425257,-2.0442949734129847,0.7520378271685999,-1.65553679088735,-0.6161344687091272,-4.7043238321887415,-0.020748766139149666,0.004663409665226936,-0.0001684591406956315,-0.038389839231967926,0.012681431137025356,-0.012141845189034939,-0.294016033411026,0.14832378923892975,-0.5899211764335632,-0.5859302282333374,0.19473345577716827,-0.18914948403835297
1749050310.5109975,-1.829890553151266,-2.0442830524840296,0.7520688215838831,-1.6556245289244593,-0.6161072889911097,-4.704351727162496,-0.022459695115685463,0.004890843760222197,-0.00016984310059342533,-0.04117368161678314,0.013597268611192703,-0.012736695818603039,-0.3066989779472351,0.16430041193962097,-0.5892636179924011,-0.5810511708259583,0.197866290807724,-0.19358403980731964
1749050310.5113788,-1.8299158255206507,-2.044274469415182,0.7520487944232386,-1.6557122669615687,-0.6160796324359339,-4.704391066228048,-0.021916355937719345,0.004870346747338772,-0.00013903719082009047,-0.043565526604652405,0.014319908805191517,-0.01385539397597313,-0.30753928422927856,0.18324708938598633,-0.5997932553291321,-0.586340069770813,0.20533064007759094,-0.17934879660606384
1749050310.5134163,-1.8299625555621546,-2.044267793694967,0.7520526091205042,-1.6557842693724574,-0.6160782019244593,-4.704392615948812,-0.023178499191999435,0.004774738568812609,-0.000162168696988374,-0.04568624868988991,0.01427296083420515,-0.014057791791856289,-0.3221520781517029,0.21328867971897125,-0.6034522652626038,-0.6086282134056091,0.21525423228740692,-0.18298207223415375
1749050310.5543182,-1.8300312201129358,-2.0442520580687464,0.7520411650287073,-1.6559115848936976,-0.6160505453692835,-4.704432312642233,-0.025230109691619873,0.0054228221997618675,-0.0008073323988355696,-0.049557361751794815,0.01500455942004919,-0.01346557680517435,-0.31187498569488525,0.19164913892745972,-0.6067011952400208,-0.6081158518791199,0.20701318979263306,-0.19105955958366394
1749050310.554365,-1.8300517241107386,-2.044236799279684,0.752028767262594,-1.6560265026488246,-0.6159876028644007,-4.704452697430746,-0.025888431817293167,0.006175692193210125,-0.001431819866411388,-0.05263805389404297,0.01729162409901619,-0.014728528447449207,-0.3170090913772583,0.19893723726272583,-0.56883305311203,-0.5774316787719727,0.2057972401380539,-0.1931064873933792
1749050310.5544055,-1.8301079908954065,-2.044220109979147,0.7520726362811487,-1.6561385593810023,-0.6159823576556605,-4.704492155705587,-0.026199903339147568,0.006422570440918207,-0.0014231487875804305,-0.05444609746336937,0.018578849732875824,-0.01613382063806057,-0.3314346373081207,0.20164716243743896,-0.5980483293533325,-0.5735289454460144,0.21344485878944397,-0.20297418534755707
1749050310.5544446,-1.8302252928363245,-2.0442663631834925,0.7520135084735315,-1.6562496624388636,-0.6158731619464319,-4.704531852399008,-0.027225054800510406,0.0066254837438464165,-0.001330618979409337,-0.056249938905239105,0.019077131524682045,-0.01667044870555401,-0.3256036043167114,0.20004940032958984,-0.5922176241874695,-0.5820288062095642,0.22012633085250854,-0.2186790257692337
1749050310.5544832,-1.8302267233477991,-2.0442077122130335,0.7520564238177698,-1.6563765011229457,-0.6158831755267542,-4.704536859189169,-0.029106831178069115,0.007159716449677944,-0.0012797783128917217,-0.059008993208408356,0.020576396957039833,-0.01726633310317993,-0.31155672669410706,0.21555176377296448,-0.5832634568214417,-0.5713456869125366,0.220133438706398,-0.21662618219852448
1749050310.5545206,-1.830271069203512,-2.0442143879332484,0.7520559469806116,-1.6564532719054164,-0.6158197561847132,-4.704588476811544,-0.02921314537525177,0.006555215921252966,-0.0013281579595059156,-0.060244012624025345,0.02161521278321743,-0.01891332119703293,-0.3307524621486664,0.22695386409759521,-0.5882522463798523,-0.5834305286407471,0.2058563232421875,-0.21042363345623016
1749050310.5545578,-1.8303750197040003,-2.0441490612425746,0.752016846333639,-1.6566082439818324,-0.6157811323748987,-4.704677883778707,-0.029100682586431503,0.006485098507255316,-0.0015787417069077492,-0.06241729483008385,0.02110891602933407,-0.02061423659324646,-0.3432791531085968,0.24736645817756653,-0.6094568967819214,-0.5565692186355591,0.2108156383037567,-0.19498862326145172
1749050310.5545945,-1.8304532209979456,-2.0441562137999476,0.7520325819598597,-1.6567393742003382,-0.6157634894000452,-4.704672638569967,-0.030470218509435654,0.007051953114569187,-0.0017592168878763914,-0.06424465030431747,0.02302071824669838,-0.020937303081154823,-0.3583303391933441,0.23878121376037598,-0.584092915058136,-0.5615724325180054,0.22226563096046448,-0.20317263901233673
1749050310.5546317,-1.8304665724383753,-2.0441476307311,0.752028767262594,-1.6568709812560023,-0.6156576315509241,-4.704755012189047,-0.03293498232960701,0.007606579456478357,-0.002531080273911357,-0.0635870099067688,0.022658079862594604,-0.02218043990433216,-0.31598085165023804,0.2472979575395584,-0.5757961869239807,-0.5447862148284912,0.2286258041858673,-0.18631064891815186
1749050310.5546684,-1.830500904713766,-2.044178148309225,0.7520049254046839,-1.6569940052428187,-0.6156757513629358,-4.7047757546054285,-0.033482566475868225,0.007344616577029228,-0.0025351562071591616,-0.06475348770618439,0.022849373519420624,-0.02212582156062126,-0.31485188007354736,0.24219034612178802,-0.5904171466827393,-0.5669448375701904,0.21671372652053833,-0.19987671077251434
1749050310.5547056,-1.8306263128863733,-2.0441352329649867,0.7520087401019495,-1.6571184597411097,-0.6156156698810022,-4.704820100461141,-0.03390980139374733,0.007241525687277317,-0.002283339621499181,-0.06681492924690247,0.023502005264163017,-0.022544341161847115,-0.32385045289993286,0.25155481696128845,-0.5731276869773865,-0.5389736890792847,0.23710227012634277,-0.2008199542760849
1749050310.5547419,-1.8306902090655726,-2.044119974175924,0.7520244757281702,-1.657252927819723,-0.6155713240252894,-4.704899374638693,-0.034371212124824524,0.007283131126314402,-0.0018400115659460425,-0.06676997989416122,0.02320035547018051,-0.023022519424557686,-0.34022071957588196,0.2731805741786957,-0.5784276127815247,-0.5478251576423645,0.2298542708158493,-0.19969558715820312
1749050310.5547786,-1.830749813710348,-2.0441118679442347,0.7520049254046839,-1.657400747338766,-0.6155598799334925,-4.704900805150167,-0.035205937922000885,0.007524892687797546,-0.0015491979429498315,-0.06403577327728271,0.024869361892342567,-0.02239268645644188,-0.33221903443336487,0.253193736076355,-0.5797387361526489,-0.5648370385169983,0.23836562037467957,-0.2147582471370697
1749050310.5548153,-1.830799404774801,-2.0440999470152796,0.7520087401019495,-1.6575199566283167,-0.6155498663531702,-4.704983417187826,-0.036481983959674835,0.007342588622123003,-0.0013995347544550896,-0.06375334411859512,0.024153858423233032,-0.023108193650841713,-0.32390761375427246,0.2762395739555359,-0.5881873369216919,-0.5893235206604004,0.25066420435905457,-0.21463973820209503
1749050310.5548515,-1.8308823744403284,-2.0440837345519007,0.7520316282855433,-1.657659193078512,-0.615432087575094,-4.705016080533163,-0.036810051649808884,0.0070959352888166904,-0.0013351098168641329,-0.06453488022089005,0.026091547682881355,-0.023378727957606316,-0.31644296646118164,0.2772062122821808,-0.5931137204170227,-0.5996514558792114,0.25315120816230774,-0.21294958889484406
1749050310.554888,-1.8309982458697718,-2.044063707391256,0.7519930044757288,-1.6577869854369105,-0.6154111067401331,-4.705033127461569,-0.037482328712940216,0.007938509806990623,-0.0012328013544902205,-0.0662418082356453,0.026305077597498894,-0.02419077791273594,-0.3201354146003723,0.28148046135902405,-0.5999062657356262,-0.6061317920684814,0.25409990549087524,-0.20396675169467926
1749050310.5549238,-1.8310554663287562,-2.0440670452513636,0.7520158926593226,-1.657914777795309,-0.6153596083270472,-4.705093208943502,-0.03829788416624069,0.008470291271805763,-0.0012860671849921346,-0.0691196545958519,0.02777978964149952,-0.025424297899007797,-0.3138235807418823,0.2823391556739807,-0.5763251781463623,-0.6136401295661926,0.24342282116413116,-0.19416792690753937
1749050310.5549605,-1.8311193625079554,-2.044032236138815,0.7520125547992151,-1.6580735645689906,-0.6152833143817347,-4.7051793972598475,-0.03808475285768509,0.00901873130351305,-0.0015562906628474593,-0.07059291005134583,0.027472661808133125,-0.025227434933185577,-0.321797639131546,0.2812020778656006,-0.5855515003204346,-0.6055134534835815,0.25291478633880615,-0.20475254952907562
1749050310.5549967,-1.831179443989889,-2.0440432033934535,0.7519968191729944,-1.6581856213011683,-0.6152203718768519,-4.705208365117208,-0.038009487092494965,0.008044097572565079,-0.0016817350406199694,-0.06893705576658249,0.028168467804789543,-0.02614424005150795,-0.38813427090644836,0.3163559138774872,-0.5845926403999329,-0.6421879529953003,0.25695928931236267,-0.2009865939617157
1749050310.5550334,-1.8312714735614222,-2.044016023675436,0.7519810835467737,-1.6583482227721156,-0.6151564756976526,-4.705272022877828,-0.040025174617767334,0.008373744785785675,-0.0016314589884132147,-0.06806126981973648,0.028277147561311722,-0.02610216662287712,-0.35023802518844604,0.31958091259002686,-0.5820674896240234,-0.6619109511375427,0.27256330847740173,-0.19349180161952972
1749050310.555424,-1.8313434759723108,-2.043975969354147,0.7519810835467737,-1.658487936059469,-0.6151555220233362,-4.705319825802938,-0.04019175097346306,0.009485563263297081,-0.00155332509893924,-0.07243873178958893,0.02873145416378975,-0.028396088629961014,-0.33236852288246155,0.30234494805336,-0.57798832654953,-0.6495022177696228,0.2686653137207031,-0.19642722606658936
1749050310.5573928,-1.8314507643329065,-2.04400696376943,0.7519810835467737,-1.658647199670309,-0.6150487104998987,-4.705386940632955,-0.040392737835645676,0.009030758403241634,-0.0014103291323408484,-0.07599803060293198,0.02874048613011837,-0.02678283303976059,-0.35457009077072144,0.3264530897140503,-0.5817731618881226,-0.6329057216644287,0.27128922939300537,-0.19641953706741333
1749050310.5982928,-1.8315308729754847,-2.043995042840475,0.7519968191729944,-1.6587988338866175,-0.615004841481344,-4.705397073422567,-0.041814181953668594,0.009579429402947426,-0.0011729905381798744,-0.07838432490825653,0.02951144054532051,-0.027127010747790337,-0.3821842670440674,0.3252091705799103,-0.5982228517532349,-0.6468532681465149,0.2929362654685974,-0.20611222088336945
1749050310.5983393,-1.8315799872027796,-2.0439397297301234,0.751988712941305,-1.6589504681029261,-0.614960018788473,-4.705507342015402,-0.04270325228571892,0.010177982039749622,-0.001120049157179892,-0.07955126464366913,0.02982158027589321,-0.02815803699195385,-0.3513697385787964,0.33801063895225525,-0.588591992855072,-0.6423564553260803,0.265019953250885,-0.19163700938224792
1749050310.5983803,-1.831707779561178,-2.043950696984762,0.7519572416888636,-1.6591407261290492,-0.614845101033346,-4.705544773732321,-0.04445473477244377,0.010439884848892689,-0.0009285220876336098,-0.08260805904865265,0.03054521605372429,-0.02971172332763672,-0.3679462671279907,0.33751437067985535,-0.5701128244400024,-0.6439125537872314,0.2963818311691284,-0.19000302255153656
1749050310.5984192,-1.831764046345846,-2.0439421139159144,0.7520006338702601,-1.6593042812743128,-0.614821736012594,-4.705592934285299,-0.04407871887087822,0.010367155075073242,-0.000842586625367403,-0.08538179099559784,0.03095799684524536,-0.0300125889480114,-0.34973371028900146,0.33208122849464417,-0.5908828377723694,-0.615859866142273,0.3024953603744507,-0.18989038467407227
1749050310.5984573,-1.8318946997271937,-2.043926855126852,0.7520039717303675,-1.6595031223692835,-0.6147659460650843,-4.705653015767233,-0.04657602310180664,0.010016724467277527,-0.0008452736656181514,-0.08745162934064865,0.03165142610669136,-0.03116767294704914,-0.32186299562454224,0.3432548940181732,-0.5979522466659546,-0.6281957626342773,0.30301088094711304,-0.19050848484039307
1749050310.5984964,-1.8320782820331019,-2.0438558063902796,0.7519848982440394,-1.659849306146139,-0.6146381537066858,-4.705785099660055,-0.046715881675481796,0.011113634333014488,-0.001197998528368771,-0.0920904353260994,0.03339741379022598,-0.03255904093384743,-0.35552340745925903,0.3349827826023102,-0.5913057327270508,-0.6181317567825317,0.31176361441612244,-0.1643330156803131
1749050310.5985343,-1.8320782820331019,-2.0438558063902796,0.7519848982440394,-1.659849306146139,-0.6146381537066858,-4.705785099660055,-0.046715881675481796,0.011113634333014488,-0.001197998528368771,-0.0920904353260994,0.03339741379022598,-0.03255904093384743,-0.35552340745925903,0.3349827826023102,-0.5913057327270508,-0.6181317567825317,0.31176361441612244,-0.1643330156803131
1749050310.5985713,-1.8321784178363245,-2.043835779229635,0.7519686857806605,-1.6600095234312953,-0.6145456472979944,-4.705860916768209,-0.04825560376048088,0.011511394754052162,-0.0012791691115126014,-0.09337064623832703,0.033517781645059586,-0.032357580959796906,-0.36039456725120544,0.34694746136665344,-0.5723385214805603,-0.6163035035133362,0.331132709980011,-0.18296164274215698
1749050310.598608,-1.8322871367083948,-2.0438229046263636,0.751995865498678,-1.6602126560606898,-0.6144979635821741,-4.705936614667074,-0.04950635880231857,0.011344009079039097,-0.0014353018486872315,-0.09816233068704605,0.03396163508296013,-0.032648999243974686,-0.3440489172935486,0.353618860244751,-0.5967189073562622,-0.5892460346221924,0.3226318359375,-0.1648392528295517
1749050310.5986447,-1.8323209921466272,-2.0438267193236292,0.7519848982440394,-1.6604038677611292,-0.6144655386554163,-4.705974404011862,-0.052119605243206024,0.011389353312551975,-0.0013771001249551773,-0.09848082810640335,0.034502625465393066,-0.032588664442300797,-0.33897021412849426,0.3876243531703949,-0.5869430303573608,-0.5723836421966553,0.3253318667411804,-0.15850301086902618
1749050310.5986814,-1.8324435392962855,-2.0437947712340296,0.7519920508014124,-1.6606298885741175,-0.6143663565265101,-4.7060598770724695,-0.050056226551532745,0.011826175265014172,-0.0011234006378799677,-0.09622311592102051,0.03467616066336632,-0.03291741758584976,-0.3219425678253174,0.3714880645275116,-0.5902770757675171,-0.5900334715843201,0.3361031413078308,-0.15396830439567566
1749050310.5987182,-1.8325441519366663,-2.043732305566305,0.7519572416888636,-1.6608020267882289,-0.6142833868609827,-4.706097666417257,-0.05076565220952034,0.012255016714334488,-0.0010732462396845222,-0.09711038321256638,0.036137066781520844,-0.03400928154587746,-0.36208489537239075,0.3494603931903839,-0.5967081785202026,-0.5867772698402405,0.33813267946243286,-0.1605970412492752
1749050310.598754,-1.8327115217791956,-2.043755193749899,0.7519415060626429,-1.661027570764059,-0.6142342726336878,-4.706223313008444,-0.053901512175798416,0.01156513299793005,-0.0010360510786995292,-0.09799554198980331,0.03616311401128769,-0.034527599811553955,-0.3559841811656952,0.3635019063949585,-0.58807373046875,-0.6085919141769409,0.3328300714492798,-0.14783011376857758
1749050310.5987906,-1.832775894795553,-2.043715616265768,0.7519448439227503,-1.6611806354918421,-0.6141899267779749,-4.706276480351583,-0.05414570868015289,0.011672266758978367,-0.001083098235540092,-0.10189622640609741,0.03765256702899933,-0.0358753576874733,-0.353020578622818,0.38316893577575684,-0.5960381031036377,-0.588158130645752,0.34860759973526,-0.1465321034193039
1749050310.5988276,-1.832930866871969,-2.0436908207335414,0.7519763151751917,-1.6614028416075648,-0.6140592733966272,-4.70633310476412,-0.05488305538892746,0.011728993616998196,-0.0011435558553785086,-0.09819205105304718,0.03958665952086449,-0.035963475704193115,-0.3437100648880005,0.36612382531166077,-0.5867195725440979,-0.612366259098053,0.35247889161109924,-0.16449476778507233
1749050310.5988638,-1.8329885641681116,-2.0436741314330042,0.7519572416888636,-1.6615869007506312,-0.6140063444720667,-4.706398431454794,-0.05562688037753105,0.01100603211671114,-0.0019441854674369097,-0.09861406683921814,0.03878757357597351,-0.03545202687382698,-0.3505893051624298,0.3910161852836609,-0.5948262810707092,-0.628235936164856,0.363106369972229,-0.15695740282535553
1749050310.5989008,-1.8331158796893519,-2.0436274013915003,0.7519572416888636,-1.661797662774557,-0.613929573689596,-4.7064929644214075,-0.05645408853888512,0.011583849787712097,-0.001952857943251729,-0.09965624660253525,0.03977994620800018,-0.0354941301047802,-0.3421671986579895,0.3760910928249359,-0.5976738929748535,-0.6437042951583862,0.37660807371139526,-0.16317036747932434
1749050310.5989377,-1.8332164923297327,-2.043584486047262,0.7519572416888636,-1.6619883976378382,-0.6138194243060511,-4.70653742948641,-0.05812127888202667,0.011074448935687542,-0.0017711283871904016,-0.10205144435167313,0.0416189543902874,-0.03461694344878197,-0.34778523445129395,0.4023033380508423,-0.5794594287872314,-0.6476507782936096,0.3452455699443817,-0.16008688509464264
1749050310.598974,-1.8333595434771937,-2.043579240838522,0.7519763151751917,-1.6622120342650355,-0.6137736479388636,-4.706578556691305,-0.0595439076423645,0.01239295955747366,-0.0015768137527629733,-0.10393371433019638,0.042214881628751755,-0.03688150644302368,-0.34854045510292053,0.38047873973846436,-0.5898106098175049,-0.6563167572021484,0.34360456466674805,-0.16529086232185364
1749050310.59901,-1.8335264364825647,-2.043586393395895,0.7519648710833948,-1.6624304256834925,-0.6136553923236292,-4.706681553517477,-0.059502243995666504,0.011578785255551338,-0.0014400867512449622,-0.10504554212093353,0.042233552783727646,-0.03666022792458534,-0.34604501724243164,0.39422082901000977,-0.5906974673271179,-0.6676002740859985,0.35467851161956787,-0.16639918088912964
1749050310.5994627,-1.8335993925677698,-2.0435663662352503,0.7519648710833948,-1.6626645527281703,-0.6135104338275355,-4.706769291554586,-0.060441602021455765,0.01113678514957428,-0.0011398493079468608,-0.10882186144590378,0.042930953204631805,-0.03688172250986099,-0.36158818006515503,0.43416574597358704,-0.6025421619415283,-0.6530097723007202,0.3583744764328003,-0.18235637247562408
1749050310.6014354,-1.8337467352496546,-2.043553968469137,0.7519610563861292,-1.6628567181029261,-0.6134446302997034,-4.706834260617391,-0.06165393069386482,0.011992039158940315,-0.0010537387570366263,-0.11189799755811691,0.04497108981013298,-0.03831638768315315,-0.36761507391929626,0.41741523146629333,-0.5940035581588745,-0.6584722995758057,0.36795949935913086,-0.16757985949516296
1749050310.642289,-1.8338287512408655,-2.0435105762877406,0.7519448439227503,-1.663114687005514,-0.6133917013751429,-4.7069565693484705,-0.061162009835243225,0.012668999843299389,-0.0011438101064413786,-0.1152639091014862,0.04678218066692352,-0.03890009596943855,-0.37551605701446533,0.4045831561088562,-0.6063171625137329,-0.663910984992981,0.34975916147232056,-0.14926481246948242
1749050310.6423352,-1.8339875380145472,-2.0434872112669886,0.7519448439227503,-1.6633454761900843,-0.6132648626910608,-4.706994358693258,-0.06566447019577026,0.012378259561955929,-0.0013282153522595763,-0.1194770336151123,0.0473642498254776,-0.03919344022870064,-0.38233816623687744,0.4012972116470337,-0.6069929003715515,-0.6353220343589783,0.34001052379608154,-0.18053463101387024
1749050310.642376,-1.8341425100909632,-2.0434824428954066,0.7519648710833948,-1.6635900936522425,-0.6131761709796351,-4.707078520451681,-0.06328989565372467,0.01232354436069727,-0.0014736560406163335,-0.12267240881919861,0.04618794843554497,-0.03961693122982979,-0.3723210394382477,0.4011857509613037,-0.6207054257392883,-0.6489072442054749,0.3351350724697113,-0.15677645802497864
1749050310.6424143,-1.8342168966876429,-2.043469568292135,0.7519329229937952,-1.663804670373434,-0.6130836645709437,-4.7071279923068445,-0.06360508501529694,0.012178314849734306,-0.001537964795716107,-0.1230132207274437,0.04459651559591293,-0.04045892879366875,-0.38969185948371887,0.41556933522224426,-0.6094384789466858,-0.6315809488296509,0.3388814330101013,-0.1758013367652893
1749050310.6424527,-1.834348503743307,-2.0434495411314906,0.7519648710833948,-1.6640902958311976,-0.6129773298846644,-4.707196776066915,-0.06704099476337433,0.012525089085102081,-0.0016695883823558688,-0.12510935962200165,0.04492177441716194,-0.039930012077093124,-0.3794056475162506,0.41961658000946045,-0.6111310124397278,-0.6683734655380249,0.3555366098880768,-0.18904554843902588
1749050310.6424913,-1.8345001379596155,-2.043421884576315,0.7519367376910608,-1.6643220386900843,-0.6129124800311487,-4.707284514104025,-0.06866554915904999,0.01257316768169403,-0.0015675821341574192,-0.12774911522865295,0.04614555835723877,-0.04029691964387894,-0.33945393562316895,0.4294891953468323,-0.6100536584854126,-0.640161395072937,0.3734496235847473,-0.2056860625743866
1749050310.6425295,-1.8346360365497034,-2.0434094868102015,0.7519329229937952,-1.6645971737303675,-0.6128318945514124,-4.707371894513265,-0.0677804946899414,0.013492997735738754,-0.0017003474058583379,-0.12537448108196259,0.04755384474992752,-0.04177403077483177,-0.3747645616531372,0.43048912286758423,-0.601632833480835,-0.6348378658294678,0.35838019847869873,-0.16547879576683044
1749050310.6425667,-1.834769074116842,-2.0433150730528773,0.7519210020648401,-1.6648479900755824,-0.6127365271197718,-4.7074647585498255,-0.07082191109657288,0.013604742474853992,-0.00228502438403666,-0.12368711829185486,0.04755908623337746,-0.042218878865242004,-0.36406660079956055,0.41821449995040894,-0.6170142292976379,-0.6800435185432434,0.3595923185348511,-0.193350687623024
1749050310.6426044,-1.8349550406085413,-2.0432993374266566,0.75189716020693,-1.6650835476317347,-0.6126096884356897,-4.707583252583639,-0.07208409905433655,0.013789200223982334,-0.0025347645860165358,-0.13037575781345367,0.04822702705860138,-0.04270702227950096,-0.3335084915161133,0.42492103576660156,-0.5826148986816406,-0.6617894768714905,0.3459911346435547,-0.19753733277320862
1749050310.6426418,-1.8350098768817347,-2.04329838375234,0.7519210020648401,-1.6653500996031703,-0.6125052610980433,-4.707663838063375,-0.07267460972070694,0.013057579286396503,-0.0028710681945085526,-0.1283998191356659,0.05129164457321167,-0.04360886290669441,-0.3347245156764984,0.423414409160614,-0.5977550148963928,-0.641650915145874,0.32289427518844604,-0.1730167120695114
1749050310.6426787,-1.8351925055133265,-2.04327454189443,0.7518847624408167,-1.6656509838499964,-0.6124246756183069,-4.707806770001547,-0.0726395770907402,0.01257654745131731,-0.002741685602813959,-0.13033148646354675,0.05106547474861145,-0.04410891607403755,-0.38032323122024536,0.4664575159549713,-0.5900309681892395,-0.6858928799629211,0.33361971378326416,-0.19058892130851746
1749050310.642722,-1.8353450934039515,-2.0432473621764125,0.7519009749041956,-1.66587557415151,-0.6123202482806605,-4.707859698926107,-0.07442255318164825,0.013075041584670544,-0.0026635215617716312,-0.1327773779630661,0.05106479302048683,-0.04384198039770126,-0.3474682569503784,0.4741688668727875,-0.5857978463172913,-0.6907328367233276,0.34859389066696167,-0.2075682282447815
1749050310.6427596,-1.8355086485492151,-2.043211122552389,0.7518733183490198,-1.6661669216551722,-0.6122363249408167,-4.707909051571981,-0.07483112066984177,0.012971621006727219,-0.0027632545679807663,-0.13675899803638458,0.05028943717479706,-0.043603308498859406,-0.37146714329719543,0.4768909215927124,-0.5825028419494629,-0.6888262033462524,0.3659616708755493,-0.2064373791217804
1749050310.6427972,-1.8356836477862757,-2.0432073078551234,0.7519081274615687,-1.6664415798582972,-0.612136189137594,-4.708024565373556,-0.07562828063964844,0.014013607054948807,-0.0028957989998161793,-0.14090333878993988,0.05070333555340767,-0.04388671740889549,-0.38208580017089844,0.45425641536712646,-0.5919709205627441,-0.6674851179122925,0.3712802827358246,-0.2151733934879303
1749050310.6428337,-1.8358014265643519,-2.0431748829283656,0.7518771330462855,-1.666751047173971,-0.6119778792010706,-4.708089653645651,-0.07661252468824387,0.01348547451198101,-0.0027488635387271643,-0.14332032203674316,0.05199836567044258,-0.044549308717250824,-0.34405842423439026,0.5020230412483215,-0.5947965979576111,-0.6383847594261169,0.342995822429657,-0.20519378781318665
1749050310.6428702,-1.8359687964068812,-2.043154378930563,0.751892391835348,-1.6670156917967738,-0.611859146748678,-4.70823568502535,-0.07731257379055023,0.013973947614431381,-0.002845451468601823,-0.14998801052570343,0.05330776795744896,-0.04630013182759285,-0.36476871371269226,0.47143298387527466,-0.5846627354621887,-0.6604708433151245,0.3528963327407837,-0.23455756902694702
1749050310.6429071,-1.8361409346209925,-2.0431348286070765,0.7518771330462855,-1.6673366032042445,-0.611762825642721,-4.708316389714376,-0.07909947633743286,0.01394412387162447,-0.0029330344405025244,-0.15317292511463165,0.053972721099853516,-0.04841788485646248,-0.362049400806427,0.5127503871917725,-0.5789822936058044,-0.6151396036148071,0.34170371294021606,-0.22524231672286987
1749050310.6429439,-1.8362959066974085,-2.0431062183775843,0.7518647352801722,-1.667659421960348,-0.6116746107684534,-4.708396975194113,-0.07975911349058151,0.01479007862508297,-0.0026989674661308527,-0.1534450799226761,0.05363284796476364,-0.04888142645359039,-0.34460118412971497,0.4810236990451813,-0.5960445404052734,-0.6018168330192566,0.35861924290657043,-0.21745269000530243
1749050310.6429806,-1.8364570776568812,-2.0430475674071253,0.7518647352801722,-1.6679307423033656,-0.6115081946002405,-4.708472673092977,-0.07842999696731567,0.014009718783199787,-0.0027360112871974707,-0.15690116584300995,0.053890302777290344,-0.04933115839958191,-0.37770816683769226,0.4993756115436554,-0.5901204943656921,-0.6164143681526184,0.35100552439689636,-0.2162674367427826
1749050310.643017,-1.8366249243365687,-2.043004652062887,0.7518251577960413,-1.6682144604124964,-0.611450497304098,-4.708617035542623,-0.08191991597414017,0.014702310785651207,-0.0026062680408358574,-0.15316066145896912,0.053289663046598434,-0.0500812828540802,-0.4022873640060425,0.5008270144462585,-0.5856538414955139,-0.6149994134902954,0.3598201870918274,-0.20811772346496582
1749050310.64342,-1.8367498556720179,-2.043018957177633,0.7518218199359339,-1.6685525379576625,-0.611337963734762,-4.708735410367147,-0.07824515551328659,0.01503208838403225,-0.002911604242399335,-0.15184521675109863,0.05611024051904678,-0.04945090413093567,-0.4052523970603943,0.5265440344810486,-0.5825706720352173,-0.6405298709869385,0.3710966110229492,-0.23804031312465668
1749050310.64533,-1.8369219938861292,-2.0429636440672816,0.7518218199359339,-1.6688281498351039,-0.6111725012408655,-4.708797160779135,-0.0824137032032013,0.01627526804804802,-0.0030231825076043606,-0.15214882791042328,0.05725976824760437,-0.05168842896819115,-0.3922610878944397,0.5140537023544312,-0.5795983076095581,-0.647988498210907,0.35946500301361084,-0.24716107547283173
1749050310.690297,-1.8371122519122522,-2.042950292626852,0.7518132368670862,-1.6691271267332972,-0.6111343542682093,-4.708936635647909,-0.08455148339271545,0.016330566257238388,-0.003018031595274806,-0.15268388390541077,0.058001480996608734,-0.05405116826295853,-0.3833920955657959,0.4991391897201538,-0.5766010880470276,-0.6415715217590332,0.34581464529037476,-0.22782200574874878
1749050310.6903427,-1.8372934500323694,-2.0429140530028285,0.7518218199359339,-1.669488092462057,-0.6110141913043421,-4.7090376059161585,-0.08581514656543732,0.016485296189785004,-0.002949741203337908,-0.15437953174114227,0.058438047766685486,-0.054575808346271515,-0.3703768253326416,0.5125459432601929,-0.5750969052314758,-0.6715467572212219,0.36622294783592224,-0.23039604723453522
1749050310.6903825,-1.8374694029437464,-2.0428811512389125,0.7518170515643519,-1.6697870693602503,-0.6108945051776331,-4.709133569394247,-0.08682293444871902,0.016942253336310387,-0.002939443802461028,-0.15658646821975708,0.05901753902435303,-0.056118134409189224,-0.36595916748046875,0.5211213827133179,-0.5691217184066772,-0.6845192909240723,0.3434668183326721,-0.23144912719726562
1749050310.6904213,-1.8376529852496546,-2.0428506336607875,0.7518447081195276,-1.6700660190977992,-0.6107433477984827,-4.709229652081625,-0.08789616078138351,0.016643023118376732,-0.0025799109134823084,-0.16178280115127563,0.05983002483844757,-0.05885207653045654,-0.37482380867004395,0.528510570526123,-0.5765823721885681,-0.6844503283500671,0.3555828332901001,-0.2161661982536316
1749050310.69046,-1.837855641041891,-2.042802949944967,0.7518289724933069,-1.6704007587828578,-0.6106198469745081,-4.709354941044943,-0.08844471722841263,0.017349418252706528,-0.002337448066100478,-0.16749617457389832,0.06050889194011688,-0.05957997217774391,-0.38681095838546753,0.5022619962692261,-0.5855675935745239,-0.6776791214942932,0.35706374049186707,-0.2074050009250641
1749050310.6904979,-1.837977711354391,-2.042774816552633,0.7518013159381312,-1.6707703075804652,-0.6105087439166468,-4.709513250981466,-0.08761927485466003,0.01684265024960041,-0.0020258030854165554,-0.17135851085186005,0.061410482972860336,-0.05813305079936981,-0.40415459871292114,0.5293760895729065,-0.5811269879341125,-0.6627305150032043,0.3688192367553711,-0.21291351318359375
1749050310.6905353,-1.8382089773761194,-2.042753835717672,0.7518208662616175,-1.6711012325682582,-0.6103609243976038,-4.709599081669943,-0.09196851402521133,0.017759669572114944,-0.001889172475785017,-0.17543233931064606,0.06198753044009209,-0.05813804641366005,-0.35887250304222107,0.5384482741355896,-0.5879201889038086,-0.6148568987846375,0.35973984003067017,-0.22589275240898132
1749050310.6905727,-1.8384082953082483,-2.0427338085570277,0.7517979780780237,-1.6714474163451136,-0.6102412382708948,-4.709729496632711,-0.08979513496160507,0.01821163296699524,-0.0018267527921125293,-0.1750880479812622,0.062104299664497375,-0.060400307178497314,-0.40152376890182495,0.5375617146492004,-0.6027942895889282,-0.6190760731697083,0.37544068694114685,-0.21067264676094055
1749050310.6906102,-1.8386004606830042,-2.042631765405172,0.7518399397479456,-1.6717592678465785,-0.6101287047015589,-4.709842983876364,-0.09496095776557922,0.018784550949931145,-0.0018296790076419711,-0.1734982132911682,0.061810869723558426,-0.06224657595157623,-0.38911619782447815,0.5294503569602966,-0.5983796119689941,-0.6402367353439331,0.3932817578315735,-0.21019035577774048
1749050310.6906476,-1.8388126532184046,-2.042607923547262,0.7518208662616175,-1.6721569500365199,-0.6099775473224085,-4.709950868283407,-0.09354108572006226,0.01955300010740757,-0.002049872884526849,-0.17690663039684296,0.06236277520656586,-0.06320779025554657,-0.3938165009021759,0.5414789319038391,-0.5990651249885559,-0.6268975734710693,0.3907850384712219,-0.18831759691238403
1749050310.6906843,-1.838973347340719,-2.0425826511778773,0.7517860571490687,-1.672511716882223,-0.6098960081683558,-4.710093800221578,-0.0929742082953453,0.020121848210692406,-0.0020934753119945526,-0.1746523678302765,0.06413469463586807,-0.06319260597229004,-0.3922121226787567,0.5200626254081726,-0.586428701877594,-0.6707902550697327,0.3983784317970276,-0.19665926694869995
1749050310.6907213,-1.838973347340719,-2.0425826511778773,0.7517860571490687,-1.672511716882223,-0.6098960081683558,-4.710093800221578,-0.0929742082953453,0.020121848210692406,-0.0020934753119945526,-0.1746523678302765,0.06413469463586807,-0.06319260597229004,-0.3922121226787567,0.5200626254081726,-0.586428701877594,-0.6707902550697327,0.3983784317970276,-0.19665926694869995
1749050310.6907575,-1.8391531149493616,-2.0425812206664027,0.7518089453326624,-1.6728736362852992,-0.6097729841815394,-4.710203353558676,-0.09549954533576965,0.020198343321681023,-0.002469337312504649,-0.17665039002895355,0.06732245534658432,-0.06298597902059555,-0.3463374674320221,0.5265634059906006,-0.5990760326385498,-0.6566287279129028,0.3709707260131836,-0.18854168057441711
1749050310.6907945,-1.8395498434649866,-2.042450567285055,0.7517970244037073,-1.673594137231344,-0.6094887892352503,-4.710478488598959,-0.09585854411125183,0.020881412550807,-0.0032167600002139807,-0.18220597505569458,0.06768892705440521,-0.06241723895072937,-0.40110304951667786,0.5134318470954895,-0.5900151133537292,-0.6313610076904297,0.36222583055496216,-0.20434051752090454
1749050310.690832,-1.8397024313556116,-2.042417665521139,0.7517932097064417,-1.673948427239889,-0.609349552785055,-4.710591499005453,-0.09631842374801636,0.02087327279150486,-0.0033587247598916292,-0.18993307650089264,0.067874014377594,-0.06274641305208206,-0.38399791717529297,0.5267502665519714,-0.5745403170585632,-0.6032179594039917,0.38578084111213684,-0.21664778888225555
1749050310.6908689,-1.839987579976217,-2.042382379571432,0.7518003622638147,-1.6743656597533167,-0.6092217604266565,-4.710723821316854,-0.09798616170883179,0.02114410139620304,-0.003210528753697872,-0.18878285586833954,0.07040836662054062,-0.06244965270161629,-0.3705480098724365,0.5102390646934509,-0.5976234078407288,-0.6273399591445923,0.37479862570762634,-0.2229788601398468
1749050310.690905,-1.8401344458209437,-2.0422989330687464,0.751784626637594,-1.6747290096678675,-0.6090815703021448,-4.710859243069784,-0.09904193133115768,0.02146715670824051,-0.0029487491119652987,-0.19311299920082092,0.07002794742584229,-0.06267773360013962,-0.4004245102405548,0.5258025527000427,-0.5812351107597351,-0.6004328727722168,0.37399178743362427,-0.22285310924053192
1749050310.6909425,-1.840329949055807,-2.0422750912108363,0.751784626637594,-1.6751429043211878,-0.6089265982257288,-4.71097976366152,-0.09915094077587128,0.022656166926026344,-0.0024578282609581947,-0.19006367027759552,0.07167413830757141,-0.0629783421754837,-0.34929031133651733,0.5149069428443909,-0.6075661182403564,-0.589573323726654,0.38221535086631775,-0.22763073444366455
1749050310.6909792,-1.840522591267721,-2.0422917805113734,0.7517879644977015,-1.6754781208434046,-0.6087902227984827,-4.711104814206259,-0.10127779841423035,0.022429494187235832,-0.002225294942036271,-0.1859920471906662,0.07269585132598877,-0.06146799400448799,-0.3205276131629944,0.49611371755599976,-0.5870236754417419,-0.5918655395507812,0.34591326117515564,-0.2294352948665619
1749050310.691016,-1.8407071272479456,-2.0422054729857386,0.7517569700824183,-1.6758295498290003,-0.6086538473712366,-4.711228553448812,-0.09735584259033203,0.021213410422205925,-0.002302906708791852,-0.18311858177185059,0.07058250904083252,-0.061948906630277634,-0.42059949040412903,0.5006712675094604,-0.6117467880249023,-0.6249169707298279,0.3533450663089752,-0.22718185186386108
1749050310.6910524,-1.8409388701068323,-2.0421658955016078,0.7517259756671351,-1.6762191257872523,-0.6085184256183069,-4.711367789899008,-0.10266594588756561,0.02100113034248352,-0.0027282587252557278,-0.18355964124202728,0.06818447262048721,-0.06355834007263184,-0.4280826449394226,0.5562404990196228,-0.5892300009727478,-0.6790210008621216,0.3970741033554077,-0.22619082033634186
1749050310.6910892,-1.8411420027362269,-2.042114397088522,0.7517331282245081,-1.6766210995116175,-0.6083553473102015,-4.711484495793478,-0.10331069678068161,0.023348543792963028,-0.003425241680815816,-0.1866683065891266,0.07004289329051971,-0.06350786983966827,-0.42656847834587097,0.536392867565155,-0.5903958678245544,-0.6841115951538086,0.3784593939781189,-0.2277069389820099
1749050310.6913779,-1.8413432280169886,-2.042050977746481,0.7517488638507288,-1.6769958935179652,-0.6081765333758753,-4.711616818104879,-0.1060662716627121,0.0240755807608366,-0.0031574261374771595,-0.19275285303592682,0.07203603535890579,-0.06231830269098282,-0.40054383873939514,0.5361721515655518,-0.5734688639640808,-0.6602687835693359,0.3847925066947937,-0.25538501143455505
1749050310.6933532,-1.8415702025042933,-2.041995187798971,0.7517488638507288,-1.6774121723570765,-0.6080568472491663,-4.711741868649618,-0.10748200118541718,0.02483750507235527,-0.00276664225384593,-0.19850513339042664,0.07388341426849365,-0.0626041516661644,-0.38136476278305054,0.5311906337738037,-0.5980821251869202,-0.6188667416572571,0.41042351722717285,-0.25440144538879395
1749050310.7342763,-1.841832462941305,-2.041950841943258,0.7517522017108362,-1.6778146229186,-0.6079133192645472,-4.711896602307455,-0.10775440186262131,0.024735674262046814,-0.002385129686444998,-0.20194004476070404,0.07490435242652893,-0.0648656040430069,-0.410074919462204,0.5253960490226746,-0.5917817950248718,-0.6114858984947205,0.3924664258956909,-0.25730159878730774
1749050310.7343228,-1.8420136610614222,-2.0418998203673304,0.7517369429217737,-1.6782399616637171,-0.6077731291400355,-4.712032500897543,-0.1081964448094368,0.025110697373747826,-0.0020581965800374746,-0.2045193612575531,0.07683532685041428,-0.06673303246498108,-0.4116164445877075,0.5073786973953247,-0.5898223519325256,-0.601403534412384,0.380076140165329,-0.25712254643440247
1749050310.734363,-1.8422225157367151,-2.0418859920897425,0.751685921345846,-1.6786238155760707,-0.6076176802264612,-4.712188665066854,-0.10915565490722656,0.024684414267539978,-0.0018387929303571582,-0.20311570167541504,0.07685716450214386,-0.0698763057589531,-0.40408724546432495,0.5024630427360535,-0.6107387542724609,-0.6141083240509033,0.38249722123146057,-0.23901119828224182
1749050310.7344027,-1.8424456755267542,-2.0417949161925257,0.7517402807818812,-1.6790410480894984,-0.6074445883380335,-4.712301794682638,-0.1085280030965805,0.02463553287088871,-0.001926379045471549,-0.20358248054981232,0.07751046121120453,-0.07336151599884033,-0.38449934124946594,0.4916483759880066,-0.6173218488693237,-0.6194202899932861,0.38580387830734253,-0.22334222495555878
1749050310.734441,-1.8426530996905726,-2.0417939625182093,0.751709286366598,-1.679467340508932,-0.6072548071490687,-4.712430540715353,-0.1121898666024208,0.023949552327394485,-0.002832920290529728,-0.20121583342552185,0.07822616398334503,-0.07285256683826447,-0.4348791837692261,0.5187713503837585,-0.5978859663009644,-0.6102325916290283,0.37317681312561035,-0.221782386302948
1749050310.7344785,-1.8428977171527308,-2.0417338810362757,0.751709286366598,-1.6798964939513148,-0.6071022192584437,-4.712593857442037,-0.11206252127885818,0.02482801303267479,-0.0037547401152551174,-0.20242975652217865,0.07937756180763245,-0.07278799265623093,-0.41263413429260254,0.5173608064651489,-0.594786524772644,-0.645277202129364,0.36819732189178467,-0.2166873663663864
1749050310.7345166,-1.843132797871725,-2.0416938267149867,0.7516816298114222,-1.6802760563292445,-0.6069534460650843,-4.712737981473104,-0.11422502994537354,0.02465938590466976,-0.003999484237283468,-0.20478035509586334,0.07978382706642151,-0.07557764649391174,-0.38895565271377563,0.5182886123657227,-0.587398111820221,-0.6487820744514465,0.36581847071647644,-0.2143305540084839
1749050310.734554,-1.8434003035174769,-2.041614671746725,0.7516892592059534,-1.6807333431639613,-0.6068022886859339,-4.712894145642416,-0.1153661236166954,0.024235833436250687,-0.0036874269135296345,-0.21186946332454681,0.07926302403211594,-0.07800179719924927,-0.3723945617675781,0.5359302163124084,-0.59992516040802,-0.6428771018981934,0.3719656467437744,-0.1975305825471878
1749050310.7345917,-1.8435938994037073,-2.0415898762144984,0.7516892592059534,-1.681148191491598,-0.6066659132586878,-4.713043395672933,-0.11602425575256348,0.02637553960084915,-0.003120522480458021,-0.21388807892799377,0.07911600172519684,-0.07928717136383057,-0.39785048365592957,0.5242139101028442,-0.5821294784545898,-0.6170870661735535,0.40017393231391907,-0.17750412225723267
1749050310.7346292,-1.843825642262594,-2.041529794732565,0.7516658941852015,-1.6816207371153773,-0.6064756552325647,-4.713210169469015,-0.11701046675443649,0.025664933025836945,-0.0029374801088124514,-0.22090080380439758,0.08160223066806793,-0.08074533939361572,-0.39033398032188416,0.5222349166870117,-0.5998063683509827,-0.6063723564147949,0.3561306595802307,-0.16735659539699554
1749050310.7346663,-1.8440588156329554,-2.0414706669249476,0.7516768614398401,-1.6820618114867152,-0.6063182989703577,-4.7133594194995325,-0.11888088285923004,0.026146043092012405,-0.002656959928572178,-0.22035594284534454,0.0815628170967102,-0.08097758144140244,-0.38002580404281616,0.529960036277771,-0.6015325784683228,-0.5796816349029541,0.3698912262916565,-0.16255603730678558
1749050310.7347033,-1.8442562262164515,-2.041391511956686,0.7516768614398401,-1.6825152836241664,-0.6061251799212855,-4.71351927915682,-0.11820180714130402,0.02594687230885029,-0.0024360576644539833,-0.2198287546634674,0.07880645990371704,-0.08021923154592514,-0.38785839080810547,0.5300298929214478,-0.6130372881889343,-0.5661750435829163,0.3935413658618927,-0.17372766137123108
1749050310.7347403,-1.844571892415182,-2.0413695774474085,0.7516730467425745,-1.682960649529928,-0.6060379187213343,-4.713698093091146,-0.11786787211894989,0.026104575023055077,-0.0025066756643354893,-0.2177254557609558,0.08011496812105179,-0.0799570381641388,-0.4255695343017578,0.5292681455612183,-0.5988044738769531,-0.6117815971374512,0.40271198749542236,-0.16115745902061462
1749050310.7347777,-1.8447745482074183,-2.0413295231261195,0.7516453901873987,-1.683387895623678,-0.605847183858053,-4.713847223912374,-0.12160860002040863,0.02637934684753418,-0.0026744662318378687,-0.21669067442417145,0.08104579150676727,-0.07900591194629669,-0.3774976134300232,0.5254018306732178,-0.6173940300941467,-0.6369582414627075,0.41786861419677734,-0.15690714120864868
1749050310.7348142,-1.8450725714312952,-2.0412422619261683,0.7516492048846644,-1.6838137112059535,-0.6056330839740198,-4.713984553013937,-0.11889024078845978,0.025945832952857018,-0.0028287959285080433,-0.21689599752426147,0.08588673174381256,-0.07829596847295761,-0.41524115204811096,0.5198500156402588,-0.6139971613883972,-0.6341222524642944,0.39422279596328735,-0.16601648926734924
1749050310.7348511,-1.8452819029437464,-2.0411912403502406,0.7516720930682581,-1.6842404804625453,-0.6054227987872522,-4.714106146489279,-0.12216652929782867,0.02593773417174816,-0.0033397420775145292,-0.22044871747493744,0.08806804567575455,-0.07679007202386856,-0.3630300462245941,0.5229668021202087,-0.616719663143158,-0.6341134905815125,0.36297255754470825,-0.18357501924037933
1749050310.7348876,-1.8455308119403284,-2.041192670861715,0.7516215483294886,-1.6847015819945277,-0.6053250471698206,-4.714293543492452,-0.12279468029737473,0.025653399527072906,-0.003688762430101633,-0.22606433928012848,0.08731339871883392,-0.0764031857252121,-0.43797624111175537,0.5396067500114441,-0.6000766158103943,-0.6527040600776672,0.3722611665725708,-0.2096046358346939
1749050310.7349248,-1.8458054701434534,-2.041110178033346,0.7516439596759241,-1.685131689111227,-0.6051643530475062,-4.714484516774313,-0.1254855990409851,0.026215149089694023,-0.003819285426288843,-0.2309897392988205,0.08926529437303543,-0.07583755999803543,-0.3979090750217438,0.5505701303482056,-0.5901204347610474,-0.6559325456619263,0.3582068383693695,-0.1962101310491562
1749050310.7349615,-1.846041504536764,-2.0410763225951136,0.7516253630267542,-1.6856190166869105,-0.6049802939044397,-4.7146562973605555,-0.1266532689332962,0.026913298293948174,-0.003652366576716304,-0.23363207280635834,0.08909387141466141,-0.07564537227153778,-0.3836149275302887,0.521746039390564,-0.6100144386291504,-0.6114290356636047,0.35127395391464233,-0.21117857098579407
1749050310.7349982,-1.8462937513934534,-2.041032453576559,0.7516291777240198,-1.6860934696593226,-0.6048405806170862,-4.714765493069784,-0.12487442046403885,0.026058556511998177,-0.0031336569227278233,-0.23315663635730743,0.08860030770301819,-0.07576339691877365,-0.40348052978515625,0.5359657406806946,-0.6017137765884399,-0.6389886140823364,0.3505074381828308,-0.21117830276489258
1749050310.7353947,-1.846551243458883,-2.0409614048399867,0.7516167799579065,-1.6865283451476039,-0.604626480733053,-4.714906517659323,-0.12708064913749695,0.025881195440888405,-0.0029595629312098026,-0.22919589281082153,0.08901983499526978,-0.07456258684396744,-0.3797813057899475,0.5406212210655212,-0.6027016639709473,-0.6574981808662415,0.3701430559158325,-0.21142041683197021
1749050310.7373316,-1.8468220869647425,-2.040913244287008,0.7515972296344202,-1.6869780025877894,-0.6045001188861292,-4.715093676243917,-0.1294429898262024,0.026098180562257767,-0.002972892252728343,-0.22875988483428955,0.0893559530377388,-0.07518453896045685,-0.43300577998161316,0.5724483728408813,-0.6081905364990234,-0.6775277256965637,0.35743963718414307,-0.24918165802955627
1749050310.7785416,-1.8470662275897425,-2.040880342523092,0.7515819708453577,-1.6874591312804164,-0.6042631308185022,-4.715219203625814,-0.12786780297756195,0.026416735723614693,-0.0038526784628629684,-0.2317379117012024,0.09024933725595474,-0.07822125405073166,-0.4276942014694214,0.5562192797660828,-0.6133667230606079,-0.7178579568862915,0.3524438738822937,-0.22037632763385773
1749050310.7786248,-1.8473108450519007,-2.040774007836813,0.7515695730792444,-1.6879602871336878,-0.6041143576251429,-4.715405885373251,-0.12886182963848114,0.02651168406009674,-0.0041321199387311935,-0.24175786972045898,0.08996433019638062,-0.0787045955657959,-0.4281651973724365,0.5696699023246765,-0.6111570596694946,-0.6743956804275513,0.37458857893943787,-0.23158133029937744
1749050310.778699,-1.8475549856769007,-2.0407258472838343,0.7515729109393519,-1.6884314022459925,-0.6039312521563929,-4.715612236653463,-0.1296561360359192,0.02678810991346836,-0.003941532224416733,-0.246028333902359,0.09078830480575562,-0.07621701806783676,-0.44225072860717773,0.5712088346481323,-0.6051844358444214,-0.6846095323562622,0.3733079433441162,-0.254341721534729
1749050310.7787714,-1.8478239218341272,-2.0406586132445277,0.7515729109393519,-1.6889554462828578,-0.6037829558001917,-4.715706650410787,-0.13204114139080048,0.027219800278544426,-0.0037034598644822836,-0.2523837685585022,0.09110913425683975,-0.07781852781772614,-0.4165205657482147,0.5702734589576721,-0.5900776386260986,-0.609076976776123,0.39415305852890015,-0.26958686113357544
1749050310.778843,-1.8481171766864222,-2.0406443081297816,0.7516048590289515,-1.6894532642760218,-0.6035979429828089,-4.715890351925985,-0.1339414417743683,0.027575736865401268,-0.003696898464113474,-0.251923143863678,0.09286636114120483,-0.07988138496875763,-0.42701780796051025,0.5586811900138855,-0.5955904722213745,-0.600167989730835,0.3989277482032776,-0.2635878622531891
1749050310.778914,-1.8483627478228968,-2.0405928097166957,0.7515695730792444,-1.6899830303587855,-0.6034305731402796,-4.716027561818258,-0.13489682972431183,0.027380552142858505,-0.0030450739432126284,-0.24904152750968933,0.09263896197080612,-0.08445987850427628,-0.41270768642425537,0.5702146291732788,-0.5992094874382019,-0.6526681184768677,0.3963105380535126,-0.2530485987663269
1749050310.7789826,-1.8486388365374964,-2.040544649163717,0.7515581289874476,-1.6904531917967738,-0.6031954924212855,-4.716207925473348,-0.13603335618972778,0.02740182913839817,-0.0027712818700820208,-0.2450702041387558,0.09395451843738556,-0.0873497873544693,-0.42733001708984375,0.5825022459030151,-0.6159945130348206,-0.6774661540985107,0.39532601833343506,-0.22571082413196564
1749050310.7790525,-1.8489387671100062,-2.040471693078512,0.7515838781939905,-1.6909548244872035,-0.6030309836017054,-4.716391626988546,-0.13882815837860107,0.027178995311260223,-0.0028319349512457848,-0.24611803889274597,0.09531081467866898,-0.08586010336875916,-0.45157352089881897,0.586723804473877,-0.6215302348136902,-0.6990640163421631,0.3874838948249817,-0.24097764492034912
1749050310.7791207,-1.849182430897848,-2.040389677087301,0.7515180746661585,-1.691444536248678,-0.6027773062335413,-4.71658438840975,-0.13979771733283997,0.028091568499803543,-0.0033313706517219543,-0.2528236210346222,0.09909605979919434,-0.0893673375248909,-0.3958278000354767,0.5887496471405029,-0.6136410236358643,-0.6920250654220581,0.3769046664237976,-0.24449589848518372
1749050310.7791755,-1.8494671026812952,-2.04038729290151,0.7515180746661585,-1.6919733486571253,-0.6026156584369105,-4.716745440159933,-0.13974082469940186,0.02823505364358425,-0.003884516656398773,-0.25748729705810547,0.10163798928260803,-0.09158797562122345,-0.3832474946975708,0.582076907157898,-0.6016640067100525,-0.662034809589386,0.34214216470718384,-0.21674081683158875
1749050310.7792144,-1.8497207800494593,-2.040288587609762,0.7515414396869105,-1.6924878559508265,-0.6023734251605433,-4.716944400464193,-0.13851743936538696,0.02828196994960308,-0.004664083942770958,-0.2598860263824463,0.09773194789886475,-0.09171239286661148,-0.43713924288749695,0.5905870199203491,-0.6099274754524231,-0.6434139013290405,0.35097646713256836,-0.2109804004430771
1749050310.7792518,-1.8499568144427698,-2.040189882318014,0.7515452543841761,-1.6930166683592738,-0.6022160688983362,-4.717130009328024,-0.14025092124938965,0.028057346120476723,-0.004936278332024813,-0.2614416480064392,0.09680945426225662,-0.09205005317926407,-0.45298272371292114,0.5959606766700745,-0.5840738415718079,-0.6611770391464233,0.3737802803516388,-0.2225111722946167
1749050310.7792933,-1.8503230253802698,-2.0401927433409632,0.751505200062887,-1.6935168705382289,-0.6020053068744105,-4.717336360608236,-0.14220334589481354,0.027644077315926552,-0.00454309256747365,-0.2569514214992523,0.09443919360637665,-0.09169910848140717,-0.4051533639431,0.5836280584335327,-0.6123241186141968,-0.6700360178947449,0.37382200360298157,-0.19274960458278656
1749050310.7793458,-1.8505452314959925,-2.0401045284666957,0.7515209356891077,-1.694054742852682,-0.6018255392657679,-4.717540446911947,-0.1448056548833847,0.027925508096814156,-0.0036392409820109606,-0.256339430809021,0.0964856669306755,-0.09003712981939316,-0.3927919566631317,0.5799551010131836,-0.6065115928649902,-0.6944788694381714,0.37930360436439514,-0.21284031867980957
1749050310.779385,-1.8508599440204065,-2.04006352047109,0.7515242735492151,-1.6945649586119593,-0.6016424337970179,-4.717708651219503,-0.14549891650676727,0.02753318101167679,-0.0034931718837469816,-0.2575239837169647,0.09609048813581467,-0.0902758464217186,-0.4154496192932129,0.5858441591262817,-0.5982762575149536,-0.7103981375694275,0.3929425776004791,-0.19925469160079956
1749050310.7794223,-1.8511751333819788,-2.040000101129049,0.7515090147601526,-1.6950980625548304,-0.6014230887042444,-4.717885438595907,-0.14355777204036713,0.028006603941321373,-0.0037006635684520006,-0.2670227289199829,0.09516622871160507,-0.0891949012875557,-0.44353431463241577,0.6139723658561707,-0.6114624738693237,-0.6695266366004944,0.4084849953651428,-0.19912421703338623
1749050310.7794585,-1.8514049688922327,-2.0399161777892054,0.7514742056476038,-1.695651193658346,-0.6012781302081507,-4.7180660406695765,-0.14621764421463013,0.02849198319017887,-0.004242338240146637,-0.27192896604537964,0.09833565354347229,-0.08869822323322296,-0.4151245057582855,0.5875315070152283,-0.6072661876678467,-0.6687012910842896,0.39163047075271606,-0.1858314871788025
1749050310.7794952,-1.851767365132467,-2.039896150628561,0.7514813582049769,-1.6961852512755335,-0.6010482946978968,-4.718215409909384,-0.14747582376003265,0.028835449367761612,-0.004257192835211754,-0.27398329973220825,0.10186885297298431,-0.08656499534845352,-0.41096189618110657,0.5943725109100342,-0.6040298938751221,-0.6397045850753784,0.3997565507888794,-0.21164558827877045
1749050310.7795317,-1.8520587126361292,-2.0398289165892542,0.7514618078814905,-1.6967493496336878,-0.6008084456073206,-4.7184229532824915,-0.148507222533226,0.02913636714220047,-0.004051050171256065,-0.27145642042160034,0.10208560526371002,-0.08778736740350723,-0.4258161187171936,0.6236424446105957,-0.5971137285232544,-0.6524835824966431,0.36571985483169556,-0.23993414640426636
1749050310.7795684,-1.8523004690753382,-2.039787908593649,0.7514503637896937,-1.697280069390768,-0.600628677998678,-4.718622152005331,-0.15090946853160858,0.03016483038663864,-0.003462263150140643,-0.27019935846328735,0.10311168432235718,-0.0900198295712471,-0.3860888183116913,0.5867326855659485,-0.6132332682609558,-0.6745293140411377,0.3800294101238251,-0.20795167982578278
1749050310.7796896,-1.8526466528521937,-2.0397120914854945,0.7514537016498011,-1.6978031597533167,-0.6004284063922327,-4.718799297009603,-0.14893889427185059,0.030701298266649246,-0.003529343521222472,-0.2699443995952606,0.10420944541692734,-0.08788879960775375,-0.40413734316825867,0.5753957033157349,-0.6188477277755737,-0.7025807499885559,0.38654541969299316,-0.23746685683727264
1749050310.7813604,-1.8529370466815394,-2.03966822246694,0.7514575163470667,-1.6983596287169398,-0.6002042929278772,-4.718998734151022,-0.14942629635334015,0.030940836295485497,-0.003892624983564019,-0.27476662397384644,0.10561323910951614,-0.08789001405239105,-0.4246635437011719,0.5995287299156189,-0.6173717975616455,-0.7043054699897766,0.34735262393951416,-0.25518274307250977
1749050310.8222766,-1.853152100239889,-2.0395571194090785,0.7514260450946253,-1.6989160976805628,-0.5999673048602503,-4.719128910695211,-0.15234613418579102,0.03064284846186638,-0.004580606706440449,-0.28397485613822937,0.1066969707608223,-0.08883034437894821,-0.3898926377296448,0.5850321054458618,-0.601678729057312,-0.6702419519424438,0.368686705827713,-0.2595822811126709
1749050310.8223214,-1.8535321394549769,-2.0395056209959925,0.7514174620257776,-1.6995140514769496,-0.5998089949237269,-4.71938676038851,-0.15490365028381348,0.03167049586772919,-0.0048652938567101955,-0.2843676507472992,0.10734529793262482,-0.09285711497068405,-0.45030978322029114,0.604607343673706,-0.6019074320793152,-0.6363980174064636,0.3734807074069977,-0.23879273235797882
1749050310.822362,-1.8538458983050745,-2.039459844628805,0.7514174620257776,-1.7000905476012171,-0.5996397177325647,-4.719510022793905,-0.15415331721305847,0.03234042599797249,-0.00469973823055625,-0.28569740056991577,0.1086224839091301,-0.09607456624507904,-0.4177936613559723,0.5991302728652954,-0.589169979095459,-0.6119197607040405,0.34116989374160767,-0.2269100844860077
1749050310.8224006,-1.8541491667376917,-2.0393649540343226,0.7514212767230433,-1.7006293735899867,-0.5994017759906214,-4.7197163740741175,-0.15496185421943665,0.03360500559210777,-0.004171542823314667,-0.28118896484375,0.10503832250833511,-0.09607003629207611,-0.3892853260040283,0.549961268901825,-0.6047041416168213,-0.6273962259292603,0.378032386302948,-0.2528635859489441
1749050310.8224392,-1.854452912007467,-2.0393196545042933,0.7513902823077601,-1.7011639080443324,-0.5991843382464808,-4.719944898282186,-0.1551499366760254,0.03351486101746559,-0.0038699631113559008,-0.2796746790409088,0.1051228940486908,-0.09890837967395782,-0.4664890766143799,0.5791879892349243,-0.605387806892395,-0.679952085018158,0.3898736834526062,-0.22994035482406616
1749050310.8224773,-1.8547561804400843,-2.0392171345152796,0.7513864676104944,-1.7017280064024867,-0.5989926497088831,-4.720121566449301,-0.15564584732055664,0.03202413395047188,-0.004255636129528284,-0.2834949195384979,0.1084539145231247,-0.10086990892887115,-0.42355799674987793,0.6049191951751709,-0.6020984649658203,-0.6950197815895081,0.3702826499938965,-0.21848264336585999
1749050310.8225157,-1.8550413290606897,-2.039192338983053,0.7513974348651331,-1.7023092708983363,-0.5987237135516565,-4.720337812100546,-0.15808641910552979,0.032375603914260864,-0.004179084207862616,-0.29204261302948,0.11060595512390137,-0.10330668836832047,-0.37205666303634644,0.5891395807266235,-0.5883878469467163,-0.6525816321372986,0.3586729168891907,-0.1946866363286972
1749050310.822553,-1.8553531805621546,-2.0390969715514125,0.7513421217547815,-1.7029029331602992,-0.5984991232501429,-4.720576349888937,-0.15585985779762268,0.033367376774549484,-0.004456607159227133,-0.300472229719162,0.10799989849328995,-0.10344268381595612,-0.4521716237068176,0.5620467662811279,-0.6042263507843018,-0.6019269824028015,0.35025736689567566,-0.16949661076068878
1749050310.82259,-1.8557136694537562,-2.0390292606749476,0.751357380543844,-1.7034985027708949,-0.5983217398272913,-4.7207117716418665,-0.15743212401866913,0.03254101052880287,-0.004734545014798641,-0.2961037755012512,0.10909927636384964,-0.10237367451190948,-0.46090391278266907,0.5868992209434509,-0.605082631111145,-0.6027320623397827,0.367135614156723,-0.17152546346187592
1749050310.8226273,-1.8560665289508265,-2.0389844379820765,0.751357380543844,-1.7041079006590785,-0.5981028715716761,-4.720950786267416,-0.16138960421085358,0.03398093953728676,-0.004817690700292587,-0.2931578755378723,0.11076859384775162,-0.1017383337020874,-0.4582114815711975,0.593161404132843,-0.5958661437034607,-0.6659978032112122,0.3556569814682007,-0.2049003541469574
1749050310.8226647,-1.8563221136676233,-2.0389310322203578,0.751357380543844,-1.704677244225973,-0.597882095967428,-4.721131030713217,-0.16120915114879608,0.03524478152394295,-0.004662028513848782,-0.29141807556152344,0.10961530357599258,-0.10167129337787628,-0.425283282995224,0.5559020042419434,-0.5992186665534973,-0.6737279891967773,0.3451373875141144,-0.16256357729434967
1749050310.8227015,-1.8566458860980433,-2.038839956323141,0.7513530890094202,-1.7052747211852015,-0.5976904074298304,-4.721330467854635,-0.16204577684402466,0.03443551063537598,-0.004237574525177479,-0.29640835523605347,0.10933949053287506,-0.10092460364103317,-0.4044569432735443,0.5507482886314392,-0.6003183126449585,-0.6770179867744446,0.35123902559280396,-0.20417238771915436
1749050310.8227382,-1.8570168654071253,-2.0388223133482875,0.7513302008258265,-1.7058521709837855,-0.5974553267108362,-4.721546594296591,-0.16324080526828766,0.0326254740357399,-0.004116331692785025,-0.30512818694114685,0.11013372987508774,-0.1000019982457161,-0.40809449553489685,0.5745219588279724,-0.606593132019043,-0.6257069706916809,0.3715733587741852,-0.2102316915988922
1749050310.8227742,-1.857356373463766,-2.0387383900084437,0.7513135115252894,-1.7064649067320765,-0.5972002188311976,-4.721742574368612,-0.1661551296710968,0.03580509498715401,-0.004067875444889069,-0.30735987424850464,0.11179517954587936,-0.09976626932621002,-0.4282447397708893,0.5775032639503479,-0.6058746576309204,-0.6124666333198547,0.34586355090141296,-0.2085857093334198
1749050310.8228104,-1.8577149550067347,-2.0386396847166957,0.7513096968280237,-1.707132955590719,-0.596997086201803,-4.721900169049398,-0.16248363256454468,0.035461440682411194,-0.004063677042722702,-0.3054535388946533,0.11134522408246994,-0.09991157054901123,-0.448842853307724,0.5688063502311707,-0.6016397476196289,-0.5945568680763245,0.35851454734802246,-0.22164350748062134
1749050310.8228462,-1.8579924742328089,-2.038567682305807,0.7513096968280237,-1.7077228031554164,-0.5967534224139612,-4.7221320311175745,-0.16325491666793823,0.035257771611213684,-0.004072459880262613,-0.30297234654426575,0.11203254014253616,-0.10219788551330566,-0.42502641677856445,0.5518526434898376,-0.6078014373779297,-0.6042956113815308,0.3741852045059204,-0.19653116166591644
1749050310.8228827,-1.8582857290851038,-2.0384608707823695,0.7513135115252894,-1.7083050213255824,-0.5964873472796839,-4.722320739422933,-0.1655290573835373,0.035012584179639816,-0.004477668087929487,-0.3038695156574249,0.1131787821650505,-0.10124623775482178,-0.47570091485977173,0.5746291279792786,-0.5950647592544556,-0.6422450542449951,0.3738192319869995,-0.22802403569221497
1749050310.8229187,-1.8586214224444788,-2.0384236774840296,0.7512896696673792,-1.7089339695372523,-0.5963099638568323,-4.722547356282369,-0.1701955944299698,0.035323113203048706,-0.00469058146700263,-0.3103863596916199,0.11525683104991913,-0.10123387724161148,-0.4312841594219208,0.5679556131362915,-0.5874512195587158,-0.6234522461891174,0.36889946460723877,-0.23928621411323547
1749050310.8229554,-1.8589924017535608,-2.0383316479124964,0.7513011137591761,-1.7095948658385218,-0.5960515181170862,-4.722701732312338,-0.16871435940265656,0.035932935774326324,-0.004617891740053892,-0.3102931082248688,0.1158578172326088,-0.10130010545253754,-0.40950602293014526,0.5592643618583679,-0.6203371286392212,-0.6040147542953491,0.3455265164375305,-0.24674664437770844
1749050310.822992,-1.8593557516681116,-2.0382825336852015,0.7513049284564417,-1.7102400265135707,-0.5958626906024378,-4.722940508519308,-0.16847968101501465,0.03533324971795082,-0.004184219520539045,-0.309347927570343,0.11585720628499985,-0.10710819065570831,-0.42045146226882935,0.5360193252563477,-0.6006662845611572,-0.579253077507019,0.36913880705833435,-0.239704892039299
1749050310.8234107,-1.8596389929400843,-2.038172861138815,0.751265827809469,-1.710829874078268,-0.595649544392721,-4.7231497208224695,-0.17057301104068756,0.03322666138410568,-0.00390802463516593,-0.3053677976131439,0.11912164837121964,-0.1078166738152504,-0.39146462082862854,0.5840967893600464,-0.6231216192245483,-0.5770878791809082,0.33978378772735596,-0.23913460969924927
1749050310.8253913,-1.860009495412008,-2.038138528863424,0.7512772719012659,-1.711435457269186,-0.5953872839557093,-4.7234042326556605,-0.17104369401931763,0.03394518420100212,-0.003924670163542032,-0.3026362359523773,0.11620926856994629,-0.10745976120233536,-0.407565712928772,0.573925793170929,-0.6117700934410095,-0.633177638053894,0.3444426655769348,-0.2440340220928192
1749050310.866277,-1.8602960745440882,-2.0381065807738246,0.751265827809469,-1.712072034875387,-0.5952108542071741,-4.723582331334249,-0.17057447135448456,0.03596111014485359,-0.003996316343545914,-0.30401119589805603,0.11519909650087357,-0.11080506443977356,-0.42162060737609863,0.5446286797523499,-0.6273725628852844,-0.6717396974563599,0.36860814690589905,-0.20392557978630066
1749050310.8663216,-1.8606937567340296,-2.0380145512022914,0.7512620131122034,-1.7126814327635707,-0.5949357191668909,-4.723786775265829,-0.17175689339637756,0.03530373051762581,-0.004530401434749365,-0.31244659423828125,0.11831861734390259,-0.112610824406147,-0.44917669892311096,0.5560526251792908,-0.6104167103767395,-0.6209480166435242,0.37009018659591675,-0.21126829087734222
1749050310.8663626,-1.861014191304342,-2.037955423394674,0.7512696425067347,-1.7133227787413539,-0.5946849028216761,-4.724018518124716,-0.17324432730674744,0.03412323445081711,-0.004552482161670923,-0.3158493936061859,0.12038648128509521,-0.11211006343364716,-0.45603519678115845,0.5918369293212891,-0.6112900376319885,-0.62906414270401,0.3471454381942749,-0.21440373361110687
1749050310.8664014,-1.8613622824298304,-2.037856241265768,0.7512448469745081,-1.7139941654601039,-0.594433609639303,-4.7242119948016565,-0.17472578585147858,0.03614192456007004,-0.004427134525030851,-0.3165149986743927,0.11802880465984344,-0.11382035911083221,-0.39994508028030396,0.5733362436294556,-0.612062394618988,-0.6067756414413452,0.3571620285511017,-0.19782184064388275
1749050310.8664505,-1.86174184480776,-2.0377870998778285,0.7512295881854456,-1.7146011791624964,-0.594240967427389,-4.7244784275638025,-0.17581969499588013,0.03587532415986061,-0.004097765311598778,-0.31436505913734436,0.11910053342580795,-0.11254000663757324,-0.39136314392089844,0.5671782493591309,-0.6208989024162292,-0.6053985357284546,0.36663252115249634,-0.20271241664886475
1749050310.8664908,-1.862049404774801,-2.037727018395895,0.7512014547931116,-1.7152377567686976,-0.5939815680133265,-4.724718991910116,-0.17811506986618042,0.03600915148854256,-0.004328976850956678,-0.3151635229587555,0.12036795914173126,-0.11274027824401855,-0.3460092544555664,0.5802230834960938,-0.6145575046539307,-0.6456646919250488,0.3835517168045044,-0.21056652069091797
1749050310.866529,-1.8624118010150355,-2.03768314937734,0.7512243429767054,-1.7158709965147914,-0.5937226454364222,-4.724931542073385,-0.17733006179332733,0.03648225963115692,-0.004608205519616604,-0.32099464535713196,0.12279561161994934,-0.11160923540592194,-0.41079506278038025,0.558866560459137,-0.6184437274932861,-0.6527637243270874,0.3611268401145935,-0.21049928665161133
1749050310.8665667,-1.862744156514303,-2.0375901661314906,0.7512171904193323,-1.7165280781187953,-0.593478027974264,-4.725144330655233,-0.17843465507030487,0.03563687577843666,-0.0044686635956168175,-0.3222774863243103,0.12417107075452805,-0.10812889784574509,-0.3901926875114441,0.5571684241294861,-0.6126722693443298,-0.6263686418533325,0.3482080399990082,-0.23009327054023743
1749050310.8666034,-1.8631356398211878,-2.0375262699522914,0.7512090841876429,-1.7171489200987757,-0.593215290700094,-4.725371066723959,-0.17766477167606354,0.0339747816324234,-0.004576734267175198,-0.32425448298454285,0.12288875132799149,-0.11148061603307724,-0.4454415440559387,0.5891367793083191,-0.6170763373374939,-0.6156830191612244,0.3507816791534424,-0.22730441391468048
1749050310.8666403,-1.863532845173971,-2.0374232731261195,0.7511933485614222,-1.717825552026266,-0.5929835478412073,-4.725601021443502,-0.17739053070545197,0.03536238521337509,-0.00447089783847332,-0.322533518075943,0.1261650025844574,-0.10957362502813339,-0.4315653145313263,0.5974821448326111,-0.6131958961486816,-0.630572497844696,0.342837929725647,-0.2225317806005478
1749050310.8666775,-1.863532845173971,-2.0374232731261195,0.7511933485614222,-1.717825552026266,-0.5929835478412073,-4.725601021443502,-0.17739053070545197,0.03536238521337509,-0.00447089783847332,-0.322533518075943,0.1261650025844574,-0.10957362502813339,-0.4315653145313263,0.5974821448326111,-0.6131958961486816,-0.630572497844696,0.342837929725647,-0.2225317806005478
1749050310.8667145,-1.8642194906817835,-2.037279268304342,0.751169506703512,-1.7190996609129847,-0.5924418608294886,-4.726021472607748,-0.18151557445526123,0.036678247153759,-0.004581382032483816,-0.32402339577674866,0.12228387594223022,-0.10990066081285477,-0.404574990272522,0.5751055479049683,-0.6338366866111755,-0.6878900527954102,0.3662732243537903,-0.2551804482936859
1749050310.8667512,-1.8645795027362269,-2.037192007104391,0.7511499563800257,-1.7197534046568812,-0.5922406355487269,-4.7262553612338465,-0.18224750459194183,0.036483533680438995,-0.004548234399408102,-0.33052873611450195,0.12439130246639252,-0.11492948234081268,-0.41865238547325134,0.5772317051887512,-0.6044110059738159,-0.6773009300231934,0.36913132667541504,-0.24728451669216156
1749050310.8667881,-1.8649242560016077,-2.0371695957579554,0.7511733214007776,-1.7204176388182582,-0.5919645468341272,-4.726473156605856,-0.18264704942703247,0.03683822974562645,-0.004198011010885239,-0.33517035841941833,0.1282985955476761,-0.11583977937698364,-0.4009575843811035,0.5839040279388428,-0.6171092391014099,-0.6804388761520386,0.33208829164505005,-0.2263491451740265
1749050310.8668246,-1.865314785634176,-2.0370856724181117,0.7511494795428675,-1.7210856876769007,-0.5917132536517542,-4.72673207918276,-0.18227419257164001,0.036661580204963684,-0.0043387338519096375,-0.33187955617904663,0.12448858469724655,-0.11576321721076965,-0.41476038098335266,0.5926519632339478,-0.6212528347969055,-0.6584466695785522,0.3430655002593994,-0.24690265953540802
