nimar13/UR3e_dataset_trayectorias/trayectorias_ejecutadas/trapezoidal/trayectoria_129_result.csv
timestamp,q1,q2,q3,q4,q5,q6,qd1,qd2,qd3,qd4,qd5,qd6,tau1,tau2,tau3,tau4,tau5,tau6
1749049824.234273,4.659007549285889,0.10577146589245601,-0.30196595191955566,-4.918660303155416,0.20600564777851105,2.5359246730804443,0.020078279078006744,0.00122598628513515,-0.003855267306789756,-0.017633290961384773,-0.0010720633435994387,0.01074647530913353,0.12406685203313828,-1.5470366477966309,-0.9167194366455078,0.2379031628370285,-0.6030531525611877,0.14272210001945496
1749049824.2343175,4.6590352058410645,0.10574869691815181,-0.30194658041000366,-4.918677469293112,0.20600561797618866,2.5359292030334473,0.01750033162534237,0.0008940434781834483,-0.0023172677028924227,-0.01579011045396328,-0.0008557309047318995,0.008659221231937408,0.11887364834547043,-1.5715599060058594,-0.9070624113082886,0.2232731580734253,-0.5924925804138184,0.11394280195236206
1749049824.2343566,4.659055709838867,0.10574869691815181,-0.3019501864910126,-4.918732782403463,0.20596735179424286,2.535932779312134,0.015461958013474941,0.0007155929342843592,-0.0015026534674689174,-0.01373834814876318,-0.0007158467196859419,0.00612499937415123,0.12690314650535583,-1.5823920965194702,-0.9216256141662598,0.22389188408851624,-0.5733712911605835,0.12299451231956482
1749049824.234394,4.65908670425415,0.1057559686848144,-0.30196234583854675,-4.918769022027487,0.20597457885742188,2.5359137058258057,0.013699413277208805,0.00046363292494788766,-0.0011196649866178632,-0.013227634131908417,-0.0006163660436868668,0.0036629363894462585,0.16275295615196228,-1.5809565782546997,-0.9108637571334839,0.24030500650405884,-0.5676462650299072,0.13100650906562805
1749049824.234432,4.659137725830078,0.10575239240612788,-0.30198171734809875,-4.918796440164083,0.20599474012851715,2.5359878540039062,0.012452163733541965,-8.778077608440071e-05,-0.0008945735171437263,-0.010813659057021141,-0.0005414854967966676,0.0021191672421991825,0.1368761956691742,-1.6076247692108154,-0.891035795211792,0.2234053909778595,-0.5510321855545044,0.10831794142723083
1749049824.2344697,4.6590728759765625,0.1057559686848144,-0.30197811126708984,-4.918785711328024,0.20598289370536804,2.535922050476074,0.010118895210325718,-0.0003885722253471613,-0.0007454504957422614,-0.009259328246116638,-0.0004293474485166371,0.0014251492684707046,0.08336644619703293,-1.6038362979888916,-0.8970312476158142,0.2619161307811737,-0.5554444789886475,0.12345227599143982
1749049824.2345073,4.659095764160156,0.10575239240612788,-0.301958829164505,-4.918770214120382,0.2060214877128601,2.5359482765197754,0.0068840389139950275,-0.0004571782483253628,-0.000639136997051537,-0.007684305310249329,-0.0003563951177056879,0.0010696855606511235,0.0812758281826973,-1.6277061700820923,-0.9013470411300659,0.2853631377220154,-0.5555458068847656,0.10424640774726868
1749049824.234544,4.659071922302246,0.10574762403454585,-0.30196234583854675,-4.918801208535665,0.20598289370536804,2.5359411239624023,0.0014282648917287588,-0.0012490821536630392,-0.0004974663606844842,-0.0022349648643285036,-0.0002922650601249188,0.0007186285802163184,0.09012576192617416,-1.6519584655761719,-0.8729430437088013,0.3093450665473938,-0.5320683717727661,0.08852329850196838
1749049824.2345805,4.659071922302246,0.10574762403454585,-0.30196234583854675,-4.918801208535665,0.20598289370536804,2.5359411239624023,0.0014282648917287588,-0.0012490821536630392,-0.0004974663606844842,-0.0022349648643285036,-0.0002922650601249188,0.0007186285802163184,0.09012576192617416,-1.6519584655761719,-0.8729430437088013,0.3093450665473938,-0.5320683717727661,0.08852329850196838
1749049824.2346168,4.659127235412598,0.10573582231488032,-0.30197811126708984,-4.918782135049337,0.20598287880420685,2.5359411239624023,-0.0033195281866937876,-0.0011665571946650743,-0.00032739987364038825,0.0007357755675911903,-0.0002511831698939204,0.0004391100665088743,0.08766794949769974,-1.664285659790039,-0.8580330610275269,0.32690322399139404,-0.5210093855857849,0.07838720083236694
1749049824.2346535,4.659127235412598,0.10573582231488032,-0.30197811126708984,-4.918782135049337,0.20598287880420685,2.5359411239624023,-0.0033195281866937876,-0.0011665571946650743,-0.00032739987364038825,0.0007357755675911903,-0.0002511831698939204,0.0004391100665088743,0.08766794949769974,-1.664285659790039,-0.8580330610275269,0.32690322399139404,-0.5210093855857849,0.07838720083236694
1749049824.2346895,4.659071922302246,0.10575954496350093,-0.3019745945930481,-4.918782135049337,0.20606446266174316,2.5359601974487305,-0.0036231663543730974,-0.0013706274330615997,-0.00029886039556004107,0.0008586368639953434,-0.00021476519759744406,0.0003106385702267289,0.07952585071325302,-1.7095108032226562,-0.8376456499099731,0.3252125382423401,-0.5252717733383179,0.054951637983322144
1749049824.2347264,4.659080505371094,0.10572855054821773,-0.3019552528858185,-4.918785711328024,0.20599474012851715,2.5359137058258057,-0.004381460137665272,-0.0043316856026649475,-0.000256198865827173,0.0014146073954179883,-0.00015694268222432584,-0.00014431370072998106,0.01729711890220642,-1.7637722492218018,-0.8323050737380981,0.36264318227767944,-0.5188083648681641,0.06011563539505005
1749049824.234763,4.659080505371094,0.10572855054821773,-0.3019552528858185,-4.918785711328024,0.20599474012851715,2.5359137058258057,-0.004381460137665272,-0.0043316856026649475,-0.000256198865827173,0.0014146073954179883,-0.00015694268222432584,-0.00014431370072998106,0.01729711890220642,-1.7637722492218018,-0.8323050737380981,0.36264318227767944,-0.5188083648681641,0.06011563539505005
1749049824.2347994,4.659055709838867,0.10571293413128657,-0.30197104811668396,-4.918773790399069,0.20604896545410156,2.5359411239624023,-0.006873077247291803,-0.005242456682026386,-0.0001687252224655822,0.0030960780568420887,-0.00013965359539724886,-0.0003491736715659499,0.0365157425403595,-1.783656358718872,-0.8230448961257935,0.3840893805027008,-0.5176695585250854,0.055150508880615234
1749049824.2348356,4.659055709838867,0.10571293413128657,-0.30197104811668396,-4.918773790399069,0.20604896545410156,2.5359411239624023,-0.006873077247291803,-0.005242456682026386,-0.0001687252224655822,0.0030960780568420887,-0.00013965359539724886,-0.0003491736715659499,0.0365157425403595,-1.783656358718872,-0.8230448961257935,0.3840893805027008,-0.5176695585250854,0.055150508880615234
1749049824.2348716,4.659024238586426,0.10570470869030757,-0.30198171734809875,-4.918796440164083,0.20599114894866943,2.5359256267547607,-0.007485622074455023,-0.00470952782779932,-0.00015936097770463675,0.0030923704616725445,-5.199868974159472e-05,-0.0012300359085202217,0.050047822296619415,-1.7751102447509766,-0.8100627660751343,0.3757568597793579,-0.5217819809913635,0.03999340534210205
1749049824.2349079,4.6589531898498535,0.10569588720288081,-0.30198171734809875,-4.918777366677755,0.2060261070728302,2.5359137058258057,-0.0072868624702095985,-0.004363389685750008,9.221179789165035e-05,0.002987777581438422,7.029103289823979e-05,-0.0013886007945984602,0.05292222648859024,-1.8005467653274536,-0.8237512111663818,0.3908298909664154,-0.5148454904556274,0.03935062885284424
1749049824.234944,4.658991813659668,0.10566107809033198,-0.3019695580005646,-4.918761869470114,0.20599474012851715,2.535944700241089,-0.007312048226594925,-0.004085030406713486,0.00012804656580556184,0.003215997014194727,0.00012106686335755512,-0.0016396921128034592,0.03982596844434738,-1.8407280445098877,-0.8296058773994446,0.3970370888710022,-0.5247979760169983,0.04685655236244202
1749049824.2349799,4.658998966217041,0.10568754255261226,-0.30196234583854675,-4.918761869470114,0.2060142606496811,2.535932779312134,-0.008899054490029812,-0.0043950374238193035,0.00014554856170434505,0.003250453621149063,0.00012905869516544044,-0.0015877746045589447,0.04675867408514023,-1.8416985273361206,-0.82676762342453,0.4059925079345703,-0.5176684260368347,0.040873438119888306
1749049824.2353823,4.658939838409424,0.10568038999523921,-0.3019537925720215,-4.918758293191427,0.2060225009918213,2.535944700241089,-0.008253180421888828,-0.004220445640385151,0.00013961741933599114,0.002853618934750557,0.00012550035899039358,-0.0014364732196554542,0.0447310134768486,-1.8580225706100464,-0.816612958908081,0.40425747632980347,-0.5144947171211243,0.028563320636749268
1749049824.2373698,4.658930778503418,0.10568754255261226,-0.30196595191955566,-4.918745895425314,0.20599842071533203,2.535932779312134,-0.00778975011780858,-0.0043985252268612385,0.00017409463180229068,0.002616110723465681,0.0001530554873170331,-0.0012541019823402166,0.05407329648733139,-1.8506909608840942,-0.8100298643112183,0.4070426821708679,-0.5113198757171631,0.05026558041572571
1749049824.2782674,4.658867835998535,0.10568754255261226,-0.30196595191955566,-4.918756624261373,0.20603442192077637,2.5358939170837402,-0.008047349750995636,-0.0035653160884976387,0.0001612556807231158,0.0024182400666177273,0.0001471847645007074,-0.0008312315330840647,0.044212356209754944,-1.8463339805603027,-0.8058285117149353,0.40970852971076965,-0.512916624546051,0.026140928268432617
1749049824.278313,4.658867835998535,0.10568754255261226,-0.30196595191955566,-4.918756624261373,0.20603442192077637,2.5358939170837402,-0.008047349750995636,-0.0035653160884976387,0.0001612556807231158,0.0024182400666177273,0.0001471847645007074,-0.0008312315330840647,0.044212356209754944,-1.8463339805603027,-0.8058285117149353,0.40970852971076965,-0.512916624546051,0.026140928268432617
1749049824.278353,4.658813953399658,0.1056637006947021,-0.30197814106941223,-4.918756385842794,0.20600692927837372,2.535910129547119,-0.007414014078676701,-0.002950710477307439,0.0001543516555102542,0.002385510131716728,0.00014157636906020343,-0.0008113772491924465,0.07181335985660553,-1.84017813205719,-0.8098904490470886,0.41391265392303467,-0.5141183137893677,0.020605623722076416
1749049824.2783935,4.658847808837891,0.10563628255810542,-0.30198532342910767,-4.918749471704,0.20599472522735596,2.535904884338379,-0.006601824425160885,-0.0025441539473831654,0.00014800528879277408,0.002688436536118388,0.00013624429993797094,-0.0007878436590544879,0.06974773108959198,-1.8690584897994995,-0.8181542754173279,0.41830751299858093,-0.5234617590904236,0.03752484917640686
1749049824.278433,4.658870697021484,0.10565177976574702,-0.30196234583854675,-4.918722053567404,0.20600198209285736,2.535921096801758,-0.006533706560730934,-0.002298687119036913,0.00014215955161489546,0.0024608869571238756,0.00013128200953360647,-0.0007358503062278032,0.041821256279945374,-1.8471972942352295,-0.8123827576637268,0.42213761806488037,-0.5226740837097168,0.024777263402938843
1749049824.278471,4.658804416656494,0.10562436162915034,-0.3019430637359619,-4.918741127053732,0.20599110424518585,2.5359010696411133,-0.005618773866444826,-0.002348515437915921,0.0001317522255703807,0.002125117927789688,0.0001223532308358699,-0.0006836679531261325,0.07693101465702057,-1.8406908512115479,-0.796877384185791,0.41677266359329224,-0.5309368371963501,0.03168681263923645
1749049824.278508,4.658804416656494,0.10562436162915034,-0.3019430637359619,-4.918741127053732,0.20599110424518585,2.5359010696411133,-0.005618773866444826,-0.002348515437915921,0.0001317522255703807,0.002125117927789688,0.0001223532308358699,-0.0006836679531261325,0.07693101465702057,-1.8406908512115479,-0.796877384185791,0.41677266359329224,-0.5309368371963501,0.03168681263923645
1749049824.2785444,4.658862113952637,0.10564367353405757,-0.30197811126708984,-4.91872562984609,0.20598289370536804,2.5358893871307373,-0.00464198924601078,-0.001985851675271988,0.00012710015289485455,0.0019112733425572515,0.00011833218013634905,-0.0006168707041069865,0.08293217420578003,-1.8265695571899414,-0.8038948774337769,0.4188791513442993,-0.5244684219360352,0.03777873516082764
1749049824.2785807,4.658763885498047,0.10558085023846431,-0.30198171734809875,-4.918704887429708,0.20604532957077026,2.5358893871307373,-0.003951534163206816,-0.0017442528624087572,0.0001227652101079002,0.001888953847810626,0.00011456554057076573,-0.000539108004886657,0.0643945038318634,-1.833467960357666,-0.8119314908981323,0.40160316228866577,-0.5138058662414551,0.03643295168876648
1749049824.2786179,4.658721923828125,0.10558895647015376,-0.3019971549510956,-4.918697734872335,0.2060069739818573,2.5359137058258057,-0.003553906222805381,-0.0013083319645375013,0.00011871647438965738,0.002526346128433943,0.00011102874850621447,-0.00048059807159006596,0.0638582706451416,-1.8282699584960938,-0.8000503778457642,0.4151422083377838,-0.5255467891693115,0.012866973876953125
1749049824.2786548,4.658791542053223,0.10562817632641597,-0.3019745945930481,-4.91868581394338,0.20602981746196747,2.5359010696411133,-0.0034222938120365143,-0.0012083131587132812,0.00011492595513118431,0.002943888073787093,0.00010770780500024557,-0.0004339193692430854,0.06902559101581573,-1.8275786638259888,-0.8138470649719238,0.41822704672813416,-0.5449607372283936,0.028854459524154663
1749049824.278691,4.6587443351745605,0.10560004293408198,-0.30197811126708984,-4.918697734872335,0.20604532957077026,2.535881996154785,-0.0033315091859549284,-0.0011393000604584813,0.00011137018009321764,0.0026243128813803196,0.00010457861935719848,-0.00039562612073495984,0.06583109498023987,-1.8263533115386963,-0.8210416436195374,0.39810508489608765,-0.5457862615585327,0.03263691067695618
1749049824.2787275,4.6587443351745605,0.10561196386303706,-0.3019745945930481,-4.918666740457052,0.20601889491081238,2.5359010696411133,-0.0029944847337901592,-0.0009773760102689266,0.00010802783071994781,0.0022923285141587257,0.00010162361286347732,-0.00041518191574141383,0.07316070795059204,-1.816439151763916,-0.8138658404350281,0.4164694845676422,-0.5558347702026367,0.016658633947372437
1749049824.2787638,4.65877103805542,0.10562817632641597,-0.30197811126708984,-4.918701311151022,0.2060105800628662,2.5359365940093994,-0.002589170355349779,-0.0008524106815457344,0.00010191115143243223,0.0016589678125455976,9.101915929932147e-05,-0.0004193955392111093,0.02287895977497101,-1.8105368614196777,-0.8343954086303711,0.41681528091430664,-0.5786234140396118,0.009895920753479004
1749049824.2788,4.65877103805542,0.10562817632641597,-0.30197811126708984,-4.918701311151022,0.2060105800628662,2.5359365940093994,-0.002589170355349779,-0.0008524106815457344,0.00010191115143243223,0.0016589678125455976,9.101915929932147e-05,-0.0004193955392111093,0.02287895977497101,-1.8105368614196777,-0.8343954086303711,0.41681528091430664,-0.5786234140396118,0.009895920753479004
1749049824.2788365,4.658763885498047,0.10556153833355708,-0.3019900321960449,-4.91866197208547,0.20603804290294647,2.535912036895752,-0.0027762786485254765,-0.0007621510303579271,9.910541120916605e-05,0.0016375485574826598,7.134008046705276e-05,-0.00044797034934163094,0.04241231083869934,-1.815382957458496,-0.8399539589881897,0.44014185667037964,-0.590569257736206,0.026675134897232056
1749049824.2788725,4.658791542053223,0.10560457288708491,-0.30196595191955566,-4.918677469293112,0.20604895055294037,2.5359010696411133,-0.0028713569045066833,-0.0006891638622619212,9.644997771829367e-05,0.0018992889672517776,4.6048520744079724e-05,-0.0005176214617677033,0.029961496591567993,-1.8267433643341064,-0.849676251411438,0.4426916241645813,-0.5950602293014526,-0.003663092851638794
1749049824.2789085,4.658775806427002,0.10562817632641597,-0.3020090162754059,-4.918673893014425,0.20599474012851715,2.535921096801758,-0.0028167772106826305,-0.0006289395969361067,8.227519720094278e-05,0.002265669871121645,8.137257282214705e-06,-0.0006620939821004868,0.0022229552268981934,-1.8456745147705078,-0.8633217811584473,0.4309636950492859,-0.6228954792022705,-0.005907386541366577
1749049824.2789445,4.658783912658691,0.1056554752537231,-0.3019900321960449,-4.918684621850485,0.2060106098651886,2.535892963409424,-0.0032971124164760113,-0.00042595932609401643,4.547546268440783e-05,0.002853688085451722,-0.0014049080200493336,-0.0032170626800507307,-0.013013780117034912,-1.845294713973999,-0.8978672027587891,0.4791516065597534,-0.6661158800125122,-0.02402511239051819
1749049824.2789798,4.658783912658691,0.1056554752537231,-0.3019900321960449,-4.918684621850485,0.2060106098651886,2.535892963409424,-0.0032971124164760113,-0.00042595932609401643,4.547546268440783e-05,0.002853688085451722,-0.0014049080200493336,-0.0032170626800507307,-0.013013780117034912,-1.845294713973999,-0.8978672027587891,0.4791516065597534,-0.6661158800125122,-0.02402511239051819
1749049824.280084,4.658764839172363,0.10563628255810542,-0.30196595191955566,-4.918637653390402,0.20598287880420685,2.5358738899230957,-0.003809690475463867,-0.0003862063749693334,9.64747687248746e-06,0.0032930716406553984,-0.004174333531409502,-0.004044152330607176,-0.03158486634492874,-1.8568601608276367,-0.9159116744995117,0.4787708520889282,-0.6890597343444824,-0.025526434183120728
1749049824.2814236,4.658807277679443,0.10561708986248775,-0.30196234583854675,-4.918653150598043,0.2059590369462967,2.5358691215515137,-0.005128620192408562,-0.0003952863917220384,4.112870044536976e-08,0.005853413138538599,-0.00918426364660263,-0.006895487196743488,-0.06557414680719376,-1.8975725173950195,-0.9556893110275269,0.4859692454338074,-0.6998125910758972,-0.04109220206737518
1749049824.3222804,4.658807277679443,0.10561708986248775,-0.30196234583854675,-4.918653150598043,0.2059590369462967,2.5358691215515137,-0.005128620192408562,-0.0003952863917220384,4.112870044536976e-08,0.005853413138538599,-0.00918426364660263,-0.006895487196743488,-0.06557414680719376,-1.8975725173950195,-0.9556893110275269,0.4859692454338074,-0.6998125910758972,-0.04109220206737518
1749049824.322327,4.658779621124268,0.10563258707012935,-0.30197811126708984,-4.9186138115324916,0.205903559923172,2.5358307361602783,-0.006575295235961676,-0.0004279169370420277,-0.0005416218773461878,0.008657849393785,-0.011736840009689331,-0.008650545962154865,-0.08307623118162155,-1.9164760112762451,-0.965477466583252,0.48472684621810913,-0.722080647945404,-0.04748685657978058
1749049824.3223662,4.658760070800781,0.10562066614117427,-0.30199718475341797,-4.918589492837423,0.2058679163455963,2.5358262062072754,-0.006689263507723808,-0.0004632300406228751,-0.002379858633503318,0.009748308919370174,-0.01515436451882124,-0.009557186625897884,-0.07855641841888428,-1.923370122909546,-0.9456372261047363,0.4935694932937622,-0.7336345314979553,-0.044775232672691345
1749049824.3224056,4.658763885498047,0.10563628255810542,-0.30200904607772827,-4.91859306911611,0.20580899715423584,2.5357980728149414,-0.0073135895654559135,-0.000924794701859355,-0.0033787565771490335,0.010945424437522888,-0.01810424216091633,-0.011600105091929436,-0.11719878017902374,-1.9259681701660156,-0.9728652834892273,0.5235413312911987,-0.7463886141777039,-0.08031105995178223
1749049824.322443,4.658723831176758,0.10560814916577144,-0.30199357867240906,-4.918556829492086,0.20582224428653717,2.535738468170166,-0.009489115327596664,-0.002817858476191759,-0.003957390319555998,0.015360563062131405,-0.025229936465620995,-0.01739201694726944,-0.10833039879798889,-1.9735960960388184,-0.9792570471763611,0.5272358059883118,-0.6944109201431274,-0.0644925981760025
1749049824.3224802,4.658723831176758,0.10560814916577144,-0.30199357867240906,-4.918556829492086,0.20582224428653717,2.535738468170166,-0.009489115327596664,-0.002817858476191759,-0.003957390319555998,0.015360563062131405,-0.025229936465620995,-0.01739201694726944,-0.10833039879798889,-1.9735960960388184,-0.9792570471763611,0.5272358059883118,-0.6944109201431274,-0.0644925981760025
1749049824.32252,4.6586689949035645,0.10560457288708491,-0.3019587993621826,-4.918477674523825,0.20571187138557434,2.5357494354248047,-0.010242201387882233,-0.0029943459667265415,-0.004639631137251854,0.017864998430013657,-0.025602061301469803,-0.01764105074107647,-0.16859112679958344,-1.9708311557769775,-0.9921783804893494,0.5045747756958008,-0.6975556015968323,-0.0784597098827362
1749049824.3225574,4.658707618713379,0.10561196386303706,-0.3020295798778534,-4.918386837045187,0.2056269645690918,2.535689353942871,-0.012317904271185398,-0.003880022093653679,-0.007097763475030661,0.01879166066646576,-0.02501632645726204,-0.01803063228726387,-0.15046703815460205,-2.0166726112365723,-0.9953643679618835,0.5140421390533447,-0.6946086883544922,-0.0882658064365387
1749049824.3225942,4.658707618713379,0.10561196386303706,-0.3020295798778534,-4.918386837045187,0.2056269645690918,2.535689353942871,-0.012317904271185398,-0.003880022093653679,-0.007097763475030661,0.01879166066646576,-0.02501632645726204,-0.01803063228726387,-0.15046703815460205,-2.0166726112365723,-0.9953643679618835,0.5140421390533447,-0.6946086883544922,-0.0882658064365387
1749049824.3226316,4.6586785316467285,0.10558454572644038,-0.30204150080680847,-4.918368717233175,0.2055872529745102,2.5356500148773193,-0.01417962834239006,-0.005586888641119003,-0.008068962022662163,0.019806208088994026,-0.025679055601358414,-0.017389066517353058,-0.18502473831176758,-2.022306203842163,-0.9951266050338745,0.5130051374435425,-0.6920160055160522,-0.09882131963968277
1749049824.3226686,4.658631801605225,0.1055953937717895,-0.30202603340148926,-4.918329855004782,0.2055191993713379,2.5355982780456543,-0.014596545137465,-0.006851631682366133,-0.008457900024950504,0.0196587685495615,-0.02611272595822811,-0.01788235455751419,-0.14443105459213257,-2.0223305225372314,-1.0006483793258667,0.5225270390510559,-0.6899315118789673,-0.09930644184350967
1749049824.3227057,4.658647537231445,0.10554151117291255,-0.30205342173576355,-4.918294092217916,0.2054435908794403,2.535597085952759,-0.015397910960018635,-0.008299067616462708,-0.00894463062286377,0.020356396213173866,-0.026675119996070862,-0.019357820972800255,-0.16175459325313568,-2.0139782428741455,-1.0158449411392212,0.5368160009384155,-0.6772202253341675,-0.1014697253704071
1749049824.3227463,4.65853214263916,0.10552494108166499,-0.30210158228874207,-4.9182006321349085,0.20534773170948029,2.5354795455932617,-0.015425989404320717,-0.010291926562786102,-0.011394020169973373,0.020208079367876053,-0.026081392541527748,-0.020371058955788612,-0.16696378588676453,-2.0420992374420166,-0.9808906316757202,0.5350341796875,-0.6877087950706482,-0.1326472908258438
1749049824.3227832,4.65853214263916,0.10552494108166499,-0.30210158228874207,-4.9182006321349085,0.20534773170948029,2.5354795455932617,-0.015425989404320717,-0.010291926562786102,-0.011394020169973373,0.020208079367876053,-0.026081392541527748,-0.020371058955788612,-0.16696378588676453,-2.0420992374420166,-0.9808906316757202,0.5350341796875,-0.6877087950706482,-0.1326472908258438
1749049824.3228233,4.6585235595703125,0.10551230489697261,-0.3021375834941864,-4.918176790276998,0.20529982447624207,2.5354738235473633,-0.01496595237404108,-0.011927744373679161,-0.011169679462909698,0.020819049328565598,-0.02540304698050022,-0.022436415776610374,-0.20971527695655823,-2.030329465866089,-0.9992574453353882,0.5621628165245056,-0.6822235584259033,-0.12174827605485916
1749049824.3228607,4.6584601402282715,0.10545353471722407,-0.30217742919921875,-4.918095966378683,0.20520491898059845,2.5353667736053467,-0.01699529029428959,-0.015359009616076946,-0.012244864366948605,0.02287697233259678,-0.025608452036976814,-0.027330860495567322,-0.18136879801750183,-2.04601788520813,-0.9842403531074524,0.5896846055984497,-0.6992218494415283,-0.14870938658714294
1749049824.322897,4.6584601402282715,0.10545353471722407,-0.30217742919921875,-4.918095966378683,0.20520491898059845,2.5353667736053467,-0.01699529029428959,-0.015359009616076946,-0.012244864366948605,0.02287697233259678,-0.025608452036976814,-0.027330860495567322,-0.18136879801750183,-2.04601788520813,-0.9842403531074524,0.5896846055984497,-0.6992218494415283,-0.14870938658714294
1749049824.3229332,4.658388137817383,0.10541336118664546,-0.3022098243236542,-4.918063303033346,0.20523762702941895,2.5353102684020996,-0.01752231828868389,-0.015402263030409813,-0.012121117673814297,0.0247945636510849,-0.025061992928385735,-0.028379615396261215,-0.17659208178520203,-2.0465404987335205,-0.9837009310722351,0.5990439057350159,-0.7216035723686218,-0.1657450944185257
1749049824.32297,4.658340930938721,0.10538606225933833,-0.30222174525260925,-4.918011566201681,0.2051127403974533,2.5352654457092285,-0.017743242904543877,-0.015436197631061077,-0.012467269785702229,0.026507185772061348,-0.026638364419341087,-0.03163093328475952,-0.20474505424499512,-2.056424617767334,-0.988872230052948,0.5960032343864441,-0.7361471652984619,-0.16769345104694366
1749049824.3230119,4.658308982849121,0.1053657966801147,-0.3022577464580536,-4.917960306207174,0.20504434406757355,2.5351779460906982,-0.017809566110372543,-0.015434491448104382,-0.012647692114114761,0.02947181835770607,-0.02769976295530796,-0.033650048077106476,-0.1873481273651123,-2.0683329105377197,-0.9862530827522278,0.6019041538238525,-0.757949709892273,-0.1771945357322693
1749049824.3233902,4.658209800720215,0.10532490789379878,-0.3023335933685303,-4.917796274224752,0.20490887761116028,2.5350356101989746,-0.018882740288972855,-0.01466243714094162,-0.013144899159669876,0.03569002449512482,-0.0331314280629158,-0.03908282518386841,-0.1957387626171112,-2.093876361846924,-0.9916547536849976,0.6044981479644775,-0.7560285329818726,-0.18890048563480377
1749049824.3253894,4.658209800720215,0.10532490789379878,-0.3023335933685303,-4.917796274224752,0.20490887761116028,2.5350356101989746,-0.018882740288972855,-0.01466243714094162,-0.013144899159669876,0.03569002449512482,-0.0331314280629158,-0.03908282518386841,-0.1957387626171112,-2.093876361846924,-0.9916547536849976,0.6044981479644775,-0.7560285329818726,-0.18890048563480377
1749049824.366274,4.658207893371582,0.10527364789929194,-0.3023657500743866,-4.917752405206198,0.20486457645893097,2.5349817276000977,-0.01982848159968853,-0.014541983604431152,-0.014025702141225338,0.03707282245159149,-0.03557966277003288,-0.04005495086312294,-0.20265989005565643,-2.0837082862854004,-0.9832991361618042,0.6138662695884705,-0.7681906223297119,-0.1909295916557312
1749049824.366323,4.658123970031738,0.1052134472080688,-0.3024138808250427,-4.917580028573507,0.20469368994235992,2.5348103046417236,-0.022689243778586388,-0.015688011422753334,-0.013987424783408642,0.042815521359443665,-0.04176779463887215,-0.045694541186094284,-0.20018991827964783,-2.0751967430114746,-0.9653143286705017,0.6267312169075012,-0.7899273633956909,-0.2105456441640854
1749049824.3663638,4.658123970031738,0.1052134472080688,-0.3024138808250427,-4.917580028573507,0.20469368994235992,2.5348103046417236,-0.022689243778586388,-0.015688011422753334,-0.013987424783408642,0.042815521359443665,-0.04176779463887215,-0.045694541186094284,-0.20018991827964783,-2.0751967430114746,-0.9653143286705017,0.6267312169075012,-0.7899273633956909,-0.2105456441640854
1749049824.3664021,4.658102989196777,0.10517780363049312,-0.3024653494358063,-4.917483469048971,0.2045782506465912,2.534691095352173,-0.022498195990920067,-0.01614036038517952,-0.013287204317748547,0.04500686377286911,-0.04488513991236687,-0.04889780282974243,-0.20633074641227722,-2.0783438682556152,-0.9633079171180725,0.6339550614356995,-0.7765134572982788,-0.20000438392162323
1749049824.3664396,4.658075332641602,0.1051606374927978,-0.3024778664112091,-4.917402645150656,0.20452116429805756,2.5346107482910156,-0.02221057191491127,-0.015649087727069855,-0.01340729184448719,0.04831330105662346,-0.048232920467853546,-0.050413329154253006,-0.19928789138793945,-2.067291736602783,-0.9797725081443787,0.6275830268859863,-0.7845603823661804,-0.20875364542007446
1749049824.3664773,4.657987594604492,0.10512129842724605,-0.3024898171424866,-4.917274614373678,0.20439845323562622,2.5344839096069336,-0.023353232070803642,-0.01693473383784294,-0.01320593897253275,0.05252488702535629,-0.050899993628263474,-0.05159425735473633,-0.20268264412879944,-2.0945050716400146,-0.9531012177467346,0.6200087070465088,-0.7787718772888184,-0.22210805118083954
1749049824.3665144,4.657928943634033,0.10506980001416011,-0.302506685256958,-4.917154212991232,0.20430995523929596,2.534379720687866,-0.024278784170746803,-0.016281837597489357,-0.012819228693842888,0.05586039647459984,-0.054135434329509735,-0.05346033722162247,-0.23070698976516724,-2.1133792400360107,-0.9701866507530212,0.6137387156486511,-0.772337794303894,-0.22536003589630127
1749049824.3665528,4.657845973968506,0.10506527006115718,-0.3025340437889099,-4.917042394677633,0.20418277382850647,2.534245014190674,-0.025708729401230812,-0.016333475708961487,-0.012728615663945675,0.05754798650741577,-0.05699346214532852,-0.05634438246488571,-0.22746241092681885,-2.116827964782715,-0.9815263152122498,0.611445963382721,-0.7611294984817505,-0.237199068069458
1749049824.36659,4.657797813415527,0.10500316202130122,-0.30253884196281433,-4.916938205758566,0.20405122637748718,2.534151792526245,-0.026890642940998077,-0.016681483015418053,-0.012754973955452442,0.05657483637332916,-0.060071446001529694,-0.059904519468545914,-0.21352198719978333,-2.120784282684326,-0.9860973954200745,0.6116799712181091,-0.7610408067703247,-0.21571283042430878
1749049824.3666265,4.657712936401367,0.10491923868145747,-0.3026372492313385,-4.916712661782736,0.2037840336561203,2.5338995456695557,-0.027505265548825264,-0.017623580992221832,-0.013160868547856808,0.0604105181992054,-0.06498443335294724,-0.06586893647909164,-0.23835735023021698,-2.1416971683502197,-0.9925028085708618,0.6206457614898682,-0.7603698968887329,-0.20963816344738007
1749049824.3666632,4.657712936401367,0.10491923868145747,-0.3026372492313385,-4.916712661782736,0.2037840336561203,2.5338995456695557,-0.027505265548825264,-0.017623580992221832,-0.013160868547856808,0.0604105181992054,-0.06498443335294724,-0.06586893647909164,-0.23835735023021698,-2.1416971683502197,-0.9925028085708618,0.6206457614898682,-0.7603698968887329,-0.20963816344738007
1749049824.3666995,4.657677173614502,0.10489897310223384,-0.30263853073120117,-4.916577240029806,0.20366401970386505,2.5337440967559814,-0.029428349807858467,-0.017445048317313194,-0.013818709179759026,0.06230023503303528,-0.06799466907978058,-0.06765596568584442,-0.22828690707683563,-2.136387825012207,-0.9931557774543762,0.6341466903686523,-0.7565563917160034,-0.23321613669395447
1749049824.3667395,4.657542705535889,0.10491005956616206,-0.30266261100769043,-4.91642489055776,0.2035513073205948,2.533604621887207,-0.029372230172157288,-0.01784830167889595,-0.013683540746569633,0.06498704105615616,-0.07151399552822113,-0.0701368898153305,-0.2268376499414444,-2.1685519218444824,-0.9760152697563171,0.6300987601280212,-0.764037013053894,-0.21216027438640594
1749049824.3667765,4.657505989074707,0.1048545080372314,-0.3027096092700958,-4.916311880151266,0.20341968536376953,2.5334575176239014,-0.029319869354367256,-0.01817287877202034,-0.014345490373671055,0.06918717920780182,-0.07174036651849747,-0.07101935148239136,-0.2436961680650711,-2.169576406478882,-0.9799010157585144,0.5953465700149536,-0.7483528256416321,-0.21837976574897766
1749049824.366816,4.657454013824463,0.10482232152905269,-0.3027490973472595,-4.91617550472402,0.2032674103975296,2.533344268798828,-0.03021797351539135,-0.01837783306837082,-0.014195337891578674,0.06908612698316574,-0.07392682880163193,-0.07260370999574661,-0.24285461008548737,-2.167046546936035,-1.002075433731079,0.5957708954811096,-0.7734394073486328,-0.230005145072937
1749049824.3668542,4.657393932342529,0.1047786909290771,-0.30276939272880554,-4.916047235528463,0.20311640202999115,2.5331814289093018,-0.03201453387737274,-0.01915070042014122,-0.015125680714845657,0.06595931202173233,-0.07673417031764984,-0.07458673417568207,-0.2530338168144226,-2.1956613063812256,-0.9971671104431152,0.6384062170982361,-0.7383692264556885,-0.23287826776504517
1749049824.3668923,4.657349109649658,0.10474006711926265,-0.30275869369506836,-4.915917774240011,0.2028825730085373,2.5330100059509277,-0.033824894577264786,-0.0197956133633852,-0.015194005332887173,0.06781017035245895,-0.08066268265247345,-0.07796066254377365,-0.24300171434879303,-2.1923811435699463,-0.9986855387687683,0.6708680391311646,-0.7506674528121948,-0.22795148193836212
1749049824.3669286,4.657257080078125,0.10468439638104243,-0.3027830123901367,-4.915766616860861,0.20274637639522552,2.5328612327575684,-0.03438165411353111,-0.020466776564717293,-0.01635828986763954,0.0711866021156311,-0.08508385717868805,-0.08268065750598907,-0.23375852406024933,-2.1848387718200684,-0.9831820130348206,0.6424828767776489,-0.7092135548591614,-0.21572811901569366
1749049824.3669648,4.657194137573242,0.10465137540783687,-0.3028223216533661,-4.915583272973532,0.20257844030857086,2.5327205657958984,-0.03575511649250984,-0.020678963512182236,-0.01633152924478054,0.07284888625144958,-0.08470799028873444,-0.0828893855214119,-0.21309787034988403,-2.186938524246216,-0.9886246919631958,0.6551647782325745,-0.6992186903953552,-0.21549154818058014
1749049824.367008,4.657073497772217,0.10457567750897212,-0.3029100298881531,-4.915317436257833,0.20224300026893616,2.532346248626709,-0.03544927015900612,-0.020924633368849754,-0.016680007800459862,0.07693621516227722,-0.08530998229980469,-0.08495969325304031,-0.24727721512317657,-2.214050531387329,-1.001711368560791,0.6786364912986755,-0.7133919596672058,-0.2352025806903839
1749049824.3673697,4.657073497772217,0.10457567750897212,-0.3029100298881531,-4.915317436257833,0.20224300026893616,2.532346248626709,-0.03544927015900612,-0.020924633368849754,-0.016680007800459862,0.07693621516227722,-0.08530998229980469,-0.08495969325304031,-0.24727721512317657,-2.214050531387329,-1.001711368560791,0.6786364912986755,-0.7133919596672058,-0.2352025806903839
1749049824.3693864,4.657033443450928,0.10453633844342036,-0.3029305338859558,-4.91516437153005,0.20206326246261597,2.532170534133911,-0.03606163337826729,-0.02172124944627285,-0.017052598297595978,0.07848901301622391,-0.08640734851360321,-0.0872434675693512,-0.24291199445724487,-2.2300028800964355,-1.0102452039718628,0.6663155555725098,-0.7316281795501709,-0.2210289090871811
1749049824.4142902,4.65694522857666,0.10447625696148677,-0.30295437574386597,-4.915011545220846,0.2019181102514267,2.531970977783203,-0.03651238605380058,-0.023163288831710815,-0.017877060920000076,0.07840733975172043,-0.08682749420404434,-0.08997087925672531,-0.26106300950050354,-2.2218141555786133,-0.9961997270584106,0.6863450407981873,-0.7240061163902283,-0.19769689440727234
1749049824.4143355,4.656869411468506,0.10446791231121821,-0.3029788136482239,-4.914835830728048,0.20171920955181122,2.5318105220794678,-0.03681449592113495,-0.02468292787671089,-0.018276691436767578,0.08221286535263062,-0.086601123213768,-0.09006047993898392,-0.27859973907470703,-2.2405753135681152,-1.021935224533081,0.6729656457901001,-0.7036396265029907,-0.19373270869255066
1749049824.4143753,4.656753063201904,0.10438708841290278,-0.30307847261428833,-4.914458890954489,0.20141108334064484,2.5314502716064453,-0.03776497766375542,-0.027112560346722603,-0.020733138546347618,0.0847311019897461,-0.08603791147470474,-0.09178837388753891,-0.2769540846347809,-2.207939386367798,-0.9828880429267883,0.6757414937019348,-0.7067247629165649,-0.22426322102546692
1749049824.414414,4.656753063201904,0.10438708841290278,-0.30307847261428833,-4.914458890954489,0.20141108334064484,2.5314502716064453,-0.03776497766375542,-0.027112560346722603,-0.020733138546347618,0.0847311019897461,-0.08603791147470474,-0.09178837388753891,-0.2769540846347809,-2.207939386367798,-0.9828880429267883,0.6757414937019348,-0.7067247629165649,-0.22426322102546692
1749049824.4144516,4.656665325164795,0.10430781423535151,-0.3031262457370758,-4.9143060646452845,0.20118947327136993,2.5312585830688477,-0.03931201621890068,-0.02755022794008255,-0.02034180797636509,0.0858817920088768,-0.08495990931987762,-0.09442007541656494,-0.2784588038921356,-2.181574583053589,-0.9929413795471191,0.677473247051239,-0.7494289875030518,-0.21109306812286377
1749049824.4144895,4.6565937995910645,0.10425226270642085,-0.3032092750072479,-4.9140900574126185,0.20103974640369415,2.531067132949829,-0.04003411903977394,-0.028225049376487732,-0.020460568368434906,0.08917055279016495,-0.08446542918682098,-0.09530320763587952,-0.2753852605819702,-2.2116219997406006,-1.0208135843276978,0.6784742474555969,-0.7751474380493164,-0.20041882991790771
1749049824.414527,4.656513690948486,0.10417728006329341,-0.30322590470314026,-4.913901706735128,0.20088016986846924,2.5308754444122314,-0.03785497695207596,-0.028281090781092644,-0.02118797041475773,0.0929524376988411,-0.0848030224442482,-0.09471289813518524,-0.2775251865386963,-2.208247423171997,-0.9923425912857056,0.6490070223808289,-0.7745106220245361,-0.20986051857471466
1749049824.414564,4.656438827514648,0.10411719858135982,-0.3032705783843994,-4.913752456704611,0.20074006915092468,2.5307059288024902,-0.0383630208671093,-0.029791874811053276,-0.021721268072724342,0.09480222314596176,-0.08468698710203171,-0.09459416568279266,-0.32647621631622314,-2.2031188011169434,-0.9889820218086243,0.6350681781768799,-0.8135040402412415,-0.19395092129707336
1749049824.4146004,4.656405448913574,0.10404138147320552,-0.303306519985199,-4.913544078866476,0.20054860413074493,2.5304794311523438,-0.039970479905605316,-0.031836703419685364,-0.021502669900655746,0.09332576394081116,-0.08789334446191788,-0.09395638108253479,-0.3219693601131439,-2.17732310295105,-0.9947196245193481,0.6260435581207275,-0.8201617002487183,-0.21913327276706696
1749049824.414637,4.656298637390137,0.10398189603771968,-0.3033580482006073,-4.913370271722311,0.2003495991230011,2.530299663543701,-0.04071454331278801,-0.03191228210926056,-0.02162211947143078,0.09514550119638443,-0.09233351796865463,-0.09417103230953217,-0.32458731532096863,-2.169860363006592,-0.9910911321640015,0.6172328591346741,-0.8191223740577698,-0.2201131135225296
1749049824.4146738,4.65620231628418,0.103901668185852,-0.303390771150589,-4.9131628475584925,0.2001419961452484,2.5301074981689453,-0.043904371559619904,-0.03370106592774391,-0.022367972880601883,0.09484829008579254,-0.09167954325675964,-0.09357395768165588,-0.31129002571105957,-2.174328088760376,-0.9859718680381775,0.6153363585472107,-0.8266522884368896,-0.23384058475494385
1749049824.4147105,4.65615701675415,0.10386900484051509,-0.30346596240997314,-4.912954469720358,0.19995853304862976,2.529924154281616,-0.04236893728375435,-0.03512495756149292,-0.023576604202389717,0.09381628781557083,-0.09523293375968933,-0.09484881907701492,-0.31404760479927063,-2.1163594722747803,-0.9751383066177368,0.6442081928253174,-0.8217334747314453,-0.2440842241048813
1749049824.4147468,4.656030654907227,0.1038166719624023,-0.3035023808479309,-4.912770172158712,0.19976216554641724,2.5297553539276123,-0.041492220014333725,-0.03312826156616211,-0.023196550086140633,0.09315307438373566,-0.09869281202554703,-0.09630107879638672,-0.3529288172721863,-2.1427221298217773,-0.9753764271736145,0.6242625713348389,-0.8029428720474243,-0.2619580626487732
1749049824.414784,4.6559038162231445,0.10370568811383052,-0.30354657769203186,-4.912608524362081,0.1995743215084076,2.5295441150665283,-0.04368793964385986,-0.032668858766555786,-0.02232070080935955,0.09388536214828491,-0.10640854388475418,-0.09832820296287537,-0.3385816216468811,-2.1903414726257324,-0.9702072143554688,0.653773307800293,-0.7783551216125488,-0.24862024188041687
1749049824.41482,4.655873775482178,0.103618784541748,-0.3035983443260193,-4.912413021127218,0.19932474195957184,2.5293638706207275,-0.04494616389274597,-0.03514145314693451,-0.02304350771009922,0.09233436733484268,-0.10938474535942078,-0.09905238449573517,-0.3566356301307678,-2.172534704208374,-0.9887513518333435,0.6577829122543335,-0.7551886439323425,-0.24438472092151642
1749049824.414856,4.655758857727051,0.10358516752209468,-0.30363914370536804,-4.9122120342650355,0.19910754263401031,2.529125452041626,-0.04576803743839264,-0.035744808614254,-0.023325489833950996,0.0922846570611,-0.11150341480970383,-0.10110838711261749,-0.324495792388916,-2.1498711109161377,-0.9849666357040405,0.6648008823394775,-0.7130046486854553,-0.2473544478416443
1749049824.4148934,4.655717849731445,0.10349397241558833,-0.30367183685302734,-4.911999364892477,0.19886445999145508,2.5289413928985596,-0.046182647347450256,-0.03533713147044182,-0.02338431403040886,0.09272673726081848,-0.11347191035747528,-0.1029263362288475,-0.3275838792324066,-2.1515774726867676,-0.9845132231712341,0.6589232087135315,-0.7071410417556763,-0.24188807606697083
1749049824.4149299,4.655610084533691,0.10343734800305171,-0.30374258756637573,-4.911834856072897,0.1986631453037262,2.5287296772003174,-0.04644050821661949,-0.035181306302547455,-0.024310238659381866,0.09337876737117767,-0.11365702748298645,-0.10402920097112656,-0.3453722894191742,-2.1482269763946533,-0.9855842590332031,0.6805933713912964,-0.707023561000824,-0.25306421518325806
1749049824.4149668,4.6554670333862305,0.10334984838452144,-0.3037872910499573,-4.911670347253317,0.1984429657459259,2.52852463722229,-0.04845866188406944,-0.03516416624188423,-0.02420816570520401,0.09519021213054657,-0.11215104162693024,-0.10745227336883545,-0.34634193778038025,-2.2014999389648438,-0.9782286882400513,0.6915234923362732,-0.7155836224555969,-0.2570500075817108
1749049824.4150043,4.655434608459473,0.10329024373974605,-0.3038541078567505,-4.911465307275289,0.19819487631320953,2.5282974243164062,-0.04922419413924217,-0.03654426708817482,-0.024028273299336433,0.09737254679203033,-0.11037059128284454,-0.10966342687606812,-0.34888970851898193,-2.17557430267334,-0.9739618897438049,0.7100290656089783,-0.6959722638130188,-0.22878465056419373
1749049824.4150708,4.655323028564453,0.10323385774578853,-0.3038988709449768,-4.911272426644796,0.19800902903079987,2.5280842781066895,-0.05005605146288872,-0.03575577586889267,-0.02353443205356598,0.10030968487262726,-0.10853217542171478,-0.10865893959999084,-0.32941585779190063,-2.1632890701293945,-0.9729886054992676,0.677899181842804,-0.7088291645050049,-0.24326135218143463
1749049824.4151282,4.655215263366699,0.1031150060841064,-0.3039240837097168,-4.911048790017599,0.19777320325374603,2.5278351306915283,-0.050401702523231506,-0.035969436168670654,-0.02421555668115616,0.10296740382909775,-0.10637319087982178,-0.10962939262390137,-0.35302847623825073,-2.192394733428955,-0.9856417179107666,0.7019037008285522,-0.7321402430534363,-0.24396173655986786
1749049824.415433,4.655107021331787,0.1030621963688354,-0.3039912283420563,-4.910863300363058,0.19756551086902618,2.527637243270874,-0.05059781298041344,-0.03655393794178963,-0.02528340183198452,0.10610087215900421,-0.10573748499155045,-0.11425159871578217,-0.38749489188194275,-2.1961848735809326,-1.0036492347717285,0.6794988512992859,-0.751965343952179,-0.23124636709690094
1749049824.4174058,4.654998779296875,0.10297100126232905,-0.30406680703163147,-4.910599847833151,0.19739669561386108,2.527388334274292,-0.0524204857647419,-0.03811526671051979,-0.025878580287098885,0.10984014719724655,-0.1061500608921051,-0.11474040895700455,-0.37025976181030273,-2.183180809020996,-0.9735567569732666,0.675590991973877,-0.7697694897651672,-0.21588221192359924
1749049824.4582732,4.654957294464111,0.10292248308148189,-0.30409955978393555,-4.910398860970968,0.1971462070941925,2.5271897315979004,-0.05319415405392647,-0.03695724159479141,-0.02604065276682377,0.11220500618219376,-0.10575951635837555,-0.11408790946006775,-0.36887654662132263,-2.1706578731536865,-0.9818897843360901,0.6722623705863953,-0.7646864056587219,-0.24438685178756714
1749049824.4583182,4.654807090759277,0.10276846467938228,-0.3041439354419708,-4.910154005090231,0.19693051278591156,2.526946783065796,-0.05367063730955124,-0.03683425486087799,-0.026176735758781433,0.11555805057287216,-0.10782036930322647,-0.11719869822263718,-0.36310434341430664,-2.1904220581054688,-0.9974483251571655,0.6662132143974304,-0.8045526146888733,-0.24480143189430237
1749049824.4583578,4.654715061187744,0.10276298105206294,-0.3042111098766327,-4.909941097299093,0.1966763734817505,2.5267269611358643,-0.054453447461128235,-0.03682525455951691,-0.027115806937217712,0.11274421960115433,-0.11146057397127151,-0.11772280186414719,-0.4043026566505432,-2.2319490909576416,-0.9707642793655396,0.6525395512580872,-0.805741012096405,-0.24050036072731018
1749049824.4583967,4.654630184173584,0.10269538938488765,-0.3042869567871094,-4.9097002945342005,0.1965342015028,2.526473045349121,-0.05649356544017792,-0.03777175396680832,-0.02668868936598301,0.11252180486917496,-0.11040890216827393,-0.11953091621398926,-0.35438618063926697,-2.2126033306121826,-0.9875078201293945,0.6493675708770752,-0.8107643127441406,-0.25523367524147034
1749049824.4584348,4.654382228851318,0.10252289354290767,-0.3043708801269531,-4.909242769280905,0.19600452482700348,2.5259921550750732,-0.058099258691072464,-0.03889865055680275,-0.025416076183319092,0.11621227860450745,-0.12315796315670013,-0.12511439621448517,-0.3678509294986725,-2.2382915019989014,-1.0103328227996826,0.6589486598968506,-0.7968224287033081,-0.22869475185871124
1749049824.4584725,4.654382228851318,0.10252289354290767,-0.3043708801269531,-4.909242769280905,0.19600452482700348,2.5259921550750732,-0.058099258691072464,-0.03889865055680275,-0.025416076183319092,0.11621227860450745,-0.12315796315670013,-0.12511439621448517,-0.3678509294986725,-2.2382915019989014,-1.0103328227996826,0.6589486598968506,-0.7968224287033081,-0.22869475185871124
1749049824.45851,4.654247283935547,0.10251013814892573,-0.304418683052063,-4.908997674981588,0.1957288682460785,2.5257251262664795,-0.058004483580589294,-0.03819935768842697,-0.02647724747657776,0.11273526400327682,-0.12704671919345856,-0.12347201257944107,-0.3919183611869812,-2.2421696186065674,-1.0079543590545654,0.672023594379425,-0.7592227458953857,-0.22211694717407227
1749049824.4585474,4.654031276702881,0.10235063611950679,-0.30449217557907104,-4.908544202844137,0.1952168494462967,2.5252485275268555,-0.06062893196940422,-0.037052661180496216,-0.02791617251932621,0.11490385234355927,-0.13040734827518463,-0.12752953171730042,-0.3378313481807709,-2.2942230701446533,-1.0070234537124634,0.7014277577400208,-0.7365559339523315,-0.24510981142520905
1749049824.4585848,4.654031276702881,0.10235063611950679,-0.30449217557907104,-4.908544202844137,0.1952168494462967,2.5252485275268555,-0.06062893196940422,-0.037052661180496216,-0.02791617251932621,0.11490385234355927,-0.13040734827518463,-0.12752953171730042,-0.3378313481807709,-2.2942230701446533,-1.0070234537124634,0.7014277577400208,-0.7365559339523315,-0.24510981142520905
1749049824.4586217,4.653899192810059,0.10227911054577632,-0.3045681118965149,-4.908300300637716,0.19487161934375763,2.5249547958374023,-0.05907164141535759,-0.038653481751680374,-0.027784373611211777,0.11581407487392426,-0.13157394528388977,-0.1284933090209961,-0.4067676067352295,-2.2964887619018555,-1.0244927406311035,0.6910446882247925,-0.7566537261009216,-0.24012228846549988
1749049824.4586582,4.653798580169678,0.10220663129772944,-0.3046005368232727,-4.908059497872824,0.19461886584758759,2.5247058868408203,-0.060191184282302856,-0.038198668509721756,-0.028001105412840843,0.11724954843521118,-0.13188651204109192,-0.1305566281080246,-0.4104084074497223,-2.3149969577789307,-1.0088170766830444,0.7200343012809753,-0.7341121435165405,-0.24338778853416443
1749049824.4586947,4.6536946296691895,0.10208086549725337,-0.3046760559082031,-4.907817979852194,0.19439764320850372,2.5244388580322266,-0.06507036834955215,-0.04112488031387329,-0.028305141255259514,0.1178101897239685,-0.12983249127864838,-0.1331680715084076,-0.3639557957649231,-2.3037896156311035,-1.0238171815872192,0.7373843789100647,-0.7433720231056213,-0.247592031955719
1749049824.458731,4.6535234451293945,0.10203508913006587,-0.3047325909137726,-4.90755881885671,0.19412289559841156,2.5241711139678955,-0.06181011721491814,-0.04045216739177704,-0.028752166777849197,0.12450439482927322,-0.1273246854543686,-0.13697068393230438,-0.40851667523384094,-2.317809820175171,-1.025350570678711,0.7341737747192383,-0.7580670714378357,-0.2254834771156311
1749049824.4587677,4.653435707092285,0.10190920412030025,-0.3047843873500824,-4.907318016091818,0.1938760131597519,2.523914337158203,-0.06427038460969925,-0.04004048928618431,-0.029274307191371918,0.12576889991760254,-0.12519191205501556,-0.13857966661453247,-0.4188298285007477,-2.34031081199646,-1.0456337928771973,0.7340742945671082,-0.7720863819122314,-0.21157851815223694
1749049824.458804,4.653290748596191,0.10186366617169185,-0.3048441410064697,-4.907037159005636,0.19359315931797028,2.5235612392425537,-0.06647555530071259,-0.04334975406527519,-0.030514003708958626,0.12923729419708252,-0.12361889332532883,-0.1412973254919052,-0.3929871916770935,-2.3277673721313477,-1.0311472415924072,0.7198236584663391,-0.8135947585105896,-0.21971583366394043
1749049824.4588406,4.653132438659668,0.10179154455151362,-0.304923415184021,-4.906798978845114,0.19338366389274597,2.5233235359191895,-0.06687255203723907,-0.043276596814394,-0.030650433152914047,0.13673537969589233,-0.1284310519695282,-0.14100416004657745,-0.379106730222702,-2.3089683055877686,-1.033672571182251,0.7209523320198059,-0.8403772115707397,-0.19436867535114288
1749049824.458877,4.652941703796387,0.1016802030750732,-0.30499547719955444,-4.906514783898825,0.19315239787101746,2.523047924041748,-0.06700724363327026,-0.044684890657663345,-0.03081807680428028,0.14072410762310028,-0.12725895643234253,-0.14135700464248657,-0.3886255919933319,-2.3260419368743896,-1.032265067100525,0.6553282141685486,-0.8748694658279419,-0.21972675621509552
1749049824.4589138,4.652790546417236,0.10153154909100337,-0.30511555075645447,-4.905933757821554,0.19264158606529236,2.522475242614746,-0.06900264322757721,-0.04729558527469635,-0.03225165978074074,0.14306482672691345,-0.1397085338830948,-0.1414652019739151,-0.4095386564731598,-2.291921377182007,-1.0521790981292725,0.6474780440330505,-0.891735315322876,-0.22560246288776398
1749049824.4589503,4.652790546417236,0.10153154909100337,-0.30511555075645447,-4.905933757821554,0.19264158606529236,2.522475242614746,-0.06900264322757721,-0.04729558527469635,-0.03225165978074074,0.14306482672691345,-0.1397085338830948,-0.1414652019739151,-0.4095386564731598,-2.291921377182007,-1.0521790981292725,0.6474780440330505,-0.891735315322876,-0.22560246288776398
1749049824.4589918,4.652595043182373,0.10142378389324946,-0.3051528334617615,-4.905660768548483,0.19232280552387238,2.522226095199585,-0.0692857950925827,-0.04860470071434975,-0.03333798050880432,0.14250996708869934,-0.1441207081079483,-0.14055730402469635,-0.39485591650009155,-2.302398681640625,-1.0186359882354736,0.6318848133087158,-0.8903566598892212,-0.23385171592235565
1749049824.459394,4.652327537536621,0.10123209535565181,-0.30529236793518066,-4.905119081536764,0.191711887717247,2.521620273590088,-0.06951021403074265,-0.05003815516829491,-0.03151123225688934,0.13989512622356415,-0.1559055596590042,-0.14472854137420654,-0.4087144732475281,-2.2818636894226074,-1.0700938701629639,0.6651551723480225,-0.8388383388519287,-0.26094257831573486
1749049824.4614031,4.652327537536621,0.10123209535565181,-0.30529236793518066,-4.905119081536764,0.191711887717247,2.521620273590088,-0.06951021403074265,-0.05003815516829491,-0.03151123225688934,0.13989512622356415,-0.1559055596590042,-0.14472854137420654,-0.4087144732475281,-2.2818636894226074,-1.0700938701629639,0.6651551723480225,-0.8388383388519287,-0.26094257831573486
1749049824.5063183,4.652179718017578,0.10116271554913325,-0.3053450286388397,-4.904829641381735,0.19136770069599152,2.5212860107421875,-0.07121153920888901,-0.05072909966111183,-0.03272681683301926,0.1398782879114151,-0.15778808295726776,-0.1452796459197998,-0.3999989926815033,-2.2911906242370605,-1.0556665658950806,0.6941807866096497,-0.8026469349861145,-0.2582741975784302
1749049824.5063653,4.652036190032959,0.10099319993939204,-0.3054327070713043,-4.904536863366598,0.1910371333360672,2.5210297107696533,-0.07595010846853256,-0.050978727638721466,-0.03310462459921837,0.1405544877052307,-0.15884199738502502,-0.1457495391368866,-0.3644464612007141,-2.2618203163146973,-1.0708634853363037,0.7063172459602356,-0.7879536747932434,-0.26871615648269653
1749049824.5064058,4.651825904846191,0.10089735567059321,-0.3054809272289276,-4.904264112512106,0.19074472784996033,2.5207180976867676,-0.07167932391166687,-0.05141948163509369,-0.03322199732065201,0.14268486201763153,-0.15789484977722168,-0.14966359734535217,-0.3962090015411377,-2.270120620727539,-1.0748369693756104,0.679901659488678,-0.7730184197425842,-0.2927626073360443
1749049824.5064445,4.651612758636475,0.1007130581089477,-0.3056406080722809,-4.903670450250143,0.1900702863931656,2.5200674533843994,-0.07426829636096954,-0.05294021591544151,-0.03540140017867088,0.14818847179412842,-0.1544961780309677,-0.1530059278011322,-0.39047977328300476,-2.290036678314209,-1.0587680339813232,0.672730565071106,-0.8069440722465515,-0.2553616464138031
1749049824.5064871,4.651612758636475,0.1007130581089477,-0.3056406080722809,-4.903670450250143,0.1900702863931656,2.5200674533843994,-0.07426829636096954,-0.05294021591544151,-0.03540140017867088,0.14818847179412842,-0.1544961780309677,-0.1530059278011322,-0.39047977328300476,-2.290036678314209,-1.0587680339813232,0.672730565071106,-0.8069440722465515,-0.2553616464138031
1749049824.5065258,4.651464462280273,0.10058145105328364,-0.3057316541671753,-4.903397699395651,0.18977069854736328,2.5197596549987793,-0.07428935915231705,-0.05358538404107094,-0.03469906747341156,0.1560119241476059,-0.15714693069458008,-0.1557580977678299,-0.386965811252594,-2.2627739906311035,-1.0812456607818604,0.6669992804527283,-0.8036523461341858,-0.2600686848163605
1749049824.5065634,4.651331901550293,0.10042302190747066,-0.3058003783226013,-4.903077026406759,0.18947462737560272,2.519475221633911,-0.07439189404249191,-0.054073162376880646,-0.035357434302568436,0.15576370060443878,-0.1564408540725708,-0.15812240540981293,-0.4017868936061859,-2.265090227127075,-1.0596874952316284,0.6541114449501038,-0.7764312624931335,-0.23463568091392517
1749049824.5066004,4.651113510131836,0.1003151375004272,-0.3058880865573883,-4.902752538720602,0.1891328990459442,2.5191712379455566,-0.07443013042211533,-0.05481497198343277,-0.03738505393266678,0.15671205520629883,-0.15871889889240265,-0.15704669058322906,-0.39973464608192444,-2.2588295936584473,-1.0536749362945557,0.6529374122619629,-0.8026657104492188,-0.2611579895019531
1749049824.5066373,4.650883197784424,0.10012249528851314,-0.30606478452682495,-4.902166029016012,0.18853990733623505,2.518508195877075,-0.07697192579507828,-0.05671348795294762,-0.0388348326086998,0.15416762232780457,-0.16580291092395782,-0.15803059935569763,-0.4057610034942627,-2.2534618377685547,-1.0420640707015991,0.6450437307357788,-0.7680765390396118,-0.26741284132003784
1749049824.5066743,4.650883197784424,0.10012249528851314,-0.30606478452682495,-4.902166029016012,0.18853990733623505,2.518508195877075,-0.07697192579507828,-0.05671348795294762,-0.0388348326086998,0.15416762232780457,-0.16580291092395782,-0.15803059935569763,-0.4057610034942627,-2.2534618377685547,-1.0420640707015991,0.6450437307357788,-0.7680765390396118,-0.26741284132003784
1749049824.5067105,4.6506733894348145,0.09997467576947017,-0.3061210513114929,-4.901818176309103,0.18819382786750793,2.518200159072876,-0.07830066978931427,-0.057860732078552246,-0.0391184501349926,0.15331892669200897,-0.16690008342266083,-0.16079269349575043,-0.3597692549228668,-2.2236104011535645,-1.034165620803833,0.6542884707450867,-0.766029953956604,-0.2851010262966156
1749049824.5067477,4.650576591491699,0.09988252698864741,-0.3062206506729126,-4.901524683038229,0.1878531575202942,2.517876148223877,-0.07923344522714615,-0.05517438054084778,-0.03901231288909912,0.1518286019563675,-0.16504907608032227,-0.1625310629606247,-0.39035096764564514,-2.246778726577759,-1.0365545749664307,0.689668595790863,-0.7785290479660034,-0.2717771530151367
1749049824.5067842,4.650353908538818,0.09976296007122798,-0.3062894344329834,-4.901266714135641,0.187552809715271,2.517528772354126,-0.08046904951334,-0.05587407946586609,-0.03935634717345238,0.1510305106639862,-0.16352449357509613,-0.16479197144508362,-0.3823338449001312,-2.249178171157837,-1.0320137739181519,0.6905553340911865,-0.7953336238861084,-0.26313525438308716
1749049824.506821,4.650217533111572,0.0996742683598022,-0.3063543140888214,-4.900934835473532,0.18715839087963104,2.5171892642974854,-0.08035142719745636,-0.05868571996688843,-0.039033859968185425,0.15311479568481445,-0.1614883691072464,-0.1690744012594223,-0.3647063970565796,-2.2357215881347656,-1.0292227268218994,0.71788489818573,-0.7942483425140381,-0.24939091503620148
1749049824.5068572,4.650093078613281,0.09955398618664546,-0.30646127462387085,-4.900593896905416,0.18684689700603485,2.516822338104248,-0.08264968544244766,-0.05731404945254326,-0.04016588255763054,0.16034375131130219,-0.16152016818523407,-0.17331916093826294,-0.36140915751457214,-2.2141366004943848,-1.0150078535079956,0.7064250111579895,-0.8046744465827942,-0.23572948575019836
1749049824.5068948,4.649943828582764,0.09942249834027095,-0.30653297901153564,-4.900268455544943,0.18649931252002716,2.5164711475372314,-0.08089220523834229,-0.05618423968553543,-0.040114015340805054,0.16084319353103638,-0.16646984219551086,-0.17666108906269073,-0.35867172479629517,-2.2847907543182373,-1.0174089670181274,0.6981322765350342,-0.7984817624092102,-0.23869359493255615
1749049824.5069313,4.649560928344727,0.0991789537617187,-0.30670610070228577,-4.899610420266622,0.18586798012256622,2.5157549381256104,-0.087794728577137,-0.060713253915309906,-0.04159664735198021,0.17366835474967957,-0.1707124263048172,-0.17770588397979736,-0.41680005192756653,-2.2863352298736572,-1.0363259315490723,0.668366551399231,-0.8475110530853271,-0.2280406504869461
1749049824.5069675,4.649560928344727,0.0991789537617187,-0.30670610070228577,-4.899610420266622,0.18586798012256622,2.5157549381256104,-0.087794728577137,-0.060713253915309906,-0.04159664735198021,0.17366835474967957,-0.1707124263048172,-0.17770588397979736,-0.41680005192756653,-2.2863352298736572,-1.0363259315490723,0.668366551399231,-0.8475110530853271,-0.2280406504869461
1749049824.507004,4.649409294128418,0.09903649866070552,-0.3067784011363983,-4.899250646630758,0.18557076156139374,2.5154614448547363,-0.08633715659379959,-0.06204652786254883,-0.042931076139211655,0.17318521440029144,-0.1726759970188141,-0.17694593966007233,-0.36966419219970703,-2.194248914718628,-1.0042141675949097,0.6223946213722229,-0.8253893852233887,-0.22086942195892334
1749049824.5070407,4.649216651916504,0.09894434987988276,-0.30688515305519104,-4.898924490014547,0.18516553938388824,2.5150790214538574,-0.08639872819185257,-0.06120236963033676,-0.04200705513358116,0.1732332706451416,-0.17461945116519928,-0.17553018033504486,-0.35779768228530884,-2.185246229171753,-0.9846654534339905,0.6103269457817078,-0.8501902222633362,-0.2210768461227417
1749049824.5070772,4.649038314819336,0.09880857049908442,-0.3069378733634949,-4.898595949212545,0.18480947613716125,2.5147345066070557,-0.08526226133108139,-0.060747258365154266,-0.04074568673968315,0.16886934638023376,-0.17574261128902435,-0.17418691515922546,-0.3834100663661957,-2.2066967487335205,-1.0144274234771729,0.6427043676376343,-0.8458767533302307,-0.25263169407844543
1749049824.5071125,4.648860931396484,0.09869246065106196,-0.3070255517959595,-4.8982280693449916,0.18445025384426117,2.514370918273926,-0.08479047566652298,-0.06122292950749397,-0.039915915578603745,0.16677439212799072,-0.1785438060760498,-0.17330019176006317,-0.406945139169693,-2.2358486652374268,-1.037030577659607,0.675810694694519,-0.8481632471084595,-0.2743375301361084
1749049824.507518,4.648716926574707,0.09857289373364253,-0.3070942759513855,-4.897925277749533,0.18406356871128082,2.5140161514282227,-0.08612271398305893,-0.06176408752799034,-0.04019632562994957,0.165440171957016,-0.1812121868133545,-0.17295163869857788,-0.39405202865600586,-2.206681966781616,-1.0197644233703613,0.69062340259552,-0.8215214014053345,-0.30079224705696106
1749049824.509367,4.648532867431641,0.09842161714520259,-0.30716633796691895,-4.897588630715841,0.18372339010238647,2.513678789138794,-0.08722050487995148,-0.06282540410757065,-0.040697891265153885,0.16897964477539062,-0.18553346395492554,-0.18151640892028809,-0.39505764842033386,-2.265406370162964,-1.0326988697052002,0.7149860858917236,-0.7945274114608765,-0.2966075539588928
1749049824.554381,4.64816951751709,0.09824447214093013,-0.3072996139526367,-4.896855016747946,0.18296825885772705,2.5129075050354004,-0.08860666304826736,-0.06101994961500168,-0.040458131581544876,0.17635859549045563,-0.18766383826732635,-0.18625716865062714,-0.3826799690723419,-2.2812068462371826,-1.0616037845611572,0.6954435110092163,-0.7973493933677673,-0.26326295733451843
1749049824.5544271,4.64816951751709,0.09824447214093013,-0.3072996139526367,-4.896855016747946,0.18296825885772705,2.5129075050354004,-0.08860666304826736,-0.06101994961500168,-0.040458131581544876,0.17635859549045563,-0.18766383826732635,-0.18625716865062714,-0.3826799690723419,-2.2812068462371826,-1.0616037845611572,0.6954435110092163,-0.7973493933677673,-0.26326295733451843
1749049824.5544682,4.647989273071289,0.09811584531750484,-0.30740660429000854,-4.896494051019186,0.18256166577339172,2.5125484466552734,-0.09052297472953796,-0.06265076249837875,-0.04170631989836693,0.18117967247962952,-0.1911022812128067,-0.18753573298454285,-0.3822065591812134,-2.2444076538085938,-1.0498679876327515,0.6743171811103821,-0.7708302736282349,-0.25631046295166016
1749049824.5545073,4.647692680358887,0.09781376897778316,-0.30756282806396484,-4.895778795281881,0.18183109164237976,2.5118367671966553,-0.09048900753259659,-0.061027903109788895,-0.042238518595695496,0.18554626405239105,-0.19627749919891357,-0.1902584731578827,-0.3958745002746582,-2.2765274047851562,-1.063867211341858,0.6685233116149902,-0.7934556603431702,-0.2797534465789795
1749049824.5545454,4.647692680358887,0.09781376897778316,-0.30756282806396484,-4.895778795281881,0.18183109164237976,2.5118367671966553,-0.09048900753259659,-0.061027903109788895,-0.042238518595695496,0.18554626405239105,-0.19627749919891357,-0.1902584731578827,-0.3958745002746582,-2.2765274047851562,-1.063867211341858,0.6685233116149902,-0.7934556603431702,-0.2797534465789795
1749049824.554584,4.647438049316406,0.09770922243084712,-0.30767789483070374,-4.895429988900656,0.18142010271549225,2.5114052295684814,-0.0916229635477066,-0.062025442719459534,-0.04277048632502556,0.18379302322864532,-0.19607029855251312,-0.18642191588878632,-0.39114922285079956,-2.2984800338745117,-1.0481200218200684,0.6730693578720093,-0.7681562900543213,-0.3169093132019043
1749049824.5546215,4.647235870361328,0.09756223737683101,-0.30775851011276245,-4.895065446893209,0.1810242384672165,2.5110490322113037,-0.09126889705657959,-0.06256406754255295,-0.04359038546681404,0.18277689814567566,-0.19669440388679504,-0.19110508263111115,-0.4182659387588501,-2.277514696121216,-1.068654179573059,0.7036150693893433,-0.8047412037849426,-0.3269674777984619
1749049824.5546591,4.647070407867432,0.09743361055340571,-0.30783045291900635,-4.894695659677023,0.18059799075126648,2.510669231414795,-0.09243126958608627,-0.06235620379447937,-0.044702112674713135,0.18253740668296814,-0.19523175060749054,-0.19321513175964355,-0.43181347846984863,-2.321505308151245,-1.066057562828064,0.7069315910339355,-0.804535984992981,-0.33022141456604004
1749049824.554696,4.646687984466553,0.09716991960491939,-0.30805736780166626,-4.893965621987814,0.17979884147644043,2.5098307132720947,-0.09580090641975403,-0.06404344737529755,-0.0488094687461853,0.18460021913051605,-0.19598107039928436,-0.2055462747812271,-0.3930995762348175,-2.31137752532959,-1.0302189588546753,0.7317200899124146,-0.8368663787841797,-0.2859323024749756
1749049824.554739,4.646687984466553,0.09716991960491939,-0.30805736780166626,-4.893965621987814,0.17979884147644043,2.5098307132720947,-0.09580090641975403,-0.06404344737529755,-0.0488094687461853,0.18460021913051605,-0.19598107039928436,-0.2055462747812271,-0.3930995762348175,-2.31137752532959,-1.0302189588546753,0.7317200899124146,-0.8368663787841797,-0.2859323024749756
1749049824.5547771,4.64655876159668,0.09704570352520747,-0.3081427216529846,-4.893540998498434,0.17938627302646637,2.5093905925750732,-0.09565427899360657,-0.06430354714393616,-0.04749054089188576,0.19308488070964813,-0.19465851783752441,-0.2107335776090622,-0.3942359685897827,-2.3172411918640137,-1.0233770608901978,0.7189010977745056,-0.8257628083229065,-0.249640554189682
1749049824.5548139,4.64634370803833,0.09693364679302974,-0.30824244022369385,-4.893175025979513,0.17900308966636658,2.5089077949523926,-0.09539394825696945,-0.06481702625751495,-0.04723665490746498,0.1935792863368988,-0.20246712863445282,-0.21171244978904724,-0.4229954779148102,-2.3164875507354736,-1.0428904294967651,0.7176433205604553,-0.8355158567428589,-0.24237526953220367
1749049824.5548506,4.646140098571777,0.0967903572269897,-0.30836647748947144,-4.892758985558981,0.17854872345924377,2.5084850788116455,-0.09585918486118317,-0.06579612195491791,-0.048192381858825684,0.20136597752571106,-0.2066546529531479,-0.21022169291973114,-0.427490770816803,-2.3151981830596924,-1.041543960571289,0.7071768045425415,-0.7849226593971252,-0.23899002373218536
1749049824.554887,4.645928859710693,0.09665445863690181,-0.30844295024871826,-4.892361303369039,0.17817233502864838,2.5080721378326416,-0.09835650771856308,-0.06741764396429062,-0.05039216950535774,0.20150426030158997,-0.21117639541625977,-0.2043917030096054,-0.4216346740722656,-2.3130905628204346,-1.0079021453857422,0.6873648166656494,-0.7673089504241943,-0.24986632168293
1749049824.5549233,4.645751476287842,0.09649555265393062,-0.30856695771217346,-4.8919366798796595,0.17775818705558777,2.507655620574951,-0.09551355987787247,-0.06917008012533188,-0.05019846186041832,0.20118026435375214,-0.21345771849155426,-0.20558102428913116,-0.45509248971939087,-2.2913386821746826,-0.9979114532470703,0.6656626462936401,-0.7577645182609558,-0.2924231290817261
1749049824.5549593,4.645559310913086,0.09637169420208735,-0.30867496132850647,-4.891543289224142,0.1773262768983841,2.507272481918335,-0.0999700054526329,-0.0708707869052887,-0.04848266392946243,0.2006647288799286,-0.21443584561347961,-0.19974955916404724,-0.4501665234565735,-2.3123209476470947,-1.0293382406234741,0.71541428565979,-0.7744863033294678,-0.3191291391849518
1749049824.5549965,4.6451215744018555,0.09607569753613276,-0.30886030197143555,-4.890792270699972,0.17647536098957062,2.5064125061035156,-0.10307233035564423,-0.07518178969621658,-0.05042847990989685,0.19803349673748016,-0.2119455486536026,-0.20691032707691193,-0.38639646768569946,-2.216487169265747,-1.020471215248108,0.7484252452850342,-0.8032954931259155,-0.32643619179725647
1749049824.555046,4.6451215744018555,0.09607569753613276,-0.30886030197143555,-4.890792270699972,0.17647536098957062,2.5064125061035156,-0.10307233035564423,-0.07518178969621658,-0.05042847990989685,0.19803349673748016,-0.2119455486536026,-0.20691032707691193,-0.38639646768569946,-2.216487169265747,-1.020471215248108,0.7484252452850342,-0.8032954931259155,-0.32643619179725647
1749049824.5550842,4.644944667816162,0.0959443288990478,-0.3089444637298584,-4.8903826675810755,0.17613071203231812,2.5059919357299805,-0.10309202969074249,-0.07321184128522873,-0.04973651096224785,0.20028236508369446,-0.2131224274635315,-0.2130999118089676,-0.3820968270301819,-2.24100923538208,-1.0104695558547974,0.7585940361022949,-0.831028938293457,-0.3167482018470764
1749049824.555121,4.6447529792785645,0.09580008565869136,-0.30907145142555237,-4.889966150323385,0.17564861476421356,2.50551438331604,-0.10267594456672668,-0.07774483412504196,-0.049015309661626816,0.20619075000286102,-0.21772509813308716,-0.2187218964099884,-0.4293897747993469,-2.2198731899261475,-1.038467526435852,0.7929549217224121,-0.8480700254440308,-0.29151633381843567
1749049824.555157,4.64450216293335,0.09561769544567866,-0.3091520667076111,-4.889544387856954,0.17524398863315582,2.5050740242004395,-0.10453484952449799,-0.07443702220916748,-0.04968501627445221,0.2090809941291809,-0.21991868317127228,-0.22060155868530273,-0.38515955209732056,-2.268765687942505,-1.0259791612625122,0.7608100175857544,-0.8332614898681641,-0.2876615524291992
1749049824.5552747,4.644141674041748,0.09534840166058345,-0.30935633182525635,-4.88866724590444,0.17431870102882385,2.5042152404785156,-0.10683964192867279,-0.07563761621713638,-0.050904154777526855,0.21611253917217255,-0.2292831540107727,-0.2174045890569687,-0.4077978730201721,-2.2283174991607666,-1.022709608078003,0.7352027297019958,-0.7759331464767456,-0.31237170100212097
1749049824.555404,4.644141674041748,0.09534840166058345,-0.30935633182525635,-4.88866724590444,0.17431870102882385,2.5042152404785156,-0.10683964192867279,-0.07563761621713638,-0.050904154777526855,0.21611253917217255,-0.2292831540107727,-0.2174045890569687,-0.4077978730201721,-2.2283174991607666,-1.022709608078003,0.7352027297019958,-0.7759331464767456,-0.31237170100212097
1749049824.599168,4.643959999084473,0.09517697870220942,-0.30945608019828796,-4.88825311283254,0.17384286224842072,2.503840923309326,-0.10419392585754395,-0.0729084238409996,-0.04861658066511154,0.2159702181816101,-0.22971396148204803,-0.22207233309745789,-0.4703664183616638,-2.319671630859375,-1.053593635559082,0.7436238527297974,-0.7752333879470825,-0.3300139904022217
1749049824.5992148,4.643651962280273,0.09503714620556636,-0.309551477432251,-4.887835880319113,0.17337653040885925,2.503390073776245,-0.11002006381750107,-0.07618936896324158,-0.050525106489658356,0.2172558307647705,-0.2264864444732666,-0.22433717548847198,-0.4405018091201782,-2.297498941421509,-1.0603199005126953,0.7613418102264404,-0.8203071355819702,-0.3698374629020691
1749049824.599255,4.6434550285339355,0.09486560403790278,-0.30962857604026794,-4.8874060116209925,0.1728939712047577,2.5029263496398926,-0.10744502395391464,-0.07629374414682388,-0.05185391753911972,0.21649235486984253,-0.22839801013469696,-0.2322199046611786,-0.4038884937763214,-2.2619073390960693,-1.0359693765640259,0.7740630507469177,-0.8009313344955444,-0.33103668689727783
1749049824.5992968,4.643020153045654,0.09459738313641353,-0.30988427996635437,-4.886524101296896,0.17200236022472382,2.501920700073242,-0.10674872994422913,-0.0750550776720047,-0.05223039165139198,0.22303201258182526,-0.23109561204910278,-0.24586614966392517,-0.46921074390411377,-2.2808828353881836,-1.0500521659851074,0.7789929509162903,-0.8405287265777588,-0.24924132227897644
1749049824.5993357,4.643020153045654,0.09459738313641353,-0.30988427996635437,-4.886524101296896,0.17200236022472382,2.501920700073242,-0.10674872994422913,-0.0750550776720047,-0.05223039165139198,0.22303201258182526,-0.23109561204910278,-0.24586614966392517,-0.46921074390411377,-2.2808828353881836,-1.0500521659851074,0.7789929509162903,-0.8405287265777588,-0.24924132227897644
1749049824.5993738,4.642847061157227,0.0943867403217773,-0.31002670526504517,-4.886039873162741,0.17153875529766083,2.501464605331421,-0.11052709817886353,-0.07328308373689651,-0.05220115929841995,0.22398221492767334,-0.23617836833000183,-0.24458849430084229,-0.44078364968299866,-2.34881329536438,-1.0536926984786987,0.7995597124099731,-0.8137876391410828,-0.2529110908508301
1749049824.5994127,4.642368316650391,0.09411506235089107,-0.31020504236221313,-4.885152717629904,0.17058388888835907,2.50046968460083,-0.11309954524040222,-0.07629922032356262,-0.05619124323129654,0.23422464728355408,-0.24474723637104034,-0.23742491006851196,-0.4180333912372589,-2.286862850189209,-1.0019985437393188,0.7308833599090576,-0.7742732167243958,-0.2849811315536499
1749049824.5994499,4.642368316650391,0.09411506235089107,-0.31020504236221313,-4.885152717629904,0.17058388888835907,2.50046968460083,-0.11309954524040222,-0.07629922032356262,-0.05619124323129654,0.23422464728355408,-0.24474723637104034,-0.23742491006851196,-0.4180333912372589,-2.286862850189209,-1.0019985437393188,0.7308833599090576,-0.7742732167243958,-0.2849811315536499
1749049824.599487,4.642165184020996,0.09395496427502437,-0.3103443682193756,-4.884674688378805,0.17009419202804565,2.5000410079956055,-0.11218961328268051,-0.0775555744767189,-0.056088097393512726,0.2354978770017624,-0.24294352531433105,-0.240297332406044,-0.44479021430015564,-2.303840398788452,-1.016782522201538,0.722602367401123,-0.7895272374153137,-0.3137623071670532
1749049824.5995243,4.641955852508545,0.09376411020245357,-0.31044575572013855,-4.8841546974577845,0.16962547600269318,2.499537467956543,-0.11394362896680832,-0.08343164622783661,-0.05656052008271217,0.23500780761241913,-0.24049611389636993,-0.23921120166778564,-0.4899778366088867,-2.2552125453948975,-1.0031412839889526,0.7550232410430908,-0.809565544128418,-0.3334455192089081
1749049824.5995667,4.641751289367676,0.09363464891400142,-0.31055715680122375,-4.88375510791921,0.16915111243724823,2.4990224838256836,-0.1143595352768898,-0.08109313994646072,-0.05662847310304642,0.235002800822258,-0.23942027986049652,-0.24414542317390442,-0.43852856755256653,-2.290738344192505,-0.9856900572776794,0.7601149082183838,-0.8391908407211304,-0.3180233836174011
1749049824.5996056,4.641468524932861,0.09350673734631343,-0.31066882610321045,-4.883247514764303,0.16866251826286316,2.4985499382019043,-0.11827751994132996,-0.08419601619243622,-0.05675375834107399,0.23327015340328217,-0.24628905951976776,-0.2480105459690094,-0.39524346590042114,-2.2554638385772705,-1.0047211647033691,0.7770509719848633,-0.83315509557724,-0.3086419701576233
1749049824.599646,4.641287803649902,0.09327547132458491,-0.31077343225479126,-4.882765193978781,0.16820262372493744,2.4980475902557373,-0.11556850373744965,-0.08583632856607437,-0.0561860017478466,0.2376071810722351,-0.2476082295179367,-0.25002142786979675,-0.4597906470298767,-2.2316224575042725,-1.0071572065353394,0.7653129696846008,-0.8055598139762878,-0.27565184235572815
1749049824.5996838,4.640993595123291,0.09313587724652095,-0.31093263626098633,-4.882272859612936,0.16766241192817688,2.4975242614746094,-0.11768221855163574,-0.08664017170667648,-0.055820975452661514,0.2396349161863327,-0.2565363347530365,-0.25147879123687744,-0.44137877225875854,-2.2199673652648926,-1.0191373825073242,0.761619508266449,-0.7831977009773254,-0.27738654613494873
1749049824.5997207,4.640512943267822,0.0928000646778564,-0.31112170219421387,-4.881294151345724,0.16662277281284332,2.496539831161499,-0.11978074163198471,-0.08776187896728516,-0.05657190456986427,0.2419373095035553,-0.2541449964046478,-0.25274866819381714,-0.43005189299583435,-2.215339422225952,-1.0193965435028076,0.756168007850647,-0.7711536884307861,-0.3053320050239563
1749049824.599758,4.640512943267822,0.0928000646778564,-0.31112170219421387,-4.881294151345724,0.16662277281284332,2.496539831161499,-0.11978074163198471,-0.08776187896728516,-0.05657190456986427,0.2419373095035553,-0.2541449964046478,-0.25274866819381714,-0.43005189299583435,-2.215339422225952,-1.0193965435028076,0.756168007850647,-0.7711536884307861,-0.3053320050239563
1749049824.599808,4.640293121337891,0.09260837614025874,-0.3112575113773346,-4.880839487115377,0.1661568135023117,2.496039628982544,-0.12184589356184006,-0.08687319606542587,-0.05633651465177536,0.2397322654724121,-0.25299379229545593,-0.2567548155784607,-0.4043397307395935,-2.2529423236846924,-1.0367894172668457,0.7757117748260498,-0.8163965940475464,-0.3185393810272217
1749049824.5998535,4.640045642852783,0.09246449052777095,-0.31135010719299316,-4.880338569680685,0.16563008725643158,2.4955251216888428,-0.12180742621421814,-0.08646609634160995,-0.057144515216350555,0.23800693452358246,-0.24580654501914978,-0.2632991373538971,-0.45331570506095886,-2.2815706729888916,-1.0485724210739136,0.8068861961364746,-0.898540198802948,-0.3179139494895935
1749049824.5998914,4.639791011810303,0.09225360929455562,-0.3114427924156189,-4.879872461358541,0.16513051092624664,2.4949698448181152,-0.12394455820322037,-0.08715435862541199,-0.05869251489639282,0.24116520583629608,-0.25117045640945435,-0.26853805780410767,-0.3896736204624176,-2.2489800453186035,-1.0365883111953735,0.8188843727111816,-0.8807708024978638,-0.2461947649717331
1749049824.5999284,4.639577388763428,0.09208921968426509,-0.3116365671157837,-4.879352470437521,0.1645868569612503,2.494497060775757,-0.12621086835861206,-0.085226871073246,-0.059269875288009644,0.24158932268619537,-0.25583451986312866,-0.26647672057151794,-0.42739683389663696,-2.28952956199646,-1.0244261026382446,0.8224612474441528,-0.8798823952674866,-0.26211556792259216
1749049824.5999658,4.639360427856445,0.09187488138165278,-0.3117137849330902,-4.878882785836691,0.1640433371067047,2.4939067363739014,-0.12327147275209427,-0.08597948402166367,-0.059818334877491,0.25048911571502686,-0.26137682795524597,-0.26691538095474243,-0.4273322820663452,-2.285853147506714,-1.039501428604126,0.804265022277832,-0.8677473664283752,-0.2477685809135437
1749049824.6000834,4.639042854309082,0.09172610818829341,-0.3118182122707367,-4.8783601723113,0.16351115703582764,2.493403434753418,-0.12499363720417023,-0.08535856008529663,-0.060287777334451675,0.2524355947971344,-0.2668059766292572,-0.2644326686859131,-0.44336172938346863,-2.3128814697265625,-1.030311107635498,0.8028756380081177,-0.8333449363708496,-0.2939380705356598
1749049824.6013904,4.638752460479736,0.09158103048291011,-0.3119625747203827,-4.877842565576071,0.16297784447669983,2.492910385131836,-0.1272369772195816,-0.09044123440980911,-0.06176542490720749,0.25636595487594604,-0.2664741277694702,-0.2641763985157013,-0.4105989634990692,-2.238312244415283,-1.0228912830352783,0.771706759929657,-0.8268710374832153,-0.3234310448169708
1749049824.6422815,4.63855504989624,0.09137861310925288,-0.31206732988357544,-4.877293726006979,0.16241544485092163,2.492367744445801,-0.1242905780673027,-0.0869477242231369,-0.06180894374847412,0.2595950663089752,-0.264320433139801,-0.2687867283821106,-0.4292295277118683,-2.2843565940856934,-1.0119248628616333,0.7420845031738281,-0.851254940032959,-0.3255714178085327
1749049824.6423285,4.638035774230957,0.09105746328320308,-0.31232962012290955,-4.876254697839254,0.1612963229417801,2.4912493228912354,-0.12701639533042908,-0.09134005755186081,-0.06345675140619278,0.26006537675857544,-0.27097731828689575,-0.2748050093650818,-0.43437469005584717,-2.270404577255249,-1.0338579416275024,0.7455267906188965,-0.891455888748169,-0.28707385063171387
1749049824.6423697,4.638035774230957,0.09105746328320308,-0.31232962012290955,-4.876254697839254,0.1612963229417801,2.4912493228912354,-0.12701639533042908,-0.09134005755186081,-0.06345675140619278,0.26006537675857544,-0.27097731828689575,-0.2748050093650818,-0.43437469005584717,-2.270404577255249,-1.0338579416275024,0.7455267906188965,-0.891455888748169,-0.28707385063171387
1749049824.64241,4.6377716064453125,0.09085838376965327,-0.3124433159828186,-4.875709434548849,0.16075891256332397,2.4906582832336426,-0.13147734105587006,-0.09411980211734772,-0.06122767925262451,0.264186829328537,-0.2814731299877167,-0.2765752673149109,-0.40408122539520264,-2.2101974487304688,-1.0296636819839478,0.7178866863250732,-0.7960764169692993,-0.26383161544799805
1749049824.6424477,4.637243747711182,0.09048704683270259,-0.312652587890625,-4.874629398385519,0.15967369079589844,2.4896140098571777,-0.12908314168453217,-0.0946282297372818,-0.061922721564769745,0.2634347081184387,-0.2808251976966858,-0.27446943521499634,-0.37922388315200806,-2.202805995941162,-1.0492565631866455,0.7113287448883057,-0.771834135055542,-0.32538825273513794
1749049824.642486,4.637243747711182,0.09048704683270259,-0.312652587890625,-4.874629398385519,0.15967369079589844,2.4896140098571777,-0.12908314168453217,-0.0946282297372818,-0.061922721564769745,0.2634347081184387,-0.2808251976966858,-0.27446943521499634,-0.37922388315200806,-2.202805995941162,-1.0492565631866455,0.7113287448883057,-0.771834135055542,-0.32538825273513794
1749049824.6425257,4.636945724487305,0.09025375425305171,-0.3127759099006653,-4.874064823190206,0.15914566814899445,2.4890434741973877,-0.1307334154844284,-0.09469696134328842,-0.06197918578982353,0.2642870545387268,-0.27886962890625,-0.2784031927585602,-0.4089997112751007,-2.227769613265991,-1.0419495105743408,0.7132650017738342,-0.8122736811637878,-0.3409780263900757
1749049824.6425643,4.636713027954102,0.09006564199414058,-0.3129306137561798,-4.873550554315084,0.15855351090431213,2.48846435546875,-0.13184711337089539,-0.09599997848272324,-0.06041061133146286,0.26507240533828735,-0.2695271670818329,-0.28436189889907837,-0.3989194631576538,-2.154819965362549,-1.0810571908950806,0.6870059370994568,-0.8719315528869629,-0.30703386664390564
1749049824.642606,4.636445045471191,0.08992759763684077,-0.31304731965065,-4.873040338555807,0.1579868346452713,2.4878900051116943,-0.13129042088985443,-0.092910036444664,-0.06240911781787872,0.2649141848087311,-0.27137455344200134,-0.28854501247406006,-0.4066162109375,-2.2614076137542725,-1.07171630859375,0.720038890838623,-0.8779764771461487,-0.28129708766937256
1749049824.6426456,4.635925769805908,0.08955602228131099,-0.31330791115760803,-4.871990104714865,0.15686556696891785,2.4867589473724365,-0.13091079890727997,-0.09436426311731339,-0.06506767123937607,0.2691427767276764,-0.28548264503479004,-0.2877686023712158,-0.4493350684642792,-2.2547380924224854,-1.0686914920806885,0.7471457123756409,-0.854047954082489,-0.2886894941329956
1749049824.6426835,4.635925769805908,0.08955602228131099,-0.31330791115760803,-4.871990104714865,0.15686556696891785,2.4867589473724365,-0.13091079890727997,-0.09436426311731339,-0.06506767123937607,0.2691427767276764,-0.28548264503479004,-0.2877686023712158,-0.4493350684642792,-2.2547380924224854,-1.0686914920806885,0.7471457123756409,-0.854047954082489,-0.2886894941329956
1749049824.6427217,4.635662078857422,0.08934168397869868,-0.31347137689590454,-4.871472021142477,0.15636809170246124,2.4861676692962646,-0.13518649339675903,-0.09633434563875198,-0.06688407808542252,0.2700604796409607,-0.2891274392604828,-0.2897847294807434,-0.3750265836715698,-2.257814884185791,-1.056201696395874,0.7584430575370789,-0.8204122185707092,-0.28220778703689575
1749049824.642758,4.635385990142822,0.08911029874768062,-0.3136032819747925,-4.8709453545012416,0.1557219922542572,2.485612154006958,-0.13433632254600525,-0.09577701985836029,-0.06835737079381943,0.2737882733345032,-0.28652939200401306,-0.2894401550292969,-0.45068633556365967,-2.247314929962158,-1.0197192430496216,0.728782057762146,-0.8611695170402527,-0.3212793469429016
1749049824.6427958,4.635136604309082,0.08894948541607661,-0.31374767422676086,-4.870404144326681,0.15516984462738037,2.4850127696990967,-0.1339208334684372,-0.09666623920202255,-0.06681039929389954,0.2762846052646637,-0.282998651266098,-0.29212427139282227,-0.4290006458759308,-2.249293804168701,-1.049735426902771,0.741969883441925,-0.8811678290367126,-0.3144461512565613
1749049824.6428328,4.634815216064453,0.08875732004132075,-0.31387969851493835,-4.8698471985259,0.15463265776634216,2.4844717979431152,-0.13687272369861603,-0.0977274626493454,-0.06776350736618042,0.27583637833595276,-0.28721046447753906,-0.2924124002456665,-0.41723108291625977,-2.2453103065490723,-1.052155613899231,0.7409185767173767,-0.9125162959098816,-0.30936986207962036
1749049824.6428692,4.634554862976074,0.08856551229443355,-0.3140152394771576,-4.869262357751364,0.15394999086856842,2.4838457107543945,-0.13693644106388092,-0.09912272542715073,-0.0706019476056099,0.27681389451026917,-0.29662561416625977,-0.2942850887775421,-0.4023129343986511,-2.2086424827575684,-0.9988951086997986,0.7733280658721924,-0.9024619460105896,-0.3164260685443878
1749049824.642906,4.6342668533325195,0.08837036668743892,-0.3141322731971741,-4.868703743020529,0.15338987112045288,2.48323917388916,-0.13990916311740875,-0.10228145122528076,-0.06726053357124329,0.2833898961544037,-0.30103856325149536,-0.29665273427963257,-0.3857908248901367,-2.1964683532714844,-1.0417665243148804,0.7137759923934937,-0.8507291674613953,-0.33229774236679077
1749049824.6429427,4.633967399597168,0.08819417535748286,-0.3142727315425873,-4.868146797219747,0.15278014540672302,2.482647180557251,-0.14108909666538239,-0.10205035656690598,-0.0690169483423233,0.28692516684532166,-0.30525994300842285,-0.29669177532196045,-0.40722987055778503,-2.2183115482330322,-1.0436185598373413,0.7742519974708557,-0.8306626677513123,-0.36487311124801636
1749049824.642979,4.633692264556885,0.08798687040295405,-0.31440481543540955,-4.867545743981832,0.15217263996601105,2.482048511505127,-0.14108125865459442,-0.10479951649904251,-0.07075522840023041,0.28869137167930603,-0.30639898777008057,-0.30221375823020935,-0.37711986899375916,-2.173914909362793,-1.0173261165618896,0.7204441428184509,-0.8183860182762146,-0.3303895592689514
1749049824.6430154,4.633409023284912,0.08778647958721919,-0.31456297636032104,-4.86693610767507,0.151583731174469,2.4814250469207764,-0.14196081459522247,-0.10333307832479477,-0.06941553950309753,0.29015833139419556,-0.29969897866249084,-0.3065893352031708,-0.3697912096977234,-2.169459104537964,-1.037428855895996,0.7011216878890991,-0.8227868676185608,-0.32762569189071655
1749049824.6434977,4.632875442504883,0.0873756843754272,-0.314820259809494,-4.865837951699728,0.15034884214401245,2.480199098587036,-0.13827116787433624,-0.10210626572370529,-0.06852797418832779,0.2925049066543579,-0.3021097779273987,-0.3084278404712677,-0.4637598693370819,-2.2055633068084717,-1.0640637874603271,0.6961024403572083,-0.8861116766929626,-0.30509841442108154
1749049824.645594,4.632875442504883,0.0873756843754272,-0.314820259809494,-4.865837951699728,0.15034884214401245,2.480199098587036,-0.13827116787433624,-0.10210626572370529,-0.06852797418832779,0.2925049066543579,-0.3021097779273987,-0.3084278404712677,-0.4637598693370819,-2.2055633068084717,-1.0640637874603271,0.6961024403572083,-0.8861116766929626,-0.30509841442108154
1749049824.6862786,4.632254123687744,0.08699981748547359,-0.31511709094047546,-4.86461128811025,0.14916279911994934,2.4789137840270996,-0.1443328708410263,-0.10355576127767563,-0.07168053090572357,0.29273051023483276,-0.31113386154174805,-0.30616137385368347,-0.40206974744796753,-2.221334934234619,-1.0564842224121094,0.7467317581176758,-0.8361557126045227,-0.3233208656311035
1749049824.6863236,4.632254123687744,0.08699981748547359,-0.31511709094047546,-4.86461128811025,0.14916279911994934,2.4789137840270996,-0.1443328708410263,-0.10355576127767563,-0.07168053090572357,0.29273051023483276,-0.31113386154174805,-0.30616137385368347,-0.40206974744796753,-2.221334934234619,-1.0564842224121094,0.7467317581176758,-0.8361557126045227,-0.3233208656311035
1749049824.6863644,4.632013320922852,0.08674530565228267,-0.31526845693588257,-4.864053150216574,0.14855030179023743,2.4783401489257812,-0.14405351877212524,-0.09947039932012558,-0.0715269073843956,0.29730120301246643,-0.3077818751335144,-0.30903947353363037,-0.39602524042129517,-2.2749576568603516,-1.0547696352005005,0.7353675365447998,-0.8610972762107849,-0.3342597484588623
1749049824.6864038,4.631705284118652,0.08659307538952632,-0.3154052495956421,-4.8634754619994105,0.14789937436580658,2.4777209758758545,-0.1440468430519104,-0.10061532258987427,-0.07271304726600647,0.29679787158966064,-0.30818453431129456,-0.31052353978157043,-0.46262675523757935,-2.2876992225646973,-1.0448462963104248,0.7036371231079102,-0.891581118106842,-0.32657623291015625
1749049824.6864421,4.631397724151611,0.08638493596997066,-0.3155652582645416,-4.862865587274069,0.1473499834537506,2.477102279663086,-0.14400231838226318,-0.10285543650388718,-0.07437440752983093,0.29443562030792236,-0.3132372498512268,-0.3142765164375305,-0.46347343921661377,-2.290187358856201,-1.0347728729248047,0.7747770547866821,-0.9367465376853943,-0.3294709026813507
1749049824.6864843,4.63082218170166,0.08596150457348628,-0.3158896565437317,-4.861690183679098,0.14592909812927246,2.4757637977600098,-0.14533518254756927,-0.10357493907213211,-0.07652685791254044,0.30239996314048767,-0.32768452167510986,-0.3180868625640869,-0.4106826186180115,-2.253453016281128,-0.9803192019462585,0.744995653629303,-0.8006316423416138,-0.3410385847091675
1749049824.6865232,4.63082218170166,0.08596150457348628,-0.3158896565437317,-4.861690183679098,0.14592909812927246,2.4757637977600098,-0.14533518254756927,-0.10357493907213211,-0.07652685791254044,0.30239996314048767,-0.32768452167510986,-0.3180868625640869,-0.4106826186180115,-2.253453016281128,-0.9803192019462585,0.744995653629303,-0.8006316423416138,-0.3410385847091675
1749049824.686561,4.630545139312744,0.08576159059490962,-0.3160302937030792,-4.861045499841207,0.14533038437366486,2.475132703781128,-0.14660821855068207,-0.10797382891178131,-0.07514194399118423,0.3055437207221985,-0.3267485797405243,-0.32165956497192383,-0.4392044246196747,-2.2495276927948,-0.9872497916221619,0.7603706121444702,-0.7889357805252075,-0.35085850954055786
1749049824.6865983,4.630227565765381,0.085530086154602,-0.3161860704421997,-4.860422273675436,0.14470930397510529,2.474520444869995,-0.1466686874628067,-0.10718603432178497,-0.07538007199764252,0.3062039911746979,-0.32345816493034363,-0.32312676310539246,-0.45683538913726807,-2.2436881065368652,-0.9835436940193176,0.738911509513855,-0.8242040276527405,-0.3169238567352295
1749049824.6866348,4.629923343658447,0.08532790719952388,-0.31633079051971436,-4.859777351418966,0.14404581487178802,2.4738447666168213,-0.14856579899787903,-0.10956015437841415,-0.07462871074676514,0.30887371301651,-0.32484251260757446,-0.3231569826602936,-0.42483532428741455,-2.197645664215088,-1.0154259204864502,0.7060754895210266,-0.8361918926239014,-0.3027389645576477
1749049824.686671,4.629355430603027,0.08488313734020991,-0.3166261315345764,-4.858622690240377,0.14270244538784027,2.4725542068481445,-0.15245042741298676,-0.10833591967821121,-0.07329249382019043,0.30918413400650024,-0.3327207565307617,-0.3213837444782257,-0.41232743859291077,-2.23954439163208,-1.0128757953643799,0.7763654589653015,-0.804955780506134,-0.3383393883705139
1749049824.6867077,4.629355430603027,0.08488313734020991,-0.3166261315345764,-4.858622690240377,0.14270244538784027,2.4725542068481445,-0.15245042741298676,-0.10833591967821121,-0.07329249382019043,0.30918413400650024,-0.3327207565307617,-0.3213837444782257,-0.41232743859291077,-2.23954439163208,-1.0128757953643799,0.7763654589653015,-0.804955780506134,-0.3383393883705139
1749049824.6867447,4.629008769989014,0.08472590028729243,-0.31679752469062805,-4.857978483239645,0.14208032190799713,2.471888780593872,-0.14982344210147858,-0.10838179290294647,-0.07448947429656982,0.3089776337146759,-0.33237382769584656,-0.3241037130355835,-0.46793875098228455,-2.274017333984375,-1.0349953174591064,0.7734067440032959,-0.7914667129516602,-0.3407362401485443
1749049824.6867812,4.628421306610107,0.08423916875805659,-0.31707528233528137,-4.856753965417379,0.1407335251569748,2.470597505569458,-0.15364570915699005,-0.10806906968355179,-0.07673288881778717,0.31477952003479004,-0.32598426938056946,-0.33163994550704956,-0.4288632869720459,-2.2793502807617188,-0.9925788640975952,0.7517984509468079,-0.8775099515914917,-0.3564876914024353
1749049824.6868176,4.628421306610107,0.08423916875805659,-0.31707528233528137,-4.856753965417379,0.1407335251569748,2.470597505569458,-0.15364570915699005,-0.10806906968355179,-0.07673288881778717,0.31477952003479004,-0.32598426938056946,-0.33163994550704956,-0.4288632869720459,-2.2793502807617188,-0.9925788640975952,0.7517984509468079,-0.8775099515914917,-0.3564876914024353
1749049824.6868541,4.628073692321777,0.08403901636090083,-0.31720760464668274,-4.8561159572997035,0.1400846540927887,2.4699645042419434,-0.15351484715938568,-0.10821454226970673,-0.07726806402206421,0.3137899935245514,-0.333181768655777,-0.33274930715560913,-0.44441235065460205,-2.286585807800293,-0.9999906420707703,0.7692580223083496,-0.8456636667251587,-0.3441809415817261
1749049824.68689,4.627782344818115,0.08378843843426509,-0.3173687756061554,-4.855463167230123,0.1394796520471573,2.4692869186401367,-0.1536155343055725,-0.10830748826265335,-0.07819651067256927,0.31430360674858093,-0.33915263414382935,-0.33536770939826965,-0.46768397092819214,-2.2878239154815674,-0.9800795912742615,0.790749192237854,-0.818567156791687,-0.3425264060497284
1749049824.6869266,4.627480983734131,0.08360390245404048,-0.317531943321228,-4.8548201523222865,0.1387481689453125,2.4685683250427246,-0.15677480399608612,-0.11007926613092422,-0.07974441349506378,0.3212618827819824,-0.34176525473594666,-0.3402569591999054,-0.6174535751342773,-2.409982681274414,-1.02241051197052,0.8652092218399048,-0.8473677635192871,-0.37273916602134705
1749049824.686963,4.6268696784973145,0.08316878854718013,-0.31787896156311035,-4.853513141671652,0.13735614717006683,2.4671690464019775,-0.15969978272914886,-0.11291783303022385,-0.08078387379646301,0.3305806815624237,-0.33976632356643677,-0.34931886196136475,-0.4494530260562897,-2.248610258102417,-0.9477725625038147,0.7424408197402954,-0.8771318197250366,-0.30875664949417114
1749049824.6869996,4.6268696784973145,0.08316878854718013,-0.31787896156311035,-4.853513141671652,0.13735614717006683,2.4671690464019775,-0.15969978272914886,-0.11291783303022385,-0.08078387379646301,0.3305806815624237,-0.33976632356643677,-0.34931886196136475,-0.4494530260562897,-2.248610258102417,-0.9477725625038147,0.7424408197402954,-0.8771318197250366,-0.30875664949417114
1749049824.6873596,4.626519203186035,0.08292405187573237,-0.3180001974105835,-4.852866550485128,0.13667874038219452,2.4665069580078125,-0.1598188728094101,-0.11530951410531998,-0.07622602581977844,0.33136436343193054,-0.3426864445209503,-0.3478112518787384,-0.4381946325302124,-2.301017999649048,-1.0030454397201538,0.7585557699203491,-0.8733580708503723,-0.30560633540153503
1749049824.6894248,4.626210689544678,0.08267955362286372,-0.31816375255584717,-4.852251430551046,0.13599857687950134,2.465799331665039,-0.1591152846813202,-0.11423242837190628,-0.0781821608543396,0.33248433470726013,-0.3478318154811859,-0.3469912111759186,-0.44115880131721497,-2.2353076934814453,-1.0188803672790527,0.7392517924308777,-0.8166903853416443,-0.3063567578792572
1749049824.730286,4.625875473022461,0.08247022211041255,-0.3183005452156067,-4.851574083367819,0.1352861523628235,2.4650542736053467,-0.15973225235939026,-0.11508294939994812,-0.07591460645198822,0.3316713869571686,-0.34741857647895813,-0.34826135635375977,-0.42762893438339233,-2.207430839538574,-1.0135257244110107,0.7847824096679688,-0.808408260345459,-0.3224428594112396
1749049824.7303307,4.625256061553955,0.08196215211834712,-0.31863221526145935,-4.850177665750021,0.13386692106723785,2.4636754989624023,-0.15736699104309082,-0.11366936564445496,-0.07748258858919144,0.3350048363208771,-0.3420809507369995,-0.35384929180145264,-0.538059651851654,-2.3149871826171875,-1.0303635597229004,0.7907007336616516,-0.8921710848808289,-0.3441515266895294
1749049824.7303698,4.625256061553955,0.08196215211834712,-0.31863221526145935,-4.850177665750021,0.13386692106723785,2.4636754989624023,-0.15736699104309082,-0.11366936564445496,-0.07748258858919144,0.3350048363208771,-0.3420809507369995,-0.35384929180145264,-0.538059651851654,-2.3149871826171875,-1.0303635597229004,0.7907007336616516,-0.8921710848808289,-0.3441515266895294
1749049824.7304084,4.624954700469971,0.08174674093212886,-0.318758487701416,-4.849511047402853,0.133174329996109,2.463038444519043,-0.16064219176769257,-0.11258066445589066,-0.08013050258159637,0.336993008852005,-0.3474505543708801,-0.3548264801502228,-0.4949288070201874,-2.34079647064209,-1.0366249084472656,0.7547139525413513,-0.8828843832015991,-0.3070123791694641
1749049824.730446,4.6242170333862305,0.08130149423565669,-0.3191365897655487,-4.84816636661672,0.13174797594547272,2.461601972579956,-0.16452229022979736,-0.1135319247841835,-0.08060343563556671,0.33509302139282227,-0.3543177545070648,-0.35935235023498535,-0.4470634460449219,-2.312467098236084,-1.0116333961486816,0.8003727197647095,-0.8406661748886108,-0.3281623125076294
1749049824.730483,4.6242170333862305,0.08130149423565669,-0.3191365897655487,-4.84816636661672,0.13174797594547272,2.461601972579956,-0.16452229022979736,-0.1135319247841835,-0.08060343563556671,0.33509302139282227,-0.3543177545070648,-0.35935235023498535,-0.4470634460449219,-2.312467098236084,-1.0116333961486816,0.8003727197647095,-0.8406661748886108,-0.3281623125076294
1749049824.730522,4.623582363128662,0.08085577070202632,-0.3194660544395447,-4.846764226953024,0.13027741014957428,2.460106611251831,-0.1675843596458435,-0.11669265478849411,-0.08212446421384811,0.34384211897850037,-0.3478648066520691,-0.36622849106788635,-0.4228664040565491,-2.303966522216797,-1.0137076377868652,0.747008204460144,-0.9431195259094238,-0.28211259841918945
1749049824.7305586,4.623582363128662,0.08085577070202632,-0.3194660544395447,-4.846764226953024,0.13027741014957428,2.460106611251831,-0.1675843596458435,-0.11669265478849411,-0.08212446421384811,0.34384211897850037,-0.3478648066520691,-0.36622849106788635,-0.4228664040565491,-2.303966522216797,-1.0137076377868652,0.747008204460144,-0.9431195259094238,-0.28211259841918945
1749049824.730595,4.62327241897583,0.08058242380108638,-0.31961026787757874,-4.846057792703146,0.1295962780714035,2.4593961238861084,-0.16811715066432953,-0.11824671924114227,-0.08166730403900146,0.34422391653060913,-0.3537876009941101,-0.3648444414138794,-0.4040925204753876,-2.3225739002227783,-1.0104237794876099,0.7356523275375366,-0.9182122349739075,-0.27903860807418823
1749049824.7306316,4.62260103225708,0.08008389055218501,-0.3199464976787567,-4.844708105126852,0.12813928723335266,2.4579150676727295,-0.16839611530303955,-0.12206608057022095,-0.08052182197570801,0.3420379161834717,-0.36585938930511475,-0.3599694073200226,-0.4699249267578125,-2.2641561031341553,-1.0450284481048584,0.767938494682312,-0.8314758539199829,-0.31200093030929565
1749049824.7306685,4.62260103225708,0.08008389055218501,-0.3199464976787567,-4.844708105126852,0.12813928723335266,2.4579150676727295,-0.16839611530303955,-0.12206608057022095,-0.08052182197570801,0.3420379161834717,-0.36585938930511475,-0.3599694073200226,-0.4699249267578125,-2.2641561031341553,-1.0450284481048584,0.767938494682312,-0.8314758539199829,-0.31200093030929565
1749049824.7307055,4.622215270996094,0.07984702169384761,-0.32012665271759033,-4.844033857385153,0.12743109464645386,2.4571762084960938,-0.1687985062599182,-0.12306180596351624,-0.08192101866006851,0.34480032324790955,-0.3664209842681885,-0.36254778504371643,-0.4581259787082672,-2.2577779293060303,-1.0374623537063599,0.7788177728652954,-0.837988018989563,-0.3347208499908447
1749049824.7307417,4.621926307678223,0.07957713186230464,-0.3202899694442749,-4.843276401559347,0.12667863070964813,2.456495523452759,-0.17017510533332825,-0.12315835058689117,-0.08296701312065125,0.34826743602752686,-0.363068163394928,-0.36642560362815857,-0.4408251941204071,-2.2834084033966064,-1.0411726236343384,0.7688771486282349,-0.882017970085144,-0.3267820179462433
1749049824.7307782,4.6215596199035645,0.07932893812145991,-0.32048550248146057,-4.842585941354269,0.12591153383255005,2.4557759761810303,-0.17275360226631165,-0.12260419875383377,-0.08339538425207138,0.3507314622402191,-0.36547330021858215,-0.36741822957992554,-0.44833803176879883,-2.2706594467163086,-1.0376683473587036,0.7375263571739197,-0.8658264875411987,-0.34263116121292114
