nimar13/UR3e_dataset_trayectorias/trayectorias_ejecutadas/trapezoidal/trayectoria_239_result.csv
timestamp,q1,q2,q3,q4,q5,q6,qd1,qd2,qd3,qd4,qd5,qd6,tau1,tau2,tau3,tau4,tau5,tau6
1749053028.120215,-2.637385431920187,0.3176826673695068,-2.570007801055908,4.208416147822998,-1.3985560576068323,-0.5684235731707972,-0.010388980619609356,0.003531248774379492,-0.014981313608586788,0.016930339857935905,-0.010062257759273052,-0.0006223955424502492,-0.24219653010368347,-0.44058114290237427,0.5718496441841125,0.4213549494743347,-0.3386076092720032,-0.1370188593864441
1749053028.1202717,-2.6374407450305384,0.31772081434216304,-2.570035219192505,4.208445234889648,-1.3985760847674769,-0.5684030691729944,-0.008155029267072678,0.0023752308916300535,-0.013186680153012276,0.015688518062233925,-0.009152906946837902,-0.0005460820393636823,-0.20090419054031372,-0.44680994749069214,0.5707157254219055,0.3937288522720337,-0.3087245225906372,-0.1263251155614853
1749053028.1203141,-2.6374059359179896,0.31771008550610347,-2.5700433254241943,4.208488150233887,-1.3985608259784144,-0.568399731312887,-0.0050352043472230434,0.0015860629500821233,-0.011668689548969269,0.014804386533796787,-0.007035922259092331,-0.000486621429445222,-0.17583157122135162,-0.4607384204864502,0.5673573613166809,0.3753945231437683,-0.28864508867263794,-0.14444050192832947
1749053028.1203527,-2.6374765078174036,0.3177172380634765,-2.570098876953125,4.208508177394531,-1.3985536734210413,-0.5684426466571253,-0.00333884684368968,0.0012736639473587275,-0.009077641181647778,0.013609519228339195,-0.004359536338597536,-0.000438937044236809,-0.1789582222700119,-0.4747118353843689,0.5645061135292053,0.3637067675590515,-0.28215137124061584,-0.13681292533874512
1749053028.1203985,-2.6374803225146692,0.31766705095257564,-2.5700833797454834,4.208528681392334,-1.3985760847674769,-0.568453613911764,-0.0013303873129189014,0.0002338879567105323,-0.007157518528401852,0.011912915855646133,-0.0025856024585664272,-0.00039979550638236105,-0.1499168425798416,-0.5027650594711304,0.6032389998435974,0.3222605288028717,-0.27645760774612427,-0.11405262351036072
1749053028.1204424,-2.637461010609762,0.3176826673695068,-2.5700833797454834,4.208524866695068,-1.3985918203936976,-0.5684464613543909,-0.000304972316371277,5.652569143421715e-06,-0.00460352236405015,0.008389966562390327,-0.0017425165278837085,-0.0003670747682917863,-0.16160257160663605,-0.48820972442626953,0.6097164750099182,0.3126433789730072,-0.2598269283771515,-0.12657040357589722
1749053028.1204846,-2.6374335924731653,0.31768981992687984,-2.570079803466797,4.208552523250244,-1.398557488118307,-0.5684464613543909,-0.0002184301702072844,5.514988998811532e-08,-0.0019946228712797165,0.005272508133202791,-0.0013041087659075856,-0.00033933285158127546,-0.1709146350622177,-0.5046573877334595,0.6178099513053894,0.3010268807411194,-0.2389312982559204,-0.1440000981092453
1749053028.1205232,-2.6374335924731653,0.31768981992687984,-2.570079803466797,4.208552523250244,-1.398557488118307,-0.5684464613543909,-0.0002184301702072844,5.514988998811532e-08,-0.0019946228712797165,0.005272508133202791,-0.0013041087659075856,-0.00033933285158127546,-0.1709146350622177,-0.5046573877334595,0.6178099513053894,0.3010268807411194,-0.2389312982559204,-0.1440000981092453
1749053028.1205606,-2.637414042149679,0.3176981645771484,-2.570098876953125,4.2085558611103515,-1.3985608259784144,-0.5684307257281702,-1.8756065855995985e-07,-0.002846086397767067,-4.713725866167806e-05,0.000451987492851913,-0.0007930764113552868,-0.0002947842876892537,-0.09591616690158844,-0.4895978569984436,0.6380193829536438,0.29366248846054077,-0.2250763177871704,-0.10915866494178772
1749053028.1205974,-2.637428585683004,0.31763915597882075,-2.57008695602417,4.208528681392334,-1.3985536734210413,-0.5684464613543909,-1.829955520449289e-09,-0.002824146766215563,-3.077725978073431e-06,-0.0012374217621982098,-0.0006361596169881523,-0.00027663883520290256,-0.11554432660341263,-0.5044663548469543,0.6410461068153381,0.2797940969467163,-0.20511317253112793,-0.1305103898048401
1749053028.1206338,-2.637437168751852,0.31768981992687984,-2.570075035095215,4.208528681392334,-1.3985608259784144,-0.5683839956866663,0.0025032954290509224,-0.002201088471338153,-2.009535222669001e-07,-0.00328285014256835,-0.0005498095997609198,-0.00026059726951643825,-0.11110672354698181,-0.5347739458084106,0.6819393038749695,0.26593145728111267,-0.1830320656299591,-0.13076812028884888
1749053028.1206698,-2.637421433125631,0.3176427322575073,-2.5700595378875732,4.208528681392334,-1.398588005696432,-0.5684464613543909,0.002504256321117282,-0.0018620517803356051,-1.3120828867840828e-08,-0.004315605852752924,-0.00041970296297222376,-0.0002463124692440033,-0.07888681441545486,-0.5549793839454651,0.7040736079216003,0.25786757469177246,-0.18197345733642578,-0.13377532362937927
1749053028.1207068,-2.6374250094043177,0.31766192495312495,-2.5700714588165283,4.208470030421875,-1.398588005696432,-0.5684307257281702,0.002125720027834177,-0.001374960644170642,0.0026492546312510967,-0.0046890731900930405,-0.00030809768941253424,-0.00023352133575826883,-0.10828319936990738,-0.5547347664833069,0.6884257793426514,0.2774428427219391,-0.18228986859321594,-0.12774111330509186
1749053028.120744,-2.6374407450305384,0.3176935154148559,-2.5700833797454834,4.20848195135083,-1.3985760847674769,-0.5684426466571253,0.0017585388850420713,-0.0015070230001583695,0.0031904547940939665,-0.004536945838481188,-0.00024917401606217027,-0.00022199061641003937,-0.046575095504522324,-0.5749480128288269,0.6760836839675903,0.2628704905509949,-0.1498430073261261,-0.13587331771850586
1749053028.1207807,-2.6374056974994105,0.3176427322575073,-2.570106267929077,4.208477182979248,-1.3985608259784144,-0.5684307257281702,0.001567969797179103,-0.0026197959668934345,0.002575742080807686,-0.004146359860897064,0.00012695832992903888,-0.00021154324349481612,-0.055198393762111664,-0.5506386756896973,0.7030828595161438,0.24158884584903717,-0.16598641872406006,-0.12633416056632996
1749053028.1208205,-2.6373937765704554,0.31766192495312495,-2.5700559616088867,4.20845810949292,-1.3985608259784144,-0.568399731312887,0.0013216232182458043,-0.003623455762863159,0.0018590516410768032,-0.0041040354408323765,0.0002806755364872515,-0.00020204047905281186,-0.023020602762699127,-0.5426621437072754,0.731665849685669,0.2442050576210022,-0.13625499606132507,-0.127282977104187
1749053028.1208584,-2.6374130884753626,0.3176380830952148,-2.5700523853302,4.208446188563965,-1.3985608259784144,-0.5684078375445765,0.002144705271348357,-0.0032556066289544106,0.0016001248732209206,-0.0044867293909192085,0.0009914886904880404,-0.00019335374236106873,-0.061390239745378494,-0.5464704036712646,0.7316002249717712,0.2327883392572403,-0.13553442060947418,-0.12916390597820282
1749053028.1208947,-2.6373818556415003,0.3176225858875732,-2.5700488090515137,4.208472414607666,-1.3985760847674769,-0.5684354940997522,0.0038011325523257256,-0.0026150327175855637,0.0019247608724981546,-0.004904845263808966,0.0014518339885398746,-0.00018538125732447952,-0.05040580406785011,-0.5737655162811279,0.7488328218460083,0.23578514158725739,-0.13637562096118927,-0.14537116885185242
1749053028.1209314,-2.6373780409442347,0.3176535803028564,-2.5700595378875732,4.208445234889648,-1.39858323732485,-0.5684660116778772,0.0036318772472441196,-0.0020802433136850595,0.0022377159912139177,-0.004967283923178911,0.001423302455805242,-0.00019033609714824706,-0.06337013840675354,-0.5622653961181641,0.7413430213928223,0.22265425324440002,-0.14409193396568298,-0.1145939975976944
1749053028.1209674,-2.6373470465289515,0.3176571565815429,-2.5700433254241943,4.2084361749836425,-1.3985336462603968,-0.5684426466571253,0.0033114422112703323,-0.0018841237761080265,0.003228006651625037,-0.004784856922924519,0.001316906651481986,-0.00020139760454185307,-0.058455388993024826,-0.5801400542259216,0.7338628172874451,0.2177852988243103,-0.13025036454200745,-0.12063291668891907
1749053028.121161,-2.6373890081988733,0.3176380830952148,-2.570094347000122,4.208417578334473,-1.3985369841205042,-0.5684388319598597,0.002800761489197612,-0.0019906999077647924,0.0033213046845048666,-0.004562866874039173,0.0013256301172077656,-0.00024305848637595773,-0.03425144404172897,-0.5661818981170654,0.7360314726829529,0.22243669629096985,-0.1514645516872406,-0.13618454337120056
1749053028.1214464,-2.6373890081988733,0.31762973844494624,-2.570039749145508,4.208408518428467,-1.3985489050494593,-0.5684149901019495,0.002361235674470663,-0.002474693115800619,0.002628989750519395,-0.004182524047791958,0.0012996551813557744,-0.00023400585632771254,-0.06033189967274666,-0.5367155075073242,0.7382586598396301,0.22350725531578064,-0.11664535105228424,-0.14314289391040802
1749053028.1663036,-2.6373687426196497,0.3175951677509765,-2.5700523853302,4.2084008890339355,-1.3985713163958948,-0.5684269110309046,0.00246640807017684,-0.002301112748682499,0.002124588703736663,-0.004276873543858528,0.001163764507509768,-0.00025591952726244926,-0.06325094401836395,-0.5477756261825562,0.7607168555259705,0.24394865334033966,-0.1234830692410469,-0.13095560669898987
1749053028.1663504,-2.6373963991748255,0.3176380830952148,-2.5700595378875732,4.2083937364765625,-1.3985593954669397,-0.5684550444232386,0.0023290319368243217,-0.001836108393035829,0.0018847387982532382,-0.004195576999336481,0.0010124313412234187,-0.0012191935675218701,-0.048030588775873184,-0.5682194232940674,0.7633084654808044,0.23489442467689514,-0.12394800037145615,-0.1399669349193573
1749053028.166392,-2.6373615900622767,0.31764523565258784,-2.570063352584839,4.208385153407715,-1.3985760847674769,-0.568451229725973,0.0019219894893467426,-0.001329281134530902,0.001535210874862969,-0.003997682128101587,0.0008889390155673027,-0.001680715591646731,-0.045534275472164154,-0.5474992990493774,0.7666265368461609,0.25181835889816284,-0.11696618795394897,-0.12164090573787689
1749053028.1664307,-2.6373963991748255,0.3176523882099609,-2.57004714012146,4.208397551173828,-1.3985560576068323,-0.5684588591205042,0.0016187496948987246,-0.001025609439238906,0.0015448166523128748,-0.0035885428078472614,0.0007911084103398025,-0.0016212944174185395,-0.048805031925439835,-0.5728956460952759,0.7779436707496643,0.2533400356769562,-0.11479262262582779,-0.13038267195224762
1749053028.1664684,-2.637357775365011,0.3175951677509765,-2.5700669288635254,4.2083656030842285,-1.3985455671893519,-0.568451229725973,0.0013668704777956009,-0.0008348703267984092,0.0017318765167146921,-0.003107450669631362,0.0007125216070562601,-0.0013625688152387738,-0.04341430589556694,-0.5706970691680908,0.7745366096496582,0.23835453391075134,-0.11596758663654327,-0.14143504202365875
1749053028.1665075,-2.637411896382467,0.3176106649586181,-2.570035219192505,4.2083775240131835,-1.3985608259784144,-0.5684354940997522,0.001149103045463562,-0.0007040578639134765,0.0018376460066065192,-0.0025092759169638157,0.0006481472519226372,-0.00108424318023026,-0.029901817440986633,-0.5708309412002563,0.7722336649894714,0.24890287220478058,-0.1371697038412094,-0.13111917674541473
1749053028.1665454,-2.637365166340963,0.31759874402966304,-2.570007801055908,4.2083775240131835,-1.3985369841205042,-0.5684354940997522,0.0009908174397423863,-0.0006087290239520371,0.00216672127135098,-0.002131237182766199,0.0005944694275967777,-0.0009342520497739315,-0.021597545593976974,-0.5584823489189148,0.7660840153694153,0.23846685886383057,-0.12217211723327637,-0.14417995512485504
1749053028.166583,-2.637399975453512,0.3176106649586181,-2.570035219192505,4.208357496852539,-1.3985417524920862,-0.5684478918658655,0.0008708139066584408,-0.0005361679941415787,0.0023823257070034742,-0.0016519499476999044,0.0005127873155288398,-0.0008599869324825704,-0.040173374116420746,-0.56473308801651,0.769138753414154,0.22227485477924347,-0.1351747214794159,-0.1452205628156662
1749053028.1666205,-2.637326780949728,0.31761424123730464,-2.570007801055908,4.208357496852539,-1.3985608259784144,-0.5684707800494593,0.0007768629002384841,-0.0004790382517967373,0.0023485617712140083,-0.0014032394392415881,0.0004170537868048996,-0.0008943526190705597,-0.02976120263338089,-0.5728464126586914,0.7606762051582336,0.24147993326187134,-0.11550327390432358,-0.12808392941951752
1749053028.1666582,-2.63739258447756,0.31766073286022944,-2.5700268745422363,4.208353682155273,-1.3985679785357874,-0.5684827009784144,0.0007011758862063289,-0.00043293682392686605,0.0025671885814517736,-0.0011522944550961256,0.00037369164056144655,-0.0008708113455213606,-0.050709471106529236,-0.5775718688964844,0.7541764974594116,0.22594089806079865,-0.14275948703289032,-0.13102826476097107
1749053028.1666949,-2.637380663548605,0.3175951677509765,-2.569995880126953,4.2083656030842285,-1.3985298315631312,-0.5684426466571253,0.0006388906622305512,-0.0003949250967707485,0.0026473156176507473,-0.000954858202021569,0.000343547755619511,-0.0008276280714198947,-0.05076930671930313,-0.5486960411071777,0.7488048076629639,0.2406150996685028,-0.12448357045650482,-0.1442720592021942
1749053028.1667316,-2.63739258447756,0.31761424123730464,-2.5699803829193115,4.208369417781494,-1.3985641638385218,-0.5684388319598597,0.0005893455818295479,-0.0003630585561040789,0.0024250156711786985,-0.000811222882475704,0.0003188771370332688,-0.0008483986603096128,-0.02725895307958126,-0.5550519824028015,0.7529953718185425,0.2362530678510666,-0.11165475100278854,-0.14936967194080353
1749053028.1667686,-2.6373303572284144,0.31759874402966304,-2.5700149536132812,4.208385153407715,-1.3985560576068323,-0.5684588591205042,0.0003848212363664061,-0.0003359448746778071,0.0019463046919554472,-0.0007045870879665017,0.00034596273326314986,-0.0008705341606400907,-0.029602669179439545,-0.5490949153900146,0.7374894022941589,0.23455800116062164,-0.1395551562309265,-0.13381117582321167
1749053028.1668055,-2.6373687426196497,0.31761781751599116,-2.5699994564056396,4.2083775240131835,-1.3985217253314417,-0.5684827009784144,0.00035308609949424863,-0.0002700705372262746,0.0016081442590802908,-0.000622810039203614,0.00033303318195976317,-0.0012201968347653747,-0.03133239969611168,-0.5380957126617432,0.7476992011070251,0.2367432862520218,-0.13902580738067627,-0.1559036672115326
1749053028.166843,-2.6373735109912317,0.3176726537891845,-2.570003032684326,4.208385153407715,-1.3985560576068323,-0.5684788862811487,0.0003273933252785355,-0.00023402954684570432,0.0014384820824488997,-0.0005581015720963478,0.0003150741686113179,-0.001244670944288373,-0.038968972861766815,-0.5236289501190186,0.7485606074333191,0.2323727011680603,-0.14161598682403564,-0.15325315296649933
1749053028.1668806,-2.637365166340963,0.31762973844494624,-2.569983959197998,4.2084008890339355,-1.3985608259784144,-0.5684669653521937,0.0003051846579182893,-0.00021957328135613352,0.0012708454160019755,-0.0005056069348938763,0.0002979359996970743,-0.001200445112772286,-0.013575371354818344,-0.5358974933624268,0.7593266367912292,0.23503968119621277,-0.12654632329940796,-0.15506230294704437
1749053028.1669173,-2.6373422781573694,0.3176106649586181,-2.569983959197998,4.208385153407715,-1.3985298315631312,-0.5684354940997522,0.00028578718774951994,-0.00020694795239251107,0.0011394773609936237,-0.0004621992411557585,0.0002823865506798029,-0.0011054195929318666,-0.0437517873942852,-0.5337268114089966,0.7437909245491028,0.24420380592346191,-0.130185067653656,-0.1470327526330948
1749053028.1669543,-2.637380663548605,0.3176261621662597,-2.5699875354766846,4.208388491267822,-1.3985560576068323,-0.5684979597674769,0.0002687291707843542,-0.00019569587311707437,0.0009872920345515013,-0.00042566590127535164,0.0002683490456547588,-0.0010266780154779553,-0.04310934618115425,-0.5210974216461182,0.7544670701026917,0.24154897034168243,-0.14227105677127838,-0.15556347370147705
1749053028.1669908,-2.637345854436056,0.31764881193127437,-2.569983959197998,4.208397551173828,-1.3985455671893519,-0.5684478918658655,0.00025358377024531364,-0.00018560580792836845,0.0008683111518621445,-0.00039448548341169953,0.00025563593953847885,-0.0009973545093089342,-0.08595385402441025,-0.5376501083374023,0.7406582832336426,0.23028245568275452,-0.14646556973457336,-0.1264203041791916
1749053028.167028,-2.637357775365011,0.3176261621662597,-2.5699875354766846,4.2084008890339355,-1.3985713163958948,-0.5684946219073694,0.00024004693841561675,-0.00017650540394242853,0.0007747169001959264,-0.0003675884217955172,0.00024407294404227287,-0.0009812157368287444,-0.06667516380548477,-0.5172302722930908,0.7397536635398865,0.24497359991073608,-0.1192389652132988,-0.13609203696250916
1749053028.1670651,-2.63739258447756,0.31760232030834956,-2.569991111755371,4.208385153407715,-1.3985417524920862,-0.568451229725973,0.00019682150741573423,-0.00016825653437990695,0.0006992968847043812,-0.0003441261360421777,0.00023351138224825263,-0.0009327085572294891,-0.04910847172141075,-0.4985635578632355,0.7420225739479065,0.26619142293930054,-0.1392260044813156,-0.14999547600746155
1749053028.1671026,-2.6373770872699183,0.31759874402966304,-2.569991111755371,4.208369417781494,-1.3985679785357874,-0.5685136953936976,0.0001736701960908249,-0.00012096817954443395,0.0006373623618856072,-0.0003234738833270967,0.0002238264714833349,-0.0009512478718534112,-0.0428343303501606,-0.5040801763534546,0.7406572699546814,0.24359282851219177,-0.13224786520004272,-0.1521272361278534
1749053028.1673844,-2.63739258447756,0.3176106649586181,-2.5699875354766846,4.2083656030842285,-1.3985608259784144,-0.5684946219073694,9.038655844051391e-05,-0.00011540760897332802,0.0005854826886206865,-0.0003051755193155259,0.00021491345250979066,-0.0009807362221181393,-0.03916415944695473,-0.49600306153297424,0.7524710297584534,0.25395309925079346,-0.1369716078042984,-0.14233916997909546
1749053028.1693366,-2.637399975453512,0.31761424123730464,-2.5700149536132812,4.208388491267822,-1.3985608259784144,-0.5684440771685999,7.532638119300827e-05,-0.00011067245213780552,0.0005413842736743391,-0.0002888352610170841,0.00020668345678132027,-0.0009759751847013831,-0.06570929288864136,-0.5032660961151123,0.7406613230705261,0.2600272297859192,-0.1448662132024765,-0.14390906691551208
1749053028.214305,-2.6373770872699183,0.3176106649586181,-2.5699994564056396,4.208357496852539,-1.3985336462603968,-0.5684869925128382,7.134899533411954e-06,1.9271099517936818e-05,0.0005035214708186686,-0.0002741518255788833,0.00019906068337149918,-0.0010631305631250143,-0.04933411628007889,-0.4867607057094574,0.7459755539894104,0.2486572116613388,-0.15715710818767548,-0.14629019796848297
1749053028.2143564,-2.6373146216021937,0.31758801519360347,-2.5700113773345947,4.208376570338867,-1.3985455671893519,-0.5685098806964319,6.961241183489619e-08,7.396612636512145e-05,0.00047059328062459826,-0.00026089834864251316,0.0001919806090882048,-0.0011171484366059303,-0.02578815445303917,-0.4824766218662262,0.7462866902351379,0.26516252756118774,-0.14985628426074982,-0.12697714567184448
1749053028.214398,-2.6373303572284144,0.31762973844494624,-2.569983959197998,4.208353682155273,-1.3985679785357874,-0.5684836546527308,6.791809337158838e-10,9.59953831625171e-05,0.00044168802560307086,-0.00024886580649763346,0.00018538693257141858,-0.0009657606133259833,-0.0602957122027874,-0.4741855561733246,0.7590555548667908,0.24187499284744263,-0.14586523175239563,-0.16313262283802032
1749053028.2144377,-2.6373496691333216,0.31763331472363276,-2.569995880126953,4.208369417781494,-1.3985441366778772,-0.5684645811664026,6.626500563544635e-12,0.0001031436986522749,0.00032718369038775563,-0.00023789069382473826,0.00017923163250088692,-0.0009007354383356869,-0.04414965957403183,-0.47359660267829895,0.7598804831504822,0.27008020877838135,-0.148994579911232,-0.1363178938627243
1749053028.2144766,-2.637380663548605,0.3176225858875732,-2.569995880126953,4.208388491267822,-1.3985679785357874,-0.5684869925128382,6.465216139143679e-14,0.0001292633096454665,0.00027961298474110663,-0.00022784978500567377,0.00017347175162285566,-0.0008250240352936089,-0.061336033046245575,-0.47945526242256165,0.7857653498649597,0.2536699175834656,-0.18113891780376434,-0.12894724309444427
1749053028.214515,-2.637353245412008,0.31764523565258784,-2.570030450820923,4.2083656030842285,-1.3985522429095667,-0.5685222784625452,6.307857534576327e-16,0.0001496923650847748,0.0003356818633619696,-0.00021862005814909935,0.0001680710120126605,-0.0007358522270806134,-0.0757179856300354,-0.46286049485206604,0.7978812456130981,0.2755228281021118,-0.18658384680747986,-0.13454627990722656
1749053028.214553,-2.6373615900622767,0.3176345068165283,-2.569983959197998,4.208357496852539,-1.3985298315631312,-0.5685027281390589,6.1543279821517076e-18,0.00015427965263370425,0.0009562036721035838,-0.00021010581986047328,0.00016299629351124167,-0.0006597790634259582,-0.10977056622505188,-0.46285489201545715,0.8184911608695984,0.2676827311515808,-0.20490363240242004,-0.11178544163703918
1749053028.2145908,-2.637399975453512,0.3176106649586181,-2.570003032684326,4.208338423366211,-1.398517910634176,-0.5684979597674769,6.004535732030252e-20,0.0005758224288001657,0.0031542996875941753,-0.00020223591127432883,0.00013664955622516572,-0.0004813345440197736,-0.09562426805496216,-0.4824284613132477,0.8277736306190491,0.25968024134635925,-0.21177628636360168,-0.13304972648620605
1749053028.2146285,-2.63739258447756,0.3176106649586181,-2.5699803829193115,4.208353682155273,-1.3985336462603968,-0.5684750715838831,5.858389053468632e-22,0.0005500439438037574,0.0055917431600391865,-0.0001949325087480247,0.00012894341489300132,-0.0002613350807223469,-0.08631390333175659,-0.49343350529670715,0.8197892308235168,0.27590951323509216,-0.23201265931129456,-0.0930277556180954
1749053028.2146666,-2.6373615900622767,0.31762973844494624,-2.569972515106201,4.208350344295166,-1.398517910634176,-0.5684598127948206,5.715799368292404e-24,0.0004904987290501595,0.006957621779292822,-0.00016252069326583296,0.00010431605915073305,-0.00013461663911584765,-0.11087538301944733,-0.4714767038822174,0.8253610134124756,0.2972772717475891,-0.2736110985279083,-0.07960095256567001
1749053028.2147043,-2.6373770872699183,0.31760232030834956,-2.5699636936187744,4.208376570338867,-1.3985608259784144,-0.5684717337237757,5.576680222434508e-26,0.0004422726633492857,0.007841115817427635,-0.00015251546574290842,2.9560238544945605e-05,-2.3788172256899998e-05,-0.11353804171085358,-0.5113099813461304,0.8296302556991577,0.28811705112457275,-0.2918974459171295,-0.07016100734472275
1749053028.2147422,-2.6373422781573694,0.3175951677509765,-2.5699288845062256,4.208353682155273,-1.3985455671893519,-0.5684979597674769,5.440947574783297e-28,0.0004026786482427269,0.00903359055519104,-0.00012278565554879606,-9.24610867514275e-05,-4.2036199374706484e-06,-0.13583289086818695,-0.5248581171035767,0.8429999947547913,0.2968219518661499,-0.3057301342487335,-0.03996572643518448
1749053028.2147806,-2.63739258447756,0.31762973844494624,-2.5699243545532227,4.208369417781494,-1.3985798994647425,-0.5684550444232386,5.308518946618529e-30,0.00029646375332958996,0.010469401255249977,-9.406512981513515e-05,-0.0015935184201225638,0.0022776059340685606,-0.15568512678146362,-0.520302414894104,0.8658349514007568,0.30384165048599243,-0.3403725326061249,-0.0325712189078331
1749053028.214818,-2.637399975453512,0.3176058965870361,-2.5698931217193604,4.20837323247876,-1.3985536734210413,-0.568463150654928,5.179313333063433e-32,0.00021194243163336068,0.012105115689337254,-2.8277074761717813e-06,-0.0038023432716727257,0.004365105647593737,-0.1942155808210373,-0.554595947265625,0.8606476187705994,0.3296378254890442,-0.3591160476207733,-0.026031160727143288
1749053028.2148552,-2.6373305956469935,0.3176535803028564,-2.5698604583740234,4.208381338710449,-1.3985727469073694,-0.5684860388385218,5.053251849513313e-34,-9.854155359789729e-05,0.013528705574572086,8.654721023049206e-05,-0.0057675507850945,0.004984287545084953,-0.19774293899536133,-0.5984178781509399,0.8653924465179443,0.3348071575164795,-0.38101720809936523,-0.02941938303411007
1749053028.2148957,-2.6373496691333216,0.3176070886799316,-2.569852352142334,4.208369417781494,-1.3985846678363245,-0.5684283415423792,-0.001702102948911488,-0.00047495393664576113,0.01495631504803896,0.0008024582639336586,-0.008496890775859356,0.004851135890930891,-0.19556811451911926,-0.5872508883476257,0.8648294806480408,0.3464599847793579,-0.39289575815200806,-0.0024286527186632156
1749053028.2149332,-2.637357775365011,0.31763331472363276,-2.569840431213379,4.2084008890339355,-1.398611847554342,-0.5684669653521937,-0.0027260459028184414,-0.003085227683186531,0.015660136938095093,0.0018044521566480398,-0.01237422600388527,0.005901048891246319,-0.23172849416732788,-0.5801389217376709,0.8809657692909241,0.3488578796386719,-0.4190555512905121,0.019881315529346466
1749053028.2149713,-2.637427632008688,0.3176058965870361,-2.5698165893554688,4.208381338710449,-1.3986356894122522,-0.5684269110309046,-0.003320776391774416,-0.0040414053946733475,0.017599526792764664,0.0026595524977892637,-0.016504473984241486,0.008098638616502285,-0.2717151343822479,-0.5860114693641663,0.8745740056037903,0.3565988838672638,-0.3739405572414398,0.03128373622894287
1749053028.2150085,-2.6373844782458704,0.31755511342968745,-2.569761037826538,4.208397551173828,-1.398675266896383,-0.5684307257281702,-0.004264174494892359,-0.003566679311916232,0.01888285204768181,0.0029462494421750307,-0.018695970997214317,0.010770246386528015,-0.29640915989875793,-0.6319999098777771,0.8458409309387207,0.359762966632843,-0.377564013004303,0.03330318629741669
1749053028.2150455,-2.6374202410327356,0.3175976711460571,-2.5697526931762695,4.208397551173828,-1.398726765309469,-0.5684106985675257,-0.005636079702526331,-0.004126031883060932,0.018558848649263382,0.003853136906400323,-0.019427364692091942,0.01366678811609745,-0.30162307620048523,-0.6441813111305237,0.8586961030960083,0.37941378355026245,-0.3984667956829071,0.03225630149245262
1749053028.2150822,-2.6374130884753626,0.31758682310070796,-2.569739818572998,4.208389921779297,-1.3987615744220179,-0.5683673063861292,-0.008238495327532291,-0.006528475321829319,0.018541639670729637,0.00515169370919466,-0.02109573781490326,0.014933006837964058,-0.30178481340408325,-0.663150429725647,0.8683756589889526,0.39537686109542847,-0.38696789741516113,0.019211944192647934
1749053028.2151196,-2.6374009291278284,0.3175660806843261,-2.569697380065918,4.2084361749836425,-1.3987606207477015,-0.5683782736407679,-0.008692339062690735,-0.007998141460120678,0.018087539821863174,0.006273430306464434,-0.0203266441822052,0.0148629667237401,-0.3137138783931732,-0.6856092810630798,0.8732395172119141,0.39841341972351074,-0.3752608001232147,0.03451642394065857
1749053028.215382,-2.637409512196676,0.3175731140324096,-2.5696372985839844,4.208421869868896,-1.3988497892962855,-0.5683625380145472,-0.010163701139390469,-0.010246887803077698,0.01904640533030033,0.006906451191753149,-0.020649895071983337,0.014818460680544376,-0.3564748167991638,-0.7236835956573486,0.8888953924179077,0.4042406678199768,-0.40215814113616943,0.04709306359291077
1749053028.2173724,-2.6374645868884485,0.31747715055432124,-2.5695817470550537,4.208453341121338,-1.3988388220416468,-0.5683158079730433,-0.012529588304460049,-0.011715124361217022,0.020152049139142036,0.007992076687514782,-0.022620918229222298,0.015880785882472992,-0.3466341495513916,-0.7238793969154358,0.8661614656448364,0.4028441607952118,-0.3885800242424011,0.0677812248468399
1749053028.2583008,-2.6374455134021204,0.3174998003193359,-2.5695340633392334,4.208473368281982,-1.398949925099508,-0.5682991186725062,-0.01451342273503542,-0.012365628965198994,0.020685913041234016,0.00997914932668209,-0.023100631311535835,0.017133301123976707,-0.3645331859588623,-0.7158598303794861,0.8835288882255554,0.42738577723503113,-0.40140825510025024,0.05545113980770111
1749053028.2583473,-2.6375320593463343,0.3174826341816406,-2.5695176124572754,4.208508177394531,-1.3989461104022425,-0.5682833830462855,-0.016793331131339073,-0.01492913905531168,0.021229282021522522,0.011628645472228527,-0.02513250522315502,0.017651833593845367,-0.3517615497112274,-0.7271167635917664,0.8849047422409058,0.406274676322937,-0.39707493782043457,0.07819796353578568
1749053028.258387,-2.6375797430621546,0.3174587923237304,-2.5694589614868164,4.208540602321289,-1.3990486303912562,-0.5682709852801722,-0.018086744472384453,-0.01568717136979103,0.02236325666308403,0.012209010310471058,-0.026465363800525665,0.019398866221308708,-0.3487723469734192,-0.724845826625824,0.8866325616836548,0.4230133295059204,-0.3912266492843628,0.07185551524162292
1749053028.2584271,-2.6375413576709192,0.31740037977185054,-2.5694148540496826,4.2085558611103515,-1.3990653196917933,-0.5682428518878382,-0.018960392102599144,-0.016369571909308434,0.02370286174118519,0.013521685265004635,-0.028139760717749596,0.02150990255177021,-0.31192103028297424,-0.7129963636398315,0.9094457030296326,0.42599400877952576,-0.3963721990585327,0.09503516554832458
1749053028.2584658,-2.63765532175173,0.31741468488659663,-2.569382429122925,4.208572550410889,-1.399179760609762,-0.5682151953326624,-0.01934877038002014,-0.015347757376730442,0.02439752407371998,0.014255325309932232,-0.029355881735682487,0.022036319598555565,-0.31971877813339233,-0.7196856141090393,0.9052432775497437,0.4219258725643158,-0.3859027028083801,0.11613845825195312
1749053028.2585042,-2.6376755873309534,0.31735579549755855,-2.5693466663360596,4.208603544826172,-1.3992160002337855,-0.5681679884540003,-0.019699253141880035,-0.01597628742456436,0.02485761046409607,0.015173620544373989,-0.03135635703802109,0.025955038145184517,-0.3253018260002136,-0.7310861349105835,0.9240249395370483,0.4243338704109192,-0.40793728828430176,0.117359459400177
1749053028.258542,-2.6377766768084925,0.3173200327106933,-2.569279193878174,4.20863596975293,-1.3992841879474085,-0.5681622664081019,-0.019858747720718384,-0.01618053764104843,0.025346076115965843,0.014770200476050377,-0.03251960501074791,0.028016390278935432,-0.3368109464645386,-0.7530049681663513,0.9197971224784851,0.4151020348072052,-0.3937711715698242,0.11532291769981384
1749053028.2585795,-2.6377716700183313,0.3172991710850219,-2.569257974624634,4.208644075984619,-1.3993318716632288,-0.5681121985064905,-0.020374398678541183,-0.01592843048274517,0.026511361822485924,0.014532710425555706,-0.0336909256875515,0.031481076031923294,-0.31370431184768677,-0.7482960224151611,0.9398003816604614,0.4144211709499359,-0.3909021317958832,0.13557828962802887
1749053028.2586174,-2.6378002802478235,0.3172599512287597,-2.569187641143799,4.208667917842529,-1.3994272390948694,-0.5680363813983362,-0.020204417407512665,-0.016310445964336395,0.027795199304819107,0.01418672502040863,-0.033912595361471176,0.032567717134952545,-0.3348749876022339,-0.7841494083404541,0.9541428685188293,0.43213367462158203,-0.40456292033195496,0.13216735422611237
1749053028.2586553,-2.6377931276904505,0.31726352750744624,-2.5691864490509033,4.2087036806293945,-1.3994987646686,-0.567965332661764,-0.019800886511802673,-0.016112057492136955,0.028900152072310448,0.014979720115661621,-0.035333216190338135,0.0353759229183197,-0.31198030710220337,-0.7789998054504395,0.958450198173523,0.4305614233016968,-0.3849756717681885,0.1617327779531479
1749053028.2586935,-2.637871328984396,0.3172542291828613,-2.5690760612487793,4.208742781276367,-1.3995855490313929,-0.5679233709918421,-0.020561739802360535,-0.017214737832546234,0.030055858194828033,0.014575601555407047,-0.03762089088559151,0.037748537957668304,-0.32277625799179077,-0.8028576374053955,0.9804472327232361,0.42360520362854004,-0.4171196520328522,0.15254360437393188
1749053028.2587311,-2.637853209172384,0.31717602788891597,-2.5690505504608154,4.208779020900391,-1.3996880690204065,-0.5678370634662073,-0.020497897639870644,-0.01722872629761696,0.03148481249809265,0.014676540158689022,-0.040378645062446594,0.03961814194917679,-0.3405601680278778,-0.8139286637306213,0.9801362156867981,0.43924984335899353,-0.4007418155670166,0.16159853339195251
1749053028.258768,-2.6379550139056605,0.31712476789440913,-2.568983793258667,4.208802862758301,-1.3997214476214808,-0.5677292982684534,-0.02104000747203827,-0.017420519143342972,0.03315609320998192,0.014837420545518398,-0.041883621364831924,0.04195176810026169,-0.3671414852142334,-0.8248657584190369,1.0052416324615479,0.4436790943145752,-0.400416761636734,0.1529656946659088
1749053028.2588053,-2.6379645506488245,0.31714384138073726,-2.568896770477295,4.208827181453369,-1.399797264729635,-0.5676835219012659,-0.022062689065933228,-0.018084077164530754,0.034639835357666016,0.015897158533334732,-0.04395664855837822,0.04236159846186638,-0.334831565618515,-0.8425487875938416,1.0058696269989014,0.4303395748138428,-0.4093763828277588,0.1506955623626709
1749053028.258843,-2.637960974370138,0.31709925710644526,-2.568840265274048,4.208866282100342,-1.39990741411318,-0.5676048437701624,-0.022882480174303055,-0.019905736669898033,0.03632992506027222,0.01660441793501377,-0.046015575528144836,0.041841525584459305,-0.3604810833930969,-0.8574298620223999,1.0092929601669312,0.4442298412322998,-0.4076962471008301,0.15219271183013916
1749053028.2588801,-2.63806397119631,0.31701986371960444,-2.568803548812866,4.2088867860981445,-1.3999641577350062,-0.567505184804098,-0.02378249168395996,-0.02175869792699814,0.03747503459453583,0.017258232459425926,-0.047523580491542816,0.041438788175582886,-0.3541339039802551,-0.8379716277122498,1.00831139087677,0.45066037774086,-0.43200889229774475,0.17763885855674744
1749053028.2589173,-2.6380961577044886,0.3169843393513183,-2.568681240081787,4.208934469813965,-1.4001057783709925,-0.5674336592303675,-0.024560581892728806,-0.02286534011363983,0.039072927087545395,0.018424121662974358,-0.05013391375541687,0.04312404617667198,-0.3548993766307831,-0.8713605999946594,1.0448722839355469,0.4353789687156677,-0.4371371567249298,0.16153767704963684
1749053028.258954,-2.6381755510913294,0.3169950681873779,-2.5686252117156982,4.208954496974609,-1.4002440611468714,-0.5673602263080042,-0.025423886254429817,-0.023577680811285973,0.04123684763908386,0.019271649420261383,-0.053779516369104385,0.044636067003011703,-0.3604581356048584,-0.8681210279464722,1.0354562997817993,0.4373856782913208,-0.4179563522338867,0.17968986928462982
1749053028.2589905,-2.6381755510913294,0.3169950681873779,-2.5686252117156982,4.208954496974609,-1.4002440611468714,-0.5673602263080042,-0.025423886254429817,-0.023577680811285973,0.04123684763908386,0.019271649420261383,-0.053779516369104385,0.044636067003011703,-0.3604581356048584,-0.8681210279464722,1.0354562997817993,0.4373856782913208,-0.4179563522338867,0.17968986928462982
1749053028.259028,-2.6381691137896937,0.3169010120579223,-2.5685102939605713,4.209009333247803,-1.4003704229937952,-0.567237679158346,-0.026179537177085876,-0.024100523442029953,0.043873030692338943,0.019737761467695236,-0.05773463472723961,0.04598022252321243,-0.3456436097621918,-0.8792943954467773,1.0209041833877563,0.45084840059280396,-0.429141104221344,0.17585863173007965
1749053028.259404,-2.6383305231677454,0.31682877122845454,-2.568331003189087,4.20907370626416,-1.4005592505084437,-0.5670531431781214,-0.028058679774403572,-0.02750685252249241,0.04781412333250046,0.02183571457862854,-0.06162002310156822,0.048261962831020355,-0.3407078981399536,-0.8974395394325256,1.0365619659423828,0.4564298987388611,-0.4181692600250244,0.18481391668319702
1749053028.2613993,-2.6384032408343714,0.31672923147167964,-2.568254232406616,4.209144755000732,-1.4007166067706507,-0.5669692198382776,-0.02888726443052292,-0.02863951399922371,0.05146711319684982,0.023029133677482605,-0.06402923166751862,0.049829356372356415,-0.3458724915981293,-0.893871545791626,1.03322434425354,0.4616509974002838,-0.42432451248168945,0.20742927491664886
1749053028.3022754,-2.6384390036212366,0.3167199331470947,-2.5681591033935547,4.20918528615918,-1.4008763472186487,-0.5668771902667444,-0.03046557307243347,-0.0292070172727108,0.051637884229421616,0.023916061967611313,-0.06902547180652618,0.05078732967376709,-0.3271922767162323,-0.9024380445480347,1.0433247089385986,0.4440282881259918,-0.39928728342056274,0.16894583404064178
1749053028.302321,-2.6385074297534388,0.31659774362530513,-2.5680313110351562,4.209224386806152,-1.4009974638568323,-0.5667498747455042,-0.031229764223098755,-0.030158430337905884,0.05290700122714043,0.0240569356828928,-0.07163406908512115,0.052076831459999084,-0.34363093972206116,-0.913853645324707,1.050127387046814,0.44902685284614563,-0.38170576095581055,0.17783227562904358
1749053028.3023636,-2.6385794321643274,0.31654946386303706,-2.567927837371826,4.209291144008301,-1.4011476675616663,-0.5666382948504847,-0.03132740408182144,-0.031225912272930145,0.05523771047592163,0.024436427280306816,-0.07509993761777878,0.05362161248922348,-0.3758668303489685,-0.90410315990448,1.0414632558822632,0.45292484760284424,-0.3627516031265259,0.17823126912117004
1749053028.302414,-2.6386190096484583,0.31650201856579585,-2.567800760269165,4.209335489864014,-1.4013217131244105,-0.5665376822101038,-0.03092068061232567,-0.03279685229063034,0.05936615914106369,0.024983052164316177,-0.07728296518325806,0.05481043830513954,-0.36128923296928406,-0.9123256206512451,1.0171014070510864,0.46669721603393555,-0.3436568081378937,0.19187375903129578
1749053028.3024552,-2.638710085545675,0.3163989025303344,-2.5676841735839844,4.209391279811523,-1.4014390150653284,-0.5663517157184046,-0.032324112951755524,-0.034440819174051285,0.058702658861875534,0.026417113840579987,-0.07394739985466003,0.0552726686000824,-0.36632290482521057,-0.9206078052520752,1.022343397140503,0.4724489152431488,-0.3644035756587982,0.19297277927398682
1749053028.3024945,-2.6387630144702356,0.31637708723034663,-2.5675649642944336,4.209474249477051,-1.40161639848818,-0.5663026014911097,-0.03389753773808479,-0.0353250727057457,0.06060782074928284,0.02721976675093174,-0.07281666249036789,0.056054454296827316,-0.35878950357437134,-0.912305474281311,1.051342248916626,0.45966413617134094,-0.36931097507476807,0.1905609369277954
1749053028.3025324,-2.6388312021838587,0.3162776666828613,-2.5674490928649902,4.209502859706543,-1.4017718474017542,-0.566162411366598,-0.034455351531505585,-0.03622895106673241,0.06412523239850998,0.029360512271523476,-0.07550012320280075,0.05737682059407234,-0.3515927493572235,-0.920484185218811,1.0325483083724976,0.45346856117248535,-0.36761388182640076,0.204213947057724
1749053028.3025706,-2.6389175097094935,0.31623045980419917,-2.567286252975464,4.209574385280273,-1.4019148985492151,-0.5660308043109339,-0.03655059635639191,-0.036833349615335464,0.06685276329517365,0.030471213161945343,-0.077609583735466,0.058057788759469986,-0.3693709969520569,-0.9374152421951294,1.0030981302261353,0.47815966606140137,-0.3665202558040619,0.2345208078622818
1749053028.3026085,-2.6389663855182093,0.31614284097637935,-2.5671393871307373,4.209630175227783,-1.4020541349994105,-0.5659268538104456,-0.03707797825336456,-0.03842874616384506,0.06744755804538727,0.03197439759969711,-0.07832251489162445,0.06083087623119354,-0.35221490263938904,-0.9357519149780273,1.0140007734298706,0.4523271918296814,-0.3723883032798767,0.19052939116954803
1749053028.302646,-2.6390541235553187,0.316043420428894,-2.567034959793091,4.209693594569824,-1.4022591749774378,-0.5658071676837366,-0.036270566284656525,-0.03881875425577164,0.06855308264493942,0.031800366938114166,-0.07941440492868423,0.061727169901132584,-0.38943955302238464,-0.9391224980354309,1.0016496181488037,0.4685690999031067,-0.38210874795913696,0.18608465790748596
1749053028.3026836,-2.639122549687521,0.31597857057537837,-2.566880226135254,4.2097460466572265,-1.402400318776266,-0.5656750837909144,-0.03755974769592285,-0.039626576006412506,0.06985799223184586,0.03194892033934593,-0.0788254514336586,0.06254523247480392,-0.3884357810020447,-0.9521560668945312,1.0092962980270386,0.46044689416885376,-0.3961213231086731,0.20104308426380157
1749053028.302721,-2.6392255465136927,0.3158876138874511,-2.566739559173584,4.209817095393799,-1.4025128523456019,-0.5655782858477991,-0.03983988240361214,-0.04151162505149841,0.07204777002334595,0.03191398084163666,-0.0794222429394722,0.06377799063920975,-0.3925321698188782,-0.9341294765472412,1.0287892818450928,0.450374573469162,-0.4087047576904297,0.20465990900993347
1749053028.3027577,-2.639247004185812,0.3158189493366699,-2.5665805339813232,4.209892912501953,-1.4027093092547815,-0.5654271284686487,-0.04084334895014763,-0.04205356165766716,0.07418999075889587,0.03370971605181694,-0.08117109537124634,0.06290311366319656,-0.36563509702682495,-0.9369509816169739,0.9894997477531433,0.4629749655723572,-0.42975834012031555,0.21661892533302307
1749053028.3027947,-2.6393888632403772,0.3157506424137573,-2.566437244415283,4.209983511562012,-1.402849022542135,-0.5652444998370569,-0.0416608601808548,-0.04364630579948425,0.07413403689861298,0.03501509502530098,-0.08225426077842712,0.06569936126470566,-0.37157464027404785,-0.952934980392456,1.0167837142944336,0.4512978792190552,-0.45745205879211426,0.2153748869895935
1749053028.3028314,-2.639437739049093,0.3156129556843261,-2.566274404525757,4.21003977834668,-1.403055493031637,-0.5651405493365687,-0.042651932686567307,-0.044672995805740356,0.07743563503026962,0.036017123609781265,-0.08759625256061554,0.06881117820739746,-0.37677913904190063,-0.9588824510574341,1.0250803232192993,0.4454692602157593,-0.44282570481300354,0.20706729590892792
1749053028.3028698,-2.6395326296435755,0.31555573522534175,-2.5661070346832275,4.210095568294189,-1.4031842390643519,-0.5650194326983851,-0.044040996581315994,-0.046607598662376404,0.07972715049982071,0.036550674587488174,-0.08949139714241028,0.06978587061166763,-0.37825459241867065,-0.9462857842445374,0.9643200635910034,0.4588865637779236,-0.44973474740982056,0.18780863285064697
1749053028.3029065,-2.6396451632129114,0.3154563146778564,-2.5659701824188232,4.210186644191406,-1.403370205556051,-0.5649116675006312,-0.0452907457947731,-0.04793480783700943,0.08106633275747299,0.03637572377920151,-0.0896017774939537,0.06728281080722809,-0.3828169107437134,-0.9503452777862549,0.9850435853004456,0.4558325707912445,-0.47473403811454773,0.23017242550849915
1749053028.3029444,-2.6397207419024866,0.31537239133801265,-2.5658035278320312,4.210266752833984,-1.4035614172564905,-0.5647519270526331,-0.04598585516214371,-0.048997413367033005,0.08089783042669296,0.03728505223989487,-0.09289924800395966,0.06984442472457886,-0.37596386671066284,-0.9405080676078796,0.9921483397483826,0.4620160460472107,-0.48762330412864685,0.246707484126091
1749053028.3029823,-2.6398046652423304,0.3152528244205932,-2.565666675567627,4.21035019933667,-1.4038103262530726,-0.5646079222308558,-0.04636658728122711,-0.05015108734369278,0.08129344880580902,0.03898702189326286,-0.09797671437263489,0.07190240919589996,-0.37127888202667236,-0.9158191680908203,0.9956713914871216,0.4389902949333191,-0.470342755317688,0.22386740148067474
1749053028.30302,-2.6398888270007532,0.31514494001354976,-2.5654335021972656,4.210436983699463,-1.4039982000934046,-0.5644524733172815,-0.04777814820408821,-0.05138001963496208,0.08261637389659882,0.04012991487979889,-0.104979008436203,0.07541583478450775,-0.3967282772064209,-0.958416223526001,1.0181052684783936,0.4423966407775879,-0.43269819021224976,0.23718656599521637
1749053028.303383,-2.640008513127462,0.31504909574475093,-2.565288782119751,4.210474653834961,-1.404200855885641,-0.5643051306353968,-0.04892847314476967,-0.05233798176050186,0.08510145545005798,0.04068413004279137,-0.10558360815048218,0.07815318554639816,-0.3445916771888733,-0.9289328455924988,0.9913316369056702,0.4591391384601593,-0.4304460287094116,0.21570900082588196
1749053028.3053737,-2.640134398137228,0.3149377542683105,-2.5651023387908936,4.210584326381348,-1.4044273535357874,-0.5641368071185511,-0.04885375499725342,-0.05159728229045868,0.08608648180961609,0.04073997586965561,-0.10719285905361176,0.07914488017559052,-0.3990297317504883,-0.9798151254653931,1.0112779140472412,0.4430498778820038,-0.45089203119277954,0.2272861897945404
1749053028.3503237,-2.640165392552511,0.31482617437329097,-2.5649261474609375,4.2106568056293945,-1.4046576658831995,-0.5639737288104456,-0.04986605420708656,-0.05477569252252579,0.08717598021030426,0.04072188213467598,-0.11168409883975983,0.07849056273698807,-0.3990049958229065,-0.9224737286567688,0.9967191815376282,0.4657558500766754,-0.4218120574951172,0.24317842721939087
1749053028.3503695,-2.640304152165548,0.31469838201489253,-2.564746856689453,4.210763617152832,-1.4048650900470179,-0.563793961201803,-0.05056846886873245,-0.05342137813568115,0.0884867012500763,0.04093547537922859,-0.1148144006729126,0.08076780289411545,-0.3908323645591736,-0.9475517272949219,1.0067955255508423,0.4480744004249573,-0.41268491744995117,0.24137890338897705
1749053028.3504102,-2.6404040495501917,0.3145986038395385,-2.5645604133605957,4.2108351427265625,-1.4051230589496058,-0.5636609236346644,-0.05185586214065552,-0.053094275295734406,0.08980641514062881,0.04214901104569435,-0.11627703160047531,0.08206548541784286,-0.3770921230316162,-0.9800516963005066,1.008156657218933,0.43567031621932983,-0.3950502574443817,0.23259079456329346
1749053028.350449,-2.640503470097677,0.31450311719860835,-2.5643997192382812,4.210918589229248,-1.405435864125387,-0.5634968916522425,-0.05177905783057213,-0.054821211844682693,0.09105370938777924,0.04381798580288887,-0.11675351113080978,0.08460875600576401,-0.40859872102737427,-0.9878515601158142,0.986568033695221,0.45014697313308716,-0.39660874009132385,0.23588772118091583
1749053028.3504941,-2.6405885855304163,0.31441442548718257,-2.564208507537842,4.210998221034668,-1.4056275526629847,-0.563329044972555,-0.05539795756340027,-0.058738820254802704,0.09133106470108032,0.04479006677865982,-0.1172243282198906,0.08627062290906906,-0.36971476674079895,-0.943970799446106,1.0338619947433472,0.44048118591308594,-0.3754163086414337,0.22636085748672485
1749053028.3505342,-2.6406880060779017,0.31429116308178706,-2.5639946460723877,4.21110646306958,-1.4058669249164026,-0.5631449858294886,-0.054917335510253906,-0.05561395734548569,0.09295478463172913,0.04455246403813362,-0.11622200161218643,0.0868302434682846,-0.40376776456832886,-0.9741237759590149,1.0472490787506104,0.4507940411567688,-0.3813755214214325,0.23035377264022827
1749053028.3505728,-2.6407812277423304,0.3141476350971679,-2.5638225078582764,4.211189432735107,-1.406086270009176,-0.562958065663473,-0.05516577884554863,-0.05758849158883095,0.09394966065883636,0.04520042985677719,-0.11585528403520584,0.08819520473480225,-0.3995979130268097,-1.0022295713424683,1.0412074327468872,0.4551311135292053,-0.4095011353492737,0.23700205981731415
1749053028.3506107,-2.6409664789782923,0.3140517908283691,-2.5636146068573,4.211285277003906,-1.4063180128680628,-0.5627625624286097,-0.0566592738032341,-0.058740850538015366,0.09387935698032379,0.04607279971241951,-0.11567461490631104,0.0895155519247055,-0.38689354062080383,-0.9880552291870117,1.0716158151626587,0.44219204783439636,-0.4005008637905121,0.2182135283946991
1749053028.350649,-2.641101662312643,0.3139123159595947,-2.5634427070617676,4.211364908809326,-1.4065669218646448,-0.5626056830035608,-0.0601423978805542,-0.05824892595410347,0.09640782326459885,0.046417009085416794,-0.11827695369720459,0.09051736444234848,-0.37264639139175415,-1.0103355646133423,1.070130467414856,0.44871920347213745,-0.43194690346717834,0.22265173494815826
1749053028.3506875,-2.6411781946765345,0.3138200479694824,-2.5632359981536865,4.211460276240967,-1.4067862669574183,-0.5623715559588831,-0.057549476623535156,-0.061152245849370956,0.0976453572511673,0.04701409861445427,-0.11894343048334122,0.09158561378717422,-0.406276673078537,-1.0034830570220947,1.0835374593734741,0.46542519330978394,-0.4320944547653198,0.25645750761032104
1749053028.3507257,-2.641259495412008,0.31367306291546626,-2.563044786453247,4.211568041438721,-1.40709096590151,-0.5622218290912073,-0.05987109616398811,-0.06188541278243065,0.10201414674520493,0.047322072088718414,-0.1198323667049408,0.09220646321773529,-0.38080650568008423,-1.026304006576538,1.063456654548645,0.4441733956336975,-0.4407334327697754,0.22599253058433533
1749053028.3507633,-2.641259495412008,0.31367306291546626,-2.563044786453247,4.211568041438721,-1.40709096590151,-0.5622218290912073,-0.05987109616398811,-0.06188541278243065,0.10201414674520493,0.047322072088718414,-0.1198323667049408,0.09220646321773529,-0.38080650568008423,-1.026304006576538,1.063456654548645,0.4441733956336975,-0.4407334327697754,0.22599253058433533
1749053028.3508015,-2.6415584723102015,0.313476486796997,-2.562610149383545,4.211802168483398,-1.4075492064105433,-0.5618932882892054,-0.06052296608686447,-0.06376736611127853,0.10346564650535583,0.04816514998674393,-0.1265522837638855,0.09371691197156906,-0.3931206464767456,-1.018757939338684,1.0590115785598755,0.4473259449005127,-0.42697036266326904,0.21576422452926636
1749053028.3508399,-2.641634766255514,0.3133367735096435,-2.5623950958251953,4.211869879359863,-1.4077838102923792,-0.5617063681231897,-0.06156817823648453,-0.06419022381305695,0.10719554126262665,0.04918801039457321,-0.1288186013698578,0.09356166422367096,-0.3851638436317444,-1.0373626947402954,1.0354430675506592,0.4466598927974701,-0.4296662509441376,0.26169705390930176
1749053028.3508778,-2.6417704264270228,0.313185377711914,-2.5621955394744873,4.211930914516113,-1.4080727736102503,-0.5614636580096644,-0.06229886785149574,-0.0678103119134903,0.1076483428478241,0.05003664642572403,-0.13573560118675232,0.09377286583185196,-0.40623393654823303,-0.9745273590087891,1.0457996129989624,0.4601074159145355,-0.40066251158714294,0.2664918303489685
1749053028.3509154,-2.641914192830221,0.31306569158520503,-2.5619680881500244,4.212057276363037,-1.408344570790426,-0.561279598866598,-0.06388121098279953,-0.06576936691999435,0.11055225133895874,0.0518072247505188,-0.13796083629131317,0.10008054971694946,-0.4142916202545166,-1.0428892374038696,1.0898362398147583,0.4632626175880432,-0.4064088463783264,0.2587215304374695
1749053028.3509524,-2.6420376936541956,0.3129294353672485,-2.561772346496582,4.212196035976074,-1.4086230436908167,-0.5611031691180628,-0.06644926220178604,-0.06843308359384537,0.11358921229839325,0.05509436875581741,-0.1404009312391281,0.10484801232814789,-0.36086487770080566,-1.0252413749694824,1.037343144416809,0.42457377910614014,-0.3827711045742035,0.2298492193222046
1749053028.3509896,-2.642174307500021,0.3127470451542358,-2.5615222454071045,4.212268515224121,-1.408905331288473,-0.5608800093280237,-0.06558000296354294,-0.07277105003595352,0.11421302706003189,0.054606612771749496,-0.14019078016281128,0.10311025381088257,-0.38087940216064453,-0.9904812574386597,1.0229419469833374,0.43810105323791504,-0.38964158296585083,0.2435072362422943
1749053028.351027,-2.6423023382769983,0.3126109081455688,-2.5612988471984863,4.212410612697266,-1.4092300573932093,-0.5607269446002405,-0.0660259947180748,-0.06932055950164795,0.1151970699429512,0.054165683686733246,-0.13959041237831116,0.1064060628414154,-0.37249916791915894,-1.0315934419631958,1.0193747282028198,0.4337526261806488,-0.4080950617790222,0.24174927175045013
1749053028.351064,-2.6424647013293665,0.3124714332767944,-2.5610551834106445,4.2125183778950195,-1.4095314184771937,-0.5604761282550257,-0.06444698572158813,-0.07173014432191849,0.11533930897712708,0.054494280368089676,-0.1398770660161972,0.10821614414453506,-0.4231025278568268,-1.0121928453445435,1.0518732070922852,0.44083502888679504,-0.4076768457889557,0.22628453373908997
1749053028.3511012,-2.6425963083850306,0.3123321968265991,-2.560800075531006,4.212625666255615,-1.4098003546344202,-0.5602291266070765,-0.06698718667030334,-0.07327968627214432,0.11782802641391754,0.05542982742190361,-0.1407235711812973,0.10984735190868378,-0.3879883289337158,-1.0008251667022705,1.025904655456543,0.4361931085586548,-0.40834563970565796,0.23678535223007202
1749053028.3511384,-2.6427019278155726,0.312164230937622,-2.560588836669922,4.212729139918945,-1.4100597540484827,-0.5600169340716761,-0.06934291869401932,-0.0739041194319725,0.12027857452630997,0.05608281120657921,-0.13979291915893555,0.11140216141939163,-0.38951998949050903,-1.000449776649475,1.020768642425537,0.4242095351219177,-0.42057937383651733,0.24571044743061066
1749053028.3513784,-2.642822329198019,0.31199268876995845,-2.5603411197662354,4.2128283220478515,-1.4103768507586878,-0.5598157087909144,-0.06681650876998901,-0.07452105730772018,0.12168719619512558,0.05596243962645531,-0.14427193999290466,0.11228440701961517,-0.41518479585647583,-0.9873658418655396,1.016708493232727,0.44016730785369873,-0.4221642315387726,0.22892622649669647
1749053028.3533957,-2.6429975668536585,0.31184498846020503,-2.560051441192627,4.212951346034668,-1.4106949011432093,-0.5595334211932581,-0.06886772066354752,-0.07609792053699493,0.12349217385053635,0.055639661848545074,-0.14220744371414185,0.11363526433706284,-0.4220260679721832,-0.978752076625824,1.0311893224716187,0.4461941719055176,-0.43753519654273987,0.22489666938781738
1749053028.3943207,-2.6431174913989466,0.3117435413547973,-2.5598158836364746,4.2130395609089355,-1.4109533468829554,-0.559298340474264,-0.07352627068758011,-0.07660076767206192,0.12627777457237244,0.05587216466665268,-0.14636369049549103,0.11334437876939774,-0.3609875440597534,-0.9600160121917725,1.0207617282867432,0.4521450996398926,-0.435696542263031,0.2296046018600464
1749053028.394367,-2.6432493368731897,0.3115688997456054,-2.5595576763153076,4.213146849269531,-1.411248032246725,-0.5591056982623499,-0.07125312089920044,-0.07668212801218033,0.12785173952579498,0.05620218813419342,-0.15457850694656372,0.11443207412958145,-0.3893417716026306,-0.9701111912727356,0.9741644859313965,0.4595488905906677,-0.3967382609844208,0.2414836883544922
1749053028.3944082,-2.6433966795550745,0.311412973994873,-2.55934476852417,4.21326653539624,-1.4115460554706019,-0.5588739554034632,-0.0738920047879219,-0.07773637771606445,0.1337319016456604,0.05648299306631088,-0.1557024121284485,0.11474419385194778,-0.36561915278434753,-0.9885305166244507,0.9635017514228821,0.47546109557151794,-0.4001460373401642,0.22295844554901123
1749053028.3944602,-2.6435444990741175,0.3112538295933227,-2.5590624809265137,4.213404818172119,-1.4118874708758753,-0.5586808363543909,-0.07477734982967377,-0.07760626822710037,0.13153304159641266,0.05722738057374954,-0.1596737802028656,0.11473710834980011,-0.3839230537414551,-1.0052862167358398,0.9829695820808411,0.479408860206604,-0.3904452621936798,0.2461380660533905
1749053028.3945072,-2.6435444990741175,0.3112538295933227,-2.5590624809265137,4.213404818172119,-1.4118874708758753,-0.5586808363543909,-0.07477734982967377,-0.07760626822710037,0.13153304159641266,0.05722738057374954,-0.1596737802028656,0.11473710834980011,-0.3839230537414551,-1.0052862167358398,0.9829695820808411,0.479408860206604,-0.3904452621936798,0.2461380660533905
1749053028.3945498,-2.6438632647143763,0.31098513185467525,-2.5585598945617676,4.213628454799316,-1.4125545660602015,-0.5581939856158655,-0.07536272704601288,-0.07806012034416199,0.13312911987304688,0.06313725560903549,-0.1619865745306015,0.11874397844076157,-0.4220481514930725,-0.993180513381958,0.9731459617614746,0.46700960397720337,-0.3832140862941742,0.2146502286195755
1749053028.3945885,-2.6439877192126673,0.3108028608509521,-2.558288097381592,4.213747664088867,-1.4128144423114222,-0.5579312483416956,-0.07691862434148788,-0.07912866026163101,0.1330244243144989,0.06295804679393768,-0.16014772653579712,0.11907266080379486,-0.4025785028934479,-1.0295698642730713,0.96537846326828,0.47986263036727905,-0.39888253808021545,0.2324696183204651
1749053028.3946261,-2.6441317240344446,0.3106742340275268,-2.5580413341522217,4.213879271144531,-1.4131363073932093,-0.5576918760882776,-0.07789131999015808,-0.0806761234998703,0.134782612323761,0.06093933433294296,-0.15935386717319489,0.11936230212450027,-0.36396729946136475,-1.0045709609985352,0.9971382021903992,0.47698426246643066,-0.40923917293548584,0.24629060924053192
1749053028.3946636,-2.64429480234255,0.3104514318653564,-2.557786464691162,4.214010401363037,-1.4134658018695276,-0.5574591795550745,-0.07882159948348999,-0.08017141371965408,0.13341933488845825,0.062164779752492905,-0.15967953205108643,0.12527835369110107,-0.4250839948654175,-1.031677007675171,1.0184521675109863,0.477632075548172,-0.4352661371231079,0.23462572693824768
1749053028.3947012,-2.6444554964648646,0.31035880624737544,-2.557499408721924,4.214161081905029,-1.413795296345846,-0.5572541395770472,-0.08057873696088791,-0.08510389178991318,0.13485391438007355,0.06481586396694183,-0.1610628217458725,0.12236834317445755,-0.4080965220928192,-0.9958625435829163,1.007350206375122,0.47313085198402405,-0.46928316354751587,0.23559200763702393
1749053028.3947384,-2.644637648259298,0.31015555440869136,-2.5572211742401123,4.2142883974262695,-1.414098087941305,-0.5569675604449671,-0.08120359480381012,-0.08389019966125488,0.13645412027835846,0.06684406846761703,-0.166742742061615,0.12500014901161194,-0.39804351329803467,-0.9597550630569458,1.0305321216583252,0.44712063670158386,-0.45752495527267456,0.2534850239753723
1749053028.394776,-2.644782368336813,0.30998460828747554,-2.55696177482605,4.214435740108154,-1.414436165486471,-0.5567167440997522,-0.08404538035392761,-0.08446449041366577,0.1371162086725235,0.06937094777822495,-0.16670550405979156,0.12670734524726868,-0.4275994598865509,-1.0104928016662598,1.0236854553222656,0.4487610459327698,-0.47402945160865784,0.24037358164787292
1749053028.3948128,-2.6449549833880823,0.30982033788647456,-2.556682825088501,4.214578791255615,-1.4147627989398401,-0.5564287344561976,-0.0815844014286995,-0.08842895925045013,0.137990340590477,0.07040098309516907,-0.17342102527618408,0.12767991423606873,-0.3799656331539154,-0.9981160163879395,1.0302650928497314,0.43026795983314514,-0.46967941522598267,0.23126599192619324
1749053028.3948505,-2.645102564488546,0.3096603590198974,-2.556391716003418,4.214721842403076,-1.4151824156390589,-0.5561617056476038,-0.08173985034227371,-0.08832532912492752,0.13912107050418854,0.06980503350496292,-0.1816316694021225,0.1282253861427307,-0.4030330777168274,-0.9740444421768188,1.0376089811325073,0.4218679964542389,-0.41859790682792664,0.24644559621810913
1749053028.3948874,-2.645301405583517,0.30945758401837153,-2.5561320781707764,4.21485344945874,-1.415525261555807,-0.5559256712542933,-0.08649949729442596,-0.08896994590759277,0.14062850177288055,0.0674905851483345,-0.18525196611881256,0.12824998795986176,-0.3463137447834015,-0.9802641868591309,1.0505461692810059,0.4324856400489807,-0.4134989380836487,0.26567012071609497
1749053028.3949244,-2.6454811731921595,0.30928151189770503,-2.5558416843414307,4.2149926859089355,-1.4159272352801722,-0.5556233564959925,-0.08304402977228165,-0.0900123342871666,0.14460060000419617,0.0693768709897995,-0.1869378387928009,0.1295483112335205,-0.42802515625953674,-0.9706823825836182,1.0157301425933838,0.4309268593788147,-0.37217944860458374,0.23127321898937225
1749053028.3949614,-2.645649258290426,0.30906765043225093,-2.5555388927459717,4.215111895198486,-1.4162700811969202,-0.5553868452655237,-0.08641046285629272,-0.09035608172416687,0.14930586516857147,0.07069853693246841,-0.18675966560840607,0.12880365550518036,-0.396181583404541,-0.9894124269485474,1.01707124710083,0.4316117763519287,-0.36530864238739014,0.24149703979492188
1749053028.3949983,-2.645827833806173,0.3088913398930053,-2.5552589893341064,4.215255900020264,-1.416650120412008,-0.5551241079913538,-0.087550088763237,-0.09210269898176193,0.14887477457523346,0.07122190296649933,-0.18291790783405304,0.1327025294303894,-0.3788456618785858,-0.9427120089530945,1.0187249183654785,0.42253607511520386,-0.3866785764694214,0.24746277928352356
1749053028.3950346,-2.645949904118673,0.3087234932133178,-2.5549726486206055,4.215398474330566,-1.4170215765582483,-0.5548408667193812,-0.08734884113073349,-0.09010551124811172,0.1489475965499878,0.07008112221956253,-0.17825722694396973,0.13387565314769745,-0.39221879839897156,-0.9938613176345825,1.0070075988769531,0.42718154191970825,-0.42382383346557617,0.22529524564743042
1749053028.395071,-2.6461215654956263,0.3085784155079345,-2.554673671722412,4.2155420023151855,-1.4174144903766077,-0.5545652548419397,-0.08844394236803055,-0.09416323155164719,0.149653822183609,0.06897732615470886,-0.18203671276569366,0.13401922583580017,-0.3747904300689697,-0.9665180444717407,1.0357953310012817,0.44602108001708984,-0.44263333082199097,0.26483798027038574
1749053028.395403,-2.6463213602649134,0.30838744222607417,-2.5543594360351562,4.215665979976318,-1.4177692572223108,-0.5542624632464808,-0.08928358554840088,-0.09042445570230484,0.15363919734954834,0.06846491992473602,-0.18072044849395752,0.13625772297382355,-0.3814709484577179,-1.0197606086730957,1.0282940864562988,0.46365734934806824,-0.45435285568237305,0.23433832824230194
1749053028.3973548,-2.6465159098254603,0.30815665304150386,-2.554056167602539,4.215844317073486,-1.4180892149554651,-0.5540097395526331,-0.08960310369729996,-0.0925830602645874,0.15404242277145386,0.0692465752363205,-0.1875501126050949,0.13981546461582184,-0.39894095063209534,-0.9998836517333984,1.042517900466919,0.4465281367301941,-0.4559059143066406,0.21690303087234497
1749053028.4423044,-2.6466525236712855,0.3079686599918823,-2.553748607635498,4.215956373805664,-1.4184964338885706,-0.5537307898150843,-0.09308765083551407,-0.09402390569448471,0.15663689374923706,0.0713835209608078,-0.1929052174091339,0.13869495689868927,-0.39026057720184326,-0.9821146726608276,0.996514081954956,0.43001240491867065,-0.4165726602077484,0.24436055123806
1749053028.442351,-2.6468752066241663,0.3077820974537353,-2.5534026622772217,4.216118498439453,-1.418840233479635,-0.5534828344928187,-0.09046280384063721,-0.09548929333686829,0.15809956192970276,0.07236836105585098,-0.19841010868549347,0.13962510228157043,-0.3865100145339966,-0.993630051612854,1.0054478645324707,0.45165732502937317,-0.3899766206741333,0.25515058636665344
1749053028.4423923,-2.6470444838153284,0.307628794307373,-2.5531232357025146,4.216242952937744,-1.419307057057516,-0.553164307271139,-0.09225764870643616,-0.09690453857183456,0.1600492149591446,0.07327616959810257,-0.1997913122177124,0.14198170602321625,-0.40956348180770874,-0.9926669001579285,0.9972973465919495,0.45929262042045593,-0.3839752674102783,0.24501562118530273
1749053028.4424317,-2.647250477467672,0.30743734418835444,-2.5527725219726562,4.216408892268799,-1.419697109852926,-0.5529034773456019,-0.09385042637586594,-0.10033203661441803,0.16172805428504944,0.07487384974956512,-0.19816914200782776,0.1431819200515747,-0.35455524921417236,-0.9570198059082031,0.9882892370223999,0.4570494592189789,-0.3727772831916809,0.2596145272254944
1749053028.4424698,-2.647454563771383,0.30723850309338374,-2.5524895191192627,4.216548605556152,-1.4200943152057093,-0.5526083151446741,-0.09282410144805908,-0.10005809366703033,0.1638573408126831,0.07623188942670822,-0.1931626796722412,0.14516134560108185,-0.39399564266204834,-0.940621018409729,0.9893956780433655,0.4395904541015625,-0.4176475405693054,0.2825823426246643
1749053028.4425077,-2.6476569811450403,0.30708543836560054,-2.552138566970825,4.216700239772461,-1.4204848448382776,-0.5522707144366663,-0.09440260380506516,-0.10003020614385605,0.16625793278217316,0.07518700510263443,-0.19274309277534485,0.14688411355018616,-0.42811059951782227,-0.9736294150352478,0.9852858185768127,0.45357847213745117,-0.4483179450035095,0.2469564974308014
1749053028.4425457,-2.647806708012716,0.3068162637897949,-2.5518198013305664,4.216855688686035,-1.4208439032184046,-0.5519908110248011,-0.09477897733449936,-0.0988486260175705,0.16718393564224243,0.07736092805862427,-0.1963879019021988,0.14724421501159668,-0.390834778547287,-1.0034379959106445,0.9759895205497742,0.43588048219680786,-0.47118067741394043,0.25593551993370056
1749053028.4425833,-2.6480332056628626,0.30662934362377925,-2.5514469146728516,4.216983004207275,-1.4212101141559046,-0.5517104307757776,-0.09456100314855576,-0.10286685079336166,0.16785268485546112,0.07726304978132248,-0.19738233089447021,0.1483098566532135,-0.4084492325782776,-0.9611755609512329,0.9924747943878174,0.4602298438549042,-0.4642556607723236,0.26513388752937317
1749053028.442621,-2.6481900850879114,0.30644135057415767,-2.551140546798706,4.217169447536133,-1.4216268698321741,-0.5513957182513636,-0.09558890759944916,-0.09903571754693985,0.16501779854297638,0.07991773635149002,-0.2041454166173935,0.1529804766178131,-0.41218674182891846,-1.0198867321014404,1.0356725454330444,0.4696997404098511,-0.478421688079834,0.24104410409927368
1749053028.4426575,-2.6484013239489954,0.30625657617535396,-2.550778388977051,4.217328234309814,-1.4220545927630823,-0.5510647932635706,-0.09704892337322235,-0.10417152941226959,0.1662929654121399,0.08095694333314896,-0.207773357629776,0.15120984613895416,-0.4388258159160614,-0.98494553565979,1.014603853225708,0.4493839740753174,-0.47725218534469604,0.24775028228759766
1749053028.442695,-2.648581091557638,0.3060684639164428,-2.550447702407837,4.217479868526123,-1.4224651495562952,-0.5507381598102015,-0.09839333593845367,-0.10010027140378952,0.1682511866092682,0.0803552120923996,-0.2115861177444458,0.1523762196302414,-0.4067538380622864,-1.0627365112304688,1.0478748083114624,0.46922725439071655,-0.4772726893424988,0.2544752359390259
1749053028.442732,-2.6487656275378626,0.3058345752903442,-2.550112009048462,4.217615767116211,-1.422922436391012,-0.550450627003805,-0.10066802054643631,-0.1018238440155983,0.17148809134960175,0.07895436882972717,-0.2172858715057373,0.1565585881471634,-0.40825602412223816,-1.021518588066101,1.0389423370361328,0.47579047083854675,-0.43682509660720825,0.22771765291690826
1749053028.4427688,-2.6489692370044153,0.30562667428936763,-2.5497848987579346,4.217798395747803,-1.4233759085284632,-0.5501001516925257,-0.10218525677919388,-0.10512731224298477,0.17242665588855743,0.08177294582128525,-0.21917724609375,0.15508122742176056,-0.37726259231567383,-1.0223413705825806,1.0335291624069214,0.4650121033191681,-0.39907190203666687,0.2355096936225891
1749053028.442806,-2.649208132420675,0.30543021738018794,-2.5493946075439453,4.217977686519287,-1.4238017241107386,-0.5498078505145472,-0.09970502555370331,-0.10562834143638611,0.17033684253692627,0.0838722437620163,-0.2152220904827118,0.1561797708272934,-0.3972286880016327,-0.9867624640464783,1.0441454648971558,0.43598970770835876,-0.43183159828186035,0.237210214138031
1749053028.442843,-2.6493805090533655,0.3051963287540893,-2.5490550994873047,4.218132658595703,-1.4241727034198206,-0.5494726339923304,-0.10127035528421402,-0.10781357437372208,0.17175404727458954,0.08391617983579636,-0.21355386078357697,0.1558763086795807,-0.42714494466781616,-0.9863715767860413,1.0591176748275757,0.427956223487854,-0.45745569467544556,0.24646654725074768
1749053028.44288,-2.6495960394488733,0.3049993950077514,-2.548661470413208,4.218331022853516,-1.4246376196490687,-0.5492008368121546,-0.10189024358987808,-0.10829557478427887,0.17530973255634308,0.08404280245304108,-0.21080823242664337,0.15751680731773376,-0.3851788341999054,-0.9776266813278198,1.0526944398880005,0.4407746195793152,-0.4786481261253357,0.2485598623752594
1749053028.4429173,-2.649823013936178,0.30476467191662593,-2.548301935195923,4.218470259303711,-1.425077263508932,-0.548901383076803,-0.10378584265708923,-0.11171047389507294,0.1787889152765274,0.0842999815940857,-0.21696963906288147,0.15856324136257172,-0.38309919834136963,-0.944242000579834,1.0243816375732422,0.4647572636604309,-0.5011032819747925,0.25627750158309937
1749053028.4429538,-2.6500073114978235,0.3045453268238525,-2.547978401184082,4.218618555659912,-1.4254997412311,-0.5485547224627894,-0.10490275174379349,-0.10947012156248093,0.17920513451099396,0.08448808640241623,-0.21984981000423431,0.1599898785352707,-0.3958277702331543,-0.9878084063529968,1.026073932647705,0.4553050100803375,-0.4827859401702881,0.24980655312538147
1749053028.4430053,-2.6502159277545374,0.3043443399616699,-2.547600269317627,4.218828364009521,-1.4259761015521448,-0.5482352415667933,-0.1059059128165245,-0.11199858784675598,0.18045532703399658,0.08448541164398193,-0.22721953690052032,0.16439637541770935,-0.4098280370235443,-0.9389539361000061,1.0650697946548462,0.46352842450141907,-0.4777657389640808,0.26820293068885803
1749053028.4430459,-2.650388542805807,0.30410246431317134,-2.5472333431243896,4.218987627620361,-1.4264028708087366,-0.5478838125811976,-0.107194684445858,-0.11041721701622009,0.1855590045452118,0.0871015340089798,-0.23207345604896545,0.16600395739078522,-0.40248340368270874,-1.0238274335861206,1.0439079999923706,0.46116724610328674,-0.42748942971229553,0.24622264504432678
1749053028.4430838,-2.650388542805807,0.30410246431317134,-2.5472333431243896,4.218987627620361,-1.4264028708087366,-0.5478838125811976,-0.107194684445858,-0.11041721701622009,0.1855590045452118,0.0871015340089798,-0.23207345604896545,0.16600395739078522,-0.40248340368270874,-1.0238274335861206,1.0439079999923706,0.46116724610328674,-0.42748942971229553,0.24622264504432678
1749053028.4431205,-2.6506314913379114,0.3038824039646606,-2.546846866607666,4.2191783624836425,-1.4268644491778772,-0.5475457350360315,-0.10605501383543015,-0.11426624655723572,0.18970538675785065,0.08810294419527054,-0.23403428494930267,0.16647571325302124,-0.3938119113445282,-0.9758225679397583,1.0029296875,0.4384389817714691,-0.4004723131656647,0.25191807746887207
1749053028.4434,-2.651113573704855,0.3034384685703735,-2.546092987060547,4.219517393703125,-1.427774731312887,-0.5469096342669886,-0.10650300234556198,-0.11333011090755463,0.18832148611545563,0.08799190074205399,-0.2307102084159851,0.16938383877277374,-0.44887256622314453,-0.991844117641449,1.0393484830856323,0.4647617042064667,-0.46734103560447693,0.28480401635169983
1749053028.445369,-2.651309315358297,0.3032151895710449,-2.5457065105438232,4.219676180476807,-1.4282320181476038,-0.5465229193316858,-0.11091892421245575,-0.11375053226947784,0.19056399166584015,0.08842345327138901,-0.22906449437141418,0.1717473417520523,-0.37752074003219604,-1.0072678327560425,0.9725421667098999,0.4497687816619873,-0.48488491773605347,0.25664445757865906
1749053028.4903104,-2.651524607335226,0.30304281293835444,-2.5453240871429443,4.219886465663574,-1.428678337727682,-0.5461323896991175,-0.10855419933795929,-0.11360620707273483,0.19299817085266113,0.08813576400279999,-0.2359611988067627,0.17251649498939514,-0.40832018852233887,-1.0300694704055786,0.9265116453170776,0.45072290301322937,-0.4626944363117218,0.24724894762039185
1749053028.4903586,-2.6517418066607874,0.30277995645489497,-2.544945001602173,4.22003094732251,-1.4291427771197718,-0.5458090941058558,-0.10860726237297058,-0.1134176254272461,0.19314099848270416,0.08936043828725815,-0.2354445457458496,0.17159907519817352,-0.4502759575843811,-1.0297167301177979,0.9664556980133057,0.471015989780426,-0.4997212290763855,0.2376043200492859
1749053028.4903998,-2.651968542729513,0.3025452333637695,-2.5445621013641357,4.22021405279126,-1.4296281973468226,-0.5454815069781702,-0.11080045998096466,-0.11696939170360565,0.19415831565856934,0.08910157531499863,-0.2381574809551239,0.17146463692188263,-0.42379963397979736,-1.0046495199203491,0.9773674011230469,0.4734789729118347,-0.4783235192298889,0.27449774742126465
1749053028.490439,-2.6522236506091517,0.30232970296826167,-2.544128894805908,4.22038905202832,-1.4300897757159632,-0.5451367537127894,-0.11311150342226028,-0.11781861633062363,0.19466222822666168,0.08990079909563065,-0.24063576757907867,0.1715170294046402,-0.43814992904663086,-1.0290395021438599,0.9868457317352295,0.47945863008499146,-0.4619298577308655,0.2732505202293396
1749053028.4904833,-2.652435843144552,0.3020501571842651,-2.5437774658203125,4.2206150728413085,-1.4306300322162073,-0.5448067823993128,-0.11426891386508942,-0.11880859732627869,0.19539706408977509,0.09295690804719925,-0.23906493186950684,0.17345543205738068,-0.4088519811630249,-0.9852414727210999,0.9672563076019287,0.46188467741012573,-0.4722360372543335,0.24919694662094116
1749053028.4905236,-2.6526528040515345,0.3018337923237304,-2.543405532836914,4.220790072078369,-1.4311407248126429,-0.5444663206683558,-0.11472095549106598,-0.11873675882816315,0.1937635838985443,0.0957845002412796,-0.24251535534858704,0.1776878833770752,-0.3857504427433014,-1.0241825580596924,1.008400797843933,0.4288884997367859,-0.4743173122406006,0.2819351851940155
1749053028.4905617,-2.6529153029071253,0.30159084379162593,-2.5430140495300293,4.220984621638916,-1.4316347281085413,-0.5441282431231897,-0.11507198959589005,-0.12007889896631241,0.1945980042219162,0.09431196004152298,-0.2405727654695511,0.1797473281621933,-0.4032115340232849,-1.0305087566375732,1.0303740501403809,0.4519602656364441,-0.4962254762649536,0.2579151690006256
1749053028.4905999,-2.653104607258932,0.30131690084423823,-2.5425848960876465,4.221179648036621,-1.4320548216449183,-0.5437563101397913,-0.11406492441892624,-0.12099481374025345,0.19699229300022125,0.0939645767211914,-0.24513301253318787,0.1804526448249817,-0.4228852093219757,-1.0363945960998535,1.009686827659607,0.455922394990921,-0.4830589294433594,0.2757302224636078
1749053028.490638,-2.653320376073019,0.30108778058972163,-2.5421864986419678,4.221382303828857,-1.4325860182391565,-0.5434368292437952,-0.1164473295211792,-0.12004397064447403,0.19832941889762878,0.09483267366886139,-0.24914410710334778,0.1859477460384369,-0.36922818422317505,-1.009879231452942,1.0131868124008179,0.46523940563201904,-0.4866776466369629,0.25407716631889343
1749053028.4906752,-2.653599564229147,0.30084793149914546,-2.5417795181274414,4.2215468126484375,-1.4331067244159144,-0.5430424849139612,-0.11506520956754684,-0.12172253429889679,0.19966845214366913,0.09844550490379333,-0.2542787194252014,0.1858721226453781,-0.457682728767395,-1.0329350233078003,1.0448732376098633,0.4355188012123108,-0.4354042708873749,0.28394177556037903
1749053028.4907126,-2.6538503805743616,0.3005729156681518,-2.541358232498169,4.221776171321533,-1.4336541334735315,-0.542671028767721,-0.11682509630918503,-0.12478571385145187,0.20205116271972656,0.09789075702428818,-0.2547134459018707,0.1886204034090042,-0.4080307185649872,-1.0192158222198486,1.0470927953720093,0.43715745210647583,-0.4505358338356018,0.28312423825263977
1749053028.4907494,-2.6541019121753138,0.3003418880650024,-2.5409696102142334,4.221944494838379,-1.4341414610492151,-0.5422843138324183,-0.11853571981191635,-0.1219717338681221,0.2053343653678894,0.09609822928905487,-0.2554035186767578,0.190201535820961,-0.4113646447658539,-1.0752508640289307,1.036619782447815,0.4392111897468567,-0.42969226837158203,0.2664805054664612
1749053028.4907866,-2.6543176809894007,0.3000742632099609,-2.5405290126800537,4.22218577444043,-1.4346612135516565,-0.5419047514544886,-0.12014347314834595,-0.12367542833089828,0.20663267374038696,0.09705041348934174,-0.25456729531288147,0.1910603791475296,-0.3804645538330078,-1.006340742111206,1.0119227170944214,0.43653932213783264,-0.4331769347190857,0.2560212314128876
1749053028.490824,-2.654576603566305,0.29976455747570796,-2.5401411056518555,4.222354097957275,-1.4351556936847132,-0.5414980093585413,-0.11926791071891785,-0.12604941427707672,0.20771770179271698,0.09788390249013901,-0.25808843970298767,0.1938360035419464,-0.3672461211681366,-1.0285985469818115,1.0069512128829956,0.4356244206428528,-0.4204089045524597,0.24739015102386475
1749053028.490865,-2.654809300099508,0.29960279046978755,-2.5397226810455322,4.222529574031494,-1.43569261232485,-0.5411022345172327,-0.1182100847363472,-0.12688516080379486,0.20865990221500397,0.09649002552032471,-0.25870344042778015,0.19290505349636078,-0.41598814725875854,-1.0027146339416504,1.0068182945251465,0.4214622378349304,-0.4182528257369995,0.23398832976818085
1749053028.4909034,-2.6550331751452845,0.2993277746387939,-2.5392966270446777,4.222720308894775,-1.4362776915179651,-0.5407159964190882,-0.12143121659755707,-0.12726254761219025,0.21005049347877502,0.09639087319374084,-0.26076605916023254,0.19279682636260986,-0.3664325773715973,-1.0195902585983276,0.9979874491691589,0.44622576236724854,-0.4086098372936249,0.2523762583732605
1749053028.4909406,-2.655316177998678,0.2990913826176147,-2.538865566253662,4.222883864040039,-1.4367769400226038,-0.5403364340411585,-0.12008589506149292,-0.12795469164848328,0.20916344225406647,0.09496935456991196,-0.2600161135196686,0.19504554569721222,-0.4414476752281189,-1.0181739330291748,0.99586021900177,0.46553322672843933,-0.4298784136772156,0.22787073254585266
1749053028.490978,-2.655316177998678,0.2990913826176147,-2.538865566253662,4.222883864040039,-1.4367769400226038,-0.5403364340411585,-0.12008589506149292,-0.12795469164848328,0.20916344225406647,0.09496935456991196,-0.2600161135196686,0.19504554569721222,-0.4414476752281189,-1.0181739330291748,0.99586021900177,0.46553322672843933,-0.4298784136772156,0.22787073254585266
1749053028.4910183,-2.6558004061328333,0.2985690075108032,-2.5380284786224365,4.223289175624512,-1.437878433858053,-0.5395901838885706,-0.12249121069908142,-0.12922540307044983,0.21681977808475494,0.09898100793361664,-0.2605815529823303,0.19444139301776886,-0.4071844220161438,-1.0546274185180664,0.9977251291275024,0.4806163012981415,-0.42010536789894104,0.2833566665649414
1749053028.4910572,-2.6560662428485315,0.298265739078186,-2.537616729736328,4.223472281093262,-1.4384034315692347,-0.5392192045794886,-0.12303733825683594,-0.12683671712875366,0.21682429313659668,0.096844881772995,-0.25788232684135437,0.19524531066417694,-0.43018773198127747,-1.0382882356643677,0.9902661442756653,0.4975470304489136,-0.4340744912624359,0.2639983296394348
1749053028.4910958,-2.6563037077533167,0.2980533081242065,-2.537158489227295,4.223650141353271,-1.4388940970050257,-0.5388010183917444,-0.12360496073961258,-0.13083545863628387,0.21551068127155304,0.09734265506267548,-0.261052668094635,0.19666564464569092,-0.42250892519950867,-1.0320768356323242,1.0266687870025635,0.5086701512336731,-0.4365941286087036,0.28278639912605286
1749053028.4911332,-2.6565402189837855,0.29775087415661616,-2.536700487136841,4.223871870631836,-1.4394176642047327,-0.5384081045733851,-0.12546540796756744,-0.12899796664714813,0.21533255279064178,0.09800537675619125,-0.2628323435783386,0.19804523885250092,-0.4263449013233185,-1.086814284324646,1.040306568145752,0.5312395095825195,-0.43274229764938354,0.2895960509777069
1749053028.4913979,-2.6567865053759974,0.29749826967205806,-2.536261558532715,4.224067850703857,-1.4399388472186487,-0.5380094687091272,-0.1276557445526123,-0.13249826431274414,0.21817129850387573,0.10291757434606552,-0.2648598253726959,0.19905492663383484,-0.4135967791080475,-1.0135620832443237,1.0545600652694702,0.5132277011871338,-0.4672679901123047,0.30025121569633484
1749053028.4934003,-2.657057587300436,0.29721586286511226,-2.5358035564422607,4.224292917842529,-1.440460507069723,-0.5376337210284632,-0.1277003139257431,-0.13370226323604584,0.2208767533302307,0.10470931977033615,-0.26691097021102905,0.20120787620544434,-0.4261298179626465,-1.0158438682556152,1.0242067575454712,0.51638263463974,-0.4562147557735443,0.2826521396636963
1749053028.538318,-2.657301966344015,0.29695217191662593,-2.5353641510009766,4.224476976985596,-1.4410436789142054,-0.5371831099139612,-0.1278725415468216,-0.13527706265449524,0.22212904691696167,0.10485923290252686,-0.26673611998558044,0.2049199491739273,-0.4218011498451233,-0.9893043637275696,1.0034377574920654,0.5058263540267944,-0.4599858522415161,0.24209842085838318
1749053028.538369,-2.657551113759176,0.2967161375233154,-2.5349180698394775,4.22472254812207,-1.4416597525226038,-0.5367806593524378,-0.13164760172367096,-0.13545426726341248,0.22437059879302979,0.10794646292924881,-0.26857250928878784,0.2036994844675064,-0.385911226272583,-1.0042221546173096,1.0318074226379395,0.503861665725708,-0.4617083966732025,0.2704118490219116
1749053028.5384257,-2.657809321080343,0.29643623411145015,-2.5344793796539307,4.2249647813984375,-1.442192856465475,-0.5363653341876429,-0.12842068076133728,-0.1367305964231491,0.22587208449840546,0.11060456186532974,-0.27376145124435425,0.20761308073997498,-0.4386053681373596,-1.0107622146606445,1.0111206769943237,0.4823215901851654,-0.46148747205734253,0.2536041736602783
1749053028.5384672,-2.658058230076925,0.2961621719547729,-2.534024715423584,4.225172682399414,-1.442716423665182,-0.5359771887408655,-0.12897443771362305,-0.13291649520397186,0.22417379915714264,0.11127784103155136,-0.2778829336166382,0.20686650276184082,-0.40196335315704346,-1.0508227348327637,1.0300523042678833,0.4791325032711029,-0.42802226543426514,0.2685185372829437
1749053028.538506,-2.658360544835226,0.29587821542706294,-2.533538341522217,4.225387735957764,-1.443268124257223,-0.5355389753924769,-0.13078324496746063,-0.13627828657627106,0.22329886257648468,0.11144094169139862,-0.28425610065460205,0.20773139595985413,-0.4227654039859772,-1.0043054819107056,1.0447287559509277,0.45346471667289734,-0.3738146424293518,0.2645832300186157
1749053028.5385437,-2.658705774937765,0.2955917555042724,-2.53309965133667,4.225606127376221,-1.4438703695880335,-0.5351036230670374,-0.13121551275253296,-0.13611240684986115,0.2268487960100174,0.10963313281536102,-0.28464534878730774,0.2076868712902069,-0.43306800723075867,-1.0761796236038208,1.0564124584197998,0.4766029119491577,-0.38851630687713623,0.28375935554504395
1749053028.5385864,-2.65891939798464,0.2953592973896484,-2.5326344966888428,4.225832625026367,-1.4443863073932093,-0.5346921125995081,-0.13311812281608582,-0.1354256123304367,0.2309482991695404,0.10837165266275406,-0.2798766791820526,0.20962175726890564,-0.42360979318618774,-1.0818417072296143,1.0231574773788452,0.47857823967933655,-0.3884759247303009,0.2715562582015991
1749053028.538625,-2.6591602007495325,0.2950245577045898,-2.532179117202759,4.226059599513672,-1.4449346701251429,-0.5342653433429163,-0.1369415819644928,-0.136855348944664,0.23271730542182922,0.10631929337978363,-0.27843812108039856,0.20607851445674896,-0.35494765639305115,-1.0998347997665405,1.0282166004180908,0.5156835913658142,-0.4386897683143616,0.2679343819618225
1749053028.5386636,-2.6594515482531946,0.2947615820118408,-2.531675100326538,4.22626177846875,-1.4455111662494105,-0.5338895956622522,-0.13496044278144836,-0.13808530569076538,0.23448850214481354,0.10740261524915695,-0.28082412481307983,0.2087198793888092,-0.39767545461654663,-1.1025798320770264,1.0640932321548462,0.5166012048721313,-0.4847080409526825,0.3305072784423828
1749053028.5387015,-2.659739081059591,0.2944546180912475,-2.5312464237213135,4.226446791286133,-1.4460957686053675,-0.533454720173971,-0.13556043803691864,-0.14042888581752777,0.23954693973064423,0.10815834999084473,-0.28577905893325806,0.20854957401752472,-0.40081724524497986,-1.0489835739135742,1.0006771087646484,0.5155525207519531,-0.44404810667037964,0.31846266984939575
1749053028.538743,-2.659982506428854,0.29423288881268306,-2.530724287033081,4.2266890245625,-1.4466875235186976,-0.5330475012408655,-0.13691158592700958,-0.1445341259241104,0.2401048243045807,0.10943279415369034,-0.29188618063926697,0.21084611117839813,-0.3924807012081146,-1.0327781438827515,0.9772595167160034,0.5240001678466797,-0.4284113645553589,0.32646214962005615
1749053028.5387816,-2.6603060404406946,0.2938365179249267,-2.530261754989624,4.226891680354736,-1.4472253958331507,-0.5325973669635218,-0.13800807297229767,-0.14357498288154602,0.2401299774646759,0.10776820033788681,-0.29385656118392944,0.21456611156463623,-0.4073270857334137,-1.0773544311523438,0.9995924830436707,0.5585595369338989,-0.44159772992134094,0.34204816818237305
1749053028.5388193,-2.6605384985553187,0.29359178125347896,-2.5297276973724365,4.227118178004883,-1.447782341633932,-0.5322044531451624,-0.13876120746135712,-0.14293891191482544,0.24044546484947205,0.11074855178594589,-0.2930530905723572,0.21705904603004456,-0.40561985969543457,-1.0590345859527588,0.9879406690597534,0.5368375182151794,-0.4206736087799072,0.31410056352615356
1749053028.538857,-2.660888735448019,0.29330842077221675,-2.5292809009552,4.227364225978516,-1.4483888784991663,-0.5317423979388636,-0.13902567327022552,-0.14424556493759155,0.24080434441566467,0.112503781914711,-0.29241323471069336,0.2192678153514862,-0.4127108156681061,-1.0805314779281616,1.0600175857543945,0.5596548914909363,-0.47978588938713074,0.34558916091918945
1749053028.5388982,-2.6611209551440638,0.2929774957844238,-2.528789520263672,4.227630777949951,-1.4489834944354456,-0.5312960783587855,-0.1395958960056305,-0.14518365263938904,0.2406156212091446,0.11517400294542313,-0.29589083790779114,0.22259585559368134,-0.39445167779922485,-1.0763074159622192,1.030727505683899,0.5526570081710815,-0.5106396079063416,0.31649336218833923
1749053028.5389361,-2.661405150090353,0.2927095133015136,-2.5283122062683105,4.227838678950928,-1.4495819250689905,-0.5308716932879847,-0.13948820531368256,-0.145082488656044,0.24262942373752594,0.12098558992147446,-0.2989940643310547,0.22415822744369507,-0.45487022399902344,-1.0735923051834106,1.0572201013565063,0.5184914469718933,-0.4810326099395752,0.3179752826690674
1749053028.5389738,-2.661689345036642,0.2924530941196899,-2.5278141498565674,4.228058500880859,-1.4501951376544397,-0.5303891340838831,-0.14066673815250397,-0.14552588760852814,0.2451138198375702,0.11970414221286774,-0.30868905782699585,0.22679145634174347,-0.43531376123428345,-1.0865249633789062,1.0290921926498413,0.5006429553031921,-0.44088488817214966,0.29938605427742004
1749053028.5390122,-2.66201097169985,0.2921467262455444,-2.5273308753967285,4.228309794063232,-1.4508054892169397,-0.5299423376666468,-0.14093425869941711,-0.14673195779323578,0.24685038626194,0.11808476597070694,-0.3112815022468567,0.22531075775623322,-0.4293862581253052,-1.0768507719039917,0.9929149746894836,0.4981573522090912,-0.4079715609550476,0.29094821214675903
1749053028.539053,-2.662252728139059,0.2918162780949096,-2.526825189590454,4.228579207057617,-1.4513958136187952,-0.5294998327838343,-0.1443154662847519,-0.15230844914913177,0.2470533847808838,0.12068402022123337,-0.309520423412323,0.22898535430431366,-0.38668763637542725,-1.0432695150375366,1.0518969297409058,0.5028548836708069,-0.4518149197101593,0.31085705757141113
1749053028.539091,-2.662550989781515,0.2915589052387695,-2.526365280151367,4.228798552150391,-1.452082935963766,-0.5290721098529261,-0.14310170710086823,-0.15077543258666992,0.25099772214889526,0.12199068814516068,-0.302583247423172,0.22970366477966309,-0.39631325006484985,-1.0582565069198608,0.9912331104278564,0.46838200092315674,-0.4859001338481903,0.3082568347454071
1749053028.5391288,-2.6628387610064905,0.2912136751362304,-2.5258636474609375,4.229088945979736,-1.4526451269732874,-0.5285576025592249,-0.1440715193748474,-0.1500258892774582,0.2506939470767975,0.1172448992729187,-0.30532950162887573,0.23104144632816315,-0.41138431429862976,-1.0848313570022583,0.9799445867538452,0.48840874433517456,-0.4788597524166107,0.32173943519592285
1749053028.5391672,-2.6631584803210657,0.2909654813953857,-2.5253686904907227,4.229343577022217,-1.4532964865313929,-0.5281260649310511,-0.14380213618278503,-0.15228086709976196,0.2513812482357025,0.1170680820941925,-0.3098190426826477,0.23086018860340118,-0.43693429231643677,-1.0658588409423828,1.0004948377609253,0.5099881887435913,-0.47032785415649414,0.29899805784225464
1749053028.5393791,-2.663408104573385,0.2906341987797241,-2.524885416030884,4.229516192073486,-1.4539607206927698,-0.5276311079608362,-0.14345812797546387,-0.1527898758649826,0.2541833519935608,0.1168939396739006,-0.31756576895713806,0.23420780897140503,-0.41917556524276733,-1.0507042407989502,1.0072219371795654,0.5088979005813599,-0.4504937529563904,0.28544697165489197
1749053028.5413637,-2.6637254397021692,0.2902887302586059,-2.5243449211120605,4.229805155391357,-1.4545591513263147,-0.5272210280047815,-0.1477997899055481,-0.1520622968673706,0.25885868072509766,0.11851254105567932,-0.32087764143943787,0.23121128976345062,-0.3843528926372528,-1.0739930868148804,0.9716611504554749,0.4938080608844757,-0.40578025579452515,0.2917274534702301
1749053028.5822804,-2.6640408674823206,0.29001180707897944,-2.523846387863159,4.230014963740967,-1.4551566282855433,-0.526707951222555,-0.14519308507442474,-0.15425249934196472,0.25976797938346863,0.11629750579595566,-0.3181946873664856,0.23320697247982025,-0.4120819866657257,-1.1004294157028198,0.9527918100357056,0.527166485786438,-0.40436723828315735,0.30142349004745483
1749053028.5823262,-2.6642709414111536,0.28972475110974116,-2.523343563079834,4.230241938228271,-1.4558046499835413,-0.5262721220599573,-0.14719000458717346,-0.1512947976589203,0.25921112298965454,0.12013792991638184,-0.3147602379322052,0.23214091360569,-0.41705697774887085,-1.1279349327087402,0.9524421095848083,0.5384928584098816,-0.4616498351097107,0.31077978014945984
1749053028.5823672,-2.664621178303854,0.2893976408192138,-2.5228140354156494,4.230446024531982,-1.4564631620990198,-0.5257895628558558,-0.14987680315971375,-0.1547432690858841,0.2578177750110626,0.11797289550304413,-0.31451180577278137,0.2342381626367569,-0.4059372544288635,-1.1062183380126953,0.9822990894317627,0.5321732759475708,-0.4874087870121002,0.3269070088863373
1749053028.5824058,-2.6649134794818323,0.28910545885052485,-2.522287368774414,4.230690165156982,-1.457062069569723,-0.5252946058856409,-0.14929108321666718,-0.15859970450401306,0.257406622171402,0.11763419955968857,-0.3197864592075348,0.2371031939983368,-0.3967417776584625,-1.073574423789978,1.0159987211227417,0.5381009578704834,-0.45995277166366577,0.3154876232147217
1749053028.5824437,-2.665231529866354,0.2887675005146484,-2.5217695236206055,4.230943842525146,-1.4577258268939417,-0.5248163382159632,-0.14994987845420837,-0.15982605516910553,0.25737401843070984,0.12102922797203064,-0.32364681363105774,0.24023380875587463,-0.42402246594429016,-1.0334570407867432,1.0280301570892334,0.5465410351753235,-0.4630882740020752,0.2927044928073883
1749053028.582482,-2.665480438862936,0.28847138463940425,-2.5212740898132324,4.231210394496582,-1.4582980314837855,-0.5243147055255335,-0.15202049911022186,-0.15828371047973633,0.25941139459609985,0.12536628544330597,-0.3248119652271271,0.24082916975021362,-0.3924892544746399,-1.0669476985931396,1.0278602838516235,0.5271463394165039,-0.44185882806777954,0.28902700543403625
1749053028.582523,-2.665795628224508,0.2881532150455932,-2.520759344100952,4.231457396144531,-1.458942715321676,-0.5238030592547815,-0.1520644873380661,-0.15916845202445984,0.26283884048461914,0.1247849240899086,-0.32136270403862,0.23919430375099182,-0.3989750146865845,-1.046966552734375,1.03286874294281,0.5074574947357178,-0.46276968717575073,0.27978235483169556
1749053028.5825613,-2.666072193776266,0.28782610475506587,-2.520249366760254,4.231735869044922,-1.4596365133868616,-0.5233190695392054,-0.15331117808818817,-0.1622125655412674,0.26759073138237,0.12850899994373322,-0.3231595456600189,0.23858273029327393,-0.39651817083358765,-1.11439847946167,1.0423617362976074,0.5470079779624939,-0.5241557359695435,0.30775508284568787
1749053028.5825994,-2.6663995424853724,0.28748898088421626,-2.519731044769287,4.23199908315625,-1.4603326956378382,-0.5228388945208948,-0.15431705117225647,-0.16029320657253265,0.2689770460128784,0.13095404207706451,-0.3293783664703369,0.2365427315235138,-0.43941983580589294,-1.0686774253845215,0.9613728523254395,0.49120965600013733,-0.49717506766319275,0.30108964443206787
1749053028.5826375,-2.666640583668844,0.28718118249859614,-2.5191612243652344,4.232248945827148,-1.460931126271383,-0.5223525206195276,-0.153237447142601,-0.16040214896202087,0.26603731513023376,0.13035613298416138,-0.3336012065410614,0.24041540920734406,-0.43068087100982666,-1.0941882133483887,0.9955505728721619,0.4798608124256134,-0.48021918535232544,0.3047065734863281
1749053028.5826755,-2.6669867674456995,0.2868732649036865,-2.5186309814453125,4.232499762172363,-1.4616273085223597,-0.5219205061541956,-0.15587614476680756,-0.16172394156455994,0.26579028367996216,0.12723089754581451,-0.3353901505470276,0.24037906527519226,-0.42475658655166626,-1.1388825178146362,1.0800867080688477,0.4987059235572815,-0.46377381682395935,0.32975226640701294
1749053028.5827134,-2.6672986189471644,0.2865416246601562,-2.518080711364746,4.232750578517578,-1.4623306433307093,-0.5213864485370081,-0.16018879413604736,-0.16489368677139282,0.2691572904586792,0.12360509485006332,-0.33401021361351013,0.24506151676177979,-0.3970833122730255,-1.082794427871704,1.0321128368377686,0.5332881212234497,-0.4586772322654724,0.31038185954093933
1749053028.5827513,-2.66760498682131,0.2861754137226562,-2.517534017562866,4.232982321376465,-1.4630005995379847,-0.5209420363055628,-0.15733057260513306,-0.1664448380470276,0.27034375071525574,0.12125615030527115,-0.33603042364120483,0.24812796711921692,-0.40331465005874634,-1.058655858039856,1.028434157371521,0.5427070260047913,-0.4493018388748169,0.2856060564517975
1749053028.58279,-2.6679561773883265,0.2858753639408569,-2.51700758934021,4.2332398134418945,-1.4636848608600062,-0.520369831715719,-0.15710221230983734,-0.16772855818271637,0.27262407541275024,0.1214662417769432,-0.34083032608032227,0.24682652950286865,-0.418794184923172,-1.0752769708633423,1.0063183307647705,0.5599928498268127,-0.47843533754348755,0.2744379937648773
1749053028.5828278,-2.6681819597827356,0.2855054575153808,-2.5164408683776855,4.233498259181641,-1.4643877188311976,-0.519904915486471,-0.15860342979431152,-0.16673102974891663,0.2725541591644287,0.12154605239629745,-0.3431742489337921,0.24961239099502563,-0.42233747243881226,-1.0620163679122925,1.0071431398391724,0.595189094543457,-0.45004981756210327,0.26549798250198364
1749053028.5828657,-2.6685593763934534,0.2852012354084472,-2.515886068344116,4.233738108272217,-1.4650185743915003,-0.5193741957293909,-0.1601511687040329,-0.16695955395698547,0.2747006416320801,0.1241483986377716,-0.34292399883270264,0.24744053184986115,-0.4536674916744232,-1.0564628839492798,1.028910517692566,0.5753642320632935,-0.39658206701278687,0.2862147390842438
1749053028.5829036,-2.6688759962665003,0.2848350244709472,-2.5153512954711914,4.234000845546387,-1.4657023588763636,-0.5188949743853968,-0.16011874377727509,-0.16572272777557373,0.2761450409889221,0.12787941098213196,-0.34048911929130554,0.24818484485149384,-0.44254618883132935,-1.0605076551437378,1.0298610925674438,0.5470291376113892,-0.4233546853065491,0.29993945360183716
1749053028.5829425,-2.669163529072897,0.2845231729694824,-2.5147578716278076,4.234278364772461,-1.4664142767535608,-0.5183919111834925,-0.16075821220874786,-0.16617929935455322,0.2776206135749817,0.1317022144794464,-0.34048357605934143,0.250449538230896,-0.4703565537929535,-1.0860040187835693,1.0068482160568237,0.5509112477302551,-0.4575278162956238,0.3027053773403168
1749053028.5829804,-2.669511143361227,0.2841961818882446,-2.514219284057617,4.2345496851154785,-1.4671343008624476,-0.5178573767291468,-0.16313990950584412,-0.16907311975955963,0.2792612910270691,0.13391122221946716,-0.3417956531047821,0.2552891671657562,-0.4413319230079651,-1.0970616340637207,1.0418540239334106,0.5480120778083801,-0.4845696687698364,0.26305264234542847
1749053028.5830183,-2.6698034445392054,0.28384022294964595,-2.5136501789093018,4.234839602107666,-1.467823330556051,-0.5173652807818812,-0.16577820479869843,-0.16884374618530273,0.2806362509727478,0.13841919600963593,-0.3465081453323364,0.25576114654541016,-0.43329086899757385,-1.106830358505249,1.0083067417144775,0.4947769343852997,-0.45840519666671753,0.23802050948143005
1749053028.5833664,-2.670170609151022,0.2835087019154052,-2.5130701065063477,4.235118075008057,-1.4685404936419886,-0.5168741385089319,-0.16793616116046906,-0.1724664270877838,0.28254568576812744,0.13731694221496582,-0.3485490679740906,0.2548466622829437,-0.4319489002227783,-1.0384279489517212,1.0088722705841064,0.5120912194252014,-0.4062954783439636,0.24535717070102692
1749053028.585353,-2.670526091252462,0.28313152372326655,-2.5125436782836914,4.235357924098633,-1.4692609945880335,-0.5163171927081507,-0.16743721067905426,-0.17034734785556793,0.28238001465797424,0.13705626130104065,-0.34612977504730225,0.253397136926651,-0.43833306431770325,-1.0707664489746094,1.0294551849365234,0.4976350665092468,-0.4158351421356201,0.2792014479637146
1749053028.6262956,-2.6708057562457483,0.2827916580387573,-2.5119898319244385,4.235675020808838,-1.4699667135821741,-0.515841309224264,-0.1670333445072174,-0.17112815380096436,0.28485530614852905,0.1402560919523239,-0.34640437364578247,0.248235285282135,-0.4223930239677429,-1.0902125835418701,1.0256837606430054,0.4655337333679199,-0.4270303249359131,0.2977813482284546
1749053028.6263554,-2.6711798349963587,0.2824341493793945,-2.5114200115203857,4.235949679011963,-1.4706814924823206,-0.5153411070453089,-0.16651704907417297,-0.17152896523475647,0.2872050702571869,0.13493192195892334,-0.35101959109306335,0.2519223988056183,-0.42339086532592773,-1.0738842487335205,1.0214283466339111,0.48511171340942383,-0.4281105101108551,0.31720685958862305
1749053028.6264002,-2.671492878590719,0.28212468206372066,-2.510845422744751,4.2362305360981445,-1.4713791052447718,-0.514869515095846,-0.1667921096086502,-0.17147879302501678,0.29000431299209595,0.1341840624809265,-0.3545743227005005,0.2538464665412903,-0.40809741616249084,-1.092902421951294,0.9993894696235657,0.4863092601299286,-0.40067699551582336,0.32865065336227417
1749053028.6264405,-2.671828095112936,0.2817242580601196,-2.5102405548095703,4.2364546495625,-1.4721115271197718,-0.514284912739889,-0.16968075931072235,-0.1710798442363739,0.29271459579467773,0.1325296014547348,-0.3560871183872223,0.2590121924877167,-0.413479208946228,-1.0849285125732422,0.9875311851501465,0.5084137916564941,-0.3812260627746582,0.3083305358886719
1749053028.6264803,-2.6721554438220423,0.2813797432133178,-2.5096607208251953,4.236739798183105,-1.4727848211871546,-0.5137646834002894,-0.1679939180612564,-0.1732952743768692,0.2941766083240509,0.13261361420154572,-0.3519725501537323,0.2635487914085388,-0.43772217631340027,-1.0629537105560303,0.9666295051574707,0.5179269313812256,-0.39948418736457825,0.30356699228286743
1749053028.6265187,-2.672506634389059,0.28104857980694575,-2.5090830326080322,4.237002058620117,-1.4734810034381312,-0.5132659117328089,-0.1692364364862442,-0.17675387859344482,0.2914920151233673,0.13304035365581512,-0.3487946093082428,0.2640829086303711,-0.4670078158378601,-1.0796009302139282,1.029115080833435,0.5350324511528015,-0.45657795667648315,0.28336653113365173
1749053028.6265633,-2.672861162816183,0.28071312486614985,-2.508495807647705,4.237260504359863,-1.4741938749896448,-0.5127399603473108,-0.17053616046905518,-0.1761685609817505,0.29269084334373474,0.13577444851398468,-0.3503834307193756,0.2665051519870758,-0.4439128041267395,-1.095147967338562,1.029625654220581,0.5405656695365906,-0.49852654337882996,0.2673874497413635
1749053028.6266043,-2.6732075850116175,0.2803228336521606,-2.507894515991211,4.237526102656982,-1.4749019781695765,-0.5122240225421351,-0.17100955545902252,-0.17994067072868347,0.29376420378685,0.13854452967643738,-0.35882681608200073,0.26607784628868103,-0.4652057886123657,-1.0844045877456665,1.0142117738723755,0.525360107421875,-0.44516104459762573,0.29675522446632385
1749053028.6266427,-2.673478905354635,0.2800031143375854,-2.5072922706604004,4.237796946162842,-1.4756072203265589,-0.5116894880877894,-0.17175114154815674,-0.18066991865634918,0.2900482714176178,0.1375887393951416,-0.36241546273231506,0.2693898677825928,-0.4387871026992798,-1.0525798797607422,1.0586566925048828,0.5218759179115295,-0.40704330801963806,0.28920063376426697
