nimar13/UR3e_dataset_trayectorias/trayectorias_ejecutadas/trapezoidal/trayectoria_208_result.csv
timestamp,q1,q2,q3,q4,q5,q6,qd1,qd2,qd3,qd4,qd5,qd6,tau1,tau2,tau3,tau4,tau5,tau6
1749052264.0862992,-0.9698260466205042,-1.1966582101634522,-1.610832929611206,4.261467619533203,-1.0539329687701624,3.268449306488037,-0.000442247575847432,0.00021400029072538018,-0.009158470667898655,0.01467996183782816,-0.00904789101332426,0.011121761985123158,-0.24890020489692688,0.630877673625946,0.8833727836608887,0.7208617925643921,-0.5144272446632385,0.15603573620319366
1749052264.0863526,-0.9698260466205042,-1.1966582101634522,-1.610832929611206,4.261467619533203,-1.0539329687701624,3.268449306488037,-0.000442247575847432,0.00021400029072538018,-0.009158470667898655,0.01467996183782816,-0.00904789101332426,0.011121761985123158,-0.24890020489692688,0.630877673625946,0.8833727836608887,0.7208617925643921,-0.5144272446632385,0.15603573620319366
1749052264.086396,-0.9698575178729456,-1.1966666740230103,-1.6108843088150024,4.2615343767353515,-1.0539329687701624,3.2684550285339355,-0.000354969990439713,0.00019541318761184812,-0.006374702788889408,0.011911993846297264,-0.005193073768168688,0.0077211009338498116,-0.21341046690940857,0.6115580201148987,0.9119458198547363,0.7226755023002625,-0.471859872341156,0.12950201332569122
1749052264.086435,-0.9698765913592737,-1.1966205400279541,-1.6108770370483398,4.261542482967041,-1.0539658705340784,3.268451690673828,-0.00032311148243024945,0.00018728016584645957,-0.003458174644038081,0.01024816557765007,-0.003313931170850992,0.005236283876001835,-0.19904276728630066,0.6295577883720398,0.9173246622085571,0.6809538006782532,-0.46578240394592285,0.11138521134853363
1749052264.0864727,-0.9698260466205042,-1.1966772240451355,-1.6108806133270264,4.261523409480713,-1.053903881703512,3.268494129180908,-0.00029649058706127107,0.00017979711992666125,-0.0019398921867832541,0.007996352389454842,-0.002276218496263027,0.0032734894193708897,-0.22526559233665466,0.6307886242866516,0.9262903928756714,0.6603108644485474,-0.4497130513191223,0.12484882771968842
1749052264.0865104,-0.9698179403888147,-1.1966205400279541,-1.6108925342559814,4.26151625692334,-1.0539119879352015,3.268482208251953,-0.00020616040274035186,0.00017288890376221389,-0.0013418284943327308,0.004758571740239859,-0.0016754044918343425,0.0021891756914556026,-0.1827189028263092,0.6302161812782288,0.9454639554023743,0.6470805406570435,-0.4333611726760864,0.10989631712436676
1749052264.0865479,-0.9698408285724085,-1.1966358882239838,-1.610884189605713,4.261528177852295,-1.053922478352682,3.268463611602783,-0.0001909213315229863,0.00016649205645080656,-0.0009338898817077279,0.0025124982930719852,-0.001317617017775774,0.0016145296394824982,-0.20539239048957825,0.6229090094566345,0.9532499313354492,0.6481000185012817,-0.4254673719406128,0.11650730669498444
1749052264.0865853,-0.9698408285724085,-1.1966358882239838,-1.610884189605713,4.261528177852295,-1.053922478352682,3.268463611602783,-0.0001909213315229863,0.00016649205645080656,-0.0009338898817077279,0.0025124982930719852,-0.001317617017775774,0.0016145296394824982,-0.20539239048957825,0.6229090094566345,0.9532499313354492,0.6481000185012817,-0.4254673719406128,0.11650730669498444
1749052264.0866222,-0.9698408285724085,-1.1966358882239838,-1.610884189605713,4.261528177852295,-1.053922478352682,3.268463611602783,-0.0001909213315229863,0.00016649205645080656,-0.0009338898817077279,0.0025124982930719852,-0.001317617017775774,0.0016145296394824982,-0.20539239048957825,0.6229090094566345,0.9532499313354492,0.6481000185012817,-0.4254673719406128,0.11650730669498444
1749052264.0866601,-0.969848934804098,-1.1966740948012848,-1.6108651161193848,4.261531515712402,-1.053891960774557,3.2684974670410156,-0.00015749945305287838,0.00014985815505497158,0.0001850739645306021,-0.000563259469345212,-0.0002630510716699064,0.00021477870177477598,-0.1892179548740387,0.6158304810523987,0.9831140041351318,0.598027229309082,-0.38941067457199097,0.070081427693367
1749052264.086697,-0.9698370138751429,-1.1966653627208252,-1.610884189605713,4.261504335994385,-1.0538809935199183,3.268488883972168,-0.00014881740207783878,0.00014502853446174413,0.0003389415214769542,-0.0007078297203406692,-0.00022512565192300826,6.837746332166716e-05,-0.17530056834220886,0.6188724637031555,1.016489028930664,0.5880069136619568,-0.37648171186447144,0.06086267530918121
1749052264.086734,-0.9698613325702112,-1.1966632169536133,-1.6108686923980713,4.261551066035889,-1.0539119879352015,3.2684974670410156,-0.00014103928697295487,0.0001404999493388459,0.0004093075986020267,-0.0013338676653802395,-0.0001991908357013017,1.2083014553354587e-05,-0.16704979538917542,0.6332544684410095,1.0104340314865112,0.570405900478363,-0.3959168493747711,0.06250031292438507
1749052264.0867715,-0.9698765913592737,-1.1966668528369446,-1.6108651161193848,4.26151625692334,-1.0539315382586878,3.2684788703918457,-0.00013403987395577133,0.00013624629355035722,0.0004615158832166344,-0.0018281190423294902,-0.00011595828254939988,2.135195700248005e-06,-0.17473265528678894,0.6376168131828308,1.022557258605957,0.566599428653717,-0.37230366468429565,0.048690274357795715
1749052264.0868092,-0.9698575178729456,-1.196627454166748,-1.6108686923980713,4.2615391451069335,-1.0539072195636194,3.268463611602783,-0.00012770021567121148,0.00013224243593867868,0.0008335444726981223,-0.0024627712555229664,-8.607659401604906e-05,-0.0018592393025755882,-0.1719757616519928,0.6493579149246216,1.0340681076049805,0.5821405649185181,-0.34142690896987915,0.049345508217811584
1749052264.086846,-0.9698765913592737,-1.1966668230346222,-1.6108806133270264,4.261519594783447,-1.0539386908160608,3.2684974670410156,-0.00012192998838145286,0.00012846691242884845,0.0010399348102509975,-0.0032733012922108173,-2.2520111087942496e-05,-0.003305592108517885,-0.20795226097106934,0.6425548195838928,1.0376108884811401,0.5597431659698486,-0.3467339873313904,0.06353183090686798
1749052264.0868833,-0.969888989125387,-1.1966201824000855,-1.6108686923980713,4.261515303249023,-1.0538833777057093,3.2684669494628906,-0.00011666378850350156,0.00014197497512213886,0.001031415187753737,-0.004524652846157551,-3.979539997089887e-06,-0.0035701324231922626,-0.18265381455421448,0.6494528651237488,1.0488208532333374,0.5752209424972534,-0.35685408115386963,0.04510100185871124
1749052264.0869198,-0.9699233214007776,-1.1965996784022828,-1.6108686923980713,4.261487646693848,-1.0539072195636194,3.268451690673828,-0.00011183131573488936,0.00014575662498828024,0.0009633622830733657,-0.004589767195284367,-7.032264193185256e-07,-0.003282064339146018,-0.20219573378562927,0.6607207655906677,1.0594950914382935,0.5605455636978149,-0.3398234248161316,0.04796256124973297
1749052264.0869567,-0.9698722998248499,-1.1966150564006348,-1.6108375787734985,4.261471911067627,-1.0539057890521448,3.2684550285339355,-0.00010738155106082559,0.00016491475980728865,0.0009960804600268602,-0.004086287692189217,-1.2426748696725554e-07,-0.002862227614969015,-0.16018041968345642,0.6564347147941589,1.0548207759857178,0.5727356672286987,-0.3438883423805237,0.05259157717227936
1749052264.086994,-0.9698727766620081,-1.196658269768097,-1.6108686923980713,4.261491461391113,-1.0539105574237269,3.2684855461120605,-0.00010327590280212462,0.00016141343803610653,0.001058995141647756,-0.0032924001570791006,-2.195936943394372e-08,-0.0026362293865531683,-0.16621768474578857,0.64877849817276,1.0612982511520386,0.5434321761131287,-0.3391340672969818,0.05283541977405548
1749052264.0870311,-0.9698684851275843,-1.196627454166748,-1.6108603477478027,4.261487646693848,-1.0538762251483362,3.268470287322998,-9.947110811481252e-05,0.0001796468859538436,0.00107473018579185,-0.002665082924067974,-3.8804506274914274e-09,-0.0024256419856101274,-0.1765035092830658,0.6480055451393127,1.0736677646636963,0.5458509922027588,-0.32846933603286743,0.03714741766452789
1749052264.087401,-0.9698417822467249,-1.196627454166748,-1.6108375787734985,4.2614638048359375,-1.0538952986346644,3.268500804901123,-9.593489085091278e-05,0.00013931907596997917,0.0012086454080417752,-0.002262038178741932,-6.857163170614911e-10,-0.0024272631853818893,-0.16208460927009583,0.6558794379234314,1.0716397762298584,0.5486848950386047,-0.34166109561920166,0.04374440014362335
1749052264.0893748,-0.9698961416827601,-1.1966150564006348,-1.6108567714691162,4.261491461391113,-1.0539348761187952,3.268458366394043,-9.264455002266914e-05,0.00018471284420229495,0.0012663999805226922,-0.002068319357931614,-1.2117326586569277e-10,-0.002527277683839202,-0.1881692111492157,0.6664816737174988,1.0805186033248901,0.5254072546958923,-0.33499500155448914,0.030556336045265198
1749052264.130305,-0.9698613325702112,-1.1966394048980256,-1.6108603477478027,4.261459990138672,-1.0538986364947718,3.268442392349243,-8.957101817941293e-05,0.0013932206202298403,0.001476073288358748,-0.0018730323063209653,-2.141258871601881e-11,-0.002453269436955452,-0.15359438955783844,0.6622348427772522,1.0807034969329834,0.5456397533416748,-0.336175799369812,0.019745662808418274
1749052264.1303513,-0.9698417822467249,-1.1965994995883484,-1.6108293533325195,4.261459990138672,-1.0539262930499476,3.2684550285339355,-8.669370436109602e-05,0.0031610350124537945,0.0015366183361038566,-0.001679575419984758,-3.783828719100546e-12,-0.0023687328211963177,-0.16727089881896973,0.6399891972541809,1.0757725238800049,0.5442175269126892,-0.3243279755115509,0.03159870207309723
1749052264.1303985,-0.969848934804098,-1.1966624122909089,-1.6108640432357788,4.2614638048359375,-1.053891960774557,3.2684619426727295,-8.399784564971924e-05,0.00291557889431715,0.0014053857885301113,-0.001604190794751048,-6.68642279131465e-13,-0.0021251062862575054,-0.17875924706459045,0.6280532479286194,1.08202064037323,0.5432446599006653,-0.32816123962402344,0.022015884518623352
1749052264.1304433,-0.9698765913592737,-1.1965839725783844,-1.6108448505401611,4.261467619533203,-1.0539420286761683,3.2684619426727295,-8.146337495418265e-05,0.0021490573417395353,0.0013118472415953875,-0.0014837641501799226,-1.1815610881198146e-13,-0.0019292139913886786,-0.17784008383750916,0.6505245566368103,1.0932852029800415,0.5308283567428589,-0.33250123262405396,0.034342482686042786
1749052264.1304822,-0.9698222319232386,-1.1965957146934052,-1.6108603477478027,4.261444731349609,-1.0538952986346644,3.2684390544891357,-7.907625695224851e-05,0.0017145548481494188,0.00111906579695642,-0.0013068109983578324,-2.0879426524322495e-14,-0.0017885344568639994,-0.1840989887714386,0.6424990296363831,1.0759012699127197,0.560781717300415,-0.33638936281204224,0.03420962393283844
1749052264.1305206,-0.9698613325702112,-1.1965912145427247,-1.6108293533325195,4.2614638048359375,-1.0539024511920374,3.2684905529022217,-7.682741852477193e-05,0.0010732063092291355,0.0009056073031388223,-0.0011505966540426016,-3.689613684834583e-15,-0.0015949574299156666,-0.17725017666816711,0.6531736254692078,1.096851110458374,0.5216601490974426,-0.3283308744430542,0.030420497059822083
1749052264.1305578,-0.9698613325702112,-1.1966067415526886,-1.6108293533325195,4.2614709573933105,-1.0539105574237269,3.2684237957000732,-7.470173295587301e-05,0.0011888755252584815,0.0008929547620937228,-0.0010520105715841055,-6.519933408745122e-16,-0.0013873249990865588,-0.18254637718200684,0.6707615256309509,1.08949875831604,0.5323734879493713,-0.34030458331108093,0.02055664360523224
1749052264.1305964,-0.9698765913592737,-1.1966582399657746,-1.6108256578445435,4.2614638048359375,-1.0538881460772913,3.2684619426727295,-7.268959598150104e-05,0.0013303266605362296,0.0008841844392009079,-0.0009443886228837073,-1.1521406999513017e-16,-0.0011736097512766719,-0.20372959971427917,0.6791786551475525,1.0827277898788452,0.5323100686073303,-0.33241593837738037,0.025487199425697327
1749052264.1306362,-0.9698451201068323,-1.196607605820038,-1.6108448505401611,4.261451883906982,-1.0539315382586878,3.2684154510498047,-7.078487396938726e-05,0.0016517237527295947,0.0008426262647844851,-0.0009230090654455125,-2.035953538311058e-17,-0.0009529145318083465,-0.1702471673488617,0.6655856370925903,1.076188564300537,0.5521804094314575,-0.3180692791938782,0.03422679007053375
1749052264.1306734,-0.9698684851275843,-1.1965528291514893,-1.6108484268188477,4.261451883906982,-1.053903881703512,3.268442392349243,-6.897647108417004e-05,0.0023633516393601894,0.0007981305243447423,-0.0008099733968265355,-3.597743492141201e-18,-0.0009130661492235959,-0.2139025628566742,0.669797420501709,1.0827370882034302,0.5324398279190063,-0.3311440944671631,0.01727677881717682
1749052264.1307108,-0.9698689619647425,-1.196594850426056,-1.610832929611206,4.261448069209717,-1.0538952986346644,3.2684686183929443,-6.725753337377682e-05,0.0023036866914480925,0.0007212921627797186,-0.0006706281565129757,-6.357590246893751e-19,-0.0008938723476603627,-0.18854132294654846,0.6366360783576965,1.0829697847366333,0.5338367819786072,-0.32731133699417114,0.025438711047172546
1749052264.1307476,-0.9698851744281214,-1.1965911549380799,-1.6108484268188477,4.261451883906982,-1.0539105574237269,3.2684390544891357,-6.562353519257158e-05,0.002066177548840642,0.0006556808366440237,-0.0005801902152597904,-1.1234529265269113e-19,-0.0008914610370993614,-0.1667216718196869,0.6762502789497375,1.0703935623168945,0.5425559878349304,-0.32988694310188293,0.011366620659828186
1749052264.130784,-0.9698179403888147,-1.196575627928116,-1.6108412742614746,4.261482878322266,-1.053929630910055,3.2684683799743652,-6.406642933143303e-05,0.0017594997771084309,0.0006009474745951593,-0.0005129914497956634,-1.9852593195214087e-20,-0.0009620222263038158,-0.1430220901966095,0.6676691770553589,1.0755558013916016,0.5323443412780762,-0.33596163988113403,0.0032384246587753296
1749052264.1308205,-0.9698379675494593,-1.1965829592994233,-1.6108131408691406,4.2614709573933105,-1.0539262930499476,3.268458366394043,-6.258078792598099e-05,0.0015705222031101584,0.0005546158063225448,-0.0004909548442810774,-3.508161431232971e-21,-0.0011010722955688834,-0.13693749904632568,0.6800166964530945,1.0738444328308105,0.5550373196601868,-0.34022456407546997,-0.004103377461433411
1749052264.1308575,-0.9698837439166468,-1.1965604585460206,-1.6108484268188477,4.261455698604248,-1.053922478352682,3.2684340476989746,3.99452583224047e-05,0.0013495582388713956,0.0005148923373781145,-0.0004899327177554369,-6.1992885410105435e-22,-0.002355259843170643,-0.12731310725212097,0.6864153742790222,1.0625979900360107,0.550999104976654,-0.3328232169151306,-0.0018300265073776245
1749052264.1308944,-0.9698684851275843,-1.1965564352324982,-1.6108256578445435,4.261451883906982,-1.053903881703512,3.268455982208252,6.265288538997993e-05,0.0014610529178753495,0.00048052999773062766,-0.00045620245509780943,-1.0954794008301494e-22,-0.004843678325414658,-0.07551372051239014,0.6821871995925903,1.068966031074524,0.5540766716003418,-0.32609227299690247,-0.0071156322956085205
1749052264.130931,-0.969888989125387,-1.1965912145427247,-1.6108484268188477,4.261439962978027,-1.0538762251483362,3.268425464630127,0.00010088994167745113,0.0026202222798019648,0.00045045066508464515,-0.0004218692483846098,-1.9358271116332745e-23,-0.006615065038204193,-0.07410725951194763,0.6997098326683044,1.0632860660552979,0.5612367987632751,-0.32582294940948486,-0.01054680347442627
1749052264.1309676,-0.969848934804098,-1.1965511602214356,-1.6108448505401611,4.261432810420654,-1.0538986364947718,3.268394947052002,0.0013468123506754637,0.004725893028080463,0.00042389813461340964,-0.00039146849303506315,-3.420809724082701e-24,-0.008021407760679722,-0.050630927085876465,0.6788729429244995,1.0618677139282227,0.5559495091438293,-0.32688719034194946,-0.01012219488620758
1749052264.1310048,-0.9698503653155726,-1.1965711575797577,-1.6108448505401611,4.2614709573933105,-1.0538762251483362,3.2683982849121094,0.0015229791169986129,0.005600968841463327,0.0004003350040875375,-0.00036499404814094305,-6.044929690105751e-25,-0.00903505738824606,-0.0779203474521637,0.68144291639328,1.0642303228378296,0.5634101033210754,-0.32205817103385925,-0.023135662078857422
1749052264.1310415,-0.9698331991778772,-1.1965512198260804,-1.6108256578445435,4.261451883906982,-1.0538609663592737,3.268401622772217,0.00250564469024539,0.00623710872605443,0.000379241188056767,-0.0003418620035517961,0.00013352114183362573,-0.010030354373157024,-0.02426430583000183,0.6975864768028259,1.0702849626541138,0.5656828284263611,-0.3312475383281708,-0.028837651014328003
1749052264.131384,-0.9698722998248499,-1.1965430539897461,-1.6108759641647339,4.261432810420654,-1.0538952986346644,3.2683677673339844,0.003258964279666543,0.0062956674955785275,0.00036024575820192695,-0.0003214831231161952,0.00016433658311143517,-0.011824687011539936,-0.009377896785736084,0.6866334080696106,1.0595837831497192,0.5922843813896179,-0.33098864555358887,-0.047311440110206604
1749052264.1333745,-0.9698651472674769,-1.196525977259018,-1.6108484268188477,4.261455698604248,-1.0538643042193812,3.268352508544922,0.003837298834696412,0.007163365371525288,0.0003430866345297545,-0.00030339352088049054,0.00016463076462969184,-0.013170585967600346,0.0011968836188316345,0.7042906284332275,1.0745559930801392,0.5759598612785339,-0.3338652551174164,-0.04607146978378296
1749052264.1783144,-0.9698298613177698,-1.196550504570343,-1.6108603477478027,4.261436148280762,-1.0538800398456019,3.2683465480804443,0.0055977036245167255,0.007623329758644104,0.00032747825025580823,-0.00028724130243062973,0.00015989516396075487,-0.014150712639093399,0.02442125231027603,0.7109630107879639,1.0815515518188477,0.5976554751396179,-0.33514824509620667,-0.05926975607872009
1749052264.1783712,-0.9698131720172327,-1.1965031784823914,-1.6108640432357788,4.261439962978027,-1.0539177099811,3.2683043479919434,0.007706845179200172,0.009004194289445877,0.0003132176061626524,-0.00024686945835128427,0.00015459759742952883,-0.01596119999885559,-0.0006501898169517517,0.7166199684143066,1.0836119651794434,0.5925657153129578,-0.3385635018348694,-0.044824227690696716
1749052264.1784165,-0.9698131720172327,-1.1964674156955262,-1.6108448505401611,4.261439962978027,-1.0538986364947718,3.268329620361328,0.008746031671762466,0.010156220756471157,0.00030016645905561745,-0.00021979330631438643,0.00014949473552405834,-0.01825023628771305,0.04476127028465271,0.7249770760536194,1.0790208578109741,0.5985462069511414,-0.3348105549812317,-0.05514173209667206
1749052264.1784554,-0.9697774092303675,-1.1964627665332337,-1.6108531951904297,4.261459036464355,-1.0538905302630823,3.268282175064087,0.009927752427756786,0.010699470527470112,0.00028815146652050316,-0.00020701356697827578,0.00014469229790847749,-0.0189081858843565,0.029776737093925476,0.7223343253135681,1.090685248374939,0.6126598715782166,-0.3399730324745178,-0.034149616956710815
1749052264.178493,-0.9697650114642542,-1.1964591306499024,-1.6108412742614746,4.261436148280762,-1.0538952986346644,3.2682576179504395,0.012327455915510654,0.012230188585817814,0.0002770528953988105,-0.00016910553677007556,0.00014018458023201674,-0.01948694884777069,0.058294087648391724,0.7420524954795837,1.0881001949310303,0.6024309992790222,-0.33491194248199463,-0.04756668210029602
1749052264.1785314,-0.9697220961200159,-1.1964457494071503,-1.6108256578445435,4.261443777675293,-1.0538952986346644,3.2682151794433594,0.01297167968004942,0.013502506539225578,0.0002667924272827804,-0.00014018411457072943,0.00013594841584563255,-0.01977386139333248,0.04662764072418213,0.7294453382492065,1.0997568368911743,0.6190618872642517,-0.32826462388038635,-0.048437781631946564
1749052264.1785696,-0.9697569052325647,-1.1963834923556824,-1.6108603477478027,4.261455698604248,-1.0538609663592737,3.2681827545166016,0.01436181366443634,0.014101792126893997,0.00020519572717603296,-0.00011358097253832966,0.00013196068175602704,-0.01791306957602501,0.051440782845020294,0.7370729446411133,1.097751498222351,0.6148923635482788,-0.3399239480495453,-0.04189644753932953
1749052264.178607,-0.969701115285055,-1.1963596206954499,-1.610825777053833,4.261451883906982,-1.0538728872882288,3.2681431770324707,0.015602168627083302,0.015610168687999249,0.0001807801891118288,5.716241048503434e-06,0.00012820001575164497,-0.018337910994887352,0.02767384797334671,0.7126045823097229,1.1168186664581299,0.6379110217094421,-0.3389705419540405,-0.06867211312055588
1749052264.1786451,-0.9696772734271448,-1.1963078540614625,-1.6108256578445435,4.261436148280762,-1.053891960774557,3.2681078910827637,0.014718183316290379,0.015765005722641945,0.00018969735538121313,9.568031236995012e-05,0.00012464819883462042,-0.01946459338068962,0.06424775719642639,0.7391345500946045,1.1406135559082031,0.6130185723304749,-0.3528013229370117,-0.08620060235261917
1749052264.1786828,-0.9696334044085901,-1.19628398240123,-1.6108722686767578,4.2614170747944335,-1.0539401213275355,3.268099308013916,0.014961552806198597,0.016838103532791138,0.0002147354680346325,0.00014079771062824875,0.00012128772505093366,-0.020136499777436256,0.06290285289287567,0.7394159436225891,1.1098343133926392,0.6508000493049622,-0.33232298493385315,-0.0891292616724968
1749052264.1787212,-0.9696295897113245,-1.196263776426651,-1.6108567714691162,4.261448069209717,-1.0539420286761683,3.268017292022705,0.014748573303222656,0.017948133870959282,0.00024709536228328943,0.00018158597231376916,0.0001181038751383312,-0.019991884008049965,0.07028374075889587,0.743724524974823,1.153672218322754,0.647158682346344,-0.3453226089477539,-0.0981549471616745
1749052264.1787586,-0.9695747534381312,-1.196223424082138,-1.6108293533325195,4.261455698604248,-1.0538881460772913,3.2679452896118164,0.015080186538398266,0.018770283088088036,0.0008868658915162086,0.0011052973568439484,0.00011508290481287986,-0.021069223061203957,0.08700230717658997,0.7690974473953247,1.1310365200042725,0.6588968634605408,-0.3479527235031128,-0.10637165606021881
1749052264.1787963,-0.9695504347430628,-1.1961595577052613,-1.6108567714691162,4.261459990138672,-1.0538800398456019,3.267979145050049,0.01471326220780611,0.02019835077226162,0.0010966844856739044,0.00126291299238801,0.00011221264867344871,-0.021964723244309425,0.09110986441373825,0.7692910432815552,1.134746789932251,0.6579141020774841,-0.33754023909568787,-0.12102767080068588
1749052264.1788375,-0.969619099293844,-1.1961276096156617,-1.6108484268188477,4.261451883906982,-1.0539177099811,3.2679314613342285,0.015488285571336746,0.022217661142349243,0.002129086060449481,0.0013908104738220572,0.00010948200360871851,-0.024533279240131378,0.11393629014492035,0.7443920969963074,1.1312801837921143,0.6723393797874451,-0.3426222801208496,-0.13185632228851318
1749052264.1788754,-0.9694245497332972,-1.1960954827121277,-1.6108448505401611,4.2614709573933105,-1.0538762251483362,3.26786470413208,0.015459587797522545,0.02237381413578987,0.00200753309763968,0.0014790368732064962,0.00010688123438740149,-0.025987500324845314,0.12467674911022186,0.7316440939903259,1.1395668983459473,0.6761710047721863,-0.3584955334663391,-0.13239867985248566
1749052264.178913,-0.9694736639605921,-1.1960354012301941,-1.6108448505401611,4.2614638048359375,-1.0538643042193812,3.2678442001342773,0.015928756445646286,0.021054739132523537,0.0018488082569092512,0.0014352757716551423,0.00010440112964715809,-0.028352463617920876,0.11431772261857986,0.7278950810432434,1.1488733291625977,0.6728860139846802,-0.34388360381126404,-0.14245903491973877
1749052264.1789503,-0.9694574514972132,-1.1959761840156098,-1.6108484268188477,4.261479540462158,-1.053852383290426,3.2677416801452637,0.015907010063529015,0.020548323169350624,0.001768827554769814,0.0013813822297379375,0.00010203362035099417,-0.030374592170119286,0.1544976532459259,0.7378180623054504,1.1675951480865479,0.7108436226844788,-0.3490540385246277,-0.15159916877746582
1749052264.1789877,-0.9694450537310999,-1.1959279638579865,-1.610832929611206,4.261444731349609,-1.0539024511920374,3.2677364349365234,0.01754782907664776,0.020245924592018127,0.0016767753986641765,0.0015358328819274902,9.977105946745723e-05,-0.03328261896967888,0.162639319896698,0.7177095413208008,1.18218195438385,0.6896728873252869,-0.36727243661880493,-0.15057450532913208
1749052264.179025,-0.9693744818316858,-1.195907936697342,-1.6108241081237793,4.261494799251221,-1.053891960774557,3.2676448822021484,0.01901092939078808,0.01961338333785534,0.002573939273133874,0.0025746901519596577,9.760675311554223e-05,-0.03548372909426689,0.1661660522222519,0.7236606478691101,1.1847583055496216,0.7147923707962036,-0.3441047668457031,-0.15216201543807983
1749052264.1790628,-0.9693539778338831,-1.195835904484131,-1.6108205318450928,4.261491461391113,-1.0538800398456019,3.2675962448120117,0.020148836076259613,0.02049417234957218,0.0036629014648497105,0.003431494813412428,9.553421114105731e-05,-0.03796770051121712,0.17019422352313995,0.7149566411972046,1.1628806591033936,0.6999383568763733,-0.35952383279800415,-0.1439618319272995
1749052264.1791003,-0.969330135975973,-1.1958670777133484,-1.6108205318450928,4.261518641109131,-1.0538952986346644,3.2674858570098877,0.02198782004415989,0.0211927630007267,0.003991765435785055,0.003799373283982277,9.354794747196138e-05,-0.039181362837553024,0.2030845284461975,0.7270146012306213,1.16653573513031,0.7177968621253967,-0.3479813039302826,-0.17836418747901917
1749052264.1791372,-0.9692352453814905,-1.1958038073829194,-1.610801339149475,4.2615272241779785,-1.0538609663592737,3.267401933670044,0.02325517311692238,0.02159496396780014,0.0039747473783791065,0.003841140540316701,9.164266521111131e-05,-0.041337691247463226,0.2086338996887207,0.7279167175292969,1.1842643022537231,0.721325695514679,-0.35318267345428467,-0.1774788498878479
1749052264.1794617,-0.9692381064044397,-1.195754663353302,-1.6107966899871826,4.261523409480713,-1.0538833777057093,3.267317771911621,0.023588571697473526,0.02075161784887314,0.003939186222851276,0.004536742344498634,8.981340215541422e-05,-0.044231366366147995,0.24097532033920288,0.7181289196014404,1.1783857345581055,0.7159608006477356,-0.3527650237083435,-0.1761937439441681
1749052264.1813855,-0.9691827932940882,-1.1956680876067658,-1.6107966899871826,4.2615272241779785,-1.0538681189166468,3.267214775085449,0.024174083024263382,0.02148553915321827,0.004802443087100983,0.005507613066583872,8.80557345226407e-05,-0.047641415148973465,0.2332516461610794,0.7099478244781494,1.1855956315994263,0.7330507040023804,-0.3519023656845093,-0.175921231508255
1749052264.2222884,-0.9691084066974085,-1.1956592065146943,-1.610788345336914,4.261535330409668,-1.0538986364947718,3.267123222351074,0.025750651955604553,0.02220848761498928,0.005314970854669809,0.0066129365004599094,8.636558777652681e-05,-0.050209712237119675,0.2308618575334549,0.7081979513168335,1.1789793968200684,0.7110520601272583,-0.3737353980541229,-0.19215324521064758
1749052264.2223337,-0.9691084066974085,-1.1956592065146943,-1.610788345336914,4.261535330409668,-1.0538986364947718,3.267123222351074,0.025750651955604553,0.02220848761498928,0.005314970854669809,0.0066129365004599094,8.636558777652681e-05,-0.050209712237119675,0.2308618575334549,0.7081979513168335,1.1789793968200684,0.7110520601272583,-0.3737353980541229,-0.19215324521064758
1749052264.222375,-0.969027344380514,-1.1955287021449585,-1.6107614040374756,4.261586828822754,-1.053903881703512,3.2669312953948975,0.027912208810448647,0.02180388569831848,0.005439253058284521,0.007461525499820709,8.317267202073708e-05,-0.052040185779333115,0.23944047093391418,0.7052547931671143,1.185200572013855,0.7173788547515869,-0.36184555292129517,-0.20114615559577942
1749052264.222414,-0.968994442616598,-1.1955262583545228,-1.6107494831085205,4.26156394063916,-1.0539458433734339,3.266808271408081,0.029139552265405655,0.023042399436235428,0.005646098870784044,0.007193644531071186,8.16631581983529e-05,-0.0555628202855587,0.26292684674263,0.686228334903717,1.1782357692718506,0.7194311618804932,-0.3581889867782593,-0.18723878264427185
1749052264.2224536,-0.9689343611346644,-1.1954904955676575,-1.6107375621795654,4.261614008540771,-1.0538762251483362,3.266672134399414,0.030714446678757668,0.022658003494143486,0.005422739777714014,0.007123465649783611,8.020750101422891e-05,-0.05796905606985092,0.2536109387874603,0.7155830264091492,1.1911864280700684,0.725174605846405,-0.3605055510997772,-0.17166459560394287
1749052264.222499,-0.9688318411456507,-1.195384607916214,-1.6106903553009033,4.261626883144043,-1.053891960774557,3.2665841579437256,0.03180724009871483,0.02322551980614662,0.005876017734408379,0.007739587686955929,7.880289194872603e-05,-0.05930094048380852,0.28492218255996704,0.7257768511772156,1.1969492435455322,0.7211477160453796,-0.3582566976547241,-0.20145215094089508
1749052264.2225654,-0.9688079992877405,-1.1953630608371277,-1.6106977462768555,4.261661692256592,-1.0538833777057093,3.266491174697876,0.03351157158613205,0.024299196898937225,0.006126677617430687,0.009022976271808147,7.744651520624757e-05,-0.06119094416499138,0.25400036573410034,0.7172778844833374,1.1931109428405762,0.7118151783943176,-0.3608894944190979,-0.1773863434791565
1749052264.2226098,-0.9687078634845179,-1.195311264400818,-1.6106858253479004,4.261666460628174,-1.0538881460772913,3.2663168907165527,0.03462539613246918,0.024407820776104927,0.00640056561678648,0.009577566757798195,7.613614434376359e-05,-0.06201332435011864,0.2936438322067261,0.7074447870254517,1.1821577548980713,0.6937282085418701,-0.3584277033805847,-0.18619464337825775
1749052264.2226646,-0.9687145392047327,-1.1952391129783173,-1.6106702089309692,4.261678381557129,-1.0538986364947718,3.2661824226379395,0.035920754075050354,0.024393638595938683,0.005849778186529875,0.008303757756948471,7.48693200876005e-05,-0.06287001818418503,0.2917400300502777,0.700291633605957,1.2024116516113281,0.7079589366912842,-0.35948431491851807,-0.20737716555595398
1749052264.2227366,-0.9686077276812952,-1.1952346128276368,-1.6106619834899902,4.261690302486084,-1.0539105574237269,3.266062021255493,0.036332711577415466,0.024772556498646736,0.005459509324282408,0.008114512078464031,7.364400516962633e-05,-0.06469178199768066,0.3058890104293823,0.713439404964447,1.2079763412475586,0.7162476778030396,-0.36480778455734253,-0.19512927532196045
1749052264.222807,-0.9685433546649378,-1.1951551896384736,-1.6106619834899902,4.261714144343994,-1.0538800398456019,3.265911340713501,0.03867433965206146,0.02562122605741024,0.006074476987123489,0.007827329449355602,7.245809683809057e-05,-0.06600359082221985,0.2966657876968384,0.6986880302429199,1.2315857410430908,0.7139723300933838,-0.3622809648513794,-0.19821596145629883
1749052264.2228763,-0.9684556166278284,-1.1951040190509339,-1.6106500625610352,4.261714144343994,-1.0538800398456019,3.2657980918884277,0.03979472443461418,0.026398753747344017,0.006610901094973087,0.00832268688827753,7.130979793146253e-05,-0.06610915064811707,0.303340882062912,0.6941599249839783,1.2084609270095825,0.7238154411315918,-0.35314327478408813,-0.2027752548456192
1749052264.222942,-0.9683449904071253,-1.1950159829906006,-1.6106219291687012,4.261726065272949,-1.0538833777057093,3.2656397819519043,0.04125507175922394,0.026161715388298035,0.007254626601934433,0.008731232024729252,7.019734039204195e-05,-0.06942025572061539,0.30486777424812317,0.6955497860908508,1.2158347368240356,0.7331131100654602,-0.37873995304107666,-0.2037811279296875
1749052264.2229826,-0.9683273474322718,-1.1950341624072571,-1.610644817352295,4.261757059688232,-1.0538867155658167,3.2655231952667236,0.04286220297217369,0.02683168835937977,0.006554051302373409,0.008667448535561562,6.911907257745042e-05,-0.07269425690174103,0.31571900844573975,0.7227756977081299,1.226332426071167,0.7221699357032776,-0.371170312166214,-0.21207906305789948
1749052264.223021,-0.9681966940509241,-1.1949393314174195,-1.6106293201446533,4.261792822475098,-1.0539024511920374,3.2653443813323975,0.04373276233673096,0.02752412110567093,0.006600653287023306,0.008686215616762638,6.807344470871612e-05,-0.0735405832529068,0.3056718707084656,0.7359042763710022,1.224400520324707,0.7218411564826965,-0.3750467896461487,-0.20093145966529846
1749052264.2230632,-0.9681523481952112,-1.1949072045138855,-1.6105862855911255,4.261792822475098,-1.0539024511920374,3.2652435302734375,0.045553624629974365,0.028312021866440773,0.007206023205071688,0.008828903548419476,6.705897976644337e-05,-0.07207953929901123,0.32675743103027344,0.7259478569030762,1.2242512702941895,0.7231584787368774,-0.38387805223464966,-0.21726015210151672
1749052264.2231014,-0.9680874983416956,-1.194847123031952,-1.6106090545654297,4.261809511775635,-1.0538833777057093,3.265080213546753,0.04640680551528931,0.028748616576194763,0.0070861210115253925,0.009018578566610813,6.607428804272786e-05,-0.07536934316158295,0.32129693031311035,0.7070083022117615,1.2361444234848022,0.7298696637153625,-0.3700324296951294,-0.2246817648410797
1749052264.2231386,-0.9679678122149866,-1.1947590869716187,-1.6105743646621704,4.2618371683308105,-1.053929630910055,3.264932155609131,0.04810506850481033,0.02940269000828266,0.006790002807974815,0.008768717758357525,6.51180962449871e-05,-0.07762385904788971,0.31669682264328003,0.7155895233154297,1.2367041110992432,0.7337769865989685,-0.3982633650302887,-0.2225112020969391
1749052264.2231755,-0.9678300062762659,-1.1947196883014222,-1.6105780601501465,4.261864348048828,-1.053852383290426,3.2647573947906494,0.04922710731625557,0.030216285958886147,0.006358916871249676,0.008999825455248356,6.418920384021476e-05,-0.08161469548940659,0.32785892486572266,0.7355644106864929,1.265021800994873,0.7305585741996765,-0.393054723739624,-0.197645366191864
1749052264.2232158,-0.9677184263812464,-1.1946048897555848,-1.6105661392211914,4.261864348048828,-1.0539177099811,3.2645702362060547,0.0513247586786747,0.030950305983424187,0.007191637996584177,0.009171765297651291,6.328643212327734e-05,-0.08437751233577728,0.32021424174308777,0.7184994220733643,1.2474136352539062,0.7312243580818176,-0.38017499446868896,-0.19608113169670105
1749052264.2233906,-0.9676931540118616,-1.1945876044086,-1.6105577945709229,4.26186911642041,-1.0538762251483362,3.2644097805023193,0.04993246868252754,0.0317288301885128,0.0077040791511535645,0.009379700757563114,6.240871152840555e-05,-0.08293819427490234,0.34416550397872925,0.7501564621925354,1.265308141708374,0.7380282282829285,-0.3838859796524048,-0.2084946483373642
1749052264.225376,-0.9675615469561976,-1.194511817102768,-1.6105616092681885,4.26186911642041,-1.0538986364947718,3.264254331588745,0.05124982073903084,0.03241691365838051,0.008197513408958912,0.00995789933949709,6.15549724898301e-05,-0.08574944734573364,0.3700820207595825,0.7660205364227295,1.2577757835388184,0.7336922287940979,-0.40085530281066895,-0.2046266794204712
1749052264.2662873,-0.967442814503805,-1.1944472354701539,-1.6105334758758545,4.261904879207275,-1.0538800398456019,3.264047145843506,0.052722491323947906,0.03442319482564926,0.007396613247692585,0.010717877186834812,6.0724287322955206e-05,-0.08817849308252335,0.3601604998111725,0.6943778991699219,1.257157802581787,0.7370341420173645,-0.40598636865615845,-0.17818304896354675
1749052264.266333,-0.9673350493060511,-1.194418267612793,-1.6105060577392578,4.261947794551514,-1.0538714567767542,3.263871431350708,0.0557720772922039,0.03445460647344589,0.007133179344236851,0.010728760622441769,5.9915757447015494e-05,-0.09068001061677933,0.3570743799209595,0.709189772605896,1.2717618942260742,0.734637439250946,-0.40852582454681396,-0.19156582653522491
1749052264.2663739,-0.967238728200094,-1.1943270725062867,-1.6105096340179443,4.261975451106689,-1.0538952986346644,3.2636451721191406,0.05482100322842598,0.035026710480451584,0.008163031190633774,0.010716076008975506,5.912844426347874e-05,-0.0932481437921524,0.3532378673553467,0.7342124581336975,1.287315845489502,0.7361165881156921,-0.41905510425567627,-0.17204131186008453
1749052264.2664132,-0.9671381155597132,-1.1942512852004548,-1.6105096340179443,4.261983557338379,-1.0539143721209925,3.2634799480438232,0.05572593957185745,0.03603560850024223,0.008337192237377167,0.010810702107846737,5.83616056246683e-05,-0.09467431157827377,0.3911772668361664,0.7389768958091736,1.2781505584716797,0.7289636731147766,-0.42156121134757996,-0.1507636457681656
1749052264.266452,-0.9670031706439417,-1.1941402715495606,-1.6105012893676758,4.2619921404072265,-1.0538609663592737,3.2632806301116943,0.05851015821099281,0.03707103803753853,0.008126805536448956,0.011319082230329514,5.7614350225776434e-05,-0.0948532223701477,0.3492984473705292,0.73876953125,1.2987719774246216,0.737912654876709,-0.4278998374938965,-0.18507662415504456
1749052264.2664907,-0.9668987433062952,-1.194114701156952,-1.610473871231079,4.262027903194092,-1.0539024511920374,3.2630927562713623,0.059554342180490494,0.03741331771016121,0.008317620493471622,0.011476158164441586,5.6886023230617866e-05,-0.09644091129302979,0.35491400957107544,0.7163035869598389,1.291487455368042,0.7098708748817444,-0.44746124744415283,-0.18010494112968445
1749052264.2665284,-0.9667633215533655,-1.1939923924258729,-1.6104495525360107,4.262043161983154,-1.0539024511920374,3.2628395557403564,0.06044812873005867,0.038128215819597244,0.0090943006798625,0.011055626906454563,5.61758570256643e-05,-0.09668224304914474,0.36008182168006897,0.7488027811050415,1.3090981245040894,0.7337341904640198,-0.4418608844280243,-0.18099918961524963
1749052264.2665656,-0.9666360060321253,-1.1939551395228882,-1.610403060913086,4.262067003841064,-1.053852383290426,3.262678861618042,0.06165893375873566,0.03934827074408531,0.008776572532951832,0.010421983897686005,5.160335422260687e-05,-0.09720013290643692,0.37940916419029236,0.726994514465332,1.3170958757400513,0.7395554780960083,-0.44315943121910095,-0.18937283754348755
1749052264.2666042,-0.9665196577655237,-1.1938707393458863,-1.610406517982483,4.262075586909912,-1.053852383290426,3.2624831199645996,0.06339392811059952,0.04191182553768158,0.009817024692893028,0.011199157685041428,4.512123632594012e-05,-0.09734998643398285,0.36857080459594727,0.7296900153160095,1.3065975904464722,0.7366934418678284,-0.4459833800792694,-0.18307073414325714
1749052264.2666416,-0.9664157072650355,-1.1937401455691834,-1.6103863716125488,4.262130423183105,-1.0538576284991663,3.262255907058716,0.06440078467130661,0.04175587370991707,0.010686703026294708,0.011106105521321297,4.354369957582094e-05,-0.09875671565532684,0.32539525628089905,0.6840376853942871,1.3197296857833862,0.7340993881225586,-0.4449087381362915,-0.1769517958164215
1749052264.2666788,-0.9662922064410608,-1.1936643582633515,-1.6103546619415283,4.262123270625732,-1.0538762251483362,3.2620906829833984,0.06536083668470383,0.04008319228887558,0.009872864000499249,0.010306335985660553,4.284311580704525e-05,-0.09896053373813629,0.3512392044067383,0.7495040893554688,1.315320611000061,0.7397202253341675,-0.45385199785232544,-0.20687124133110046
1749052264.2667162,-0.9661324659930628,-1.193583444958069,-1.6103817224502563,4.262155218715332,-1.0538762251483362,3.2618720531463623,0.0662195160984993,0.042568009346723557,0.009713321924209595,0.01062678825110197,4.2307376133976504e-05,-0.0998508632183075,0.3641052842140198,0.7694806456565857,1.334014892578125,0.7323657870292664,-0.4461249113082886,-0.21968814730644226
1749052264.2667577,-0.9659999052630823,-1.1935188633254548,-1.6103078126907349,4.262155218715332,-1.0539072195636194,3.261669397354126,0.06542422622442245,0.043161943554878235,0.010324530303478241,0.010703656822443008,3.577751340344548e-05,-0.10207999497652054,0.3755321502685547,0.7399282455444336,1.324978232383728,0.7033362984657288,-0.4523624777793884,-0.21483345329761505
1749052264.2667959,-0.9659007231341761,-1.1934594076922913,-1.6103219985961914,4.26219813405957,-1.0538728872882288,3.2614502906799316,0.07095982134342194,0.045378461480140686,0.011286732740700245,0.010964742861688137,3.177799953846261e-05,-0.1017751395702362,0.36554139852523804,0.7447284460067749,1.3415931463241577,0.7531149387359619,-0.4640815258026123,-0.23380562663078308
1749052264.2668328,-0.9657252470599573,-1.1933390957168122,-1.610275387763977,4.262237711543701,-1.0539105574237269,3.2612457275390625,0.06805933266878128,0.04476536810398102,0.010985514149069786,0.011277277022600174,3.078303052461706e-05,-0.10581111907958984,0.38493382930755615,0.7489382028579712,1.328808069229126,0.7313687801361084,-0.46392422914505005,-0.25255727767944336
1749052264.26687,-0.965616528187887,-1.1932043892196198,-1.6102790832519531,4.262257738704346,-1.0538986364947718,3.261007308959961,0.06915420293807983,0.04482416436076164,0.010758895426988602,0.011418496258556843,-1.1976310815953184e-05,-0.10944056510925293,0.3978651463985443,0.7682977914810181,1.3146440982818604,0.7346031665802002,-0.48090583086013794,-0.21580737829208374
1749052264.266907,-0.9654148260699671,-1.1931635004333039,-1.610231876373291,4.262273474330566,-1.053840462361471,3.2608072757720947,0.07367553561925888,0.04666239023208618,0.01083314511924982,0.011322987265884876,-2.48035867116414e-05,-0.10877182334661484,0.3614561855792999,0.7727076411247253,1.324380874633789,0.7372621893882751,-0.48606008291244507,-0.2693207263946533
1749052264.2669444,-0.9652560392962855,-1.1930911105922242,-1.6102428436279297,4.262274428004883,-1.0538952986346644,3.260575294494629,0.07063977420330048,0.04760976508259773,0.011248194612562656,0.011401542462408543,-3.790080882026814e-05,-0.11169005185365677,0.39704209566116333,0.7537645697593689,1.3395798206329346,0.7345218658447266,-0.49495744705200195,-0.2745850384235382
1749052264.2669818,-0.9651778380023401,-1.1929511290839692,-1.6102416515350342,4.262317343349121,-1.0538881460772913,3.2603442668914795,0.0729081854224205,0.04792613163590431,0.010994031094014645,0.011706707067787647,-4.943301610182971e-05,-0.11834137886762619,0.40751707553863525,0.7933099865913391,1.3336081504821777,0.730709433555603,-0.5092552304267883,-0.2525738775730133
1749052264.267019,-0.965029541646139,-1.1928672057441254,-1.610198736190796,4.262337847346924,-1.0538681189166468,3.2600655555725098,0.07464776933193207,0.0497029572725296,0.010534534230828285,0.012125584296882153,-5.6732951634330675e-05,-0.12276388704776764,0.4217014014720917,0.74516361951828,1.3427480459213257,0.7102431058883667,-0.5068544149398804,-0.2186739444732666
1749052264.2674615,-0.9648712317096155,-1.192752168779709,-1.6101863384246826,4.262330694789551,-1.0538747946368616,3.2598609924316406,0.07477468997240067,0.04994456097483635,0.010797513648867607,0.011737006716430187,-6.347060843836516e-05,-0.12342236191034317,0.40182119607925415,0.7619434595108032,1.3542516231536865,0.720759391784668,-0.5067850351333618,-0.230841264128685
1749052264.2693913,-0.9647272268878382,-1.192690597181656,-1.610170841217041,4.262354059810303,-1.0538800398456019,3.259587049484253,0.07552774995565414,0.05044325441122055,0.010488205589354038,0.011906249448657036,-0.000544948095921427,-0.12676779925823212,0.4111953377723694,0.7741310000419617,1.3508373498916626,0.7244380712509155,-0.5181735157966614,-0.22148612141609192
1749052264.3102913,-0.9645865599261683,-1.1925555032542725,-1.6101350784301758,4.2624122339436035,-1.0538881460772913,3.259314775466919,0.07731381803750992,0.051687706261873245,0.011903139762580395,0.011695490218698978,-0.000738442235160619,-0.12984460592269897,0.42259472608566284,0.7972087264060974,1.3536882400512695,0.7370817065238953,-0.5149430632591248,-0.19780689477920532
1749052264.3103373,-0.9644268194781702,-1.1924507480910798,-1.6101386547088623,4.262417479152344,-1.0539143721209925,3.2590603828430176,0.07734331488609314,0.052794091403484344,0.011484790593385696,0.012309898622334003,-0.0007997302454896271,-0.12911739945411682,0.4096013307571411,0.7810451984405518,1.3427444696426392,0.7404830455780029,-0.5311298966407776,-0.21194393932819366
1749052264.310379,-0.964248005543844,-1.1923471552184601,-1.6100831031799316,4.2624451357075195,-1.0538986364947718,3.258803606033325,0.08043776452541351,0.05307377874851227,0.01119224727153778,0.012944287620484829,-0.0010924957459792495,-0.128811314702034,0.40144479274749756,0.8046426773071289,1.3751367330551147,0.7304974794387817,-0.5302495956420898,-0.23290693759918213
1749052264.3104277,-0.9640763441668909,-1.1922082763961335,-1.610059380531311,4.262483759517334,-1.0538986364947718,3.2585413455963135,0.08186360448598862,0.054666679352521896,0.011604605242609978,0.01267104409635067,-0.0012541983742266893,-0.12847891449928284,0.3989526331424713,0.8113511800765991,1.3601585626602173,0.7347890734672546,-0.5312060117721558,-0.25138649344444275
1749052264.3104682,-0.9639552275287073,-1.1921309989741822,-1.610063076019287,4.262504263515137,-1.053950611745016,3.258277654647827,0.08273408561944962,0.056714512407779694,0.011590766720473766,0.012876070104539394,-0.0014161377912387252,-0.13301309943199158,0.3841042220592499,0.7849072217941284,1.3801462650299072,0.738720178604126,-0.5351336598396301,-0.21702055633068085
1749052264.310507,-0.9637687841998499,-1.1919997495463868,-1.6100236177444458,4.262531443233154,-1.0538881460772913,3.2580227851867676,0.08445252478122711,0.05736074224114418,0.012112929485738277,0.012295021675527096,-0.0017499488312751055,-0.13019756972789764,0.4240707755088806,0.7815860509872437,1.369915246963501,0.7453851699829102,-0.5325140357017517,-0.2684110403060913
1749052264.3105454,-0.9637687841998499,-1.1919997495463868,-1.6100236177444458,4.262531443233154,-1.0538881460772913,3.2580227851867676,0.08445252478122711,0.05736074224114418,0.012112929485738277,0.012295021675527096,-0.0017499488312751055,-0.13019756972789764,0.4240707755088806,0.7815860509872437,1.369915246963501,0.7453851699829102,-0.5325140357017517,-0.2684110403060913
1749052264.3105843,-0.9634249846087855,-1.1917711657336731,-1.6099755764007568,4.262586756343506,-1.0539000670062464,3.2574565410614014,0.08487588167190552,0.058945994824171066,0.011606154963374138,0.013082641176879406,-0.0021429595071822405,-0.13877053558826447,0.4165486991405487,0.764512300491333,1.3842693567276,0.7594186663627625,-0.5608909726142883,-0.26814204454421997
1749052264.3106222,-0.9632137457477015,-1.1916515988162537,-1.6099827289581299,4.26259629308667,-1.053891960774557,3.257188558578491,0.09071025252342224,0.05974014103412628,0.012241269461810589,0.01368655264377594,-0.0021210790146142244,-0.13880810141563416,0.38472265005111694,0.794994056224823,1.3753228187561035,0.7415609955787659,-0.5364011526107788,-0.28358572721481323
1749052264.31066,-0.9630692640887659,-1.1915342968753357,-1.6099469661712646,4.262604399318359,-1.053896729146139,3.256920337677002,0.08548160642385483,0.061394888907670975,0.012034637853503227,0.013800341635942459,-0.002544785151258111,-0.14280715584754944,0.4053766429424286,0.7817221879959106,1.3807886838912964,0.7565116286277771,-0.5611382722854614,-0.28508487343788147
1749052264.3106978,-0.9628503958331507,-1.1913718742183228,-1.609931468963623,4.262663050288818,-1.0539777914630335,3.2566258907318115,0.08973368257284164,0.06448571383953094,0.012742891907691956,0.014109505340456963,-0.0040324777364730835,-0.14804178476333618,0.3665837049484253,0.7639819979667664,1.3779493570327759,0.7510157823562622,-0.5574501752853394,-0.2676287889480591
1749052264.3107355,-0.9626825491534632,-1.1912952822497864,-1.6099070310592651,4.2626868921467285,-1.053962532673971,3.2563202381134033,0.08966849744319916,0.06223376467823982,0.012791928835213184,0.014549111016094685,-0.004783926997333765,-0.15327756106853485,0.37944653630256653,0.7482408881187439,1.3830745220184326,0.7380485534667969,-0.532780110836029,-0.2445763349533081
1749052264.310773,-0.9625180403338831,-1.1911194783500214,-1.6098833084106445,4.262718840236328,-1.0539243857013147,3.2559802532196045,0.09044300764799118,0.06420556455850601,0.013504375703632832,0.014965723268687725,-0.004678257741034031,-0.15636557340621948,0.38417288661003113,0.7597736120223999,1.3906861543655396,0.7451785206794739,-0.5291312336921692,-0.21315884590148926
1749052264.3108106,-0.9623187224017542,-1.1910072726062317,-1.6098480224609375,4.262742682094238,-1.053955380116598,3.255676031112671,0.09067799896001816,0.06503240019083023,0.01422225870192051,0.014679567888379097,-0.00417738314718008,-0.1564403772354126,0.38958027958869934,0.7550250887870789,1.376346230506897,0.7585806250572205,-0.5496228933334351,-0.18503093719482422
1749052264.3108482,-0.9620836416827601,-1.1908397537520905,-1.6098079681396484,4.262778921718262,-1.0540359655963343,3.255362033843994,0.09198462963104248,0.06571980565786362,0.01414634007960558,0.016173357143998146,-0.004304977133870125,-0.1556500941514969,0.36270302534103394,0.7660192251205444,1.3819711208343506,0.7451386451721191,-0.534716010093689,-0.20329441130161285
1749052264.3108873,-0.9619630018817347,-1.1907195907882233,-1.6097760200500488,4.262810392970703,-1.0539825598346155,3.2550933361053467,0.09235455840826035,0.06611379235982895,0.01448678970336914,0.01635764166712761,-0.0044003077782690525,-0.1547468900680542,0.3727186322212219,0.7654109001159668,1.3752588033676147,0.7476837038993835,-0.5623409748077393,-0.2201840579509735
1749052264.3109264,-0.9617207686053675,-1.1905791920474549,-1.609732985496521,4.2628466325947265,-1.0539806524859827,3.254754066467285,0.09168996661901474,0.06654103845357895,0.014927039854228497,0.016420548781752586,-0.004346113186329603,-0.15299353003501892,0.41412094235420227,0.7741160988807678,1.3842761516571045,0.7552586793899536,-0.5348377823829651,-0.22064431011676788
1749052264.3109703,-0.961560074483053,-1.1904435020736237,-1.6097004413604736,4.262858076686523,-1.0540412108050745,3.2544331550598145,0.09504199028015137,0.06752383708953857,0.015743955969810486,0.016719365492463112,-0.004685542546212673,-0.1528676301240921,0.348467618227005,0.7826551795005798,1.3786883354187012,0.7418322563171387,-0.5205991268157959,-0.23901887238025665
1749052264.3110092,-0.9613807837115687,-1.1902922850898285,-1.6097075939178467,4.262905760402344,-1.0540340582477015,3.2541279792785645,0.09312497824430466,0.0680859163403511,0.016212454065680504,0.01684480905532837,-0.005083573516458273,-0.15483593940734863,0.39424842596054077,0.7612619400024414,1.3710134029388428,0.7511076927185059,-0.5207446813583374,-0.24849921464920044
1749052264.311048,-0.9611838499652308,-1.1901721221259614,-1.6096792221069336,4.2629381853291015,-1.0540149847613733,3.2537827491760254,0.09754039347171783,0.06795845180749893,0.015586565248668194,0.016824375838041306,-0.0048875571228563786,-0.15296116471290588,0.35654395818710327,0.7803429365158081,1.3753812313079834,0.7397611737251282,-0.5301799774169922,-0.28584256768226624
1749052264.3113976,-0.9609659353839319,-1.1900587242892762,-1.6096163988113403,4.262977285976074,-1.054061237965719,3.253490686416626,0.09444219619035721,0.06837079674005508,0.016154374927282333,0.016643216833472252,-0.004262946546077728,-0.15766558051109314,0.3919296860694885,0.7516329288482666,1.389660358428955,0.7389992475509644,-0.5326652526855469,-0.2905794382095337
1749052264.313385,-0.9608052412616175,-1.1898891490748902,-1.6095962524414062,4.263035936946533,-1.054011646901266,3.2531509399414062,0.09763796627521515,0.0701846033334732,0.015923891216516495,0.017423026263713837,-0.0036379164084792137,-0.16050252318382263,0.4041471481323242,0.7940359115600586,1.3645663261413574,0.7486258745193481,-0.5236828327178955,-0.26507332921028137
1749052264.3542862,-0.9606135527240198,-1.189767287378647,-1.609556794166565,4.263086958522461,-1.0540321508990687,3.2528114318847656,0.09854045510292053,0.0705789253115654,0.016549058258533478,0.017459305003285408,-0.0033554525580257177,-0.16413964331150055,0.39577582478523254,0.7790930867195129,1.3912724256515503,0.7259981632232666,-0.5383143424987793,-0.2787730395793915
1749052264.3543327,-0.9604061285602015,-1.189601109629013,-1.609527826309204,4.263096495265625,-1.054054085408346,3.252519130706787,0.09785070270299911,0.07382068783044815,0.016260316595435143,0.01689932867884636,-0.003047754755243659,-0.16764408349990845,0.38817018270492554,0.7633394598960876,1.3771220445632935,0.7433387041091919,-0.5267746448516846,-0.25826191902160645
1749052264.3543742,-0.9602058569537562,-1.1894808274558564,-1.6094884872436523,4.263151331538818,-1.0540321508990687,3.252134084701538,0.10146581381559372,0.0723702684044838,0.016925185918807983,0.016713077202439308,-0.003022231627255678,-0.17065587639808655,0.38089388608932495,0.7559026479721069,1.3640707731246948,0.740936279296875,-0.5395055413246155,-0.23408573865890503
1749052264.3544137,-0.960034195576803,-1.1893200141242524,-1.6094639301300049,4.2631751733967285,-1.054054085408346,3.251844882965088,0.10097263753414154,0.07305260747671127,0.017294300720095634,0.016385776922106743,-0.0033735744655132294,-0.17142710089683533,0.41171589493751526,0.766399085521698,1.3655973672866821,0.7467714548110962,-0.5389742255210876,-0.25088149309158325
1749052264.3544521,-0.9598076979266565,-1.1891802710345765,-1.6094098091125488,4.263195200557373,-1.0540507475482386,3.251490831375122,0.10185640305280685,0.07668957114219666,0.016678696498274803,0.016680480912327766,-0.0037444683257490396,-0.17035776376724243,0.4027906060218811,0.7406275272369385,1.3677783012390137,0.7568414211273193,-0.5403118133544922,-0.2733354866504669
1749052264.3544905,-0.9595759550677698,-1.1890390676311036,-1.6093894243240356,4.263242884273193,-1.0540664831744593,3.2511675357818604,0.10164058208465576,0.07515666633844376,0.01694139651954174,0.016753092408180237,-0.003525309031829238,-0.17214956879615784,0.4228012263774872,0.7448830008506775,1.3804340362548828,0.7497740387916565,-0.5286679863929749,-0.24350517988204956
1749052264.3545291,-0.9593551794635218,-1.1888874036124726,-1.6093723773956299,4.263247652644775,-1.054075066243307,3.2508010864257812,0.10302147269248962,0.07663992047309875,0.016509195789694786,0.017215179279446602,-0.002958770375698805,-0.16989737749099731,0.39677920937538147,0.741950273513794,1.383988618850708,0.7505846619606018,-0.5436934232711792,-0.3164064884185791
1749052264.354567,-0.9592226187335413,-1.1887245637229462,-1.6093138456344604,4.263291044826172,-1.0541022459613245,3.250516176223755,0.10278363525867462,0.07788371294736862,0.016850631684064865,0.016527747735381126,-0.0026562244165688753,-0.1763310432434082,0.4543631076812744,0.7245936393737793,1.365101933479309,0.7433197498321533,-0.5312309861183167,-0.31814301013946533
1749052264.3546057,-0.9589646498309534,-1.188551352625229,-1.6093127727508545,4.263345881099365,-1.0541213194476526,3.250154733657837,0.10650312155485153,0.07872521132230759,0.016898857429623604,0.01628565974533558,-0.002737347735092044,-0.1782231479883194,0.3949510455131531,0.7264066934585571,1.3918437957763672,0.7597026824951172,-0.5518014430999756,-0.30454033613204956
1749052264.3546438,-0.9587600866900843,-1.1884197455695649,-1.609276533126831,4.263384981746338,-1.054079834614889,3.2497754096984863,0.10730364918708801,0.07956627756357193,0.016734478995203972,0.016778171062469482,-0.002910047071054578,-0.18407724797725677,0.4267323911190033,0.7243046164512634,1.39473295211792,0.7697666883468628,-0.5290046334266663,-0.29841920733451843
1749052264.3546813,-0.9585321585284632,-1.1882479649833222,-1.6092491149902344,4.2633983331867675,-1.054086987172262,3.249384880065918,0.10957051068544388,0.0793423056602478,0.016775744035840034,0.01699485443532467,-0.002694598864763975,-0.19207629561424255,0.4095553457736969,0.7333621382713318,1.3903685808181763,0.7828091382980347,-0.5517839193344116,-0.2852878272533417
1749052264.3547187,-0.9582932631122034,-1.1880870324424286,-1.6092169284820557,4.26343743383374,-1.054091755543844,3.249009132385254,0.11042936146259308,0.08016807585954666,0.016137581318616867,0.016963299363851547,-0.00247197225689888,-0.1985824853181839,0.42645567655563354,0.7606730461120605,1.4031168222427368,0.7718905806541443,-0.5433518886566162,-0.2255048155784607
1749052264.354756,-0.9580782095538538,-1.1879277986339112,-1.6091578006744385,4.2634922701069335,-1.0540645758258265,3.248591423034668,0.11181627213954926,0.0812845304608345,0.016969095915555954,0.017933379858732224,-0.0022249340545386076,-0.2000611424446106,0.408454954624176,0.7232005000114441,1.3997260332107544,0.7700474858283997,-0.5473875403404236,-0.2073415219783783
1749052264.3547938,-0.9578660170184534,-1.1877682966044922,-1.6091258525848389,4.263501806850098,-1.0541141668902796,3.2482190132141113,0.11252348124980927,0.08405228704214096,0.01643449440598488,0.018701374530792236,-0.0021921361330896616,-0.19816382229328156,0.40902799367904663,0.7284318208694458,1.4104818105697632,0.7694811820983887,-0.5575597882270813,-0.19795235991477966
1749052264.3548305,-0.9576504866229456,-1.1875930589488526,-1.6090893745422363,4.263549490565918,-1.0541074911700647,3.247844934463501,0.1115453764796257,0.08109058439731598,0.016759181395173073,0.01921842060983181,-0.0024160940665751696,-0.191403329372406,0.43174561858177185,0.763698935508728,1.4142048358917236,0.7688740491867065,-0.5552743077278137,-0.2251669317483902
1749052264.3548684,-0.9574111143695276,-1.1874160927585145,-1.6090693473815918,4.263604326839111,-1.0541794935809534,3.2474377155303955,0.11557235568761826,0.08194439113140106,0.017658162862062454,0.019433340057730675,-0.003360656788572669,-0.19296810030937195,0.36893734335899353,0.7710800170898438,1.4079408645629883,0.7810229063034058,-0.5406347513198853,-0.24282708764076233
1749052264.3549056,-0.9571555296527308,-1.1872329872897645,-1.6090216636657715,4.263628168697021,-1.0541260878192347,3.247035026550293,0.11647447943687439,0.08613816648721695,0.018356408923864365,0.02009410411119461,-0.0043839081190526485,-0.18761610984802246,0.42033302783966064,0.69092857837677,1.3974905014038086,0.7458508610725403,-0.5411775708198547,-0.280273973941803
1749052264.3549416,-0.9569466749774378,-1.1870835286429902,-1.6089973449707031,4.263660593623779,-1.0541380087481897,3.2466983795166016,0.11448471248149872,0.08363551646471024,0.01888180524110794,0.020282067358493805,-0.00486535532400012,-0.19232143461704254,0.4229605495929718,0.7533427476882935,1.396167516708374,0.7655989527702332,-0.5195419192314148,-0.288494348526001
1749052264.354979,-0.9566953817950647,-1.1869122248939057,-1.608938217163086,4.263720198268555,-1.0541656653033655,3.246284246444702,0.11639200150966644,0.08446548134088516,0.01831083744764328,0.02128874696791172,-0.004428151994943619,-0.19115039706230164,0.44309377670288086,0.7586593627929688,1.4055567979812622,0.7683107256889343,-0.518926739692688,-0.33820101618766785
1749052264.355016,-0.9564903418170374,-1.1867597264102479,-1.608917474746704,4.263744040126465,-1.0541241804706019,3.2459206581115723,0.11778020113706589,0.08609474450349808,0.01880011521279812,0.022376149892807007,-0.0036405129358172417,-0.19859552383422852,0.4264640510082245,0.740906298160553,1.3860571384429932,0.7564690113067627,-0.5205805897712708,-0.29938820004463196
1749052264.3553991,-0.9561937491046351,-1.1865605574897309,-1.6088625192642212,4.263803167934082,-1.0541823546039026,3.245479106903076,0.11853177845478058,0.08725576847791672,0.020059507340192795,0.022545838728547096,-0.0029115669894963503,-0.2034231573343277,0.42730939388275146,0.6995760202407837,1.3908448219299316,0.751707911491394,-0.5263019800186157,-0.27990588545799255
1749052264.357374,-0.9559677282916468,-1.186414049272873,-1.6088142395019531,4.263873739833496,-1.0541780630694788,3.2450876235961914,0.1184510737657547,0.08828555792570114,0.019796933978796005,0.022741418331861496,-0.0023768972605466843,-0.20753754675388336,0.42611706256866455,0.7244725227355957,1.3812791109085083,0.7581640481948853,-0.5184935927391052,-0.2655222415924072
1749052264.4023094,-0.9557412306415003,-1.186230019932129,-1.6087785959243774,4.263902350062988,-1.0541895071612757,3.2446842193603516,0.12186627089977264,0.08826389908790588,0.01869363524019718,0.022490086033940315,-0.002212810330092907,-0.20662277936935425,0.41314321756362915,0.7503048777580261,1.3965758085250854,0.7670390605926514,-0.5257377624511719,-0.2427556812763214
1749052264.4023554,-0.9555037657367151,-1.1860540372184296,-1.6087539196014404,4.263934774989746,-1.0541513601886194,3.2442052364349365,0.12264840304851532,0.09073092043399811,0.01953994110226631,0.02173614501953125,-0.002116302726790309,-0.20902514457702637,0.4074753522872925,0.7077155113220215,1.3896540403366089,0.7518947124481201,-0.5375095009803772,-0.22565844655036926
1749052264.4023962,-0.9552658239947718,-1.1858582359603425,-1.6086910963058472,4.263994379634521,-1.0541980902301233,3.2438173294067383,0.12636497616767883,0.09079773724079132,0.01919940486550331,0.022079797461628914,-0.0022484215442091227,-0.2045443058013916,0.3966293931007385,0.7243385314941406,1.3963851928710938,0.7625663876533508,-0.5296623110771179,-0.28252512216567993
1749052264.4024355,-0.9550417105304163,-1.1856861275485535,-1.6086781024932861,4.264018221492432,-1.0541465918170374,3.2434489727020264,0.12290830165147781,0.0906965434551239,0.019092625007033348,0.021382907405495644,-0.00277046044357121,-0.20735254883766174,0.434076726436615,0.7202653884887695,1.4008408784866333,0.7564941644668579,-0.5404727458953857,-0.27498874068260193
1749052264.4024746,-0.9547060171710413,-1.185479150419571,-1.6086071729660034,4.264096899623535,-1.0541709105121058,3.242987871170044,0.1266901195049286,0.09004905074834824,0.01967470534145832,0.021575123071670532,-0.0031782654114067554,-0.2089647799730301,0.397163987159729,0.7667543888092041,1.417655348777771,0.7681689858436584,-0.5464340448379517,-0.3040401339530945
1749052264.4025135,-0.954479996358053,-1.1852877599051972,-1.608559489250183,4.264094038600586,-1.0541752020465296,3.2425692081451416,0.12628136575222015,0.09393336623907089,0.02021613158285618,0.021418217569589615,-0.0034183207899332047,-0.21376143395900726,0.417483925819397,0.6851166486740112,1.4002749919891357,0.7653350830078125,-0.561991810798645,-0.2925492823123932
1749052264.4025517,-0.9542182127581995,-1.185119019155838,-1.6085350513458252,4.2641646105,-1.054194752370016,3.242130994796753,0.12683358788490295,0.09076128154993057,0.019770920276641846,0.02149529941380024,-0.0033223372884094715,-0.21868537366390228,0.43814927339553833,0.7435864210128784,1.391310453414917,0.7672944068908691,-0.5399445295333862,-0.2569592595100403
1749052264.4025898,-0.9539783636676233,-1.1849626463702698,-1.6085156202316284,4.264197035426758,-1.054213825856344,3.241708278656006,0.12782275676727295,0.09503156691789627,0.019550906494259834,0.022038020193576813,-0.0031251301988959312,-0.22261372208595276,0.4233296513557434,0.7181199789047241,1.407830834388733,0.7646536827087402,-0.5466356873512268,-0.24336795508861542
1749052264.402628,-0.9537423292743128,-1.1847894948771973,-1.6084868907928467,4.264267130489014,-1.0541914145099085,3.241292715072632,0.12814028561115265,0.09121864289045334,0.019644593819975853,0.02120043896138668,-0.0028729394543915987,-0.22205008566379547,0.4480136036872864,0.767562747001648,1.410377025604248,0.7628600597381592,-0.5488494038581848,-0.24982842803001404
1749052264.4026654,-0.9534924666034144,-1.1846217972091218,-1.6084351539611816,4.264268561000488,-1.054194752370016,3.2408463954925537,0.13174468278884888,0.09394160658121109,0.019991615787148476,0.02165844477713108,-0.0028353664092719555,-0.22293439507484436,0.4427216649055481,0.7624638080596924,1.419594168663025,0.7670966982841492,-0.5413506627082825,-0.25940537452697754
1749052264.4027023,-0.9532459417926233,-1.1844140452197571,-1.6083993911743164,4.264328165645264,-1.0542152563678187,3.2404019832611084,0.13096030056476593,0.09412455558776855,0.020491978153586388,0.022213412448763847,-0.0032493071630597115,-0.21984364092350006,0.42012345790863037,0.7600488662719727,1.4092528820037842,0.7688024044036865,-0.5400752425193787,-0.26440244913101196
1749052264.40274,-0.9528778235064905,-1.1842535001090546,-1.608351230621338,4.264391108150146,-1.0542457739459437,3.23994517326355,0.13526763021945953,0.09516748785972595,0.020673345774412155,0.022452982142567635,-0.0037181987427175045,-0.2208254039287567,0.4009566307067871,0.7502412796020508,1.412153720855713,0.7635926008224487,-0.5505556464195251,-0.29929623007774353
1749052264.4027765,-0.9527204672442835,-1.184030221109726,-1.6083154678344727,4.26444594442334,-1.0542457739459437,3.239518165588379,0.13352400064468384,0.09488392621278763,0.02045198529958725,0.02340005338191986,-0.0038889627903699875,-0.220558300614357,0.4490494430065155,0.772942066192627,1.4176522493362427,0.7810238003730774,-0.5170631408691406,-0.3077884912490845
1749052264.4028144,-0.9524043242083948,-1.1838462215713044,-1.6082947254180908,4.264455481166504,-1.0542390982257288,3.2390241622924805,0.135320782661438,0.09702394157648087,0.02060769312083721,0.024257678538560867,-0.003906303085386753,-0.22610996663570404,0.43486014008522034,0.7576783895492554,1.4224132299423218,0.7647920846939087,-0.5241532921791077,-0.2872287333011627
1749052264.402853,-0.9521215597735804,-1.1836505693248291,-1.6082040071487427,4.264526053065918,-1.0542719999896448,3.238577365875244,0.13661505281925201,0.10162962228059769,0.02105696313083172,0.02436239644885063,-0.003511362709105015,-0.23139166831970215,0.40041711926460266,0.6875803470611572,1.3943302631378174,0.7618867754936218,-0.5448232889175415,-0.26537543535232544
1749052264.40289,-0.9518192450152796,-1.1834537249854584,-1.6081795692443848,4.264585657710693,-1.0542662779437464,3.2381536960601807,0.137679785490036,0.09781137853860855,0.021468227729201317,0.02400193363428116,-0.0032101846300065517,-0.2335316687822342,0.41904085874557495,0.7599015831947327,1.4174574613571167,0.7615184187889099,-0.5273037552833557,-0.2542089819908142
1749052264.4029274,-0.9515665213214319,-1.183277116422989,-1.6081403493881226,4.2646094995686035,-1.054223362599508,3.237621545791626,0.13859334588050842,0.10205557942390442,0.02124692127108574,0.023389115929603577,-0.0031620271038264036,-0.2323409914970398,0.4094974100589752,0.7391697764396667,1.4119715690612793,0.7560643553733826,-0.5355564951896667,-0.2656334340572357
1749052264.4029653,-0.95129901567568,-1.1830625993064423,-1.6081111431121826,4.264650030727051,-1.0542853514300745,3.237165927886963,0.1381668746471405,0.09803234785795212,0.021081281825900078,0.02320701815187931,-0.003740197280421853,-0.2312191277742386,0.4310571551322937,0.792803943157196,1.4186077117919922,0.7838758230209351,-0.5363582372665405,-0.26228880882263184
1749052264.4030044,-0.9510081450091761,-1.182846562271454,-1.6080760955810547,4.264732046718262,-1.0543096701251429,3.236758232116699,0.14218643307685852,0.10058272629976273,0.02140241116285324,0.022415494546294212,-0.0046903397887945175,-0.2317277491092682,0.42412662506103516,0.8043243288993835,1.4235570430755615,0.7845951914787292,-0.5380828976631165,-0.31131449341773987
1749052264.4030426,-0.9507554213153284,-1.1826853615096589,-1.608008623123169,4.264791651363037,-1.054274861012594,3.236260175704956,0.14061859250068665,0.09993507713079453,0.021532366052269936,0.02331629768013954,-0.004830285906791687,-0.2330365926027298,0.43000081181526184,0.7910257577896118,1.4135075807571411,0.7879721522331238,-0.5208753347396851,-0.3069319725036621
1749052264.4030795,-0.9504025618182581,-1.1824615460685273,-1.6079884767532349,4.264784498805664,-1.0542901198016565,3.2357938289642334,0.14258824288845062,0.10104165971279144,0.021291673183441162,0.023457974195480347,-0.004135238006711006,-0.2379223257303238,0.37391331791877747,0.7960067987442017,1.4306296110153198,0.7712656259536743,-0.519169807434082,-0.30221736431121826
1749052264.4031167,-0.9501412550555628,-1.1822342735579987,-1.6079564094543457,4.264825029964111,-1.0543096701251429,3.235280752182007,0.14411009848117828,0.10033978521823883,0.021446766331791878,0.02432953752577305,-0.003345320699736476,-0.24358515441417694,0.41114217042922974,0.8203354477882385,1.4338643550872803,0.7843163013458252,-0.5172685980796814,-0.27385109663009644
1749052264.4033973,-0.9498546759234827,-1.1820494395545502,-1.607892632484436,4.26490752279248,-1.0543025175677698,3.2347700595855713,0.14548161625862122,0.10139978677034378,0.02232307940721512,0.026317916810512543,-0.0029560080729424953,-0.24820758402347565,0.4154219627380371,0.8341768383979797,1.4219934940338135,0.7910490036010742,-0.5356540083885193,-0.24766063690185547
1749052264.4053686,-0.9495299498187464,-1.1818447274020691,-1.6078377962112427,4.264955206508301,-1.0542953650103968,3.2342913150787354,0.14614102244377136,0.10165899246931076,0.02356209233403206,0.026542095467448235,-0.0031471990514546633,-0.24918124079704285,0.37396103143692017,0.8417676091194153,1.4162194728851318,0.778496503829956,-0.5179436802864075,-0.2299111783504486
1749052264.446296,-0.9492710272418421,-1.1816101235202332,-1.6078050136566162,4.264998598689697,-1.0542710463153284,3.2338085174560547,0.14859962463378906,0.10435015708208084,0.023820314556360245,0.027091823518276215,-0.0031106402166187763,-0.2490629255771637,0.375973641872406,0.827764630317688,1.4149178266525269,0.7728816866874695,-0.5448304414749146,-0.23684032261371613
1749052264.4463422,-0.9489863554583948,-1.1813706916621705,-1.607749104499817,4.265058680171631,-1.05432635942568,3.233314037322998,0.146914541721344,0.10537457466125488,0.023684607818722725,0.024992574006319046,-0.0033337720669806004,-0.2450467050075531,0.43914994597435,0.8111696839332581,1.410050630569458,0.8015124201774597,-0.5446435809135437,-0.24706833064556122
1749052264.446382,-0.9486821333514612,-1.1811856788447876,-1.6077165603637695,4.265122099513672,-1.0543211142169397,3.2327959537506104,0.147091805934906,0.10992271453142166,0.02397884428501129,0.0255062747746706,-0.003543083555996418,-0.2479880452156067,0.40855172276496887,0.7778434753417969,1.4178591966629028,0.7878005504608154,-0.50728839635849,-0.2539765238761902
1749052264.446421,-0.9484208265887659,-1.181008206014969,-1.6076490879058838,4.265154047603271,-1.0543106237994593,3.232301712036133,0.149166539311409,0.10828771442174911,0.024633554741740227,0.02666391432285309,-0.003441020380705595,-0.244832843542099,0.40547898411750793,0.7814286947250366,1.3880757093429565,0.7783096432685852,-0.5332812070846558,-0.29151418805122375
1749052264.446459,-0.948094669972555,-1.1808084708503266,-1.6075900793075562,4.265213652248047,-1.054375950490133,3.231842041015625,0.15094563364982605,0.11299533396959305,0.02481658384203911,0.028649339452385902,-0.0035517539363354445,-0.24794860184192657,0.41965335607528687,0.758662223815918,1.403605341911316,0.7812227010726929,-0.5420452952384949,-0.3027315139770508
1749052264.4464974,-0.9477680365191858,-1.1805727046779175,-1.607541799545288,4.265284700984619,-1.0543068091021937,3.2313082218170166,0.15203528106212616,0.10947316139936447,0.025106506422162056,0.029462870210409164,-0.0037077588494867086,-0.2518952488899231,0.43150776624679565,0.7724107503890991,1.3950587511062622,0.7697970867156982,-0.5253607630729675,-0.27503544092178345
1749052264.4465365,-0.947425667439596,-1.1803173881820221,-1.6074979305267334,4.265344782466553,-1.0543416182147425,3.2308220863342285,0.15272341668605804,0.11038028448820114,0.025362519547343254,0.02970956638455391,-0.003432262921705842,-0.2522229552268982,0.4321703016757965,0.7725202441215515,1.4022990465164185,0.7679658532142639,-0.5298482179641724,-0.2992081940174103
1749052264.4465759,-0.9471676985370081,-1.1800814431956788,-1.6074341535568237,4.265392466182373,-1.0543692747699183,3.230299472808838,0.15356658399105072,0.11054566502571106,0.0252583809196949,0.02858646959066391,-0.003873622976243496,-0.2546386420726776,0.39879781007766724,0.7941979765892029,1.3811568021774292,0.7563879489898682,-0.5306183099746704,-0.2791760563850403
1749052264.4466147,-0.9468420187579554,-1.1798660320094605,-1.607401967048645,4.265448732967041,-1.0543654600726526,3.2297770977020264,0.1564301997423172,0.11064598709344864,0.024915289133787155,0.028332918882369995,-0.004180272109806538,-0.2578546404838562,0.4250321388244629,0.8152915835380554,1.4005730152130127,0.7607523202896118,-0.5256839990615845,-0.2982466220855713
1749052264.4466558,-0.9466150442706507,-1.179664061670639,-1.6073538064956665,4.265511675471924,-1.0543502012835901,3.2292516231536865,0.15310843288898468,0.11201354116201401,0.025042232125997543,0.028480052947998047,-0.0043157548643648624,-0.25698405504226685,0.44504332542419434,0.8150763511657715,1.3901680707931519,0.7630765438079834,-0.5277124643325806,-0.296663761138916
1749052264.4466963,-0.9462569395648401,-1.1793814462474366,-1.6072936058044434,4.265559359187744,-1.0543773810016077,3.2287447452545166,0.15487004816532135,0.11152496188879013,0.02519861049950123,0.028930949047207832,-0.004011048469692469,-0.25938740372657776,0.4153170883655548,0.7685056924819946,1.37503182888031,0.7422733306884766,-0.5324374437332153,-0.29810234904289246
1749052264.4467337,-0.9459450880633753,-1.1791884464076539,-1.607218623161316,4.265603705043457,-1.0543859640704554,3.228233814239502,0.15641316771507263,0.1142679825425148,0.02524573728442192,0.029625408351421356,-0.0036796419881284237,-0.26387035846710205,0.4151545763015747,0.8168643712997437,1.3882555961608887,0.7461564540863037,-0.5250645875930786,-0.2739555239677429
1749052264.4467714,-0.9456661383258265,-1.1789517265609284,-1.6072020530700684,4.2656590181538085,-1.054394547139303,3.2276692390441895,0.1581265926361084,0.11285598576068878,0.025320695713162422,0.02910437434911728,-0.003553473623469472,-0.26520034670829773,0.4583241045475006,0.7960289716720581,1.383741021156311,0.7466105222702026,-0.5220668315887451,-0.2762218117713928
1749052264.44681,-0.9453213850604456,-1.17871908963237,-1.6071351766586304,4.265726252193115,-1.0544207731830042,3.227165460586548,0.15981893241405487,0.11536753922700882,0.0262973103672266,0.028992751613259315,-0.0036158685106784105,-0.2646542191505432,0.46017467975616455,0.7684023976325989,1.3788262605667114,0.7484842538833618,-0.5406723022460938,-0.26954329013824463
1749052264.4468472,-0.9450305143939417,-1.1785163444331666,-1.6070905923843384,4.265797777766846,-1.0544136206256312,3.2266359329223633,0.15934649109840393,0.11695310473442078,0.026531081646680832,0.02849428728222847,-0.003745854599401355,-0.26649409532546997,0.45499658584594727,0.7729319930076599,1.366417407989502,0.737675666809082,-0.5254979133605957,-0.26312658190727234
1749052264.4468858,-0.9446867148028772,-1.1782297653010865,-1.6070466041564941,4.265845461482666,-1.0544136206256312,3.226081609725952,0.1613583117723465,0.11797809600830078,0.026718635112047195,0.02847752906382084,-0.003943838644772768,-0.2629823088645935,0.3961615562438965,0.7788830399513245,1.3891940116882324,0.7489712238311768,-0.524704098701477,-0.3250991702079773
1749052264.4469235,-0.9443782011615198,-1.1779558223536988,-1.6069673299789429,4.265923662776611,-1.0544145742999476,3.2255239486694336,0.16306552290916443,0.1189340278506279,0.02610056661069393,0.027792232111096382,-0.004105261527001858,-0.2663683295249939,0.42363056540489197,0.7274511456489563,1.36289644241333,0.7481383681297302,-0.5201429128646851,-0.31405362486839294
1749052264.4469638,-0.9440034071551722,-1.1777462524226685,-1.6069226264953613,4.265995188350342,-1.0544145742999476,3.2250447273254395,0.16356179118156433,0.11931819468736649,0.025388065725564957,0.02894330769777298,-0.0037910868413746357,-0.27016308903694153,0.4284229576587677,0.7502336502075195,1.372799038887024,0.7564165592193604,-0.5147720575332642,-0.3172246217727661
1749052264.447002,-0.9436958471881312,-1.177471624021866,-1.6068823337554932,4.2660204607197265,-1.0544031302081507,3.224487066268921,0.16341914236545563,0.12051514536142349,0.025672301650047302,0.030459634959697723,-0.00364265707321465,-0.2728763818740845,0.4570894241333008,0.7197973728179932,1.392299771308899,0.7280041575431824,-0.5130897760391235,-0.3233509659767151
1749052264.4470391,-0.9433758894549769,-1.1772632163814087,-1.6067994832992554,4.266145392055176,-1.0544489065753382,3.2238895893096924,0.16472414135932922,0.1211436465382576,0.026160145178437233,0.03019251674413681,-0.0037063281051814556,-0.27751079201698303,0.4360434114933014,0.7420722246170044,1.365049123764038,0.73755943775177,-0.5283231735229492,-0.3062885105609894
1749052264.4473867,-0.9430649916278284,-1.1770108801177521,-1.606736183166504,4.26615492879834,-1.0544269720660608,3.223339319229126,0.16672828793525696,0.12081389874219894,0.02661665342748165,0.029971301555633545,-0.004111642949283123,-0.2760348618030548,0.45625776052474976,0.7799275517463684,1.3635680675506592,0.7182186245918274,-0.522294282913208,-0.3060150146484375
1749052264.4493992,-0.9427292982684534,-1.1767845910838624,-1.6066802740097046,4.266214533443115,-1.0544422308551233,3.2228000164031982,0.170132115483284,0.12086568027734756,0.027828434482216835,0.028873175382614136,-0.004620287101715803,-0.2801339030265808,0.4479921758174896,0.7455606460571289,1.3372074365615845,0.7126922011375427,-0.5252465009689331,-0.30051177740097046
1749052264.494379,-0.9423545042621058,-1.1765682262233277,-1.6066513061523438,4.2662550646015625,-1.0544970671283167,3.22224497795105,0.16685271263122559,0.12312047183513641,0.028361117467284203,0.027874307706952095,-0.005289823282510042,-0.28188207745552063,0.4702998399734497,0.7666121125221252,1.3154839277267456,0.7305395603179932,-0.5072306394577026,-0.30588120222091675
1749052264.4944282,-0.9420440832721155,-1.176320807342865,-1.6065952777862549,4.266337557429932,-1.0544937292682093,3.221627950668335,0.16788801550865173,0.1213986873626709,0.02718757465481758,0.027509277686476707,-0.0055314782075583935,-0.2851526141166687,0.4379552900791168,0.7856753468513489,1.3431044816970825,0.7278217077255249,-0.5034281015396118,-0.29597461223602295
1749052264.4944701,-0.9416998068438929,-1.1760697823813935,-1.606496810913086,4.266386194820068,-1.0545008818255823,3.2210702896118164,0.16893883049488068,0.12342879176139832,0.026634005829691887,0.028857804834842682,-0.0048388466238975525,-0.28709128499031067,0.4693417549133301,0.7357262372970581,1.345081090927124,0.7280208468437195,-0.4917127192020416,-0.3135925531387329
1749052264.4945104,-0.9413860479937952,-1.175810770397522,-1.6064715385437012,4.266464872951172,-1.0544851461993616,3.220538854598999,0.16846084594726562,0.12460087239742279,0.027155252173542976,0.03027089685201645,-0.0036284474190324545,-0.28826195001602173,0.4757039546966553,0.7362614274024963,1.327635407447815,0.7138313055038452,-0.5106792449951172,-0.28477585315704346
1749052264.4945505,-0.9410341421710413,-1.1755276185325165,-1.6063926219940186,4.266536398524902,-1.054514233266012,3.219945192337036,0.16959622502326965,0.12447451800107956,0.02742641791701317,0.03062230907380581,-0.003351059975102544,-0.2868426442146301,0.4537670612335205,0.7249377965927124,1.3269470930099487,0.7066015601158142,-0.5278695821762085,-0.30320075154304504
1749052264.4945903,-0.9406674543963831,-1.1752884548953553,-1.6063445806503296,4.26656882345166,-1.0544903914081019,3.2193775177001953,0.17339326441287994,0.12472192198038101,0.02898532524704933,0.02951686643064022,-0.0031642261892557144,-0.28718647360801697,0.4559624493122101,0.7254341840744019,1.3029816150665283,0.7007017135620117,-0.5202908515930176,-0.30269768834114075
1749052264.4946287,-0.9403303305255335,-1.1750605267337342,-1.606269359588623,4.2666284280964355,-1.0545209089862269,3.218780040740967,0.17365117371082306,0.12677046656608582,0.028482887893915176,0.028660962358117104,-0.0032782447524368763,-0.2900809645652771,0.46583911776542664,0.7437623739242554,1.3195720911026,0.7020472288131714,-0.5357259511947632,-0.30651241540908813
1749052264.4946663,-0.9399979750262659,-1.174822912817337,-1.6062408685684204,4.266683264369629,-1.0545294920550745,3.2181742191314697,0.17543455958366394,0.12423190474510193,0.02849137969315052,0.026898957788944244,-0.003606057958677411,-0.2902805209159851,0.45706504583358765,0.778298556804657,1.315482497215271,0.7233102321624756,-0.5199313163757324,-0.3354915678501129
1749052264.4947038,-0.9399979750262659,-1.174822912817337,-1.6062408685684204,4.266683264369629,-1.0545294920550745,3.2181742191314697,0.17543455958366394,0.12423190474510193,0.02849137969315052,0.026898957788944244,-0.003606057958677411,-0.2902805209159851,0.45706504583358765,0.778298556804657,1.315482497215271,0.7233102321624756,-0.5199313163757324,-0.3354915678501129
1749052264.4947422,-0.9393227736102503,-1.1743080478957673,-1.6060978174209595,4.26680247365918,-1.054532829915182,3.2170419692993164,0.17739248275756836,0.1261616200208664,0.027160555124282837,0.026703640818595886,-0.004807944409549236,-0.29705020785331726,0.4578758478164673,0.7818164825439453,1.3288522958755493,0.7482870817184448,-0.5072416067123413,-0.29660457372665405
1749052264.4947798,-0.9389670530902308,-1.174028293495514,-1.6060813665390015,4.266846342677734,-1.0545604864703577,3.2164406776428223,0.1781599223613739,0.1263328343629837,0.025997349992394447,0.028176039457321167,-0.004366169683635235,-0.2965160608291626,0.4550279974937439,0.7578213810920715,1.3421274423599243,0.7451953887939453,-0.5019140243530273,-0.31592750549316406
1749052264.494822,-0.9386003653155726,-1.173776076441147,-1.6060247421264648,4.266917868251465,-1.0545414129840296,3.215845823287964,0.1777227818965912,0.12685608863830566,0.026497581973671913,0.02882252261042595,-0.0036692277062684298,-0.2985083758831024,0.49700427055358887,0.7795127034187317,1.3405126333236694,0.7376342415809631,-0.5133248567581177,-0.3055451214313507
1749052264.4948602,-0.9382684866534632,-1.173550770883896,-1.6059808731079102,4.26697747289624,-1.0545623938189905,3.2152161598205566,0.17659102380275726,0.12848523259162903,0.027840986847877502,0.03050624206662178,-0.003219346050173044,-0.3020961880683899,0.5052160024642944,0.766800582408905,1.3223594427108765,0.7339605093002319,-0.5184552669525146,-0.3008769154548645
1749052264.494897,-0.9378574530230921,-1.1732747119716187,-1.605928897857666,4.267040892238281,-1.054572884236471,3.214590072631836,0.17890122532844543,0.12985031306743622,0.028024110943078995,0.03110201098024845,-0.0031194870825856924,-0.30532389879226685,0.4869784116744995,0.7478639483451843,1.3162353038787842,0.7315740585327148,-0.520006537437439,-0.2938653826713562
1749052264.494934,-0.9375293890582483,-1.1729643207839509,-1.6058508157730103,4.267112417812012,-1.0546134153949183,3.2140185832977295,0.18194599449634552,0.1304386854171753,0.027082409709692,0.031017955392599106,-0.0034445649944245815,-0.30570951104164124,0.49509912729263306,0.7460882067680359,1.3356331586837769,0.7199515700340271,-0.5145276784896851,-0.2868403494358063
1749052264.4949713,-0.9371264616595667,-1.1727124911597748,-1.6058062314987183,4.267156286830566,-1.0546048323260706,3.213392972946167,0.18577490746974945,0.13207553327083588,0.026728229597210884,0.03043035976588726,-0.0037580817006528378,-0.30526283383369446,0.4878075122833252,0.7771774530410767,1.3280481100082397,0.7271543145179749,-0.5235223770141602,-0.2937454283237457
1749052264.495009,-0.9367859999286097,-1.1724903148463746,-1.6057615280151367,4.2672316271015625,-1.0545623938189905,3.2127716541290283,0.18492774665355682,0.12984423339366913,0.026835117489099503,0.030687082558870316,-0.0038506677374243736,-0.30493149161338806,0.45278748869895935,0.7626438140869141,1.330073356628418,0.7232033014297485,-0.5223354697227478,-0.30986151099205017
1749052264.4950469,-0.9364107290851038,-1.1721840661815186,-1.6057020425796509,4.267294569606445,-1.0545862356769007,3.2121458053588867,0.1859934777021408,0.13283565640449524,0.026932206004858017,0.03065158985555172,-0.003898180089890957,-0.30365487933158875,0.42509642243385315,0.7472240328788757,1.3251662254333496,0.7410888075828552,-0.5223596692085266,-0.3113538324832916
1749052264.4950843,-0.9360078016864222,-1.1719395977309723,-1.6056345701217651,4.26734368383374,-1.0546134153949183,3.2115237712860107,0.18650908768177032,0.13152864575386047,0.026907293125987053,0.03144900128245354,-0.003608129918575287,-0.306246280670166,0.46750396490097046,0.8029524683952332,1.3489990234375,0.7323533296585083,-0.5241832137107849,-0.3216205835342407
1749052264.495121,-0.9356678167926233,-1.1716517967036744,-1.6056218147277832,4.267410441035889,-1.0545700232135218,3.2108757495880127,0.18729007244110107,0.1335023194551468,0.02739291824400425,0.031294435262680054,-0.0035609526094049215,-0.30994683504104614,0.4790305495262146,0.7868266105651855,1.3395074605941772,0.7444742321968079,-0.5216527581214905,-0.3185853362083435
1749052264.4951577,-0.9353116194354456,-1.1713839930346985,-1.6055387258529663,4.267466230983398,-1.0545738379107874,3.210296630859375,0.18848325312137604,0.13411825895309448,0.02723303809762001,0.03195919841527939,-0.0038477678317576647,-0.3151842951774597,0.4656495749950409,0.7654247283935547,1.3180874586105347,0.7271538376808167,-0.5205636620521545,-0.2942902445793152
1749052264.4951952,-0.934915844594137,-1.1711736482432862,-1.6054948568344116,4.267525835628174,-1.0546477476703089,3.2097086906433105,0.18925407528877258,0.13299913704395294,0.026295943185687065,0.03194858506321907,-0.004357243422418833,-0.3139435648918152,0.4775611460208893,0.7701767683029175,1.3461863994598389,0.7380421757698059,-0.5159639716148376,-0.30421873927116394
1749052264.4954195,-0.9345405737506312,-1.1708820921233674,-1.605434775352478,4.267597361201904,-1.0546167532550257,3.2090392112731934,0.190444678068161,0.13831555843353271,0.02608243003487587,0.03284318745136261,-0.004314993042498827,-0.31741005182266235,0.4722571074962616,0.7308610677719116,1.3525242805480957,0.7364166975021362,-0.513318657875061,-0.3039514720439911
1749052264.497378,-0.9341257254229944,-1.1705713135055085,-1.6054186820983887,4.2676727014729,-1.0545995871173304,3.2083845138549805,0.19243277609348297,0.13851943612098694,0.027418412268161774,0.03379300609230995,-0.00442237826064229,-0.31947916746139526,0.4502074718475342,0.718722939491272,1.3548438549041748,0.727367639541626,-0.5324638485908508,-0.30189961194992065
1749052264.5423923,-0.9337418715106409,-1.1702877444079895,-1.6053191423416138,4.267747564906738,-1.0546405951129358,3.207749843597412,0.19294247031211853,0.1396273672580719,0.027741050347685814,0.0341377854347229,-0.004881126340478659,-0.32435598969459534,0.4153197705745697,0.694546639919281,1.353394627571106,0.7064638733863831,-0.5110372304916382,-0.28615763783454895
1749052264.5424483,-0.9333222548114222,-1.1700308185866852,-1.6052398681640625,4.267834826106689,-1.054621998463766,3.2070538997650146,0.1922895610332489,0.1384499967098236,0.027535859495401382,0.03520669415593147,-0.005049297586083412,-0.32622596621513367,0.45363849401474,0.694250762462616,1.3417314291000366,0.7127795219421387,-0.5054870247840881,-0.27005892992019653
1749052264.5424917,-0.9329107443438929,-1.1697502595237275,-1.605183482170105,4.267871065730713,-1.0546682516681116,3.206453561782837,0.19507096707820892,0.1383182257413864,0.02742578461766243,0.0346003957092762,-0.0053625563159585,-0.3260347843170166,0.4463573694229126,0.7407475709915161,1.355307698249817,0.7207417488098145,-0.5004627108573914,-0.259581059217453
1749052264.5425358,-0.9325874487506312,-1.1694823068431397,-1.6051393747329712,4.267965956325195,-1.0547078291522425,3.205822706222534,0.19621869921684265,0.13835746049880981,0.02791406214237213,0.03448020666837692,-0.005881344899535179,-0.3262080252170563,0.4583520293235779,0.7626224160194397,1.349570631980896,0.7083832621574402,-0.5166844725608826,-0.27638816833496094
1749052264.5425792,-0.9321520964251917,-1.1691625577262421,-1.6050912141799927,4.268021746272705,-1.0546281973468226,3.2051637172698975,0.19537529349327087,0.13851334154605865,0.029446804895997047,0.03481871634721756,-0.005500570870935917,-0.32083001732826233,0.4473522901535034,0.7487456202507019,1.3374793529510498,0.7311190962791443,-0.5026688575744629,-0.27784326672554016
1749052264.5426192,-0.9317596594439905,-1.168914572601654,-1.605027437210083,4.268089933986328,-1.0547316710101526,3.2044765949249268,0.1967003345489502,0.13823048770427704,0.030246000736951828,0.033997245132923126,-0.005143881309777498,-0.32112887501716614,0.4300723969936371,0.7637143135070801,1.3218886852264404,0.7250016331672668,-0.5079155564308167,-0.2921390235424042
1749052264.5426571,-0.931373421345846,-1.1685948234847565,-1.604984164237976,4.268152876491211,-1.0547316710101526,3.2038686275482178,0.19636788964271545,0.13766084611415863,0.029169103130698204,0.03481936827301979,-0.005779098253697157,-0.32341623306274414,0.4386425018310547,0.7880218029022217,1.3488835096359253,0.7117540240287781,-0.4829148054122925,-0.310005247592926
1749052264.5426953,-0.931014362965719,-1.1683266919902344,-1.6049156188964844,4.268217249507568,-1.0547588507281702,3.20316481590271,0.19580762088298798,0.14106902480125427,0.029011353850364685,0.034592192620038986,-0.005824148189276457,-0.32799360156059265,0.4556378126144409,0.7344032526016235,1.3295245170593262,0.7058883905410767,-0.49639785289764404,-0.2949824035167694
1749052264.5427349,-0.9306123892413538,-1.1680078965476532,-1.6048517227172852,4.268304033870361,-1.0547521750079554,3.202561378479004,0.19532416760921478,0.14496968686580658,0.028114333748817444,0.034652192145586014,-0.005931379739195108,-0.3259093761444092,0.4702063500881195,0.7438448071479797,1.3668078184127808,0.7081203460693359,-0.5063336491584778,-0.3284245729446411
1749052264.5427735,-0.9301889578448694,-1.1677738291076203,-1.6048041582107544,4.268413706416748,-1.0547245184527796,3.2018439769744873,0.19564712047576904,0.14397726953029633,0.02922574058175087,0.0344587080180645,-0.005027477163821459,-0.32911595702171326,0.4477667212486267,0.7167133688926697,1.362947940826416,0.6984310150146484,-0.5042466521263123,-0.3073791563510895
1749052264.5428119,-0.9298093954669397,-1.1674776834300538,-1.6047130823135376,4.26845042287793,-1.0547450224505823,3.2011990547180176,0.19779254496097565,0.1444808542728424,0.029809031635522842,0.03434980660676956,-0.00444714305922389,-0.3328659236431122,0.4200676381587982,0.7336934208869934,1.3328675031661987,0.7308651804924011,-0.5085895657539368,-0.31879550218582153
1749052264.5428493,-0.9294083754168909,-1.1672015947154541,-1.60466468334198,4.2684947687336425,-1.0547378698932093,3.200446844100952,0.20006397366523743,0.14855080842971802,0.029625680297613144,0.03516027703881264,-0.004605988506227732,-0.33859196305274963,0.45534706115722656,0.720344066619873,1.3547347784042358,0.712616503238678,-0.488525927066803,-0.29219943284988403
1749052264.5428867,-0.9289901892291468,-1.1669351619533082,-1.6046243906021118,4.2685510355183105,-1.054784123097555,3.1997761726379395,0.20090802013874054,0.14548911154270172,0.03096478059887886,0.03555205464363098,-0.005195092875510454,-0.34292080998420715,0.41276875138282776,0.7394033670425415,1.3426483869552612,0.700255274772644,-0.5118003487586975,-0.24598006904125214
1749052264.542926,-0.928589169179098,-1.1666159492782135,-1.6045799255371094,4.268622561092041,-1.0547688643084925,3.1990697383880615,0.19989092648029327,0.14504976570606232,0.03115599974989891,0.03534911945462227,-0.00567197659984231,-0.340104877948761,0.4099617004394531,0.7209690809249878,1.334030270576477,0.7067329287528992,-0.4952346086502075,-0.20675742626190186
1749052264.5429657,-0.9281776587115687,-1.166324720983841,-1.604469895362854,4.268712683314941,-1.0547736326800745,3.1984333992004395,0.1987912356853485,0.1457771211862564,0.02975357323884964,0.03526249900460243,-0.005869134329259396,-0.33624687790870667,0.4469292461872101,0.7454530000686646,1.354122281074524,0.7090097069740295,-0.48402857780456543,-0.25458216667175293
1749052264.5430067,-0.9277389685260218,-1.1660298270038147,-1.604441523551941,4.268780871028564,-1.054770294819967,3.1977288722991943,0.1999131143093109,0.14631447196006775,0.028687430545687675,0.03476685285568237,-0.005161662586033344,-0.33556196093559265,0.4881598651409149,0.7389404773712158,1.3671756982803345,0.7089694142341614,-0.4852297306060791,-0.27640753984451294
1749052264.5430448,-0.9274171034442347,-1.1657639902881165,-1.60438871383667,4.268836660976074,-1.0547893683062952,3.1970908641815186,0.20225611329078674,0.14817874133586884,0.029908567667007446,0.03528589382767677,-0.0041467067785561085,-0.334820032119751,0.45768553018569946,0.7463713884353638,1.3563200235366821,0.710487961769104,-0.4915025234222412,-0.3136169910430908
1749052264.5430853,-0.9269855658160608,-1.165441409950592,-1.604337453842163,4.2689124780842285,-1.0548165480243128,3.196401596069336,0.20407533645629883,0.1497150957584381,0.030709674581885338,0.03604123741388321,-0.003371544647961855,-0.33466964960098267,0.45700016617774963,0.699258029460907,1.3445533514022827,0.7056947946548462,-0.5030180215835571,-0.30818086862564087
1749052264.5431278,-0.9265554586993616,-1.1651567679694672,-1.604280948638916,4.268971605891846,-1.0547941366778772,3.1957027912139893,0.20470519363880157,0.14916099607944489,0.030517766252160072,0.03749225661158562,-0.003191826632246375,-0.33636942505836487,0.46007660031318665,0.7203089594841003,1.3346004486083984,0.7060360908508301,-0.49351441860198975,-0.2914728820323944
1749052264.5431662,-0.9261120001422327,-1.1648603540709992,-1.604185938835144,4.269055052394531,-1.0548322836505335,3.1950933933258057,0.2051764726638794,0.14979398250579834,0.030229566618800163,0.03761330619454384,-0.003525358624756336,-0.3389589786529541,0.42068564891815186,0.7430488467216492,1.3666138648986816,0.6939031481742859,-0.5016968846321106,-0.3298795819282532
1749052264.5432043,-0.925734821950094,-1.1645378035357972,-1.6041492223739624,4.269126577968262,-1.0548480192767542,3.194399833679199,0.20608273148536682,0.15008994936943054,0.03018128126859665,0.037158068269491196,-0.00415417505428195,-0.3387737572193146,0.4092181324958801,0.7613120079040527,1.356528878211975,0.7124260663986206,-0.4938504099845886,-0.37148427963256836
1749052264.5432425,-0.925734821950094,-1.1645378035357972,-1.6041492223739624,4.269126577968262,-1.0548480192767542,3.194399833679199,0.20608273148536682,0.15008994936943054,0.03018128126859665,0.037158068269491196,-0.00415417505428195,-0.3387737572193146,0.4092181324958801,0.7613120079040527,1.356528878211975,0.7124260663986206,-0.4938504099845886,-0.37148427963256836
1749052264.543391,-0.925293270741598,-1.1642717880061646,-1.6040741205215454,4.269198103541992,-1.0548718611346644,3.1936397552490234,0.20412254333496094,0.15282826125621796,0.030149979516863823,0.035931576043367386,-0.0046393368393182755,-0.3484729826450348,0.4565105438232422,0.73853999376297,1.3709639310836792,0.7158687710762024,-0.4891933798789978,-0.3602169156074524
1749052264.5453987,-0.9244578520404261,-1.163656161432602,-1.6039592027664185,4.269341154689453,-1.0548575560199183,3.192239761352539,0.20982186496257782,0.15217158198356628,0.030842578038573265,0.03697601705789566,-0.00455658882856369,-0.3567104935646057,0.45281216502189636,0.7918124794960022,1.3848925828933716,0.7081031799316406,-0.49177640676498413,-0.299019455909729
1749052264.59031,-0.924011532460348,-1.1633443099311371,-1.6039217710494995,4.269424601192139,-1.0548766295062464,3.191556930541992,0.21193276345729828,0.15420237183570862,0.030979864299297333,0.03972676396369934,-0.004579897504299879,-0.35484567284584045,0.4221033751964569,0.7477092146873474,1.3697975873947144,0.6759217977523804,-0.48683565855026245,-0.26955583691596985
1749052264.5903573,-0.9236162344561976,-1.1630660754493256,-1.6038461923599243,4.2694923120686035,-1.0548422972308558,3.1908228397369385,0.21162614226341248,0.1540474146604538,0.030851781368255615,0.03982032090425491,-0.00478172255679965,-0.35285595059394836,0.428773432970047,0.6760311126708984,1.3636971712112427,0.6999254822731018,-0.4829275608062744,-0.30471959710121155
1749052264.5903995,-0.9231894651996058,-1.162750170832016,-1.603790283203125,4.269579573268555,-1.0549195448504847,3.1900787353515625,0.21022607386112213,0.15215346217155457,0.02974550798535347,0.03724442794919014,-0.0047930581495165825,-0.35260874032974243,0.48010826110839844,0.8032797574996948,1.4056320190429688,0.6903958320617676,-0.4937170743942261,-0.35265225172042847
1749052264.5904577,-0.9227522055255335,-1.1624232691577454,-1.6037110090255737,4.2696472841450195,-1.0549276510821741,3.189387559890747,0.21103690564632416,0.15412583947181702,0.030213799327611923,0.03645290061831474,-0.0046660504303872585,-0.35519397258758545,0.4622487425804138,0.7550400495529175,1.3927087783813477,0.6955921649932861,-0.4747071862220764,-0.32276707887649536
1749052264.5905273,-0.9223006407367151,-1.1620920461467286,-1.6036736965179443,4.269725962276123,-1.0549276510821741,3.188744068145752,0.21155202388763428,0.15552014112472534,0.03207070380449295,0.036791857331991196,-0.004467472434043884,-0.35664957761764526,0.48845091462135315,0.7440076470375061,1.3843328952789307,0.7003453373908997,-0.492278516292572,-0.306347131729126
1749052264.5905943,-0.9218652884112757,-1.1617488724044343,-1.6035865545272827,4.2698094087788085,-1.0549123922931116,3.188028335571289,0.21350809931755066,0.15648798644542694,0.03209913894534111,0.037363842129707336,-0.004158434458076954,-0.3587324321269989,0.4798445999622345,0.7359021306037903,1.3745849132537842,0.6994109153747559,-0.48645347356796265,-0.3520599603652954
1749052264.59066,-0.9214594999896448,-1.1614712637713929,-1.6035544872283936,4.2698656755634765,-1.054889980946676,3.187364339828491,0.2150540053844452,0.15573811531066895,0.031405411660671234,0.038382407277822495,-0.004265105351805687,-0.36005067825317383,0.449618399143219,0.76302570104599,1.3780419826507568,0.7018077373504639,-0.47571176290512085,-0.36412596702575684
1749052264.5907297,-0.9210374991046351,-1.1611817342093964,-1.6034597158432007,4.269964380855225,-1.05493671098818,3.1865639686584473,0.21699625253677368,0.15709328651428223,0.031775616109371185,0.040004272013902664,-0.004545135889202356,-0.37033671140670776,0.4272325932979584,0.7516050338745117,1.3919930458068848,0.6804526448249817,-0.4748595356941223,-0.3557294011116028
1749052264.590802,-0.920593563710348,-1.1608249110034485,-1.6033838987350464,4.27004782735791,-1.0549448172198694,3.1858508586883545,0.2166088968515396,0.1571589559316635,0.032299336045980453,0.03992579132318497,-0.005304217338562012,-0.3767625391483307,0.42580461502075195,0.7445151805877686,1.3926793336868286,0.6834972500801086,-0.4796155095100403,-0.28788405656814575
1749052264.590872,-0.920107666646139,-1.1605505806258698,-1.6033281087875366,4.27008502065625,-1.0549224058734339,3.185070276260376,0.21482090651988983,0.15809272229671478,0.032249320298433304,0.03877103328704834,-0.005598192568868399,-0.37672603130340576,0.44596460461616516,0.74992835521698,1.3906776905059814,0.6834090948104858,-0.4486299753189087,-0.277010977268219
1749052264.5909438,-0.9197185675250452,-1.160179690723755,-1.6032907962799072,4.2701684671589355,-1.0549915472613733,3.1843509674072266,0.2158041149377823,0.1605733335018158,0.03211349993944168,0.0384371243417263,-0.005220051389187574,-0.37340715527534485,0.46986931562423706,0.7760029435157776,1.4119783639907837,0.6825370788574219,-0.4779464602470398,-0.31236010789871216
1749052264.5910137,-0.9192674795733851,-1.159924404030182,-1.603227138519287,4.2702624040791015,-1.0550068060504358,3.1836252212524414,0.21897879242897034,0.15903420746326447,0.032403718680143356,0.038471873849630356,-0.004814747720956802,-0.37106436491012573,0.48348599672317505,0.7667511105537415,1.4072922468185425,0.6920028328895569,-0.48685574531555176,-0.33743008971214294
1749052264.5910814,-0.9188240210162562,-1.159569190149643,-1.603132724761963,4.270314856166504,-1.0549877325641077,3.18282151222229,0.22261451184749603,0.1597994863986969,0.033161237835884094,0.03875572606921196,-0.004350061062723398,-0.37366190552711487,0.436864972114563,0.7441226243972778,1.4085479974746704,0.6879718899726868,-0.47883665561676025,-0.3312077820301056
1749052264.5911503,-0.9184044043170374,-1.1592420202544709,-1.60308039188385,4.2704054552265625,-1.0549810568438929,3.1820790767669678,0.22250109910964966,0.16108328104019165,0.03361305594444275,0.03880852460861206,-0.004834135062992573,-0.37719106674194336,0.4455975890159607,0.7508887648582458,1.4103925228118896,0.6899598240852356,-0.4705730080604553,-0.32455044984817505
