nimar13/UR3e_dataset_trayectorias/trayectorias_ejecutadas/trapezoidal/trayectoria_035_result.csv
timestamp,q1,q2,q3,q4,q5,q6,qd1,qd2,qd3,qd4,qd5,qd6,tau1,tau2,tau3,tau4,tau5,tau6
1749047141.0662823,0.43245434761047363,-2.147268911401266,1.1444056669818323,3.1013313966938476,3.2630457878112793,-1.2255566755877894,-0.0019485707161948085,0.0002052622294286266,-0.0004770131781697273,-0.0003915101697202772,0.0015394426882266998,0.00038341706385836005,0.1392444372177124,0.704121470451355,-0.5195330381393433,0.20978210866451263,0.5299811363220215,0.13507772982120514
1749047141.066329,0.4324883222579956,-2.147280832330221,1.1444056669818323,3.101315661067627,3.2630457878112793,-1.22557241121401,-0.0017399921780452132,0.00022689728939440101,-0.0004980870871804655,-0.0003598331240937114,0.001105967559851706,0.00036417003138922155,0.1391739398241043,0.713407039642334,-0.5104498863220215,0.19881172478199005,0.5193591117858887,0.14728586375713348
1749047141.06637,0.43244731426239014,-2.147287984887594,1.1444008986102503,3.101315661067627,3.263044595718384,-1.225560490285055,-0.0015399957774206996,0.00019763885939028114,-0.0004728565691038966,-0.0003330753243062645,0.0007823509513400495,0.00034665066050365567,0.13595165312290192,0.7154474258422852,-0.5160844326019287,0.20852698385715485,0.5105011463165283,0.1352008432149887
1749047141.0664086,0.4325038492679596,-2.1472722492613734,1.1444018522845667,3.1013313966938476,3.263063669204712,-1.2255833784686487,-0.0013961048098281026,0.00025181908858940005,-0.0004441629280336201,-0.0003100772446487099,0.0005015303031541407,0.00030487417825497687,0.11565698683261871,0.7030556201934814,-0.5140729546546936,0.20327331125736237,0.4835711717605591,0.1492266058921814
1749047141.0664582,0.43250876665115356,-2.1472917995848597,1.1443975607501429,3.101315661067627,3.2629973888397217,-1.2255447546588343,-0.0012250823201611638,0.00028599900542758405,-0.0004183563287369907,-0.00033145176712423563,-0.0003635500033851713,0.00027941810549236834,0.14688347280025482,0.7051228284835815,-0.509749174118042,0.20582257211208344,0.4746640920639038,0.14068225026130676
1749047141.066498,0.4324035346508026,-2.147295137444967,1.144416634236471,3.1013194757648925,3.263000965118408,-1.225553337727682,-0.001192272873595357,0.0014155982062220573,-0.00039538918645121157,-0.000342636281857267,-0.002241311362013221,0.00026197460829280317,0.12693902850151062,0.7122859954833984,-0.5131654739379883,0.19981257617473602,0.4765997529029846,0.15683680772781372
1749047141.0665472,0.4324507415294647,-2.147295137444967,1.1444056669818323,3.101299925441406,3.263040065765381,-1.2255881468402308,-0.001520434394478798,0.001483114785514772,-0.00030826544389128685,-0.00035278996801935136,-0.0027671491261571646,0.0002473471104167402,0.1285301148891449,0.6997956037521362,-0.5136911869049072,0.204542875289917,0.46008676290512085,0.13224543631076813
1749047141.0665932,0.43245792388916016,-2.147276063958639,1.1443899313556116,3.101292772884033,3.2629892826080322,-1.2255685965167444,-0.001497701508924365,0.0015342857223004103,-0.00028047835803590715,-0.0003389935300219804,-0.0024723303504288197,0.000250501383561641,0.09729190170764923,0.7008434534072876,-0.5072032809257507,0.2086809128522873,0.44907647371292114,0.13541772961616516
1749047141.0666325,0.4324883222579956,-2.1472445927061976,1.1443780104266565,3.101315661067627,3.2629892826080322,-1.2255762259112757,-0.0013730289647355676,0.001391372294165194,-0.0002635031414683908,-0.00032253802055492997,-0.002027970040217042,0.0002619103470351547,0.12770721316337585,0.694554328918457,-0.5080519914627075,0.2152959555387497,0.444288969039917,0.14532017707824707
1749047141.0666704,0.43243885040283203,-2.1472917995848597,1.1444128195392054,3.101315661067627,3.2630245685577393,-1.2255566755877894,-0.0011284488718956709,0.0011575017124414444,-0.0002952241338789463,-0.0003319366951473057,-0.0016733640804886818,0.0002537626132834703,0.10263028740882874,0.7085459232330322,-0.5250117182731628,0.20878684520721436,0.43732982873916626,0.13219274580478668
1749047141.0667205,0.4324592351913452,-2.1472722492613734,1.1443975607501429,3.101315661067627,3.2629854679107666,-1.2255643049823206,-0.001092130085453391,0.0009534090640954673,-0.0003057645517401397,-0.0003312115732114762,-0.0012708036229014397,0.00024307503190357238,0.10108456760644913,0.7030047178268433,-0.5078592300415039,0.20729391276836395,0.4134577512741089,0.1493641883134842
1749047141.0667613,0.4324191212654114,-2.1472989521422328,1.1444018522845667,3.1013194757648925,3.2629809379577637,-1.2255762259112757,-0.0009493363904766738,0.000943669059779495,-0.000312119722366333,-0.0003190957650076598,-0.001297503593377769,0.0002460915711708367,0.10249487310647964,0.7077740430831909,-0.513356626033783,0.21015562117099762,0.4197043180465698,0.14926369488239288
1749047141.066814,0.43245792388916016,-2.147264143029684,1.1443975607501429,3.1013194757648925,3.2629854679107666,-1.2255294958697718,-0.0007645707810297608,0.0009351448970846832,-0.00033569580409675837,-0.0003059864102397114,-0.001825144630856812,0.0002558165870141238,0.08487021923065186,0.7292300462722778,-0.524825394153595,0.19901180267333984,0.41652482748031616,0.12014194577932358
1749047141.066854,0.4324847459793091,-2.1472841701903285,1.1443856398211878,3.1012846666523437,3.2629308700561523,-1.22557241121401,-0.0006306347204372287,0.0008257044246420264,-0.0003270780434831977,-0.00029358407482504845,-0.002019345061853528,0.00024918827693909407,0.11375006288290024,0.7243934869766235,-0.5130027532577515,0.20133967697620392,0.42232412099838257,0.15072451531887054
1749047141.0668979,0.432446151971817,-2.1472798786559046,1.1443818251239222,3.101303740138672,3.263004779815674,-1.22557241121401,-0.0006517579313367605,0.0008530323975719512,-0.0005626440397463739,-0.0002716004091780633,-0.0021375701762735844,0.00024029763881117105,0.10329621285200119,0.711827278137207,-0.5090678930282593,0.21153371036052704,0.40885138511657715,0.14394511282444
1749047141.0669374,0.43245434761047363,-2.147240778008932,1.1443818251239222,3.101303740138672,3.263000011444092,-1.22557241121401,-0.0006572488928213716,0.0018564345082268119,-0.0005638580769300461,-0.0002543638402130455,-0.00213210703805089,0.0002504833973944187,0.12091560661792755,0.7146899700164795,-0.5250000953674316,0.2007613480091095,0.41525769233703613,0.13989613950252533
1749047141.0669749,0.432461678981781,-2.147216936151022,1.1444128195392054,3.1013194757648925,3.2629690170288086,-1.225560490285055,-0.0006209288258105516,0.00197989190928638,-0.0005935436929576099,-0.0002748493861872703,-0.0020286571234464645,0.0002527827746234834,0.1227877289056778,0.7102454900741577,-0.5147321224212646,0.20270216464996338,0.41115468740463257,0.12009640783071518
1749047141.0670118,0.43243175745010376,-2.1472679577269496,1.1443746725665491,3.101303740138672,3.263000011444092,-1.2255952993976038,-0.0006202652584761381,0.002176289912313223,-0.0006200899952091277,-0.0002870451135095209,-0.0018825138686224818,0.0002461026597302407,0.12071184068918228,0.6849406957626343,-0.5119796991348267,0.20533715188503265,0.4136078357696533,0.1554107964038849
1749047141.0670488,0.4324300289154053,-2.1472588978209437,1.1443818251239222,3.101303740138672,3.2629809379577637,-1.2255447546588343,-0.0005927070160396397,0.002017892897129059,-0.0008094509830698371,-0.00029826752142980695,-0.0016556201735511422,0.0002669715613592416,0.10888712853193283,0.7134523391723633,-0.5146979093551636,0.2175946682691574,0.40431058406829834,0.12712465226650238
1749047141.0670912,0.4324226975440979,-2.1472679577269496,1.1443694273578089,3.1012846666523437,3.262953519821167,-1.2255447546588343,-0.0005478609818965197,0.0016161712119355798,-0.0008826649864204228,-0.00030322783277370036,-0.0014051703037694097,0.00026961241383105516,0.12409578263759613,0.7284359931945801,-0.5325506925582886,0.19915494322776794,0.41070717573165894,0.13615073263645172
1749047141.0671906,0.4324352443218231,-2.147236486474508,1.1443818251239222,3.101310892696045,3.263000011444092,-1.225560490285055,-0.0005091155762784183,0.0015831512864679098,-0.0008398299687542021,-0.00031183173996396363,-0.0012850783532485366,0.00025747859035618603,0.11363271623849869,0.7373523712158203,-0.5233036279678345,0.21677576005458832,0.41322171688079834,0.14887845516204834
1749047141.0688612,0.43246883153915405,-2.147236486474508,1.144350830708639,3.1012655931660156,3.2629928588867188,-1.2255643049823206,-0.00047546555288136005,0.0015527431387454271,-0.0007902280776761472,-0.0003025746555067599,-0.0011418680660426617,0.0002790461585391313,0.12950587272644043,0.6998107433319092,-0.5196586847305298,0.20936304330825806,0.40179646015167236,0.14151863753795624
1749047141.1104922,0.432446151971817,-2.1472679577269496,1.1443818251239222,3.101303740138672,3.2630083560943604,-1.225560490285055,-0.0004460287746042013,0.0021177101880311966,-0.0007918741321191192,-0.00029156552045606077,-0.00104819075204432,0.000275487604085356,0.13582244515419006,0.723212480545044,-0.5230172872543335,0.22205328941345215,0.3963993787765503,0.12520253658294678
1749047141.110568,0.4324497580528259,-2.1472517452635707,1.1443656126605433,3.101303740138672,3.2629570960998535,-1.2255485693561,-0.00042000648682005703,0.002757461741566658,-0.0007891485583968461,-0.00043963713687844574,-0.000989351305179298,0.0002639076847117394,0.11057129502296448,0.7205345630645752,-0.524016261100769,0.21108819544315338,0.407032310962677,0.1562359780073166
1749047141.1106384,0.4324226975440979,-2.147236486474508,1.1443856398211878,3.101303740138672,3.2629880905151367,-1.2255523840533655,-0.0003968380915466696,0.0025522937066853046,-0.0008239602320827544,-0.0004289964563213289,-0.0009153406135737896,0.00025191743043251336,0.11384396255016327,0.7011305093765259,-0.5191529393196106,0.20959974825382233,0.4137059450149536,0.150764599442482
1749047141.110707,0.43248075246810913,-2.147216936151022,1.1443656126605433,3.1012918192097167,3.2629809379577637,-1.2255294958697718,-0.0003761193947866559,0.0025875119026750326,-0.0008351309224963188,-0.0003966731019318104,-0.000828201649710536,0.00027344489353708923,0.1364849954843521,0.7174163460731506,-0.5261338949203491,0.21507130563259125,0.4038163423538208,0.14122933149337769
1749047141.1107752,0.43248075246810913,-2.147216936151022,1.1443656126605433,3.1012918192097167,3.2629809379577637,-1.2255294958697718,-0.0003761193947866559,0.0025875119026750326,-0.0008351309224963188,-0.0003966731019318104,-0.000828201649710536,0.00027344489353708923,0.1364849954843521,0.7174163460731506,-0.5261338949203491,0.21507130563259125,0.4038163423538208,0.14122933149337769
1749047141.1108437,0.43243882060050964,-2.14721216777944,1.1443856398211878,3.1012846666523437,3.2629499435424805,-1.225513760243551,-0.000340523780323565,0.002176750684157014,-0.0011929564643651247,-0.00033803959377110004,-0.0006301547400653362,0.0004605633148457855,0.1443071961402893,0.7167572379112244,-0.538026750087738,0.2225484549999237,0.4151850938796997,0.15223930776119232
1749047141.11091,0.432461678981781,-2.1472002468504847,1.1444008986102503,3.1013075548359375,3.262953519821167,-1.2255523840533655,-0.00028861957252956927,0.0023812109138816595,-0.0012824441073462367,-0.00031440542079508305,-0.0004867757670581341,0.0005596030969172716,0.15655960142612457,0.7315916419029236,-0.509008526802063,0.21772409975528717,0.4060877561569214,0.11863905936479568
1749047141.1109786,0.4324156939983368,-2.14721216777944,1.1443617979632776,3.101288004512451,3.26296067237854,-1.225555721913473,-0.00027225902886129916,0.0026439696084707975,-0.0015068210195749998,-0.0002938378311228007,-0.0004268521734047681,0.0006002454902045429,0.14797458052635193,0.7275625467300415,-0.5258076190948486,0.21071688830852509,0.41345590353012085,0.13024675846099854
1749047141.111046,0.432419091463089,-2.147207876245016,1.144383732472555,3.1013194757648925,3.2629570960998535,-1.2255209128009241,-0.00026093420456163585,0.002612515352666378,-0.0015025396132841706,-0.00027580716414377093,-0.0003875570255331695,0.0005851539899595082,0.1486988663673401,0.7331169247627258,-0.5178861021995544,0.2211488038301468,0.4023134112358093,0.14403387904167175
1749047141.111112,0.432461678981781,-2.1472231350340785,1.1443617979632776,3.101322813625,3.262965440750122,-1.2255247274981897,-0.0002505641314201057,0.002861699787899852,-0.0014146376634016633,-0.0002893335185945034,-0.00035635087988339365,0.0008538426482118666,0.14238649606704712,0.7391479015350342,-0.5124748945236206,0.21109774708747864,0.4098018407821655,0.12314838916063309
1749047141.1111794,0.4324181079864502,-2.1471415958800257,1.1443617979632776,3.101303740138672,3.262965440750122,-1.2255366484271448,-0.00024097987625282258,0.002877609571442008,-0.001428635441698134,-0.0002908078022301197,-0.00033001007977873087,0.0008086012676358223,0.15313765406608582,0.714390218257904,-0.5110868811607361,0.22358731925487518,0.4149487018585205,0.12964114546775818
1749047141.111246,0.43245792388916016,-2.1471883259215296,1.1443617979632776,3.101303740138672,3.262934446334839,-1.2255643049823206,-8.984128362499177e-05,0.0025983473751693964,-0.0013803138863295317,-0.0002788110577967018,-0.00030745260301046073,0.0007471807184629142,0.16431237757205963,0.7152091264724731,-0.5247459411621094,0.1985345035791397,0.4102934002876282,0.13557679951190948
1749047141.1113124,0.4324616491794586,-2.147203107873434,1.1443455854998987,3.101288004512451,3.2630035877227783,-1.2255485693561,-8.137007534969598e-05,0.002613539807498455,-0.0013170434394851327,-0.00026562236598692834,-0.00028776476392522454,0.0007142448448576033,0.1689026653766632,0.7447571754455566,-0.520817756652832,0.21782778203487396,0.412095308303833,0.11242104321718216
1749047141.1113794,0.4323917031288147,-2.147160669366354,1.1443617979632776,3.101288004512451,3.262965440750122,-1.2255447546588343,-4.015300874016248e-05,0.00236632046289742,-0.0012194751761853695,-0.0002532457292545587,-0.00027040307759307325,0.0006409470224753022,0.17026746273040771,0.7448241710662842,-0.512324333190918,0.21042491495609283,0.41310930252075195,0.12652245163917542
1749047141.1114457,0.43245434761047363,-2.147149225274557,1.144341770802633,3.101303740138672,3.2629380226135254,-1.2255366484271448,-3.730354001163505e-05,0.0022695190273225307,-0.0011596891563385725,-0.00024191253760363907,-0.00025508797261863947,0.0005745220696553588,0.151902437210083,0.7272133827209473,-0.5264064073562622,0.2139316350221634,0.4122718572616577,0.1378336399793625
1749047141.1115117,0.43245434761047363,-2.147184034387106,1.144365135823385,3.101288004512451,3.2629425525665283,-1.225567642842428,-3.580871634767391e-05,0.0023884198162704706,-0.0011018733493983746,-0.00023153657093644142,-0.00024139441666193306,0.0005677565350197256,0.1644831895828247,0.7245662808418274,-0.5053542852401733,0.2174866944551468,0.42307406663894653,0.1234319731593132
1749047141.1115775,0.4324191212654114,-2.147167821923727,1.1443689505206507,3.101276083583496,3.2629737854003906,-1.2255328337298792,-3.468024715402862e-06,0.0026212534867227077,-0.0010704895248636603,-0.00022200841340236366,-0.0002290633856318891,0.0005459627718664706,0.17318463325500488,0.7496448755264282,-0.518090009689331,0.22240929305553436,0.4159860610961914,0.11609313637018204
1749047141.1116436,0.4324507713317871,-2.147121568719381,1.1443617979632776,3.101322813625,3.262983560562134,-1.225555721913473,-3.3836151658306335e-08,0.002582472749054432,-0.0009542352636344731,-0.00021323967666830868,-0.00021798159286845475,0.0005068221362307668,0.17896714806556702,0.7177578806877136,-0.517920970916748,0.21657665073871613,0.41992437839508057,0.13388022780418396
1749047141.1117086,0.4324300289154053,-2.14715637783193,1.1443336645709437,3.1013075548359375,3.26296067237854,-1.225501839314596,-3.3012600986204177e-10,0.002906511537730694,-0.000809371005743742,-0.00020513565686997026,-0.00020790635608136654,0.0004698247939813882,0.14637893438339233,0.7282769083976746,-0.5233641862869263,0.224592387676239,0.40688902139663696,0.13388296961784363
1749047141.1117733,0.4324698746204376,-2.1471368275084437,1.1443494001971644,3.1013075548359375,3.2629618644714355,-1.225555721913473,-3.2209094332630306e-12,0.0029156089294701815,-0.0008792796870693564,-0.00022132894082460552,-0.00019869607058353722,0.00045855925418436527,0.1530798375606537,0.7254167199134827,-0.5280312299728394,0.21638840436935425,0.42224258184432983,0.12823055684566498
1749047141.1119318,0.43243882060050964,-2.147116323510641,1.144329849873678,3.101299925441406,3.2629880905151367,-1.2255209128009241,-3.142514595983262e-14,0.0025755763053894043,-0.0009155774605460465,-0.0002207872166763991,-0.00019030588737223297,0.00046001942246221006,0.1757170855998993,0.7007184028625488,-0.5191760063171387,0.219670370221138,0.4178551435470581,0.14545395970344543
1749047141.1128335,0.4324226975440979,-2.14713253597402,1.1443494001971644,3.101288004512451,3.2629880905151367,-1.2255294958697718,-3.0660273937912564e-16,0.0025908835232257843,-0.0010536886984482408,-0.00021454285888466984,-0.000182583142304793,0.0004375081916805357,0.177038311958313,0.7197014093399048,-0.5214648246765137,0.20730093121528625,0.41479647159576416,0.12174475938081741
1749047141.1544995,0.4324847459793091,-2.1471439800658167,1.1443527380572718,3.101299925441406,3.2629618644714355,-1.225567642842428,-2.991402111961509e-18,0.0022587343119084835,-0.0012234474997967482,-0.00020769071124959737,-0.00017544219736009836,0.00041333361878059804,0.1808243691921234,0.7245463728904724,-0.528497040271759,0.21128135919570923,0.4168357849121094,0.14714369177818298
1749047141.1545758,0.4324507713317871,-2.14715113262319,1.1443336645709437,3.101288004512451,3.262972593307495,-1.2255366484271448,-2.918593054059132e-20,0.002188260667026043,-0.0012123286724090576,-0.00020110092009417713,-0.0001688697375357151,0.0003910238738171756,0.16824670135974884,0.7039214968681335,-0.5276355743408203,0.21145173907279968,0.4081331491470337,0.12935787439346313
1749047141.1546476,0.4324263036251068,-2.1471129856505335,1.1443217436419886,3.101310892696045,3.2629690170288086,-1.2255328337298792,-2.8475563845038246e-22,0.0019862689077854156,-0.0017637902637943625,-0.00019488554971758276,-0.00018619454931467772,0.00032554264180362225,0.17731225490570068,0.7432220578193665,-0.5251554250717163,0.21881915628910065,0.40891116857528687,0.13021360337734222
1749047141.154717,0.43247345089912415,-2.147139688531393,1.144317928944723,3.101322813625,3.262972593307495,-1.2255209128009241,-2.778248792976489e-24,0.001763529609888792,-0.0021727848798036575,-0.00018903531599789858,-0.0001868645049398765,0.0002797658962663263,0.1784193217754364,0.7102832198143005,-0.5498790740966797,0.22482064366340637,0.40030455589294434,0.14092117547988892
1749047141.1547866,0.4324662685394287,-2.1471082172789515,1.144317928944723,3.1013075548359375,3.2629928588867188,-1.2255404631244105,-2.7106280675892513e-26,0.001578808412887156,-0.0030900281853973866,-0.00018352872575633228,-0.00019235306535847485,0.00025909175747074187,0.18914121389389038,0.7259369492530823,-0.5549553632736206,0.2138393074274063,0.38248956203460693,0.1409202665090561
1749047141.154855,0.43244242668151855,-2.147112031976217,1.1443374792682093,3.101288004512451,3.262972593307495,-1.2255438009845179,-2.6446530551172824e-28,0.0012347832089290023,-0.0038236898835748434,-0.0001929453428601846,-0.00021216509048826993,0.00024421242414973676,0.1918371319770813,0.7195225954055786,-0.5366824865341187,0.21440230309963226,0.37832993268966675,0.13415886461734772
1749047141.1549225,0.4325002431869507,-2.147123952905172,1.1443098227130335,3.101288004512451,3.262934446334839,-1.2254555861102503,-2.5802840151397008e-30,0.0011600700672715902,-0.00408592913299799,-0.00019627540314104408,-0.00021281802037265152,0.00023149410844780505,0.1499890685081482,0.7006101012229919,-0.5561466813087463,0.21251671016216278,0.35990238189697266,0.10989240556955338
1749047141.1549895,0.43248075246810913,-2.147112031976217,1.1443060080157679,3.1012918192097167,3.262972593307495,-1.2255175749408167,-2.5174810195176405e-32,0.0011136826360598207,-0.00487867183983326,-0.0001925467513501644,-0.00026260269805788994,0.00025597441708669066,0.14780010282993317,0.7166975736618042,-0.5562334060668945,0.21551968157291412,0.33687806129455566,0.1262633204460144
1749047141.1550565,0.43245434761047363,-2.1471082172789515,1.1442669073687952,3.101288004512451,3.262929677963257,-1.2255209128009241,-2.45620715506893e-34,0.0011043284321203828,-0.006324216723442078,-0.00018779262609314173,-0.002357005374506116,0.0002503798750694841,0.1450154036283493,0.731070876121521,-0.5665042996406555,0.23170973360538483,0.32288122177124023,0.13445758819580078
1749047141.1551244,0.43243181705474854,-2.1471153698363246,1.1442816893206995,3.1013075548359375,3.2629261016845703,-1.2255404631244105,-2.3964248514673515e-36,0.0012467490741983056,-0.007624256890267134,-0.0001830626861192286,-0.004717233590781689,0.00024034164380282164,0.13218067586421967,0.7228477597236633,-0.5531054139137268,0.22904233634471893,0.3423415422439575,0.11468818038702011
1749047141.1551902,0.4324352443218231,-2.1470653019347132,1.1442578474627894,3.101288004512451,3.262941598892212,-1.2255285421954554,-2.3380974564220189e-38,0.001257796655409038,-0.007884618826210499,-0.00017853238387033343,-0.005671977531164885,0.00023027893621474504,0.12183986604213715,0.7189866900444031,-0.5601704716682434,0.233312726020813,0.3174314498901367,0.11186706274747849
1749047141.1552587,0.43245434761047363,-2.147087713281149,1.144261662160055,3.1013075548359375,3.2629051208496094,-1.2255247274981897,-2.281187783059013e-40,0.0019992636516690254,-0.008358307182788849,-0.00017421343363821507,-0.006896966602653265,0.00022089168487582356,0.0972282737493515,0.7145328521728516,-0.5666797757148743,0.24120911955833435,0.28603076934814453,0.1186509057879448
1749047141.1553273,0.4324662983417511,-2.1471034489073695,1.1442378203021448,3.1013075548359375,3.2628695964813232,-1.2255247274981897,-0.000196039691218175,0.0025488988030701876,-0.00957510992884636,-0.00015473282837774605,-0.00847590435296297,0.00021221290808171034,0.09555380791425705,0.7194920182228088,-0.5631999373435974,0.2544957101345062,0.27927714586257935,0.09636171162128448
1749047141.1553981,0.4324461817741394,-2.147076269189352,1.1442220846759241,3.101268931026123,3.2629005908966064,-1.225508991871969,-0.00032589613692834973,0.00250350427813828,-0.01067250594496727,-0.00014644187467638403,-0.010617760010063648,0.00020418272470124066,0.07344567030668259,0.73492032289505,-0.5563130974769592,0.2548668086528778,0.26266390085220337,0.1065063402056694
1749047141.155466,0.4324352741241455,-2.147060056725973,1.1442058722125452,3.101288004512451,3.262850284576416,-1.2255867163287562,-0.002685170853510499,0.002811057958751917,-0.011298439465463161,-0.00014230348460841924,-0.01354418694972992,0.00019674246141221374,0.059618718922138214,0.7156559824943542,-0.5670188069343567,0.26448243856430054,0.2458733469247818,0.09975133091211319
1749047141.155534,0.4324461817741394,-2.147087713281149,1.1441744009601038,3.1012918192097167,3.2628211975097656,-1.2255438009845179,-0.004208970349282026,0.003188770031556487,-0.012258227914571762,-8.735975279705599e-05,-0.016137370839715004,0.00018982382607646286,0.06612762808799744,0.7202757000923157,-0.5790075659751892,0.2808842658996582,0.2259962409734726,0.09521990269422531
1749047141.1556005,0.43241074681282043,-2.1470686397948207,1.1441381613360804,3.101334734553955,3.262789249420166,-1.2255209128009241,-0.003645648481324315,0.0038719233125448227,-0.012743933126330376,-2.9001141228945926e-05,-0.01961524970829487,0.000183372845640406,0.04004228115081787,0.7306966185569763,-0.5792586207389832,0.30988845229148865,0.24703770875930786,0.09268074482679367
1749047141.1556673,0.4324181079864502,-2.147041460076803,1.1441181341754358,3.1013194757648925,3.262702703475952,-1.225555721913473,-0.0041686249896883965,0.005392770282924175,-0.014465142972767353,-5.124805738887517e-06,-0.021658314391970634,0.00017735017172526568,0.03970840573310852,0.7512983679771423,-0.5660739541053772,0.3144408166408539,0.2558068335056305,0.05712296813726425
1749047141.155734,0.4323834776878357,-2.1470524273314417,1.1440556685077112,3.101303740138672,3.2627017498016357,-1.2255438009845179,-0.0055686780251562595,0.005294883158057928,-0.015808280557394028,-9.056069529833621e-07,-0.021678274497389793,0.00014831424050498754,0.021288104355335236,0.7435263395309448,-0.5823252201080322,0.3254462480545044,0.2646489143371582,0.06585624068975449
1749047141.155801,0.43235963582992554,-2.1470400295653285,1.1440699736224573,3.101299925441406,3.2626540660858154,-1.2255438009845179,-0.006975685711950064,0.0061891586519777775,-0.017647013068199158,0.0026171463541686535,-0.022196706384420395,0.00013960151409264654,0.03710698336362839,0.7095372080802917,-0.5655919313430786,0.34918633103370667,0.27597928047180176,0.0720515102148056
1749047141.1559615,0.43235960602760315,-2.147043367425436,1.1440113226519983,3.1013385492512207,3.2626214027404785,-1.2255328337298792,-0.007831569761037827,0.005490707233548164,-0.017583362758159637,0.003569406922906637,-0.021665561944246292,0.00012536461872514337,0.027900442481040955,0.7303824424743652,-0.5417805910110474,0.3523775339126587,0.2539108395576477,0.031980566680431366
1749047141.156808,0.43235135078430176,-2.1470242939391078,1.1439746061908167,3.1013118463703613,3.2625820636749268,-1.225555721913473,-0.008346800692379475,0.005279987119138241,-0.017093420028686523,0.003992172889411449,-0.021170316264033318,0.00010763568570837379,-0.01620110124349594,0.7671483159065247,-0.5498818755149841,0.3641110956668854,0.27264291048049927,0.013922670856118202
1749047141.1985211,0.43236681818962097,-2.1470004520811976,1.1439192930804651,3.10134665548291,3.262502908706665,-1.2255209128009241,-0.009495623409748077,0.006034662947058678,-0.017022568732500076,0.004324310924857855,-0.02163686417043209,8.754224108997732e-05,-0.026194430887699127,0.7542129755020142,-0.5515245795249939,0.3769182562828064,0.2547692060470581,-0.0027392972260713577
1749047141.1986012,0.43236681818962097,-2.1470004520811976,1.1439192930804651,3.10134665548291,3.262502908706665,-1.2255209128009241,-0.009495623409748077,0.006034662947058678,-0.017022568732500076,0.004324310924857855,-0.02163686417043209,8.754224108997732e-05,-0.026194430887699127,0.7542129755020142,-0.5515245795249939,0.3769182562828064,0.2547692060470581,-0.0027392972260713577
1749047141.19867,0.4323703944683075,-2.1469932995238246,1.143902603779928,3.1013433176228027,3.26249098777771,-1.2255714575396937,-0.01089724712073803,0.007107479963451624,-0.01692001149058342,0.006212443578988314,-0.021021444350481033,-1.4650556295237038e-05,-0.01905052363872528,0.7593462467193604,-0.5590352416038513,0.4097014367580414,0.2435152530670166,-0.014866909012198448
1749047141.198746,0.4323258697986603,-2.1469842396178187,1.1438234488116663,3.101391478175781,3.262382984161377,-1.2255714575396937,-0.013010427355766296,0.008011117577552795,-0.01768011786043644,0.009226777590811253,-0.022515499964356422,-0.0020767529495060444,-0.05969422310590744,0.7687686681747437,-0.5555286407470703,0.4192679822444916,0.22511690855026245,-0.05326380580663681
1749047141.1988168,0.4323020279407501,-2.1469413242735804,1.143759552632467,3.101402922267578,3.26235032081604,-1.2255447546588343,-0.013959456235170364,0.008928717114031315,-0.01848321594297886,0.01107075996696949,-0.022514404729008675,-0.00407587643712759,-0.06191340833902359,0.772769033908844,-0.5403132438659668,0.42544129490852356,0.2021084576845169,-0.05541641637682915
1749047141.1988883,0.43221548199653625,-2.146971365014547,1.1437237898456019,3.1014272409626464,3.262299060821533,-1.2255685965167444,-0.015250103548169136,0.009301679208874702,-0.019535385072231293,0.013049605302512646,-0.0244598388671875,-0.007495933212339878,-0.06108915060758591,0.7652906179428101,-0.552216649055481,0.43296366930007935,0.20296628773212433,-0.05353499576449394
1749047141.1989605,0.4322429299354553,-2.146921297112936,1.1437071005450647,3.1014630037495117,3.2622783184051514,-1.2255843321429651,-0.014388619922101498,0.009829195216298103,-0.019811568781733513,0.014477918855845928,-0.02492234669625759,-0.009483544155955315,-0.03306832164525986,0.7971055507659912,-0.5530888438224792,0.425418883562088,0.17614716291427612,-0.07334604859352112
1749047141.1990323,0.43219536542892456,-2.1469198666014613,1.143632713948385,3.101517840022705,3.262218952178955,-1.2256277243243616,-0.014331982471048832,0.011168555356562138,-0.020584866404533386,0.014897050336003304,-0.02786291390657425,-0.0099464887753129,-0.0986262634396553,0.7933330535888672,-0.5367059707641602,0.41944319009780884,0.1962638646364212,-0.059957779943943024
1749047141.1991003,0.43216073513031006,-2.1468645534911097,1.1435993353473108,3.1015230852314453,3.2621662616729736,-1.225616757069723,-0.013844193890690804,0.011518954299390316,-0.02133757248520851,0.014091607183218002,-0.03015914000570774,-0.010328510776162148,-0.043744079768657684,0.7909122705459595,-0.5324971079826355,0.43158847093582153,0.17627160251140594,-0.06816773861646652
1749047141.19917,0.4321625828742981,-2.1468407116331996,1.143547836934225,3.101534529323242,3.2621071338653564,-1.2256396452533167,-0.013854332268238068,0.012965371832251549,-0.021722661331295967,0.013139517977833748,-0.033423442393541336,-0.011549877934157848,-0.07191179692745209,0.7889313101768494,-0.5431244969367981,0.43206703662872314,0.180433452129364,-0.07494135200977325
1749047141.199241,0.43213528394699097,-2.1468211613097132,1.143496338521139,3.1015898424335937,3.2620315551757812,-1.2256324926959437,-0.013958817347884178,0.012897946871817112,-0.02165360003709793,0.012914528138935566,-0.03427731990814209,-0.012848115526139736,-0.09843499958515167,0.8016993403434753,-0.5467050075531006,0.44514331221580505,0.15677937865257263,-0.09075593948364258
1749047141.199313,0.4321085214614868,-2.146797319451803,1.1434796492206019,3.101613684291504,3.261997699737549,-1.2256715933429163,-0.014711200259625912,0.01388982217758894,-0.022025838494300842,0.012663964182138443,-0.03650638833642006,-0.014659990556538105,-0.12365501374006271,0.7983198165893555,-0.5434720516204834,0.4554566740989685,0.18077817559242249,-0.07935705035924911
1749047141.1993785,0.4320600926876068,-2.1467725239195765,1.1434162298785608,3.101618452663086,3.2618634700775146,-1.225680176411764,-0.015166672877967358,0.014122305437922478,-0.022469298914074898,0.01286869216710329,-0.03857393190264702,-0.015345821157097816,-0.10504161566495895,0.785243034362793,-0.5564931035041809,0.470461368560791,0.14440834522247314,-0.08385226130485535
1749047141.1994493,0.4320507347583771,-2.1467257938780726,1.143383804951803,3.101665659541748,3.261838674545288,-1.2257111708270472,-0.015556102618575096,0.015218589454889297,-0.02394162490963936,0.014041041024029255,-0.03921834006905556,-0.01661187782883644,-0.13077355921268463,0.8023231029510498,-0.5726503133773804,0.4795798063278198,0.12353571504354477,-0.09735360741615295
1749047141.1995192,0.43201613426208496,-2.14670528988027,1.1433246771441858,3.1016666132160644,3.261763095855713,-1.225673023854391,-0.015760770067572594,0.015878548845648766,-0.026430968195199966,0.014830256812274456,-0.04259572550654411,-0.01751299574971199,-0.11404871940612793,0.8048210144042969,-0.5540479421615601,0.4856188893318176,0.12182196974754333,-0.0984908938407898
1749047141.1995888,0.4319725036621094,-2.146672864953512,1.1432846228228968,3.101679487819336,3.26163911819458,-1.2256930510150355,-0.01743602566421032,0.01954827830195427,-0.027763457968831062,0.016738999634981155,-0.047378066927194595,-0.01773574762046337,-0.14622993767261505,0.7785732746124268,-0.5510382652282715,0.4907233715057373,0.13470160961151123,-0.10003378987312317
1749047141.1996558,0.43199944496154785,-2.1466175518431605,1.1432326475726526,3.10172621786084,3.2615206241607666,-1.2257559935199183,-0.018076201900839806,0.016790714114904404,-0.02773764543235302,0.017729828134179115,-0.04970915988087654,-0.017901545390486717,-0.14825405180454254,0.8025933504104614,-0.576770544052124,0.5071817636489868,0.10858601331710815,-0.11721618473529816
1749047141.1997252,0.43192023038864136,-2.146585603753561,1.1431697050677698,3.1017700868793945,3.261455774307251,-1.225814167653219,-0.019344918429851532,0.018278023228049278,-0.027820095419883728,0.019255584105849266,-0.052694354206323624,-0.01953672245144844,-0.13689884543418884,0.7880699634552002,-0.5878127217292786,0.5110173225402832,0.11462023854255676,-0.13626551628112793
1749047141.1997914,0.43186113238334656,-2.146565099755758,1.143151585255758,3.1017939287373046,3.2613015174865723,-1.2258036772357386,-0.020856456831097603,0.01871161162853241,-0.029896702617406845,0.01997876726090908,-0.056673936545848846,-0.02044934779405594,-0.17103128135204315,0.7771775722503662,-0.5727295875549316,0.5013037919998169,0.1068824976682663,-0.11977403610944748
1749047141.1998572,0.431820809841156,-2.1465255222716273,1.1430447737323206,3.101864977473877,3.2612130641937256,-1.2257965246783655,-0.021888867020606995,0.018793493509292603,-0.03215537220239639,0.02166689559817314,-0.060221463441848755,-0.020479867234826088,-0.1345597803592682,0.7624809741973877,-0.5791016221046448,0.5140621662139893,0.10478264093399048,-0.1332838237285614
1749047141.2001235,0.431784451007843,-2.1464926205077113,1.1429851690875452,3.101916475886963,3.2611398696899414,-1.2258594671832483,-0.02186182700097561,0.01907557062804699,-0.033127084374427795,0.021892644464969635,-0.060766417533159256,-0.021940583363175392,-0.15946365892887115,0.7426666617393494,-0.5747020244598389,0.5188759565353394,0.10790640860795975,-0.12841856479644775
1749047141.2010486,0.431768536567688,-2.1464067898192347,1.1429060141192835,3.101964159602783,3.260957956314087,-1.2258594671832483,-0.022714629769325256,0.01885509490966797,-0.035452038049697876,0.02316376194357872,-0.0610940083861351,-0.02281750552356243,-0.15466280281543732,0.7396991848945618,-0.5697616934776306,0.537763237953186,0.07443399727344513,-0.13692010939121246
1749047141.242511,0.4317135512828827,-2.1463657818236292,1.1428373495685022,3.102020426387451,3.260864734649658,-1.2259424368487757,-0.024135833606123924,0.018827803432941437,-0.037624966353178024,0.02477574162185192,-0.06363502144813538,-0.024063296616077423,-0.15130048990249634,0.7362364530563354,-0.5639142990112305,0.5169758796691895,0.07717838883399963,-0.1350751668214798
1749047141.2425914,0.431657075881958,-2.146376749078268,1.1427696386920374,3.1020404535480957,3.2607569694519043,-1.225990120564596,-0.02487609162926674,0.01894323155283928,-0.03748277947306633,0.0248978603631258,-0.06743122637271881,-0.02469710074365139,-0.14102783799171448,0.7253608107566833,-0.5805755257606506,0.5394841432571411,0.08730128407478333,-0.14375010132789612
1749047141.2426653,0.43158861994743347,-2.1463214359679164,1.1427057425128382,3.102088614101074,3.260612964630127,-1.2260029951678675,-0.024696817621588707,0.018521646037697792,-0.03716069087386131,0.025579584762454033,-0.0702693834900856,-0.02545720711350441,-0.1508934199810028,0.7292949557304382,-0.5900789499282837,0.5350635647773743,0.07483052462339401,-0.14594408869743347
1749047141.2427354,0.4315683841705322,-2.146242757836813,1.1426098982440394,3.102160616511963,3.2604849338531494,-1.2260926405536097,-0.024042636156082153,0.018470823764801025,-0.039746955037117004,0.027452802285552025,-0.07310416549444199,-0.026104597374796867,-0.18016690015792847,0.7116370797157288,-0.5885416865348816,0.5348556041717529,0.07801341265439987,-0.14515727758407593
1749047141.242804,0.43155643343925476,-2.1462484798827113,1.142534081135885,3.1022202211567382,3.2603228092193604,-1.2261021772967737,-0.024462170898914337,0.018405983224511147,-0.04095955193042755,0.029282810166478157,-0.07374834269285202,-0.025520848110318184,-0.18895989656448364,0.7194699645042419,-0.5976558327674866,0.5365318059921265,0.07847478985786438,-0.15685191750526428
1749047141.2428737,0.4314689338207245,-2.1461621723570765,1.1424630323993128,3.102299376125,3.260236978530884,-1.226196591054098,-0.02565864473581314,0.01811787858605385,-0.04144315421581268,0.0306501816958189,-0.0747314989566803,-0.02634839527308941,-0.2021581530570984,0.7158979177474976,-0.5916453003883362,0.5340543389320374,0.043584827333688736,-0.15393388271331787
1749047141.2429419,0.43139398097991943,-2.1461569271483363,1.142379109059469,3.1023518282124023,3.2600808143615723,-1.2262252012835901,-0.026837846264243126,0.0187058188021183,-0.042767468839883804,0.031030282378196716,-0.07773417234420776,-0.025629917159676552,-0.1803005337715149,0.6816777586936951,-0.6009090542793274,0.5259265303611755,0.03825981914997101,-0.15954594314098358
1749047141.2430089,0.43136999011039734,-2.1461059055724085,1.1423104445086878,3.1024114328571777,3.259878635406494,-1.2262805143939417,-0.0272794459015131,0.018336938694119453,-0.04382697120308876,0.031579818576574326,-0.08131641149520874,-0.026158271357417107,-0.18648949265480042,0.7034308314323425,-0.6046320199966431,0.5366325378417969,0.024630408734083176,-0.15771083533763885
1749047141.2430756,0.43130987882614136,-2.1460348568358363,1.1421993414508265,3.1025025087543945,3.2597262859344482,-1.2263324896441858,-0.028142308816313744,0.017941121011972427,-0.04554528370499611,0.032546207308769226,-0.08438736200332642,-0.025823470205068588,-0.19712859392166138,0.6827200055122375,-0.6033076643943787,0.5191776752471924,0.028213370591402054,-0.16042213141918182
1749047141.243142,0.4312341511249542,-2.1460491619505824,1.142111603413717,3.1025864320942382,3.2595627307891846,-1.226379696522848,-0.029393646866083145,0.01818261668086052,-0.04705812409520149,0.03273728862404823,-0.08749984204769135,-0.026683518663048744,-0.19603624939918518,0.6680126786231995,-0.5931329727172852,0.5197059512138367,0.031151317059993744,-0.16856950521469116
1749047141.2432086,0.4311830401420593,-2.1459738216795863,1.1419881025897425,3.1026150423237304,3.2593793869018555,-1.2264202276812952,-0.03027191013097763,0.018617965281009674,-0.04844547435641289,0.032700065523386,-0.08939199149608612,-0.02703062631189823,-0.22370484471321106,0.6824546456336975,-0.5979441404342651,0.5422025918960571,0.04122073948383331,-0.17627155780792236
1749047141.2432761,0.4311337172985077,-2.145945211450094,1.1419199148761194,3.1026908594318847,3.2592105865478516,-1.2264369169818323,-0.031073326244950294,0.018481837585568428,-0.0496048703789711,0.03306649997830391,-0.0917072519659996,-0.027486493811011314,-0.20177224278450012,0.6507189273834229,-0.6164457201957703,0.5299542546272278,0.024443212896585464,-0.16277684271335602
1749047141.2433426,0.43104779720306396,-2.145886083642477,1.1418278853045862,3.102731390590332,3.2589991092681885,-1.226516071950094,-0.03187912702560425,0.019265538081526756,-0.05053751543164253,0.033315662294626236,-0.0929393321275711,-0.02776642143726349,-0.2202410101890564,0.6457257866859436,-0.5992498397827148,0.5317208766937256,0.02868025191128254,-0.16920392215251923
1749047141.2434106,0.43101924657821655,-2.14586939434194,1.141700569783346,3.102825804347656,3.2588274478912354,-1.2265756765948694,-0.03253114968538284,0.01822107844054699,-0.05198610574007034,0.03333640843629837,-0.09587424993515015,-0.028055673465132713,-0.2239154577255249,0.6517238616943359,-0.5992947220802307,0.5522722601890564,0.045983292162418365,-0.17848719656467438
1749047141.2434778,0.4309162497520447,-2.1457983456053675,1.1416118780719202,3.1028939920612792,3.2586517333984375,-1.226635758076803,-0.03350163623690605,0.018011558800935745,-0.052698034793138504,0.035815365612506866,-0.09631122648715973,-0.028351331129670143,-0.22562631964683533,0.6642888784408569,-0.6047788858413696,0.5587816834449768,0.046002551913261414,-0.18066094815731049
1749047141.2435443,0.4308679401874542,-2.1457940540709437,1.1414697805987757,3.102977915401123,3.2584667205810547,-1.2266953627215784,-0.03354125842452049,0.017616551369428635,-0.05550352483987808,0.03566799685359001,-0.09648636728525162,-0.028849530965089798,-0.238993301987648,0.6712355613708496,-0.6022706627845764,0.5627668499946594,0.038282349705696106,-0.18401764333248138
1749047141.2436101,0.4308275580406189,-2.1457578144469203,1.1413963476764124,3.1030494409748535,3.258228063583374,-1.2267549673663538,-0.03518366441130638,0.016744112595915794,-0.056039951741695404,0.036622755229473114,-0.09848510473966599,-0.02946467138826847,-0.24660861492156982,0.6672811508178711,-0.595770001411438,0.5474343299865723,0.02721017599105835,-0.1990097165107727
1749047141.2436767,0.43074721097946167,-2.1457373104491175,1.141273323689596,3.1031057077595214,3.2580137252807617,-1.2267802397357386,-0.03670646250247955,0.0173899345099926,-0.05615873634815216,0.0371716171503067,-0.10289567708969116,-0.030016375705599785,-0.24222129583358765,0.6590373516082764,-0.6279077529907227,0.563736617565155,0.04027238488197327,-0.17861829698085785
1749047141.2437427,0.4307103455066681,-2.145677228967184,1.14111835161318,3.1032087045856933,3.2578446865081787,-1.2268627325641077,-0.03664417564868927,0.017401807010173798,-0.05820687487721443,0.03753775358200073,-0.10324332863092422,-0.030361512675881386,-0.2562970519065857,0.6881362795829773,-0.6071731448173523,0.5713579654693604,0.029307611286640167,-0.18322795629501343
1749047141.2438087,0.4306192398071289,-2.145653387109274,1.1409948507892054,3.1032611566730957,3.2576091289520264,-1.2268913427936,-0.03636668249964714,0.017643872648477554,-0.06271488964557648,0.03908383101224899,-0.1043536588549614,-0.031002450734376907,-0.27130594849586487,0.6676446199417114,-0.5796998739242554,0.5642638802528381,0.05104897916316986,-0.2070375680923462
1749047141.243964,0.4305278956890106,-2.1456414661803187,1.1408827940570276,3.1033798891254882,3.257444143295288,-1.226943318043844,-0.0383898951113224,0.017516283318400383,-0.060949232429265976,0.04182397574186325,-0.10615532845258713,-0.031071603298187256,-0.27153298258781433,0.6657574772834778,-0.6179100871086121,0.5483375787734985,0.012893542647361755,-0.2050209790468216
1749047141.2448096,0.43045660853385925,-2.1455780468382777,1.1407507101642054,3.1034514146992187,3.2572402954101562,-1.2270501295672815,-0.038446713238954544,0.016499998047947884,-0.0633007138967514,0.040847402065992355,-0.11194592714309692,-0.03226703405380249,-0.27146023511886597,0.7022817730903625,-0.5970674753189087,0.5789799690246582,0.04280465468764305,-0.2115967571735382
1749047141.286511,0.4304037392139435,-2.1455422840514125,1.1406381765948694,3.103515787715576,3.2569501399993896,-1.2271326223956507,-0.04003370553255081,0.017323238775134087,-0.0649694949388504,0.04145609959959984,-0.11034920066595078,-0.03175826370716095,-0.28095829486846924,0.6995804309844971,-0.5905606746673584,0.5666519403457642,0.051044534891843796,-0.20150503516197205
1749047141.2865896,0.4303249418735504,-2.145506044427389,1.1405065695392054,3.1036268907734375,3.256776809692383,-1.2272008101092737,-0.04152384400367737,0.017778636887669563,-0.06601786613464355,0.041241906583309174,-0.11338738352060318,-0.032475944608449936,-0.2638409435749054,0.6977017521858215,-0.5829607844352722,0.5731546878814697,0.05093082785606384,-0.19833031296730042
1749047141.2866483,0.43019431829452515,-2.1454512081541957,1.1403868834124964,3.103726549739502,3.256502866744995,-1.227241341267721,-0.040485817939043045,0.018719643354415894,-0.06684566289186478,0.04144429787993431,-0.11584365367889404,-0.0320824533700943,-0.26446932554244995,0.6995934247970581,-0.596593976020813,0.5822615623474121,0.0384179949760437,-0.20839422941207886
1749047141.2866907,0.43015700578689575,-2.1454531155028285,1.1402390638934534,3.1037913995930175,3.25626277923584,-1.2272661367999476,-0.040529318153858185,0.01891203410923481,-0.06806294620037079,0.04263387247920036,-0.11838114261627197,-0.03224807605147362,-0.2941484749317169,0.6848385334014893,-0.5828532576560974,0.5987060070037842,0.05436861515045166,-0.1903580129146576
1749047141.2867477,0.43004199862480164,-2.1453944645323695,1.1400993506061,3.103874369258545,3.256070137023926,-1.2273886839496058,-0.043272338807582855,0.018386246636509895,-0.06847048550844193,0.04404957965016365,-0.12021809071302414,-0.03199777379631996,-0.27356258034706116,0.679682731628418,-0.5734745860099792,0.5863867402076721,0.05930966138839722,-0.2214502990245819
1749047141.2868123,0.4299742579460144,-2.14538635830068,1.139963452016012,3.1039697366901855,3.2557642459869385,-1.2274444738971155,-0.043757788836956024,0.01829538494348526,-0.0689617171883583,0.045813195407390594,-0.1225617453455925,-0.03243318945169449,-0.29330742359161377,0.6814707517623901,-0.5819941759109497,0.591157078742981,0.09677158296108246,-0.18974995613098145
1749047141.2868571,0.42994454503059387,-2.145287653008932,1.1398161093341272,3.1040689188190917,3.2555503845214844,-1.2275117079364222,-0.04391815513372421,0.018397077918052673,-0.068777896463871,0.04672038555145264,-0.12094955891370773,-0.033395666629076004,-0.32325997948646545,0.7126938104629517,-0.5802972316741943,0.5848518013954163,0.08929553627967834,-0.22206775844097137
1749047141.2869,0.4298187792301178,-2.1452952824034632,1.1396802107440394,3.10414902746167,3.2552757263183594,-1.227548901234762,-0.04550816863775253,0.018524566665291786,-0.07000559568405151,0.047191303223371506,-0.11876218020915985,-0.033759623765945435,-0.31860098242759705,0.6908290982246399,-0.6080119013786316,0.5931639075279236,0.05866993963718414,-0.21434994041919708
1749047141.2869391,0.4298187792301178,-2.1452952824034632,1.1396802107440394,3.10414902746167,3.2552757263183594,-1.227548901234762,-0.04550816863775253,0.018524566665291786,-0.07000559568405151,0.047191303223371506,-0.11876218020915985,-0.033759623765945435,-0.31860098242759705,0.6908290982246399,-0.6080119013786316,0.5931639075279236,0.05866993963718414,-0.21434994041919708
1749047141.286978,0.4297456443309784,-2.145278593102926,1.139536205922262,3.104275866145752,3.2550556659698486,-1.2276514212237757,-0.04657651111483574,0.01947404444217682,-0.07155918329954147,0.049511056393384933,-0.12218178063631058,-0.035569000989198685,-0.3092554211616516,0.7148961424827576,-0.5997312664985657,0.5773774981498718,0.06037014722824097,-0.21238349378108978
1749047141.2870207,0.4295119345188141,-2.1451789341368617,1.1392367521869105,3.1044723230549316,3.254591941833496,-1.2277830282794397,-0.0483187697827816,0.02026250585913658,-0.07261551916599274,0.04930668696761131,-0.12272708117961884,-0.03524210304021835,-0.318027138710022,0.730573296546936,-0.6103748083114624,0.5754373073577881,0.04367569833993912,-0.2354005128145218
1749047141.2870598,0.4294281303882599,-2.145165582696432,1.1390774885760706,3.1045595842548828,3.2543132305145264,-1.2279098669635218,-0.04926585033535957,0.020042285323143005,-0.07656434923410416,0.04792860150337219,-0.1274164915084839,-0.03568749502301216,-0.31292814016342163,0.7198085188865662,-0.5886400938034058,0.6040825843811035,0.031163126230239868,-0.2211347073316574
1749047141.287097,0.4293477535247803,-2.145113607446188,1.138890568410055,3.104670687312744,3.254084348678589,-1.2279394308673304,-0.049879979342222214,0.02077019400894642,-0.07544039934873581,0.049966517835855484,-0.13002613186836243,-0.03477099537849426,-0.3012498617172241,0.7160943746566772,-0.5850371718406677,0.6052337288856506,0.05028805881738663,-0.22449569404125214
1749047141.2871344,0.4292096495628357,-2.1450826130309046,1.1387417952166956,3.1047746378132324,3.253804922103882,-1.2280100027667444,-0.050360579043626785,0.021221976727247238,-0.0755319818854332,0.05147374048829079,-0.13096719980239868,-0.03599722683429718,-0.318273663520813,0.7063645720481873,-0.6087430715560913,0.6061007380485535,0.02402041107416153,-0.24957126379013062
1749047141.287176,0.42912817001342773,-2.14501490215444,1.1385391394244593,3.1048738199421386,3.253513813018799,-1.2281129995929163,-0.051028091460466385,0.021577414125204086,-0.08106736838817596,0.05298343673348427,-0.13369396328926086,-0.03706628829240799,-0.30753836035728455,0.7160459160804749,-0.5672889947891235,0.5841259360313416,0.022429512813687325,-0.24841925501823425
1749047141.2872148,0.4290286898612976,-2.1450025043883265,1.138442341481344,3.10499016820874,3.253265142440796,-1.228168789540426,-0.051266614347696304,0.02224196307361126,-0.07969221472740173,0.054465651512145996,-0.13656722009181976,-0.038315705955028534,-0.3291083574295044,0.7314945459365845,-0.5948336124420166,0.5865882635116577,0.054587528109550476,-0.2460620403289795
1749047141.2872522,0.4289298951625824,-2.144942422906393,1.1382625738727015,3.105116530055664,3.2529358863830566,-1.2282612959491175,-0.05142514035105705,0.023234767839312553,-0.07968226820230484,0.055679839104413986,-0.13856366276741028,-0.03935810923576355,-0.3308974802494049,0.727394700050354,-0.5982418656349182,0.5833420157432556,0.0231967493891716,-0.22435130178928375
1749047141.2872906,0.42884203791618347,-2.144925733605856,1.1380789915667933,3.1052118974873046,3.252717971801758,-1.228344742451803,-0.052000273019075394,0.023482872173190117,-0.08143485337495804,0.054316360503435135,-0.14084121584892273,-0.03935292735695839,-0.3380066454410553,0.7303012609481812,-0.5871199369430542,0.5722016096115112,0.0453559085726738,-0.24111691117286682
1749047141.2873325,0.42872554063796997,-2.144839426080221,1.1379240194903772,3.105316324824951,3.252418279647827,-1.2284200827227991,-0.05242970958352089,0.02370224893093109,-0.08248233795166016,0.052803993225097656,-0.14332056045532227,-0.03984933719038963,-0.3614537715911865,0.7389668822288513,-0.6020182371139526,0.5900938510894775,0.05885306000709534,-0.2247563600540161
1749047141.2873712,0.4286457300186157,-2.144810815850729,1.137740437184469,3.1054088312336425,3.2520949840545654,-1.2284963766681116,-0.05370168015360832,0.024352453649044037,-0.08319123834371567,0.05252668261528015,-0.14556223154067993,-0.04196534678339958,-0.3531433641910553,0.7279870510101318,-0.5782211422920227,0.5972776412963867,0.06977055966854095,-0.2190803587436676
1749047141.2874954,0.4285576045513153,-2.1447507343687953,1.1375730673419397,3.105513258571289,3.2517921924591064,-1.228572193776266,-0.054508842527866364,0.024750813841819763,-0.08370932191610336,0.054413728415966034,-0.14664915204048157,-0.04341135919094086,-0.3584408164024353,0.7548149824142456,-0.6050031781196594,0.5981468558311462,0.07638084888458252,-0.21882621943950653
1749047141.2888715,0.4283834993839264,-2.1447421512999476,1.1373932997332972,3.1056429582783203,3.2515156269073486,-1.2286437193499964,-0.055434487760066986,0.025336068123579025,-0.08440618962049484,0.05423607677221298,-0.14653277397155762,-0.04304075613617897,-0.3490637540817261,0.7143763303756714,-0.6029871702194214,0.6160033941268921,0.09053724259138107,-0.21730969846248627
1749047141.3304956,0.42833060026168823,-2.1446944675841273,1.1372292677508753,3.1057235437580566,3.251192331314087,-1.2287357489215296,-0.05704697594046593,0.02589067816734314,-0.0890607014298439,0.05551670119166374,-0.14905768632888794,-0.04291373863816261,-0.36361098289489746,0.7538043260574341,-0.5644742250442505,0.6136121153831482,0.059562183916568756,-0.2396840751171112
1749047141.3305728,0.42820000648498535,-2.1446262798705042,1.137045685444967,3.105869932765625,3.25091552734375,-1.2288544813739222,-0.056774139404296875,0.02698534168303013,-0.08745631575584412,0.05757109820842743,-0.14514917135238647,-0.04363119602203369,-0.40215814113616943,0.7353335618972778,-0.5901604890823364,0.6090434789657593,0.04216890037059784,-0.22184406220912933
1749047141.330647,0.42811819911003113,-2.14457430462026,1.1368697325335901,3.1059557634541015,3.250584602355957,-1.228926960621969,-0.06032354384660721,0.026725774630904198,-0.0901867151260376,0.05907024070620537,-0.14779190719127655,-0.0450584813952446,-0.33484694361686707,0.7551063895225525,-0.5948634147644043,0.6154686808586121,0.03877509385347366,-0.1975613385438919
1749047141.3307185,0.42792531847953796,-2.144522329370016,1.1366899649249476,3.106076880092285,3.250262498855591,-1.229049030934469,-0.05872911214828491,0.027459418401122093,-0.08920557796955109,0.05888540297746658,-0.1546582579612732,-0.04662062227725983,-0.3725595772266388,0.7584586143493652,-0.5621960759162903,0.627184271812439,0.0654897391796112,-0.20130380988121033
1749047141.33079,0.4278683066368103,-2.144442220727438,1.1365187803851526,3.1062051492878417,3.2499890327453613,-1.2290943304644983,-0.059092339128255844,0.028281694278120995,-0.09066224843263626,0.05951083451509476,-0.15365998446941376,-0.04700454697012901,-0.3834943473339081,0.7553173303604126,-0.5932742357254028,0.6385923027992249,0.053960371762514114,-0.2052469551563263
1749047141.3308594,0.42766913771629333,-2.144374986688131,1.1363351980792444,3.1063029009052734,3.2496771812438965,-1.2292059103595179,-0.061393849551677704,0.02806137502193451,-0.09197163581848145,0.06042435020208359,-0.15607821941375732,-0.046890951693058014,-0.3641228675842285,0.7460476160049438,-0.5892994999885559,0.6314399242401123,0.0691668838262558,-0.18969883024692535
1749047141.3309278,0.42758888006210327,-2.144327302972311,1.136151138936178,3.1064631181904296,3.249330759048462,-1.229304615651266,-0.06213889643549919,0.02835211716592312,-0.09289790689945221,0.06184426322579384,-0.15788444876670837,-0.04651879891753197,-0.354034960269928,0.7669073343276978,-0.6015239357948303,0.6380086541175842,0.073985755443573,-0.19759857654571533
1749047141.330995,0.42750078439712524,-2.144302030602926,1.1359556357013147,3.1065727907368164,3.249069929122925,-1.2293966452227991,-0.06004909798502922,0.02922258898615837,-0.09422566741704941,0.06237713620066643,-0.1598723977804184,-0.04747701436281204,-0.3973925709724426,0.7931930422782898,-0.6132238507270813,0.6425571441650391,0.05811804533004761,-0.19150546193122864
1749047141.3310628,0.4273340106010437,-2.144254346887106,1.135763947163717,3.1066958147236328,3.2487263679504395,-1.2294767538653772,-0.06382426619529724,0.029671650379896164,-0.09668265283107758,0.06311186403036118,-0.16006746888160706,-0.04877237603068352,-0.3694494962692261,0.7571966052055359,-0.5757634043693542,0.6488510370254517,0.05079755187034607,-0.20311056077480316
1749047141.3311303,0.4272298216819763,-2.1441475353636683,1.1355493704425257,3.1068083482929687,3.248418092727661,-1.2295916716205042,-0.06585067510604858,0.030474580824375153,-0.09787160903215408,0.06533146649599075,-0.159955695271492,-0.04881298914551735,-0.3465086817741394,0.7546417117118835,-0.5977896451950073,0.6305549144744873,0.033976227045059204,-0.18799954652786255
1749047141.3311973,0.4270980656147003,-2.1441103420653285,1.1353719870196741,3.106928511256836,3.2480356693267822,-1.229734245930807,-0.0645953044295311,0.03092075139284134,-0.098587766289711,0.06628452986478806,-0.16290944814682007,-0.0485464371740818,-0.35551708936691284,0.7463679909706116,-0.5754448771476746,0.6446744799613953,0.021264955401420593,-0.18873004615306854
1749047141.3312638,0.42697009444236755,-2.1440206966795863,1.1351383368121546,3.1070872980305175,3.247697353363037,-1.2297795454608362,-0.0658712387084961,0.03146765008568764,-0.09964261949062347,0.06711608916521072,-0.1627628207206726,-0.04774146527051926,-0.3461882770061493,0.7605767846107483,-0.5978859663009644,0.6368889808654785,0.01954972743988037,-0.19262859225273132
1749047141.3313308,0.42678025364875793,-2.1439644298949183,1.1350048224078577,3.107191725368164,3.247384548187256,-1.2298782507525843,-0.06624871492385864,0.031619034707546234,-0.09892690926790237,0.06840471923351288,-0.16437433660030365,-0.04761381447315216,-0.34463685750961304,0.7632037997245789,-0.5930613875389099,0.6338330507278442,0.0007037222385406494,-0.17369136214256287
1749047141.3313982,0.42668670415878296,-2.143907686273092,1.1347702185260218,3.107323332423828,3.24700927734375,-1.229955021535055,-0.06558968126773834,0.03272498399019241,-0.10315732657909393,0.06965036690235138,-0.17290765047073364,-0.04853162541985512,-0.36402827501296997,0.779077410697937,-0.5666753053665161,0.6319510340690613,0.04926759749650955,-0.1760103851556778
1749047141.331466,0.4265354573726654,-2.1438237629332484,1.1345542112933558,3.1075092989155273,3.2466180324554443,-1.2300785223590296,-0.06916362792253494,0.033574242144823074,-0.10072294622659683,0.07041765749454498,-0.17360129952430725,-0.04917439445853233,-0.3190804719924927,0.7688970565795898,-0.6021101474761963,0.6246826648712158,0.035437650978565216,-0.177708238363266
1749047141.3315318,0.4264127016067505,-2.1437326870360316,1.1343467871295374,3.1076409059711914,3.2463364601135254,-1.2301653067218226,-0.06530681252479553,0.035543542355298996,-0.10396711528301239,0.07082366198301315,-0.17660515010356903,-0.049264151602983475,-0.34969672560691833,0.7545674443244934,-0.5858971476554871,0.6379408836364746,0.04064888134598732,-0.17742374539375305
1749047141.3315997,0.4262412190437317,-2.1436835728087367,1.1341279188739222,3.10777394353833,3.2459614276885986,-1.2302611509906214,-0.06613144278526306,0.036115456372499466,-0.10348017513751984,0.07319136708974838,-0.17892512679100037,-0.049554381519556046,-0.386870801448822,0.749894380569458,-0.5965282917022705,0.6145875453948975,0.04477556794881821,-0.19872675836086273
1749047141.3316667,0.42611050605773926,-2.1436268291869105,1.1339195410357874,3.1079484659382324,3.2455735206604004,-1.2303651014911097,-0.07019523531198502,0.03582770377397537,-0.10590886324644089,0.07619862258434296,-0.1802433878183365,-0.04925180971622467,-0.31782954931259155,0.7622714638710022,-0.5952304601669312,0.5985447764396667,0.07040952146053314,-0.18929226696491241
1749047141.3317342,0.42601266503334045,-2.14355530361318,1.1337316671954554,3.108088179225586,3.245210647583008,-1.2304728666888636,-0.06628206372261047,0.0371275320649147,-0.10724540799856186,0.0763232484459877,-0.17954552173614502,-0.04903821647167206,-0.36804232001304626,0.7510074377059937,-0.580650806427002,0.584601104259491,0.064568430185318,-0.1866414099931717
1749047141.3318014,0.42585381865501404,-2.1434642277159632,1.1335004011737269,3.1082393366047363,3.2448618412017822,-1.2305801550494593,-0.06816211342811584,0.036231398582458496,-0.10846018046140671,0.074555903673172,-0.17915193736553192,-0.0490252710878849,-0.3580431342124939,0.7471322417259216,-0.5672117471694946,0.6043799519538879,0.06359078735113144,-0.183712437748909
1749047141.3319657,0.4257495403289795,-2.1433640919127406,1.1332605520831507,3.1083685594746093,3.244455099105835,-1.2306674162494105,-0.06999082118272781,0.03861268609762192,-0.10923314094543457,0.07350356876850128,-0.17920546233654022,-0.04902217909693718,-0.372972697019577,0.756965160369873,-0.5753904581069946,0.5996791124343872,0.037430159747600555,-0.1939670443534851
1749047141.3327863,0.4255678057670593,-2.143285413781637,1.1330483595477503,3.1085454660603027,3.2441115379333496,-1.230798069630758,-0.07059122622013092,0.03882268816232681,-0.11090820282697678,0.07357056438922882,-0.1804356724023819,-0.049254853278398514,-0.35343658924102783,0.7147624492645264,-0.5398815870285034,0.62159264087677,0.0510968416929245,-0.21758702397346497
1749047141.3745134,0.42538487911224365,-2.1432324848570765,1.1328018347369593,3.108688994044922,3.2437243461608887,-1.230870548878805,-0.07151120156049728,0.03669710084795952,-0.11015836894512177,0.07479755580425262,-0.17938990890979767,-0.04929865151643753,-0.3533223867416382,0.7518812417984009,-0.5977608561515808,0.6168901920318604,0.017355382442474365,-0.21865053474903107
1749047141.374594,0.42534157633781433,-2.1431414089598597,1.132590119038717,3.1088577943989257,3.243363380432129,-1.2309821287738245,-0.07145291566848755,0.03782958164811134,-0.11281973868608475,0.0778815746307373,-0.18619586527347565,-0.04986680671572685,-0.36331090331077576,0.7712477445602417,-0.5554240942001343,0.6087659597396851,0.0340990275144577,-0.23835520446300507
1749047141.3746774,0.42534157633781433,-2.1431414089598597,1.132590119038717,3.1088577943989257,3.243363380432129,-1.2309821287738245,-0.07145291566848755,0.03782958164811134,-0.11281973868608475,0.0778815746307373,-0.18619586527347565,-0.04986680671572685,-0.36331090331077576,0.7712477445602417,-0.5554240942001343,0.6087659597396851,0.0340990275144577,-0.23835520446300507
1749047141.3747466,0.42514023184776306,-2.143088480035299,1.1323588530169886,3.108994169826172,3.2429683208465576,-1.2310856024371546,-0.072287417948246,0.038187623023986816,-0.1136210635304451,0.07625598460435867,-0.18656125664710999,-0.05031618848443031,-0.3530431389808655,0.7557262182235718,-0.5749940872192383,0.5893813371658325,-0.01056746393442154,-0.22630654275417328
1749047141.37482,0.4248443841934204,-2.1429010830321253,1.1318724791156214,3.109295530910156,3.2422091960906982,-1.2313202063189905,-0.07324602454900742,0.04139239341020584,-0.11517275124788284,0.07554136961698532,-0.19321653246879578,-0.050373610109090805,-0.3661470413208008,0.7253560423851013,-0.5738362669944763,0.6130039691925049,0.02842995524406433,-0.2478138655424118
1749047141.3748925,0.4247133731842041,-2.142825265923971,1.1316445509540003,3.1094094949909667,3.241868257522583,-1.2314398924456995,-0.07359390705823898,0.04017535224556923,-0.11625884473323822,0.07471827417612076,-0.19490644335746765,-0.052059613168239594,-0.37545454502105713,0.731277585029602,-0.5860787034034729,0.6212331056594849,0.02480463683605194,-0.2207251787185669
1749047141.3749633,0.424569308757782,-2.1427413425841273,1.1314170996295374,3.10956780492749,3.241452932357788,-1.231504265462057,-0.07600417733192444,0.03894404321908951,-0.11761816591024399,0.07467648386955261,-0.19538436830043793,-0.05435583367943764,-0.376738578081131,0.7735913991928101,-0.5970504879951477,0.6402469277381897,-0.020681843161582947,-0.23315396904945374
1749047141.375034,0.4243710935115814,-2.1426693401732386,1.1312091986285608,3.1097380357929687,3.2410383224487305,-1.231631104146139,-0.07615777105093002,0.040931832045316696,-0.1182868480682373,0.07557082176208496,-0.19891002774238586,-0.05565110221505165,-0.38044852018356323,0.7527101635932922,-0.5749918222427368,0.6491713523864746,0.006980884820222855,-0.22790756821632385
1749047141.3751042,0.4242546260356903,-2.142600198785299,1.130958382283346,3.1098953920551757,3.240598678588867,-1.2317159811602991,-0.07697422057390213,0.04135752096772194,-0.11868737637996674,0.07763095200061798,-0.19789518415927887,-0.05488051846623421,-0.33709517121315,0.7284777164459229,-0.5497258901596069,0.637130618095398,0.01729656010866165,-0.23826473951339722
1749047141.3751733,0.42412683367729187,-2.142485281030172,1.130714241658346,3.1100198465534667,3.2402260303497314,-1.231835667287008,-0.07461986690759659,0.04125036671757698,-0.1171366274356842,0.07708366215229034,-0.1986917406320572,-0.05372929200530052,-0.3829617500305176,0.7510592341423035,-0.600043773651123,0.6439749002456665,-0.022851526737213135,-0.2718185782432556
1749047141.3752422,0.42388856410980225,-2.142417093316549,1.1305025259601038,3.110175295467041,3.2398622035980225,-1.2319586912738245,-0.07986097782850266,0.041527796536684036,-0.12081834673881531,0.07744849473237991,-0.20150309801101685,-0.05483685061335564,-0.3599890470504761,0.7453750967979431,-0.5943288803100586,0.6606060862541199,-0.018457837402820587,-0.2718241214752197
1749047141.3753119,0.4237678050994873,-2.1423260174193324,1.1302507559405726,3.110330267543457,3.2394042015075684,-1.2320659796344202,-0.07630746066570282,0.04225873574614525,-0.12055115401744843,0.08202306181192398,-0.2067006230354309,-0.05707046762108803,-0.39678430557250977,0.7339509129524231,-0.6088590025901794,0.6559372544288635,-0.016147928312420845,-0.2589656412601471
1749047141.3753808,0.42356500029563904,-2.142233987847799,1.1300156752215784,3.110490007991455,3.2390239238739014,-1.2321928183185022,-0.07674327492713928,0.04260501265525818,-0.12331577390432358,0.08281365782022476,-0.2105705887079239,-0.05893748998641968,-0.35856106877326965,0.7547969818115234,-0.5911064743995667,0.6311337947845459,0.0097527876496315,-0.24131907522678375
1749047141.3754504,0.4234370291233063,-2.1421734295287074,1.1297677198993128,3.110659285182617,3.238576889038086,-1.2323086897479456,-0.07918079942464828,0.043234582990407944,-0.1242435947060585,0.08172709494829178,-0.21329538524150848,-0.06148817017674446,-0.3089355230331421,0.7514881491661072,-0.6025023460388184,0.6531837582588196,-0.0015825256705284119,-0.24253052473068237
1749047141.3755178,0.4233163893222809,-2.1420728168883265,1.1295631567584437,3.1108438211628417,3.238192081451416,-1.232424561177389,-0.07615096867084503,0.043913040310144424,-0.12548649311065674,0.08433380722999573,-0.21459384262561798,-0.06503303349018097,-0.4042074680328369,0.7280623316764832,-0.5843853950500488,0.6474567651748657,0.008871408179402351,-0.2103283703327179
1749047141.3755872,0.42315730452537537,-2.1419927082457484,1.1292765776263636,3.1110307413288574,3.2377614974975586,-1.2325409094439905,-0.07928589731454849,0.04364105686545372,-0.1252252757549286,0.08722908049821854,-0.21428029239177704,-0.06435392796993256,-0.34511440992355347,0.7562549114227295,-0.6015017032623291,0.6463934779167175,-0.008480019867420197,-0.20281441509723663
1749047141.3756568,0.4229698181152344,-2.1419364414610804,1.12903339067568,3.1112100321003417,3.237314224243164,-1.2327144781695765,-0.0797838419675827,0.0446351058781147,-0.12906451523303986,0.09059327095746994,-0.22033046185970306,-0.06229938194155693,-0.36410582065582275,0.7188481688499451,-0.5985293984413147,0.6188869476318359,-0.016920238733291626,-0.23070144653320312
1749047141.3757246,0.4228101074695587,-2.1418024502196253,1.1287544409381312,3.1113669115253906,3.2368969917297363,-1.232833210621969,-0.0795026421546936,0.044205695390701294,-0.12743127346038818,0.09157945960760117,-0.22114017605781555,-0.06437613815069199,-0.3580183684825897,0.7391555309295654,-0.6231828927993774,0.6123744249343872,-0.00733126699924469,-0.223741352558136
1749047141.375795,0.4226195812225342,-2.1417533359923304,1.1284750143634241,3.111557646388672,3.2364535331726074,-1.232950512562887,-0.08037248998880386,0.04586421698331833,-0.13011755049228668,0.08959636092185974,-0.22857880592346191,-0.06682202965021133,-0.3954557776451111,0.733980119228363,-0.6066039800643921,0.626488208770752,0.009200405329465866,-0.21394005417823792
1749047141.3758621,0.4224521517753601,-2.1416641674437464,1.1282389799701136,3.1117378908344726,3.235999345779419,-1.2330978552447718,-0.08154892921447754,0.046601876616477966,-0.13156631588935852,0.0916244238615036,-0.22693581879138947,-0.06755190342664719,-0.3843063712120056,0.7134912014007568,-0.6206699013710022,0.6019594073295593,-0.004292942583560944,-0.18007168173789978
1749047141.3760054,0.4223152697086334,-2.141533514062399,1.1279709974872034,3.1119133669086914,3.2355315685272217,-1.2332103888141077,-0.08478687703609467,0.04477953538298607,-0.1341991275548935,0.09211772680282593,-0.2268478125333786,-0.06712976843118668,-0.3505687713623047,0.7298176288604736,-0.5886722207069397,0.5977317690849304,-0.015399426221847534,-0.1798156201839447
1749047141.3768036,0.4221396744251251,-2.1414252720274867,1.1277039686786097,3.1120897966572265,3.235041618347168,-1.233372990285055,-0.0820910856127739,0.04596139118075371,-0.13434270024299622,0.09113562852144241,-0.2294069230556488,-0.06665918231010437,-0.35495638847351074,0.7411555647850037,-0.6040586233139038,0.6005756855010986,-0.009568482637405396,-0.18075595796108246
1749047141.4185133,0.42193344235420227,-2.141341348687643,1.1274212042437952,3.1123034197041015,3.2345573902130127,-1.2335265318499964,-0.08285131305456161,0.04665379598736763,-0.13514919579029083,0.08965014666318893,-0.22900128364562988,-0.06519636511802673,-0.3897002637386322,0.723806619644165,-0.5968557000160217,0.6124798059463501,0.004038810729980469,-0.19252228736877441
1749047141.4185915,0.42178571224212646,-2.1412698231139125,1.1271331946002405,3.112471743220947,3.2341768741607666,-1.2336199919330042,-0.0875491350889206,0.04847944900393486,-0.13678722083568573,0.08996914327144623,-0.2326907217502594,-0.0648818388581276,-0.32041826844215393,0.7220174670219421,-0.5868130326271057,0.6118749976158142,-0.0025347750633955,-0.19240181148052216
1749047141.4186637,0.42165622115135193,-2.1411386928954066,1.1268733183490198,3.1126505571552734,3.2336652278900146,-1.2337587515460413,-0.08601069450378418,0.048022203147411346,-0.13917221128940582,0.08863309025764465,-0.23067860305309296,-0.06324067711830139,-0.37051281332969666,0.710834264755249,-0.5923402309417725,0.6237227916717529,-0.03100866824388504,-0.21199120581150055
1749047141.418735,0.42150789499282837,-2.141050478021139,1.126617733632223,3.1128179269978027,3.2332491874694824,-1.2339132467852991,-0.0868513435125351,0.04700002074241638,-0.1401364952325821,0.08843590319156647,-0.2356809824705124,-0.06490088999271393,-0.3381713330745697,0.7440229654312134,-0.6066466569900513,0.6340420842170715,-0.0060721635818481445,-0.19787028431892395
1749047141.4188046,0.4212517738342285,-2.1409617863097132,1.1263106505023401,3.1129976946064453,3.2327306270599365,-1.2340219656573694,-0.08767280727624893,0.048936787992715836,-0.14264227449893951,0.08912445604801178,-0.23824159801006317,-0.06547319144010544,-0.3435640037059784,0.7123613953590393,-0.5724443197250366,0.6345196962356567,-0.023165684193372726,-0.19813396036624908
1749047141.418875,0.42106887698173523,-2.1408268413939417,1.126054588948385,3.1131769853779296,3.232278823852539,-1.234168831502096,-0.08681444823741913,0.048882417380809784,-0.14022524654865265,0.0906636193394661,-0.24149246513843536,-0.06489057838916779,-0.36167997121810913,0.6995032429695129,-0.6037384271621704,0.6564456224441528,-0.014074703678488731,-0.2150694727897644
1749047141.418944,0.4209582209587097,-2.140777727166647,1.125763241444723,3.1133600908466796,3.2317564487457275,-1.2342537085162562,-0.08673607558012009,0.04926128312945366,-0.14088961482048035,0.09248340874910355,-0.24317820370197296,-0.06500459462404251,-0.39500272274017334,0.7262068390846252,-0.5912414193153381,0.6379425525665283,-0.000927366316318512,-0.23213979601860046
1749047141.4190125,0.4207717478275299,-2.140679021874899,1.1254599730121058,3.1135355669208984,3.2312684059143066,-1.234408203755514,-0.08747938275337219,0.049515917897224426,-0.14183296263217926,0.09278660267591476,-0.2447373867034912,-0.06498001515865326,-0.40048277378082275,0.7139322757720947,-0.5932607054710388,0.625973641872406,0.01048360113054514,-0.22649627923965454
1749047141.419081,0.4206237196922302,-2.1405674419798792,1.1251605192767542,3.1137191492268066,3.230792999267578,-1.2345240751849573,-0.0891878604888916,0.04989757761359215,-0.14236436784267426,0.09402724355459213,-0.2453649342060089,-0.06450660526752472,-0.3894132077693939,0.7076528668403625,-0.601559579372406,0.6489835977554321,0.0005573034286499023,-0.23854021728038788
1749047141.4191482,0.4203972816467285,-2.1404901943602503,1.1248729864703577,3.113903208369873,3.2302887439727783,-1.2347057501422327,-0.09096848219633102,0.05029528588056564,-0.1452173888683319,0.09418869763612747,-0.2485780566930771,-0.06586794555187225,-0.4141295850276947,0.7262471914291382,-0.5956332087516785,0.6453931331634521,-0.0036018788814544678,-0.2630428373813629
1749047141.419216,0.42023295164108276,-2.1403709850706996,1.1245854536639612,3.1140824991413574,3.229785203933716,-1.2347644011126917,-0.0921555906534195,0.05106327310204506,-0.14634381234645844,0.09557285904884338,-0.24739602208137512,-0.06901010870933533,-0.3782579302787781,0.6893322467803955,-0.6122539043426514,0.6468743681907654,0.003710836172103882,-0.22048214077949524
1749047141.4192824,0.42001062631607056,-2.1402794323363246,1.1242979208575647,3.1143361765095214,3.229255199432373,-1.2349150816546839,-0.09234759956598282,0.05070433393120766,-0.14583389461040497,0.09682387858629227,-0.2528950870037079,-0.06977858394384384,-0.3865549564361572,0.704928457736969,-0.607221782207489,0.6603391766548157,0.016221825033426285,-0.25160592794418335
1749047141.4193478,0.4198501706123352,-2.140186925927633,1.123995606099264,3.1145245271870117,3.228752851486206,-1.2350776831256312,-0.09433647990226746,0.051122065633535385,-0.14708565175533295,0.09828303009271622,-0.25156471133232117,-0.06854845583438873,-0.37261828780174255,0.7001560926437378,-0.6159259080886841,0.6412030458450317,0.00571972131729126,-0.23499326407909393
1749047141.419415,0.41963133215904236,-2.1400948963561,1.1237147490130823,3.1147309976765136,3.228307008743286,-1.2352021376239222,-0.0924278125166893,0.05103515461087227,-0.14858606457710266,0.1020316630601883,-0.25361397862434387,-0.07027523964643478,-0.38807713985443115,0.6955813765525818,-0.6126982569694519,0.656288206577301,-0.009032636880874634,-0.2242385745048523
1749047141.41948,0.41941332817077637,-2.1399952373900355,1.1233838240252894,3.114908381099365,3.227794647216797,-1.2353923956500452,-0.09347498416900635,0.05109807848930359,-0.15113426744937897,0.10292571783065796,-0.25396254658699036,-0.07167041301727295,-0.3879263401031494,0.6963586211204529,-0.5941000580787659,0.6117312908172607,0.010830670595169067,-0.24198471009731293
1749047141.4195473,0.41923731565475464,-2.139883657495016,1.1230843702899378,3.1151110368916015,3.2273073196411133,-1.235523525868551,-0.09459898620843887,0.05101640149950981,-0.15245606005191803,0.10085653513669968,-0.25680220127105713,-0.07382261753082275,-0.3583073318004608,0.7313814163208008,-0.5855966210365295,0.6260127425193787,0.008935485035181046,-0.23337750136852264
1749047141.4196143,0.4191088378429413,-2.1397911510863246,1.1227458159076136,3.115306540126465,3.2267565727233887,-1.2356718222247522,-0.09469562768936157,0.051979828625917435,-0.1533738076686859,0.10089477896690369,-0.25896361470222473,-0.07753321528434753,-0.40737608075141907,0.7176933884620667,-0.5923677682876587,0.6279067993164062,0.002364933490753174,-0.19755427539348602
1749047141.4196825,0.4188424050807953,-2.1396919689574183,1.122493092213766,3.115529699916504,3.226245880126953,-1.2358344236956995,-0.0966501235961914,0.051504313945770264,-0.1543944925069809,0.10442688316106796,-0.25936639308929443,-0.07647465914487839,-0.36582857370376587,0.7303237915039062,-0.5802878737449646,0.6063866019248962,0.003221675753593445,-0.2125546634197235
1749047141.4197469,0.41869425773620605,-2.139610906640524,1.1221349875079554,3.1157447534748535,3.2257096767425537,-1.2359631697284144,-0.0962427407503128,0.051846694201231,-0.15563328564167023,0.10526455193758011,-0.2629697918891907,-0.07584754377603531,-0.3695378601551056,0.7359415888786316,-0.58670574426651,0.5995888710021973,0.010885116644203663,-0.21259009838104248
1749047141.4198217,0.41853776574134827,-2.1394602260985316,1.1218474547015589,3.11593405782666,3.2251665592193604,-1.236098591481344,-0.09675325453281403,0.053138166666030884,-0.15445032715797424,0.10164540261030197,-0.2629576325416565,-0.0775824636220932,-0.3638007640838623,0.7357508540153503,-0.6017857789993286,0.6085772514343262,-0.012099780142307281,-0.20480382442474365
1749047141.4199884,0.4183150827884674,-2.1394111118712367,1.1215203444110315,3.1161367136188964,3.2246978282928467,-1.2362969557391565,-0.09725047647953033,0.052255477756261826,-0.15711118280887604,0.1026240736246109,-0.2646811902523041,-0.07885167002677917,-0.37475988268852234,0.7762148380279541,-0.5708445310592651,0.6133695244789124,0.02640393003821373,-0.1935974806547165
1749047141.4208086,0.41811132431030273,-2.1392961941161097,1.1212595144854944,3.116351290340088,3.224177598953247,-1.2364333311664026,-0.09790684282779694,0.05504228174686432,-0.15897896885871887,0.10070181638002396,-0.26566579937934875,-0.08049578964710236,-0.42445310950279236,0.7476451992988586,-0.577478289604187,0.625898003578186,0.0008397027850151062,-0.17906351387500763
1749047141.462285,0.4178847074508667,-2.139191289941305,1.1209171454059046,3.1165076929279785,3.2236151695251465,-1.2366073767291468,-0.09663417190313339,0.052664078772068024,-0.16129028797149658,0.09957772493362427,-0.2655431628227234,-0.08069584518671036,-0.39219510555267334,0.7357004880905151,-0.5806806683540344,0.640828013420105,-0.01972801983356476,-0.18946769833564758
1749047141.462331,0.41773685812950134,-2.139095445672506,1.1206119696246546,3.116734190578125,3.2230911254882812,-1.236755673085348,-0.09889505058526993,0.05295924097299576,-0.1589786857366562,0.10001130402088165,-0.26865845918655396,-0.08079990744590759,-0.4063408076763153,0.7746090292930603,-0.561413049697876,0.6584703326225281,0.00040471553802490234,-0.157655730843544
1749047141.4623723,0.4174819886684418,-2.1389719448485316,1.1202696005450647,3.116921587581299,3.222513198852539,-1.236887280141012,-0.10024718195199966,0.05320505052804947,-0.16053053736686707,0.10082143545150757,-0.2752327024936676,-0.07974894344806671,-0.36706027388572693,0.7781949043273926,-0.5638113021850586,0.6527799963951111,0.009938020259141922,-0.16170668601989746
1749047141.4624128,0.41732481122016907,-2.138876577416891,1.119958225880758,3.117121859187744,3.2219653129577637,-1.2370932737933558,-0.10026255995035172,0.055921006947755814,-0.16208374500274658,0.10119631141424179,-0.27543917298316956,-0.07772745192050934,-0.3928055465221405,0.7474350929260254,-0.5853633284568787,0.6827354431152344,0.0014158189296722412,-0.16332218050956726
1749047141.4624527,0.4170829951763153,-2.1387440166869105,1.1196354071246546,3.117355986232422,3.221391201019287,-1.2372291723834437,-0.10113013535737991,0.054260268807411194,-0.1632891744375229,0.10563105344772339,-0.27806389331817627,-0.07849527895450592,-0.39744025468826294,0.7463361620903015,-0.5725988745689392,0.6853526830673218,0.0010247379541397095,-0.177560955286026
1749047141.462492,0.41689786314964294,-2.1386448345580042,1.119307819996969,3.1175595956989746,3.2208549976348877,-1.2373846212970179,-0.10123293101787567,0.05407029017806053,-0.16408447921276093,0.10817752778530121,-0.27893927693367004,-0.07786283642053604,-0.4214780032634735,0.7852725386619568,-0.5649805665016174,0.6523569822311401,0.04610081762075424,-0.19493217766284943
1749047141.4625306,0.41669487953186035,-2.1385442219176234,1.1189797560321253,3.1177713113972167,3.2202706336975098,-1.2375319639789026,-0.10331863909959793,0.0563453808426857,-0.16458001732826233,0.10809358209371567,-0.2797433137893677,-0.0768076479434967,-0.40195712447166443,0.752566933631897,-0.5589987635612488,0.6738225221633911,0.01939719170331955,-0.17850320041179657
1749047141.4625683,0.41669487953186035,-2.1385442219176234,1.1189797560321253,3.1177713113972167,3.2202706336975098,-1.2375319639789026,-0.10331863909959793,0.0563453808426857,-0.16458001732826233,0.10809358209371567,-0.2797433137893677,-0.0768076479434967,-0.40195712447166443,0.752566933631897,-0.5589987635612488,0.6738225221633911,0.01939719170331955,-0.17850320041179657
1749047141.4626088,0.41623228788375854,-2.138312955895895,1.118316952382223,3.1182333666035156,3.219151020050049,-1.2378557364093226,-0.10492600500583649,0.05725548043847084,-0.16591183841228485,0.1169561818242073,-0.2812994420528412,-0.07607879489660263,-0.4154856204986572,0.7504113912582397,-0.599232017993927,0.6226008534431458,0.021461553871631622,-0.18833893537521362
1749047141.4626482,0.41605982184410095,-2.1381927929320277,1.1180008093463343,3.118476076717041,3.2185556888580322,-1.237997833882467,-0.10490679740905762,0.05779043957591057,-0.16871149837970734,0.11799447238445282,-0.28266483545303345,-0.07581102848052979,-0.3786763548851013,0.745945394039154,-0.6166651844978333,0.5917840003967285,0.018230853602290154,-0.19781452417373657
1749047141.4626887,0.41582879424095154,-2.1380654774107875,1.1176307837115687,3.1187121111103515,3.217973232269287,-1.2381928602801722,-0.10429562628269196,0.05820214003324509,-0.1669038087129593,0.11685418337583542,-0.284728467464447,-0.0755879208445549,-0.41366803646087646,0.7646650671958923,-0.6101880073547363,0.5989695191383362,0.01946963369846344,-0.2106582075357437
1749047141.4627357,0.4156670570373535,-2.1379252872862757,1.1173227469073694,3.118954821223877,3.2174131870269775,-1.2383487860309046,-0.10800132900476456,0.05794018507003784,-0.16831618547439575,0.11856090277433395,-0.28620466589927673,-0.07800501585006714,-0.37116825580596924,0.739310085773468,-0.606604278087616,0.5931771993637085,0.023851437494158745,-0.19935357570648193
1749047141.462785,0.41542109847068787,-2.1378570995726527,1.1170185248004358,3.1191817957111816,3.2168257236480713,-1.2384603659259241,-0.1048651859164238,0.05885738134384155,-0.16931413114070892,0.11871740221977234,-0.2873072922229767,-0.07809276133775711,-0.41920042037963867,0.7491967678070068,-0.613569974899292,0.5981605648994446,0.027731746435165405,-0.20406657457351685
1749047141.462825,0.41516560316085815,-2.137752672235006,1.116633717213766,3.1194092470356445,3.216280937194824,-1.2386210600482386,-0.10980746895074844,0.05910416692495346,-0.17199395596981049,0.1175292581319809,-0.2898769676685333,-0.07703766971826553,-0.3922761082649231,0.7437589764595032,-0.5925220847129822,0.578332245349884,0.0038745254278182983,-0.22615480422973633
1749047141.4628673,0.41502460837364197,-2.1376172504820765,1.1163108984576624,3.1196443277546386,3.2157177925109863,-1.2387951056109827,-0.10720784962177277,0.059044983237981796,-0.17462770640850067,0.11524289846420288,-0.28658559918403625,-0.07721678167581558,-0.4389173984527588,0.759850025177002,-0.6006320714950562,0.6028355360031128,-0.0123831145465374,-0.2428361177444458
1749047141.462913,0.41476210951805115,-2.1374904117979945,1.115979019795553,3.1198722559162597,3.215114116668701,-1.2389424482928675,-0.11015843600034714,0.0627376139163971,-0.17543239891529083,0.11521660536527634,-0.2902371287345886,-0.07867858558893204,-0.3868791162967682,0.7159992456436157,-0.6053040623664856,0.5990154147148132,-0.005982100963592529,-0.2268724888563156
1749047141.462952,0.41454607248306274,-2.1373654804625453,1.1156190077411097,3.12012688695874,3.2145421504974365,-1.2390788237201136,-0.1094806045293808,0.0582570843398571,-0.17586871981620789,0.1154191792011261,-0.29041165113449097,-0.08090636879205704,-0.39575183391571045,0.7711912989616394,-0.6010286211967468,0.6013214588165283,-0.020738795399665833,-0.23853129148483276
1749047141.4629896,0.4143615663051605,-2.137257238427633,1.1152804533587855,3.120330973262451,3.2139384746551514,-1.2392733732806605,-0.10931434482336044,0.05977766588330269,-0.17666006088256836,0.11494587361812592,-0.29175621271133423,-0.08492109924554825,-0.40336161851882935,0.7676733136177063,-0.600857675075531,0.5921855568885803,-0.020655803382396698,-0.22254012525081635
1749047141.463027,0.41410359740257263,-2.13710941890859,1.1149209181415003,3.1205660539814453,3.2133336067199707,-1.239425007496969,-0.1106603741645813,0.06201137229800224,-0.1765807867050171,0.11493414640426636,-0.2916211187839508,-0.08505409210920334,-0.4026840031147003,0.7481254935264587,-0.6230455636978149,0.6075072884559631,-0.017449691891670227,-0.21973532438278198
1749047141.463065,0.4139382839202881,-2.136996408502096,1.114589039479391,3.1207496362873535,3.212693691253662,-1.2396200338946741,-0.11300422251224518,0.061967767775058746,-0.17858123779296875,0.11540182679891586,-0.2975146472454071,-0.08403929322957993,-0.4092232882976532,0.7174822092056274,-0.6335062384605408,0.6223774552345276,-0.02055707573890686,-0.23094499111175537
1749047141.4631786,0.41365644335746765,-2.1368967495360316,1.1141951719867151,3.1209885317036132,3.2120652198791504,-1.2398222128497522,-0.11253879964351654,0.06040235981345177,-0.18168583512306213,0.11653730273246765,-0.2995748519897461,-0.08772821724414825,-0.3704201281070709,0.7690601944923401,-0.6044562458992004,0.6148620843887329,0.009722419083118439,-0.23461133241653442
1749047141.4648037,0.41342490911483765,-2.1367250881590785,1.1138861815081995,3.121250792140625,3.2114689350128174,-1.2399395147906702,-0.11461018025875092,0.06253857910633087,-0.1829788237810135,0.1172013059258461,-0.3028664290904999,-0.08894654363393784,-0.3804926574230194,0.7571143507957458,-0.5607116222381592,0.6333032250404358,-0.0006130393594503403,-0.20458799600601196
1749047141.5062902,0.4132154881954193,-2.136627813378805,1.1135075728045862,3.121478243465088,3.2108569145202637,-1.2401188055621546,-0.11225931346416473,0.062031202018260956,-0.18331201374530792,0.1201743334531784,-0.3059559464454651,-0.08977477252483368,-0.409298300743103,0.7323002815246582,-0.606246292591095,0.6099082827568054,0.015248939394950867,-0.19324223697185516
1749047141.5063357,0.4129886031150818,-2.136479517022604,1.1131518522845667,3.121748133296631,3.2101919651031494,-1.2403290907489222,-0.11367490887641907,0.062238145619630814,-0.18282829225063324,0.12180430442094803,-0.305320143699646,-0.08912486582994461,-0.40659382939338684,0.7637988924980164,-0.6153764724731445,0.5816517472267151,0.03489401936531067,-0.18675781786441803
1749047141.506376,0.41278037428855896,-2.1363560161986292,1.1127765814410608,3.1219493585773925,3.2096495628356934,-1.2404616514789026,-0.11302520334720612,0.06270523369312286,-0.183852419257164,0.12112964689731598,-0.3048068881034851,-0.08999145776033401,-0.4006093442440033,0.7658610939979553,-0.6035657525062561,0.6044046878814697,0.010427623987197876,-0.1801423281431198
1749047141.5064151,0.4125593304634094,-2.1362272701659144,1.112408463154928,3.1222354608723144,3.208996295928955,-1.240699593220846,-0.11613453179597855,0.0626266747713089,-0.18635913729667664,0.12344201654195786,-0.3065577447414398,-0.09013048559427261,-0.4245191216468811,0.7594910264015198,-0.585943341255188,0.6034164428710938,0.0010746940970420837,-0.18243148922920227
1749047141.5064538,0.41228243708610535,-2.136095186273092,1.1120217482196253,3.122466726894043,3.208369493484497,-1.2408674399005335,-0.11782573163509369,0.06399717181921005,-0.186554953455925,0.12712670862674713,-0.30940669775009155,-0.08836399018764496,-0.39343512058258057,0.745578408241272,-0.5776508450508118,0.5734816789627075,-0.004687715321779251,-0.20329977571964264
1749047141.5064917,0.41206198930740356,-2.135955949822897,1.1116226355182093,3.1227337557026367,3.207803249359131,-1.2410267035113733,-0.11776655167341232,0.06412702798843384,-0.18678544461727142,0.12143159657716751,-0.30727067589759827,-0.0883859395980835,-0.3878124952316284,0.7198838591575623,-0.6132132411003113,0.6025494337081909,-0.03140100836753845,-0.21022063493728638
1749047141.506531,0.41182664036750793,-2.1358114681639613,1.1112201849566858,3.122968836421631,3.20721173286438,-1.2411673704730433,-0.11749528348445892,0.06303220242261887,-0.18757499754428864,0.12185685336589813,-0.3080110549926758,-0.08786081522703171,-0.40525108575820923,0.7351685762405396,-0.5886948704719543,0.5973930954933167,-0.03456854820251465,-0.21328920125961304
1749047141.5065694,0.41159892082214355,-2.135698457757467,1.1108687559710901,3.123212977046631,3.2065963745117188,-1.2413538138019007,-0.1217230036854744,0.06524401158094406,-0.1885487586259842,0.12166435271501541,-0.31085559725761414,-0.08568967878818512,-0.40624648332595825,0.7295235991477966,-0.6032710075378418,0.5848884582519531,-0.03704850748181343,-0.2143244594335556
1749047141.5066073,0.4113900065422058,-2.135543485681051,1.110516373311178,3.1234943109699707,3.205958127975464,-1.241533104573385,-0.11930709332227707,0.06526264548301697,-0.19045913219451904,0.12091343849897385,-0.3119215965270996,-0.0876753181219101,-0.40148088335990906,0.7274141907691956,-0.5940476059913635,0.5992476940155029,-0.07974208891391754,-0.22052991390228271
1749047141.506645,0.4113900065422058,-2.135543485681051,1.110516373311178,3.1234943109699707,3.205958127975464,-1.241533104573385,-0.11930709332227707,0.06526264548301697,-0.19045913219451904,0.12091343849897385,-0.3119215965270996,-0.0876753181219101,-0.40148088335990906,0.7274141907691956,-0.5940476059913635,0.5992476940155029,-0.07974208891391754,-0.22052991390228271
1749047141.506697,0.4113900065422058,-2.135543485681051,1.110516373311178,3.1234943109699707,3.205958127975464,-1.241533104573385,-0.11930709332227707,0.06526264548301697,-0.19045913219451904,0.12091343849897385,-0.3119215965270996,-0.0876753181219101,-0.40148088335990906,0.7274141907691956,-0.5940476059913635,0.5992476940155029,-0.07974208891391754,-0.22052991390228271
1749047141.5067449,0.41067972779273987,-2.135181566277975,1.1093304792987269,3.124161406154297,3.204055070877075,-1.2420595327960413,-0.12186142802238464,0.06830978393554688,-0.19310995936393738,0.1208772361278534,-0.32633599638938904,-0.08874364197254181,-0.38041388988494873,0.6877219676971436,-0.6041625142097473,0.634682297706604,-0.07027691602706909,-0.24097344279289246
1749047141.5067842,0.4104398787021637,-2.135061880151266,1.1089122931109827,3.1244470316120605,3.203415870666504,-1.2422784010516565,-0.12118212878704071,0.06490602344274521,-0.19435295462608337,0.1262248009443283,-0.32962337136268616,-0.090395987033844,-0.3975696265697479,0.7350596189498901,-0.5994978547096252,0.6146650910377502,-0.062441710382699966,-0.22935689985752106
1749047141.506822,0.4101890027523041,-2.134921213189596,1.1085251013385218,3.124682589168213,3.202755928039551,-1.242476765309469,-0.12233783304691315,0.06508456915616989,-0.1938961148262024,0.12405338883399963,-0.33029764890670776,-0.09255621582269669,-0.43827107548713684,0.7387169599533081,-0.5856085419654846,0.6271527409553528,-0.04450210928916931,-0.22378918528556824
1749047141.5068607,0.4099206328392029,-2.134754320184225,1.1081212202655237,3.1249186235615234,3.2020561695098877,-1.2426908651935022,-0.12429194152355194,0.06785527616739273,-0.19449907541275024,0.1274987757205963,-0.33296942710876465,-0.09686586260795593,-0.45619577169418335,0.7464034557342529,-0.6255009770393372,0.6283029913902283,-0.06924885511398315,-0.20299032330513
1749047141.5068982,0.4096616208553314,-2.134642263452047,1.107741657887594,3.1251699167438964,3.201368808746338,-1.242793385182516,-0.1283038705587387,0.06739901751279831,-0.19705237448215485,0.1332525759935379,-0.3407190442085266,-0.09489203244447708,-0.34962528944015503,0.6725677251815796,-0.5554574131965637,0.6096081137657166,0.0044484734535217285,-0.20380356907844543
1749047141.506936,0.40941861271858215,-2.134477754632467,1.1073506514178675,3.125432177180908,3.200693130493164,-1.2430232206927698,-0.12415172159671783,0.06568027287721634,-0.19739609956741333,0.13462725281715393,-0.34236451983451843,-0.0946490690112114,-0.34147951006889343,0.7188509702682495,-0.5418896675109863,0.562031090259552,0.06844231486320496,-0.19954891502857208
1749047141.5069737,0.40920156240463257,-2.1343575916686,1.1069396177874964,3.1256839472004394,3.1999897956848145,-1.2432106176959437,-0.12455590069293976,0.06579358875751495,-0.19332261383533478,0.13205106556415558,-0.3375323414802551,-0.09659181535243988,-0.32804062962532043,0.7212985754013062,-0.5538496971130371,0.5780448913574219,0.08960594236850739,-0.18523220717906952
1749047141.5070112,0.4089229702949524,-2.1342255077757777,1.1065247694598597,3.1259895998188476,3.1993484497070312,-1.2434213797198694,-0.12270233780145645,0.06562107056379318,-0.191989004611969,0.1319124549627304,-0.3325739800930023,-0.09676842391490936,-0.4002628028392792,0.7128264904022217,-0.5930496454238892,0.57249915599823,0.07362249493598938,-0.18133625388145447
1749047141.5070484,0.40869084000587463,-2.134109159509176,1.1061676184283655,3.1262375551411132,3.1986732482910156,-1.2436054388629358,-0.12422415614128113,0.06522016227245331,-0.1931745707988739,0.12918700277805328,-0.3310825228691101,-0.09582508355379105,-0.3441803455352783,0.7217249870300293,-0.5829129815101624,0.5612364411354065,0.07062042504549026,-0.17070665955543518
1749047141.5071554,0.4084508717060089,-2.133984228173727,1.105765167866842,3.126476450557373,3.1979682445526123,-1.243765656148092,-0.1239742711186409,0.06490393728017807,-0.1952691376209259,0.1264236718416214,-0.328881174325943,-0.09607266634702682,-0.35497739911079407,0.716698944568634,-0.557888388633728,0.580339789390564,0.0026494432240724564,-0.1751108020544052
1749047141.5087385,0.4081762731075287,-2.133875986138815,1.1053856054889124,3.126739664668701,3.197343349456787,-1.2439916769610804,-0.12376930564641953,0.06497514247894287,-0.19460365176200867,0.12473753094673157,-0.32909226417541504,-0.09580576419830322,-0.3784422278404236,0.7350447773933411,-0.5674114227294922,0.629867672920227,0.02265673130750656,-0.1972820907831192
1749047141.5502934,0.407962828874588,-2.1337086162962855,1.104947868977682,3.126997633571289,3.1966912746429443,-1.2441671530352991,-0.12327970564365387,0.06470613926649094,-0.19494988024234772,0.12420722097158432,-0.3284657597541809,-0.09402409195899963,-0.4028729498386383,0.7909731864929199,-0.5860663056373596,0.6300334334373474,0.004380745813250542,-0.19308194518089294
1749047141.5503423,0.4077557623386383,-2.1335488758482875,1.1045954863177698,3.1272336679645996,3.1961216926574707,-1.244324032460348,-0.12192792445421219,0.06511027365922928,-0.19824814796447754,0.12556658685207367,-0.32770344614982605,-0.09437774121761322,-0.4899365305900574,0.7584480047225952,-0.6372939944267273,0.6521803140640259,-0.044885486364364624,-0.20634834468364716
1749047141.5503836,0.40746912360191345,-2.133416791955465,1.1041882673846644,3.127504988307617,3.1954236030578613,-1.2445343176471155,-0.12656398117542267,0.06594901531934738,-0.20207363367080688,0.12831339240074158,-0.33348366618156433,-0.09393288940191269,-0.43647029995918274,0.7571600675582886,-0.6089770197868347,0.6478429436683655,-0.0679725855588913,-0.19962653517723083
1749047141.5504286,0.4072873890399933,-2.1332651577391566,1.1038201490985315,3.1277877527424316,3.194807529449463,-1.2447293440448206,-0.12950387597084045,0.0673532783985138,-0.20333603024482727,0.13047870993614197,-0.34185224771499634,-0.0950731486082077,-0.4511955678462982,0.7786464095115662,-0.6055772304534912,0.6378381848335266,-0.07854308187961578,-0.20173855125904083
1749047141.5504696,0.4069625735282898,-2.133160253564352,1.103365723286764,3.128047152156494,3.1941115856170654,-1.24492055574526,-0.12781763076782227,0.06920575350522995,-0.20406962931156158,0.13309121131896973,-0.3476009964942932,-0.0961109846830368,-0.46310538053512573,0.7446337342262268,-0.5922006368637085,0.6441892385482788,-0.06167159974575043,-0.2002895623445511
1749047141.550508,0.40673089027404785,-2.133008142510885,1.1029351393329065,3.128326578731201,3.193387746810913,-1.2451313177691858,-0.13053449988365173,0.06745105236768723,-0.2042827010154724,0.14005747437477112,-0.35248059034347534,-0.09403904527425766,-0.4489404559135437,0.7957068681716919,-0.5999731421470642,0.6300567388534546,-0.0459374338388443,-0.2200530618429184
1749047141.5505462,0.4064430594444275,-2.132859846154684,1.1025083700763147,3.128652258510254,3.192676544189453,-1.2453082243548792,-0.13095040619373322,0.06975243985652924,-0.20467425882816315,0.1397400051355362,-0.354694128036499,-0.09857256710529327,-0.44247981905937195,0.7704483866691589,-0.6348887085914612,0.5805384516716003,-0.04010879993438721,-0.20282624661922455
1749047141.5505857,0.4061864912509918,-2.132747312585348,1.1020811239825647,3.128926916713379,3.191960334777832,-1.2455342451678675,-0.13321436941623688,0.07318289577960968,-0.20805318653583527,0.13965201377868652,-0.356180876493454,-0.09936773031949997,-0.42793741822242737,0.7141121625900269,-0.6166970133781433,0.5910764932632446,-0.056938111782073975,-0.1928783655166626
1749047141.5506237,0.40584078431129456,-2.1326071224608363,1.1016576925860804,3.129175825709961,3.191202402114868,-1.245690647755758,-0.13414812088012695,0.07049094140529633,-0.2096797227859497,0.14258071780204773,-0.35860079526901245,-0.09552954882383347,-0.4100590646266937,0.7468888759613037,-0.5880172252655029,0.5788542628288269,-0.043523624539375305,-0.22926808893680573
1749047141.5506716,0.4056316316127777,-2.132439752618307,1.1012104193316858,3.1294819551655273,3.190443277359009,-1.2458699385272425,-0.13405205309391022,0.07335256040096283,-0.21215812861919403,0.13992992043495178,-0.36620277166366577,-0.09699764102697372,-0.4321313500404358,0.710737943649292,-0.5617757439613342,0.5750102400779724,-0.0025460273027420044,-0.23368842899799347
1749047141.550714,0.40533655881881714,-2.1323148212828578,1.100783650075094,3.129765673274658,3.189751386642456,-1.2460649649249476,-0.134431853890419,0.07419148832559586,-0.21334461867809296,0.13830099999904633,-0.36863887310028076,-0.0997798815369606,-0.3990134000778198,0.7198466062545776,-0.589890718460083,0.577875018119812,0.029687710106372833,-0.2227967381477356
1749047141.5507536,0.4050959646701813,-2.1321665249266566,1.1003521124469202,3.1300317484089355,3.189011335372925,-1.2462886015521448,-0.13805319368839264,0.07396957278251648,-0.21567024290561676,0.13721926510334015,-0.3699136972427368,-0.10370710492134094,-0.38393813371658325,0.747759997844696,-0.578560471534729,0.6124669313430786,0.022928103804588318,-0.19872784614562988
1749047141.5507922,0.40482035279273987,-2.132057329217428,1.0999286810504358,3.130303068751953,3.188255548477173,-1.2465298811541956,-0.1356378048658371,0.07416398823261261,-0.21705986559391022,0.13699758052825928,-0.3674383759498596,-0.10188024491071701,-0.42446306347846985,0.7444830536842346,-0.5764457583427429,0.6130574941635132,-0.0029792040586471558,-0.21098940074443817
1749047141.5508296,0.40453022718429565,-2.1318661175169886,1.0995052496539515,3.13060109197583,3.187520980834961,-1.2466986815081995,-0.13700652122497559,0.07396642863750458,-0.2179262340068817,0.13519856333732605,-0.3691426217556,-0.10220076888799667,-0.4044830799102783,0.7417664527893066,-0.561550498008728,0.6276940703392029,0.009204559028148651,-0.2377946674823761
1749047141.5508676,0.4042701721191406,-2.131742139855856,1.0990741888629358,3.130850000972412,3.186807632446289,-1.2469208876239222,-0.13678227365016937,0.07361386716365814,-0.2174908071756363,0.1374484747648239,-0.37146472930908203,-0.10507205873727798,-0.4202069938182831,0.7574840784072876,-0.5881949067115784,0.6290965676307678,0.019209936261177063,-0.20877595245838165
1749047141.5509057,0.4039626717567444,-2.131590028802389,1.098612133656637,3.131143732661865,3.1860642433166504,-1.247129265462057,-0.1385040581226349,0.07358735799789429,-0.2199898660182953,0.1371280550956726,-0.3691992461681366,-0.10629184544086456,-0.419961154460907,0.7555434107780457,-0.5919265747070312,0.6574945449829102,0.01704265922307968,-0.20457305014133453
1749047141.5509431,0.40373873710632324,-2.131442209283346,1.0982087294207972,3.1313997942158203,3.185295820236206,-1.2473481337176722,-0.13960981369018555,0.07381558418273926,-0.221573144197464,0.14137519896030426,-0.3681189715862274,-0.10721199214458466,-0.40871182084083557,0.7604725956916809,-0.5617713332176208,0.6589531898498535,0.0012387484312057495,-0.19706791639328003
1749047141.550984,0.4034401774406433,-2.131286760369772,1.0977566877948206,3.1317097383686523,3.1845438480377197,-1.2475855986224573,-0.14102330803871155,0.07339856773614883,-0.22132058441638947,0.14255939424037933,-0.370993047952652,-0.10761543363332748,-0.42731747031211853,0.8095706701278687,-0.5760951042175293,0.6425526738166809,-0.02837418019771576,-0.20989087224006653
1749047141.551022,0.4031209349632263,-2.131130357781881,1.097290341054098,3.1320087152668457,3.1837728023529053,-1.247800652180807,-0.1395854353904724,0.07424087077379227,-0.22254788875579834,0.14182551205158234,-0.37439703941345215,-0.10738098621368408,-0.40545693039894104,0.7804457545280457,-0.5665410757064819,0.6679012179374695,-0.0003924816846847534,-0.19642215967178345
1749047141.5510595,0.4028836786746979,-2.131001134912008,1.096842114125387,3.13227288305249,3.1829819679260254,-1.247969929371969,-0.14165666699409485,0.07600666582584381,-0.2221737802028656,0.14821116626262665,-0.3776565492153168,-0.10572703182697296,-0.3739055395126343,0.753345251083374,-0.5883418321609497,0.6461113095283508,0.011869717389345169,-0.2181919515132904
1749047141.551168,0.40258798003196716,-2.130911966363424,1.0964062849627894,3.132606192226074,3.1822147369384766,-1.248169247304098,-0.1411425769329071,0.07368449121713638,-0.2227317839860916,0.14811857044696808,-0.3772110641002655,-0.10436064749956131,-0.4297170042991638,0.8331460952758789,-0.5893056392669678,0.6361759901046753,0.001252785325050354,-0.23808583617210388
