nimar13/UR3e_dataset_trayectorias/trayectorias_ejecutadas/trapezoidal/trayectoria_232_result.csv
timestamp,q1,q2,q3,q4,q5,q6,qd1,qd2,qd3,qd4,qd5,qd6,tau1,tau2,tau3,tau4,tau5,tau6
1749052816.3223035,-4.392041508351461,0.08822815000500484,-0.6881787776947021,3.626565619105957,-3.14311129251589,5.6106367111206055,0.004038924816995859,-0.003148510819301009,-4.126967567685824e-08,-0.0040297373197972775,0.0033296681940555573,-0.00035579479299485683,-0.06002328544855118,-1.6210756301879883,-0.8510019183158875,0.07100144773721695,-0.011195160448551178,-0.013189271092414856
1749052816.3223493,-4.39202601114382,0.08823160707440181,-0.6881752610206604,3.626542254085205,-3.1431148687945765,5.61060905456543,0.004771297797560692,-0.002634401898831129,-2.69461475355115e-09,-0.003634374588727951,0.0035480824299156666,-0.000998192117549479,-0.05120764672756195,-1.6456263065338135,-0.8210100531578064,0.06887307018041611,-0.0013785064220428467,-0.0043619126081466675
1749052816.3223903,-4.392008964215414,0.08825735628094478,-0.6881906986236572,3.626549406642578,-3.1431060473071497,5.610652446746826,0.0055398037657141685,-0.0021507905330508947,-1.759390827471563e-10,-0.002773539861664176,0.0029691127128899097,-0.0022442294284701347,-0.047799721360206604,-1.6886088848114014,-0.8377141952514648,0.06186582148075104,0.008819416165351868,-0.01029636338353157
1749052816.3224292,-4.392028752957479,0.08824698507275386,-0.6881717443466187,3.626565619105957,-3.143130366002218,5.61062479019165,0.005807857494801283,-0.0020214945543557405,-1.1487564371970294e-11,-0.0023001302033662796,0.0025310509372502565,-0.0035083338152617216,-0.07212797552347183,-1.676721453666687,-0.8143358826637268,0.0501452311873436,0.037214070558547974,-0.0025734417140483856
1749052816.3224676,-4.391997043286459,0.08824698507275386,-0.6881752610206604,3.6265694338032226,-3.143097702656881,5.610586643218994,0.005692487116903067,-0.0022833452094346285,-7.500558876251395e-13,-0.0019802136812359095,0.0021177977323532104,-0.0039770095609128475,-0.07578210532665253,-1.674255132675171,-0.816886842250824,0.043897099792957306,0.030856017023324966,-0.0021857619285583496
1749052816.3225055,-4.391965929661886,0.08821622907604976,-0.6881753206253052,3.6265694338032226,-3.143095080052511,5.61060905456543,0.0057128421030938625,-0.003082629991695285,0.0010189313907176256,-0.001780056394636631,0.0023820498026907444,-0.004240932874381542,-0.06550148129463196,-1.664161205291748,-0.816273033618927,0.05487484484910965,0.042734891176223755,-0.013649500906467438
1749052816.3225431,-4.391933862362997,0.08823852121319575,-0.6881822347640991,3.6265532213398437,-3.143083159123556,5.610597133636475,0.0061424351297318935,-0.0032252827659249306,0.0012091625249013305,-0.0020833357702940702,0.0028763781301677227,-0.004292096011340618,-0.07719889283180237,-1.684981107711792,-0.81890469789505,0.05638556927442551,0.030230611562728882,-0.008644402027130127
1749052816.3225808,-4.391926590596334,0.08823363363232417,-0.6881822347640991,3.626525564784668,-3.1430559794055384,5.610572814941406,0.006217576563358307,-0.002252185484394431,0.0008597337873652577,-0.003034702967852354,0.0034989542327821255,-0.0035609579645097256,-0.09128595888614655,-1.696976900100708,-0.8221043944358826,0.06316053122282028,0.02036813274025917,-0.02793341875076294
1749052816.322619,-4.391926590596334,0.08823363363232417,-0.6881822347640991,3.626525564784668,-3.1430559794055384,5.610572814941406,0.006217576563358307,-0.002252185484394431,0.0008597337873652577,-0.003034702967852354,0.0034989542327821255,-0.0035609579645097256,-0.09128595888614655,-1.696976900100708,-0.8221043944358826,0.06316053122282028,0.02036813274025917,-0.02793341875076294
1749052816.322658,-4.391890231763021,0.0881923872181396,-0.6881787776947021,3.6265293794819335,-3.1430822054492396,5.610611915588379,0.005346238613128662,-0.0018931300146505237,0.0007414378924295306,-0.002802362898364663,0.0031143350061029196,-0.003336189780384302,-0.06583929061889648,-1.6984524726867676,-0.8281837701797485,0.05201966315507889,0.024652741849422455,-0.01403365284204483
1749052816.322697,-4.391941253338949,0.08816794931378169,-0.6881633996963501,3.626525564784668,-3.1430941263781946,5.610560894012451,0.004504735581576824,-0.0015151483239606023,0.0006517259171232581,-0.002356973709538579,0.0026372165884822607,-0.0030737905763089657,-0.06076084449887276,-1.7220032215118408,-0.8120641112327576,0.045266829431056976,0.03403226286172867,-0.04408237338066101
1749052816.3227396,-4.391878430043356,0.08819584428753657,-0.6881479620933533,3.6264983850666503,-3.1430512110339563,5.6105732917785645,0.00403572479262948,-0.0010592389153316617,0.0005814109463244677,-0.00178189342841506,0.00228670216165483,-0.0026506914291530848,-0.045581746846437454,-1.6981862783432007,-0.8192275762557983,0.04477941244840622,0.038288459181785583,-0.05993729829788208
1749052816.32278,-4.391905848179952,0.0882146793552856,-0.6881668567657471,3.6265413004108886,-3.143054787312643,5.610564708709717,0.0034114776644855738,-0.0008413834730163217,0.0005248155212029815,-0.001504626008681953,0.0020555683877319098,-0.0023778348695486784,-0.07203467190265656,-1.6936469078063965,-0.8310145139694214,0.04934970289468765,0.026551514863967896,-0.04411804676055908
1749052816.322818,-4.391882006322042,0.08820633470501704,-0.6881633996963501,3.626513643855713,-3.1430512110339563,5.610545635223389,0.0029831586871296167,-0.0007344192126765847,0.000512169674038887,-0.001256001414731145,0.0017903539119288325,-0.0021307566203176975,-0.05364665016531944,-1.6909831762313843,-0.8070530295372009,0.061984024941921234,0.028151467442512512,-0.048455849289894104
1749052816.3228567,-4.391882006322042,0.08820633470501704,-0.6881633996963501,3.626513643855713,-3.1430512110339563,5.610545635223389,0.0029831586871296167,-0.0007344192126765847,0.000512169674038887,-0.001256001414731145,0.0017903539119288325,-0.0021307566203176975,-0.05364665016531944,-1.6909831762313843,-0.8070530295372009,0.061984024941921234,0.028151467442512512,-0.048455849289894104
1749052816.3228946,-4.391873661671774,0.08823852121319575,-0.6881856918334961,3.626533194179199,-3.143042866383688,5.610583782196045,0.002203470328822732,-0.0006735235801897943,0.00044076601625420153,-0.0009053287794813514,0.0011475990759208798,-0.0024531774688512087,-0.06175575777888298,-1.673710823059082,-0.8033819794654846,0.038707830011844635,0.03218703716993332,-0.03258712217211723
1749052816.322932,-4.391873661671774,0.08823852121319575,-0.6881856918334961,3.626533194179199,-3.143042866383688,5.610583782196045,0.002203470328822732,-0.0006735235801897943,0.00044076601625420153,-0.0009053287794813514,0.0011475990759208798,-0.0024531774688512087,-0.06175575777888298,-1.673710823059082,-0.8033819794654846,0.038707830011844635,0.03218703716993332,-0.03258712217211723
1749052816.32297,-4.391854588185446,0.08821825563397212,-0.6881906986236572,3.6265174585529785,-3.14304763475527,5.610552787780762,0.0016521097859367728,-0.0006084561464376748,0.0004119283694308251,-0.0008336479659192264,0.000975961156655103,-0.0024853358045220375,-0.051113057881593704,-1.6765247583389282,-0.8175728917121887,0.05593521147966385,0.03952778875827789,-0.03937366232275963
1749052816.3230069,-4.391870085393087,0.08817307531323237,-0.688194215297699,3.6264945703693847,-3.143054787312643,5.61050271987915,0.0010830243118107319,-0.0002184557233704254,0.0003642692172434181,-0.0007495846948586404,0.0007761601591482759,-0.002262367168441415,-0.06964905560016632,-1.6725119352340698,-0.8066326379776001,0.05550926923751831,0.023835808038711548,-0.03939240798354149
1749052816.3230436,-4.391870085393087,0.08817307531323237,-0.688194215297699,3.6264945703693847,-3.143054787312643,5.61050271987915,0.0010830243118107319,-0.0002184557233704254,0.0003642692172434181,-0.0007495846948586404,0.0007761601591482759,-0.002262367168441415,-0.06964905560016632,-1.6725119352340698,-0.8066326379776001,0.05550926923751831,0.023835808038711548,-0.03939240798354149
1749052816.3230832,-4.391873661671774,0.08819584428753657,-0.6881787776947021,3.6265293794819335,-3.1430237928973597,5.610544681549072,0.0008057113736867905,-0.00016938855696935207,0.0003264974511694163,-0.0006080211605876684,0.0006041025626473129,-0.0018049980280920863,-0.05160411074757576,-1.6619195938110352,-0.8055711388587952,0.07518040388822556,0.029004067182540894,-0.029142867773771286
1749052816.3231206,-4.391873661671774,0.08819584428753657,-0.6881787776947021,3.6265293794819335,-3.1430237928973597,5.610544681549072,0.0008057113736867905,-0.00016938855696935207,0.0003264974511694163,-0.0006080211605876684,0.0006041025626473129,-0.0018049980280920863,-0.05160411074757576,-1.6619195938110352,-0.8055711388587952,0.07518040388822556,0.029004067182540894,-0.029142867773771286
1749052816.32337,-4.391890350972311,0.08822660028424067,-0.6881941556930542,3.6264826494404296,-3.1431012789355677,5.610540866851807,0.0007142981048673391,-0.00015481404261663556,0.00034880085149779916,-0.0005544206942431629,0.0006068988586775959,-0.0015209231059998274,-0.07657340168952942,-1.648177146911621,-0.8195492625236511,0.057181134819984436,0.030949845910072327,-0.028630074113607407
1749052816.3253922,-4.391909424458639,0.08820287763562007,-0.6881753206253052,3.6265293794819335,-3.1430512110339563,5.610540866851807,0.0005822156090289354,-0.00013208691962063313,0.0003228943678550422,-0.00037897322908975184,0.000526392599567771,-0.0010213039349764585,-0.052320871502161026,-1.6109803915023804,-0.8115429282188416,0.053246356546878815,0.019949451088905334,-0.042156461626291275
1749052816.3664954,-4.391909424458639,0.08820287763562007,-0.6881753206253052,3.6265293794819335,-3.1430512110339563,5.610540866851807,0.0005822156090289354,-0.00013208691962063313,0.0003228943678550422,-0.00037897322908975184,0.000526392599567771,-0.0010213039349764585,-0.052320871502161026,-1.6109803915023804,-0.8115429282188416,0.053246356546878815,0.019949451088905334,-0.042156461626291275
1749052816.366577,-4.391921345387594,0.0882146793552856,-0.6881822943687439,3.626533194179199,-3.1430583635913294,5.610509872436523,0.0004912692820653319,-7.59828180889599e-05,0.000296332233119756,-0.00024272067821584642,0.0004514533211477101,-0.0008691014954820275,-0.07693570852279663,-1.594658374786377,-0.8121328949928284,0.07217437773942947,0.031851619482040405,-0.026442747563123703
1749052816.3666503,-4.391921345387594,0.0882146793552856,-0.6881822943687439,3.626533194179199,-3.1430583635913294,5.610509872436523,0.0004912692820653319,-7.59828180889599e-05,0.000296332233119756,-0.00024272067821584642,0.0004514533211477101,-0.0008691014954820275,-0.07693570852279663,-1.594658374786377,-0.8121328949928284,0.07217437773942947,0.031851619482040405,-0.026442747563123703
1749052816.3667204,-4.39190119901766,0.08821825563397212,-0.6881668567657471,3.626533194179199,-3.1430822054492396,5.610532283782959,0.00045580993173643947,-5.430548480944708e-05,0.00028461613692343235,0.00020099335233680904,0.0004212306812405586,-0.0007879494805820286,-0.0962936133146286,-1.5956051349639893,-0.8156638741493225,0.06811657547950745,0.02084546536207199,-0.043479349464178085
1749052816.3667898,-4.39190119901766,0.08823363363232417,-0.6881633400917053,3.626513643855713,-3.1430440584765833,5.610537528991699,0.00012592975690495223,-1.5390531189041212e-05,0.0002637594297993928,1.6732265066821128e-05,0.0003714797494467348,-0.0007127942517399788,-0.0784243792295456,-1.5839567184448242,-0.8251001238822937,0.06146588921546936,0.018499739468097687,-0.028654035180807114
1749052816.366859,-4.39190119901766,0.08823363363232417,-0.6881633400917053,3.626513643855713,-3.1430440584765833,5.610537528991699,0.00012592975690495223,-1.5390531189041212e-05,0.0002637594297993928,1.6732265066821128e-05,0.0003714797494467348,-0.0007127942517399788,-0.0784243792295456,-1.5839567184448242,-0.8251001238822937,0.06146588921546936,0.018499739468097687,-0.028654035180807114
1749052816.366929,-4.39187473455538,0.0882146793552856,-0.6881479620933533,3.6265174585529785,-3.1430702845202845,5.610539436340332,0.0001168977833003737,-1.5015935161954985e-07,0.0002544372982811183,2.956766820716439e-06,0.00035077420761808753,-0.0006562403286807239,-0.08423355221748352,-1.5671056509017944,-0.8211426138877869,0.07141876965761185,0.029945984482765198,-0.02916545793414116
1749052816.366998,-4.391873661671774,0.0882146793552856,-0.6881668567657471,3.626525564784668,-3.1430583635913294,5.61054801940918,0.00010976023622788489,-1.465045862403258e-09,0.0002457517257425934,5.224916890256281e-07,0.0003322400152683258,-0.0006026849732734263,-0.10053609311580658,-1.5502545833587646,-0.8272250294685364,0.09039028733968735,0.03893445432186127,-0.02996499463915825
1749052816.3670673,-4.391873661671774,0.0882146793552856,-0.6881668567657471,3.626525564784668,-3.1430583635913294,5.61054801940918,0.00010976023622788489,-1.465045862403258e-09,0.0002457517257425934,5.224916890256281e-07,0.0003322400152683258,-0.0006026849732734263,-0.10053609311580658,-1.5502545833587646,-0.8272250294685364,0.09039028733968735,0.03893445432186127,-0.02996499463915825
1749052816.367138,-4.391831819211141,0.0881764131733398,-0.6881787776947021,3.626521273250244,-3.143027369176046,5.610501766204834,0.00010343590111006051,-1.429387597867704e-11,0.00023763951321598142,9.23297704957804e-08,0.0003155921003781259,-0.0005562666337937117,-0.08415782451629639,-1.560142993927002,-0.8152868747711182,0.06702820956707001,0.03979521244764328,-0.055014219135046005
1749052816.3672068,-4.391866509114401,0.0882231432148437,-0.6881787776947021,3.6265174585529785,-3.1430631319629114,5.6105475425720215,4.6407902118517086e-05,-1.3606537153159292e-15,0.00022292262292467058,2.883144389898007e-09,0.00028682302217930555,-0.0004173417401034385,-0.09604758024215698,-1.5487903356552124,-0.8358644843101501,0.08961688727140427,0.01375725120306015,-0.031136613339185715
1749052816.367278,-4.391862813626425,0.08822660028424067,-0.6881479620933533,3.6265103059956054,-3.1430357138263147,5.610525608062744,1.4217305306374328e-06,-1.3275363748220662e-17,0.00021622722852043808,5.094818456008454e-10,0.00027433346258476377,-0.00036615185672417283,-0.10443049669265747,-1.5459749698638916,-0.8340578675270081,0.08039522916078568,0.018325909972190857,-0.027195435017347336
1749052816.3673468,-4.391873780881063,0.08820776521649165,-0.6881822347640991,3.626533194179199,-3.143054787312643,5.61054801940918,1.3533647813535055e-10,-1.2637001392273127e-21,0.00020397501066327095,1.5909386655299507e-11,0.00025234429631382227,-0.00031185729312710464,-0.11938722431659698,-1.5120224952697754,-0.8296841979026794,0.09147462993860245,0.017869874835014343,-0.042154666036367416
1749052816.3674166,-4.391873780881063,0.08820776521649165,-0.6881822347640991,3.626533194179199,-3.143054787312643,5.61054801940918,1.3533647813535055e-10,-1.2637001392273127e-21,0.00020397501066327095,1.5909386655299507e-11,0.00025234429631382227,-0.00031185729312710464,-0.11938722431659698,-1.5120224952697754,-0.8296841979026794,0.09147462993860245,0.017869874835014343,-0.042154666036367416
1749052816.3674793,-4.39187473455538,0.0881923872181396,-0.6881668567657471,3.626533194179199,-3.143042866383688,5.610513687133789,1.2882867143134292e-14,-1.2029335013334551e-25,0.0001930364960571751,4.967959637419694e-13,0.0002608697395771742,-0.0002737443137448281,-0.10197439789772034,-1.48021399974823,-0.8217923045158386,0.09603973478078842,0.021702468395233154,-0.02706899121403694
1749052816.3675191,-4.39187473455538,0.0881923872181396,-0.6881668567657471,3.626533194179199,-3.143042866383688,5.610513687133789,1.2882867143134292e-14,-1.2029335013334551e-25,0.0001930364960571751,4.967959637419694e-13,0.0002608697395771742,-0.0002737443137448281,-0.10197439789772034,-1.48021399974823,-0.8217923045158386,0.09603973478078842,0.021702468395233154,-0.02706899121403694
1749052816.367557,-4.39184004465212,0.08821825563397212,-0.6881822347640991,3.626513643855713,-3.1430512110339563,5.610513687133789,1.2569305869274795e-16,-1.1736550636512734e-27,0.00018799593090079725,8.778905608106818e-14,0.0002563535235822201,-0.00025802431628108025,-0.10264119505882263,-1.488492488861084,-0.8490980863571167,0.11220204085111618,0.034646328538656235,-0.021945010870695114
1749052816.3675942,-4.391893927250997,0.08823506414379878,-0.6881822347640991,3.626513643855713,-3.143020216618673,5.6105170249938965,1.1964895334147484e-20,0.0006543249473907053,0.0001786653301678598,2.741353947636289e-15,0.00024022140132728964,-0.00023145254817791283,-0.09761235117912292,-1.468024730682373,-0.8498522639274597,0.11087366193532944,0.06189457327127457,-0.021670300513505936
1749052816.3676312,-4.391893927250997,0.08823506414379878,-0.6881822347640991,3.626513643855713,-3.143020216618673,5.6105170249938965,1.1964895334147484e-20,0.0006543249473907053,0.0001786653301678598,2.741353947636289e-15,0.00024022140132728964,-0.00023145254817791283,-0.09761235117912292,-1.468024730682373,-0.8498522639274597,0.11087366193532944,0.06189457327127457,-0.021670300513505936
1749052816.3677468,-4.391924921666281,0.08824889242138667,-0.6881357431411743,3.626513643855713,-3.1430464426623743,5.61054801940918,1.1389547125525417e-24,0.0006153381546027958,0.00017021711391862482,8.560315473532442e-17,0.00018381341942586005,-0.00020984340517316014,-0.06681916117668152,-1.450340747833252,-0.8477175235748291,0.12595012784004211,0.0665125772356987,-0.012238215655088425
1749052816.3678155,-4.391924921666281,0.08824889242138667,-0.6881357431411743,3.626513643855713,-3.1430464426623743,5.61054801940918,1.1389547125525417e-24,0.0006153381546027958,0.00017021711391862482,8.560315473532442e-17,0.00018381341942586005,-0.00020984340517316014,-0.06681916117668152,-1.450340747833252,-0.8477175235748291,0.12595012784004211,0.0665125772356987,-0.012238215655088425
1749052816.4102905,-4.391909424458639,0.08817295610394282,-0.688151478767395,3.6265293794819335,-3.143054787312643,5.610551357269287,1.1112333052598515e-26,0.0006418062839657068,0.0001482320949435234,0.00023765536025166512,0.00020482153922785074,-0.00020049051090609282,-0.0622316338121891,-1.4439030885696411,-0.8644748330116272,0.12116465717554092,0.07117696106433868,-0.0027873776853084564
1749052816.410336,-4.391893927250997,0.0882231432148437,-0.6881668567657471,3.6265451151081542,-3.143020216618673,5.610505104064941,1.0577983080846242e-30,0.0009261013474315405,0.0001390873803757131,0.000804855371825397,0.0029834590386599302,-0.00018407500465400517,-0.04752431437373161,-1.4316706657409668,-0.8691715002059937,0.14600461721420288,0.06809017062187195,-0.008053008466959
1749052816.4103768,-4.391893927250997,0.0882231432148437,-0.6881668567657471,3.6265451151081542,-3.143020216618673,5.610505104064941,1.0577983080846242e-30,0.0009261013474315405,0.0001390873803757131,0.000804855371825397,0.0029834590386599302,-0.00018407500465400517,-0.04752431437373161,-1.4316706657409668,-0.8691715002059937,0.14600461721420288,0.06809017062187195,-0.008053008466959
1749052816.410416,-4.391913119946615,0.08821968614544673,-0.6881787776947021,3.6265451151081542,-3.143038336430685,5.610520362854004,1.0069327083060688e-34,0.0008263546042144299,0.00013319493154995143,0.0024605037178844213,0.005634098779410124,-0.00017015002958942205,-0.017380226403474808,-1.4649765491485596,-0.8748816847801208,0.14489933848381042,0.09111906588077545,-0.009089846163988113
1749052816.4104538,-4.391913119946615,0.08821968614544673,-0.6881787776947021,3.6265451151081542,-3.143038336430685,5.610520362854004,1.0069327083060688e-34,0.0008263546042144299,0.00013319493154995143,0.0024605037178844213,0.005634098779410124,-0.00017015002958942205,-0.017380226403474808,-1.4649765491485596,-0.8748816847801208,0.14489933848381042,0.09111906588077545,-0.009089846163988113
1749052816.4104927,-4.391921345387594,0.08823506414379878,-0.6881598830223083,3.626537485713623,-3.1429863611804407,5.610513210296631,0.0002450386236887425,0.0009103102493099868,0.00013043706712778658,0.0029790608678013086,0.007838340476155281,-0.00016394699923694134,-0.020327437669038773,-1.4695689678192139,-0.8827245831489563,0.15098395943641663,0.12154257297515869,-0.007120378315448761
1749052816.4105308,-4.391870085393087,0.08822660028424067,-0.688197672367096,3.626549406642578,-3.142958943043844,5.610510349273682,0.0012188464170321822,0.0006494143162854016,6.062180909793824e-05,0.0029716268181800842,0.011802390217781067,-0.00015280887600965798,-0.0034843124449253082,-1.4692540168762207,-0.9076400399208069,0.16004317998886108,0.14525029063224792,0.0035118795931339264
1749052816.4105692,-4.391870085393087,0.08822660028424067,-0.688197672367096,3.626549406642578,-3.142958943043844,5.610510349273682,0.0012188464170321822,0.0006494143162854016,6.062180909793824e-05,0.0029716268181800842,0.011802390217781067,-0.00015280887600965798,-0.0034843124449253082,-1.4692540168762207,-0.9076400399208069,0.16004317998886108,0.14525029063224792,0.0035118795931339264
1749052816.4106073,-4.3919047752963465,0.08823506414379878,-0.6881633996963501,3.6265618044086914,-3.142966095601217,5.6105170249938965,0.0018447482725605369,0.0004578514490276575,3.876888513332233e-05,0.0032590851187705994,0.014325644820928574,-0.0001477866608183831,-0.0032863877713680267,-1.502561092376709,-0.9086622595787048,0.16909483075141907,0.13804972171783447,0.0021966584026813507
1749052816.4106483,-4.391890350972311,0.0882231432148437,-0.6881787776947021,3.626558466548584,-3.142947022114889,5.610509872436523,0.0022263110149651766,0.00040313409408554435,3.663639654405415e-05,0.004364064894616604,0.016418887302279472,-0.0001430873671779409,-0.0003621913492679596,-1.5315985679626465,-0.9023047089576721,0.15483063459396362,0.1642041802406311,0.018469590693712234
1749052816.4106872,-4.391870085393087,0.08823852121319575,-0.6881787776947021,3.626577063197754,-3.1428683439837855,5.610532283782959,0.0022581371013075113,0.00036248762626200914,2.2534462914336473e-05,0.004537425935268402,0.01982531137764454,-0.00013867681263945997,-0.005962926894426346,-1.5603115558624268,-0.9138398766517639,0.1629394292831421,0.1497248113155365,0.01125245913863182
1749052816.4107244,-4.3918508926974695,0.08823506414379878,-0.6881633400917053,3.626608057613037,-3.1428445021258753,5.6105170249938965,0.0026013620663434267,0.0002478677488397807,1.7859487343230285e-05,0.004117327742278576,0.02190280146896839,-0.00013452819257508963,0.013146881014108658,-1.5871859788894653,-0.9133990406990051,0.18580594658851624,0.1388089805841446,0.004690978676080704
1749052816.4107609,-4.391866509114401,0.0882008510776977,-0.6881976127624512,3.6265856462666015,-3.1427889505969446,5.610509872436523,0.002775270724669099,-0.0003118098829872906,4.4627199713431764e-06,0.004187348764389753,0.023435363546013832,-0.0001306231424678117,0.028480160981416702,-1.6253796815872192,-0.9308887124061584,0.1914600431919098,0.13197198510169983,0.011253826320171356
1749052816.4107985,-4.391854588185446,0.08821968614544673,-0.6881787776947021,3.626617117519043,-3.1427605787860315,5.6104912757873535,0.003002497600391507,-0.0004900008789263666,2.9138371360204474e-07,0.0049993302673101425,0.022838100790977478,-0.00012693775352090597,0.041132863610982895,-1.6165213584899902,-0.9165474772453308,0.1852668821811676,0.1275981068611145,0.023715931922197342
1749052816.4108365,-4.391849819813864,0.0882231432148437,-0.6881941556930542,3.626633329982422,-3.1426730791675013,5.610540866851807,0.0048855082131922245,-0.0012091705575585365,1.242214442420675e-09,0.0072545250877738,0.021609429270029068,-0.00012015724496450275,0.01567840203642845,-1.6361143589019775,-0.9439919590950012,0.18261829018592834,0.15692411363124847,0.03526231274008751
1749052816.4108744,-4.391849819813864,0.0882231432148437,-0.6881941556930542,3.626633329982422,-3.1426730791675013,5.610540866851807,0.0048855082131922245,-0.0012091705575585365,1.242214442420675e-09,0.0072545250877738,0.021609429270029068,-0.00012015724496450275,0.01567840203642845,-1.6361143589019775,-0.9439919590950012,0.18261829018592834,0.15692411363124847,0.03526231274008751
1749052816.410912,-4.391869131718771,0.08822660028424067,-0.6882010698318481,3.6266648012348632,-3.1426246801959437,5.610490798950195,0.004940746817737818,-0.0010800649179145694,8.110771776426162e-11,0.0076996935531497,0.021181168034672737,-0.00011703169730026275,0.018795307725667953,-1.659873366355896,-0.942915141582489,0.16958090662956238,0.16438087821006775,0.01649729534983635
1749052816.4109495,-4.391827050839559,0.0882008510776977,-0.6881941556930542,3.62667624532666,-3.1425614992724817,5.610505104064941,0.004617439117282629,-0.00104815314989537,5.29575385280201e-12,0.00856733787804842,0.0212947316467762,-0.00010096402547787875,0.03723323717713356,-1.6993095874786377,-0.9526450037956238,0.17570877075195312,0.1686866730451584,0.01625187322497368
1749052816.410987,-4.39178711572756,0.08822660028424067,-0.6881822347640991,3.626691980952881,-3.142528835927145,5.61054801940918,0.0050670308992266655,-0.0010658561950549483,-0.00030823246925137937,0.008961988613009453,0.022618424147367477,-9.071174281416461e-05,0.04104800522327423,-1.701609492301941,-0.9696378111839294,0.1713431477546692,0.16298598051071167,0.026063591241836548
1749052816.4110243,-4.391794506703512,0.08823852121319575,-0.688194215297699,3.626720591182373,-3.142467800770895,5.610537528991699,0.006038235034793615,-0.002512159990146756,-0.0011897607473656535,0.00839978363364935,0.022970112040638924,-8.485522266710177e-05,0.03868813067674637,-1.7330979108810425,-0.9617704749107361,0.17539845407009125,0.1774698793888092,0.010076876729726791
1749052816.4110613,-4.391794506703512,0.08823852121319575,-0.688194215297699,3.626720591182373,-3.142467800770895,5.610537528991699,0.006038235034793615,-0.002512159990146756,-0.0011897607473656535,0.00839978363364935,0.022970112040638924,-8.485522266710177e-05,0.03868813067674637,-1.7330979108810425,-0.9617704749107361,0.17539845407009125,0.1774698793888092,0.010076876729726791
1749052816.411386,-4.391806427632467,0.0882146793552856,-0.6881871819496155,3.626732512111328,-3.1424201170550745,5.6105170249938965,0.006804073695093393,-0.0028811078518629074,-0.001102315611205995,0.00814602430909872,0.023056969046592712,-8.285949297714978e-05,0.08394815027713776,-1.7549567222595215,-0.950699508190155,0.19497710466384888,0.19954723119735718,0.025837112218141556
1749052816.4136071,-4.391829196606771,0.08819584428753657,-0.6881941556930542,3.6267525392719726,-3.1423962751971644,5.610509872436523,0.007508610840886831,-0.002865644171833992,-0.001261869096197188,0.00888590607792139,0.02305508591234684,-8.098763646557927e-05,0.05680951103568077,-1.770235300064087,-0.9674519896507263,0.19588154554367065,0.20808354020118713,0.015987735241651535
1749052816.458296,-4.3917861620532435,0.08819584428753657,-0.6881871819496155,3.6267644602009277,-3.142360035573141,5.610540866851807,0.007088270504027605,-0.003135015955194831,-0.0012476691044867039,0.009291955269873142,0.02582664228975773,-7.920359348645434e-05,0.05580584704875946,-1.785901427268982,-0.9734356999397278,0.19232472777366638,0.22597338259220123,0.020070254802703857
1749052816.4583416,-4.39176589647402,0.08819036066021724,-0.6882028579711914,3.626795931453369,-3.1422932783709925,5.610525131225586,0.007373101077973843,-0.004307494033128023,-0.001219893922097981,0.009576451033353806,0.02689317613840103,-7.749856013106182e-05,0.08531298488378525,-1.8052645921707153,-0.9740820527076721,0.18944063782691956,0.23613129556179047,0.007431261241436005
1749052816.4583874,-4.391730610524313,0.08816794931378169,-0.6881718039512634,3.626807852382324,-3.1421948114978235,5.610540866851807,0.008228246122598648,-0.005976659711450338,-0.0013099430361762643,0.009935714304447174,0.02963276207447052,-7.586528226966038e-05,0.0750078335404396,-1.7933176755905151,-0.9814369082450867,0.1867445707321167,0.2455994188785553,0.027255037799477577
1749052816.4584272,-4.391738001500265,0.08820287763562007,-0.6881941556930542,3.6268316942402343,-3.142165724431173,5.610559463500977,0.008384475484490395,-0.006829261314123869,-0.0014071727637201548,0.010541809722781181,0.03154101222753525,-7.429871038766578e-05,0.07049458473920822,-1.8040406703948975,-0.9890026450157166,0.18964892625808716,0.2677916884422302,0.027913160622119904
1749052816.4584653,-4.39172870317568,0.08814422666516109,-0.6881871819496155,3.626875563258789,-3.1420229117022913,5.610540866851807,0.008742587640881538,-0.00799089577049017,-0.0017996259266510606,0.010949376039206982,0.03891141712665558,-7.13536937837489e-05,0.07589057087898254,-1.8349308967590332,-0.9934362769126892,0.18891529738903046,0.26607969403266907,0.04549616202712059
1749052816.458508,-4.39172870317568,0.08814422666516109,-0.6881871819496155,3.626875563258789,-3.1420229117022913,5.610540866851807,0.008742587640881538,-0.00799089577049017,-0.0017996259266510606,0.010949376039206982,0.03891141712665558,-7.13536937837489e-05,0.07589057087898254,-1.8349308967590332,-0.9934362769126892,0.18891529738903046,0.26607969403266907,0.04549616202712059
1749052816.4585469,-4.391686741505758,0.08814768373455806,-0.6882182359695435,3.626887484187744,-3.1419664064990442,5.610497951507568,0.00928906723856926,-0.009218157269060612,-0.001972727943211794,0.011705398559570312,0.04127607122063637,-6.996625597821549e-05,0.077054962515831,-1.8427850008010864,-0.9838635325431824,0.16346772015094757,0.25805023312568665,0.012563731521368027
1749052816.4585843,-4.3916664759265345,0.08811192094769282,-0.6881906986236572,3.6269699770161132,-3.141770903264181,5.61054801940918,0.009291336871683598,-0.009711730293929577,-0.0017089297762140632,0.011127938516438007,0.04670736566185951,-6.734869384672493e-05,0.09556210041046143,-1.8722081184387207,-0.9926645159721375,0.19719207286834717,0.2867400348186493,0.04064524546265602
1749052816.458622,-4.3916664759265345,0.08811192094769282,-0.6881906986236572,3.6269699770161132,-3.141770903264181,5.61054801940918,0.009291336871683598,-0.009711730293929577,-0.0017089297762140632,0.011127938516438007,0.04670736566185951,-6.734869384672493e-05,0.09556210041046143,-1.8722081184387207,-0.9926645159721375,0.19719207286834717,0.2867400348186493,0.04064524546265602
1749052816.4586594,-4.391622845326559,0.08809451639141841,-0.6882182359695435,3.6269938188740234,-3.141675058995382,5.610525608062744,0.009785373695194721,-0.009590276516973972,-0.001647626399062574,0.011062114499509335,0.04972793161869049,-6.611128628719598e-05,0.09528393298387527,-1.897871732711792,-0.9920176863670349,0.17234310507774353,0.27530938386917114,0.01989847794175148
1749052816.4586964,-4.391614739094869,0.08809105932202144,-0.6882028579711914,3.627013846034668,-3.141564671193258,5.6105170249938965,0.009946327656507492,-0.010788621380925179,-0.0015411643544211984,0.010427460074424744,0.05145882070064545,-6.491938984254375e-05,0.11375144124031067,-1.8849413394927979,-0.996755063533783,0.17313708364963531,0.2862227261066437,0.026053939014673233
1749052816.4587338,-4.3916218916522425,0.0880552965351562,-0.6881994009017944,3.627037687892578,-3.1414836088763636,5.610482215881348,0.0101350462064147,-0.010469261556863785,-0.0014534259680658579,0.010901601985096931,0.053815897554159164,-6.376937380991876e-05,0.09544912725687027,-1.866578459739685,-1.0245070457458496,0.17974941432476044,0.2791282534599304,0.0453726202249527
1749052816.4587703,-4.3915478626834314,0.08803491174664302,-0.6882113218307495,3.627058191890381,-3.1412797609912317,5.610528945922852,0.011925882659852505,-0.010159364901483059,-0.0019176658242940903,0.009650862775743008,0.05914789065718651,-6.15872850175947e-05,0.09342692047357559,-1.8931199312210083,-1.0211398601531982,0.16367098689079285,0.3008764982223511,0.024894220754504204
1749052816.4588072,-4.3915478626834314,0.08803491174664302,-0.6882113218307495,3.627058191890381,-3.1412797609912317,5.610528945922852,0.011925882659852505,-0.010159364901483059,-0.0019176658242940903,0.009650862775743008,0.05914789065718651,-6.15872850175947e-05,0.09342692047357559,-1.8931199312210083,-1.0211398601531982,0.16367098689079285,0.3008764982223511,0.024894220754504204
1749052816.4588435,-4.391558710728781,0.08798818170513911,-0.6882147789001465,3.6270853716083984,-3.1411564985858362,5.610540866851807,0.010580707341432571,-0.009534886106848717,-0.0020158744882792234,0.010776101611554623,0.06159568205475807,-6.055139238014817e-05,0.10619300603866577,-1.9057915210723877,-1.0198571681976318,0.16364920139312744,0.29627954959869385,0.03526568412780762
1749052816.4588804,-4.391499106084005,0.08794061719860835,-0.6882113218307495,3.6271330553242187,-3.1409412066089075,5.610508441925049,0.011208768002688885,-0.01074264571070671,-0.0037863312754780054,0.009509229101240635,0.06565231829881668,-5.858057556906715e-05,0.06905855238437653,-1.89951491355896,-0.9979067444801331,0.1502748429775238,0.2844609022140503,0.05311628431081772
1749052816.4589171,-4.391499106084005,0.08794061719860835,-0.6882113218307495,3.6271330553242187,-3.1409412066089075,5.610508441925049,0.011208768002688885,-0.01074264571070671,-0.0037863312754780054,0.009509229101240635,0.06565231829881668,-5.858057556906715e-05,0.06905855238437653,-1.89951491355896,-0.9979067444801331,0.1502748429775238,0.2844609022140503,0.05311628431081772
1749052816.4589536,-4.391499106084005,0.08795444547619624,-0.6882507801055908,3.62712208806958,-3.1408005396472376,5.610520362854004,0.011150001548230648,-0.009980568662285805,-0.004163934849202633,0.008449394255876541,0.06597955524921417,-5.764258457929827e-05,0.11399361491203308,-1.9040052890777588,-0.9974965453147888,0.17482596635818481,0.30571499466896057,0.0565294474363327
1749052816.4589903,-4.3914435545550745,0.08785812437023921,-0.6882507801055908,3.627144976253174,-3.140622917805807,5.610513687133789,0.010802797973155975,-0.009580319747328758,-0.004402772057801485,0.007585210260003805,0.06626703590154648,-5.673377381754108e-05,0.11827051639556885,-1.9136691093444824,-0.9848476052284241,0.200314462184906,0.32877835631370544,0.060612019151449203
1749052816.4590306,-4.391470138226644,0.08786861478771968,-0.6882592439651489,3.627134008998535,-3.140564266835348,5.610513210296631,0.010646604932844639,-0.010391035117208958,-0.004291478544473648,0.007497906219214201,0.0674157366156578,-5.585379767580889e-05,0.1121993288397789,-1.9139981269836426,-0.9905274510383606,0.186810702085495,0.3315400183200836,0.05272514373064041
1749052816.4590836,-4.391387764607565,0.08780650674786372,-0.688286542892456,3.627161665553711,-3.140266243611471,5.610525608062744,0.010834063403308392,-0.010643798857927322,-0.004590717144310474,0.009391162544488907,0.07037793844938278,-4.4362492189975455e-05,0.10295645892620087,-1.9283721446990967,-0.9879422783851624,0.20644894242286682,0.33562400937080383,0.043171435594558716
1749052816.4591243,-4.391387764607565,0.08780650674786372,-0.688286542892456,3.627161665553711,-3.140266243611471,5.610525608062744,0.010834063403308392,-0.010643798857927322,-0.004590717144310474,0.009391162544488907,0.07037793844938278,-4.4362492189975455e-05,0.10295645892620087,-1.9283721446990967,-0.9879422783851624,0.20644894242286682,0.33562400937080383,0.043171435594558716
1749052816.4594767,-4.391359631215231,0.08782736837353511,-0.6882987022399902,3.627201719875,-3.1401732603656214,5.610479354858398,0.010942854918539524,-0.011037084273993969,-0.004293394740670919,0.009431018494069576,0.07191804051399231,-4.068687485414557e-05,0.11638924479484558,-1.943835973739624,-0.9903315305709839,0.19187399744987488,0.347343385219574,0.061503030359745026
1749052816.4615562,-4.391323033963339,0.08780698358502192,-0.6883106231689453,3.6272403436848144,-3.1398664156543177,5.61054801940918,0.011103382334113121,-0.011126503348350525,-0.005442899186164141,0.010095259174704552,0.07445723563432693,-3.8894930185051635e-05,0.09598333388566971,-1.9306211471557617,-0.9724235534667969,0.17977431416511536,0.3391392230987549,0.04812880977988243
1749052816.502291,-4.391323033963339,0.08780698358502192,-0.6883106231689453,3.6272403436848144,-3.1398664156543177,5.61054801940918,0.011103382334113121,-0.011126503348350525,-0.005442899186164141,0.010095259174704552,0.07445723563432693,-3.8894930185051635e-05,0.09598333388566971,-1.9306211471557617,-0.9724235534667969,0.17977431416511536,0.3391392230987549,0.04812880977988243
1749052816.5023391,-4.391295496617452,0.08776776372875972,-0.6883190274238586,3.627312346095703,-3.1395049730883997,5.610540866851807,0.010921166278421879,-0.011198838241398335,-0.004806942772120237,0.010789512656629086,0.07633441686630249,-3.778705286094919e-05,0.10736484825611115,-1.9906136989593506,-0.9739785194396973,0.2141442596912384,0.3276972770690918,0.06286484748125076
1749052816.5023801,-4.391295496617452,0.08776776372875972,-0.6883190274238586,3.627312346095703,-3.1395049730883997,5.610540866851807,0.010921166278421879,-0.011198838241398335,-0.004806942772120237,0.010789512656629086,0.07633441686630249,-3.778705286094919e-05,0.10736484825611115,-1.9906136989593506,-0.9739785194396973,0.2141442596912384,0.3276972770690918,0.06286484748125076
1749052816.502427,-4.391228143368856,0.08773498117413325,-0.6883347034454346,3.62730519353833,-3.139352623616354,5.6105217933654785,0.010869687423110008,-0.012602654285728931,-0.0042319283820688725,0.011428095400333405,0.07698077708482742,-3.72648864868097e-05,0.1253432333469391,-1.959887981414795,-0.974785566329956,0.19490283727645874,0.3260435163974762,0.038398317992687225
1749052816.5024657,-4.391216222439901,0.08767692625012202,-0.6883500814437866,3.62732903539624,-3.1392162481891077,5.610532283782959,0.01132146641612053,-0.012481692247092724,-0.0035954511258751154,0.011744131334125996,0.08001338690519333,-3.6757541238330305e-05,0.11247137933969498,-1.9845044612884521,-0.9717106819152832,0.1857100874185562,0.2973611056804657,0.0501156784594059
1749052816.5025046,-4.39122707048525,0.08767346918072505,-0.6883587837219238,3.627368612880371,-3.1390567461596888,5.6105170249938965,0.010994005016982555,-0.012483160942792892,-0.0034105447120964527,0.012265875935554504,0.07963937520980835,-3.6263834772398695e-05,0.10425253212451935,-1.976487398147583,-0.9823716878890991,0.20006006956100464,0.2949460744857788,0.055771488696336746
1749052816.5025427,-4.39118725458254,0.08763365327801509,-0.6883587837219238,3.6274234491535644,-3.138916794453756,5.610544204711914,0.010567540302872658,-0.01237460132688284,-0.003609918523579836,0.012016909196972847,0.0761442556977272,-3.578301766538061e-05,0.11163866519927979,-2.000452995300293,-0.9950680732727051,0.18404318392276764,0.3164898157119751,0.07265570759773254
1749052816.5025814,-4.391203467045919,0.08764056741680903,-0.6883587837219238,3.6274043756672363,-3.138745133076803,5.610528945922852,0.011213880032300949,-0.011956624686717987,-0.0042649246752262115,0.011356688104569912,0.07595902681350708,-3.531512993504293e-05,0.11574520170688629,-2.0062687397003174,-0.9772994518280029,0.2222345620393753,0.3593548834323883,0.057865869253873825
1749052816.5026195,-4.39116341272463,0.08760838090863032,-0.6883707046508789,3.627443476314209,-3.1385775248156946,5.610528945922852,0.010307401418685913,-0.012937522493302822,-0.004467785824090242,0.012039347551763058,0.07751855254173279,-1.3221147128206212e-05,0.12421238422393799,-2.01753568649292,-0.9835548400878906,0.20196324586868286,0.36496788263320923,0.060342416167259216
1749052816.5026577,-4.391088787709371,0.08752934514965816,-0.6883828639984131,3.627499743098877,-3.1382625738727015,5.610520362854004,0.01035364344716072,-0.013142765499651432,-0.0036045319866389036,0.013515780679881573,0.08470775932073593,2.5076464226003736e-05,0.15370327234268188,-2.045588254928589,-0.9883651733398438,0.20888686180114746,0.3343440294265747,0.05879722535610199
1749052816.5027046,-4.391088787709371,0.08752934514965816,-0.6883828639984131,3.627499743098877,-3.1382625738727015,5.610520362854004,0.01035364344716072,-0.013142765499651432,-0.0036045319866389036,0.013515780679881573,0.08470775932073593,2.5076464226003736e-05,0.15370327234268188,-2.045588254928589,-0.9883651733398438,0.20888686180114746,0.3343440294265747,0.05879722535610199
1749052816.5027435,-4.3911312262164515,0.08755521356549067,-0.6883982419967651,3.6274959284016113,-3.138122860585348,5.610525131225586,0.01030446495860815,-0.012465301901102066,-0.003500147955492139,0.013411757536232471,0.08359993994235992,2.5734061637194827e-05,0.14554601907730103,-2.034003973007202,-0.9981327056884766,0.21062535047531128,0.3398776650428772,0.06989608705043793
1749052816.5027862,-4.391036454831259,0.08746985971417232,-0.6883913278579712,3.6275555330463867,-3.1378148237811487,5.61048698425293,0.010141297243535519,-0.013028396293520927,-0.004270873032510281,0.01323204580694437,0.08377434313297272,3.249643123126589e-05,0.15144455432891846,-2.0541000366210938,-0.986212432384491,0.19389040768146515,0.37512391805648804,0.0600690059363842
1749052816.5028265,-4.391036454831259,0.08746985971417232,-0.6883913278579712,3.6275555330463867,-3.1378148237811487,5.61048698425293,0.010141297243535519,-0.013028396293520927,-0.004270873032510281,0.01323204580694437,0.08377434313297272,3.249643123126589e-05,0.15144455432891846,-2.0541000366210938,-0.986212432384491,0.19389040768146515,0.37512391805648804,0.0600690059363842
1749052816.5028641,-4.391055647526876,0.08746425687756343,-0.6883913278579712,3.627598448390625,-3.1375814119922083,5.610544204711914,0.00965940859168768,-0.013275149278342724,-0.004154585301876068,0.01382035668939352,0.0859692320227623,3.637560803326778e-05,0.1659892201423645,-2.08077335357666,-0.9925568699836731,0.21644118428230286,0.36406099796295166,0.07858120650053024
1749052816.5029018,-4.391019884740011,0.08743707715954585,-0.6884447336196899,3.6276261049458007,-3.137456480656759,5.61054801940918,0.010482674464583397,-0.013248700648546219,-0.004429279360920191,0.014514031819999218,0.08812733739614487,3.664450196083635e-05,0.1823395937681198,-2.0897953510284424,-0.996449887752533,0.20887908339500427,0.366210013628006,0.07211551070213318
1749052816.502939,-4.391011063252584,0.08739630758251948,-0.6884186267852783,3.627654715175293,-3.1372061411487024,5.610525131225586,0.010479673743247986,-0.01464457530528307,-0.004688212648034096,0.014970289543271065,0.0915878489613533,3.628697959356941e-05,0.1753959208726883,-2.0994157791137695,-0.9895443320274353,0.2180788666009903,0.3458389639854431,0.06179329380393028
1749052816.5029762,-4.3909645716296595,0.08734123289074702,-0.6884651184082031,3.6277105051228027,-3.1368890444384974,5.610540866851807,0.01089966855943203,-0.015431518666446209,-0.00470380624756217,0.01495952345430851,0.09372589737176895,4.504156459006481e-05,0.1774752140045166,-2.107152223587036,-0.9945284724235535,0.19973112642765045,0.3642944097518921,0.08186107873916626
1749052816.5030138,-4.3909645716296595,0.08734123289074702,-0.6884651184082031,3.6277105051228027,-3.1368890444384974,5.610540866851807,0.01089966855943203,-0.015431518666446209,-0.00470380624756217,0.01495952345430851,0.09372589737176895,4.504156459006481e-05,0.1774752140045166,-2.107152223587036,-0.9945284724235535,0.19973112642765045,0.3642944097518921,0.08186107873916626
1749052816.5030506,-4.390944306050436,0.08737389623608394,-0.6884580850601196,3.627730532283447,-3.136674467717306,5.61054801940918,0.010985737666487694,-0.015699980780482292,-0.0043799905106425285,0.015523686073720455,0.09783699363470078,4.6170658606570214e-05,0.17443886399269104,-2.112092971801758,-1.0003509521484375,0.22271603345870972,0.3861333429813385,0.05951841175556183
1749052816.5034482,-4.390885059033529,0.08728103219952388,-0.6884511709213257,3.6278011041828613,-3.136486355458395,5.6105217933654785,0.011747173964977264,-0.01747867278754711,-0.004356797784566879,0.016301097348332405,0.09998051822185516,4.98995250381995e-05,0.19883832335472107,-2.117396354675293,-1.017994999885559,0.20865660905838013,0.3475008010864258,0.08052708953619003
1749052816.5053856,-4.390892450009481,0.08724884569134517,-0.688494086265564,3.6278249460407714,-3.1362863222705286,5.610544681549072,0.011954073794186115,-0.017151985317468643,-0.004559592343866825,0.01703159138560295,0.09866081178188324,5.5381166021106765e-05,0.17042651772499084,-2.113614082336426,-0.9894634485244751,0.21856290102005005,0.35229194164276123,0.06349603831768036
1749052816.546277,-4.390844766293661,0.08720461904492183,-0.688494086265564,3.627885027522705,-3.1358776728259485,5.610559463500977,0.012009539641439915,-0.017930498346686363,-0.005127589218318462,0.017236167564988136,0.10199850797653198,5.5277301726164296e-05,0.21454185247421265,-2.1354947090148926,-0.9928165674209595,0.20649655163288116,0.3810200095176697,0.08824634552001953
1749052816.5463235,-4.390844766293661,0.08720461904492183,-0.688494086265564,3.627885027522705,-3.1358776728259485,5.610559463500977,0.012009539641439915,-0.017930498346686363,-0.005127589218318462,0.017236167564988136,0.10199850797653198,5.5277301726164296e-05,0.21454185247421265,-2.1354947090148926,-0.9928165674209595,0.20649655163288116,0.3810200095176697,0.08824634552001953
1749052816.5463638,-4.390819255505697,0.08713261663403316,-0.688483715057373,3.6279565530964355,-3.135439936314718,5.610556125640869,0.01285754144191742,-0.02008766308426857,-0.004440799355506897,0.017285410314798355,0.10387184470891953,0.00020440331718418747,0.18572048842906952,-2.1436617374420166,-1.0103973150253296,0.20514920353889465,0.3581545352935791,0.07570978254079819
1749052816.5464022,-4.390819255505697,0.08713261663403316,-0.688483715057373,3.6279565530964355,-3.135439936314718,5.610556125640869,0.01285754144191742,-0.02008766308426857,-0.004440799355506897,0.017285410314798355,0.10387184470891953,0.00020440331718418747,0.18572048842906952,-2.1436617374420166,-1.0103973150253296,0.20514920353889465,0.3581545352935791,0.07570978254079819
1749052816.5464406,-4.390800897275106,0.08706562101330562,-0.6885025501251221,3.6279923158833007,-3.1352651754962366,5.610540866851807,0.012767362408339977,-0.0201680026948452,-0.0048136343248188496,0.017785266041755676,0.10419493168592453,0.00023965224681887776,0.1984272450208664,-2.1507723331451416,-1.0122889280319214,0.2234477400779724,0.373455673456192,0.06706128269433975
1749052816.546481,-4.39074427286257,0.08700887739147944,-0.6885266304016113,3.6280953127094726,-3.134808603917257,5.610563278198242,0.013646678067743778,-0.02103571407496929,-0.0053369528613984585,0.019467921927571297,0.10731792449951172,0.00022495652956422418,0.20323903858661652,-2.14201021194458,-1.0044140815734863,0.20890404284000397,0.38683003187179565,0.07471845299005508
1749052816.5465279,-4.39074427286257,0.08700887739147944,-0.6885266304016113,3.6280953127094726,-3.134808603917257,5.610563278198242,0.013646678067743778,-0.02103571407496929,-0.0053369528613984585,0.019467921927571297,0.10731792449951172,0.00022495652956422418,0.20323903858661652,-2.14201021194458,-1.0044140815734863,0.20890404284000397,0.38683003187179565,0.07471845299005508
1749052816.5465665,-4.390693012868063,0.08695630609478755,-0.6885853409767151,3.6281906801411132,-3.1343703905688685,5.610540866851807,0.014154907315969467,-0.021437160670757294,-0.005887006409466267,0.020114082843065262,0.11295732110738754,0.00020475906785577536,0.18442867696285248,-2.1658709049224854,-0.9996083974838257,0.19250550866127014,0.37227320671081543,0.08286327123641968
1749052816.5466044,-4.390693012868063,0.08695630609478755,-0.6885853409767151,3.6281906801411132,-3.1343703905688685,5.610540866851807,0.014154907315969467,-0.021437160670757294,-0.005887006409466267,0.020114082843065262,0.11295732110738754,0.00020475906785577536,0.18442867696285248,-2.1658709049224854,-0.9996083974838257,0.19250550866127014,0.37227320671081543,0.08286327123641968
1749052816.546642,-4.390644613896505,0.08682088434185786,-0.6885626316070557,3.628175898189209,-3.134136978779928,5.610498428344727,0.014230579137802124,-0.022632740437984467,-0.005709865130484104,0.020198697224259377,0.11514277756214142,0.00019585083646234125,0.233552485704422,-2.1756298542022705,-0.9972202777862549,0.20503956079483032,0.386029452085495,0.0532388836145401
1749052816.5466793,-4.390612665806906,0.0868256527134399,-0.6885747909545898,3.6282502847858886,-3.1339004675494593,5.610528945922852,0.014984737150371075,-0.023507338017225266,-0.005704856012016535,0.01921869069337845,0.11778969317674637,0.0002006225986406207,0.211033433675766,-2.1729955673217773,-1.0003293752670288,0.21765781939029694,0.3824465274810791,0.07486390322446823
1749052816.5467165,-4.390612665806906,0.0868256527134399,-0.6885747909545898,3.6282502847858886,-3.1339004675494593,5.610528945922852,0.014984737150371075,-0.023507338017225266,-0.005704856012016535,0.01921869069337845,0.11778969317674637,0.0002006225986406207,0.211033433675766,-2.1729955673217773,-1.0003293752670288,0.21765781939029694,0.3824465274810791,0.07486390322446823
1749052816.5467544,-4.39057428041567,0.0867815452763061,-0.6885867118835449,3.628251238460205,-3.13367206255068,5.610544681549072,0.015038617886602879,-0.02372470311820507,-0.005827424116432667,0.018375033512711525,0.1184229925274849,0.0002118441479979083,0.22737561166286469,-2.160679340362549,-1.0067322254180908,0.23390640318393707,0.39712318778038025,0.06703488528728485
1749052816.5467925,-4.390568081532614,0.08668570100750728,-0.6886107921600342,3.628338022822998,-3.133218828831808,5.610509872436523,0.01544792391359806,-0.02440262958407402,-0.006726410705596209,0.019211897626519203,0.12275349348783493,0.000200022550416179,0.2248351126909256,-2.191570281982422,-0.984996497631073,0.21130549907684326,0.3935853838920593,0.06909579783678055
1749052816.5468304,-4.3904821316348475,0.08661870538677974,-0.6886346340179443,3.628389521236084,-3.1329076925860804,5.610534191131592,0.015719430521130562,-0.02481674589216709,-0.006535507272928953,0.018643416464328766,0.12443998456001282,0.0001929759164340794,0.22829638421535492,-2.1941020488739014,-0.9914453625679016,0.2474905550479889,0.39490848779678345,0.06189141422510147
1749052816.5468676,-4.390532318745748,0.0865984398075561,-0.6886465549468994,3.6284372049519042,-3.132699791585104,5.610556125640869,0.016021110117435455,-0.025186002254486084,-0.005819998681545258,0.02094685286283493,0.12654948234558105,0.0001863341312855482,0.22420868277549744,-2.1795003414154053,-0.9973193407058716,0.21953970193862915,0.37671828269958496,0.05640266090631485
1749052816.546912,-4.390453163777487,0.08650402605023189,-0.6886587142944336,3.628457232112549,-3.1323941389666956,5.610476016998291,0.01595115102827549,-0.025749821215867996,-0.0058636837638914585,0.022510113194584846,0.12698394060134888,0.00018012001237366349,0.20908361673355103,-2.1835756301879883,-1.0187114477157593,0.21811476349830627,0.38072991371154785,0.055458322167396545
1749052816.5469506,-4.390422050152914,0.08649055540051265,-0.6886740922927856,3.6285244661518554,-3.132102076207296,5.610525608062744,0.01673329994082451,-0.028409235179424286,-0.005836482625454664,0.022976361215114594,0.12928764522075653,0.00017430228763259947,0.2136336863040924,-2.150986433029175,-0.9999909400939941,0.2218039631843567,0.3523173928260803,0.046907536685466766
1749052816.5469878,-4.39028770128359,0.08636359750714107,-0.6887048482894897,3.6285974222370605,-3.131606642399923,5.610540866851807,0.0157480426132679,-0.02637491375207901,-0.005142102017998695,0.02265581488609314,0.12411379814147949,0.00016373113612644374,0.23344701528549194,-2.178157329559326,-0.9928839206695557,0.21055972576141357,0.3862653374671936,0.05591072142124176
1749052816.547024,-4.39028770128359,0.08636359750714107,-0.6887048482894897,3.6285974222370605,-3.131606642399923,5.610540866851807,0.0157480426132679,-0.02637491375207901,-0.005142102017998695,0.02265581488609314,0.12411379814147949,0.00016373113612644374,0.23344701528549194,-2.178157329559326,-0.9928839206695557,0.21055972576141357,0.3862653374671936,0.05591072142124176
1749052816.5473762,-4.3902815024005335,0.08627442895855708,-0.6887220144271851,3.628692789668701,-3.1311174074756067,5.610522270202637,0.017701515927910805,-0.030255597084760666,-0.005953430663794279,0.023046044632792473,0.129983052611351,0.0001543674588901922,0.21857786178588867,-2.1667087078094482,-0.9949398636817932,0.2047373354434967,0.35837846994400024,0.07311201840639114
1749052816.5494375,-4.3902815024005335,0.08627442895855708,-0.6887220144271851,3.628692789668701,-3.1311174074756067,5.610522270202637,0.017701515927910805,-0.030255597084760666,-0.005953430663794279,0.023046044632792473,0.129983052611351,0.0001543674588901922,0.21857786178588867,-2.1667087078094482,-0.9949398636817932,0.2047373354434967,0.35837846994400024,0.07311201840639114
1749052816.590269,-4.390261475239889,0.08619968473400874,-0.688706636428833,3.628743811244629,-3.13086969057192,5.610563278198242,0.01815185137093067,-0.031193213537335396,-0.006815343629568815,0.02291770465672016,0.12784571945667267,0.00015007630281616002,0.2215542197227478,-2.1401872634887695,-0.9788147807121277,0.21402773261070251,0.3778263330459595,0.0511297807097435
1749052816.5903153,-4.390225712453024,0.08612768232312007,-0.6887304782867432,3.6287762361713867,-3.1305955092059534,5.610552787780762,0.01734699308872223,-0.029956243932247162,-0.00641668913885951,0.02294582687318325,0.12906166911125183,0.00014601646398659796,0.2125227153301239,-2.169663429260254,-1.0047508478164673,0.21261556446552277,0.38714730739593506,0.0810176432132721
1749052816.5903554,-4.390201870595114,0.08608297883953853,-0.6887304782867432,3.6288272577473144,-3.1303868929492396,5.610552787780762,0.01770417019724846,-0.029353326186537743,-0.005815355572849512,0.021933812648057938,0.1290799081325531,0.00014217171701602638,0.239457368850708,-2.1662304401397705,-0.9911262392997742,0.2055690884590149,0.3883512616157532,0.05977372080087662
1749052816.5903947,-4.3901382128344935,0.08601312219586177,-0.6887664794921875,3.6288439470478515,-3.1300490538226526,5.61056661605835,0.01782854273915291,-0.02926834486424923,-0.006173355970531702,0.02142566256225109,0.1306404322385788,0.00013852410484105349,0.21158888936042786,-2.1737074851989746,-0.9958698153495789,0.23805958032608032,0.4141078591346741,0.07137010991573334
1749052816.5904336,-4.390082303677694,0.08586208402600093,-0.6887747645378113,3.6289431291767578,-3.1294882933246058,5.610571384429932,0.01795513741672039,-0.029919246211647987,-0.006528772413730621,0.021157920360565186,0.13581223785877228,0.0001317626010859385,0.2202608287334442,-2.1807572841644287,-0.9765857458114624,0.2358022928237915,0.3869524598121643,0.05505625531077385
1749052816.5904722,-4.390082303677694,0.08586208402600093,-0.6887747645378113,3.6289431291767578,-3.1294882933246058,5.610571384429932,0.01795513741672039,-0.029919246211647987,-0.006528772413730621,0.021157920360565186,0.13581223785877228,0.0001317626010859385,0.2202608287334442,-2.1807572841644287,-0.9765857458114624,0.2358022928237915,0.3869524598121643,0.05505625531077385
1749052816.5905104,-4.390058342610494,0.08588270723309321,-0.6887873411178589,3.6290103632160644,-3.1292417685138147,5.6105170249938965,0.017720967531204224,-0.0310426764190197,-0.006122942082583904,0.022562189027667046,0.13320548832416534,0.00012862373841926455,0.2316884845495224,-2.1668338775634766,-0.9871357679367065,0.23796138167381287,0.41008082032203674,0.0521869957447052
1749052816.590548,-4.38998264471163,0.0857575374790649,-0.6888300180435181,3.6291329103657226,-3.1286948362933558,5.610559940338135,0.01885855942964554,-0.032789163291454315,-0.005639206152409315,0.025196773931384087,0.13940007984638214,0.00012277397036086768,0.23805628716945648,-2.1560022830963135,-0.9837943315505981,0.2359791100025177,0.3736007809638977,0.05811171233654022
1749052816.5905852,-4.38998264471163,0.0857575374790649,-0.6888300180435181,3.6291329103657226,-3.1286948362933558,5.610559940338135,0.01885855942964554,-0.032789163291454315,-0.005639206152409315,0.025196773931384087,0.13940007984638214,0.00012277397036086768,0.23805628716945648,-2.1560022830963135,-0.9837943315505981,0.2359791100025177,0.3736007809638977,0.05811171233654022
1749052816.5906284,-4.389898721371786,0.08556954442944331,-0.688842236995697,3.629209204311035,-3.1281469503985804,5.6105170249938965,0.018963662907481194,-0.03252231329679489,-0.005657433066517115,0.027228770777583122,0.13557149469852448,0.00011743238428607583,0.23866748809814453,-2.167668104171753,-0.9916147589683533,0.20634686946868896,0.40952351689338684,0.05967729166150093
1749052816.5906658,-4.389885727559225,0.08552817880596919,-0.6888506412506104,3.6292878824421386,-3.127845589314596,5.610509872436523,0.019415967166423798,-0.0333394892513752,-0.005394282750785351,0.026826728135347366,0.1362212896347046,0.00011493345664348453,0.2399854063987732,-2.154839515686035,-0.9909319281578064,0.2003091722726822,0.4201037585735321,0.05745658650994301
1749052816.590702,-4.389885727559225,0.08552817880596919,-0.6888506412506104,3.6292878824421386,-3.127845589314596,5.610509872436523,0.019415967166423798,-0.0333394892513752,-0.005394282750785351,0.026826728135347366,0.1362212896347046,0.00011493345664348453,0.2399854063987732,-2.154839515686035,-0.9909319281578064,0.2003091722726822,0.4201037585735321,0.05745658650994301
1749052816.5907388,-4.389771882687704,0.08540861188854976,-0.6888437271118164,3.629357023830078,-3.127322022114889,5.610522270202637,0.019877899438142776,-0.032537154853343964,-0.005277295131236315,0.025805827230215073,0.13907264173030853,0.00011023989645764232,0.2520097494125366,-2.1381351947784424,-1.0108152627944946,0.18923860788345337,0.41205093264579773,0.04613611102104187
1749052816.5907757,-4.389771882687704,0.08540861188854976,-0.6888437271118164,3.629357023830078,-3.127322022114889,5.610522270202637,0.019877899438142776,-0.032537154853343964,-0.005277295131236315,0.025805827230215073,0.13907264173030853,0.00011023989645764232,0.2520097494125366,-2.1381351947784424,-1.0108152627944946,0.18923860788345337,0.41205093264579773,0.04613611102104187
1749052816.590813,-4.389730755482809,0.08533303319897456,-0.6888901591300964,3.6294047075458984,-3.127073113118307,5.610540866851807,0.020421797409653664,-0.032179590314626694,-0.005766665562987328,0.024421464651823044,0.14095276594161987,0.00010803452460095286,0.24618150293827057,-2.160733222961426,-0.9991280436515808,0.2216460257768631,0.42663753032684326,0.052070844918489456
1749052816.59085,-4.3896594683276575,0.08522026121105952,-0.6888831853866577,3.6294919687458496,-3.1264873186694544,5.610513687133789,0.02043469063937664,-0.03249559551477432,-0.007108899764716625,0.022923815995454788,0.14574360847473145,0.00010387693328084424,0.2530709505081177,-2.1891863346099854,-0.995373010635376,0.21665702760219574,0.43787500262260437,0.06501694023609161
1749052816.590887,-4.3896594683276575,0.08522026121105952,-0.6888831853866577,3.6294919687458496,-3.1264873186694544,5.610513687133789,0.02043469063937664,-0.03249559551477432,-0.007108899764716625,0.022923815995454788,0.14574360847473145,0.00010387693328084424,0.2530709505081177,-2.1891863346099854,-0.995373010635376,0.21665702760219574,0.43787500262260437,0.06501694023609161
1749052816.5909238,-4.3896111885653895,0.08509831010784907,-0.688922643661499,3.6295620638081054,-3.1261757055865687,5.610513210296631,0.02053614892065525,-0.03284672647714615,-0.0065534706227481365,0.023533673956990242,0.1489872932434082,0.00010191680485149845,0.25729721784591675,-2.1877715587615967,-0.9884905815124512,0.2322658896446228,0.4357764720916748,0.05244992673397064
1749052816.5909605,-4.3896148840533655,0.08506099760021968,-0.6889499425888062,3.629575415248535,-3.12583834329714,5.610540866851807,0.02074609324336052,-0.03241310641169548,-0.006742781959474087,0.02448541484773159,0.15085211396217346,0.00010002889757743105,0.251971572637558,-2.1992478370666504,-0.9873484373092651,0.24217936396598816,0.4262644052505493,0.05123281478881836
1749052816.5909972,-4.389542881642477,0.08500079690899653,-0.6889618635177612,3.629638834590576,-3.1255458037005823,5.610506057739258,0.020758360624313354,-0.03253387287259102,-0.0074927834793925285,0.0250554196536541,0.15085674822330475,9.820920240599662e-05,0.25372493267059326,-2.1783595085144043,-0.9911575317382812,0.24298542737960815,0.40180671215057373,0.02834003046154976
1749052816.5913732,-4.389431540166036,0.08487777292218013,-0.6889824867248535,3.6297737795063476,-3.1249261538134974,5.61057186126709,0.02221967652440071,-0.03308623284101486,-0.007825794629752636,0.027837667614221573,0.1527247130870819,9.476235572947189e-05,0.2679906189441681,-2.208400249481201,-0.9887620210647583,0.21227595210075378,0.4157983362674713,0.03664115071296692
1749052816.593367,-4.389431540166036,0.08487777292218013,-0.6889824867248535,3.6297737795063476,-3.1249261538134974,5.61057186126709,0.02221967652440071,-0.03308623284101486,-0.007825794629752636,0.027837667614221573,0.1527247130870819,9.476235572947189e-05,0.2679906189441681,-2.208400249481201,-0.9887620210647583,0.21227595210075378,0.4157983362674713,0.03664115071296692
1749052816.6342824,-4.38942784467806,0.0848279434391479,-0.6889978647232056,3.62980238973584,-3.124646250401632,5.610568046569824,0.021509848535060883,-0.03374951705336571,-0.007449967321008444,0.028596509248018265,0.15300609171390533,9.312738984590396e-05,0.2744053602218628,-2.2093665599823,-1.0008985996246338,0.220340758562088,0.4488469958305359,0.0204605795443058
1749052816.6343286,-4.3894222418414515,0.08477692186322017,-0.6890135407447815,3.629896326656006,-3.1243048349963587,5.610559940338135,0.021221311762928963,-0.034631453454494476,-0.0076361410319805145,0.028462111949920654,0.16022153198719025,9.154894360108301e-05,0.2725421190261841,-2.224712610244751,-1.0018590688705444,0.21153408288955688,0.4348141849040985,0.020853012800216675
1749052816.6343699,-4.389309589062826,0.08468608438458247,-0.6890460252761841,3.629936857814453,-3.1239846388446253,5.6105241775512695,0.02253609336912632,-0.0351705364882946,-0.00764239439740777,0.029032832011580467,0.16082437336444855,9.002268052427098e-05,0.276714563369751,-2.20108699798584,-0.9890298843383789,0.2224670648574829,0.4351378083229065,0.03754594177007675
1749052816.6344097,-4.389287773762838,0.08461396276440425,-0.6890425682067871,3.6299845415302734,-3.1236959139453333,5.610559940338135,0.02256005071103573,-0.03495776280760765,-0.007437361404299736,0.02902808040380478,0.1644374132156372,8.854617044562474e-05,0.2600758373737335,-2.196185827255249,-0.9845305681228638,0.2130194902420044,0.42918527126312256,0.042924895882606506
1749052816.634449,-4.389233056698934,0.08455578863110347,-0.6890391707420349,3.6300789552875976,-3.123328987752096,5.610509872436523,0.022699402645230293,-0.034293048083782196,-0.007100825197994709,0.029540345072746277,0.1667914092540741,8.71178854140453e-05,0.27040863037109375,-2.224801540374756,-0.9868125915527344,0.2197752147912979,0.4299421012401581,0.01747845485806465
1749052816.6344893,-4.3892075459109705,0.08447687208142085,-0.6891009211540222,3.630112333888672,-3.122993055974142,5.610522270202637,0.02253066748380661,-0.034000009298324585,-0.007853681221604347,0.028479119762778282,0.16741299629211426,8.573475497541949e-05,0.28772497177124023,-2.2195346355438232,-0.9890462160110474,0.20070141553878784,0.43289169669151306,0.025640469044446945
1749052816.634528,-4.389168206845419,0.08440153181042476,-0.6890939474105835,3.630175753230713,-3.1226072947131556,5.610552787780762,0.023510675877332687,-0.03511100634932518,-0.008593418635427952,0.027519896626472473,0.17026986181735992,7.285351603059098e-05,0.2904081642627716,-2.2365777492523193,-0.9727172255516052,0.2334868609905243,0.44067615270614624,0.024014286696910858
1749052816.6345665,-4.389108006154196,0.08434145032849116,-0.6891024112701416,3.630242033595703,-3.122352902089254,5.61054801940918,0.024735337123274803,-0.03521763160824776,-0.008613171055912971,0.026870425790548325,0.17295005917549133,6.96927381795831e-05,0.2600556015968323,-2.23641037940979,-0.9650585055351257,0.2439364492893219,0.4115789234638214,0.03266606479883194
1749052816.6346042,-4.389110747967855,0.08426932870831294,-0.6891180872917175,3.6302711206623535,-3.1219261328326624,5.610544681549072,0.024485502392053604,-0.03535328805446625,-0.007834043353796005,0.026910832151770592,0.17342689633369446,6.827595643699169e-05,0.27484437823295593,-2.2491226196289062,-0.9793183207511902,0.2541373074054718,0.42563390731811523,0.02183552458882332
1749052816.6346421,-4.389040176068441,0.08418540536846919,-0.6891540884971619,3.6303273874470214,-3.1216140429126185,5.610537528991699,0.024969832971692085,-0.03575851023197174,-0.008128045126795769,0.027032172307372093,0.17924056947231293,6.719270459143445e-05,0.2966545820236206,-2.23836350440979,-0.9914130568504333,0.25265973806381226,0.391829252243042,0.019352324306964874
1749052816.6346843,-4.388913814221517,0.08414463579144282,-0.6891348958015442,3.63039414464917,-3.1212576071368616,5.610528945922852,0.024082856252789497,-0.03670984134078026,-0.007574979681521654,0.02904502861201763,0.17910052835941315,6.619323539780453e-05,0.2866303622722626,-2.247636556625366,-0.9826692938804626,0.23190398514270782,0.41126617789268494,0.0025341473519802094
1749052816.6347225,-4.388928238545553,0.08404545366253657,-0.6891813278198242,3.6304656702229003,-3.120864216481344,5.610559463500977,0.0235378947108984,-0.03738455846905708,-0.006891562137752771,0.03035123273730278,0.18067657947540283,6.52317248750478e-05,0.2851403057575226,-2.227975845336914,-0.973493754863739,0.23219925165176392,0.4104905128479004,0.004363860934972763
1749052816.6347597,-4.388896290455953,0.08396296083416743,-0.6891709566116333,3.6305290895649414,-3.12056547800173,5.610522270202637,0.024273676797747612,-0.03719264268875122,-0.006706687621772289,0.031015807762742043,0.18078802525997162,6.429886707337573e-05,0.313437819480896,-2.2531578540802,-1.0027493238449097,0.22664284706115723,0.4080360531806946,0.013781942427158356
1749052816.6348102,-4.388844911252157,0.08387903749432368,-0.6891793012619019,3.630565806026123,-3.1201863924609583,5.610540866851807,0.02556285262107849,-0.03794534131884575,-0.007453776430338621,0.03123820386826992,0.1830790638923645,6.339328683679923e-05,0.29895639419555664,-2.266319990158081,-0.9983064532279968,0.24001993238925934,0.41106948256492615,0.012311592698097229
1749052816.6348617,-4.388769332562582,0.08380703508343501,-0.6892260909080505,3.630640669459961,-3.119819227849142,5.610510349273682,0.02553395926952362,-0.03837597370147705,-0.007818211801350117,0.03159330412745476,0.1860887110233307,6.251262675505131e-05,0.27164849638938904,-2.253464937210083,-0.9832961559295654,0.2124924659729004,0.39494872093200684,0.00397743284702301
1749052816.6349008,-4.388787571583883,0.0837300258823852,-0.6892344951629639,3.630704088802002,-3.1194358507739466,5.610534191131592,0.025412464514374733,-0.038875021040439606,-0.008002347312867641,0.030714400112628937,0.18675874173641205,6.1655773606617e-05,0.3117218613624573,-2.2533509731292725,-0.9902200698852539,0.2410651296377182,0.406851589679718,0.006404884159564972
1749052816.634954,-4.388625804577963,0.08361725389447017,-0.6892585754394531,3.63080803930249,-3.1186991373645228,5.610528945922852,0.025900080800056458,-0.040083643049001694,-0.008063497953116894,0.03013591654598713,0.18551033735275269,6.001155270496383e-05,0.2949908375740051,-2.243002414703369,-0.9895429611206055,0.2473200559616089,0.41018301248550415,0.0050520747900009155
1749052816.634995,-4.388625804577963,0.08361725389447017,-0.6892585754394531,3.63080803930249,-3.1186991373645228,5.610528945922852,0.025900080800056458,-0.040083643049001694,-0.008063497953116894,0.03013591654598713,0.18551033735275269,6.001155270496383e-05,0.2949908375740051,-2.243002414703369,-0.9895429611206055,0.2473200559616089,0.41018301248550415,0.0050520747900009155
1749052816.6350336,-4.388624731694357,0.08353333055462642,-0.6892739534378052,3.6308953005024414,-3.118295971547262,5.610578536987305,0.026035990566015244,-0.03982025384902954,-0.007930160500109196,0.03060164861381054,0.18943558633327484,5.9221580158919096e-05,0.31043770909309387,-2.219059705734253,-0.9765340089797974,0.2479834258556366,0.38769859075546265,-0.001729719340801239
1749052816.6350799,-4.388518039380209,0.08345095693554683,-0.689313530921936,3.630963011378906,-3.1178727785693567,5.610501766204834,0.025692233815789223,-0.04021499305963516,-0.006574958097189665,0.030610231682658195,0.18684247136116028,5.845244231750257e-05,0.29344719648361206,-2.2549984455108643,-0.9922957420349121,0.25943487882614136,0.3986254930496216,0.008851133286952972
1749052816.6353927,-4.38845414320101,0.08339278280224605,-0.6892824172973633,3.6310574251362304,-3.117528263722555,5.610540866851807,0.02591288462281227,-0.04341844469308853,-0.0060717337764799595,0.03268972784280777,0.190852552652359,5.770292045781389e-05,0.2964443266391754,-2.217039108276367,-1.0091381072998047,0.2529691457748413,0.41471537947654724,-0.0020572729408740997
1749052816.6373696,-4.388444010411398,0.08315662919964595,-0.6893218755722046,3.631169481868408,-3.1167920271502894,5.610534191131592,0.02683652564883232,-0.0417194589972496,-0.006994355004280806,0.03385774791240692,0.192498579621315,4.70215491077397e-05,0.28363126516342163,-2.1947567462921143,-1.0008512735366821,0.2244068682193756,0.42494678497314453,-0.009613271802663803
1749052816.67828,-4.388444010411398,0.08315662919964595,-0.6893218755722046,3.631169481868408,-3.1167920271502894,5.610534191131592,0.02683652564883232,-0.0417194589972496,-0.006994355004280806,0.03385774791240692,0.192498579621315,4.70215491077397e-05,0.28363126516342163,-2.1947567462921143,-1.0008512735366821,0.2244068682193756,0.42494678497314453,-0.009613271802663803
1749052816.6783273,-4.388333622609274,0.08311860143627925,-0.6893184185028076,3.631249113673828,-3.116396967564718,5.6105475425720215,0.02645988203585148,-0.043751344084739685,-0.006666731089353561,0.03393881395459175,0.19503644108772278,4.48080973001197e-05,0.30766865611076355,-2.2039577960968018,-0.9995707869529724,0.20490765571594238,0.39000919461250305,-0.00944051519036293
1749052816.6783679,-4.388234917317526,0.08298878251995845,-0.6893305778503418,3.631305380458496,-3.1160224119769495,5.610544204711914,0.02722880430519581,-0.042841121554374695,-0.006178584415465593,0.032534144818782806,0.19540107250213623,4.397283919388428e-05,0.2898138761520386,-2.188816785812378,-1.0140489339828491,0.23287317156791687,0.4105129837989807,-0.027296852320432663
1749052816.6784067,-4.388218585644857,0.08289293825115962,-0.6893613934516907,3.6313654619404296,-3.115614716206686,5.610537528991699,0.027316758409142494,-0.045600250363349915,-0.006941645406186581,0.03131816163659096,0.20020464062690735,4.339202496339567e-05,0.29078853130340576,-2.193230628967285,-1.0031133890151978,0.22837001085281372,0.390150785446167,-0.029962334781885147
1749052816.6784437,-4.388143006955282,0.08283130704846187,-0.6893889307975769,3.631451292628906,-3.1151872316943567,5.610536098480225,0.027387255802750587,-0.043023571372032166,-0.008042908273637295,0.03014012612402439,0.19749212265014648,3.509717862471007e-05,0.2884318232536316,-2.1738574504852295,-1.0001035928726196,0.24493393301963806,0.38165977597236633,-0.01889355108141899
1749052816.6784854,-4.388117376958029,0.0827135282703857,-0.6893820762634277,3.631519003505371,-3.1147881189929407,5.610552787780762,0.027257779613137245,-0.04175843298435211,-0.008334018290042877,0.030403882265090942,0.19837647676467896,3.229102730983868e-05,0.2885439693927765,-2.208007335662842,-0.9960623979568481,0.2595049738883972,0.3987898528575897,-0.02224108949303627
1749052816.6785247,-4.388031546269552,0.08265153943981929,-0.6894057989120483,3.6315595346638183,-3.1144266764270228,5.6105217933654785,0.027354400604963303,-0.04310940206050873,-0.00775124179199338,0.0314348042011261,0.19628475606441498,3.1492600101046264e-05,0.3118886947631836,-2.230738878250122,-1.0051926374435425,0.2671777904033661,0.3790280222892761,-0.031921301037073135
1749052816.6785634,-4.3879621664630335,0.08243791639294429,-0.6894490718841553,3.631706400508545,-3.113638703023092,5.610544681549072,0.028157059103250504,-0.04276355355978012,-0.007998935878276825,0.03455327823758125,0.19804763793945312,-2.9748674933216535e-05,0.29917317628860474,-2.1901841163635254,-0.9917954206466675,0.2453230917453766,0.39218056201934814,-0.04808930680155754
1749052816.6786017,-4.3879621664630335,0.08243791639294429,-0.6894490718841553,3.631706400508545,-3.113638703023092,5.610544681549072,0.028157059103250504,-0.04276355355978012,-0.007998935878276825,0.03455327823758125,0.19804763793945312,-2.9748674933216535e-05,0.29917317628860474,-2.1901841163635254,-0.9917954206466675,0.2453230917453766,0.39218056201934814,-0.04808930680155754
1749052816.67864,-4.387898866330282,0.08236066877331538,-0.6894264221191406,3.6317660051533203,-3.11320668855776,5.610510349273682,0.027772441506385803,-0.042935796082019806,-0.007641883101314306,0.03514031320810318,0.19863168895244598,-3.58920733560808e-05,0.29572996497154236,-2.2113277912139893,-0.9964352250099182,0.2306409776210785,0.3739788234233856,-0.039526764303445816
1749052816.678678,-4.387819472943441,0.08227006971325679,-0.6894850134849548,3.6318303781696777,-3.112826410924093,5.610571384429932,0.027587227523326874,-0.0420520044863224,-0.0075293732807040215,0.0345226526260376,0.19881272315979004,-4.66340861748904e-05,0.33240050077438354,-2.2044153213500977,-1.0123910903930664,0.23941363394260406,0.38655731081962585,-0.0383286289870739
1749052816.6787152,-4.387787524853842,0.08220462381329341,-0.6894935369491577,3.631897135371826,-3.112433973942892,5.6105170249938965,0.027812346816062927,-0.04185137525200844,-0.008876983076334,0.034372858703136444,0.19960708916187286,-5.67649767617695e-05,0.31016895174980164,-2.2188057899475098,-0.9970335364341736,0.22401034832000732,0.3743438720703125,-0.058300431817770004
1749052816.6787527,-4.387674395238058,0.08201293527569575,-0.6895294785499573,3.632040186519287,-3.111567799245016,5.610520839691162,0.02987578511238098,-0.042710356414318085,-0.008922410197556019,0.03326575085520744,0.20451049506664276,-0.0006691044545732439,0.3055332601070404,-2.197843313217163,-0.9869369864463806,0.24177950620651245,0.33637696504592896,-0.045698296278715134
1749052816.6787896,-4.387674395238058,0.08201293527569575,-0.6895294785499573,3.632040186519287,-3.111567799245016,5.610520839691162,0.02987578511238098,-0.042710356414318085,-0.008922410197556019,0.03326575085520744,0.20451049506664276,-0.0006691044545732439,0.3055332601070404,-2.197843313217163,-0.9869369864463806,0.24177950620651245,0.33637696504592896,-0.045698296278715134
1749052816.678827,-4.387595717106954,0.08194784700360103,-0.6895689368247986,3.632124109859131,-3.111234728490011,5.610559940338135,0.029226044192910194,-0.04031215235590935,-0.009004605002701283,0.03285069018602371,0.1997910737991333,-0.0007085019606165588,0.3221384286880493,-2.2209672927856445,-0.9867941737174988,0.2647494077682495,0.3549287021160126,-0.04584197327494621
1749052816.6788647,-4.387503568326132,0.08178917943920894,-0.6895550489425659,3.6322671610065917,-3.1104353109942835,5.610509872436523,0.02814633585512638,-0.04181639850139618,-0.008780433796346188,0.03394930064678192,0.20025484263896942,-0.0006717231590300798,0.32336246967315674,-2.205878734588623,-0.9941010475158691,0.25343331694602966,0.3610103726387024,-0.04532435163855553
1749052816.6789026,-4.387503568326132,0.08178917943920894,-0.6895550489425659,3.6322671610065917,-3.1104353109942835,5.610509872436523,0.02814633585512638,-0.04181639850139618,-0.008780433796346188,0.03394930064678192,0.20025484263896942,-0.0006717231590300798,0.32336246967315674,-2.205878734588623,-0.9941010475158691,0.25343331694602966,0.3610103726387024,-0.04532435163855553
1749052816.678953,-4.387443486844198,0.0816773611256103,-0.6896288394927979,3.6323577600666503,-3.109999958668844,5.610506534576416,0.028956295922398567,-0.04212642088532448,-0.008923949673771858,0.034573994576931,0.20150348544120789,-0.0006814023363403976,0.3182312250137329,-2.1956803798675537,-0.9878532886505127,0.24309736490249634,0.3909602761268616,-0.047656115144491196
1749052816.678997,-4.387288514767782,0.08153729021038814,-0.6896456480026245,3.632497473354004,-3.1092003027545374,5.610509872436523,0.028997104614973068,-0.039670296013355255,-0.009160558693110943,0.03427831828594208,0.2056807279586792,-0.000753445434384048,0.350186824798584,-2.2297325134277344,-0.9895491003990173,0.24782240390777588,0.3861362934112549,-0.056889135390520096
1749052816.6790357,-4.387288514767782,0.08153729021038814,-0.6896456480026245,3.632497473354004,-3.1092003027545374,5.610509872436523,0.028997104614973068,-0.039670296013355255,-0.009160558693110943,0.03427831828594208,0.2056807279586792,-0.000753445434384048,0.350186824798584,-2.2297325134277344,-0.9895491003990173,0.24782240390777588,0.3861362934112549,-0.056889135390520096
1749052816.6794107,-4.387219492589132,0.08138124525036616,-0.6896699666976929,3.632582350368164,-3.1084099451648157,5.610486030578613,0.030577542260289192,-0.04199282079935074,-0.00959685631096363,0.0333523154258728,0.20901286602020264,-0.0007887822575867176,0.2953013777732849,-2.235893487930298,-0.9645569920539856,0.25937414169311523,0.3866172730922699,-0.03631926700472832
1749052816.6813927,-4.387163702641622,0.08128540098156734,-0.6896905899047852,3.6326767641254882,-3.1079698244677942,5.610497951507568,0.03019491583108902,-0.04142264649271965,-0.009370500221848488,0.03340325877070427,0.2041545957326889,-0.0008686541696079075,0.3090763986110687,-2.237586259841919,-0.9704343676567078,0.25186312198638916,0.41313788294792175,-0.05092429742217064
1749052816.7222857,-4.387163702641622,0.08128540098156734,-0.6896905899047852,3.6326767641254882,-3.1079698244677942,5.610497951507568,0.03019491583108902,-0.04142264649271965,-0.009370500221848488,0.03340325877070427,0.2041545957326889,-0.0008686541696079075,0.3090763986110687,-2.237586259841919,-0.9704343676567078,0.25186312198638916,0.41313788294792175,-0.05092429742217064
1749052816.7223325,-4.387036148701803,0.08108703672375484,-0.6897298097610474,3.632819338435791,-3.107126537953512,5.610536098480225,0.02958148531615734,-0.04254315793514252,-0.009774475358426571,0.03381115943193436,0.20981338620185852,-0.0008164081955328584,0.3361649513244629,-2.2428319454193115,-0.9810457825660706,0.27594441175460815,0.4338034689426422,-0.08665443956851959
1749052816.722377,-4.387036148701803,0.08108703672375484,-0.6897298097610474,3.632819338435791,-3.107126537953512,5.610536098480225,0.02958148531615734,-0.04254315793514252,-0.009774475358426571,0.03381115943193436,0.20981338620185852,-0.0008164081955328584,0.3361649513244629,-2.2428319454193115,-0.9810457825660706,0.27594441175460815,0.4338034689426422,-0.08665443956851959
1749052816.722418,-4.386945549641744,0.0809979873844604,-0.6897538900375366,3.632899447078369,-3.1066983381854456,5.610532283782959,0.03134705126285553,-0.04284299537539482,-0.009284671396017075,0.035557955503463745,0.2144552320241928,-0.0007955076289363205,0.31378790736198425,-2.256223440170288,-0.9816156029701233,0.2907472252845764,0.4283832013607025,-0.056840088218450546
1749052816.722458,-4.386813346539633,0.08082334577526851,-0.6897934675216675,3.6330734926411132,-3.105846945439474,5.610474109649658,0.031123921275138855,-0.04473629221320152,-0.00834388006478548,0.039688874036073685,0.22227847576141357,-0.0008001073729246855,0.33140042424201965,-2.239812135696411,-0.9991931319236755,0.25065261125564575,0.4024324417114258,-0.06463354825973511
1749052816.722497,-4.386813346539633,0.08082334577526851,-0.6897934675216675,3.6330734926411132,-3.105846945439474,5.610474109649658,0.031123921275138855,-0.04473629221320152,-0.00834388006478548,0.039688874036073685,0.22227847576141357,-0.0008001073729246855,0.33140042424201965,-2.239812135696411,-0.9991931319236755,0.25065261125564575,0.4024324417114258,-0.06463354825973511
1749052816.7225392,-4.386737767850057,0.08076660215344234,-0.6897899508476257,3.6331464487263183,-3.105386797581808,5.6105170249938965,0.03127746284008026,-0.045234378427267075,-0.008213669061660767,0.04077073931694031,0.22412559390068054,-0.0008340400527231395,0.337542861700058,-2.242516279220581,-1.010066270828247,0.2264098972082138,0.392766535282135,-0.06030536815524101
1749052816.722579,-4.386656586323873,0.08059017240490718,-0.6898102760314941,3.6332694727131347,-3.104471747075216,5.610505104064941,0.031187571585178375,-0.04638143256306648,-0.00861187744885683,0.035793058574199677,0.22420945763587952,-0.0012095458805561066,0.3549681305885315,-2.245684862136841,-1.0077675580978394,0.2524312436580658,0.3900616466999054,-0.07580748200416565
1749052816.7226171,-4.386656586323873,0.08059017240490718,-0.6898102760314941,3.6332694727131347,-3.104471747075216,5.610505104064941,0.031187571585178375,-0.04638143256306648,-0.00861187744885683,0.035793058574199677,0.22420945763587952,-0.0012095458805561066,0.3549681305885315,-2.245684862136841,-1.0077675580978394,0.2524312436580658,0.3900616466999054,-0.07580748200416565
1749052816.722655,-4.386509958897726,0.08039848386730952,-0.6898343563079834,3.6334592539020996,-3.103560272847311,5.6105122566223145,0.03187781944870949,-0.047274429351091385,-0.009012766182422638,0.0367269404232502,0.22661885619163513,-0.001691490993835032,0.3314245641231537,-2.213639736175537,-0.9979805946350098,0.2699373960494995,0.3824078142642975,-0.06362389028072357
1749052816.7226965,-4.386509958897726,0.08039848386730952,-0.6898343563079834,3.6334592539020996,-3.103560272847311,5.6105122566223145,0.03187781944870949,-0.047274429351091385,-0.009012766182422638,0.0367269404232502,0.22661885619163513,-0.001691490993835032,0.3314245641231537,-2.213639736175537,-0.9979805946350098,0.2699373960494995,0.3824078142642975,-0.06362389028072357
1749052816.7227356,-4.386473600064413,0.08031122266735835,-0.6898616552352905,3.6335388857075195,-3.1031392256366175,5.610496520996094,0.0318509005010128,-0.04645536467432976,-0.00837006326764822,0.038790978491306305,0.2297438085079193,-0.0018192643765360117,0.33653298020362854,-2.2505292892456055,-1.003501296043396,0.27885764837265015,0.3992859721183777,-0.057820968329906464
1749052816.7227738,-4.386330072079794,0.08010415613140864,-0.6898860335350037,3.6336747842976074,-3.1021721998797815,5.610493183135986,0.033239491283893585,-0.04834330454468727,-0.008817530237138271,0.04168030247092247,0.23239992558956146,-0.0015126012731343508,0.3370800018310547,-2.2580466270446777,-1.0292749404907227,0.24351492524147034,0.4035601019859314,-0.052467674016952515
1749052816.7228115,-4.386330072079794,0.08010415613140864,-0.6898860335350037,3.6336747842976074,-3.1021721998797815,5.610493183135986,0.033239491283893585,-0.04834330454468727,-0.008817530237138271,0.04168030247092247,0.23239992558956146,-0.0015126012731343508,0.3370800018310547,-2.2580466270446777,-1.0292749404907227,0.24351492524147034,0.4035601019859314,-0.052467674016952515
1749052816.7228537,-4.386194292698995,0.07993416368450923,-0.6899185180664062,3.633857412929199,-3.1011863390551966,5.610496997833252,0.03341677784919739,-0.04831743612885475,-0.009690845385193825,0.042001307010650635,0.23597605526447296,-0.001359135378152132,0.3269222676753998,-2.233372926712036,-1.0184391736984253,0.2162131667137146,0.3765716552734375,-0.05265986919403076
1749052816.722893,-4.386194292698995,0.07993416368450923,-0.6899185180664062,3.633857412929199,-3.1011863390551966,5.610496997833252,0.03341677784919739,-0.04831743612885475,-0.009690845385193825,0.042001307010650635,0.23597605526447296,-0.001359135378152132,0.3269222676753998,-2.233372926712036,-1.0184391736984253,0.2162131667137146,0.3765716552734375,-0.05265986919403076
1749052816.7229435,-4.386141959820883,0.07981972276654048,-0.6899338960647583,3.633925600642822,-3.100764576588766,5.610496520996094,0.03356558084487915,-0.04801907762885094,-0.01052675861865282,0.04132796823978424,0.23598630726337433,-0.001378508284687996,0.3523612916469574,-2.2669339179992676,-1.021587610244751,0.2295892983675003,0.4148784279823303,-0.056592151522636414
1749052816.7229872,-4.385978881512777,0.07963137208905025,-0.6900091171264648,3.6340767580219726,-3.0997265020953577,5.610465049743652,0.03434262424707413,-0.04938077554106712,-0.010886232368648052,0.03795837610960007,0.2361939698457718,-0.0017004653345793486,0.31977730989456177,-2.276923894882202,-1.0134494304656982,0.26223471760749817,0.4163984954357147,-0.0803857296705246
1749052816.7230287,-4.385978881512777,0.07963137208905025,-0.6900091171264648,3.6340767580219726,-3.0997265020953577,5.610465049743652,0.03434262424707413,-0.04938077554106712,-0.010886232368648052,0.03795837610960007,0.2361939698457718,-0.0017004653345793486,0.31977730989456177,-2.276923894882202,-1.0134494304656982,0.26223471760749817,0.4163984954357147,-0.0803857296705246
1749052816.723067,-4.3858657518969935,0.07942442476239009,-0.6900486350059509,3.634270353908203,-3.0987585226642054,5.610468864440918,0.034331344068050385,-0.049410101026296616,-0.010498692281544209,0.04161645844578743,0.24192753434181213,-0.0017993561923503876,0.32727473974227905,-2.2949767112731934,-1.013577938079834,0.26842278242111206,0.41737303137779236,-0.05480438470840454
1749052816.723436,-4.3858657518969935,0.07942442476239009,-0.6900486350059509,3.634270353908203,-3.0987585226642054,5.610468864440918,0.034331344068050385,-0.049410101026296616,-0.010498692281544209,0.04161645844578743,0.24192753434181213,-0.0017993561923503876,0.32727473974227905,-2.2949767112731934,-1.013577938079834,0.26842278242111206,0.41737303137779236,-0.05480438470840454
1749052816.725429,-4.38579506078829,0.07930080472912593,-0.6900692582130432,3.6343657213398437,-3.0982940832721155,5.6104416847229,0.03514466807246208,-0.04942833259701729,-0.011554085649549961,0.04310516268014908,0.2429463267326355,-0.0017177620902657509,0.3440784513950348,-2.275209903717041,-0.9981761574745178,0.2572369873523712,0.3975054621696472,-0.06812025606632233
1749052816.7662795,-4.3856088558780115,0.0791124540516357,-0.6901174187660217,3.63450209676709,-3.0972874800311487,5.610434532165527,0.035959672182798386,-0.05233433097600937,-0.011590528301894665,0.04440966248512268,0.2430783212184906,-0.001445893314667046,0.3267766237258911,-2.245910406112671,-0.9862760305404663,0.2508229911327362,0.41265445947647095,-0.05836474150419235
1749052816.766326,-4.3856088558780115,0.0791124540516357,-0.6901174187660217,3.63450209676709,-3.0972874800311487,5.610434532165527,0.035959672182798386,-0.05233433097600937,-0.011590528301894665,0.04440966248512268,0.2430783212184906,-0.001445893314667046,0.3267766237258911,-2.245910406112671,-0.9862760305404663,0.2508229911327362,0.41265445947647095,-0.05836474150419235
1749052816.7663662,-4.385540429745809,0.07901660978283687,-0.6901534199714661,3.6345817285725097,-3.096764628087179,5.610441207885742,0.03535289689898491,-0.05001949146389961,-0.01179540529847145,0.04394102469086647,0.24644610285758972,-0.0013290147762745619,0.3437567949295044,-2.262938976287842,-0.9835351705551147,0.2523050308227539,0.4186992645263672,-0.06588883697986603
1749052816.7664049,-4.385462824498312,0.07879654943432612,-0.6901822090148926,3.6347638803669433,-3.095734421406881,5.610468864440918,0.037769146263599396,-0.05220485478639603,-0.01268447283655405,0.04344332590699196,0.2520703673362732,-0.00111583701800555,0.3058861196041107,-2.2786102294921875,-0.9700548648834229,0.2629992365837097,0.4369926154613495,-0.07688362896442413
1749052816.7664437,-4.385462824498312,0.07879654943432612,-0.6901822090148926,3.6347638803669433,-3.095734421406881,5.610468864440918,0.037769146263599396,-0.05220485478639603,-0.01268447283655405,0.04344332590699196,0.2520703673362732,-0.00111583701800555,0.3058861196041107,-2.2786102294921875,-0.9700548648834229,0.2629992365837097,0.4369926154613495,-0.07688362896442413
1749052816.7664833,-4.3853634039508265,0.07868806898083491,-0.6901978850364685,3.6348602014729003,-3.0952659288989466,5.610441207885742,0.03683999180793762,-0.05481135845184326,-0.011389687657356262,0.044972848147153854,0.2560153603553772,-0.0010334915714338422,0.3136998116970062,-2.248718738555908,-0.9818167686462402,0.2633671164512634,0.4182705581188202,-0.07209642231464386
1749052816.766522,-4.385299626980917,0.07858399927105708,-0.690233588218689,3.634927912349365,-3.094741169606344,5.610422134399414,0.035327255725860596,-0.05199893191456795,-0.010782619938254356,0.045811302959918976,0.258495569229126,-0.0010025203227996826,0.3461717963218689,-2.2798781394958496,-0.9926822781562805,0.26420584321022034,0.43518197536468506,-0.06500701606273651
1749052816.7665598,-4.3851497809039515,0.07847992956127925,-0.6902422904968262,3.6350042062946777,-3.0942328611956995,5.610429286956787,0.037334050983190536,-0.05402917042374611,-0.010508351027965546,0.046191055327653885,0.26090893149375916,-0.0009855686221271753,0.3366314768791199,-2.3107030391693115,-0.9923980832099915,0.26891040802001953,0.4381641149520874,-0.057136423885822296
1749052816.7665968,-4.385064427052633,0.07824532567944331,-0.6903128623962402,3.635214014644287,-3.09314996400942,5.610461235046387,0.03908532112836838,-0.056413132697343826,-0.011896723881363869,0.04572802409529686,0.26416558027267456,-0.0009924195474013686,0.3267334997653961,-2.271228075027466,-0.9682445526123047,0.2616322636604309,0.4480900764465332,-0.06426243484020233
1749052816.7666342,-4.385064427052633,0.07824532567944331,-0.6903128623962402,3.635214014644287,-3.09314996400942,5.610461235046387,0.03908532112836838,-0.056413132697343826,-0.011896723881363869,0.04572802409529686,0.26416558027267456,-0.0009924195474013686,0.3267334997653961,-2.271228075027466,-0.9682445526123047,0.2616322636604309,0.4480900764465332,-0.06426243484020233
1749052816.7666733,-4.384905759488241,0.07803635179486079,-0.6903418302536011,3.6353961664387207,-3.0920708815204065,5.610448837280273,0.03647078946232796,-0.05860874056816101,-0.011928251013159752,0.0462254174053669,0.2708767354488373,-0.0010385805508121848,0.3611113727092743,-2.238774299621582,-0.9765791893005371,0.27717727422714233,0.4518430829048157,-0.05437266826629639
1749052816.7667112,-4.384905759488241,0.07803635179486079,-0.6903418302536011,3.6353961664387207,-3.0920708815204065,5.610448837280273,0.03647078946232796,-0.05860874056816101,-0.011928251013159752,0.0462254174053669,0.2708767354488373,-0.0010385805508121848,0.3611113727092743,-2.238774299621582,-0.9765791893005371,0.27717727422714233,0.4518430829048157,-0.05437266826629639
1749052816.7667484,-4.384849254284994,0.07791320859875484,-0.690326452255249,3.6355196672626953,-3.091526810322897,5.61042594909668,0.037185829132795334,-0.05979050695896149,-0.011457884684205055,0.04761061444878578,0.27516505122184753,-0.0012886251788586378,0.3624362647533417,-2.2232353687286377,-0.974012017250061,0.2631634771823883,0.41422349214553833,-0.057006433606147766
1749052816.7667856,-4.384699527417318,0.07778100549664302,-0.6903656721115112,3.635599299068115,-3.090947691594259,5.61041784286499,0.03784303739666939,-0.05916302651166916,-0.010004657320678234,0.04821784794330597,0.2754836082458496,-0.0014112989883869886,0.3433500826358795,-2.214932680130005,-0.9785357713699341,0.25793448090553284,0.4292628765106201,-0.043932631611824036
1749052816.766823,-4.384643141423361,0.07765762388195796,-0.6903743743896484,3.635694666499756,-3.090402905141012,5.610429763793945,0.03874022513628006,-0.05729324370622635,-0.010649142786860466,0.049146104604005814,0.27697688341140747,-0.0013697099639102817,0.34921157360076904,-2.284899950027466,-0.987826943397522,0.26168471574783325,0.41422128677368164,-0.07273940742015839
1749052816.7668605,-4.384605352078573,0.07757286607708735,-0.6904135942459106,3.635833426112793,-3.0898361841784876,5.61043643951416,0.03880022466182709,-0.05896680802106857,-0.01134360209107399,0.04940490052103996,0.2796016037464142,-0.0013335166731849313,0.32561638951301575,-2.240579605102539,-0.994553804397583,0.24824072420597076,0.4018772542476654,-0.07723407447338104
1749052816.7668982,-4.384430233632223,0.07730643331494136,-0.690430760383606,3.636004610652588,-3.088693920766012,5.610448360443115,0.03796961531043053,-0.05716150999069214,-0.01143786683678627,0.04875698685646057,0.2815110683441162,-0.0010996368946507573,0.36528122425079346,-2.253699779510498,-0.9798461198806763,0.2455860823392868,0.4314597249031067,-0.06895092129707336
1749052816.7669435,-4.384430233632223,0.07730643331494136,-0.690430760383606,3.636004610652588,-3.088693920766012,5.610448360443115,0.03796961531043053,-0.05716150999069214,-0.01143786683678627,0.04875698685646057,0.2815110683441162,-0.0010996368946507573,0.36528122425079346,-2.253699779510498,-0.9798461198806763,0.2455860823392868,0.4314597249031067,-0.06895092129707336
1749052816.766989,-4.3842437903033655,0.07710640012707515,-0.6904975175857544,3.63621632635083,-3.087574068699972,5.610417366027832,0.040007006376981735,-0.05920611694455147,-0.0106200585141778,0.048257339745759964,0.2898634672164917,-0.0009355169022455812,0.3341846168041229,-2.2891440391540527,-1.0111407041549683,0.24361547827720642,0.41908663511276245,-0.06077243387699127
1749052816.7670271,-4.3842437903033655,0.07710640012707515,-0.6904975175857544,3.63621632635083,-3.087574068699972,5.610417366027832,0.040007006376981735,-0.05920611694455147,-0.0106200585141778,0.048257339745759964,0.2898634672164917,-0.0009355169022455812,0.3341846168041229,-2.2891440391540527,-1.0111407041549683,0.24361547827720642,0.41908663511276245,-0.06077243387699127
1749052816.7673817,-4.384182635937826,0.07697431623425288,-0.6905337572097778,3.6362997728535156,-3.0870259443866175,5.610440254211426,0.04016503319144249,-0.05944656953215599,-0.012018990702927113,0.04939565435051918,0.2908588945865631,-0.0007651092018932104,0.29707595705986023,-2.25964617729187,-0.9800474643707275,0.2560432255268097,0.4107750654220581,-0.0511835515499115
1749052816.769386,-4.384026590977804,0.07673053323712153,-0.6906005144119263,3.6365057665058593,-3.0858269373523157,5.61043643951416,0.039019130170345306,-0.05751742795109749,-0.013155375607311726,0.04867059737443924,0.2898041307926178,-0.0006711806054227054,0.3434304893016815,-2.3155136108398438,-0.983156144618988,0.24440805613994598,0.43227168917655945,-0.07244645059108734
1749052816.8102758,-4.384026590977804,0.07673053323712153,-0.6906005144119263,3.6365057665058593,-3.0858269373523157,5.61043643951416,0.039019130170345306,-0.05751742795109749,-0.013155375607311726,0.04867059737443924,0.2898041307926178,-0.0006711806054227054,0.3434304893016815,-2.3155136108398438,-0.983156144618988,0.24440805613994598,0.43227168917655945,-0.07244645059108734
1749052816.8103213,-4.383839432393209,0.07645575582470698,-0.6906449794769287,3.636700316066406,-3.084644619618551,5.610443592071533,0.039674047380685806,-0.05922829359769821,-0.01337466575205326,0.046729739755392075,0.29727718234062195,-0.0006807021563872695,0.32154279947280884,-2.319305419921875,-0.9459066987037659,0.28317496180534363,0.44386744499206543,-0.0730060487985611
1749052816.8103614,-4.383839432393209,0.07645575582470698,-0.6906449794769287,3.636700316066406,-3.084644619618551,5.610443592071533,0.039674047380685806,-0.05922829359769821,-0.01337466575205326,0.046729739755392075,0.29727718234062195,-0.0006807021563872695,0.32154279947280884,-2.319305419921875,-0.9459066987037659,0.28317496180534363,0.44386744499206543,-0.0730060487985611
1749052816.8104007,-4.3837472836123865,0.0763355928608398,-0.690650224685669,3.6367804247089843,-3.0840681234942835,5.610417366027832,0.040406860411167145,-0.05908872187137604,-0.013200437650084496,0.04850316792726517,0.3004307448863983,-0.0006504116463474929,0.3386051654815674,-2.3005588054656982,-0.9571751952171326,0.2756524682044983,0.4367882311344147,-0.08105720579624176
1749052816.8104389,-4.383635584508077,0.07611171781506343,-0.6907449960708618,3.637014551753662,-3.082907263432638,5.610393524169922,0.04133186861872673,-0.06003968045115471,-0.013059882447123528,0.0512150414288044,0.30328047275543213,-0.0006325315916910768,0.3312188386917114,-2.2962069511413574,-0.944385290145874,0.2650696933269501,0.4163931608200073,-0.07555468380451202
1749052816.8104773,-4.383635584508077,0.07611171781506343,-0.6907449960708618,3.637014551753662,-3.082907263432638,5.610393524169922,0.04133186861872673,-0.06003968045115471,-0.013059882447123528,0.0512150414288044,0.30328047275543213,-0.0006325315916910768,0.3312188386917114,-2.2962069511413574,-0.944385290145874,0.2650696933269501,0.4163931608200073,-0.07555468380451202
1749052816.8105159,-4.383497063313619,0.07601873456921382,-0.6907652020454407,3.637087031001709,-3.0822842756854456,5.61043643951416,0.040778812021017075,-0.06047755107283592,-0.012935598380863667,0.05183424428105354,0.30083808302879333,-0.0006192396394908428,0.3433621823787689,-2.3092422485351562,-0.9494574666023254,0.24893322587013245,0.4515622854232788,-0.06934948265552521
1749052816.810554,-4.383440200482504,0.0758407550999145,-0.6907858848571777,3.637185736293457,-3.0817156473742884,5.610421180725098,0.040278997272253036,-0.06177114322781563,-0.013140576891601086,0.05221334844827652,0.304323673248291,-0.0006174741429276764,0.31331366300582886,-2.284601926803589,-0.9518979787826538,0.26877695322036743,0.42478641867637634,-0.08428870141506195
1749052816.810592,-4.383340660725729,0.0757405000874023,-0.6908096671104431,3.6373087602802734,-3.081095282231466,5.610409259796143,0.0433330312371254,-0.06225036829710007,-0.013194906525313854,0.05428629741072655,0.30910634994506836,-0.000591040588915348,0.32059258222579956,-2.2670741081237793,-0.9536674618721008,0.2551043629646301,0.4567844569683075,-0.05767935514450073
1749052816.8106294,-4.383260432873861,0.07561294614758296,-0.6908456683158875,3.63741318761792,-3.080487076436178,5.610421180725098,0.0408538319170475,-0.0630442351102829,-0.01341964304447174,0.05331553891301155,0.30706876516342163,-0.0006007247720845044,0.30931201577186584,-2.2906947135925293,-0.9599807262420654,0.25863030552864075,0.4427873194217682,-0.08502049744129181
1749052816.8106668,-4.383169237767355,0.07550720750775142,-0.6908575296401978,3.6375276285358886,-3.0798168818103235,5.6103901863098145,0.04072018340229988,-0.0642244815826416,-0.012392086908221245,0.05205931514501572,0.31025275588035583,-0.0006073248805478215,0.33937686681747437,-2.281038761138916,-0.9591995477676392,0.2566401958465576,0.4293995499610901,-0.07381723821163177
1749052816.8107038,-4.383108083401815,0.07534055292095942,-0.6908816695213318,3.6376277643391113,-3.0791588465320032,5.610405921936035,0.04173808917403221,-0.06528224050998688,-0.012120665051043034,0.05081606283783913,0.3098360300064087,-0.0006571341073140502,0.33500516414642334,-2.2664120197296143,-0.9567172527313232,0.2886597812175751,0.4333437383174896,-0.09106782078742981
1749052816.8107412,-4.382929865513937,0.0751010614582519,-0.6909106969833374,3.637873335475586,-3.0779104868518274,5.6103973388671875,0.04454977065324783,-0.06686639040708542,-0.011692160740494728,0.05411000922322273,0.31713664531707764,-0.000727993727196008,0.32750365138053894,-2.2780048847198486,-0.9654197692871094,0.2782368063926697,0.43147385120391846,-0.08467113971710205
1749052816.8107784,-4.382929865513937,0.0751010614582519,-0.6909106969833374,3.637873335475586,-3.0779104868518274,5.6103973388671875,0.04454977065324783,-0.06686639040708542,-0.011692160740494728,0.05411000922322273,0.31713664531707764,-0.000727993727196008,0.32750365138053894,-2.2780048847198486,-0.9654197692871094,0.2782368063926697,0.43147385120391846,-0.08467113971710205
1749052816.8108158,-4.382842008267538,0.07496897756542964,-0.6909141540527344,3.63800494253125,-3.077306334172384,5.6103973388671875,0.043369024991989136,-0.06842680275440216,-0.011484785005450249,0.056138776242733,0.3232206702232361,-0.00089210772421211,0.3133094906806946,-2.230928659439087,-0.9657424688339233,0.25230613350868225,0.39562010765075684,-0.07792854309082031
