nimar13/UR3e_dataset_trayectorias/trayectorias_ejecutadas/trapezoidal/trayectoria_068_result.csv
timestamp,q1,q2,q3,q4,q5,q6,qd1,qd2,qd3,qd4,qd5,qd6,tau1,tau2,tau3,tau4,tau5,tau6
1749048073.9582953,0.09304682910442352,-1.8149339161314906,2.215389076863424,-3.6787764034666957,4.4788994789123535,5.307201862335205,0.00046232453314587474,-0.001651526428759098,0.0005725156515836716,-0.011747905984520912,0.007312070112675428,0.013978508301079273,0.2532929480075836,-0.7834493517875671,-0.8252974152565002,-0.5223335027694702,0.21331150829792023,0.1435217559337616
1749048073.9583416,0.09305508434772491,-1.814906736413473,2.2153542677508753,-3.6788202724852503,4.4789276123046875,5.307194232940674,0.0004943894455209374,-0.0013481186470016837,0.0005869191372767091,-0.010053262114524841,0.004836114589124918,0.013015346601605415,0.25126445293426514,-0.7805535197257996,-0.8381163477897644,-0.5121858716011047,0.18783868849277496,0.13574081659317017
1749048073.9583824,0.09302003681659698,-1.814911504785055,2.215341869984762,-3.678840299645895,4.478942394256592,5.307225704193115,0.0004600818210747093,-0.0010611716425046325,0.0005393559113144875,-0.007537355646491051,0.003244788618758321,0.011772708967328072,0.27832090854644775,-0.796577513217926,-0.8306577205657959,-0.5065566897392273,0.17949621379375458,0.13905540108680725
1749048073.9584215,0.09302003681659698,-1.814911504785055,2.215341869984762,-3.678840299645895,4.478942394256592,5.307225704193115,0.0004600818210747093,-0.0010611716425046325,0.0005393559113144875,-0.007537355646491051,0.003244788618758321,0.011772708967328072,0.27832090854644775,-0.796577513217926,-0.8306577205657959,-0.5065566897392273,0.17949621379375458,0.13905540108680725
1749048073.9584591,0.09302734583616257,-1.8149153194823207,2.215341869984762,-3.6788364849486292,4.4788994789123535,5.307249546051025,0.00042404505074955523,-0.0008553677471354604,0.0005668956437148154,-0.0052459086291491985,0.002227775054052472,0.009921353310346603,0.2514081597328186,-0.8075898289680481,-0.8408178091049194,-0.49300041794776917,0.17357398569583893,0.12623664736747742
1749048073.9584968,0.09304320067167282,-1.8149424992003382,2.215358082448141,-3.67882837871694,4.478864669799805,5.3072733879089355,0.00042751594446599483,-0.0007429584511555731,0.0004846275260206312,-0.0021363573614507914,0.0005415352643467486,0.005503436550498009,0.2527189254760742,-0.7931721806526184,-0.8299108743667603,-0.4647121727466583,0.1620694249868393,0.11115828156471252
1749048073.9585345,0.09303098171949387,-1.8149119816222132,2.2153542677508753,-3.67882837871694,4.478947639465332,5.307265758514404,0.00040038066799752414,-0.0007610836764797568,0.0005054820794612169,-0.0015286363195627928,0.00037526682717725635,0.003495127195492387,0.28528693318367004,-0.7828617691993713,-0.8189786076545715,-0.4433682858943939,0.15075354278087616,0.09909766912460327
1749048073.9585724,0.0929962620139122,-1.8149529896178187,2.215322796498434,-3.67882837871694,4.478951454162598,5.307265758514404,0.00042475416557863355,-0.0007669508922845125,0.0004794123233295977,-0.001031439402140677,0.00030141405295580626,0.0014270753599703312,0.29317229986190796,-0.794714629650116,-0.834002673625946,-0.4624123275279999,0.13363492488861084,0.10650163888931274
1749048073.9586096,0.09304319322109222,-1.8149424992003382,2.2153542677508753,-3.67882837871694,4.478880405426025,5.307300567626953,0.00040590146090835333,-0.0006948584341444075,0.0004499348870012909,-0.0008135821553878486,0.0001673628721619025,0.0007041281787678599,0.29338011145591736,-0.7974699139595032,-0.833051860332489,-0.44519808888435364,0.1386653482913971,0.09974345564842224
1749048073.9586473,0.09302367269992828,-1.814970155755514,2.215358082448141,-3.6788321934142054,4.47890043258667,5.3072733879089355,0.0003842982987407595,-0.0006033121608197689,0.00042466961895115674,-0.0005886952858418226,5.712508936994709e-05,0.00047048728447407484,0.26810091733932495,-0.8032389283180237,-0.8320782780647278,-0.43214407563209534,0.11887119710445404,0.07102808356285095
1749048073.9586854,0.09300445020198822,-1.8149649105467738,2.2153542677508753,-3.678824564019674,4.478954792022705,5.307300567626953,0.0003651910519693047,-0.0006347227608785033,0.0004216714296489954,-0.0004155459173489362,1.0094602657773066e-05,0.00036352063762024045,0.28650879859924316,-0.7961053848266602,-0.8396820425987244,-0.42748668789863586,0.12396779656410217,0.05837157368659973
1749048073.9587228,0.09301180392503738,-1.8149529896178187,2.2153471151935022,-3.678824564019674,4.478930950164795,5.307288646697998,0.0003453847311902791,-0.0005707964883185923,0.0004445872036740184,-0.0003265229461248964,1.7838224266597535e-06,0.0001820510224206373,0.2678840756416321,-0.7754135727882385,-0.8411647081375122,-0.42319098114967346,0.10354016721248627,0.0528547465801239
1749048073.9587696,0.09300810098648071,-1.8149544201292933,2.215365711842672,-3.678812643090719,4.478942394256592,5.30726957321167,0.00032085026032291353,-0.0005162356537766755,0.00042712080175988376,0.00016693654470145702,3.152201770717511e-07,9.18762234505266e-05,0.28899675607681274,-0.8088933825492859,-0.826409637928009,-0.4130946099758148,0.09635050594806671,0.03485044836997986
1749048073.958808,0.09302008152008057,-1.8149424992003382,2.2153542677508753,-3.678812643090719,4.478946208953857,5.3072733879089355,0.0003587661776691675,-0.0004711761139333248,0.0004540196678135544,0.00038144871359691024,5.570271355281875e-08,1.6235493603744544e-05,0.28104615211486816,-0.8048678040504456,-0.826094388961792,-0.41474154591560364,0.07345546782016754,0.030762284994125366
1749048073.9588454,0.09303953498601913,-1.8148995838561,2.2153542677508753,-3.6788040600218714,4.478950023651123,5.307241916656494,0.0003369420301169157,-0.0005031927721574903,0.0004308211209718138,0.001456220867112279,9.843254211716612e-09,2.8689823921013158e-06,0.2838602662086487,-0.7985690236091614,-0.8394209742546082,-0.41659632325172424,0.0677095428109169,0.010596886277198792
1749048073.958882,0.09301181882619858,-1.8149682484068812,2.215372864400045,-3.678807874719137,4.478880405426025,5.307281494140625,0.00036948241177015007,-0.00046798711991868913,0.00040368802729062736,0.0019770825747400522,-0.001036067376844585,5.069792905487702e-07,0.25716841220855713,-0.8146981596946716,-0.8299909234046936,-0.40021345019340515,0.06693634390830994,0.021256238222122192
1749048073.9589188,0.09303460270166397,-1.8149119816222132,2.2153504530536097,-3.6788040600218714,4.478923797607422,5.3072614669799805,0.00039434913196600974,-0.0004958378849551082,0.0003794188960455358,0.0022377490531653166,-0.001399340108036995,-0.0010331572266295552,0.2984987199306488,-0.8119311928749084,-0.8444787263870239,-0.41606178879737854,0.0646589994430542,0.0018333643674850464
1749048073.9589663,0.0930623859167099,-1.814911504785055,2.215381924306051,-3.6788040600218714,4.478915214538574,5.3072190284729,0.0003794586518779397,-0.0004689368943218142,0.00040208682185038924,0.002071375958621502,-0.0019432682311162353,-0.0022195400670170784,0.2645343542098999,-0.8090644478797913,-0.8407217860221863,-0.4127892255783081,0.07101219147443771,0.01437029242515564
1749048073.9590125,0.0930153951048851,-1.8149682484068812,2.2153504530536097,-3.678800245324606,4.478887557983398,5.307257652282715,0.0005661982577294111,-0.00044392066774889827,0.00038652162766084075,0.0017475468339398503,-0.001620627474039793,-0.0030012615025043488,0.275756299495697,-0.7807572484016418,-0.8421729207038879,-0.4064667522907257,0.08357502520084381,0.018359273672103882
1749048073.9590514,0.09305045753717422,-1.8149081669249476,2.215365711842672,-3.678784032861227,4.4788923263549805,5.3072686195373535,0.0005049495957791805,-0.0005390651640482247,0.00036721554351970553,0.001640039263293147,-0.001344087882898748,-0.002677184995263815,0.2571347951889038,-0.8143967390060425,-0.8419107794761658,-0.4069708287715912,0.06449504941701889,0.011436313390731812
1749048073.959219,0.09303096681833267,-1.8149506054320277,2.2153781096087855,-3.678843160668844,4.478883743286133,5.307249546051025,0.0005155002581886947,-0.0005990747595205903,0.00040476673166267574,0.0014779865741729736,-0.0011825927067548037,-0.0023345097433775663,0.2779943346977234,-0.8242425322532654,-0.8363328576087952,-0.3979130685329437,0.0731741413474083,0.004255533218383789
1749048073.9608057,0.09306696802377701,-1.8149267635741175,2.215381924306051,-3.6788274250426234,4.478915214538574,5.307257652282715,0.0004945736727677286,-0.001690069679170847,0.0003795043157879263,0.0014170713257044554,-0.0010081544751301408,-0.001890672487206757,0.26322901248931885,-0.7947583794593811,-0.8438123464584351,-0.389788419008255,0.06634081900119781,-0.0007793903350830078
1749048074.0023055,0.09299623221158981,-1.814970155755514,2.2153618971454065,-3.6787926159300746,4.47886848449707,5.30724573135376,0.0004533012106548995,-0.002455292735248804,0.00040200253715738654,0.0013838151935487986,-0.0009386269957758486,-0.001542394864372909,0.2675378918647766,-0.8043227791786194,-0.8384173512458801,-0.3965303301811218,0.07038851082324982,0.004044368863105774
1749048074.0023553,0.09302365779876709,-1.8149305782713832,2.2153618971454065,-3.6788112125792445,4.478903293609619,5.307218074798584,0.0004181682306807488,-0.0020155019592493773,0.0003890457737725228,0.001493191928602755,-0.0008638513972982764,-0.0015089325606822968,0.27621161937713623,-0.791252076625824,-0.8390385508537292,-0.37717530131340027,0.07470142841339111,-0.0044408440589904785
1749048074.0023959,0.09303948283195496,-1.814970155755514,2.2153504530536097,-3.678749223748678,4.478903293609619,5.307233810424805,0.00038812682032585144,-0.0017437085043638945,0.0003933130647055805,0.0014663676265627146,-0.000777051318436861,-0.0014911923790350556,0.2667233943939209,-0.7987625002861023,-0.8358021378517151,-0.37609246373176575,0.07311338186264038,-0.01085248589515686
1749048074.002435,0.09301181137561798,-1.8149391613402308,2.2153504530536097,-3.6787802181639613,4.4788994789123535,5.307233810424805,0.00036209632526151836,-0.0014049046440050006,0.0003957361914217472,0.0013713515363633633,-0.0006020947475917637,-0.001543540507555008,0.26449188590049744,-0.802827000617981,-0.8376432061195374,-0.3919275104999542,0.0809365063905716,-0.010337427258491516
1749048074.0024729,0.09307429194450378,-1.8149272404112757,2.2153971830951136,-3.67879643062734,4.478871822357178,5.307237148284912,0.00033932345104403794,-0.000962614722084254,0.00037401047302410007,0.001210919814184308,-0.0004840829933527857,-0.0018186569213867188,0.2561335563659668,-0.8261330723762512,-0.827314555644989,-0.40075942873954773,0.08086167275905609,-0.019978612661361694
1749048074.0025146,0.09301641583442688,-1.8149544201292933,2.2153504530536097,-3.678784032861227,4.4788994789123535,5.307206153869629,0.0003192728036083281,-0.0010492169531062245,0.00039031688356772065,0.001046336954459548,-0.00045688007958233356,-0.001951801124960184,0.23748697340488434,-0.7968812584877014,-0.8315408825874329,-0.38163283467292786,0.07606129348278046,-0.0015740394592285156
1749048074.0025527,0.09304319322109222,-1.8149825535216273,2.215358559285299,-3.6787644825377406,4.478887557983398,5.30722188949585,0.00030144714401103556,-0.001071884878911078,0.0003813118673861027,0.0008652192773297429,-0.0004571645986288786,-0.002171027008444071,0.26661163568496704,-0.8056620955467224,-0.8308419585227966,-0.3951919972896576,0.08085885643959045,0.005508258938789368
1749048074.002591,0.0930468812584877,-1.8149787388243617,2.215365711842672,-3.678784032861227,4.478887557983398,5.3071980476379395,0.00028549725539050996,-0.0013808341464027762,0.0003646561235655099,0.0007148851291276515,-0.00042781804222613573,-0.0020017381757497787,0.2765628695487976,-0.8070873618125916,-0.8312607407569885,-0.396271288394928,0.08426983654499054,0.009055078029632568
1749048074.0026288,0.09303951263427734,-1.8149424992003382,2.2153618971454065,-3.6787644825377406,4.478891372680664,5.307240962982178,0.0002711686829570681,-0.001298451446928084,0.0004156782815698534,0.0006142122438177466,-0.00039749618736095726,-0.001704066526144743,0.25905323028564453,-0.8109480738639832,-0.8326623439788818,-0.3895086348056793,0.06654366850852966,-0.007369279861450195
1749048074.0026665,0.09302002936601639,-1.8149787388243617,2.215365711842672,-3.6787873707213343,4.478887557983398,5.30722188949585,0.00025820211158134043,-0.00123372464440763,0.0004229613405186683,0.0005395784974098206,-0.00037038340815342963,-0.0013204615097492933,0.26192325353622437,-0.8229004144668579,-0.8276023864746094,-0.4023664891719818,0.08918584883213043,-8.147954940795898e-05
1749048074.0027037,0.09305879473686218,-1.8150044880309046,2.215381924306051,-3.6787802181639613,4.478941917419434,5.307225704193115,0.00024641110212542117,-0.001141841639764607,0.00042400951497256756,0.00048145046457648277,-0.0003466197813395411,-0.0010126284323632717,0.2723373770713806,-0.8187006115913391,-0.8178591728210449,-0.39885756373405457,0.08597062528133392,0.0012938082218170166
1749048074.002741,0.09306696057319641,-1.8149944744505824,2.215365711842672,-3.678768297235006,4.478903293609619,5.307214736938477,0.00023566422169096768,-0.0012175143929198384,0.00039517690311186016,0.00043471588287502527,-0.00032569238101132214,-0.0009350700420327485,0.2617618441581726,-0.8027392029762268,-0.8265807032585144,-0.38408926129341125,0.066979318857193,-0.012522995471954346
1749048074.0027816,0.09300092607736588,-1.8149668178954066,2.215381924306051,-3.6787644825377406,4.47886848449707,5.307237148284912,0.00022580909717362374,-0.0011652936227619648,0.000425468577304855,0.00039628008380532265,-0.000307136622723192,-0.0008232129039242864,0.2585405111312866,-0.8206520676612854,-0.8240582942962646,-0.40913131833076477,0.06269878149032593,0.0014032423496246338
1749048074.0028188,0.09305141866207123,-1.8150063953795375,2.21537429491152,-3.678784032861227,4.478875637054443,5.307194232940674,0.00021673957235179842,-0.0011396677000448108,0.0004443427314981818,0.0003641266084741801,-0.0002905957808252424,-0.000802036200184375,0.26434457302093506,-0.8052076101303101,-0.8124859929084778,-0.38325488567352295,0.06877800077199936,0.0026621967554092407
1749048074.0028586,0.09302735328674316,-1.8149715862669886,2.2154057661639612,-3.6787873707213343,4.478871822357178,5.3071980476379395,0.00023208967468235642,-0.001115906983613968,0.0005300824996083975,0.000336808298015967,-0.00027574351406656206,-0.0007338837604038417,0.25403714179992676,-0.7875890135765076,-0.8107870817184448,-0.3934338092803955,0.08906397223472595,-0.008778601884841919
1749048074.0028963,0.09303227066993713,-1.8149858913817347,2.2153618971454065,-3.6787644825377406,4.478883743286133,5.3072099685668945,0.00023396959295496345,-0.001044121803715825,0.0006421224679797888,0.0003486707282718271,-0.00026232932577840984,-0.0006611205753870308,0.2652750015258789,-0.8215094804763794,-0.8110746741294861,-0.39421287178993225,0.08844691514968872,0.0022792816162109375
1749048074.0029325,0.09306438267230988,-1.8149858913817347,2.215393845235006,-3.678768297235006,4.4788994789123535,5.307260036468506,0.00022568553686141968,-0.0009327583247795701,0.0006754309870302677,0.00034663485712371767,-0.000250171433435753,-0.0006465721526183188,0.2694939970970154,-0.8167069554328918,-0.826505720615387,-0.38802570104599,0.07961598038673401,-0.009706959128379822
1749048074.0029693,0.09302367269992828,-1.8149873218932093,2.215358559285299,-3.6787573299803675,4.478903293609619,5.307229042053223,0.00021788617596030235,-0.0009275600896216929,0.0007100434158928692,0.0003290986642241478,-0.0002390879817539826,-0.0006182676297612488,0.2349502593278885,-0.8318609595298767,-0.8211351037025452,-0.3919355869293213,0.07572335004806519,-0.00035941600799560547
1749048074.003006,0.09303951263427734,-1.8149868450560511,2.2154057661639612,-3.6787644825377406,4.4788994789123535,5.307194232940674,0.00021060196741018444,-0.0009703994728624821,0.0009712207829579711,0.00031077180756255984,-0.00022893978166393936,-0.000573755067307502,0.2724083662033081,-0.8114917874336243,-0.8330763578414917,-0.3901728093624115,0.08560681343078613,-0.007521972060203552
1749048074.0030422,0.09304416924715042,-1.8149973354735316,2.2154091040240687,-3.6788035831847132,4.4788923263549805,5.307237148284912,0.00020378537010401487,-0.0009926442289724946,0.0010398384183645248,0.0002939539263024926,-0.0002196268324041739,-0.0005320784403011203,0.2577449083328247,-0.8164145350456238,-0.8451029062271118,-0.4177696704864502,0.08905094861984253,-0.007822230458259583
1749048074.0031526,0.09305506944656372,-1.8150063953795375,2.2154091040240687,-3.6787802181639613,4.4789347648620605,5.307225704193115,0.0001974038314074278,-0.000989096937701106,0.0008945003501139581,0.000278783671092242,-0.00021103949984535575,-0.000495571584906429,0.2791055142879486,-0.8148037791252136,-0.8235302567481995,-0.4102303683757782,0.08819986879825592,-0.01571071147918701
1749048074.004784,0.09302492439746857,-1.8149939976134242,2.215386215840475,-3.6787802181639613,4.478849411010742,5.307237148284912,0.00019140608492307365,-0.0011320741614326835,0.0008870403980836272,0.0002650853421073407,-0.00020309447427280247,-0.00046363830915652215,0.23926256597042084,-0.8193038105964661,-0.8370492458343506,-0.3875889182090759,0.08648771047592163,-0.029014229774475098
1749048074.046278,0.09308984130620956,-1.81500305751943,2.2154091040240687,-3.6787802181639613,4.478887557983398,5.30721378326416,0.00018575869034975767,-0.0012366499286144972,0.0007842501509003341,0.0002526746247895062,-0.00019573232566472143,-0.00043552397983148694,0.2813653349876404,-0.8128452301025391,-0.8298625946044922,-0.3985876142978668,0.0967978984117508,-0.0024065375328063965
1749048074.0463247,0.09311755001544952,-1.81500305751943,2.2154091040240687,-3.6787997684874476,4.478895664215088,5.307178974151611,0.00019805952615570277,-0.0012146690860390663,0.000697656418196857,0.00024137287982739508,-0.00018888362683355808,-0.0004124334955122322,0.2770726680755615,-0.8224971294403076,-0.8343625664710999,-0.4088367819786072,0.09860576689243317,0.0025465190410614014
1749048074.046365,0.09302005171775818,-1.8150531254210414,2.2154091040240687,-3.6787802181639613,4.478887557983398,5.307194232940674,0.0002011549222515896,-0.0018851804779842496,0.0007113023311831057,0.00023103576677385718,-0.00018249450658913702,-0.00031387718627229333,0.29042482376098633,-0.7916953563690186,-0.8542072176933289,-0.39994463324546814,0.09003688395023346,-0.030429750680923462
1749048074.0464041,0.09303587675094604,-1.8150254688658656,2.215386215840475,-3.6787802181639613,4.478903293609619,5.307194232940674,0.000200209382455796,-0.003178262384608388,0.0006522397743538022,0.00022155322949402034,-0.00017652886162977666,-0.000281717861071229,0.3087093234062195,-0.7863168716430664,-0.8644952178001404,-0.40073397755622864,0.08619947731494904,-0.013604804873466492
1749048074.0464423,0.09304416179656982,-1.81500305751943,2.2154176870929163,-3.678768297235006,4.4789137840271,5.30721378326416,0.0025832245592027903,-0.0026107975281774998,0.0005982880247756839,0.0002128169871866703,-0.0001709394418867305,-0.0003005660546477884,0.3171762228012085,-0.7849487662315369,-0.8533821702003479,-0.40018823742866516,0.07375487685203552,-0.012436211109161377
1749048074.0464807,0.09305141866207123,-1.8149873218932093,2.2154129187213343,-3.678768297235006,4.478911399841309,5.3072099685668945,0.00456977030262351,-0.002302733715623617,0.0005524083389900625,0.0002047421148745343,-0.00016569049330428243,-0.00035239808494225144,0.29410573840141296,-0.837619423866272,-0.8748802542686462,-0.38990646600723267,0.07901237905025482,-0.034881025552749634
1749048074.0465212,0.09306695312261581,-1.8150416813292445,2.2153900305377405,-3.6787334881224574,4.47885274887085,5.307194232940674,0.005172145087271929,-0.0019243586575612426,0.00046588407712988555,0.00021605982328765094,-0.00018008223560173064,-0.0007661589770577848,0.32922202348709106,-0.8378085494041443,-0.8889970183372498,-0.38394132256507874,0.05984947085380554,-0.05109493434429169
1749048074.0465586,0.09304417669773102,-1.815014501611227,2.2154210249530237,-3.678768297235006,4.478906631469727,5.307178974151611,0.005695583764463663,-0.002048048423603177,0.00042009883327409625,0.0002195365959778428,-0.0001898348709801212,-0.002026298549026251,0.3369489312171936,-0.8272168636322021,-0.8989182114601135,-0.3919302523136139,0.06039000302553177,-0.055017054080963135
1749048074.0465968,0.09309109300374985,-1.81500305751943,2.21537429491152,-3.6787873707213343,4.478891372680664,5.307217121124268,0.007308706641197205,-0.0031029051169753075,0.00039294338785111904,0.00023955349752213806,-0.00018940270820166916,-0.004139701370149851,0.3812112808227539,-0.817461371421814,-0.9121360182762146,-0.36537477374076843,0.025355249643325806,-0.055809974670410156
1749048074.0466342,0.09309574216604233,-1.8150307140746058,2.215393845235006,-3.678772111932272,4.478887557983398,5.307186126708984,0.0107191177085042,-0.0039185648784041405,0.00036980491131544113,0.00021449488122016191,-0.00023185454483609647,-0.006140942219644785,0.366738498210907,-0.8063938021659851,-0.9314526319503784,-0.34545212984085083,0.0025629177689552307,-0.0653645247220993
1749048074.0466714,0.09313046932220459,-1.8149992428221644,2.2154019514666956,-3.678749223748678,4.478910446166992,5.307174205780029,0.011680522933602333,-0.003832717891782522,0.00018434804223943502,0.00024694326566532254,-0.002532404847443104,-0.007906856946647167,0.374606728553772,-0.8083443641662598,-0.9420766830444336,-0.35139378905296326,-0.004121124744415283,-0.08177565038204193
1749048074.0467086,0.09311127662658691,-1.8150416813292445,2.2153900305377405,-3.6787601910033167,4.478806495666504,5.307138442993164,0.011188462376594543,-0.002907703397795558,0.00012130972754675895,0.0014356572646647692,-0.0040625617839396,-0.010808829218149185,0.38689664006233215,-0.8156248331069946,-0.9454197287559509,-0.3310852348804474,-0.008152276277542114,-0.0699826329946518
1749048074.0467458,0.0932207927107811,-1.815038343469137,2.21537429491152,-3.6787601910033167,4.478867530822754,5.307122230529785,0.015170305967330933,-0.0025552569422870874,5.922453783568926e-05,0.0027504367753863335,-0.004569546785205603,-0.012911916710436344,0.3760756254196167,-0.815199077129364,-0.9514004588127136,-0.32916805148124695,-0.02665579877793789,-0.08680818974971771
1749048074.0467827,0.09318690001964569,-1.8150230846800746,2.215367142354147,-3.678744455377096,4.478843688964844,5.307134628295898,0.017056941986083984,-0.0022527731489390135,7.280468253156869e-06,0.0039589740335941315,-0.005355025175958872,-0.014786537736654282,0.384368896484375,-0.8223087191581726,-0.9767045378684998,-0.3208616375923157,-0.045200422406196594,-0.10094545036554337
1749048074.0468202,0.09320342540740967,-1.8150702915587367,2.215393845235006,-3.6787129841246546,4.478858947753906,5.307098388671875,0.018325064331293106,-0.002521117916330695,4.7536255465274735e-07,0.004766331985592842,-0.006898015271872282,-0.0165067408233881,0.36119967699050903,-0.8339303731918335,-1.0010571479797363,-0.32093706727027893,-0.06621217727661133,-0.10295898467302322
1749048074.0468574,0.09327421337366104,-1.8150469265379847,2.2154091040240687,-3.6787201366820277,4.478843688964844,5.307071208953857,0.020273488014936447,-0.0033260222990065813,3.1037782122211865e-08,0.005677387118339539,-0.01003700215369463,-0.019977683201432228,0.38490092754364014,-0.8023158311843872,-1.016084909439087,-0.31749165058135986,-0.08458372950553894,-0.08134810626506805
1749048074.0468948,0.09330994635820389,-1.8150159321227015,2.2153971830951136,-3.6787201366820277,4.478761672973633,5.307050704956055,0.021998872980475426,-0.0031799953430891037,-0.0023018717765808105,0.006389286834746599,-0.012335277162492275,-0.022566603496670723,0.37457752227783203,-0.7945515513420105,-1.0390210151672363,-0.291374146938324,-0.11014179140329361,-0.09609101712703705
1749048074.046932,0.09336183220148087,-1.8150817356505335,2.2153900305377405,-3.678680559197897,4.478761196136475,5.30705451965332,0.022171098738908768,-0.0028012909460812807,-0.003051628591492772,0.007974422536790371,-0.014917654916644096,-0.023122290149331093,0.3586955666542053,-0.8306531310081482,-1.0393414497375488,-0.2808932363986969,-0.08501420170068741,-0.06516425311565399
1749048074.0469694,0.09340613335371017,-1.8150707683958949,2.2153618971454065,-3.6786567173399867,4.4787092208862305,5.3070068359375,0.021803908050060272,-0.0022803274914622307,-0.002996975788846612,0.009615985676646233,-0.016746971756219864,-0.02271718718111515,0.34691333770751953,-0.7844250798225403,-1.0702550411224365,-0.2837662994861603,-0.08225490897893906,-0.07288477569818497
1749048074.0470073,0.09340613335371017,-1.8150707683958949,2.2153618971454065,-3.6786567173399867,4.4787092208862305,5.3070068359375,0.021803908050060272,-0.0022803274914622307,-0.002996975788846612,0.009615985676646233,-0.016746971756219864,-0.02271718718111515,0.34691333770751953,-0.7844250798225403,-1.0702550411224365,-0.2837662994861603,-0.08225490897893906,-0.07288477569818497
1749048074.047114,0.09351754933595657,-1.8151022396483363,2.21537429491152,-3.678608556787008,4.478684425354004,5.306924343109131,0.023151470348238945,-0.001321675954386592,-0.0029774042777717113,0.011866815388202667,-0.018906788900494576,-0.0211415383964777,0.3245192766189575,-0.7998039126396179,-1.1163567304611206,-0.26548346877098083,-0.08822363615036011,-0.14075306057929993
1749048074.048778,0.09352211654186249,-1.8150936565794886,2.2153618971454065,-3.678612371484274,4.4786763191223145,5.306926727294922,0.023087378591299057,-0.0012248794082552195,-0.00491796201094985,0.012756254523992538,-0.018476953729987144,-0.0221512820571661,0.34184029698371887,-0.7955679893493652,-1.1121208667755127,-0.27151790261268616,-0.06892101466655731,-0.12553253769874573
1749048074.0902927,0.09357856214046478,-1.8150869808592738,2.2153471151935022,-3.6785575352110804,4.478593826293945,5.306883335113525,0.022994032129645348,-0.0011711365077644587,-0.007759053725749254,0.014038867317140102,-0.016589615494012833,-0.023135725408792496,0.3391161262989044,-0.7857128977775574,-1.1279959678649902,-0.25827711820602417,-0.08970212936401367,-0.14004328846931458
1749048074.0903707,0.09361696243286133,-1.8150836429991664,2.2153380552874964,-3.6785336933531703,4.47858190536499,5.306816577911377,0.023567482829093933,-0.001018927781842649,-0.00793601293116808,0.014379085972905159,-0.016264235600829124,-0.026310762390494347,0.36154067516326904,-0.7849293947219849,-1.1339225769042969,-0.24571311473846436,-0.11053633689880371,-0.15180958807468414
1749048074.090437,0.09366563707590103,-1.8151022396483363,2.215310875569479,-3.678509374658102,4.478549003601074,5.3068084716796875,0.024565041065216064,-0.0008004286210052669,-0.007684424985200167,0.014555811882019043,-0.017562609165906906,-0.027925709262490273,0.3299236595630646,-0.7597506642341614,-1.1559542417526245,-0.28059080243110657,-0.1142619401216507,-0.12864559888839722
1749048074.090503,0.09369801729917526,-1.8150989017882289,2.2152989546405237,-3.678488870660299,4.478525161743164,5.306732654571533,0.02471875585615635,-0.0006463993340730667,-0.008717630058526993,0.014831080101430416,-0.01758578047156334,-0.0298366267234087,0.31865155696868896,-0.7713504433631897,-1.1651378870010376,-0.2571013569831848,-0.10350342839956284,-0.14501547813415527
1749048074.0905704,0.09376545250415802,-1.8150955639281214,2.2152941862689417,-3.678445955316061,4.478552341461182,5.3066887855529785,0.025020984932780266,-0.0005648129736073315,-0.010296126827597618,0.014619296416640282,-0.018243689090013504,-0.029925944283604622,0.34888213872909546,-0.7617611289024353,-1.1679911613464355,-0.2630564570426941,-0.1255195438861847,-0.15026868879795074
1749048074.0906408,0.09384904056787491,-1.8150836429991664,2.2152980009662073,-3.678432603875631,4.478481292724609,5.306644439697266,0.027536798268556595,-0.0005017869989387691,-0.01125054620206356,0.014200770296156406,-0.019760865718126297,-0.03229958936572075,0.32763004302978516,-0.7492340207099915,-1.1630456447601318,-0.2587186098098755,-0.13457754254341125,-0.1838812530040741
1749048074.0907102,0.09388872981071472,-1.8150459728636683,2.215274159108297,-3.678427835504049,4.478433609008789,5.306572914123535,0.027956156060099602,-0.00045142750605009496,-0.012067542411386967,0.01414817851036787,-0.02054610662162304,-0.034125298261642456,0.3492388427257538,-0.756179928779602,-1.1448686122894287,-0.2541571855545044,-0.14409378170967102,-0.18081134557724
1749048074.090783,0.0939643606543541,-1.8150598011412562,2.215234104787008,-3.678362031976217,4.478397846221924,5.306481838226318,0.028237950056791306,-0.00041025280370377004,-0.011972453445196152,0.013804811052978039,-0.02235841564834118,-0.03673834726214409,0.33397558331489563,-0.7458330988883972,-1.1585111618041992,-0.24874837696552277,-0.15650808811187744,-0.16952729225158691
1749048074.0908525,0.09396899491548538,-1.8150941334166468,2.215222183858053,-3.678356786767477,4.478318691253662,5.306402206420898,0.027747469022870064,-0.00030157240689732134,-0.012030454352498055,0.01434890553355217,-0.024572892114520073,-0.040451738983392715,0.37064695358276367,-0.7490755319595337,-1.1892725229263306,-0.227219820022583,-0.16243308782577515,-0.18654075264930725
1749048074.090921,0.09400204569101334,-1.8150631390013636,2.215182606373922,-3.6783019504942835,4.478298187255859,5.306334972381592,0.03023763932287693,-0.00027758293435908854,-0.013373706489801407,0.014765295200049877,-0.02612980268895626,-0.042277175933122635,0.38335907459259033,-0.7405585646629333,-1.1792539358139038,-0.22209447622299194,-0.17486175894737244,-0.1796129047870636
1749048074.0909903,0.09413933753967285,-1.8150526485838832,2.2151549498187464,-3.6782967052855433,4.478255271911621,5.306258678436279,0.03279830142855644,-0.000257701933151111,-0.013827826827764511,0.016100995242595673,-0.030004052445292473,-0.04362264648079872,0.34203121066093445,-0.7336466312408447,-1.1727725267410278,-0.23516374826431274,-0.17416097223758698,-0.17826497554779053
1749048074.0910604,0.09416405111551285,-1.815106054345602,2.2151311079608362,-3.678260942498678,4.478175640106201,5.306124687194824,0.03351787477731705,-0.00024048396153375506,-0.014445606619119644,0.01705951988697052,-0.03329189866781235,-0.045138586312532425,0.36049339175224304,-0.7148638367652893,-1.1676210165023804,-0.2238387167453766,-0.15474967658519745,-0.19861136376857758
1749048074.0911295,0.09425164014101028,-1.8150903187193812,2.2151101271258753,-3.6782528362669886,4.478150367736816,5.30606746673584,0.035662390291690826,-0.0002254225837532431,-0.014523307792842388,0.017692700028419495,-0.034851476550102234,-0.04694315791130066,0.3823300898075104,-0.7042450308799744,-1.1912662982940674,-0.20201881229877472,-0.15094506740570068,-0.19956395030021667
1749048074.0911987,0.09430055320262909,-1.8150869808592738,2.2150900999652308,-3.6782013378539027,4.478071212768555,5.305925369262695,0.037605512887239456,-0.00021213757281657308,-0.015188926830887794,0.018529240041971207,-0.03578812628984451,-0.050531551241874695,0.3595184087753296,-0.7128526568412781,-1.2008576393127441,-0.22134007513523102,-0.1829201877117157,-0.20347097516059875
1749048074.0912688,0.09438791126012802,-1.8151022396483363,2.2150505224811,-3.6781650982298792,4.478015422821045,5.305841445922852,0.03674723207950592,-0.00015076583076734096,-0.015842948108911514,0.019450584426522255,-0.03756946697831154,-0.05332095921039581,0.40050408244132996,-0.6912173628807068,-1.2095470428466797,-0.20138004422187805,-0.1666887253522873,-0.20257416367530823
1749048074.0913372,0.09452980011701584,-1.8150745830931605,2.215022865925924,-3.6781217060484828,4.477904796600342,5.305725574493408,0.03823618218302727,-0.0001423324429197237,-0.01624705083668232,0.020953180268406868,-0.03906012699007988,-0.05526150390505791,0.4043251574039459,-0.689166784286499,-1.210492730140686,-0.19918477535247803,-0.18614722788333893,-0.18860866129398346
1749048074.091405,0.0945749506354332,-1.8151022396483363,2.214987103139059,-3.678077837029928,4.477876663208008,5.305642127990723,0.0405152328312397,-0.00013519995263777673,-0.017357347533106804,0.023299653083086014,-0.04121898114681244,-0.057054150849580765,0.3835632801055908,-0.6861312985420227,-1.2201330661773682,-0.21163029968738556,-0.1948351263999939,-0.20217017829418182
1749048074.0914567,0.09463970363140106,-1.8150903187193812,2.2149437109576624,-3.677995344201559,4.477793216705322,5.305519104003906,0.043174441903829575,-0.0001287523191422224,-0.017307527363300323,0.023961732164025307,-0.04348234087228775,-0.058586496859788895,0.3783861994743347,-0.6612229943275452,-1.2266292572021484,-0.19323839247226715,-0.19619543850421906,-0.20792783796787262
1749048074.0914965,0.09476163238286972,-1.8150526485838832,2.2149112860309046,-3.6779819927611292,4.477646827697754,5.305391311645508,0.0444527342915535,8.672755939187482e-05,-0.018243586644530296,0.02515675127506256,-0.04488176479935646,-0.060625992715358734,0.35928046703338623,-0.6779249310493469,-1.2250103950500488,-0.18450717628002167,-0.1927371323108673,-0.20489482581615448
1749048074.091534,0.09482283890247345,-1.8150869808592738,2.2149222532855433,-3.6779185734190882,4.477598190307617,5.305255889892578,0.04505340754985809,0.00010386729991296306,-0.01916027069091797,0.026706384494900703,-0.04643002897500992,-0.06223433464765549,0.4042206406593323,-0.658211886882782,-1.243725061416626,-0.20369718968868256,-0.20395435392856598,-0.2120213508605957
1749048074.0917678,0.09482283890247345,-1.8150869808592738,2.2149222532855433,-3.6779185734190882,4.477598190307617,5.305255889892578,0.04505340754985809,0.00010386729991296306,-0.01916027069091797,0.026706384494900703,-0.04643002897500992,-0.06223433464765549,0.4042206406593323,-0.658211886882782,-1.243725061416626,-0.20369718968868256,-0.20395435392856598,-0.2120213508605957
1749048074.0928118,0.09501822292804718,-1.8150903187193812,2.2148454825030726,-3.677845617333883,4.477391719818115,5.305008411407471,0.04868588596582413,9.330543980468065e-05,-0.021124916151165962,0.028761139139533043,-0.04966107755899429,-0.06494605541229248,0.3946486711502075,-0.6458527445793152,-1.2175166606903076,-0.18060678243637085,-0.20805011689662933,-0.1879601776599884
1749048074.134277,0.09511011838912964,-1.8150869808592738,2.214790646229879,-3.677781721154684,4.477335453033447,5.3048624992370605,0.050027694553136826,0.00012856826651841402,-0.02192557603120804,0.029423562809824944,-0.051918625831604004,-0.06563808768987656,0.3992506265640259,-0.6313033699989319,-1.2239657640457153,-0.18717005848884583,-0.2309798002243042,-0.20997020602226257
1749048074.134324,0.09520592540502548,-1.8150941334166468,2.214719597493307,-3.677718301812643,4.477207660675049,5.304754257202148,0.051212433725595474,0.00012676672486122698,-0.021804021671414375,0.03052217699587345,-0.05362745374441147,-0.06705103069543839,0.40228503942489624,-0.6313608288764954,-1.2439285516738892,-0.16582177579402924,-0.22543224692344666,-0.21793043613433838
1749048074.1343644,0.0953451544046402,-1.8150836429991664,2.2146876494037073,-3.677638670007223,4.477112770080566,5.304594993591309,0.05338181555271149,0.00012112101103411987,-0.02180764079093933,0.0325835682451725,-0.05360238999128342,-0.06792741268873215,0.39860713481903076,-0.6087754368782043,-1.252848744392395,-0.1828995943069458,-0.21563199162483215,-0.2252413034439087
1749048074.134404,0.09544454514980316,-1.8150836429991664,2.2146547476397913,-3.6775666675963343,4.476953983306885,5.30444860458374,0.055422406643629074,0.00015416739915963262,-0.022231994196772575,0.03310397267341614,-0.05429660156369209,-0.07018712162971497,0.39325931668281555,-0.6110739707946777,-1.2545651197433472,-0.18886034190654755,-0.2357328236103058,-0.23619161546230316
1749048074.1344423,0.09555964916944504,-1.815106054345602,2.214630905781881,-3.6775104008116664,4.4768967628479,5.304351329803467,0.05709907412528992,0.0001840570621425286,-0.024521568790078163,0.033240433782339096,-0.05560625344514847,-0.07359171658754349,0.4149538576602936,-0.6004836559295654,-1.2580440044403076,-0.1608496606349945,-0.22956398129463196,-0.24326956272125244
1749048074.1344802,0.09567701816558838,-1.815059324304098,2.2145589033709925,-3.677457948724264,4.476775169372559,5.304184436798096,0.0593079999089241,0.0005228901864029467,-0.025566019117832184,0.03454979509115219,-0.056597933173179626,-0.07499503344297409,0.4105444550514221,-0.5992931723594666,-1.2586643695831299,-0.15486973524093628,-0.23776893317699432,-0.23564384877681732
1749048074.1345227,0.09578379988670349,-1.8150707683958949,2.214511219655172,-3.6773749790587367,4.476662635803223,5.304025173187256,0.05962451919913292,0.0005673316190950572,-0.02583439089357853,0.03643118590116501,-0.0562375970184803,-0.0743873119354248,0.44170358777046204,-0.5839551687240601,-1.2582287788391113,-0.16692613065242767,-0.25192567706108093,-0.27911436557769775
1749048074.1345613,0.09588037431240082,-1.8150435886778773,2.2144597212420862,-3.6772757969298304,4.476543426513672,5.30387020111084,0.06483814865350723,0.0005961687420494854,-0.02609923854470253,0.038111548870801926,-0.057974040508270264,-0.0763433426618576,0.37762686610221863,-0.5920531749725342,-1.2697739601135254,-0.16633285582065582,-0.2547614574432373,-0.2898254692554474
1749048074.1346006,0.09595329314470291,-1.8150817356505335,2.214396301900045,-3.677210947076315,4.476400852203369,5.303698539733887,0.06342270225286484,0.0005784336244687438,-0.02728092484176159,0.04077863320708275,-0.05916551128029823,-0.07935036718845367,0.375178724527359,-0.5693164467811584,-1.2763926982879639,-0.1865450143814087,-0.28718987107276917,-0.27998510003089905
1749048074.134639,0.0961202085018158,-1.815059324304098,2.2143638769732874,-3.677127023736471,4.476269245147705,5.303489685058594,0.0651932805776596,0.001085895812138915,-0.028372958302497864,0.0405183769762516,-0.061014674603939056,-0.08381293714046478,0.43289732933044434,-0.5741609930992126,-1.2656358480453491,-0.1828058362007141,-0.28417232632637024,-0.26582416892051697
1749048074.1346807,0.09629108756780624,-1.815054555932516,2.2143195311175745,-3.677031179467672,4.476144790649414,5.303364276885986,0.06921219080686569,0.0009513229015283287,-0.029082732275128365,0.04042127728462219,-0.06307060271501541,-0.08932116627693176,0.40982988476753235,-0.5842562317848206,-1.268682599067688,-0.17273257672786713,-0.27139604091644287,-0.24764733016490936
1749048074.13473,0.09639551490545273,-1.8150197468199671,2.2142398993121546,-3.676971574822897,4.476030349731445,5.303196907043457,0.06997178494930267,0.0009424444288015366,-0.029604384675621986,0.04091455414891243,-0.06534022837877274,-0.09029597789049149,0.39834243059158325,-0.5722480416297913,-1.2645504474639893,-0.15799345076084137,-0.2839917242527008,-0.2626911401748657
1749048074.1347702,0.09657017141580582,-1.815031190911764,2.214168373738424,-3.676887651483053,4.475948810577393,5.302981853485107,0.07173634320497513,0.0009368560859002173,-0.030477425083518028,0.04223502799868584,-0.0666758120059967,-0.0927925854921341,0.4341503381729126,-0.5510140061378479,-1.285956621170044,-0.17086386680603027,-0.27541711926460266,-0.2585853934288025
1749048074.1348076,0.09668279439210892,-1.8150469265379847,2.21411639848818,-3.676760335961813,4.475790500640869,5.302733421325684,0.07322633266448975,0.0009985456708818674,-0.03235756233334541,0.04504018649458885,-0.06937547028064728,-0.09704278409481049,0.40667247772216797,-0.5401192307472229,-1.2620165348052979,-0.17566362023353577,-0.2799431085586548,-0.2342112511396408
1749048074.1348448,0.09687713533639908,-1.8150783977904261,2.2140682379352015,-3.6767074070372523,4.47567081451416,5.302544593811035,0.07461293786764145,0.0010282404255121946,-0.03204958140850067,0.04483097046613693,-0.07155368477106094,-0.09977266192436218,0.41543304920196533,-0.5321243405342102,-1.2776613235473633,-0.184222012758255,-0.27938729524612427,-0.23218604922294617
1749048074.1348822,0.09702890366315842,-1.8150507412352503,2.213996712361471,-3.676619669000143,4.475489616394043,5.302365303039551,0.07655598223209381,0.001411570468917489,-0.030607832595705986,0.04439554736018181,-0.07225263118743896,-0.10276053100824356,0.4133484661579132,-0.5304189324378967,-1.2856241464614868,-0.1825295090675354,-0.29293981194496155,-0.18869853019714355
1749048074.1349196,0.09718852490186691,-1.815066476861471,2.2139366308795374,-3.676535745660299,4.475368499755859,5.302157402038574,0.0775492936372757,0.0014355722814798355,-0.03089466132223606,0.043498389422893524,-0.0738871619105339,-0.1032390370965004,0.4389289319515228,-0.527377724647522,-1.3014869689941406,-0.1825847029685974,-0.2818555235862732,-0.19403651356697083
1749048074.1349568,0.09735625237226486,-1.815101762811178,2.2139204184161585,-3.6764399013915003,4.475217819213867,5.30192756652832,0.08056189119815826,0.0014552274951711297,-0.032918766140937805,0.04331015422940254,-0.07683668285608292,-0.10340404510498047,0.40713146328926086,-0.5106385946273804,-1.3047653436660767,-0.13732625544071198,-0.2869355082511902,-0.1983495056629181
1749048074.1349943,0.09750820696353912,-1.815038343469137,2.213820759450094,-3.6763717136778773,4.475042343139648,5.301743984222412,0.08150719851255417,0.0015605586813762784,-0.03300557658076286,0.04521983861923218,-0.07996062189340591,-0.10334748774766922,0.4088782072067261,-0.492315411567688,-1.302355170249939,-0.160822793841362,-0.25780922174453735,-0.1992473155260086
1749048074.1350317,0.09760135412216187,-1.815054555932516,2.2137487570392054,-3.6762877903380335,4.474847316741943,5.3015217781066895,0.08302798867225647,0.001711661578156054,-0.03356539085507393,0.04653312638401985,-0.07855414599180222,-0.10293816030025482,0.41484808921813965,-0.49235761165618896,-1.3182764053344727,-0.14676585793495178,-0.2668904960155487,-0.2270786464214325
1749048074.1351376,0.09783138334751129,-1.8150307140746058,2.2137048880206507,-3.676173349420065,4.474669933319092,5.301298141479492,0.0849233865737915,0.002687179483473301,-0.0366130992770195,0.047502677887678146,-0.0800590068101883,-0.10324067622423172,0.423835813999176,-0.5186927318572998,-1.3022432327270508,-0.14462918043136597,-0.27541348338127136,-0.210927814245224
1749048074.1367507,0.09797157347202301,-1.815038343469137,2.213632408772604,-3.676077505151266,4.47456693649292,5.301106929779053,0.08842797577381134,0.0026220977306365967,-0.036404144018888474,0.04754558578133583,-0.08201492577791214,-0.10279145836830139,0.39629676938056946,-0.49634718894958496,-1.3055903911590576,-0.13873519003391266,-0.23624202609062195,-0.2301837056875229
1749048074.1823118,0.09797157347202301,-1.815038343469137,2.213632408772604,-3.676077505151266,4.47456693649292,5.301106929779053,0.08842797577381134,0.0026220977306365967,-0.036404144018888474,0.04754558578133583,-0.08201492577791214,-0.10279145836830139,0.39629676938056946,-0.49634718894958496,-1.3055903911590576,-0.13873519003391266,-0.23624202609062195,-0.2301837056875229
1749048074.1823578,0.09818611294031143,-1.8150268993773402,2.213555637990133,-3.6759849987425746,4.474354267120361,5.300895690917969,0.08662492781877518,0.002407570369541645,-0.03503623232245445,0.048546891659498215,-0.08553632348775864,-0.10334031283855438,0.3980052173137665,-0.5090523362159729,-1.321644902229309,-0.13330477476119995,-0.24493083357810974,-0.2640642523765564
1749048074.1823983,0.09853360801935196,-1.8150106869139613,2.213377300892965,-3.675793310204977,4.474015712738037,5.300513744354248,0.09235747158527374,0.0024854717776179314,-0.039851538836956024,0.05266488716006279,-0.084551140666008,-0.10536430776119232,0.40600016713142395,-0.4845770597457886,-1.2920886278152466,-0.15053725242614746,-0.25287526845932007,-0.2718830704689026
1749048074.1824377,0.09868201613426208,-1.8150307140746058,2.2132743040667933,-3.67569698909902,4.473836421966553,5.300310134887695,0.09229476004838943,0.0024644238874316216,-0.04006887599825859,0.05177072808146477,-0.0853956937789917,-0.10921373218297958,0.410332590341568,-0.485515832901001,-1.2825301885604858,-0.13247749209403992,-0.25010615587234497,-0.2695057988166809
1749048074.1824756,0.0988890677690506,-1.8150340519347132,2.2132213751422327,-3.6756016216673792,4.473695755004883,5.300079822540283,0.09454623609781265,0.0032211903017014265,-0.040632955729961395,0.05135932192206383,-0.08411163836717606,-0.10796066373586655,0.400507390499115,-0.4752134084701538,-1.2889753580093384,-0.13821694254875183,-0.24463671445846558,-0.30020058155059814
1749048074.1825132,0.09908085316419601,-1.8150307140746058,2.213144604359762,-3.675462385217184,4.473489761352539,5.299880027770996,0.09561917185783386,0.004407992586493492,-0.04114840179681778,0.05286123603582382,-0.08682162314653397,-0.11084973067045212,0.39377811551094055,-0.47453558444976807,-1.2869378328323364,-0.11346522718667984,-0.2544134259223938,-0.31488263607025146
1749048074.1825504,0.09922535717487335,-1.8149835071959437,2.2130377928363245,-3.675373693505758,4.473337173461914,5.299594402313232,0.09655210375785828,0.004722871817648411,-0.041623346507549286,0.05511688068509102,-0.08702237904071808,-0.11758720874786377,0.39197903871536255,-0.4772426187992096,-1.2760982513427734,-0.11000166833400726,-0.24747881293296814,-0.30353593826293945
1749048074.1825883,0.09949138760566711,-1.814967771569723,2.2129696051227015,-3.675246377984518,4.473154067993164,5.299374580383301,0.09715750068426132,0.004941134247928858,-0.04206506907939911,0.05734217166900635,-0.08662782609462738,-0.1200905442237854,0.3385525941848755,-0.4788501560688019,-1.2710267305374146,-0.11984917521476746,-0.2486589550971985,-0.2837632894515991
1749048074.182626,0.09969063848257065,-1.8149944744505824,2.2128856817828577,-3.675145765344137,4.472995281219482,5.299097061157227,0.09717638790607452,0.006053664721548557,-0.04205290228128433,0.05840478092432022,-0.08549816161394119,-0.12232177704572678,0.4641992449760437,-0.4801867604255676,-1.296210765838623,-0.1298067271709442,-0.27518436312675476,-0.3033306300640106
1749048074.1826632,0.09984705597162247,-1.8149596653380335,2.2127860228167933,-3.6749946079649867,4.472781181335449,5.298841953277588,0.09839898347854614,0.0059731462970376015,-0.04366353899240494,0.05761438235640526,-0.08598443865776062,-0.1277003288269043,0.44057050347328186,-0.5107151865959167,-1.2813053131103516,-0.13904814422130585,-0.2989494502544403,-0.27646610140800476
1749048074.1827111,0.10005557537078857,-1.8149668178954066,2.212705914174215,-3.674899240533346,4.4726128578186035,5.2985944747924805,0.10461948066949844,0.00477259699255228,-0.04424908012151718,0.05783379450440407,-0.08644000440835953,-0.13210797309875488,0.368972510099411,-0.47804123163223267,-1.2739174365997314,-0.11871010065078735,-0.2896571457386017,-0.24460358917713165
1749048074.1827517,0.10030501335859299,-1.8149668178954066,2.2125991026507776,-3.6747552357115687,4.472442150115967,5.298308372497559,0.10270605236291885,0.0036134810652583838,-0.04463925585150719,0.058522894978523254,-0.08804364502429962,-0.13419678807258606,0.4301098585128784,-0.482946515083313,-1.2655233144760132,-0.1065690815448761,-0.31873852014541626,-0.24394315481185913
1749048074.182792,0.10045438259840012,-1.814958234826559,2.2125380674945276,-3.674647947350973,4.472278118133545,5.298072338104248,0.10635446012020111,0.003228734014555812,-0.043891359120607376,0.06021251901984215,-0.0921555683016777,-0.13501600921154022,0.36012959480285645,-0.47483497858047485,-1.276842474937439,-0.09935452044010162,-0.28882837295532227,-0.2404930293560028
1749048074.1828294,0.10072851181030273,-1.8149000606932582,2.212454144154684,-3.674539705316061,4.472113132476807,5.297802448272705,0.10631274431943893,0.0035847558174282312,-0.04390672221779823,0.060227058827877045,-0.09257835149765015,-0.1357918232679367,0.4242360591888428,-0.47594815492630005,-1.2881028652191162,-0.13473843038082123,-0.3007875680923462,-0.25806760787963867
1749048074.1828656,0.10092034190893173,-1.814883371392721,2.2123549620257776,-3.6744266949095667,4.471857070922852,5.297526836395264,0.10835067927837372,0.004381826147437096,-0.0436953604221344,0.061089638620615005,-0.09409074485301971,-0.13462907075881958,0.4079339802265167,-0.44558608531951904,-1.3171948194503784,-0.11366333067417145,-0.3330232799053192,-0.26314467191696167
1749048074.1829023,0.10116007924079895,-1.8149267635741175,2.2122586409198206,-3.6743065319456996,4.47165060043335,5.2972331047058105,0.10934709012508392,0.005839552730321884,-0.0442362017929554,0.0629531592130661,-0.09924657642841339,-0.1364692896604538,0.4062530994415283,-0.48321110010147095,-1.3191468715667725,-0.1323843002319336,-0.31083914637565613,-0.2635926902294159
1749048074.182939,0.10136301815509796,-1.8149105511107386,2.212194267903463,-3.6741868458189906,4.471470832824707,5.296985626220703,0.11057984083890915,0.005206151865422726,-0.04662672430276871,0.06470482051372528,-0.10455302149057388,-0.13696597516536713,0.4384450614452362,-0.49246346950531006,-1.2862024307250977,-0.10470764338970184,-0.2740430533885956,-0.259513795375824
1749048074.182976,0.10164115577936172,-1.8148790798582972,2.2120593229876917,-3.6740547619261683,4.471254825592041,5.296699047088623,0.11140060424804688,0.004085189662873745,-0.04431973770260811,0.06521318107843399,-0.10705365240573883,-0.13663499057292938,0.4496304988861084,-0.48341935873031616,-1.3158594369888306,-0.11506436765193939,-0.2565993666648865,-0.2999054789543152
1749048074.1830127,0.10181836783885956,-1.8148981533446253,2.2120068709002894,-3.673910757104391,4.471047878265381,5.296404838562012,0.11549921333789825,0.0033525661565363407,-0.043840739876031876,0.06639018654823303,-0.1053566113114357,-0.14106345176696777,0.4095908999443054,-0.45393696427345276,-1.346050500869751,-0.11365927755832672,-0.2777368426322937,-0.2986767292022705
1749048074.183049,0.10202280431985855,-1.8148547611632289,2.211918656026022,-3.6737810573973597,4.470797538757324,5.29612922668457,0.11546635627746582,0.0033875922672450542,-0.045732345432043076,0.06843529641628265,-0.10732008516788483,-0.14584845304489136,0.40944570302963257,-0.4347986578941345,-1.3482757806777954,-0.13020510971546173,-0.27634915709495544,-0.26893487572669983
1749048074.1830852,0.10229749232530594,-1.8148828945555628,2.2118118445025843,-3.6736370525755824,4.47058629989624,5.295838356018066,0.1202927753329277,0.0033381131943315268,-0.04890943318605423,0.06808138638734818,-0.10942859202623367,-0.14951036870479584,0.3681598901748657,-0.44245368242263794,-1.3300169706344604,-0.12756037712097168,-0.26981082558631897,-0.27036160230636597
1749048074.183122,0.10251782089471817,-1.8149177036681117,2.211719338093893,-3.6734968624510707,4.470386505126953,5.295519828796387,0.11703667044639587,0.0036121474113315344,-0.0496162474155426,0.06883721798658371,-0.11112619191408157,-0.15492625534534454,0.4246862828731537,-0.42375338077545166,-1.3097470998764038,-0.11444088071584702,-0.26469793915748596,-0.2349681407213211
1749048074.1832235,0.10274031013250351,-1.8148428402342738,2.211623016987936,-3.673361440698141,4.470128536224365,5.295232772827148,0.1214364767074585,0.004417148884385824,-0.04828140512108803,0.07140596210956573,-0.11122345924377441,-0.15902721881866455,0.39179176092147827,-0.4485878646373749,-1.3370919227600098,-0.1328396499156952,-0.26603204011917114,-0.19119705259799957
1749048074.1847446,0.10300759971141815,-1.8148938618102015,2.21151572862734,-3.6732174358763636,4.469893455505371,5.294886112213135,0.12142819911241531,0.004762590397149324,-0.04998260736465454,0.07197683304548264,-0.1118212565779686,-0.15921235084533691,0.4506543278694153,-0.4604310393333435,-1.3388686180114746,-0.15546822547912598,-0.2690199315547943,-0.21273228526115417
1749048074.2302902,0.10326987504959106,-1.8148743114867152,2.2114041487323206,-3.6730734310545863,4.469709396362305,5.294571876525879,0.1229822114109993,0.004519606474786997,-0.05170629173517227,0.07175007462501526,-0.11189761757850647,-0.15933454036712646,0.44800156354904175,-0.44936251640319824,-1.322114109992981,-0.12548483908176422,-0.26322272419929504,-0.2166179120540619
1749048074.2303364,0.10349864512681961,-1.8148466549315394,2.211292568837301,-3.6729260883727015,4.469463348388672,5.294250011444092,0.1245071142911911,0.00439029186964035,-0.05261410027742386,0.07235691696405411,-0.1114288866519928,-0.15706993639469147,0.44868090748786926,-0.4056870937347412,-1.3289660215377808,-0.12175020575523376,-0.2787781059741974,-0.2207140177488327
1749048074.2303765,0.10376560688018799,-1.8148142300047816,2.2112038771258753,-3.6728321514525355,4.469201564788818,5.29394006729126,0.12569686770439148,0.004227151162922382,-0.051267389208078384,0.0737287849187851,-0.1118176132440567,-0.15553154051303864,0.44478344917297363,-0.4243358373641968,-1.3469109535217285,-0.13013747334480286,-0.26978886127471924,-0.2432297170162201
1749048074.2304149,0.1040208488702774,-1.8148466549315394,2.21106464067568,-3.6726609669127406,4.469000339508057,5.293644428253174,0.12704698741436005,0.004087802022695541,-0.05347808077931404,0.07407007366418839,-0.11241954565048218,-0.15727461874485016,0.46880781650543213,-0.40341639518737793,-1.336374282836914,-0.12345968931913376,-0.2852705717086792,-0.269510954618454
1749048074.2304528,0.10424937307834625,-1.8148156605162562,2.2109807173358362,-3.6725131473936976,4.468808174133301,5.293291091918945,0.12935544550418854,0.0040157209150493145,-0.053838908672332764,0.07304483652114868,-0.11340237408876419,-0.1555621474981308,0.4352576732635498,-0.4184368848800659,-1.329412579536438,-0.09775663167238235,-0.29741060733795166,-0.28112849593162537
1749048074.23049,0.10447123646736145,-1.814850469628805,2.210883919392721,-3.6723228893675746,4.468527317047119,5.293045997619629,0.1335476040840149,0.004086190368980169,-0.054285794496536255,0.07530326396226883,-0.1147376224398613,-0.15598158538341522,0.4107116460800171,-0.39833682775497437,-1.340060830116272,-0.1352384388446808,-0.2971765100955963,-0.2841917872428894
1749048074.230527,0.10476932674646378,-1.8147913418211878,2.210776154194967,-3.672173639337057,4.468291759490967,5.292707920074463,0.1323954164981842,0.004940763581544161,-0.05460348352789879,0.07741715759038925,-0.11507631838321686,-0.16273298859596252,0.4442587196826935,-0.40594232082366943,-1.3339171409606934,-0.13466206192970276,-0.3087542653083801,-0.2839445173740387
1749048074.2305646,0.10510581731796265,-1.8148066006102503,2.2106559912311,-3.6720458469786585,4.468084335327148,5.292334079742432,0.13446953892707825,0.00603574700653553,-0.05456477031111717,0.07516736537218094,-0.12109460681676865,-0.16273708641529083,0.4418100118637085,-0.42009440064430237,-1.3312618732452393,-0.1301194578409195,-0.29724186658859253,-0.2971343398094177
1749048074.2306023,0.10534786432981491,-1.814817567864889,2.2105444113360804,-3.671878000298971,4.467822074890137,5.292042255401611,0.13488008081912994,0.005242104642093182,-0.05481758713722229,0.07317068427801132,-0.12190338969230652,-0.1693001240491867,0.4056011438369751,-0.3983810544013977,-1.346631407737732,-0.10249003767967224,-0.2878587245941162,-0.2693230211734772
1749048074.2306397,0.10559926927089691,-1.8147674999632777,2.2104128042804163,-3.6717497311034144,4.467540264129639,5.2917160987854,0.136203795671463,0.004862447734922171,-0.05508304759860039,0.07416097819805145,-0.12387198209762573,-0.1725071370601654,0.4168379604816437,-0.386760413646698,-1.3442175388336182,-0.08608915656805038,-0.28989845514297485,-0.2549664080142975
1749048074.2306774,0.1059180349111557,-1.8147903881468714,2.2103293577777308,-3.6715713940062464,4.467289447784424,5.291334629058838,0.1370311975479126,0.004275610204786062,-0.055090487003326416,0.07528909295797348,-0.12636756896972656,-0.1763037145137787,0.44847267866134644,-0.3665684461593628,-1.369002342224121,-0.11654847860336304,-0.2851974070072174,-0.24685680866241455
1749048074.2307265,0.10620425641536713,-1.8147746525206507,2.210205380116598,-3.671427389184469,4.467045783996582,5.2909955978393555,0.1377072036266327,0.004490999970585108,-0.05542962998151779,0.07861913740634918,-0.12950502336025238,-0.17697183787822723,0.45221036672592163,-0.38555908203125,-1.3629752397537231,-0.11129225790500641,-0.2645226716995239,-0.22913071513175964
1749048074.2307668,0.10648798942565918,-1.8147503338255824,2.210104767476217,-3.671274801293844,4.466806411743164,5.290619850158691,0.14215187728405,0.005265523679554462,-0.055644724518060684,0.08073504269123077,-0.12585724890232086,-0.17516088485717773,0.42534708976745605,-0.3898548483848572,-1.3748538494110107,-0.11312812566757202,-0.30488961935043335,-0.25317153334617615
1749048074.2308042,0.10675988346338272,-1.8147465191283167,2.2099736372577112,-3.671142717401022,4.466516017913818,5.290253639221191,0.14029726386070251,0.0057456656359136105,-0.058107487857341766,0.07759357988834381,-0.12691299617290497,-0.17960384488105774,0.4306277632713318,-0.3612481951713562,-1.3654468059539795,-0.0956503301858902,-0.30911320447921753,-0.24471677839756012
1749048074.2308416,0.10703947395086288,-1.8147264919676722,2.2098544279681605,-3.6710030041136683,4.466241359710693,5.289909839630127,0.1438877284526825,0.005162954796105623,-0.056866154074668884,0.0777396410703659,-0.12984918057918549,-0.1752748340368271,0.39145252108573914,-0.38048994541168213,-1.3625848293304443,-0.08116768300533295,-0.27532845735549927,-0.2800736427307129
1749048074.2308798,0.10733038187026978,-1.814742227593893,2.209750000630514,-3.670799871484274,4.465959072113037,5.289543628692627,0.1450785994529724,0.004658909514546394,-0.05778556317090988,0.0821261927485466,-0.1312791109085083,-0.17665545642375946,0.42074719071388245,-0.3691962957382202,-1.378057599067688,-0.10272271931171417,-0.2630665898323059,-0.31252238154411316
1749048074.230917,0.10763616859912872,-1.814714094201559,2.2096264998065394,-3.670647760430807,4.465743064880371,5.28920316696167,0.14642515778541565,0.005149695090949535,-0.0601135678589344,0.08416299521923065,-0.1306348294019699,-0.181254580616951,0.4585750699043274,-0.36569541692733765,-1.3704875707626343,-0.12173525989055634,-0.2753802239894867,-0.2876514792442322
1749048074.2309537,0.10790051519870758,-1.8147336445250453,2.209522549306051,-3.670483728448385,4.46544075012207,5.288781642913818,0.1478932648897171,0.005284199025481939,-0.062447480857372284,0.0853903517127037,-0.13173094391822815,-0.1843399703502655,0.4296368360519409,-0.3754093647003174,-1.3569586277008057,-0.10093611478805542,-0.27930617332458496,-0.2793320417404175
1749048074.2309906,0.10821123421192169,-1.814702650109762,2.209421459828512,-3.6703435383238734,4.4651594161987305,5.288390159606934,0.15135258436203003,0.005735922139137983,-0.06009534373879433,0.08644279837608337,-0.13366171717643738,-0.1889117807149887,0.42225950956344604,-0.352336585521698,-1.3728320598602295,-0.1031804084777832,-0.28344637155532837,-0.24533382058143616
1749048074.231028,0.10853757709264755,-1.8146902523436488,2.209277931843893,-3.6701203785338343,4.464883804321289,5.288065433502197,0.1481700986623764,0.005836831405758858,-0.060966767370700836,0.08612427115440369,-0.13229356706142426,-0.19412703812122345,0.46933460235595703,-0.3729080557823181,-1.3827826976776123,-0.101424440741539,-0.30270761251449585,-0.2399751991033554
1749048074.231065,0.10887892544269562,-1.8146554432311,2.2091506163226526,-3.6699563465514125,4.464671611785889,5.287631034851074,0.1497063934803009,0.006033081095665693,-0.06345682591199875,0.08738147467374802,-0.13431358337402344,-0.19486641883850098,0.44481855630874634,-0.35738077759742737,-1.385886311531067,-0.11250406503677368,-0.3029800057411194,-0.22397953271865845
1749048074.2311015,0.10913930088281631,-1.814674516717428,2.2090380827533167,-3.669764658013815,4.464362144470215,5.2872748374938965,0.1526896059513092,0.005827846936881542,-0.06412509828805923,0.09418940544128418,-0.13959231972694397,-0.195235475897789,0.45072141289711,-0.36828550696372986,-1.3665755987167358,-0.13827036321163177,-0.26504719257354736,-0.2136780172586441
1749048074.2312045,0.1094188243150711,-1.814662595788473,2.2088831106769007,-3.669600626031393,4.464107513427734,5.286856651306152,0.15479712188243866,0.005601610988378525,-0.06402595341205597,0.09163469076156616,-0.13866177201271057,-0.19260309636592865,0.4348470866680145,-0.35030463337898254,-1.3703982830047607,-0.14148154854774475,-0.3129894733428955,-0.23695282638072968
1749048074.2327447,0.10972606390714645,-1.814662595788473,2.208754841481344,-3.6694165668883265,4.463777542114258,5.286496639251709,0.15649010241031647,0.006405459251254797,-0.0636366531252861,0.09019295871257782,-0.14134539663791656,-0.19536112248897552,0.4507982134819031,-0.3517659604549408,-1.381250023841858,-0.11873477697372437,-0.29597240686416626,-0.21831238269805908
1749048074.2742758,0.11008632183074951,-1.8146583042540492,2.2086074987994593,-3.669255872766012,4.46358060836792,5.2860941886901855,0.15778684616088867,0.006843456998467445,-0.06477472931146622,0.09022759646177292,-0.14341692626476288,-0.19199419021606445,0.45602330565452576,-0.3452029526233673,-1.3826744556427002,-0.11846547573804855,-0.29528316855430603,-0.23823322355747223
1749048074.2743216,0.11039123684167862,-1.8146301708617152,2.2084954420672815,-3.669041772881979,4.463262557983398,5.28573751449585,0.15917697548866272,0.006948997266590595,-0.06544243544340134,0.09284821897745132,-0.145358607172966,-0.19668516516685486,0.4154895544052124,-0.35189288854599,-1.3711397647857666,-0.14771902561187744,-0.30317550897598267,-0.2696238160133362
1749048074.2743618,0.11070076376199722,-1.81459440807485,2.2083357016192835,-3.6688620052733363,4.462955951690674,5.2853312492370605,0.16269901394844055,0.006513754837214947,-0.06678548455238342,0.093645840883255,-0.14711175858974457,-0.19672910869121552,0.4243631064891815,-0.372967928647995,-1.3746144771575928,-0.13748809695243835,-0.308132141828537,-0.274007111787796
1749048074.2744005,0.1110478863120079,-1.8145786724486292,2.20821983018984,-3.6686822376646937,4.4626688957214355,5.284939765930176,0.1600797325372696,0.0063447305001318455,-0.0684925764799118,0.09188037365674973,-0.14814342558383942,-0.20100557804107666,0.4457554221153259,-0.3539244532585144,-1.3536566495895386,-0.13263621926307678,-0.284534752368927,-0.2640383839607239
1749048074.2744453,0.11141375452280045,-1.814601560632223,2.2080534140216272,-3.668490072289938,4.462404251098633,5.284513473510742,0.16156838834285736,0.00601059477776289,-0.0677940770983696,0.09266321361064911,-0.1479872763156891,-0.20485325157642365,0.46484488248825073,-0.36101409792900085,-1.371484398841858,-0.11456923186779022,-0.3274875581264496,-0.2728750705718994
1749048074.2744858,0.1117170974612236,-1.8145152531065882,2.207928482686178,-3.6682826481261195,4.4620232582092285,5.28411340713501,0.16556409001350403,0.005976851563900709,-0.07111703604459763,0.09329085052013397,-0.14891187846660614,-0.206498384475708,0.45481041073799133,-0.36935684084892273,-1.349902868270874,-0.12390553951263428,-0.31997501850128174,-0.23684483766555786
1749048074.2745237,0.11203636229038239,-1.814566274682516,2.20777398744692,-3.66811003307485,4.461798191070557,5.283702373504639,0.16606749594211578,0.0054297554306685925,-0.06860874593257904,0.09382548928260803,-0.1498630791902542,-0.20786014199256897,0.4022841453552246,-0.3194979429244995,-1.3763387203216553,-0.13662999868392944,-0.3172752559185028,-0.2534954249858856
1749048074.2745616,0.11239886283874512,-1.8145772419371546,2.2076686064349573,-3.6678954563536585,4.461463928222656,5.283298969268799,0.16978687047958374,0.005949058104306459,-0.06881064176559448,0.09411511570215225,-0.1521606296300888,-0.20754332840442657,0.42264384031295776,-0.3317350447177887,-1.3831024169921875,-0.12498539686203003,-0.33502376079559326,-0.2389070838689804
1749048074.2745988,0.11271779984235764,-1.8144990406432093,2.2075331846820276,-3.667722841302389,4.461165904998779,5.282891750335693,0.16878075897693634,0.005959225352853537,-0.07143454253673553,0.09456109255552292,-0.15425096452236176,-0.20653365552425385,0.4590889513492584,-0.3285423517227173,-1.3791087865829468,-0.11733730137348175,-0.34248852729797363,-0.28557583689689636
1749048074.2746365,0.11310295015573502,-1.8144990406432093,2.2073386351214808,-3.6675425968565882,4.460855007171631,5.282429218292236,0.16978706419467926,0.006378760561347008,-0.07104118913412094,0.09388521313667297,-0.16096462309360504,-0.21086275577545166,0.449822336435318,-0.33851975202560425,-1.3485510349273682,-0.12388153374195099,-0.2862969636917114,-0.2529679238796234
1749048074.2746737,0.11339087784290314,-1.814502855340475,2.2072179953204554,-3.6673509083189906,4.460575103759766,5.2819905281066895,0.17094896733760834,0.006589392200112343,-0.07168705016374588,0.09422630071640015,-0.15926872193813324,-0.21341484785079956,0.443372517824173,-0.3373573422431946,-1.3772945404052734,-0.09546666592359543,-0.31880176067352295,-0.28512102365493774
1749048074.274722,0.11374976485967636,-1.8145061932005824,2.207050148640768,-3.667171140710348,4.460205078125,5.28156042098999,0.17216794192790985,0.006332815159112215,-0.07241423428058624,0.09570206701755524,-0.16392581164836884,-0.21841226518154144,0.442135214805603,-0.32915806770324707,-1.3431239128112793,-0.11753524094820023,-0.30937474966049194,-0.2764822840690613
1749048074.274763,0.11409640312194824,-1.8145019016661585,2.2069342772113245,-3.6669522724547328,4.459893703460693,5.281135559082031,0.17273342609405518,0.005972456652671099,-0.07198598980903625,0.0973954051733017,-0.1641121804714203,-0.22232618927955627,0.45974186062812805,-0.3389403820037842,-1.3447095155715942,-0.08482389897108078,-0.304173082113266,-0.2493538111448288
1749048074.2748003,0.11443938314914703,-1.8144823513426722,2.20679742494692,-3.666741510430807,4.459558963775635,5.280696392059326,0.17491133511066437,0.0063705481588840485,-0.07228720188140869,0.09901870042085648,-0.16478340327739716,-0.22438913583755493,0.468657523393631,-0.3416721820831299,-1.3596125841140747,-0.10171034932136536,-0.2957821190357208,-0.24271611869335175
1749048074.2748373,0.11482075601816177,-1.8144551716246546,2.206618611012594,-3.666591306725973,4.459248065948486,5.28023099899292,0.1771422028541565,0.006254478357732296,-0.07333260029554367,0.09925087541341782,-0.16406473517417908,-0.22375711798667908,0.430880606174469,-0.31866371631622314,-1.3411061763763428,-0.09945724159479141,-0.30495959520339966,-0.2312348634004593
1749048074.2748747,0.11519193649291992,-1.8144623241820277,2.20646316209902,-3.666349073449606,4.458948135375977,5.279795169830322,0.17834818363189697,0.0058738007210195065,-0.07371106743812561,0.1001749262213707,-0.1615888923406601,-0.22282616794109344,0.40421512722969055,-0.32163065671920776,-1.3378887176513672,-0.11800073832273483,-0.3166371285915375,-0.24627897143363953
1749048074.2749114,0.11554562300443649,-1.8144742451109828,2.2062881628619593,-3.6661797962584437,4.458644390106201,5.279360294342041,0.18048866093158722,0.006005971226841211,-0.0749160572886467,0.10117457062005997,-0.16405805945396423,-0.22246770560741425,0.4377036988735199,-0.3241196870803833,-1.3281455039978027,-0.11914636939764023,-0.3249839246273041,-0.24778927862644196
1749048074.2749484,0.11583966016769409,-1.8144222698607386,2.2061484495746058,-3.6659609280028285,4.458298683166504,5.278936386108398,0.18089395761489868,0.005586705636233091,-0.07599937915802002,0.10276500135660172,-0.16247063875198364,-0.222270667552948,0.46929508447647095,-0.2936064898967743,-1.3285545110702515,-0.11495417356491089,-0.3261098265647888,-0.2832776606082916
1749048074.2749846,0.1162988469004631,-1.8144332371153773,2.2060049215899866,-3.6657215557494105,4.457927703857422,5.278423309326172,0.18129666149616241,0.006082301493734121,-0.07581201940774918,0.10337037593126297,-0.16303329169750214,-0.22418949007987976,0.44822096824645996,-0.3425142168998718,-1.3134164810180664,-0.11038230359554291,-0.345438152551651,-0.28539928793907166
1749048074.2750254,0.11662440747022629,-1.8144141636290492,2.2058523336993616,-3.665544649163717,4.457569599151611,5.2780070304870605,0.18211588263511658,0.006356282625347376,-0.07756102085113525,0.10343936085700989,-0.1691901683807373,-0.2285345047712326,0.4302000403404236,-0.2975064516067505,-1.2927837371826172,-0.10481646656990051,-0.32153844833374023,-0.28552526235580444
1749048074.27513,0.11702858656644821,-1.8143984280028285,2.205696407948629,-3.6653019390501917,4.457253932952881,5.277519702911377,0.18493787944316864,0.006550568621605635,-0.07851327210664749,0.10698091983795166,-0.1691194623708725,-0.23120921850204468,0.443606436252594,-0.3371744751930237,-1.27549409866333,-0.11370803415775299,-0.35120493173599243,-0.2700755000114441
1749048074.2767541,0.11737660318613052,-1.814402242700094,2.2055447737323206,-3.665094038049215,4.456937313079834,5.277065277099609,0.18692941963672638,0.00649708928540349,-0.07572892308235168,0.10398988425731659,-0.17175094783306122,-0.2337391972541809,0.4481709599494934,-0.30887073278427124,-1.318725824356079,-0.1249452754855156,-0.3456251919269562,-0.2706730365753174
1749048074.3223045,0.1177348718047142,-1.8143860302367152,2.205376927052633,-3.6648746929564417,4.456562042236328,5.276601314544678,0.1891895830631256,0.00645652087405324,-0.07749436050653458,0.10433682054281235,-0.1745358109474182,-0.23761813342571259,0.44475582242012024,-0.2959684729576111,-1.3091797828674316,-0.09127742052078247,-0.3375299870967865,-0.24488785862922668
1749048074.3223507,0.11812153458595276,-1.8143226108946742,2.2052138487445276,-3.664683004418844,4.456242084503174,5.276101112365723,0.19196784496307373,0.006726697087287903,-0.07752352207899094,0.10505588352680206,-0.17653796076774597,-0.23422780632972717,0.4445425271987915,-0.28777962923049927,-1.3064637184143066,-0.09079162776470184,-0.31431472301483154,-0.27680420875549316
1749048074.3223917,0.11850034445524216,-1.81435026744985,2.205050293599264,-3.664455076257223,4.455880165100098,5.2756829261779785,0.19132055342197418,0.006148718297481537,-0.07618164271116257,0.1095835417509079,-0.1791168600320816,-0.23901136219501495,0.44881004095077515,-0.27208617329597473,-1.3340914249420166,-0.0917930006980896,-0.3137517273426056,-0.26088768243789673
1749048074.3224304,0.1189056858420372,-1.8143383465208949,2.204897705708639,-3.664274354974264,4.4555277824401855,5.275153160095215,0.1926802694797516,0.0062895664013922215,-0.07749192416667938,0.10708790272474289,-0.1800159364938736,-0.2414284497499466,0.4964373707771301,-0.2988521158695221,-1.329697608947754,-0.12531191110610962,-0.31179121136665344,-0.2848781645298004
1749048074.3224688,0.11930433660745621,-1.8143226108946742,2.2047341505633753,-3.6640387974181117,4.455168724060059,5.274650573730469,0.19489844143390656,0.006443979684263468,-0.07846101373434067,0.10721608996391296,-0.18066273629665375,-0.24495463073253632,0.44943442940711975,-0.28155043721199036,-1.3338865041732788,-0.08603677153587341,-0.3175428807735443,-0.26633211970329285
1749048074.3225067,0.11964818090200424,-1.8143612347044886,2.2045629660235804,-3.6638037166991175,4.454835414886475,5.274147033691406,0.19617074728012085,0.0063801053911447525,-0.07850899547338486,0.10747403651475906,-0.18111446499824524,-0.24697834253311157,0.46835094690322876,-0.2621975541114807,-1.3185418844223022,-0.08942684531211853,-0.31203600764274597,-0.24312976002693176
1749048074.3225446,0.12004633247852325,-1.8143140278258265,2.2044389883624476,-3.663626810113424,4.454461574554443,5.273679733276367,0.19699591398239136,0.0073463646695017815,-0.0779666155576706,0.10840736329555511,-0.18045678734779358,-0.24688705801963806,0.48259827494621277,-0.3011080026626587,-1.3526948690414429,-0.07867968082427979,-0.30235767364501953,-0.25682786107063293
1749048074.322582,0.12042518705129623,-1.8143097362914027,2.204252068196432,-3.663403650323385,4.454041481018066,5.273161888122559,0.1995757520198822,0.008021410554647446,-0.07928264886140823,0.10985830426216125,-0.18550553917884827,-0.24703094363212585,0.49442413449287415,-0.31812071800231934,-1.3238214254379272,-0.07099904119968414,-0.3088848888874054,-0.2560139000415802
1749048074.322621,0.1208234578371048,-1.814294000665182,2.2041237990008753,-3.663222452203268,4.453662395477295,5.272634506225586,0.20153136551380157,0.006835601292550564,-0.07933172583580017,0.11225762963294983,-0.18435584008693695,-0.24811294674873352,0.4856250286102295,-0.2657972574234009,-1.3200725317001343,-0.08312804996967316,-0.30624550580978394,-0.2762574851512909
1749048074.322658,0.12123105674982071,-1.814282079736227,2.2039712111102503,-3.6629373035826625,4.453291893005371,5.272158622741699,0.20286449790000916,0.00697332201525569,-0.07844454795122147,0.11254476755857468,-0.18887804448604584,-0.2462536245584488,0.4556542634963989,-0.26337093114852905,-1.3554222583770752,-0.06929214298725128,-0.3044559061527252,-0.2719385325908661
1749048074.3226979,0.12163665145635605,-1.8142420254149378,2.203784767781393,-3.662712713281149,4.452951908111572,5.271659851074219,0.2037607580423355,0.008348233066499233,-0.08051173388957977,0.11766692250967026,-0.1883114129304886,-0.2505394518375397,0.5038294792175293,-0.27480006217956543,-1.3558932542800903,-0.08947278559207916,-0.28842824697494507,-0.28718650341033936
1749048074.3227446,0.12163665145635605,-1.8142420254149378,2.203784767781393,-3.662712713281149,4.452951908111572,5.271659851074219,0.2037607580423355,0.008348233066499233,-0.08051173388957977,0.11766692250967026,-0.1883114129304886,-0.2505394518375397,0.5038294792175293,-0.27480006217956543,-1.3558932542800903,-0.08947278559207916,-0.28842824697494507,-0.28718650341033936
1749048074.3227832,0.1220899224281311,-1.8142267666258753,2.203651730214254,-3.662504335443014,4.452589988708496,5.271129131317139,0.20529381930828094,0.00776629988104105,-0.07889659702777863,0.11734871566295624,-0.1886625587940216,-0.2514934539794922,0.4623999297618866,-0.296217679977417,-1.3749181032180786,-0.10010149329900742,-0.30684423446655273,-0.28220731019973755
1749048074.3228202,0.12289241701364517,-1.8142339191832484,2.203308884297506,-3.6619779072203578,4.451824188232422,5.270092010498047,0.20904658734798431,0.00791112706065178,-0.08205273747444153,0.1199852004647255,-0.18327422440052032,-0.25565141439437866,0.49054092168807983,-0.2586513161659241,-1.3573188781738281,-0.09343992173671722,-0.33040037751197815,-0.2841644585132599
1749048074.3228564,0.12332497537136078,-1.81420960048818,2.2031410376178187,-3.661757608453268,4.451442241668701,5.269553184509277,0.21134313941001892,0.00781536940485239,-0.08029420673847198,0.12474417686462402,-0.18754887580871582,-0.25710901618003845,0.4946965277194977,-0.2696477472782135,-1.3907197713851929,-0.10820529609918594,-0.3261428475379944,-0.25416603684425354
1749048074.3228931,0.12373626232147217,-1.8141628704466761,2.202942196522848,-3.6614986858763636,4.451066970825195,5.269054412841797,0.21222878992557526,0.007084048818796873,-0.08259927481412888,0.12208712100982666,-0.1846160888671875,-0.25982770323753357,0.4931808114051819,-0.27493053674697876,-1.3916399478912354,-0.11625806987285614,-0.36455515027046204,-0.2708984911441803
1749048074.3229299,0.12416780740022659,-1.8141428432860316,2.2028024832354944,-3.6612383327879847,4.450718879699707,5.268585681915283,0.21269911527633667,0.008240175433456898,-0.08339659124612808,0.12385722249746323,-0.19115059077739716,-0.2595023810863495,0.5108125805854797,-0.27558091282844543,-1.395877718925476,-0.10424641519784927,-0.37638044357299805,-0.30029985308647156
1749048074.3229666,0.12460210919380188,-1.8141499958434046,2.2026222387896937,-3.6610027752318324,4.450320720672607,5.268001079559326,0.21497827768325806,0.008807403966784477,-0.08536724001169205,0.1249198243021965,-0.1912214308977127,-0.26335978507995605,0.5201749801635742,-0.2890910506248474,-1.377590537071228,-0.1433877944946289,-0.36850738525390625,-0.2855193018913269
1749048074.3230026,0.12500347197055817,-1.8141657314696253,2.2024667898761194,-3.660734792748922,4.449906349182129,5.267480373382568,0.21686391532421112,0.007815591990947723,-0.08643949031829834,0.1252671331167221,-0.19685514271259308,-0.26654165983200073,0.5158485174179077,-0.2935865521430969,-1.353598952293396,-0.15452422201633453,-0.3389759063720703,-0.2705499231815338
1749048074.3230388,0.12548302114009857,-1.814134260217184,2.2023261229144495,-3.660483022729391,4.44955587387085,5.266949653625488,0.2182728797197342,0.007365095894783735,-0.0863301083445549,0.125387504696846,-0.20075100660324097,-0.26852062344551086,0.5445177555084229,-0.2599528431892395,-1.3832529783248901,-0.15124158561229706,-0.34137293696403503,-0.28562620282173157
1749048074.3230753,0.12592172622680664,-1.8141418896117152,2.20213491121401,-3.6601926289000453,4.449228763580322,5.266407489776611,0.22162967920303345,0.00741879316046834,-0.08715672791004181,0.12738728523254395,-0.20164617896080017,-0.2698596119880676,0.4603331983089447,-0.24878843128681183,-1.375071406364441,-0.16783007979393005,-0.33094972372055054,-0.279114305973053
1749048074.323112,0.12632212042808533,-1.8141066036620082,2.2019432226764124,-3.6599279842772425,4.44878625869751,5.265872955322266,0.22136668860912323,0.00797364767640829,-0.08754836022853851,0.12801454961299896,-0.20143139362335205,-0.26982489228248596,0.4471464157104492,-0.25049322843551636,-1.3802013397216797,-0.1917203962802887,-0.3431025743484497,-0.28779011964797974
1749048074.3232193,0.1267746090888977,-1.814077993432516,2.201763931904928,-3.6596886120238246,4.4483747482299805,5.2653021812438965,0.2204197198152542,0.008793406188488007,-0.08767584711313248,0.1264922320842743,-0.2002202421426773,-0.273001104593277,0.48683491349220276,-0.263679563999176,-1.3903213739395142,-0.20111986994743347,-0.34827858209609985,-0.27387914061546326
1749048074.324785,0.127202108502388,-1.8140469990172328,2.2015960852252405,-3.6594754658141078,4.4478983879089355,5.264801502227783,0.22105859220027924,0.008928544819355011,-0.08852873742580414,0.12567967176437378,-0.20176300406455994,-0.27106720209121704,0.49992769956588745,-0.297419011592865,-1.4078441858291626,-0.19271701574325562,-0.35896241664886475,-0.31262850761413574
1749048074.3662763,0.12766513228416443,-1.814037939111227,2.201416317616598,-3.6591960392394007,4.447491645812988,5.264215469360352,0.22565573453903198,0.008956327103078365,-0.08895744383335114,0.12527121603488922,-0.20350193977355957,-0.2733834683895111,0.46931973099708557,-0.30521929264068604,-1.3537282943725586,-0.18922059237957,-0.3446909189224243,-0.3147072196006775
1749048074.3663218,0.12810584902763367,-1.8140331707396449,2.2012365500079554,-3.658933301965231,4.447114944458008,5.263652801513672,0.22760523855686188,0.008305057883262634,-0.08775675296783447,0.12455064803361893,-0.20792555809020996,-0.2777859568595886,0.466475248336792,-0.31189167499542236,-1.387974500656128,-0.17017826437950134,-0.31501495838165283,-0.2923637628555298
1749048074.3663645,0.12855322659015656,-1.8140250645079554,2.2010534445392054,-3.6586810551085414,4.446709156036377,5.263117790222168,0.2269297093153,0.00690753199160099,-0.09392117708921432,0.12492557615041733,-0.2074127048254013,-0.2824379801750183,0.4685158431529999,-0.28063061833381653,-1.3566877841949463,-0.17077845335006714,-0.3418674170970917,-0.28712767362594604
1749048074.3664033,0.12897253036499023,-1.813993593255514,2.2008617560016077,-3.6584135494627894,4.4462666511535645,5.2625861167907715,0.2272263914346695,0.006281334441155195,-0.09306394308805466,0.12715871632099152,-0.2111893594264984,-0.2826181650161743,0.5042791366577148,-0.2844923734664917,-1.366267442703247,-0.1912200003862381,-0.3221695125102997,-0.28135159611701965
1749048074.3664412,0.12943527102470398,-1.8140326939024867,2.200662914906637,-3.658149858514303,4.445801734924316,5.261973857879639,0.2293037623167038,0.006633017212152481,-0.0941748172044754,0.12313202768564224,-0.2096739113330841,-0.28594517707824707,0.5185753703117371,-0.27370741963386536,-1.3603891134262085,-0.1743762493133545,-0.32876741886138916,-0.27563348412513733
1749048074.366479,0.12988606095314026,-1.813988824883932,2.200506035481588,-3.6578790150084437,4.445375442504883,5.261392116546631,0.23186323046684265,0.007306209299713373,-0.09511815756559372,0.12118509411811829,-0.2120818942785263,-0.2876267433166504,0.4922541677951813,-0.2753016948699951,-1.3494120836257935,-0.14417274296283722,-0.3097609281539917,-0.2966688275337219
1749048074.3665173,0.1303366720676422,-1.8139735660948695,2.2002952734576624,-3.6576620541014613,4.444963455200195,5.260812282562256,0.23438206315040588,0.007478031795471907,-0.09670614451169968,0.12603618204593658,-0.2112041711807251,-0.2922477424144745,0.5125491619110107,-0.26929864287376404,-1.351096510887146,-0.15173864364624023,-0.31275880336761475,-0.2963317036628723
1749048074.3665555,0.13079091906547546,-1.8139492473998011,2.200095001851217,-3.657356401483053,4.444579601287842,5.260213375091553,0.23786920309066772,0.0074358778074383736,-0.09725910425186157,0.12617674469947815,-0.2139217108488083,-0.2959422767162323,0.4734601080417633,-0.2810298800468445,-1.327488899230957,-0.16046856343746185,-0.29890674352645874,-0.2652834951877594
1749048074.3665948,0.13131950795650482,-1.8139525852599085,2.1999037901507776,-3.6571155987181605,4.44406270980835,5.259594917297363,0.2383790761232376,0.007096023298799992,-0.09776245802640915,0.12523645162582397,-0.21127398312091827,-0.2977437973022461,0.48171931505203247,-0.2693712115287781,-1.3305907249450684,-0.14381305873394012,-0.31472575664520264,-0.21946285665035248
1749048074.3666327,0.1318090260028839,-1.8139177761473597,2.199695889149801,-3.656880041162008,4.443683624267578,5.259019374847412,0.2383764237165451,0.007266310043632984,-0.09955032914876938,0.12651634216308594,-0.2142167091369629,-0.2959378957748413,0.4809199273586273,-0.25822263956069946,-1.3419506549835205,-0.14915578067302704,-0.3341129720211029,-0.23850616812705994
1749048074.3666704,0.13225576281547546,-1.8139053783812464,2.1995042006122034,-3.656604906121725,4.443237781524658,5.258440971374512,0.23638729751110077,0.007708798628300428,-0.09762977063655853,0.12682050466537476,-0.21328522264957428,-0.2959326505661011,0.5142974257469177,-0.2700251638889313,-1.330451250076294,-0.16793540120124817,-0.3540266156196594,-0.23021560907363892
1749048074.3667197,0.13266055285930634,-1.8139130077757777,2.199301067982809,-3.6563836536803187,4.442815780639648,5.257839202880859,0.23754732310771942,0.007412218023091555,-0.10056984424591064,0.12621934711933136,-0.21834149956703186,-0.29224327206611633,0.579089343547821,-0.2844107747077942,-1.3323554992675781,-0.13880929350852966,-0.3325740694999695,-0.2949095666408539
1749048074.3667607,0.13318537175655365,-1.813850542108053,2.1990931669818323,-3.6560970745482386,4.442359447479248,5.257214069366455,0.24343115091323853,0.007214029785245657,-0.10068497061729431,0.12683485448360443,-0.2215559482574463,-0.29437416791915894,0.5475256443023682,-0.2608591616153717,-1.2927252054214478,-0.10853434354066849,-0.3072212040424347,-0.29788994789123535
1749048074.3668022,0.1337340623140335,-1.813873907128805,2.1988938490497034,-3.6558219395079554,4.441945552825928,5.256646633148193,0.246775284409523,0.007350562606006861,-0.10297191888093948,0.12888984382152557,-0.22415271401405334,-0.2971270680427551,0.4881371855735779,-0.263278603553772,-1.2706375122070312,-0.14087487757205963,-0.2814027965068817,-0.29233449697494507
1749048074.3668637,0.134232759475708,-1.8138143024840296,2.19871694246401,-3.6555386982359828,4.441506862640381,5.256042957305908,0.2477298378944397,0.0076832277700304985,-0.10194532573223114,0.13452497124671936,-0.22191846370697021,-0.3015809655189514,0.4608479142189026,-0.2637767493724823,-1.2709654569625854,-0.13287703692913055,-0.28775233030319214,-0.2797897160053253
1749048074.366927,0.13473479449748993,-1.8138495884337367,2.198505226765768,-3.655290742913717,4.441064357757568,5.255444049835205,0.24748577177524567,0.007562882732599974,-0.10152474790811539,0.132401242852211,-0.2202610969543457,-0.29993748664855957,0.4961174726486206,-0.26243865489959717,-1.2875293493270874,-0.13466216623783112,-0.3163555860519409,-0.2719619870185852
1749048074.366998,0.13519425690174103,-1.813829084435934,2.1983097235309046,-3.655034681359762,4.440633296966553,5.254806041717529,0.24763832986354828,0.007589105516672134,-0.09980282932519913,0.1340535283088684,-0.21855898201465607,-0.3029700517654419,0.5053263306617737,-0.23228678107261658,-1.2947700023651123,-0.13195694983005524,-0.3493497371673584,-0.26686549186706543
1749048074.3670645,0.1357000321149826,-1.8137785396971644,2.1980908552752894,-3.6547633610167445,4.440206527709961,5.254238128662109,0.2521708309650421,0.007407376542687416,-0.09905405342578888,0.1390468329191208,-0.22188808023929596,-0.30608493089675903,0.4886986017227173,-0.27607476711273193,-1.3088469505310059,-0.12471592426300049,-0.3531080484390259,-0.29886507987976074
1749048074.36713,0.13623790442943573,-1.8138085804381312,2.197909657155172,-3.654475828210348,4.439737319946289,5.253604888916016,0.25297310948371887,0.007306836545467377,-0.09880821406841278,0.138335183262825,-0.2274867594242096,-0.3118382394313812,0.49306878447532654,-0.2620770037174225,-1.313088297843933,-0.15108098089694977,-0.35983243584632874,-0.2845860719680786
1749048074.3671973,0.1367163509130478,-1.8138052425780238,2.197714630757467,-3.6542002163329066,4.439317226409912,5.253000736236572,0.2553408145904541,0.007097582332789898,-0.10044785588979721,0.13781316578388214,-0.23311127722263336,-0.317941278219223,0.4512222707271576,-0.23268553614616394,-1.3016692399978638,-0.12748131155967712,-0.3000301420688629,-0.2337436079978943
1749048074.367354,0.13722722232341766,-1.813761373559469,2.197468105946676,-3.65391268352651,4.438846588134766,5.252350807189941,0.254244863986969,0.007287211716175079,-0.09999743849039078,0.1398063600063324,-0.23497942090034485,-0.31917980313301086,0.4447939395904541,-0.22184062004089355,-1.3294092416763306,-0.1318640261888504,-0.2776305079460144,-0.2354392260313034
1749048074.368776,0.13774465024471283,-1.8137537441649378,2.197291676198141,-3.6536408863463343,4.438329696655273,5.251684665679932,0.2532089948654175,0.007627084851264954,-0.1039946973323822,0.14007942378520966,-0.234658345580101,-0.3185995817184448,0.48980969190597534,-0.23381569981575012,-1.2773751020431519,-0.12752535939216614,-0.2872558534145355,-0.2572416067123413
1749048074.4103057,0.13830919563770294,-1.8137651882567347,2.1970999876605433,-3.653365274468893,4.437816619873047,5.251073837280273,0.25574448704719543,0.007676244247704744,-0.09995223581790924,0.1408834308385849,-0.23141001164913177,-0.3114888668060303,0.47890159487724304,-0.22355827689170837,-1.3118441104888916,-0.13039682805538177,-0.2842179536819458,-0.26875704526901245
1749048074.4103522,0.13882455229759216,-1.8137575588622035,2.196881119404928,-3.6530658207335414,4.437364101409912,5.250431060791016,0.25903162360191345,0.008443084545433521,-0.10329660773277283,0.14176741242408752,-0.23195584118366241,-0.3131909966468811,0.4581674337387085,-0.23492610454559326,-1.315985083580017,-0.13220541179180145,-0.31092172861099243,-0.283274382352829
1749048074.410393,0.139291912317276,-1.81372131923818,2.196677033101217,-3.6527511082091273,4.436862945556641,5.2498273849487305,0.2597254514694214,0.00852291751652956,-0.10076311230659485,0.14127731323242188,-0.22886863350868225,-0.3166287839412689,0.44051721692085266,-0.25049343705177307,-1.3292044401168823,-0.10487531870603561,-0.31860876083374023,-0.296658992767334
1749048074.4104328,0.13983240723609924,-1.8136826954283656,2.1964858214007776,-3.6525055370726527,4.4364471435546875,5.249189376831055,0.2602299749851227,0.007905115373432636,-0.10055302083492279,0.14313311874866486,-0.23397403955459595,-0.3184501826763153,0.4508843719959259,-0.22943690419197083,-1.3546745777130127,-0.1300732046365738,-0.30615365505218506,-0.28972673416137695
1749048074.4104707,0.14033573865890503,-1.8136898479857386,2.1963213125811976,-3.6522332630553187,4.435948848724365,5.248578071594238,0.2588338255882263,0.007945306599140167,-0.10084225982427597,0.14381420612335205,-0.23469580709934235,-0.3187752068042755,0.47205251455307007,-0.2056395411491394,-1.3622231483459473,-0.1113416999578476,-0.3091335594654083,-0.3132156431674957
1749048074.4105093,0.14087975025177002,-1.8136621914305628,2.1960623900042933,-3.651895662347311,4.435486316680908,5.2479329109191895,0.25804001092910767,0.008537507615983486,-0.10181999206542969,0.14420156180858612,-0.23872946202754974,-0.32278668880462646,0.5425623059272766,-0.2312878519296646,-1.377386450767517,-0.10145458579063416,-0.27895087003707886,-0.3205762505531311
1749048074.4105477,0.14142648875713348,-1.8136731586852015,2.1958778540240687,-3.6516429386534632,4.434988975524902,5.247257232666016,0.26354357600212097,0.008606336079537868,-0.10186786204576492,0.14930109679698944,-0.23966039717197418,-0.32454317808151245,0.49940043687820435,-0.2250707894563675,-1.3823984861373901,-0.10769712179899216,-0.2587932050228119,-0.3275254964828491
1749048074.410586,0.14142648875713348,-1.8136731586852015,2.1958778540240687,-3.6516429386534632,4.434988975524902,5.247257232666016,0.26354357600212097,0.008606336079537868,-0.10186786204576492,0.14930109679698944,-0.23966039717197418,-0.32454317808151245,0.49940043687820435,-0.2250707894563675,-1.3823984861373901,-0.10769712179899216,-0.2587932050228119,-0.3275254964828491
1749048074.4106283,0.14245916903018951,-1.813629766503805,2.195458714162008,-3.651031633416647,4.4340434074401855,5.245869159698486,0.2651774287223816,0.009735103696584702,-0.10615324229001999,0.1475936323404312,-0.2380623072385788,-0.3385721743106842,0.45526373386383057,-0.2316141426563263,-1.3763339519500732,-0.11164958775043488,-0.31128981709480286,-0.2756521701812744
1749048074.4106674,0.1430438756942749,-1.8136283359923304,2.195258919392721,-3.6506854496397914,4.433561325073242,5.24523401260376,0.2659747898578644,0.009764169342815876,-0.1064349040389061,0.15343879163265228,-0.23988665640354156,-0.3373339772224426,0.5088300704956055,-0.2566782832145691,-1.3843364715576172,-0.11951611191034317,-0.32193294167518616,-0.2552660405635834
1749048074.410705,0.14353899657726288,-1.8135973415770472,2.1950271765338343,-3.650388856927389,4.433129787445068,5.24456262588501,0.26910263299942017,0.00921663548797369,-0.10718861222267151,0.15190930664539337,-0.23738865554332733,-0.3352908194065094,0.4545170068740845,-0.21662122011184692,-1.3672611713409424,-0.13723449409008026,-0.3293260633945465,-0.24552789330482483
1749048074.410753,0.1440615952014923,-1.813545366326803,2.1948044935809534,-3.650105138818258,4.432636260986328,5.243911266326904,0.2703416645526886,0.009245157241821289,-0.1078193411231041,0.15229256451129913,-0.24375751614570618,-0.3332102298736572,0.44160330295562744,-0.22162380814552307,-1.3650193214416504,-0.13633640110492706,-0.3204495906829834,-0.28236475586891174
1749048074.4107974,0.14465048909187317,-1.8135024509825648,2.194580856953756,-3.649801870385641,4.432149887084961,5.243225574493408,0.26811090111732483,0.010176469571888447,-0.10742274671792984,0.15333664417266846,-0.24570763111114502,-0.3317908048629761,0.4546794593334198,-0.2392253577709198,-1.369274616241455,-0.12723085284233093,-0.31478434801101685,-0.3138251304626465
1749048074.410836,0.1452307552099228,-1.813486238519186,2.1943891684161585,-3.6494747600951136,4.431667804718018,5.242551326751709,0.26640644669532776,0.01012973953038454,-0.10663089156150818,0.15223270654678345,-0.24771280586719513,-0.33488035202026367,0.40009814500808716,-0.2353815734386444,-1.3728536367416382,-0.13841241598129272,-0.27499356865882874,-0.28279829025268555
1749048074.4108732,0.14576195180416107,-1.8135134182372035,2.194204632435934,-3.6492024860777796,4.431169509887695,5.2418532371521,0.26718786358833313,0.010727007873356342,-0.10749667882919312,0.1524156779050827,-0.24682894349098206,-0.33579447865486145,0.44208845496177673,-0.23657676577568054,-1.3708763122558594,-0.13432426750659943,-0.2744867205619812,-0.272228866815567
1749048074.4109094,0.1463114470243454,-1.8134385548033656,2.1939266363727015,-3.6488987408080042,4.430695533752441,5.241232872009277,0.26742544770240784,0.010914009064435959,-0.10858473181724548,0.15136218070983887,-0.24133633077144623,-0.3316333591938019,0.5808477401733398,-0.28474563360214233,-1.4001140594482422,-0.13296586275100708,-0.3451184928417206,-0.3412046432495117
1749048074.410947,0.14682155847549438,-1.813437124291891,2.193726364766256,-3.6485682926573695,4.430235385894775,5.240546703338623,0.27685290575027466,0.008947971276938915,-0.11183513700962067,0.15588681399822235,-0.2422437071800232,-0.3338400721549988,0.5134714245796204,-0.2706269323825836,-1.3887776136398315,-0.09965141117572784,-0.3746994435787201,-0.38624513149261475
1749048074.4109833,0.14736855030059814,-1.813418527642721,2.1935179869281214,-3.6482964954771937,4.429729461669922,5.239851951599121,0.2806171476840973,0.00725988345220685,-0.11493375152349472,0.15566496551036835,-0.2443825900554657,-0.3422325849533081,0.44655364751815796,-0.24456915259361267,-1.3516558408737183,-0.12719812989234924,-0.4172414541244507,-0.364315003156662
1749048074.4110203,0.14790666103363037,-1.8134333095946253,2.1932833830462855,-3.647964139977926,4.429220199584961,5.2391533851623535,0.2772137522697449,0.00675561185926199,-0.11434753239154816,0.15533867478370667,-0.24898971617221832,-0.3527691662311554,0.4923436939716339,-0.221776083111763,-1.3538283109664917,-0.11425483971834183,-0.39295631647109985,-0.30084192752838135
1749048074.4110572,0.14846523106098175,-1.8134132824339808,2.1930750052081507,-3.6476646862425746,4.428689956665039,5.23838996887207,0.2783288359642029,0.007255759555846453,-0.11677400022745132,0.16104711592197418,-0.25698256492614746,-0.35395124554634094,0.5584771633148193,-0.23524440824985504,-1.3351824283599854,-0.1233183890581131,-0.38044923543930054,-0.25237905979156494
1749048074.4111626,0.14905495941638947,-1.8133584461607875,2.1927970091449183,-3.6473099193968714,4.428189754486084,5.237728118896484,0.2817508280277252,0.00785384327173233,-0.11482716351747513,0.1580970734357834,-0.26230868697166443,-0.35197705030441284,0.5136655569076538,-0.24073363840579987,-1.3684207201004028,-0.12960028648376465,-0.3441404402256012,-0.2649306356906891
1749048074.4127722,0.1496129035949707,-1.8133732281126917,2.1925767103778284,-3.6469861469664515,4.427617073059082,5.236994743347168,0.2843885123729706,0.00838981382548809,-0.117767333984375,0.1582545042037964,-0.2644979953765869,-0.34915176033973694,0.4767730236053467,-0.2179567962884903,-1.3168017864227295,-0.0923079252243042,-0.3087195158004761,-0.31532278656959534
1749048074.4542944,0.15020890533924103,-1.8133498630919398,2.192340675984518,-3.6466976604857386,4.427059173583984,5.236344337463379,0.28305190801620483,0.009403674863278866,-0.11788643896579742,0.15927018225193024,-0.26303377747535706,-0.3481598198413849,0.47207099199295044,-0.22526852786540985,-1.3199706077575684,-0.11639522016048431,-0.32825928926467896,-0.3349807560443878
1749048074.4543412,0.15076006948947906,-1.8133260212340296,2.192097012196676,-3.646374364892477,4.4265570640563965,5.235597133636475,0.2820312976837158,0.009718029759824276,-0.1186320036649704,0.16021260619163513,-0.2621205151081085,-0.35223305225372314,0.546540379524231,-0.2511802911758423,-1.3411535024642944,-0.09799671918153763,-0.31506747007369995,-0.3429916799068451
1749048074.454383,0.15129446983337402,-1.8133369884886683,2.191857639943258,-3.6460749111571253,4.4260663986206055,5.234910011291504,0.2858906388282776,0.008801072835922241,-0.11969707161188126,0.16065306961536407,-0.263368159532547,-0.35613420605659485,0.5633644461631775,-0.22595901787281036,-1.3306392431259155,-0.08688102662563324,-0.35389792919158936,-0.3321816325187683
1749048074.454423,0.15182994306087494,-1.8132897816100062,2.191594902669088,-3.6457749805846156,4.425536632537842,5.234187602996826,0.28812307119369507,0.008600153960287571,-0.11976446211338043,0.15988457202911377,-0.2623349130153656,-0.3563697636127472,0.5508704781532288,-0.2147672176361084,-1.316360354423523,-0.07771994173526764,-0.3634576201438904,-0.35742896795272827
1749048074.454465,0.15247023105621338,-1.8132969341673792,2.1913870016681116,-3.6454717121519984,4.425013065338135,5.233456134796143,0.29356056451797485,0.008374342694878578,-0.119842529296875,0.16078543663024902,-0.2672024071216583,-0.3599052131175995,0.46781569719314575,-0.22745484113693237,-1.3012299537658691,-0.0626019686460495,-0.3308824896812439,-0.35211968421936035
1749048074.454504,0.1530243158340454,-1.8132969341673792,2.191139046345846,-3.6451569996275843,4.424450874328613,5.2327189445495605,0.2917467951774597,0.008542604744434357,-0.11869388818740845,0.1597004532814026,-0.27140092849731445,-0.3669867217540741,0.5047076940536499,-0.21348357200622559,-1.3470696210861206,-0.03847651183605194,-0.3129468560218811,-0.3259330689907074
1749048074.4545426,0.15359817445278168,-1.8132769070067347,2.1908753553973597,-3.644836565057272,4.423929691314697,5.2320051193237305,0.2925860583782196,0.009503855369985104,-0.11970647424459457,0.16740097105503082,-0.26790711283683777,-0.37296149134635925,0.5514250993728638,-0.2227291464805603,-1.320180058479309,-0.05257473886013031,-0.32516366243362427,-0.2888808846473694
1749048074.4545825,0.15420034527778625,-1.8132606945433558,2.1906359831439417,-3.6444698772826136,4.423395156860352,5.231253147125244,0.295270174741745,0.009168796241283417,-0.12175142019987106,0.16522903740406036,-0.26871687173843384,-0.37579792737960815,0.5381807684898376,-0.21821646392345428,-1.3076738119125366,-0.038698576390743256,-0.3148798644542694,-0.26836127042770386
1749048074.4546216,0.15480411052703857,-1.8132368526854457,2.190368954335348,-3.6441461048521937,4.422804832458496,5.230500221252441,0.2993946671485901,0.009693718515336514,-0.12261445820331573,0.17084205150604248,-0.26508110761642456,-0.37171727418899536,0.4984876215457916,-0.23483507335186005,-1.2867999076843262,-0.03898566588759422,-0.35291001200675964,-0.2927454710006714
1749048074.4546592,0.1554306149482727,-1.8131896458067835,2.1900981108294886,-3.6438423595824183,4.422309875488281,5.229776382446289,0.29594868421554565,0.009574346244335175,-0.12259132415056229,0.17164790630340576,-0.267785906791687,-0.3696436285972595,0.5228838920593262,-0.19479815661907196,-1.2861886024475098,-0.05283065140247345,-0.3619230389595032,-0.30772584676742554
1749048074.4546964,0.15599708259105682,-1.8131729565062464,2.189862076436178,-3.6434713802733363,4.421787261962891,5.22899055480957,0.2962658107280731,0.009980252012610435,-0.12251879274845123,0.17253729701042175,-0.27460846304893494,-0.3718644678592682,0.55730801820755,-0.23512062430381775,-1.2906765937805176,-0.05867382884025574,-0.34176865220069885,-0.323114275932312
1749048074.4547343,0.1565636396408081,-1.813176771203512,2.18964130083193,-3.643134733239645,4.421191215515137,5.228252410888672,0.30245381593704224,0.009786750189960003,-0.12241661548614502,0.17254070937633514,-0.2780725061893463,-0.37199512124061584,0.5461481809616089,-0.19920268654823303,-1.2896006107330322,-0.059301480650901794,-0.30391910672187805,-0.3149624466896057
1749048074.454774,0.15722781419754028,-1.8132077656187953,2.189413849507467,-3.6427799663939417,4.420703887939453,5.227566719055176,0.30510833859443665,0.009514725767076015,-0.12197692692279816,0.173676997423172,-0.2764167785644531,-0.373131662607193,0.5037391781806946,-0.21363869309425354,-1.2960152626037598,-0.06988465040922165,-0.33402109146118164,-0.30655157566070557
1749048074.454811,0.15781353414058685,-1.8131610355772914,2.1891778151141565,-3.642428537408346,4.420094966888428,5.226768970489502,0.3054440915584564,0.009862728416919708,-0.12192755192518234,0.17475232481956482,-0.2720315456390381,-0.3745608329772949,0.4557662010192871,-0.20757010579109192,-1.3024941682815552,-0.067261703312397,-0.3497791588306427,-0.31732505559921265
1749048074.4548469,0.1584596484899521,-1.813136716882223,2.1889503637896937,-3.642116209069723,4.4195990562438965,5.226024627685547,0.30263444781303406,0.010127504356205463,-0.12207987159490585,0.17604494094848633,-0.27194035053253174,-0.3783268630504608,0.5667001008987427,-0.19267812371253967,-1.3409162759780884,-0.06205140799283981,-0.36925458908081055,-0.33609890937805176
