nimar13/UR3e_dataset_trayectorias/trayectorias_ejecutadas/trapezoidal/trayectoria_172_result.csv
timestamp,q1,q2,q3,q4,q5,q6,qd1,qd2,qd3,qd4,qd5,qd6,tau1,tau2,tau3,tau4,tau5,tau6
1749051268.1862924,-5.529077951108114,-0.5838411015323182,-0.6913785934448242,4.876910733967581,-2.1423638502704065,-3.7582810560809534,-0.014984342269599438,7.61764553658395e-08,-0.0017159833805635571,0.01068156212568283,-0.010257716290652752,-0.009081775322556496,-0.1904079020023346,-1.2331326007843018,-0.6480556726455688,-0.36839771270751953,-0.31832173466682434,-0.12108443677425385
1749051268.1863387,-5.52908289829363,-0.5838068288615723,-0.6913821697235107,4.876938524633207,-2.142346207295553,-3.7583122889148157,-0.012677551247179508,7.432237048021761e-10,-0.0013816592982038856,0.009231561794877052,-0.007425891701132059,-0.007171016652137041,-0.20458319783210754,-1.249818205833435,-0.6278114318847656,-0.37297236919403076,-0.3057696223258972,-0.10466881096363068
1749051268.186383,-5.529088024293081,-0.5838138622096558,-0.6913740038871765,4.876985150366583,-2.142425839100973,-3.7582860628711146,-0.011982998810708523,7.251341020697577e-12,-0.0011759266490116715,0.007253706455230713,-0.004243385512381792,-0.0046676285564899445,-0.15221169590950012,-1.2305335998535156,-0.603274405002594,-0.38430652022361755,-0.2984265983104706,-0.0956972986459732
1749051268.1864228,-5.52909636894335,-0.5837873977473755,-0.6913857460021973,4.876977908402242,-2.1423876921283167,-3.758277718220846,-0.009376910515129566,-0.0012895651161670685,-0.00033009436447173357,0.005123461596667767,-0.002412826055660844,-0.002972794696688652,-0.12594850361347198,-1.244313359260559,-0.5998317003250122,-0.4059850573539734,-0.29682889580726624,-0.09695859253406525
1749051268.1864614,-5.5291465560542505,-0.5837965172580262,-0.6913702487945557,4.876977893501081,-2.142360035573141,-3.7583208719836634,-0.00567734194919467,-0.0014537236420437694,-0.00024168784148059785,0.0030216467566788197,-0.0015191835118457675,-0.0020989938639104366,-0.10487061738967896,-1.2520768642425537,-0.5818835496902466,-0.42026883363723755,-0.2863389551639557,-0.0763336569070816
1749051268.1864994,-5.529127661381857,-0.5838341277888794,-0.6913976669311523,4.876962053566732,-2.1424225012408655,-3.7583089510547083,-0.00264588650316,-0.0011527494061738253,-0.00013382488396018744,0.001845623250119388,-0.0011113948421552777,-0.0016134018078446388,-0.11320047080516815,-1.269014835357666,-0.5723703503608704,-0.4310827851295471,-0.2689844071865082,-0.07623143494129181
1749051268.1865373,-5.529108289872305,-0.5838341277888794,-0.6913976669311523,4.876977908402242,-2.142383877431051,-3.7583394686328333,-0.001052325707860291,-0.0009497250430285931,-5.071307168691419e-05,0.0011619753204286098,-0.0007454471196979284,-0.001311838743276894,-0.11295048892498016,-1.2827545404434204,-0.5458616614341736,-0.43978285789489746,-0.24811013042926788,-0.0599333792924881
1749051268.1865754,-5.529096428547994,-0.5838138622096558,-0.6913976669311523,4.876965749054708,-2.142371956502096,-3.7582674662219446,0.0015792467165738344,-0.0009277330827899277,-3.3112012260971824e-06,0.0008182983729057014,-0.0004790445091202855,-0.001061711460351944,-0.10251639783382416,-1.3040934801101685,-0.5524662137031555,-0.4442721903324127,-0.22769540548324585,-0.05327357351779938
1749051268.186613,-5.5291346351252955,-0.5837686222842713,-0.6913702487945557,4.87695840278224,-2.142360035573141,-3.7582860628711146,0.004436285700649023,-0.0009240043582394719,-2.1619776191528217e-07,0.0005264736828394234,7.671573985135183e-05,-0.0008545913151465356,-0.10435058176517487,-1.3113288879394531,-0.5320552587509155,-0.475647896528244,-0.23630687594413757,-0.0472666472196579
1749051268.1866503,-5.529111687337057,-0.5838222068599244,-0.6913702487945557,4.8769816038902185,-2.1423757711993616,-3.7583020369159144,0.004006038885563612,-0.0008496991940774024,-1.4116169566591452e-08,-0.0002560013672336936,0.0003099872265011072,-0.0007419280591420829,-0.07508637011051178,-1.3336611986160278,-0.525408148765564,-0.4676532447338104,-0.2132248878479004,-0.045186370611190796
1749051268.186691,-5.529099885617391,-0.5838187497905274,-0.691377580165863,4.876962053566732,-2.1423757711993616,-3.758298699055807,0.0033584069460630417,-0.0009997442830353975,0.0026551885530352592,-0.0004736468254122883,0.00046374541125260293,-0.0005085197044536471,-0.05703330039978027,-1.3480312824249268,-0.5553793907165527,-0.4832998216152191,-0.21343785524368286,-0.03039667010307312
1749051268.1867323,-5.529069308434622,-0.5838326972774048,-0.6913423538208008,4.8769432483013055,-2.142386261616842,-3.758317295704977,0.0046477955766022205,-0.002545989351347089,0.0026618156116455793,-0.0008864449919201434,0.0009824022417888045,-0.0002351114817429334,-0.04401730000972748,-1.3239997625350952,-0.5517090559005737,-0.4921732246875763,-0.21321095526218414,-0.02020721137523651
1749051268.1867707,-5.52909487882723,-0.5838495057872315,-0.6913268566131592,4.876997145801344,-2.142355267201559,-3.758305613194601,0.005442279856652021,-0.0024635877925902605,0.0021329757291823626,-0.0015434661181643605,0.0018760187085717916,-0.00010768517677206546,-0.05630147457122803,-1.3236349821090698,-0.5503573417663574,-0.5103904604911804,-0.20421600341796875,-0.021871417760849
1749051268.1868079,-5.529057327901022,-0.5838411015323182,-0.6913578510284424,4.876981588989057,-2.1423209349261683,-3.758277718220846,0.006498359143733978,-0.0017846324481070042,0.0016914816806092858,-0.0021182622294873,0.002664049156010151,-2.6397459805593826e-05,-0.04049670696258545,-1.3471111059188843,-0.5379040241241455,-0.49343299865722656,-0.21007254719734192,0.002468124032020569
1749051268.1868448,-5.529024426137106,-0.5838187497905274,-0.6913459300994873,4.876965749054708,-2.142355267201559,-3.7583020369159144,0.006708450615406036,-0.0013409078819677234,0.0015400986885651946,-0.0022614754270762205,0.0027925099711865187,-4.664708285417873e-06,-0.034980565309524536,-1.3598039150238037,-0.5417828559875488,-0.5098375678062439,-0.20363342761993408,0.004740014672279358
1749051268.186885,-5.529002253209249,-0.5838118952563782,-0.6913495063781738,4.876954066544332,-2.142362419758932,-3.758289639149801,0.006584268994629383,-0.0012460278812795877,0.0013221829431131482,-0.0020069479942321777,0.0023200216237455606,-8.243029014920467e-07,-0.04464152455329895,-1.3446474075317383,-0.5237278342247009,-0.521830141544342,-0.20301049947738647,0.011031940579414368
1749051268.1869261,-5.529062632714407,-0.5837999743274231,-0.6913340091705322,4.876965749054708,-2.1423242727862757,-3.7582743803607386,0.006719551980495453,-0.0010444761719554663,0.001912592677399516,-0.001831407193094492,0.0018902005394920707,0.0009489243966527283,-0.05155074596405029,-1.3459076881408691,-0.5230833292007446,-0.5268490314483643,-0.19702962040901184,-0.00021184980869293213
1749051268.1869645,-5.528992180024282,-0.5838152927211304,-0.6913220882415771,4.876942145615377,-2.1423209349261683,-3.7582860628711146,0.006533755920827389,-0.0010101967491209507,0.00234357756562531,-0.001884501427412033,0.0014308118261396885,0.0018673539161682129,-0.04378369450569153,-1.369238018989563,-0.5396453142166138,-0.51410311460495,-0.19816374778747559,0.0017665773630142212
1749051268.1870012,-5.528992180024282,-0.5838033717921753,-0.6913412809371948,4.876938509732046,-2.142343346272604,-3.7582624594317835,0.006311607081443071,-0.0007547683198936284,0.002610810799524188,-0.0019112990703433752,0.0013891347916796803,0.0019001360051333904,-0.03954845666885376,-1.36016047000885,-0.5326526165008545,-0.5360173583030701,-0.1783253699541092,-0.0007727295160293579
1749051268.1870382,-5.528992180024282,-0.5838033717921753,-0.6913412809371948,4.876938509732046,-2.142343346272604,-3.7582624594317835,0.006311607081443071,-0.0007547683198936284,0.002610810799524188,-0.0019112990703433752,0.0013891347916796803,0.0019001360051333904,-0.03954845666885376,-1.36016047000885,-0.5326526165008545,-0.5360173583030701,-0.1783253699541092,-0.0007727295160293579
1749051268.1874564,-5.5290074984179896,-0.5838341277888794,-0.6913602948188782,4.876961338310995,-2.142350498829977,-3.758289639149801,0.005900102201849222,-0.0007078247726894915,0.002253797138109803,-0.0019863129127770662,0.0014004143886268139,0.001786704990081489,-0.03937748074531555,-1.382327914237976,-0.5379325151443481,-0.5307121276855469,-0.17190828919410706,0.001985982060432434
1749051268.1894562,-5.528975192700521,-0.5838341277888794,-0.6913220882415771,4.8769302544887445,-2.1423075834857386,-3.7582743803607386,0.005955998785793781,-0.0014650133671239018,0.0012003998272120953,-0.0016697621904313564,0.0011945182923227549,0.001449348870664835,-0.05438291281461716,-1.3485581874847412,-0.52027428150177,-0.5357282757759094,-0.18913120031356812,0.00042788684368133545
1749051268.2343,-5.529014352952139,-0.5837999743274231,-0.6913185119628906,4.8769457814987085,-2.1423657576190394,-3.758277718220846,0.0055573126301169395,-0.001455123769119382,0.0009398720576427877,-0.0014381043147295713,0.000992741552181542,0.0011665731435641646,-0.04099271446466446,-1.3393666744232178,-0.5276188850402832,-0.5360203385353088,-0.18443845212459564,0.01462148129940033
1749051268.2343473,-5.528990511094229,-0.5838425916484375,-0.6913340091705322,4.876926588803091,-2.1423190275775355,-3.758259121571676,0.004582478664815426,-0.0013389610685408115,0.0009083253680728376,-0.0012171659618616104,0.0008400190272368491,0.001041104318574071,-0.03479094058275223,-1.3555703163146973,-0.5178203582763672,-0.5449957251548767,-0.1771492063999176,-0.000969231128692627
1749051268.2343876,-5.528935496007101,-0.5838460487178345,-0.6913495063781738,4.876914354949751,-2.142297093068258,-3.7582345644580286,0.004013992380350828,-0.0011417630594223738,0.0008551687933504581,-0.0012188118416815996,0.0007929870625957847,0.0010037508327513933,-0.03551093488931656,-1.346697449684143,-0.5196465253829956,-0.5383707284927368,-0.18895107507705688,0.017341449856758118
1749051268.2344263,-5.528908852730886,-0.5838238161853333,-0.6913026571273804,4.876930224686422,-2.1423314253436487,-3.7582438627826136,0.0033679762855172157,-0.0009854823583737016,0.0008024720591492951,-0.001457564882002771,0.0007368667284026742,0.0009862002916634083,-0.031943418085575104,-1.3510297536849976,-0.5254448056221008,-0.5516905188560486,-0.1890195906162262,0.025848105549812317
1749051268.2344642,-5.528923575078146,-0.5838664335063477,-0.6913340091705322,4.876933935075559,-2.1423314253436487,-3.7582743803607386,0.003003602847456932,-0.0008102947613224387,0.0007147617870941758,-0.001636670553125441,0.0006653348100371659,0.0009860284626483917,-0.020115740597248077,-1.3544014692306519,-0.5197646617889404,-0.5339775681495667,-0.18849197030067444,0.008856326341629028
1749051268.2345023,-5.528938893471853,-0.5838494461825867,-0.6913149356842041,4.8769216416175745,-2.1423314253436487,-3.7582691351519983,0.0026745793875306845,-0.0006835544481873512,0.0006421817233785987,-0.0019814709667116404,0.0006634491146542132,0.0009875902906060219,-0.01682378351688385,-1.3415800333023071,-0.510441780090332,-0.5352292060852051,-0.1701158881187439,0.010219916701316833
1749051268.23454,-5.528973464165823,-0.5838203591159363,-0.6913495063781738,4.8768872795398615,-2.1423280874835413,-3.7582691351519983,0.0025378605350852013,-0.0006994144641794264,0.0006599805201403797,-0.001870646607130766,0.0006241484661586583,0.0009619841584935784,-0.03536118566989899,-1.3402982950210571,-0.5092115998268127,-0.5280358791351318,-0.1837960034608841,0.019064784049987793
1749051268.2345772,-5.528896812592642,-0.5838579696467896,-0.6913340091705322,4.8769216416175745,-2.1423004309283655,-3.7582574526416224,0.0026135488878935575,-0.0006288599688559771,0.0006090141832828522,-0.001619376358576119,0.0005772536969743669,0.000970422406680882,-0.05080612003803253,-1.3315595388412476,-0.5123785734176636,-0.5303309559822083,-0.20174533128738403,0.003619268536567688
1749051268.2346156,-5.528915528451101,-0.5838545125773926,-0.6913304328918457,4.876890840917387,-2.1423190275775355,-3.758284393941061,0.0024411140475422144,-0.0005633310065604746,0.0005618810537271202,-0.0014130534837022424,0.0005348566919565201,0.0011268343077972531,-0.05033205449581146,-1.3214513063430786,-0.5132567882537842,-0.5324115753173828,-0.20550546050071716,0.007425874471664429
1749051268.234654,-5.528912130986349,-0.5838663739017029,-0.6913340091705322,4.876910018711843,-2.142334763203756,-3.758237902318136,0.0020625623874366283,-0.0005100974813103676,0.0005212029791437089,-0.0011964690638706088,0.0004978989018127322,0.0012240879004821181,-0.044418081641197205,-1.3419275283813477,-0.5198812484741211,-0.51588374376297,-0.1929289996623993,0.004801765084266663
1749051268.2346919,-5.528912130986349,-0.5838510555079957,-0.6913495063781738,4.876906382828512,-2.1423004309283655,-3.75830322900881,0.0015598164172843099,-0.00046605680836364627,0.0004859223263338208,-0.0009263823740184307,0.0004656600649468601,0.0013591866008937359,-0.04170773923397064,-1.3232568502426147,-0.5045837163925171,-0.5150668621063232,-0.18309620022773743,0.019347399473190308
1749051268.2347293,-5.528891686593191,-0.5838579696467896,-0.6913304328918457,4.876906382828512,-2.1423314253436487,-3.7582810560809534,0.0013892712304368615,-0.0004290170909371227,0.000455247878562659,-0.0007337004062719643,0.000437336100731045,0.0013818982988595963,-0.07147271931171417,-1.3327361345291138,-0.5284967422485352,-0.5273511409759521,-0.19885915517807007,0.013287872076034546
1749051268.2347665,-5.528918925915853,-0.5838391941836854,-0.6913185119628906,4.876890840917387,-2.1423538366900843,-3.7582574526416224,0.0011524615110829473,-0.00039743600063957274,0.0004281662404537201,-0.0006236379267647862,0.00041226320900022984,0.0012836407404392958,-0.07663071155548096,-1.303207278251648,-0.508217453956604,-0.5183839797973633,-0.19551920890808105,-0.010521143674850464
1749051268.2348073,-5.528896812592642,-0.5838579696467896,-0.6913304328918457,4.876894461899557,-2.142362419758932,-3.758294645939962,0.000974321854300797,-0.00037018509465269744,0.00040406829793937504,-0.0005460191750898957,0.00038991161272861063,0.0011059145908802748,-0.06487247347831726,-1.3163520097732544,-0.509915292263031,-0.525452196598053,-0.19535326957702637,0.011358022689819336
1749051268.2348452,-5.528876368199484,-0.5838494461825867,-0.6913027167320251,4.87690997400836,-2.1422951857196253,-3.758237902318136,0.0008437161450274289,-0.0003464325563982129,0.0003826347819995135,-0.0004863257927354425,0.00036986160557717085,0.0009469315991736948,-0.08431383967399597,-1.2864528894424438,-0.5209934115409851,-0.51275634765625,-0.2104986310005188,0.017956510186195374
1749051268.234882,-5.528910462056295,-0.5838510555079957,-0.6913340091705322,4.876921611815252,-2.142334763203756,-3.758272711430685,0.0007439241162501276,-0.0003255444171372801,0.00036332241143099964,-0.0004386984510347247,0.00035177430254407227,0.0008236289140768349,-0.06834481656551361,-1.2986809015274048,-0.5100938081741333,-0.5258604288101196,-0.20174835622310638,0.007780775427818298
1749051268.2349186,-5.52888143459429,-0.5838425916484375,-0.6913340091705322,4.876890811115064,-2.142341915761129,-3.758237902318136,0.0002485558215994388,-0.00030703225638717413,0.00034582451917231083,-0.00039959768764674664,0.00033537537092342973,0.000811269972473383,-0.07569323480129242,-1.2937284708023071,-0.5146052837371826,-0.5236064791679382,-0.19636337459087372,0.0035785436630249023
1749051268.234955,-5.5288695136653345,-0.5838238161853333,-0.6913375854492188,4.876928838878431,-2.1423118750201624,-3.7582505385028284,0.0002072840725304559,-0.00024365977151319385,0.0002503092691767961,-0.0003668896097224206,0.00032043884857557714,0.0007418303284794092,-0.06996218860149384,-1.2974458932876587,-0.5225268602371216,-0.5313398838043213,-0.20653091371059418,0.019017308950424194
1749051268.2349918,-5.528891686593191,-0.5838579100421448,-0.6913530826568604,4.8769181100423715,-2.142338577901022,-3.75826079050173,0.0001857402385212481,-0.00022974866442382336,0.0002269528340548277,-0.00033918634289875627,0.0003067762590944767,0.0006746464059688151,-0.10511185228824615,-1.3028515577316284,-0.5148385763168335,-0.5154021978378296,-0.19354042410850525,0.019214272499084473
1749051268.2350287,-5.528930250798361,-0.5838084381869812,-0.6913530230522156,4.8769374815519235,-2.1423314253436487,-3.7582691351519983,0.00016837305156514049,-0.00021857363753952086,0.0002153593668481335,-0.0003153703873977065,0.0002942320716101676,0.0005722864880226552,-0.08806098997592926,-1.3002642393112183,-0.5203462839126587,-0.5329118371009827,-0.20721787214279175,0.019125908613204956
1749051268.2350655,-5.528896812592642,-0.5838357371142884,-0.691309928894043,4.876902821450987,-2.142341915761129,-3.758231226597921,8.492661436321214e-05,-0.00020844821119681,0.00022558067576028407,-0.0002946631866507232,0.00028267374727874994,0.00045435450738295913,-0.11282694339752197,-1.3068994283676147,-0.525810718536377,-0.5376339554786682,-0.19182822108268738,0.013443917036056519
1749051268.2351022,-5.528884891663687,-0.5838152927211304,-0.6913185119628906,4.8768872646387,-2.1423190275775355,-3.758219305668966,2.4165315153368283e-06,-0.0001992193574551493,0.0002344516251469031,-0.000276541686616838,0.00027199022588320076,0.0004941954393871129,-0.10065042972564697,-1.29352867603302,-0.5222296118736267,-0.5610557794570923,-0.2249653935432434,0.04237416386604309
1749051268.2354405,-5.5289268533336084,-0.5838425916484375,-0.6913220882415771,4.876890826016226,-2.142304245625631,-3.7582481543170374,2.357714912193387e-08,-0.00019077348406426609,0.00022584122780244797,-0.0002605126064736396,0.0002620851737447083,0.0005580310244113207,-0.11145804822444916,-1.3089362382888794,-0.5298516154289246,-0.5618893504142761,-0.20684108138084412,0.03806738555431366
1749051268.2373922,-5.528930250798361,-0.5837873977473755,-0.691278874874115,4.876918065338888,-2.142315689717428,-3.758231226597921,2.3003296489854108e-10,-0.0001830144174164161,0.00024358944210689515,-0.00027419038815423846,0.00025287611060775816,0.0013868400128558278,-0.12970484793186188,-1.3318434953689575,-0.5169565677642822,-0.5787845849990845,-0.20317848026752472,0.06696531176567078
1749051268.2782762,-5.528938893471853,-0.5838510555079957,-0.6912907361984253,4.876902836352148,-2.1423075834857386,-3.7582574526416224,-0.001468556933104992,-0.0001758614816935733,0.00024263565137516707,-0.0003417022235225886,0.0002442926343064755,0.0027492616791278124,-0.10772643983364105,-1.3409656286239624,-0.5397108793258667,-0.588904619216919,-0.19113510847091675,0.055319949984550476
1749051268.2783241,-5.528947893773214,-0.5838306707194825,-0.691309928894043,4.876875269203939,-2.1423075834857386,-3.75822621980776,-0.0016342613380402327,-0.00019235631043557078,0.00023414600582327694,-0.0004310777585487813,0.00021022380678914487,0.004498574882745743,-0.07023444771766663,-1.3497778177261353,-0.5192229747772217,-0.5995756387710571,-0.18043412268161774,0.0640273243188858
1749051268.2783644,-5.528966728840963,-0.5838272136500855,-0.6913185119628906,4.876878919988432,-2.142291847859518,-3.75822097459902,-0.0012627245159819722,-0.00019562998204492033,0.00022580739459954202,-0.004821062553673983,0.0001642218412598595,0.005923006683588028,-0.0994044691324234,-1.3598304986953735,-0.5249239206314087,-0.5899803638458252,-0.17816942930221558,0.053938835859298706
1749051268.2784057,-5.528920177613394,-0.5838495057872315,-0.6913257241249084,4.876901778369703,-2.142243210469381,-3.7582057158099573,-0.0010228889295831323,-0.00018888655176851898,0.0002179961302317679,-0.00608332734555006,0.00016909238183870912,0.007242974825203419,-0.08686693012714386,-1.3847774267196655,-0.5387102365493774,-0.5969395637512207,-0.15708060562610626,0.10184098035097122
1749051268.2784462,-5.528947893773214,-0.5838051003268738,-0.6913220882415771,4.876886221557417,-2.1423190275775355,-3.758209292088644,-0.0008599117863923311,-0.0002119523851433769,0.00021068747446406633,-0.005838384851813316,0.00018265594553668052,0.010082552209496498,-0.07653079926967621,-1.406941533088684,-0.5411746501922607,-0.6138286590576172,-0.13753481209278107,0.062410540878772736
1749051268.2784846,-5.5289581457721155,-0.5838613671115418,-0.6913062930107117,4.876862022071638,-2.142315689717428,-3.7581780592547815,-0.0007416820735670626,-0.00023443691316060722,0.00020388361008372158,-0.006417461670935154,0.00020972896891180426,0.012236851267516613,-0.0622640997171402,-1.3965840339660645,-0.5335506200790405,-0.6381407380104065,-0.11218531429767609,0.09360700845718384
1749051268.278522,-5.528916601334707,-0.5838613671115418,-0.6913412809371948,4.876846778183737,-2.142362419758932,-3.758157555256979,-0.0006519858725368977,-0.0002025293215410784,0.0001974925398826599,-0.008831663988530636,0.0008893948397599161,0.014288302510976791,-0.07642126083374023,-1.4241362810134888,-0.5315452814102173,-0.657479465007782,-0.09416387975215912,0.0768519788980484
1749051268.2785637,-5.528931979333059,-0.5838460487178345,-0.6913062930107117,4.876791882305898,-2.1422880331622522,-3.75813872018923,-0.0005817637429572642,-0.0002586109912954271,0.00019147535203956068,-0.011122813448309898,0.002679564291611314,0.016286548227071762,-0.05444502830505371,-1.426445484161377,-0.5502605438232422,-0.6604122519493103,-0.0743473619222641,0.08523502945899963
1749051268.2786033,-5.528916601334707,-0.5838238161853333,-0.6913257241249084,4.876783224731245,-2.142329517995016,-3.7581148783313196,-0.0004385811334941536,-0.0021721580997109413,0.00018583927885629237,-0.013093306683003902,0.005142924375832081,0.019054660573601723,-0.060284242033958435,-1.4104315042495728,-0.5415204763412476,-0.6646968722343445,-0.07035915553569794,0.09016894549131393
1749051268.278641,-5.528912130986349,-0.5838238161853333,-0.6913220882415771,4.876783209830084,-2.142279926930563,-3.758097473775045,-0.0003988122334703803,-0.0026292765978723764,0.00018051468941848725,-0.014874618500471115,0.007139749359339476,0.019800426438450813,-0.03829033672809601,-1.4087659120559692,-0.5452449917793274,-0.6811768412590027,-0.05799008905887604,0.07567919045686722
1749051268.2786784,-5.528935496007101,-0.5838698905757447,-0.6912944316864014,4.876716467529096,-2.1423023382769983,-3.758042875920431,-0.00024408628814853728,-0.002184645039960742,0.00017547421157360077,-0.015852775424718857,0.009691007435321808,0.019435934722423553,-0.025902196764945984,-1.4276942014694214,-0.5463632345199585,-0.6692945957183838,-0.042596444487571716,0.0912255272269249
1749051268.2787197,-5.528958086167471,-0.5838391345790406,-0.6912871599197388,4.876699852734365,-2.1422389189349573,-3.758019034062521,4.3287032895023e-05,-0.0018812488997355103,0.00017072931223083287,-0.017131317406892776,0.011936248280107975,0.020151766017079353,-0.01199544221162796,-1.4544256925582886,-0.55622398853302,-0.659947395324707,-0.02322615683078766,0.10412096977233887
1749051268.278758,-5.528908852730886,-0.5838322204402466,-0.691309928894043,4.8766482202108286,-2.1422041098224085,-3.7579708735095423,0.0003362193237990141,-0.0017013258766382933,0.00016622488328721374,-0.018038973212242126,0.013925689272582531,0.01977113075554371,0.008972644805908203,-1.46225106716156,-0.5484840869903564,-0.6669420003890991,-0.019881397485733032,0.11550876498222351
1749051268.2787955,-5.528890136872427,-0.5838545125773926,-0.6913062334060669,4.876612755447187,-2.1422203222857874,-3.7579436937915247,0.0024704134557396173,-0.002320573665201664,9.717630746308714e-05,-0.017973169684410095,0.016504228115081787,0.018625035881996155,0.011568322777748108,-1.4680917263031006,-0.5668866634368896,-0.6700711846351624,-0.015723302960395813,0.10630492120981216
1749051268.2788327,-5.528923575078146,-0.5838664335063477,-0.6913220882415771,4.876607882767477,-2.1421411673175257,-3.75790244737734,0.003450667019933462,-0.0036253207363188267,8.413455361733213e-05,-0.01828799583017826,0.019455421715974808,0.018859487026929855,-0.007804356515407562,-1.4723418951034546,-0.571120023727417,-0.6851720213890076,-0.03684094548225403,0.13618695735931396
1749051268.2788725,-5.528896812592642,-0.5839166206172486,-0.691309928894043,4.8765528974826715,-2.142151657735006,-3.75787860551943,0.003243734361603856,-0.004567149095237255,7.984501280589029e-05,-0.019732492044568062,0.01980811543762684,0.019294947385787964,0.015092849731445312,-1.4624613523483276,-0.5759737491607666,-0.699273943901062,-0.03534992039203644,0.13957467675209045
1749051268.2789102,-5.528893474732534,-0.5838902753642579,-0.6913185119628906,4.87650519886569,-2.142045323048727,-3.7578428427325647,0.0036280981730669737,-0.004675471689552069,7.641029515070841e-05,-0.019618213176727295,0.01910659298300743,0.019840413704514503,0.03386557847261429,-1.484523892402649,-0.587523341178894,-0.6869807243347168,-0.02410157024860382,0.1517697274684906
1749051268.278947,-5.528903667126791,-0.5838866990855713,-0.691309928894043,4.876504125982084,-2.1420591513263147,-3.7578099409686487,0.0039782593958079815,-0.004173687659204006,7.330247899517417e-05,-0.018843278288841248,0.019141394644975662,0.02193649671971798,0.06047690287232399,-1.4761879444122314,-0.5847102403640747,-0.7028521299362183,-0.020539507269859314,0.14675116539001465
1749051268.2789845,-5.528884891663687,-0.5839250844768067,-0.6913062930107117,4.876434030919828,-2.141970459614889,-3.7577553431140345,0.005382128991186619,-0.004300170578062534,5.319442061590962e-05,-0.020427383482456207,0.01882951334118843,0.022891240194439888,0.05811174213886261,-1.5108293294906616,-0.59814453125,-0.728804349899292,-0.01009562611579895,0.16002777218818665
1749051268.279024,-5.528888289128439,-0.5838832420161744,-0.6913220882415771,4.876394289522924,-2.1419718901263636,-3.7576850096331995,0.007495851721614599,-0.00604005204513669,3.506135180941783e-05,-0.021946927532553673,0.01851527951657772,0.02491399645805359,0.07588887214660645,-1.506933331489563,-0.6048790216445923,-0.7135071754455566,-0.031130969524383545,0.17486201226711273
1749051268.279464,-5.528861049805776,-0.5839265149882813,-0.6912752389907837,4.87633107879714,-2.1418946425067347,-3.7576902548419397,0.008339932188391685,-0.006852869875729084,1.6737105397623964e-05,-0.02335798181593418,0.019236784428358078,0.027475332841277122,0.06192963570356369,-1.4863263368606567,-0.6146659851074219,-0.7384487986564636,-0.005414992570877075,0.16312989592552185
1749051268.2813845,-5.52884161869158,-0.5839453500560303,-0.6913257241249084,4.876283454685964,-2.141862694417135,-3.7575841585742396,0.009193716570734978,-0.0066726780496537685,1.0928133633569814e-06,-0.024599412456154823,0.019299333915114403,0.029723698273301125,0.07610664516687393,-1.4714024066925049,-0.620232105255127,-0.752211332321167,-0.007318899035453796,0.1894417256116867
1749051268.3222785,-5.52884012857546,-0.5839487475207825,-0.6913220882415771,4.87628601768569,-2.1418731848346155,-3.7575319449054163,0.008789327926933765,-0.00609652791172266,7.135290047699527e-08,-0.026446325704455376,0.01897430047392845,0.031263045966625214,0.08939880132675171,-1.5263999700546265,-0.6341266632080078,-0.7563700079917908,0.012177199125289917,0.1935407519340515
1749051268.3223245,-5.528828207646505,-0.5839879673770447,-0.6912872791290283,4.876226413040914,-2.141825024281637,-3.757453266774313,0.010108073242008686,-0.006704315543174744,4.6588346513942724e-09,-0.02911083772778511,0.019784677773714066,0.03374313935637474,0.1187596321105957,-1.5352345705032349,-0.6247484683990479,-0.7612470984458923,0.024850264191627502,0.17831160128116608
1749051268.3223653,-5.528812889252798,-0.5839622777751465,-0.691309928894043,4.876143756299772,-2.1417630354510706,-3.757427755986349,0.011505268514156342,-0.007265707012265921,3.0418859098269024e-10,-0.03183019906282425,0.020597605034708977,0.03619638830423355,0.10824267566204071,-1.5213030576705933,-0.6463284492492676,-0.7649081349372864,0.05436407029628754,0.19939519464969635
1749051268.3224075,-5.528800908719198,-0.5839936298182984,-0.691309928894043,4.876091408520498,-2.1417530218707483,-3.7573488394366663,0.01127967145293951,-0.007343419827520847,1.9861340003202166e-11,-0.03400034457445145,0.02195092663168907,0.0394720658659935,0.12315011024475098,-1.5545623302459717,-0.6399431228637695,-0.7534923553466797,0.05980195105075836,0.20212343335151672
1749051268.322447,-5.528758351002828,-0.58399851739917,-0.691309928894043,4.875976878195562,-2.141763512288229,-3.757314983998434,0.01160084642469883,-0.007293409202247858,1.296803376488187e-12,-0.03690659627318382,0.025290116667747498,0.04267090559005737,0.13203290104866028,-1.5623795986175537,-0.6577593088150024,-0.7638217806816101,0.05937333405017853,0.22564288973808289
1749051268.3224869,-5.528725568448202,-0.58399851739917,-0.691309928894043,4.875901672035017,-2.141641441975729,-3.75716215768923,0.013847979716956615,-0.008050821721553802,-0.00024350111198145896,-0.0387970469892025,0.02727050520479679,0.04413051903247833,0.12950827181339264,-1.5688613653182983,-0.6608268022537231,-0.7657508850097656,0.07932929694652557,0.21388792991638184
1749051268.3225253,-5.528713587914602,-0.58399851739917,-0.6913257241249084,4.875829908042707,-2.1416099707232874,-3.7571004072772425,0.013894645497202873,-0.008624049834907055,-0.0013797814026474953,-0.04066979140043259,0.030644316226243973,0.04630226641893387,0.12020744383335114,-1.5691295862197876,-0.6587415933609009,-0.7941074967384338,0.06882116198539734,0.21229290962219238
1749051268.3225658,-5.528698269520895,-0.5840496581843873,-0.6913135051727295,4.875730934530058,-2.141522232686178,-3.757017199193136,0.014788379892706871,-0.008858375251293182,-0.0014330771518871188,-0.0441124327480793,0.03346177190542221,0.04737371578812599,0.13756003975868225,-1.5773167610168457,-0.6665997505187988,-0.7791160941123962,0.08222785592079163,0.23578132688999176
1749051268.3226047,-5.528685156499044,-0.5840342801860352,-0.6913062334060669,4.875654729991712,-2.1414859930621546,-3.756916586552755,0.014884255826473236,-0.008570846170186996,-0.0014112252974882722,-0.04668823629617691,0.0349031463265419,0.05029717832803726,0.13471420109272003,-1.6165733337402344,-0.6764354705810547,-0.7680177688598633,0.09230393171310425,0.23854613304138184
1749051268.322642,-5.52861994901766,-0.5840462011149903,-0.691309928894043,4.8755438206489465,-2.141371552144186,-3.7567971388446253,0.015272555872797966,-0.009515170007944107,-0.0013002693885937333,-0.04921295493841171,0.03741952031850815,0.0532488115131855,0.12766791880130768,-1.6172478199005127,-0.6788921356201172,-0.762735903263092,0.08950184285640717,0.22841912508010864
1749051268.322679,-5.528597835694448,-0.5840546649745484,-0.6913257241249084,4.875436576991834,-2.1413148085223597,-3.756674114857809,0.013939997181296349,-0.010011795908212662,-0.0012447601184248924,-0.050372298806905746,0.03842901065945625,0.05618905648589134,0.14390751719474792,-1.6256780624389648,-0.6888248920440674,-0.7959550023078918,0.11088353395462036,0.2267325073480606
1749051268.3227196,-5.528576914464132,-0.5840978187373658,-0.69134122133255,4.875356468349256,-2.1412327925311487,-3.7565696875201624,0.014494993723928928,-0.009778011590242386,-0.0012214622693136334,-0.0520063154399395,0.040116168558597565,0.05772438272833824,0.16197660565376282,-1.6219851970672607,-0.6823776960372925,-0.7799607515335083,0.09746146202087402,0.2353161871433258
1749051268.3227568,-5.5285189787494105,-0.5841177266887208,-0.6913062930107117,4.875218066364088,-2.141202751790182,-3.756430689488546,0.014007930643856525,-0.010654406622052193,-0.0013210460310801864,-0.05386744439601898,0.042012058198451996,0.059773270040750504,0.16676685214042664,-1.6338623762130737,-0.7099624872207642,-0.7720353603363037,0.10474894195795059,0.2358105182647705
1749051268.3227942,-5.5285343567477625,-0.5840841692737122,-0.6913412809371948,4.875114175468244,-2.1410682837115687,-3.7563450972186487,0.014931825920939445,-0.011503083631396294,-0.0019084867089986801,-0.057091355323791504,0.04488516226410866,0.06261594593524933,0.16776065528392792,-1.6335012912750244,-0.7090095281600952,-0.7729189395904541,0.12345435470342636,0.21821129322052002
1749051268.3228314,-5.528517309819357,-0.5841484230807801,-0.691309928894043,4.8750187931354425,-2.140991989766256,-3.7561937014209192,0.014525479637086391,-0.011124920099973679,-0.0030590584501624107,-0.057452064007520676,0.04789232090115547,0.06284947693347931,0.1700487583875656,-1.620732069015503,-0.7031869888305664,-0.7807536721229553,0.12355722486972809,0.2104240357875824
1749051268.322872,-5.528408352528707,-0.5841226738742371,-0.6913495063781738,4.874903175025739,-2.1409009138690394,-3.7560587565051478,0.015407152473926544,-0.010441567748785019,-0.0032766542863100767,-0.05592544376850128,0.05047476291656494,0.06374301761388779,0.14872591197490692,-1.651255488395691,-0.6978933811187744,-0.7926427721977234,0.12003478407859802,0.22718413174152374
1749051268.32291,-5.528426949177877,-0.5841966432384034,-0.6913459300994873,4.874780389457502,-2.140796963368551,-3.755946222935812,0.01445460319519043,-0.009708335623145103,-0.003486745059490204,-0.056184712797403336,0.052276626229286194,0.06466230005025864,0.1676751673221588,-1.6676814556121826,-0.6888395547866821,-0.8188986778259277,0.12461784482002258,0.2364041805267334
1749051268.3229473,-5.528425399457113,-0.5842254918864747,-0.6913578510284424,4.874645384937086,-2.1407440344439905,-3.755798641835348,0.015720166265964508,-0.010488236322999,-0.00325488462112844,-0.05978236719965935,0.05159411579370499,0.06828294694423676,0.17245754599571228,-1.6666321754455566,-0.7029203772544861,-0.8345011472702026,0.14002642035484314,0.22581231594085693
1749051268.3229842,-5.528378669415609,-0.5842323464206238,-0.6913578510284424,4.874538156181135,-2.1406057516681116,-3.7556586901294153,0.015475868247449398,-0.011280149221420288,-0.0029194855596870184,-0.061641547828912735,0.05252503231167793,0.07254809886217117,0.17169782519340515,-1.6535621881484985,-0.7172363996505737,-0.834921658039093,0.16632018983364105,0.2141212522983551
1749051268.3230247,-5.528343085442678,-0.584252731209137,-0.6913614273071289,4.874375659018316,-2.1405251661883753,-3.755529228840963,0.016410494223237038,-0.010583251714706421,-0.0027606633957475424,-0.06419047713279724,0.05633864924311638,0.07085015624761581,0.16606523096561432,-1.6585171222686768,-0.7134295701980591,-0.8109115958213806,0.1430889368057251,0.22017699480056763
1749051268.3233967,-5.528326098118917,-0.5842548173717041,-0.6913739442825317,4.874240758806028,-2.140376869832174,-3.755394522343771,0.016018882393836975,-0.01081882230937481,-0.004002846777439117,-0.06764580309391022,0.058326881378889084,0.06965545564889908,0.1731790453195572,-1.6779907941818237,-0.7231463193893433,-0.8237715363502502,0.1383616030216217,0.23641258478164673
1749051268.3253732,-5.528231863175527,-0.5842786592296143,-0.6913702487945557,4.874120431929388,-2.1402791182147425,-3.755235020314352,0.016725996509194374,-0.011398239061236382,-0.005195176228880882,-0.06827881932258606,0.059449270367622375,0.07249287515878677,0.16127526760101318,-1.6648210287094116,-0.6904183626174927,-0.8140108585357666,0.1405525654554367,0.2504558563232422
1749051268.3662841,-5.528254095708029,-0.5842940372279664,-0.6913976669311523,4.87400512674407,-2.140174690877096,-3.755063597355978,0.01668645441532135,-0.011349497362971306,-0.005290233995765448,-0.06728728860616684,0.06291750818490982,0.07528803497552872,0.17782831192016602,-1.6707004308700562,-0.700275182723999,-0.8508949279785156,0.12639056146144867,0.26604726910591125
1749051268.366334,-5.528218332921163,-0.5843332570842286,-0.6914095878601074,4.873823451786794,-2.140074078236715,-3.7549105326281946,0.016977891325950623,-0.01200744416564703,-0.005869291257113218,-0.06869465112686157,0.06447117775678635,0.07838007807731628,0.18552210927009583,-1.6575270891189575,-0.7057896852493286,-0.8641546964645386,0.15391144156455994,0.22454407811164856
1749051268.3663828,-5.528201405202047,-0.584388331776001,-0.6914336681365967,4.873680564552107,-2.13991624513735,-3.754742685948507,0.017304876819252968,-0.012177186086773872,-0.0063615525141358376,-0.07313066720962524,0.06471599638462067,0.08090947568416595,0.16818267107009888,-1.6724669933319092,-0.6852117776870728,-0.8495393395423889,0.16190505027770996,0.23127874732017517
1749051268.3664238,-5.528136495743887,-0.5844121140292664,-0.6914181709289551,4.873547944217481,-2.1397951284991663,-3.7545838991748255,0.01668696291744709,-0.011957302689552307,-0.006132966838777065,-0.0763312578201294,0.06390134990215302,0.0809037834405899,0.19790250062942505,-1.6800907850265503,-0.6962396502494812,-0.846630871295929,0.1761060357093811,0.25346988439559937
1749051268.3664625,-5.528084758912222,-0.5844205778888245,-0.6914300918579102,4.873420554190435,-2.139664951954977,-3.7543938795672815,0.018027078360319138,-0.01247112825512886,-0.00646077049896121,-0.07808521389961243,0.06602821499109268,0.08234556764364243,0.20759132504463196,-1.6955599784851074,-0.6883903741836548,-0.8413687944412231,0.1957797408103943,0.24568012356758118
1749051268.3665013,-5.528074804936544,-0.5844291013530274,-0.691411018371582,4.873234498291769,-2.1395605246173304,-3.7542768160449427,0.018272243440151215,-0.012121566571295261,-0.006421426776796579,-0.07973024994134903,0.0695505365729332,0.08566493541002274,0.2009459286928177,-1.673571228981018,-0.6904177665710449,-0.8623484373092651,0.1763468086719513,0.22381195425987244
1749051268.366543,-5.528062884007589,-0.5844687980464478,-0.6914578080177307,4.873063805490293,-2.1393898169146937,-3.754052464162008,0.01780277118086815,-0.012615093030035496,-0.006187748163938522,-0.08266956359148026,0.07076460868120193,0.08772251754999161,0.23005737364292145,-1.6976872682571411,-0.7021607756614685,-0.8598507642745972,0.19049811363220215,0.21451398730278015
1749051268.366582,-5.527996484433309,-0.5844925802997132,-0.6914660930633545,4.872896688967504,-2.1392491499530237,-3.7538607756244105,0.019044285640120506,-0.012808949686586857,-0.0062281847931444645,-0.08580249547958374,0.07160765677690506,0.08951030671596527,0.20959079265594482,-1.7172443866729736,-0.7063196897506714,-0.8495046496391296,0.179665669798851,0.22117748856544495
1749051268.3666203,-5.527979437504904,-0.5845164817622681,-0.6914780139923096,4.872702109604635,-2.1391142050372522,-3.753699843083517,0.019759997725486755,-0.013371404260396957,-0.006187175866216421,-0.08842630684375763,0.07301992177963257,0.09227482974529266,0.1964242160320282,-1.7067667245864868,-0.6984020471572876,-0.8434313535690308,0.20699337124824524,0.1977042555809021
1749051268.366659,-5.5278934876071375,-0.5845254224589844,-0.691524863243103,4.872507470637121,-2.1389673391925257,-3.753488842641012,0.020203495398163795,-0.013076857663691044,-0.00552546139806509,-0.09087412059307098,0.07528860867023468,0.09397466480731964,0.22584283351898193,-1.7035647630691528,-0.7085118293762207,-0.8568809628486633,0.18554937839508057,0.2180807888507843
1749051268.3667135,-5.527880136166708,-0.5845577877810975,-0.6915103793144226,4.872320371657171,-2.1387503782855433,-3.7532811800586146,0.020347213372588158,-0.01332663744688034,-0.005824290681630373,-0.09343217313289642,0.07679376006126404,0.0958457887172699,0.23946407437324524,-1.723096489906311,-0.7201405763626099,-0.8486610054969788,0.19495069980621338,0.215162456035614
1749051268.3667786,-5.527862731610433,-0.584595338707306,-0.6915104389190674,4.872125836997785,-2.1386235396014612,-3.753136221562521,0.02167689986526966,-0.013252709992229939,-0.006063709035515785,-0.0963635966181755,0.07827577739953995,0.09752991795539856,0.2208549678325653,-1.7470974922180176,-0.7135493755340576,-0.8190228343009949,0.20704644918441772,0.19586583971977234
1749051268.366845,-5.527811590825216,-0.5846123260310669,-0.691525936126709,4.871919619828024,-2.1384595076190394,-3.752928082142965,0.022177092730998993,-0.014376495964825153,-0.006496742367744446,-0.09932567179203033,0.07957310229539871,0.10002386569976807,0.21944445371627808,-1.7505218982696533,-0.7049758434295654,-0.7932056784629822,0.18652668595314026,0.20252707600593567
1749051268.3669126,-5.527787748967306,-0.5846826595119019,-0.6915727853775024,4.871736022620954,-2.1382935682879847,-3.7526665369616907,0.022808140143752098,-0.014069613069295883,-0.006080463528633118,-0.09874983876943588,0.08049024641513824,0.10012094676494598,0.2073153257369995,-1.7474913597106934,-0.6956990361213684,-0.8120635747909546,0.21836505830287933,0.22620457410812378
1749051268.366982,-5.527693990861074,-0.5846639436534424,-0.6915619373321533,4.87154101112441,-2.1381261984454554,-3.752493683491842,0.023717861622571945,-0.014962625689804554,-0.005413041450083256,-0.09853121638298035,0.0825914591550827,0.10019292682409286,0.21331964433193207,-1.7582918405532837,-0.7173284888267517,-0.8143297433853149,0.1876872330904007,0.20372971892356873
1749051268.367052,-5.5276764074908655,-0.5846927923015137,-0.6915619373321533,4.871342289238729,-2.1379922072040003,-3.7522853056537073,0.023608118295669556,-0.014788922853767872,-0.005889948457479477,-0.09942369908094406,0.08264970034360886,0.09945166856050491,0.20580506324768066,-1.747741460800171,-0.7212939262390137,-0.8108370304107666,0.18387086689472198,0.2069770097732544
1749051268.3671212,-5.5276100675212305,-0.5847359460643311,-0.6915738582611084,4.8711551306541345,-2.1377905050860804,-3.752073589955465,0.023238612338900566,-0.015457873232662678,-0.0060979342088103294,-0.10314123332500458,0.0831800103187561,0.09980494529008865,0.2360491156578064,-1.7685123682022095,-0.7240259647369385,-0.8032534122467041,0.21074141561985016,0.22443795204162598
1749051268.3671923,-5.527565185223715,-0.5847750467113038,-0.6915897130966187,4.870952161937513,-2.1376317183123987,-3.7518630663501185,0.023731384426355362,-0.015539156273007393,-0.006408408749848604,-0.10133140534162521,0.08484617620706558,0.10131941735744476,0.25919008255004883,-1.7763159275054932,-0.7157604694366455,-0.8258291482925415,0.21412159502506256,0.23455235362052917
1749051268.367261,-5.5275301972972315,-0.5847920936397095,-0.6916055083274841,4.870742249279775,-2.1373937765704554,-3.751653258000509,0.025135498493909836,-0.016485966742038727,-0.006640953477472067,-0.09786932170391083,0.08682812005281448,0.1018313318490982,0.2294018268585205,-1.7757295370101929,-0.7485076785087585,-0.8472278118133545,0.20072375237941742,0.2579258382320404
1749051268.3673291,-5.527466420327322,-0.584828333263733,-0.6916100978851318,4.870554792671957,-2.1372998396502894,-3.751458231602804,0.026276694610714912,-0.01700589433312416,-0.006787952035665512,-0.09788662195205688,0.08790110796689987,0.10241129249334335,0.19862456619739532,-1.7846894264221191,-0.7115058898925781,-0.8777327537536621,0.18835040926933289,0.28031039237976074
1749051268.3676858,-5.527441088353292,-0.5848556321910401,-0.6916173100471497,4.870379495411672,-2.1371496359454554,-3.7512393633471888,0.02638329192996025,-0.01759142428636551,-0.006438039243221283,-0.0998859852552414,0.08960077166557312,0.10686785727739334,0.21510791778564453,-1.779177188873291,-0.7337031960487366,-0.9037795066833496,0.19616162776947021,0.2805948853492737
1749051268.3693771,-5.527370516453878,-0.5848794144443055,-0.6915910243988037,4.87013832011775,-2.136904541646139,-3.7509987990008753,0.026811927556991577,-0.01843542791903019,-0.006606991868466139,-0.10197276622056961,0.09029177576303482,0.10987264662981033,0.23946551978588104,-1.7683305740356445,-0.7282078266143799,-0.905893087387085,0.18278123438358307,0.26496264338493347
1749051268.4102626,-5.527311090623037,-0.5849312108806153,-0.6916341781616211,4.869977775007047,-2.1367490927325647,-3.750768009816305,0.026907090097665787,-0.01889945939183235,-0.0067015141248703,-0.1044934019446373,0.09066250175237656,0.1119796633720398,0.2402421087026596,-1.7679730653762817,-0.7296867370605469,-0.9320023655891418,0.18716034293174744,0.27613046765327454
1749051268.4103093,-5.527270261441366,-0.5849598807147522,-0.6916496753692627,4.869728314667501,-2.1365211645709437,-3.750558916722433,0.0273820199072361,-0.01902351714670658,-0.006707438267767429,-0.10789942741394043,0.09336396306753159,0.11368939280509949,0.24741916358470917,-1.7804261445999146,-0.737299919128418,-0.9242633581161499,0.1841294765472412,0.28061342239379883
1749051268.4103515,-5.527234498654501,-0.5849878352931519,-0.6916893720626831,4.86949813643054,-2.13637620607485,-3.7503188292132776,0.027702707797288895,-0.019652655348181725,-0.006701628677546978,-0.11276743561029434,0.09596119076013565,0.12095169723033905,0.2532266676425934,-1.7897772789001465,-0.7429651021957397,-0.9037562608718872,0.1609392762184143,0.2647092342376709
1749051268.410392,-5.527148787175314,-0.585066096191742,-0.6916735172271729,4.869278821140089,-2.136174027119772,-3.750045124684469,0.02852483280003071,-0.01954100839793682,-0.007014743983745575,-0.11695948988199234,0.09346888959407806,0.12290678918361664,0.24162226915359497,-1.8041596412658691,-0.7370092868804932,-0.9217287302017212,0.1668604016304016,0.25200995802879333
1749051268.4104338,-5.527110878621237,-0.5850606721690674,-0.6916976571083069,4.869005340128698,-2.136017147694723,-3.7498050371753138,0.028433023020625114,-0.019945276901125908,-0.008030131459236145,-0.12073735147714615,0.09359575062990189,0.12504218518733978,0.2528824508190155,-1.785581350326538,-0.7351785898208618,-0.9076433777809143,0.1883777529001236,0.2508755624294281
1749051268.4104729,-5.5270825068103235,-0.5851004880717774,-0.6916940212249756,4.868748071580686,-2.13578445116152,-3.749547783528463,0.029039938002824783,-0.020877111703157425,-0.007687968667596579,-0.12456106394529343,0.094839908182621,0.12997177243232727,0.253717839717865,-1.791223406791687,-0.729900598526001,-0.876215398311615,0.20931139588356018,0.25122255086898804
1749051268.4105108,-5.527034346257345,-0.585186318760254,-0.6917214393615723,4.868523481279173,-2.1356146971331995,-3.749284092579977,0.029933372512459755,-0.021370643749833107,-0.007503038737922907,-0.12669137120246887,0.0996062234044075,0.13133302330970764,0.2518129348754883,-1.8158267736434937,-0.731945276260376,-0.8473638296127319,0.20292045176029205,0.2239559143781662
1749051268.4105487,-5.527034346257345,-0.585186318760254,-0.6917214393615723,4.868523481279173,-2.1356146971331995,-3.749284092579977,0.029933372512459755,-0.021370643749833107,-0.007503038737922907,-0.12669137120246887,0.0996062234044075,0.13133302330970764,0.2518129348754883,-1.8158267736434937,-0.731945276260376,-0.8473638296127319,0.20292045176029205,0.2239559143781662
1749051268.4105864,-5.52690434852709,-0.5852634471705933,-0.6917455196380615,4.867976012616911,-2.135228459035055,-3.748737398778097,0.03027774766087532,-0.02197098731994629,-0.008160947822034359,-0.13192090392112732,0.09905233234167099,0.13170507550239563,0.28834158182144165,-1.8154748678207397,-0.7419900298118591,-0.8321250677108765,0.20992039144039154,0.2391776442527771
1749051268.4106238,-5.526762906705038,-0.585350827579834,-0.6917779445648193,4.867470297008314,-2.134817902241842,-3.7482062021838587,0.03111298754811287,-0.022953132167458534,-0.00777077954262495,-0.1278834342956543,0.105409175157547,0.13253425061702728,0.32446953654289246,-1.8211925029754639,-0.7588446140289307,-0.8644473552703857,0.2453758418560028,0.21614213287830353
1749051268.410661,-5.526762906705038,-0.585350827579834,-0.6917779445648193,4.867470297008314,-2.134817902241842,-3.7482062021838587,0.03111298754811287,-0.022953132167458534,-0.00777077954262495,-0.1278834342956543,0.105409175157547,0.13253425061702728,0.32446953654289246,-1.8211925029754639,-0.7588446140289307,-0.8644473552703857,0.2453758418560028,0.21614213287830353
1749051268.4106975,-5.5267438928233545,-0.5853949350169678,-0.6918128728866577,4.867204236775198,-2.1345985571490687,-3.7479806582080286,0.03199540078639984,-0.023740582168102264,-0.00832518469542265,-0.1315402388572693,0.10845424234867096,0.13204741477966309,0.30161455273628235,-1.8019497394561768,-0.736897349357605,-0.8458852171897888,0.24378076195716858,0.26971614360809326
1749051268.4107342,-5.52668017545809,-0.5854237836650391,-0.6918056607246399,4.866938429861822,-2.1343935171710413,-3.7476893107043665,0.032635707408189774,-0.023966005071997643,-0.008646722882986069,-0.12853620946407318,0.11004168540239334,0.135967418551445,0.2985802888870239,-1.8029053211212158,-0.7323855757713318,-0.8841694593429565,0.22727927565574646,0.2602164149284363
1749051268.4107704,-5.526633266602651,-0.5854858321002503,-0.6918297410011292,4.866675901203909,-2.1341713110553187,-3.7474094072925013,0.03283638134598732,-0.02489927038550377,-0.008221227675676346,-0.12683147192001343,0.1112835630774498,0.13716542720794678,0.30556121468544006,-1.7637829780578613,-0.721934974193573,-0.8745206594467163,0.19823643565177917,0.2537774443626404
1749051268.4108074,-5.5265764633761805,-0.5855458539775391,-0.6918261051177979,4.866452681809225,-2.133911434804098,-3.7471237818347376,0.03207648545503616,-0.024443309754133224,-0.007601174525916576,-0.1261899620294571,0.11444263905286789,0.1384677141904831,0.2963531017303467,-1.7870298624038696,-0.7220697999000549,-0.8866185545921326,0.17755183577537537,0.25208669900894165
1749051268.4108443,-5.526528839265005,-0.5855900210193177,-0.6918463110923767,4.866193803935804,-2.133749310170309,-3.746894184743063,0.032091446220874786,-0.024693980813026428,-0.006894484627991915,-0.12798114120960236,0.11027548462152481,0.14171186089515686,0.3184449374675751,-1.783151388168335,-0.735054075717926,-0.8998900651931763,0.19144462049007416,0.2533983588218689
1749051268.4108806,-5.5264275709735315,-0.5856383603862305,-0.6918463110923767,4.865931379586019,-2.1334999243365687,-3.746621910725729,0.034364670515060425,-0.024937327951192856,-0.00663016689941287,-0.1310054361820221,0.10977242887020111,0.1444654017686844,0.29035428166389465,-1.7946040630340576,-0.7418201565742493,-0.8947405815124512,0.18964096903800964,0.2472788542509079
1749051268.410917,-5.526335720215933,-0.5856517118266602,-0.6918740272521973,4.8656460521514795,-2.133280579243795,-3.7463422457324427,0.03357997164130211,-0.026689451187849045,-0.007274653762578964,-0.13439194858074188,0.11351945996284485,0.14732612669467926,0.38624733686447144,-1.8317683935165405,-0.7756364345550537,-0.9358251690864563,0.2157759964466095,0.29189035296440125
1749051268.4109538,-5.526332084332601,-0.5857237142375489,-0.6919136643409729,4.86535610535697,-2.133042637501852,-3.7460082213031214,0.03714512288570404,-0.029898032546043396,-0.009881864301860332,-0.13980504870414734,0.11633002758026123,0.1515137106180191,0.35484960675239563,-1.8091444969177246,-0.7687963247299194,-0.9333292841911316,0.20265038311481476,0.269715279340744
1749051268.4109902,-5.526188139115469,-0.5858557385257264,-0.6919255256652832,4.865092518716612,-2.1328495184527796,-3.745706621800558,0.03919530659914017,-0.03190116956830025,-0.01247791014611721,-0.15150649845600128,0.11379232257604599,0.15584810078144073,0.3479958772659302,-1.802155613899231,-0.7445610165596008,-0.8866896629333496,0.23628507554531097,0.24520611763000488
1749051268.4113572,-5.526175383721487,-0.5858349365046998,-0.6919338703155518,4.864802527218618,-2.1326144377337855,-3.745380942021505,0.04020581394433975,-0.032941803336143494,-0.011824697256088257,-0.1518009454011917,0.11602658778429031,0.15839269757270813,0.3071845471858978,-1.7702209949493408,-0.7464455962181091,-0.8680757880210876,0.2229430079460144,0.24730339646339417
1749051268.4134214,-5.526106719170706,-0.5859564703753968,-0.6919734477996826,4.864480349212446,-2.1323874632464808,-3.7450242678271692,0.04041290283203125,-0.032304614782333374,-0.011504454538226128,-0.15323926508426666,0.11771581321954727,0.15878839790821075,0.3138605058193207,-1.7552127838134766,-0.7326015830039978,-0.8624466061592102,0.24414432048797607,0.2257823646068573
1749051268.4542694,-5.5259801785098475,-0.5859978359988709,-0.6920166611671448,4.864178943424978,-2.132155243550436,-3.744755808507101,0.04023788869380951,-0.03121156431734562,-0.011056846007704735,-0.15560081601142883,0.11960206925868988,0.15696854889392853,0.31988513469696045,-1.7652162313461304,-0.725318431854248,-0.8528603911399841,0.266133576631546,0.21785876154899597
1749051268.4543154,-5.525917116795675,-0.5860607785037537,-0.6919972896575928,4.863899948983946,-2.1318419615374964,-3.744392220173971,0.03946613892912865,-0.02987419068813324,-0.010523859411478043,-0.15293192863464355,0.12157762795686722,0.1586725264787674,0.32267558574676514,-1.7633934020996094,-0.7239607572555542,-0.8693512082099915,0.25842803716659546,0.24463602900505066
1749051268.4543557,-5.525844995175497,-0.5860747855952759,-0.6920253038406372,4.863589900522985,-2.131605927144186,-3.7441120783435267,0.03931773826479912,-0.029777800664305687,-0.009802098385989666,-0.153096005320549,0.12480521202087402,0.1560242474079132,0.3342503011226654,-1.7839488983154297,-0.7441734671592712,-0.8715119361877441,0.2456780970096588,0.27585870027542114
1749051268.454394,-5.525799218808309,-0.5861810010722657,-0.6920299530029297,4.863268840103903,-2.1313393751727503,-3.743796412144796,0.039741478860378265,-0.031421877443790436,-0.008897749707102776,-0.15394490957260132,0.12828104197978973,0.15673880279064178,0.3761049807071686,-1.7866166830062866,-0.754509449005127,-0.8844975829124451,0.23854631185531616,0.2860524654388428
1749051268.454432,-5.525693718587057,-0.5862097901156922,-0.6920457482337952,4.862974020629682,-2.131094280873434,-3.7434383074389856,0.04027475044131279,-0.03223029524087906,-0.009989962913095951,-0.15433140099048615,0.13106819987297058,0.1641133725643158,0.35464516282081604,-1.7800374031066895,-0.7506436109542847,-0.8900601863861084,0.20428048074245453,0.27791687846183777
1749051268.4544704,-5.525578323994772,-0.5863009256175538,-0.6920778751373291,4.862663912564077,-2.1308210531817835,-3.7431021372424524,0.04181637987494469,-0.03129351884126663,-0.01009666919708252,-0.1543525904417038,0.13268250226974487,0.16491633653640747,0.3620935082435608,-1.767804503440857,-0.7499396800994873,-0.9183764457702637,0.2264171838760376,0.2799696922302246
1749051268.4545083,-5.525578741227285,-0.5863812130740662,-0.6920742392539978,4.862368958979406,-2.1305421034442347,-3.74273926416506,0.043363407254219055,-0.03151436522603035,-0.009680398739874363,-0.15507248044013977,0.1343938112258911,0.1680418699979782,0.3199450671672821,-1.8047864437103271,-0.7542173862457275,-0.9313251972198486,0.2229519933462143,0.2741536796092987
1749051268.4545453,-5.525402371083395,-0.5864323538592835,-0.692129373550415,4.862031566887655,-2.1303113142596644,-3.7423997561084192,0.04217839986085892,-0.03316911309957504,-0.010023199953138828,-0.15997087955474854,0.13545235991477966,0.17205768823623657,0.3327181339263916,-1.7885903120040894,-0.7478758096694946,-0.9453434348106384,0.20310190320014954,0.2553192675113678
1749051268.4545825,-5.525349859391348,-0.5864700835994263,-0.692141592502594,4.861666428833761,-2.129998509083883,-3.7420833746539515,0.04127119854092598,-0.03302694857120514,-0.010235525667667389,-0.165980726480484,0.13521040976047516,0.17496144771575928,0.3620111346244812,-1.7764862775802612,-0.7284873723983765,-0.8821890354156494,0.20263847708702087,0.2481805384159088
1749051268.4546216,-5.5252477566348475,-0.5865758222392579,-0.6921772956848145,4.8613167879875085,-2.1297434012042444,-3.7417779604541224,0.04363570362329483,-0.03391636908054352,-0.010466606356203556,-0.16902117431163788,0.1354513019323349,0.17422960698604584,0.3393544852733612,-1.782599687576294,-0.7312446236610413,-0.8938483595848083,0.21972405910491943,0.24026383459568024
1749051268.4546585,-5.525151733552114,-0.5866599243930359,-0.6921895146369934,4.8609748659427545,-2.129495445881979,-3.7414549032794397,0.04291386157274246,-0.034495748579502106,-0.010507877916097641,-0.17707866430282593,0.1365860402584076,0.17873291671276093,0.36864954233169556,-1.7480465173721313,-0.7365512251853943,-0.8549402356147766,0.21456655859947205,0.22427111864089966
1749051268.454695,-5.5250901023494166,-0.5867011112025757,-0.692229151725769,4.860604437976637,-2.129288975392477,-3.74109131494631,0.04581235721707344,-0.03311501443386078,-0.011529233306646347,-0.17586246132850647,0.13466700911521912,0.1769847720861435,0.3445029854774475,-1.7804011106491089,-0.7319396138191223,-0.8262962698936462,0.245212122797966,0.260522723197937
1749051268.4547317,-5.52497244278063,-0.5867878359607239,-0.6922495365142822,4.860243069916525,-2.128971878682272,-3.7407434622394007,0.04446161910891533,-0.03264757990837097,-0.012019528076052666,-0.1776997596025467,0.1375327855348587,0.18158596754074097,0.3572687804698944,-1.815330982208252,-0.732860803604126,-0.823971688747406,0.2474730908870697,0.2881172299385071
1749051268.4547684,-5.524862829838888,-0.5868396920016785,-0.6922808289527893,4.859869944840231,-2.128634754811422,-3.7403646151172083,0.04410605877637863,-0.03407200798392296,-0.011670752428472042,-0.17573107779026031,0.1421215534210205,0.1821814775466919,0.36990395188331604,-1.770988941192627,-0.7241078615188599,-0.8205607533454895,0.21260304749011993,0.2754434049129486
1749051268.4548051,-5.52477735677828,-0.586927132015564,-0.6923093795776367,4.85954678335742,-2.1283987204181116,-3.7400086561786097,0.046273548156023026,-0.033752501010894775,-0.01164187490940094,-0.17476528882980347,0.14080128073692322,0.18618056178092957,0.35796526074409485,-1.8277440071105957,-0.729178786277771,-0.8358010053634644,0.2532941699028015,0.31239935755729675
1749051268.4548423,-5.524716500435964,-0.5869990152171631,-0.6923215985298157,4.859216365009107,-2.128077809010641,-3.739652220402853,0.04676324129104614,-0.03442740812897682,-0.012087089940905571,-0.17578113079071045,0.14359436929225922,0.19320285320281982,0.36898374557495117,-1.8087396621704102,-0.7203486561775208,-0.8508893251419067,0.26997047662734985,0.28408297896385193
1749051268.45488,-5.5246281067477625,-0.5870481890491028,-0.6923418045043945,4.858839395433225,-2.127862278615133,-3.739183012639181,0.047683924436569214,-0.03563684597611427,-0.012381786480545998,-0.17878730595111847,0.14625173807144165,0.19819307327270508,0.3404219448566437,-1.8007816076278687,-0.7082580924034119,-0.8468655943870544,0.2545149624347687,0.23551777005195618
1749051268.454917,-5.524504665528433,-0.5871389669230958,-0.6923537254333496,4.858512642770567,-2.12747031847109,-3.738793436680929,0.0471293181180954,-0.03462271764874458,-0.011365125887095928,-0.18023687601089478,0.14900033175945282,0.20054574310779572,0.35415858030319214,-1.7885668277740479,-0.7115504145622253,-0.8559744358062744,0.25033342838287354,0.2263171523809433
1749051268.454953,-5.524440530930654,-0.5871802133372803,-0.692389726638794,4.858108299761572,-2.127152744923727,-3.7383700052844446,0.04772329330444336,-0.03519032895565033,-0.011281756684184074,-0.18376462161540985,0.15110738575458527,0.19985218346118927,0.35490766167640686,-1.7780041694641113,-0.7168493270874023,-0.8098859190940857,0.254349946975708,0.2021733820438385
1749051268.4549897,-5.524364296589987,-0.5872523349574585,-0.6924173831939697,4.857754277973928,-2.126867119465963,-3.737995211278097,0.048094626516103745,-0.03506867587566376,-0.011081893928349018,-0.1852000206708908,0.15553197264671326,0.19623464345932007,0.3400571346282959,-1.8103859424591064,-0.7090820670127869,-0.8308297395706177,0.20775236189365387,0.22042624652385712
1749051268.455447,-5.524214092885153,-0.5873397153666993,-0.6924448013305664,4.857391509204664,-2.1265438238727015,-3.737645451222555,0.047560062259435654,-0.035424597561359406,-0.010778391733765602,-0.18981921672821045,0.15297619998455048,0.19846758246421814,0.34672895073890686,-1.7945019006729126,-0.7095587849617004,-0.7968406677246094,0.20210662484169006,0.2281172275543213
1749051268.4573925,-5.524134282265798,-0.587411181335785,-0.6924655437469482,4.856971549778738,-2.1262057463275355,-3.73726994196047,0.04813448339700699,-0.0350748710334301,-0.010189114138484001,-0.18556645512580872,0.15363875031471252,0.1924598664045334,0.35626497864723206,-1.8000998497009277,-0.6997105479240417,-0.8321657776832581,0.22404691576957703,0.26689866185188293
1749051268.498274,-5.524029914532797,-0.5874831241420289,-0.6924774646759033,4.8565981713827036,-2.1259005705462855,-3.7368982473956507,0.05043046921491623,-0.035587817430496216,-0.009730693884193897,-0.18288201093673706,0.15566986799240112,0.19468654692173004,0.324577271938324,-1.8255858421325684,-0.7295116782188416,-0.8422677516937256,0.1928311437368393,0.2982479929924011
1749051268.498321,-5.523934129868643,-0.5875740808299561,-0.6925098896026611,4.856219979911604,-2.1256020704852503,-3.736464564000265,0.04858811944723129,-0.03667379170656204,-0.010557644069194794,-0.18356500566005707,0.1547391563653946,0.1961376816034317,0.3429147005081177,-1.8169596195220947,-0.7320553064346313,-0.8800874948501587,0.2445073425769806,0.33383452892303467
1749051268.498362,-5.523842517529623,-0.5876119297793885,-0.6925182342529297,4.855853873282232,-2.125282589589254,-3.7360828558551233,0.05100784823298454,-0.037079159170389175,-0.011861671693623066,-0.18775391578674316,0.15584708750247955,0.20083029568195343,0.34646284580230713,-1.8120695352554321,-0.6974505186080933,-0.8707951307296753,0.21809884905815125,0.30240851640701294
1749051268.498402,-5.523704711590902,-0.5876678985408326,-0.69253009557724,4.8554948447044275,-2.1249759832965296,-3.7356906572925013,0.05085214227437973,-0.03615584596991539,-0.011192797683179379,-0.1900019496679306,0.15458926558494568,0.20599225163459778,0.3333810269832611,-1.812410593032837,-0.6956146955490112,-0.8671694397926331,0.2266421616077423,0.28705263137817383
1749051268.4984403,-5.523623768483297,-0.5877775710872193,-0.6925888061523438,4.85510233321742,-2.1246770063983362,-3.735244337712423,0.05277181416749954,-0.036650434136390686,-0.010712885297834873,-0.1942383348941803,0.15594615042209625,0.20954090356826782,0.29463768005371094,-1.8341197967529297,-0.6955106258392334,-0.8499886989593506,0.24029459059238434,0.2795525789260864
1749051268.4984787,-5.523527983819143,-0.587827281360962,-0.6925661563873291,4.854688542872228,-2.1243656317340296,-3.7348409334765833,0.05116230249404907,-0.036655228585004807,-0.009541596285998821,-0.19599172472953796,0.15868373215198517,0.20997795462608337,0.31622111797332764,-1.8404688835144043,-0.7054156064987183,-0.8474118709564209,0.2334178388118744,0.2833010256290436
1749051268.498517,-5.523377005253927,-0.5878992837718506,-0.6925938129425049,4.854298192053594,-2.1240504423724573,-3.7344277540790003,0.05127173662185669,-0.037120234221220016,-0.009314757771790028,-0.19640761613845825,0.1599985510110855,0.21428291499614716,0.3193506598472595,-1.8234870433807373,-0.7314578294754028,-0.8571789264678955,0.23626728355884552,0.2623087465763092
1749051268.498556,-5.523327891026632,-0.587940053348877,-0.69260573387146,4.853854107647695,-2.123728100453512,-3.733973566685812,0.05268262326717377,-0.03674783930182457,-0.009834370575845242,-0.20012253522872925,0.16106343269348145,0.21150106191635132,0.31680405139923096,-1.8398462533950806,-0.7184343338012695,-0.8557990193367004,0.25349560379981995,0.3028032183647156
1749051268.4985936,-5.523243967686788,-0.5880309504321595,-0.6926417350769043,4.853461834579267,-2.1234009901629847,-3.7335968653308313,0.05323975160717964,-0.03836514428257942,-0.010314542800188065,-0.1979614496231079,0.16202963888645172,0.21627812087535858,0.3389851450920105,-1.8625808954238892,-0.7357769012451172,-0.8665928244590759,0.2660332918167114,0.2960914373397827
1749051268.4986312,-5.523109320794241,-0.5881148141673584,-0.6926923990249634,4.853052276163854,-2.123047176991598,-3.733187262211935,0.054353076964616776,-0.040066953748464584,-0.010771404020488262,-0.20402218401432037,0.1629476696252823,0.21892951428890228,0.33344659209251404,-1.8474587202072144,-0.7380399703979492,-0.8711729049682617,0.27933159470558167,0.3101678490638733
1749051268.4986684,-5.522998575364248,-0.5881987375072022,-0.6926934719085693,4.852668362646856,-2.1227501074420374,-3.732694212590353,0.053963080048561096,-0.040378980338573456,-0.011635715141892433,-0.20267701148986816,0.16912832856178284,0.22339940071105957,0.3246426582336426,-1.8222850561141968,-0.7184246182441711,-0.8483748435974121,0.24507248401641846,0.28391116857528687
1749051268.4987056,-5.522937242184774,-0.5882777732661744,-0.692720890045166,4.852246555476942,-2.122359577809469,-3.732204262410299,0.05267378315329552,-0.03932063654065132,-0.010455713607370853,-0.20515872538089752,0.16789120435714722,0.22661462426185608,0.3131483197212219,-1.8293538093566895,-0.7176685929298401,-0.8386619687080383,0.26056310534477234,0.2555243968963623
1749051268.4987428,-5.52265584865679,-0.5884456795505066,-0.6927223205566406,4.851445930987158,-2.1217053572284144,-3.7313388029681605,0.05322203412652016,-0.04038587957620621,-0.009406013414263725,-0.21357958018779755,0.1715005487203598,0.22710585594177246,0.33803755044937134,-1.8435351848602295,-0.7440735697746277,-0.835419774055481,0.23521974682807922,0.24601051211357117
1749051268.4987795,-5.52265584865679,-0.5884456795505066,-0.6927223205566406,4.851445930987158,-2.1217053572284144,-3.7313388029681605,0.05322203412652016,-0.04038587957620621,-0.009406013414263725,-0.21357958018779755,0.1715005487203598,0.22710585594177246,0.33803755044937134,-1.8435351848602295,-0.7440735697746277,-0.835419774055481,0.23521974682807922,0.24601051211357117
1749051268.4988163,-5.522560004387991,-0.5885295432857056,-0.6927413940429688,4.851008462696829,-2.121352497731344,-3.7308879534350794,0.05349169671535492,-0.04085920378565788,-0.009319794364273548,-0.21103203296661377,0.17249777913093567,0.23044545948505402,0.3389246463775635,-1.8213672637939453,-0.7351282835006714,-0.8564868569374084,0.2461131364107132,0.2562524080276489
1749051268.4988534,-5.522494737301962,-0.5886066120914002,-0.6927929520606995,4.850601109653272,-2.1210058371173304,-3.7304185072528284,0.05389489233493805,-0.04059816524386406,-0.008739035576581955,-0.21499858796596527,0.17506162822246552,0.2250416874885559,0.34414005279541016,-1.8235987424850464,-0.7396529912948608,-0.8527975082397461,0.23525691032409668,0.2650848925113678
1749051268.498891,-5.522379819546835,-0.5887127679637452,-0.6928048133850098,4.850164311915197,-2.120617214833395,-3.729983393345968,0.05435138940811157,-0.04396817088127136,-0.009173694998025894,-0.21169279515743256,0.17747686803340912,0.2296718955039978,0.3700999617576599,-1.8288795948028564,-0.770136833190918,-0.8664830327033997,0.23537081480026245,0.29381507635116577
1749051268.4989285,-5.522232536469595,-0.5887653392604371,-0.6927929520606995,4.849722671299734,-2.1202824751483362,-3.729503933583395,0.056176815181970596,-0.04448322206735611,-0.01063367910683155,-0.2119484692811966,0.17861957848072052,0.22920985519886017,0.3121558725833893,-1.7900080680847168,-0.7578932046890259,-0.870189905166626,0.22153232991695404,0.30536773800849915
1749051268.4989655,-5.52212101617922,-0.5888374012759705,-0.692821741104126,4.849272998958387,-2.1199048201190394,-3.729001585637228,0.05597027763724327,-0.04203983396291733,-0.01148915570229292,-0.21378417313098907,0.18356725573539734,0.23133815824985504,0.33100318908691406,-1.8296576738357544,-0.7433393597602844,-0.8771533370018005,0.21771565079689026,0.28271570801734924
1749051268.4990025,-5.522021238003866,-0.5889598888209839,-0.6928455829620361,4.848834189563551,-2.119547192250387,-3.7285078207599085,0.05542568117380142,-0.043568942695856094,-0.011944407597184181,-0.21621254086494446,0.17882657051086426,0.23205651342868805,0.3299010396003723,-1.8043582439422607,-0.737600564956665,-0.8542963862419128,0.24474652111530304,0.2949937582015991
1749051268.4994125,-5.521948103104727,-0.5890285533717652,-0.6928890347480774,4.8484073905046365,-2.1191967169391077,-3.728119436894552,0.05428396537899971,-0.04325065389275551,-0.010872564278542995,-0.21874673664569855,0.17946872115135193,0.23286142945289612,0.3613450825214386,-1.8191479444503784,-0.7503135204315186,-0.8729285001754761,0.24625162780284882,0.25939884781837463
1749051268.501356,-5.5217828194247645,-0.5891125363162537,-0.6929250359535217,4.8479740647371194,-2.118887726460592,-3.7276292482959192,0.05490686371922493,-0.0447884127497673,-0.011843593791127205,-0.22183279693126678,0.17907382547855377,0.23465169966220856,0.3555164039134979,-1.800485372543335,-0.7383109331130981,-0.8716139793395996,0.2500961422920227,0.2722192108631134
1749051268.5422766,-5.521741394196646,-0.5892306131175538,-0.6929095387458801,4.847516628890791,-2.1184971968280237,-3.7271373907672327,0.05565181002020836,-0.044140659272670746,-0.012025908567011356,-0.22433289885520935,0.18060997128486633,0.23183701932430267,0.3541703522205353,-1.796496033668518,-0.7502489686012268,-0.8502358794212341,0.2471550703048706,0.29144299030303955
1749051268.5423234,-5.521617952977316,-0.5892887872508545,-0.6929416656494141,4.8470859853322885,-2.118087116871969,-3.7266421953784388,0.055898312479257584,-0.04165146127343178,-0.011609906330704689,-0.22626231610774994,0.18171127140522003,0.23506036400794983,0.3707701861858368,-1.8404209613800049,-0.7474676966667175,-0.8540495038032532,0.23850861191749573,0.2974746823310852
1749051268.5423648,-5.521478180085317,-0.5893692535213013,-0.6929693222045898,4.846645551710882,-2.117727581654684,-3.726186815892355,0.05757428705692291,-0.04378444701433182,-0.011660042218863964,-0.22409911453723907,0.18293501436710358,0.2338838279247284,0.3413030207157135,-1.8414123058319092,-0.7506132125854492,-0.8678019046783447,0.23365461826324463,0.29774224758148193
1749051268.542405,-5.521391097699301,-0.5894754689982911,-0.6929776668548584,4.84620380678729,-2.1173604170428675,-3.7257073561297815,0.0591420978307724,-0.044499993324279785,-0.011599699035286903,-0.22355720400810242,0.1838901787996292,0.23767754435539246,0.2942747473716736,-1.829399824142456,-0.7474082708358765,-0.8953498601913452,0.23873326182365417,0.3101067841053009
1749051268.5424435,-5.521263603364126,-0.5895866912654419,-0.6930017471313477,4.845729696541586,-2.1169937292682093,-3.725245777760641,0.05620178207755089,-0.044701721519231796,-0.012537828646600246,-0.22148574888706207,0.18473820388317108,0.2403581440448761,0.3632717430591583,-1.8057926893234253,-0.7428687214851379,-0.9149961471557617,0.24445731937885284,0.30303865671157837
1749051268.5424817,-5.521147910748617,-0.5896398586085816,-0.6930532455444336,4.845264363079824,-2.116594139729635,-3.7247353235827845,0.0571017861366272,-0.04515578970313072,-0.012833255343139172,-0.2234230935573578,0.184402197599411,0.24231842160224915,0.3469935357570648,-1.8166007995605469,-0.7437763810157776,-0.9484755992889404,0.2516386806964874,0.2854655981063843
1749051268.5425196,-5.521043960248129,-0.5897391599467774,-0.6930770874023438,4.844813647657194,-2.116209332142965,-3.724236790333883,0.05969146266579628,-0.045004703104496,-0.013552368618547916,-0.22743847966194153,0.1837790310382843,0.2431766837835312,0.3647991120815277,-1.827077031135559,-0.7442732453346252,-0.9284487962722778,0.2594825327396393,0.28590846061706543
1749051268.5425572,-5.520921174679891,-0.5898315471461792,-0.6931133270263672,4.844363498478689,-2.11584979692568,-3.7237606684314173,0.05913519114255905,-0.045333098620176315,-0.014169761911034584,-0.2373753935098648,0.18892642855644226,0.24633535742759705,0.3596661388874054,-1.8484597206115723,-0.7469092607498169,-0.9285010099411011,0.2569502592086792,0.2791076898574829
1749051268.5425942,-5.520778004323141,-0.5899463456920166,-0.6931410431861877,4.843893351941862,-2.115509812031881,-3.723279062901632,0.05943489074707031,-0.04633164033293724,-0.014331777580082417,-0.23941273987293243,0.1874627023935318,0.2470952570438385,0.37374967336654663,-1.8196066617965698,-0.729156494140625,-0.8992173671722412,0.26086387038230896,0.294322669506073
1749051268.5426314,-5.5206507484065455,-0.5899959367564698,-0.6931767463684082,4.843380617886343,-2.1150997320758265,-3.7227495352374476,0.06044521927833557,-0.044716835021972656,-0.013458133675158024,-0.24512813985347748,0.19234800338745117,0.24665050208568573,0.3717334270477295,-1.849988579750061,-0.7358386516571045,-0.846802294254303,0.26948246359825134,0.2991272807121277
1749051268.5426686,-5.520553175603048,-0.590086893444397,-0.6931695938110352,4.842922049551763,-2.1147010962115687,-3.722283903752462,0.06042372062802315,-0.043781258165836334,-0.01266407035291195,-0.24126030504703522,0.19269563257694244,0.24872298538684845,0.34666961431503296,-1.8345006704330444,-0.7364588975906372,-0.868471086025238,0.25611788034439087,0.3073466420173645
1749051268.5427058,-5.520357195531027,-0.5901910823634644,-0.6931746006011963,4.8424284038837335,-2.1143367926227015,-3.721772019063131,0.06083911657333374,-0.04548431560397148,-0.012391853146255016,-0.23759593069553375,0.19589351117610931,0.250416100025177,0.3673356771469116,-1.8555036783218384,-0.7520666122436523,-0.9042900204658508,0.26150190830230713,0.30703726410865784
1749051268.5427423,-5.520298902188436,-0.5902869266322632,-0.693209171295166,4.841957467585363,-2.113950554524557,-3.7213028112994593,0.061114728450775146,-0.04773188754916191,-0.012148763984441757,-0.23565459251403809,0.19743581116199493,0.25227275490760803,0.3579588234424591,-1.8249869346618652,-0.7653722763061523,-0.913109540939331,0.2650184631347656,0.30362892150878906
1749051268.5427792,-5.520167056714193,-0.590389685039856,-0.693260669708252,4.841460096627035,-2.113577667866842,-3.720734182988302,0.06168423220515251,-0.04527391865849495,-0.01327873021364212,-0.23795734345912933,0.19872424006462097,0.2575438320636749,0.35678431391716003,-1.8484485149383545,-0.739637017250061,-0.9494636058807373,0.27809587121009827,0.30658426880836487
1749051268.5428152,-5.520032648240225,-0.5904939931682129,-0.6932775974273682,4.840954738646307,-2.113170925770895,-3.7202051321612757,0.06097951903939247,-0.04591142013669014,-0.013065744191408157,-0.24368970096111298,0.19876687228679657,0.2558770179748535,0.37307873368263245,-1.8675637245178223,-0.7634694576263428,-0.9173371195793152,0.25891271233558655,0.30453985929489136
1749051268.5428517,-5.519893054162161,-0.5905694526484986,-0.6933246850967407,4.840460839658537,-2.112737480794088,-3.719708506261007,0.06204352527856827,-0.04717884585261345,-0.014464695006608963,-0.24878840148448944,0.2034371942281723,0.2601856589317322,0.375473290681839,-1.8473533391952515,-0.7593677043914795,-0.9033195376396179,0.23514781892299652,0.26428478956222534
1749051268.5428882,-5.519820634518759,-0.5906583827785035,-0.6933448314666748,4.839962604432859,-2.1123417059527796,-3.719170157109396,0.06422525644302368,-0.04946478456258774,-0.013519588857889175,-0.25353386998176575,0.199242502450943,0.26074516773223877,0.32737696170806885,-1.8477216958999634,-0.7513975501060486,-0.8680975437164307,0.26502132415771484,0.31253108382225037
1749051268.542925,-5.5196614305125635,-0.5907736581614991,-0.6933689713478088,4.839476290136137,-2.1119187513934534,-3.7186418215381067,0.06171422079205513,-0.05023996904492378,-0.013275937177240849,-0.24834181368350983,0.203627809882164,0.2642943859100342,0.3708276152610779,-1.8135905265808105,-0.7641608119010925,-0.8820184469223022,0.2553896903991699,0.2768520712852478
1749051268.5429614,-5.5195298234568995,-0.590860442524292,-0.6933963894844055,4.839021342783727,-2.1115368048297327,-3.718086067830221,0.062228716909885406,-0.04744049161672592,-0.013057036325335503,-0.24614036083221436,0.20244011282920837,0.26468485593795776,0.3442847430706024,-1.8421927690505981,-0.7617382407188416,-0.9111597537994385,0.26656198501586914,0.28538739681243896
1749051268.5429978,-5.519398335610525,-0.5909270805171509,-0.6934085488319397,4.838497715979376,-2.1111162344561976,-3.7175620237933558,0.06575778871774673,-0.05078984424471855,-0.013461471535265446,-0.24227897822856903,0.2054959088563919,0.26478680968284607,0.3261999487876892,-1.8168872594833374,-0.7709107995033264,-0.98154217004776,0.2575753629207611,0.29616475105285645
1749051268.5434303,-5.519287470971243,-0.5910577338984986,-0.6933977603912354,4.837960737734594,-2.1106675306903284,-3.717053000126974,0.06188472732901573,-0.05215787887573242,-0.013588042929768562,-0.24492211639881134,0.2080584615468979,0.2668743431568146,0.35807180404663086,-1.815427303314209,-0.7669402956962585,-0.9827378988265991,0.25169268250465393,0.2912226617336273
1749051268.5453584,-5.519124750291006,-0.5911689561656495,-0.6934385299682617,4.837490069657125,-2.110217873250143,-3.716501061116354,0.06383303552865982,-0.0524914525449276,-0.01332070305943489,-0.2527681589126587,0.20965294539928436,0.26684433221817017,0.39377012848854065,-1.8069565296173096,-0.7807427048683167,-0.9932577610015869,0.244186133146286,0.2955401837825775
1749051268.5862746,-5.519024256859915,-0.5912613433650513,-0.693500816822052,4.836979518621721,-2.109833065663473,-3.715926472340719,0.06490246951580048,-0.05302372947335243,-0.014003690332174301,-0.26050493121147156,0.21170899271965027,0.2716951370239258,0.35342609882354736,-1.7923264503479004,-0.7771211862564087,-0.9400675296783447,0.2407587170600891,0.26971080899238586
1749051268.5863209,-5.518872443829672,-0.5913412135890503,-0.6935091018676758,4.836434769421377,-2.109429661427633,-3.715426031743185,0.06546519696712494,-0.0532849095761776,-0.013891962356865406,-0.2692944407463074,0.2115924060344696,0.27243536710739136,0.3826952278614044,-1.8087915182113647,-0.7979827523231506,-0.9100265502929688,0.24825835227966309,0.32355329394340515
1749051268.5863628,-5.5187100807773035,-0.5914762777141114,-0.6935174465179443,4.835893291025915,-2.1090038458453577,-3.7148945967303675,0.06689382344484329,-0.05371769517660141,-0.014782239682972431,-0.26645419001579285,0.2147918939590454,0.27563509345054626,0.34008628129959106,-1.772817611694336,-0.7642874121665955,-0.8963238596916199,0.22749316692352295,0.2903141677379608
1749051268.586403,-5.51858634153475,-0.5915532869151612,-0.6935417652130127,4.835383388191023,-2.1085460821734827,-3.714327637349264,0.06704859435558319,-0.05257159098982811,-0.013944580219686031,-0.26213178038597107,0.21410834789276123,0.2775333821773529,0.320632666349411,-1.7916282415390015,-0.7876361608505249,-0.9151780605316162,0.2581898868083954,0.28512680530548096
1749051268.5864418,-5.518465582524435,-0.5917146962932129,-0.6935501098632812,4.834842036455431,-2.108126465474264,-3.7137699762927454,0.06578826159238815,-0.051578324288129807,-0.01347442902624607,-0.26030588150024414,0.21637845039367676,0.2814655601978302,0.3338882625102997,-1.8079276084899902,-0.7746513485908508,-0.9719950556755066,0.24547377228736877,0.26156145334243774
1749051268.5864794,-5.518311146889822,-0.5917728704265137,-0.6936051845550537,4.834318893938818,-2.1077454725848597,-3.7131903807269495,0.06649641692638397,-0.05131452530622482,-0.013079867698252201,-0.2637704908847809,0.2164650857448578,0.2826906144618988,0.3729700446128845,-1.853448510169983,-0.7966898679733276,-0.9759528040885925,0.2532591223716736,0.28572148084640503
1749051268.5865166,-5.518186871205465,-0.5918721717647095,-0.693641185760498,4.833785044937887,-2.107264820729391,-3.712578598652975,0.0674765333533287,-0.051734890788793564,-0.014665286988019943,-0.2719022035598755,0.21901001036167145,0.2825518548488617,0.32727527618408203,-1.813116192817688,-0.7873955965042114,-0.9450213313102722,0.2506577968597412,0.27401623129844666
1749051268.5865545,-5.518020514641897,-0.592003659611084,-0.6936772465705872,4.833250726550379,-2.106868092213766,-3.7120145002948206,0.0666809007525444,-0.05107453465461731,-0.015321807004511356,-0.2811844050884247,0.22019879519939423,0.2836076021194458,0.34104931354522705,-1.843108892440796,-0.7802941799163818,-0.8745256066322327,0.24746322631835938,0.2977633774280548
1749051268.5865917,-5.517899696026937,-0.5921148818782349,-0.6937322616577148,4.832690651505747,-2.1063759962665003,-3.7113989035235804,0.06705757230520248,-0.05135620757937431,-0.015643255785107613,-0.27902939915657043,0.22016891837120056,0.2842440903186798,0.31142768263816833,-1.8446290493011475,-0.7695838212966919,-0.8954868912696838,0.2702005207538605,0.2854776680469513
1749051268.586629,-5.517788950596945,-0.5922038120082398,-0.6937370300292969,4.832121054619112,-2.1058982054339808,-3.7108739058123987,0.0680907592177391,-0.05225328728556633,-0.015681622549891472,-0.27691760659217834,0.22276253998279572,0.2862660884857178,0.32959339022636414,-1.8785593509674072,-0.7740002870559692,-0.8738905191421509,0.28240466117858887,0.29009562730789185
1749051268.5866659,-5.517672840748922,-0.5923344653895875,-0.6937696933746338,4.831575388997354,-2.105467144642965,-3.7102680842029017,0.06851711124181747,-0.05177810415625572,-0.016719266772270203,-0.27248236536979675,0.22333358228206635,0.28656163811683655,0.3261086642742157,-1.8608522415161133,-0.7541564106941223,-0.9340738654136658,0.2336653470993042,0.29310810565948486
1749051268.5867026,-5.517513815556661,-0.5924199384501954,-0.6938558220863342,4.831018048315801,-2.1050384680377405,-3.709757391606466,0.06915692239999771,-0.05213364213705063,-0.017085911706089973,-0.27189716696739197,0.22695522010326385,0.2916456460952759,0.34828418493270874,-1.8331564664840698,-0.7692862749099731,-0.9414812326431274,0.26431289315223694,0.26802515983581543
1749051268.5867388,-5.51738149324526,-0.5925122064403077,-0.6938691139221191,4.830474789231577,-2.1045873800860804,-3.7091642061816614,0.06803569942712784,-0.05234237387776375,-0.016417507082223892,-0.2763462960720062,0.2261228710412979,0.2904260754585266,0.3698764145374298,-1.850642442703247,-0.7619320154190063,-0.9638000726699829,0.22475214302539825,0.3073055148124695
1749051268.5867753,-5.517249528561727,-0.5926234287074585,-0.6938965320587158,4.829921427160063,-2.1041014830218714,-3.7085984388934534,0.07194500416517258,-0.053528204560279846,-0.016348589211702347,-0.2848099172115326,0.2269504815340042,0.2929690182209015,0.31343981623649597,-1.8433562517166138,-0.7556710839271545,-0.9001888632774353,0.24759703874588013,0.31343284249305725
1749051268.5868115,-5.51712149778475,-0.5927500289729615,-0.6939566731452942,4.829316827445783,-2.1036742369281214,-3.7079883257495325,0.06783994287252426,-0.05344210937619209,-0.016349388286471367,-0.2923935651779175,0.22842825949192047,0.2956591546535492,0.2951475977897644,-1.7219141721725464,-0.7102743983268738,-0.7770962119102478,0.2154206931591034,0.24960239231586456
1749051268.586848,-5.516962472592489,-0.5928549331477662,-0.6939807534217834,4.828762437194147,-2.1032279173480433,-3.7073524633990687,0.06534460186958313,-0.04949348419904709,-0.014901121146976948,-0.2843230962753296,0.2270958423614502,0.29304027557373047,0.30677610635757446,-1.80111825466156,-0.7089189887046814,-0.7834864854812622,0.21903538703918457,0.252307653427124
1749051268.5868843,-5.516674760972158,-0.5930654567531128,-0.6940491199493408,4.827639210015096,-2.1024039427386683,-3.7062533537494105,0.06580322235822678,-0.04962627962231636,-0.014131953939795494,-0.2736579179763794,0.22537752985954285,0.29167434573173523,0.42352789640426636,-1.9243602752685547,-0.8064318895339966,-0.943281888961792,0.31670600175857544,0.34849584102630615
1749051268.5869212,-5.516674760972158,-0.5930654567531128,-0.6940491199493408,4.827639210015096,-2.1024039427386683,-3.7062533537494105,0.06580322235822678,-0.04962627962231636,-0.014131953939795494,-0.2736579179763794,0.22537752985954285,0.29167434573173523,0.42352789640426636,-1.9243602752685547,-0.8064318895339966,-0.943281888961792,0.31670600175857544,0.34849584102630615
1749051268.586959,-5.5165374914752405,-0.5932123822024842,-0.694072961807251,4.827089722245493,-2.1019490400897425,-3.7056670824633997,0.07255018502473831,-0.05710114538669586,-0.018611738458275795,-0.28316622972488403,0.22630484402179718,0.29261770844459534,0.3792171776294708,-1.8638713359832764,-0.7673684358596802,-0.9277290105819702,0.33292797207832336,0.37507113814353943
1749051268.5869963,-5.5163812080966395,-0.5933137697032471,-0.6941125392913818,4.826496968954363,-2.101499859486715,-3.7050448099719446,0.07515501976013184,-0.06063244491815567,-0.02189629152417183,-0.2956017851829529,0.2347160130739212,0.2986897826194763,0.3326628804206848,-1.7945274114608765,-0.7301591038703918,-0.8630177974700928,0.3150816559791565,0.3812597692012787
1749051268.587391,-5.516260866318838,-0.5933907789042969,-0.6941521763801575,4.825907814293661,-2.1009743849383753,-3.7044552008258265,0.07555682212114334,-0.06230301409959793,-0.021258670836687088,-0.2961087226867676,0.23638293147087097,0.30431750416755676,0.33267420530319214,-1.7613704204559326,-0.7217127680778503,-0.8339784145355225,0.3094356656074524,0.36100998520851135
1749051268.5893722,-5.5160619656192225,-0.593548135166504,-0.6941812634468079,4.825333061605253,-2.1004894415484827,-3.7038052717791956,0.07568955421447754,-0.05839363858103752,-0.020019657909870148,-0.29491519927978516,0.24151527881622314,0.3091689646244049,0.3390856981277466,-1.842970371246338,-0.7500712871551514,-0.8342955112457275,0.2939615845680237,0.3304370641708374
1749051268.6302843,-5.5159458557712,-0.5936061900905152,-0.6942086219787598,4.824731963663854,-2.100032631550924,-3.703207317982809,0.07607085257768631,-0.05922476574778557,-0.019147787243127823,-0.2897438108921051,0.2432193160057068,0.3119235038757324,0.30179816484451294,-1.8056074380874634,-0.7303244471549988,-0.8671045303344727,0.28989553451538086,0.31564807891845703
1749051268.630331,-5.515814248715536,-0.5937720102122803,-0.694237470626831,4.824130806117811,-2.0995095411883753,-3.7025678793536585,0.07437059283256531,-0.0574956089258194,-0.018694963306188583,-0.28901609778404236,0.24447284638881683,0.3139331638813019,0.2829248011112213,-1.7696667909622192,-0.7200320363044739,-0.9021648168563843,0.28382086753845215,0.30304697155952454
1749051268.6303716,-5.5156524817096155,-0.5938576620868226,-0.6942651867866516,4.823564472585478,-2.098980728779928,-3.7019642035113733,0.07288306951522827,-0.055601343512535095,-0.015558873303234577,-0.2920955419540405,0.2494056671857834,0.3160957992076874,0.33612361550331116,-1.7956304550170898,-0.7294921278953552,-0.9246430397033691,0.2637366056442261,0.3318355083465576
1749051268.6304102,-5.515508715306417,-0.5939960044673462,-0.6943008899688721,4.822946752398767,-2.0984886328326624,-3.701336447392599,0.07282066345214844,-0.05569392070174217,-0.013491321355104446,-0.3007141351699829,0.24750103056430817,0.31690213084220886,0.33809250593185425,-1.8720436096191406,-0.783747136592865,-0.8819336891174316,0.25853806734085083,0.35635456442832947
1749051268.6304479,-5.515333358441488,-0.5941385191730042,-0.6943178176879883,4.822322639613905,-2.0980356375323694,-3.7006853262530726,0.072518490254879,-0.057914309203624725,-0.015069141983985901,-0.3075556755065918,0.25184181332588196,0.3196738362312317,0.39243084192276,-1.8097716569900513,-0.7925888299942017,-0.8126378059387207,0.21095991134643555,0.33297213912010193
1749051268.6304862,-5.515158836041586,-0.594212071304657,-0.6943609714508057,4.821728634625234,-2.0974791685687464,-3.700055185948507,0.07648756355047226,-0.05728743225336075,-0.016638344153761864,-0.3035169839859009,0.25101324915885925,0.32550913095474243,0.34858548641204834,-1.8091293573379517,-0.7444582581520081,-0.8343399167060852,0.2259150743484497,0.3152192533016205
1749051268.6305242,-5.514991585408346,-0.5943232935718079,-0.6943973302841187,4.821114513068952,-2.0970471541034144,-3.6994131247149866,0.07571348547935486,-0.05944909155368805,-0.01692800782620907,-0.2979099452495575,0.2509699761867523,0.32876327633857727,0.3215077817440033,-1.8203485012054443,-0.7522578835487366,-0.8742823600769043,0.23661218583583832,0.31069034337997437
1749051268.630561,-5.514897112046377,-0.5944324892810364,-0.6944487690925598,4.82047517129735,-2.096501175557272,-3.6987667719470423,0.07565854489803314,-0.05755263939499855,-0.016496287658810616,-0.29717588424682617,0.2496871054172516,0.3256795406341553,0.3717743158340454,-1.8316093683242798,-0.7620702981948853,-0.9458789229393005,0.26933225989341736,0.3446929156780243
1749051268.6305993,-5.51471990743746,-0.5945938986590882,-0.6944844126701355,4.819872575789251,-2.0959728399859827,-3.6981058756457728,0.0770968422293663,-0.055805910378694534,-0.01792038045823574,-0.30336758494377136,0.24997878074645996,0.32819774746894836,0.31967175006866455,-1.8581355810165405,-0.7490071058273315,-0.9135835766792297,0.2753770351409912,0.35164493322372437
1749051268.6306376,-5.5145695249186915,-0.5946640533259888,-0.6945396065711975,4.819250713079729,-2.0954583326922815,-3.697392288838522,0.07609941810369492,-0.05801452323794365,-0.017781168222427368,-0.30934619903564453,0.24971997737884521,0.3325324058532715,0.3444552421569824,-1.8308827877044678,-0.7328113913536072,-0.8762420415878296,0.300570547580719,0.33740538358688354
1749051268.6306753,-5.51441997686495,-0.5947613281062623,-0.6945683360099792,4.818605589657583,-2.095001522694723,-3.696716372166769,0.07657341659069061,-0.06054871156811714,-0.017469769343733788,-0.3151644468307495,0.2521001994609833,0.33524656295776367,0.3770752251148224,-1.8602205514907837,-0.767848551273346,-0.8697115182876587,0.291473388671875,0.31392309069633484
1749051268.6307125,-5.514234666024343,-0.5949067038348694,-0.6945853233337402,4.817987951427259,-2.094498936329977,-3.69603139558901,0.07844012975692749,-0.059977937489748,-0.0194413959980011,-0.3158857226371765,0.25489312410354614,0.3339787721633911,0.3686094880104065,-1.8378278017044067,-0.748406708240509,-0.8540670871734619,0.3313449025154114,0.30331212282180786
1749051268.6307502,-5.514109079037802,-0.595020131473877,-0.6946299076080322,4.817359152227201,-2.093975845967428,-3.6953094641314905,0.07852791249752045,-0.059984706342220306,-0.019697843119502068,-0.3164694905281067,0.25603172183036804,0.3314778804779053,0.32445991039276123,-1.813623309135437,-0.7175902128219604,-0.8460164666175842,0.2930428981781006,0.3193570673465729
1749051268.6307878,-5.513952974473135,-0.5952018064311524,-0.6946766972541809,4.816737624793806,-2.093418900166647,-3.6946876684771937,0.07738111168146133,-0.05893467366695404,-0.018376123160123825,-0.3158862888813019,0.2575763165950775,0.33213019371032715,0.32654571533203125,-1.8027637004852295,-0.7023521065711975,-0.8922849893569946,0.2886452078819275,0.3381902873516083
1749051268.6308253,-5.513774696980612,-0.5953402680209656,-0.6947281956672668,4.816123756557264,-2.0929210821734827,-3.6940372625934046,0.07615406811237335,-0.059081871062517166,-0.01716354861855507,-0.3186189532279968,0.2601901590824127,0.3330010771751404,0.3833860754966736,-1.8490936756134033,-0.7333967089653015,-0.8680224418640137,0.29708629846572876,0.353008896112442
1749051268.6308622,-5.513595406209127,-0.5953642886928101,-0.6947606205940247,4.815467703133383,-2.0923035780536097,-3.693331305180685,0.07694045454263687,-0.06001828610897064,-0.01638900116086006,-0.32168126106262207,0.264260858297348,0.3392327129840851,0.36588722467422485,-1.8308982849121094,-0.7501438856124878,-0.8889884948730469,0.2769109904766083,0.35467633605003357
1749051268.6308997,-5.513487283383505,-0.5955299300006409,-0.6947653293609619,4.814841571241178,-2.0918143431292933,-3.692612950001852,0.07815182954072952,-0.06075793132185936,-0.017337461933493614,-0.3183857500553131,0.2640247941017151,0.34037113189697266,0.3639560043811798,-1.809598684310913,-0.7153657674789429,-0.8806808590888977,0.2392326146364212,0.31928637623786926
1749051268.6309373,-5.513303760682241,-0.5956411522677918,-0.6948363184928894,4.814208093076505,-2.0912864843951624,-3.691962782536642,0.07922579348087311,-0.06063694879412651,-0.01709889806807041,-0.31858524680137634,0.26743772625923157,0.34183624386787415,0.35914647579193115,-1.8326376676559448,-0.728589653968811,-0.8956205248832703,0.2502271831035614,0.3328309953212738
1749051268.6309743,-5.513151947651998,-0.5957698983005066,-0.6948686838150024,4.813543329923906,-2.090761963521139,-3.6912840048419397,0.08177601546049118,-0.06158300116658211,-0.017494704574346542,-0.32245108485221863,0.26434525847435,0.3439815938472748,0.3934062421321869,-1.8379697799682617,-0.741165280342102,-0.9191972613334656,0.26500096917152405,0.3508334457874298
1749051268.6310112,-5.512977782879965,-0.5958860081485291,-0.6948888301849365,4.812901812582769,-2.090210739766256,-3.6905177275287073,0.08116332441568375,-0.06348290294408798,-0.018854668363928795,-0.32719603180885315,0.2645045220851898,0.34920117259025574,0.35513025522232056,-1.812199592590332,-0.7257160544395447,-0.9065173864364624,0.2735200822353363,0.34484511613845825
1749051268.6313734,-5.512813274060385,-0.5960028332522889,-0.6949284076690674,4.812225635140695,-2.08966571489443,-3.6898558775531214,0.0810755267739296,-0.0653834268450737,-0.0189337320625782,-0.33002951741218567,0.2653660476207733,0.35245805978775024,0.35988324880599976,-1.7831484079360962,-0.7300378680229187,-0.8912804126739502,0.2827689051628113,0.2919529676437378
1749051268.6333807,-5.512677077447073,-0.5961373013309021,-0.6949381828308105,4.811575661390581,-2.0891974608050745,-3.689077679310934,0.08490514010190964,-0.06514982134103775,-0.01861686259508133,-0.3305116295814514,0.26631996035575867,0.35066282749176025,0.34281980991363525,-1.8352651596069336,-0.7411535382270813,-0.9034151434898376,0.3096534013748169,0.3142372667789459
1749051268.6742904,-5.512518171464102,-0.5962346953204651,-0.6949968338012695,4.810902963369646,-2.088626209889547,-3.688349787388937,0.08363214880228043,-0.06907572597265244,-0.020110132172703743,-0.32858559489250183,0.2699131965637207,0.3484399616718292,0.35941147804260254,-1.720978021621704,-0.6989798545837402,-0.9262551665306091,0.2856590151786804,0.2828519940376282
1749051268.6743367,-5.512292269860403,-0.5964164894870301,-0.6950328946113586,4.810261267214575,-2.0880568663226526,-3.687709156666891,0.08470291644334793,-0.06532733887434006,-0.017576422542333603,-0.329039067029953,0.27371472120285034,0.34699875116348267,0.34111711382865906,-1.7732973098754883,-0.7297201752662659,-0.9293444752693176,0.26084423065185547,0.31812912225723267
1749051268.6743777,-5.512124244366781,-0.5965206784060975,-0.6950724124908447,4.809603507607736,-2.0875099341021937,-3.687003199254171,0.08383732289075851,-0.06497004628181458,-0.016702203080058098,-0.3357035517692566,0.269546240568161,0.34901300072669983,0.35363513231277466,-1.79494047164917,-0.7494474053382874,-0.9711958169937134,0.3019527196884155,0.33020567893981934
1749051268.6744235,-5.512124244366781,-0.5965206784060975,-0.6950724124908447,4.809603507607736,-2.0875099341021937,-3.687003199254171,0.08383732289075851,-0.06497004628181458,-0.016702203080058098,-0.3357035517692566,0.269546240568161,0.34901300072669983,0.35363513231277466,-1.79494047164917,-0.7494474053382874,-0.9711958169937134,0.3019527196884155,0.33020567893981934
1749051268.6744661,-5.512019697819845,-0.5966717165759583,-0.6950616240501404,4.80888798364953,-2.086928669606344,-3.6862884203540247,0.08298027515411377,-0.06590944528579712,-0.016091277822852135,-0.33903899788856506,0.2723461091518402,0.35310429334640503,0.38866961002349854,-1.7858891487121582,-0.761864960193634,-0.9515627026557922,0.28026115894317627,0.343313992023468
1749051268.6745057,-5.511669460927145,-0.5969234865954895,-0.6951563358306885,4.807565997331896,-2.0858266989337366,-3.6848297754870813,0.0834355279803276,-0.06634259968996048,-0.01750943250954151,-0.33947524428367615,0.278346985578537,0.35475775599479675,0.42873990535736084,-1.7890071868896484,-0.7631288170814514,-0.9638266563415527,0.28508251905441284,0.3432977795600891
1749051268.6745434,-5.511458400879995,-0.5970516365817566,-0.6951887607574463,4.806900012284078,-2.0852678457843226,-3.6841507593738,0.0842369943857193,-0.06525517255067825,-0.017443859949707985,-0.3394666314125061,0.2837059199810028,0.3585793077945709,0.38256239891052246,-1.8033101558685303,-0.7558316588401794,-0.9705238938331604,0.27136027812957764,0.3320176899433136
1749051268.674581,-5.511290911828176,-0.5972025555423279,-0.6952164769172668,4.8062104908521555,-2.084717575703756,-3.6834362188922327,0.0869770497083664,-0.06684049963951111,-0.017717916518449783,-0.3438234329223633,0.27927103638648987,0.3639698624610901,0.33972886204719543,-1.7599018812179565,-0.7491077184677124,-0.9478291273117065,0.2524573802947998,0.30468136072158813
1749051268.6746185,-5.511139277611868,-0.5972964924624939,-0.6952402591705322,4.805514055281439,-2.084083859120504,-3.682657782231466,0.08247146010398865,-0.06243711709976196,-0.01689697802066803,-0.34774455428123474,0.27889832854270935,0.3679077923297882,0.3916884660720825,-1.8286101818084717,-0.7699151039123535,-0.9498176574707031,0.245316743850708,0.3177339434623718
1749051268.674656,-5.510948125516073,-0.5974348944476624,-0.6952693462371826,4.8048105267579935,-2.0835726896869105,-3.6819258371936243,0.08274982124567032,-0.06223789229989052,-0.017438979819417,-0.3482898771762848,0.27849313616752625,0.3678198754787445,0.3241727352142334,-1.7272597551345825,-0.7124177813529968,-0.8790819048881531,0.2436036318540573,0.21841299533843994
1749051268.6746933,-5.510823790227072,-0.5975670975497742,-0.6953245401382446,4.804108674615183,-2.083045307789938,-3.681227986012594,0.0818985104560852,-0.06112103536725044,-0.016016507521271706,-0.34298819303512573,0.27838075160980225,0.36113542318344116,0.39595896005630493,-1.8967560529708862,-0.7942323684692383,-0.9939855933189392,0.3050658106803894,0.34231123328208923
1749051268.6747305,-5.5106210748301905,-0.5977209371379395,-0.695380687713623,4.803410778730669,-2.082475487385885,-3.680535380040304,0.08516733348369598,-0.06280376762151718,-0.018147200345993042,-0.34768936038017273,0.281136691570282,0.3605285584926605,0.4433448910713196,-1.866721272468567,-0.7889270186424255,-0.9901553988456726,0.30547410249710083,0.3817102313041687
1749051268.6747706,-5.510441784058706,-0.5978028935245057,-0.6954011917114258,4.802722203522482,-2.081850830708639,-3.6797972361194056,0.08918587863445282,-0.06498017907142639,-0.021129051223397255,-0.35814598202705383,0.28623923659324646,0.36629319190979004,0.4094879627227783,-1.893957257270813,-0.7586982846260071,-0.9638734459877014,0.29976537823677063,0.3650899827480316
1749051268.6748083,-5.510257963334219,-0.5979740780643006,-0.6954371929168701,4.802019949048319,-2.0813191572772425,-3.6790295282946985,0.09070710092782974,-0.06717165559530258,-0.023490475490689278,-0.36538153886795044,0.28717249631881714,0.37238365411758423,0.3586685061454773,-1.8435800075531006,-0.7277036905288696,-0.9367749094963074,0.2884061932563782,0.3412412405014038
1749051268.6748447,-5.510095123444692,-0.5980978173068543,-0.6955008506774902,4.801284338324823,-2.0807445685016077,-3.67834717432131,0.09045522660017014,-0.06732826679944992,-0.023196972906589508,-0.36531513929367065,0.2894870936870575,0.3759921193122864,0.37120887637138367,-1.8516780138015747,-0.7399019598960876,-0.8885701894760132,0.25170814990997314,0.32268375158309937
1749051268.674881,-5.509903315697805,-0.5982294243625184,-0.6955560445785522,4.800602185517111,-2.0802272001849573,-3.677609984074728,0.09130623191595078,-0.0679345652461052,-0.022236760705709457,-0.3622756004333496,0.29167309403419495,0.37591543793678284,0.3633905351161957,-1.8335864543914795,-0.7460243105888367,-0.936897873878479,0.273277223110199,0.3542335033416748
1749051268.6749225,-5.509727780018942,-0.5983545941165467,-0.695615828037262,4.799838694721021,-2.0796101729022425,-3.67688495317568,0.09160826355218887,-0.06541284918785095,-0.02166774496436119,-0.35898661613464355,0.2890668511390686,0.381510853767395,0.35751599073410034,-1.8753924369812012,-0.7197399735450745,-0.9510195255279541,0.29918181896209717,0.35756078362464905
1749051268.6749606,-5.509497169648306,-0.5984924000552674,-0.6956518888473511,4.799121941417017,-2.078994099293844,-3.676082197819845,0.09139784425497055,-0.06729184836149216,-0.021356606855988503,-0.3614291250705719,0.2916395962238312,0.38790690898895264,0.31624066829681396,-1.8377264738082886,-0.7199414372444153,-0.9666987657546997,0.2984922230243683,0.3305732011795044
1749051268.6749997,-5.509392742310659,-0.5986206096461792,-0.695672333240509,4.798364142864504,-2.0784061590777796,-3.6752620379077356,0.08761383593082428,-0.06421688944101334,-0.019600680097937584,-0.3670308291912079,0.297762930393219,0.3917563557624817,0.4033699631690979,-1.8853120803833008,-0.7465208768844604,-0.9277961254119873,0.28516530990600586,0.30627965927124023
